ramyac6/ROB537/final_project/csv/all/bad_147.csv
tof_0,tof_1,accelx,accely,accelz,gyrox,gyroy,gyroz,shoulder_lift_joint_position,shoulder_lift_joint_velocity,shoulder_lift_joint_effort,elbow_joint_position,elbow_joint_velocity,elbow_joint_effort,wrist_1_joint_position,wrist_1_joint_velocity,wrist_1_joint_effort,wrist_2_joint_position,wrist_2_joint_velocity,wrist_2_joint_effort,wrist_3_joint_position,wrist_3_joint_velocity,wrist_3_joint_effort,shoulder_pan_joint_position,shoulder_pan_joint_velocity,shoulder_pan_joint_effort
946.0,939.0,1.206,0.2195,9.4271,-0.0374,0.0276,-0.122,-1.7842947445311488,0.0,2.859036445617676,-1.8744679689407349,-0.0,1.9255845546722412,5.001187848835745,-0.0,0.2947857677936554,-1.5972541014300745,-0.0,-0.009878389537334442,0.784029483795166,-0.0,-0.005422714166343212,0.7793634533882141,0.0,-0.019218316301703453
946.0,939.0,1.206,0.2195,9.4271,-0.0374,0.0276,-0.122,-1.7843433819212855,0.0,2.8468589782714844,-1.8744763135910034,-0.0,1.9356391429901123,5.001159924059667,-0.0,0.3051852583885193,-1.5972860495196741,-0.0,0.004607149865478277,0.7841020226478577,-0.0,-0.009398634545505047,0.7793191075325012,0.0,0.0191112719476223
946.0,939.0,1.206,0.2195,9.4271,-0.0374,0.0276,-0.122,-1.7843309841551722,0.0,2.8658547401428223,-1.8744969367980957,-0.0,1.955446720123291,5.001139837294378,-0.0,0.29283013939857483,-1.597217861806051,-0.0,0.0031870866660028696,0.7840090394020081,-0.0,0.013889393769204617,0.7792990803718567,0.0,0.023913631215691566
946.0,939.0,1.206,0.2195,9.4271,-0.0374,0.0276,-0.122,-1.7843276462950648,0.0,2.871443271636963,-1.8745051622390747,-0.0,1.9062098264694214,5.001131671458044,-0.0,0.30298131704330444,-1.5972860495196741,-0.0,-0.022649070248007774,0.7840697169303894,-0.0,-0.0044389758259058,0.779383659362793,0.0,0.03879736736416817
946.0,939.0,1.206,0.2195,9.4271,-0.0374,0.0276,-0.122,-1.7843758068480433,0.0,2.85007381439209,-1.8745051622390747,-0.0,1.9694647789001465,5.001123833447256,-0.0,0.2919193208217621,-1.5973098913775843,-0.0,-0.01942266710102558,0.7839849591255188,-0.0,-0.0021308218128979206,0.7793554663658142,0.0,-0.027914557605981827
946.0,939.0,1.206,0.2195,9.4271,-0.0374,0.0276,-0.122,-1.7843109569945277,0.0,2.829246997833252,-1.8745330572128296,-0.0,1.9766924381256104,5.0011558411415,-0.0,0.283785879611969,-1.597274128590719,-0.0,-0.011377474293112755,0.7840049862861633,-0.0,0.0009424247546121478,0.7792827486991882,0.0,0.0006802063435316086
946.0,939.0,1.206,0.2195,9.4271,-0.0374,0.0276,-0.122,-1.7843471966185511,0.0,2.892167806625366,-1.8745496273040771,-0.0,1.990616798400879,5.001187848835745,-0.0,0.30973488092422485,-1.5972617308246058,-0.0,-0.0028931840788573027,0.7840172648429871,-0.0,-0.011282084509730339,0.7793311476707458,0.0,0.000253989826887846
946.0,939.0,1.206,0.2195,9.4271,-0.0374,0.0276,-0.122,-1.7843190632262171,0.0,2.8610267639160156,-1.8745125532150269,-0.0,1.9228463172912598,5.001131701260366,-0.0,0.2890319526195526,-1.5972860495196741,-0.0,-0.006542847026139498,0.7839927077293396,-0.0,-0.0015307064168155193,0.7793634533882141,0.0,0.02207297645509243
946.0,939.0,1.206,0.2195,9.4271,-0.0374,0.0276,-0.122,-1.7843309841551722,0.0,2.875786304473877,-1.8744969367980957,-0.0,1.9412785768508911,5.001135754376211,-0.0,0.283965528011322,-1.5972617308246058,-0.0,-0.00613805279135704,0.7840409874916077,-0.0,0.001446518232114613,0.7793391346931458,0.0,0.025407157838344574
954.0,949.0,1.1013,0.2195,9.3894,-0.0409,0.0194,-0.1226,-1.7843276462950648,0.0,2.831780433654785,-1.8744804859161377,-0.0,1.9528144598007202,5.001123833447256,-0.0,0.2847263514995575,-1.59723407426943,-0.0,-0.005363509990274906,0.7840734124183655,-0.0,0.00866003893315792,0.7793391346931458,0.0,0.018984317779541016
954.0,949.0,1.1013,0.2195,9.3894,-0.0409,0.0194,-0.1226,-1.7843395672240199,0.0,2.8460030555725098,-1.8745415210723877,-0.0,1.929792046546936,5.00117968299941,-0.0,0.2914940416812897,-1.5972936789142054,-0.0,-0.010839587077498436,0.7840734124183655,-0.0,-0.005100334528833628,0.7793675065040588,0.0,0.004719838500022888
954.0,949.0,1.1013,0.2195,9.3894,-0.0409,0.0194,-0.1226,-1.7843672237791957,0.0,2.8759093284606934,-1.8745415210723877,-0.0,1.9790232181549072,5.001179653197088,-0.0,0.2879675626754761,-1.597274128590719,-0.0,-0.02215457335114479,0.7840332984924316,-0.0,-0.014647314324975014,0.7793391346931458,0.0,-0.002254762686789036
954.0,949.0,1.1013,0.2195,9.3894,-0.0409,0.0194,-0.1226,-1.7843028507628382,0.0,2.8732552528381348,-1.8745042085647583,-0.0,1.9269659519195557,5.001159924059667,-0.0,0.29164087772369385,-1.5972502867328089,-0.0,0.0003319412935525179,0.7840332984924316,-0.0,0.005384308286011219,0.7793675065040588,0.0,0.007747925817966461
954.0,949.0,1.1013,0.2195,9.3894,-0.0409,0.0194,-0.1226,-1.7843152485289515,0.0,2.8522043228149414,-1.8744639158248901,-0.0,1.9560163021087646,5.001151758223333,-0.0,0.28771841526031494,-1.5972936789142054,-0.0,0.0005770770949311554,0.7840979695320129,-0.0,-0.005551210604608059,0.7793554663658142,0.0,-0.0032765157520771027
954.0,949.0,1.1013,0.2195,9.3894,-0.0409,0.0194,-0.1226,-1.7843672237791957,0.0,2.846764326095581,-1.874492883682251,-0.0,1.9543362855911255,5.001143622189321,-0.0,0.2900199890136719,-1.5972817579852503,-0.0,-0.008997434750199318,0.7840048670768738,-0.0,-0.0001845019869506359,0.7793595194816589,0.0,-0.012925805523991585
954.0,949.0,1.1013,0.2195,9.3894,-0.0409,0.0194,-0.1226,-1.7843395672240199,0.0,2.8630785942077637,-1.874492883682251,-0.0,1.9239227771759033,5.001148003130712,-0.0,0.2902364730834961,-1.5972817579852503,-0.0,-0.01037362776696682,0.7839890122413635,-0.0,-0.002305628964677453,0.7793311476707458,0.0,0.015213947743177414
954.0,949.0,1.1013,0.2195,9.3894,-0.0409,0.0194,-0.1226,-1.7842704258360804,0.0,2.8876237869262695,-1.8744679689407349,-0.0,1.9161977767944336,5.001135754376211,-0.0,0.28763818740844727,-1.5972898642169397,-0.0,-0.004281304776668549,0.7840856909751892,-0.0,-0.008674432523548603,0.779387354850769,0.0,0.04773607850074768
954.0,949.0,1.1013,0.2195,9.3894,-0.0409,0.0194,-0.1226,-1.7842947445311488,0.0,2.811352252960205,-1.8745124340057373,-0.0,1.9457480907440186,5.001103448658743,-0.0,0.3040323257446289,-1.5972378889666956,-0.0,-0.007995672523975372,0.7840377688407898,-0.0,-0.006777446251362562,0.77934730052948,0.0,0.016430841758847237
954.0,949.0,1.1013,0.2195,9.3894,-0.0409,0.0194,-0.1226,-1.7843190632262171,0.0,2.8827056884765625,-1.8745166063308716,-0.0,1.9397218227386475,5.001211988716879,-0.0,0.2970706820487976,-1.5972817579852503,-0.0,-0.007395585533231497,0.7840815782546997,-0.0,-0.010520527139306068,0.7793310284614563,0.0,-0.027345851063728333
954.0,949.0,1.1013,0.2195,9.3894,-0.0409,0.0194,-0.1226,-1.7843152485289515,0.0,2.8661952018737793,-1.874436855316162,-0.0,1.8848882913589478,5.0012079057987116,-0.0,0.29558491706848145,-1.5972617308246058,-0.0,-0.004054931458085775,0.7841140031814575,-0.0,0.0014166892506182194,0.7793229222297668,0.0,-0.0018609464168548584
954.0,949.0,1.1013,0.2195,9.3894,-0.0409,0.0194,-0.1226,-1.7843276462950648,0.0,2.7877285480499268,-1.8744888305664062,-0.0,1.9570013284683228,5.001187848835745,-0.0,0.29628217220306396,-1.5972860495196741,-0.0,-0.003716312814503908,0.7840496897697449,-0.0,-0.010046678595244884,0.7793795466423035,0.0,0.020565731450915337
954.0,949.0,1.1013,0.2195,9.3894,-0.0409,0.0194,-0.1226,-1.7843433819212855,0.0,2.853865146636963,-1.8745206594467163,-0.0,1.9328404664993286,5.001143920212545,-0.0,0.27313220500946045,-1.5972421805011194,-0.0,-0.0017742360942065716,0.7840573787689209,-0.0,0.003036054316908121,0.7793795466423035,0.0,-0.04594361037015915
954.0,949.0,1.1013,0.2195,9.3894,-0.0409,0.0194,-0.1226,-1.7843433819212855,0.0,2.84541654586792,-1.8745497465133667,-0.0,1.9135799407958984,5.0011640069778345,-0.0,0.290692001581192,-1.597245995198385,-0.0,-0.007067687809467316,0.7840737700462341,-0.0,-0.01505604013800621,0.7793715596199036,0.0,-0.03327116370201111
954.0,949.0,1.1013,0.2195,9.3894,-0.0409,0.0194,-0.1226,-1.784323354760641,0.0,2.8795957565307617,-1.8745330572128296,-0.0,1.960094690322876,5.001143920212545,-0.0,0.2801579535007477,-1.5972817579852503,-0.0,-0.0075165824964642525,0.784069299697876,-0.0,0.005504736211150885,0.7793229818344116,0.0,0.0010083932429552078
954.0,949.0,1.1013,0.2195,9.3894,-0.0409,0.0194,-0.1226,-1.7843276462950648,0.0,2.835076332092285,-1.8745207786560059,-0.0,1.926476001739502,5.001159596234121,-0.0,0.28488531708717346,-1.5972502867328089,-0.0,-0.002938140882179141,0.7840937972068787,-0.0,-0.004356285557150841,0.7793391346931458,0.0,0.025687120854854584
946.0,920.0,1.1515,0.1747,9.4875,-0.0409,0.0217,-0.1251,-1.784323354760641,0.0,2.8819146156311035,-1.8745166063308716,-0.0,1.8804657459259033,5.001167762070455,-0.0,0.28180885314941406,-1.5972541014300745,-0.0,-0.013915483839809895,0.784069299697876,-0.0,-0.0007687101606279612,0.7793593406677246,0.0,0.02227179706096649
946.0,920.0,1.1515,0.1747,9.4875,-0.0409,0.0217,-0.1251,-1.7843395672240199,0.0,2.8239457607269287,-1.8745083808898926,-0.0,1.9391294717788696,5.001139837294378,-0.0,0.2950761318206787,-1.5972817579852503,-0.0,0.002547960262745619,0.7840815782546997,-0.0,0.0026112901978194714,0.77934730052948,0.0,0.007467439863830805
946.0,920.0,1.1515,0.1747,9.4875,-0.0409,0.0217,-0.1251,-1.7843066654601039,0.0,2.836559295654297,-1.8745535612106323,-0.0,1.9163219928741455,5.001179981022634,-0.0,0.2901707589626312,-1.5972541014300745,-0.0,-0.014549320563673973,0.7840733528137207,-0.0,0.0025278895627707243,0.7793795466423035,0.0,0.033029064536094666
946.0,920.0,1.1515,0.1747,9.4875,-0.0409,0.0217,-0.1251,-1.7843476734557093,0.0,2.924689292907715,-1.8744845390319824,-0.0,1.9477949142456055,5.0011759279067896,-0.0,0.29659709334373474,-1.5972817579852503,-0.0,-0.010043257847428322,0.7840774059295654,-0.0,-0.009572625160217285,0.7793432474136353,0.0,0.06685090065002441
946.0,920.0,1.1515,0.1747,9.4875,-0.0409,0.0217,-0.1251,-1.7843553028502406,0.0,2.9014017581939697,-1.8745288848876953,-0.0,1.8997395038604736,5.001148003130712,-0.0,0.29226958751678467,-1.5972421805011194,-0.0,-0.006190712098032236,0.7840172648429871,-0.0,0.007087973412126303,0.7793835997581482,0.0,0.020075863227248192
946.0,920.0,1.1515,0.1747,9.4875,-0.0409,0.0217,-0.1251,-1.7843190632262171,0.0,2.843655586242676,-1.8744927644729614,-0.0,1.956911563873291,5.001151758223333,-0.0,0.29290029406547546,-1.5972421805011194,-0.0,-0.006838324014097452,0.7840774655342102,-0.0,0.0014642099849879742,0.779383659362793,0.0,0.04129744693636894
946.0,920.0,1.1515,0.1747,9.4875,-0.0409,0.0217,-0.1251,-1.7843276462950648,0.0,2.830228567123413,-1.8744443655014038,-0.0,1.9216406345367432,5.001159924059667,-0.0,0.2936972677707672,-1.5972979704486292,-0.0,-0.0040585692040622234,0.7840213179588318,-0.0,-0.0014111909549683332,0.7793393731117249,0.0,-0.035342201590538025
946.0,920.0,1.1515,0.1747,9.4875,-0.0409,0.0217,-0.1251,-1.7843066654601039,0.0,2.8550472259521484,-1.8744474649429321,-0.0,1.9361618757247925,5.001143920212545,-0.0,0.282173216342926,-1.597269360219137,-0.0,-0.007443911395967007,0.7840454578399658,-0.0,-0.0012138476595282555,0.7793110013008118,0.0,-0.037495508790016174
946.0,920.0,1.1515,0.1747,9.4875,-0.0409,0.0217,-0.1251,-1.7843066654601039,0.0,2.919299602508545,-1.8745124340057373,-0.0,1.9468395709991455,5.0011558411415,-0.0,0.2941780984401703,-1.597262207661764,-0.0,-0.017014266923069954,0.784061074256897,-0.0,-0.0006641806103289127,0.7793552875518799,0.0,0.006143331527709961
946.0,920.0,1.1515,0.1747,9.4875,-0.0409,0.0217,-0.1251,-1.7843314609923304,0.0,2.876490831375122,-1.8744484186172485,-0.0,1.9271985292434692,5.001123833447256,-0.0,0.2939736247062683,-1.5972817579852503,-0.0,-0.0021025098394602537,0.7840614914894104,-0.0,-0.008757631294429302,0.7793471217155457,0.0,-0.014834567904472351
946.0,920.0,1.1515,0.1747,9.4875,-0.0409,0.0217,-0.1251,-1.7843066654601039,0.0,2.8632378578186035,-1.8745083808898926,-0.0,1.9289426803588867,5.0011558411415,-0.0,0.29668036103248596,-1.5972617308246058,-0.0,-0.013583291321992874,0.7840369343757629,-0.0,0.00670024286955595,0.7793311476707458,0.0,-0.003391896840184927
946.0,920.0,1.1515,0.1747,9.4875,-0.0409,0.0217,-0.1251,-1.7843109569945277,0.0,2.8204779624938965,-1.8745290040969849,-0.0,1.9639232158660889,5.001191901951589,-0.0,0.3019142746925354,-1.5972736517535608,-0.0,-0.01723366603255272,0.7840937972068787,-0.0,-0.0017415377078577876,0.7793270945549011,0.0,0.01931488886475563
946.0,920.0,1.1515,0.1747,9.4875,-0.0409,0.0217,-0.1251,-1.784323354760641,0.0,2.87947416305542,-1.8745166063308716,-0.0,1.9709359407424927,5.001187848835745,-0.0,0.27618879079818726,-1.5972817579852503,-0.0,-0.01719978265464306,0.7840454578399658,-0.0,0.00526401586830616,0.7793675065040588,0.0,-0.006618401501327753
946.0,920.0,1.1515,0.1747,9.4875,-0.0409,0.0217,-0.1251,-1.784379621545309,0.0,2.8459572792053223,-1.8745288848876953,-0.0,1.9174256324768066,5.0011759279067896,-0.0,0.28529030084609985,-1.597245995198385,-0.0,-0.009051702916622162,0.7840693593025208,-0.0,-0.008174492977559566,0.7793432474136353,0.0,-0.004109889734536409
946.0,920.0,1.1515,0.1747,9.4875,-0.0409,0.0217,-0.1251,-1.7843190632262171,0.0,2.8910937309265137,-1.8745248317718506,-0.0,1.974651575088501,5.001139837294378,-0.0,0.2995603084564209,-1.597274128590719,-0.0,-0.019574079662561417,0.7840131521224976,-0.0,0.0016946860123425722,0.7793593406677246,0.0,-0.03965052217245102
946.0,920.0,1.1515,0.1747,9.4875,-0.0409,0.0217,-0.1251,-1.7842985592284144,0.0,2.849195957183838,-1.8745537996292114,-0.0,1.920952558517456,5.00110753157691,-0.0,0.2901868224143982,-1.597245995198385,-0.0,-0.0066577112302184105,0.7840733528137207,-0.0,-0.0227934792637825,0.7792668342590332,0.0,0.017620742321014404
946.0,920.0,1.1515,0.1747,9.4875,-0.0409,0.0217,-0.1251,-1.7842747173705042,0.0,2.8753390312194824,-1.8744927644729614,-0.0,1.926358938217163,5.0011558411415,-0.0,0.3048872947692871,-1.597245995198385,-0.0,0.004736835602670908,0.7841057181358337,-0.0,0.011434823274612427,0.77934730052948,0.0,-0.03198118880391121
958.0,926.0,1.1384,0.2166,9.4636,-0.0338,0.0258,-0.122,-1.7843109569945277,0.0,2.857081413269043,-1.8745125532150269,-0.0,1.941678524017334,5.001151758223333,-0.0,0.2900320291519165,-1.5972502867328089,-0.0,-0.0005729596596211195,0.7840697765350342,-0.0,-0.0013148850994184613,0.7793633937835693,0.0,0.028430651873350143
958.0,926.0,1.1384,0.2166,9.4636,-0.0338,0.0258,-0.122,-1.7843276462950648,0.0,2.8694918155670166,-1.8745083808898926,-0.0,1.915621042251587,5.001159924059667,-0.0,0.29248401522636414,-1.5972655455218714,-0.0,-0.001846522674895823,0.7839890122413635,-0.0,-0.014956120401620865,0.7793795466423035,0.0,-0.019313262775540352
958.0,926.0,1.1384,0.2166,9.4636,-0.0338,0.0258,-0.122,-1.7843553028502406,0.0,2.825786590576172,-1.8744804859161377,-0.0,1.939314603805542,5.0011558411415,-0.0,0.30173438787460327,-1.597245995198385,-0.0,-0.00676221027970314,0.7841136455535889,-0.0,-0.01618778705596924,0.7793393135070801,0.0,0.007099651265889406
958.0,926.0,1.1384,0.2166,9.4636,-0.0338,0.0258,-0.122,-1.7843190632262171,0.0,2.8331663608551025,-1.8745043277740479,-0.0,1.9403486251831055,5.001159596234121,-0.0,0.3082830607891083,-1.5972979704486292,-0.0,-0.008185080252587795,0.7840652465820312,-0.0,0.0035877737682312727,0.7793432474136353,0.0,-0.04356526583433151
958.0,926.0,1.1384,0.2166,9.4636,-0.0338,0.0258,-0.122,-1.78436340908193,0.0,2.8865365982055664,-1.8744969367980957,-0.0,1.9205564260482788,5.001159894257345,-0.0,0.28109002113342285,-1.597269360219137,-0.0,-0.009167018346488476,0.7840734124183655,-0.0,0.01019880548119545,0.7793432474136353,0.0,0.0009242580272257328
958.0,926.0,1.1384,0.2166,9.4636,-0.0338,0.0258,-0.122,-1.784323354760641,0.0,2.813157081604004,-1.8745290040969849,-0.0,1.947547197341919,5.001107501774587,-0.0,0.29694628715515137,-1.597245995198385,-0.0,-0.01650121621787548,0.784069299697876,-0.0,-0.012664005160331726,0.7793715596199036,0.0,-0.05932777002453804
958.0,926.0,1.1384,0.2166,9.4636,-0.0338,0.0258,-0.122,-1.7843395672240199,0.0,2.85329008102417,-1.8744639158248901,-0.0,1.9350063800811768,5.001203822880544,-0.0,0.30075398087501526,-1.597257439290182,-0.0,-0.005069402512162924,0.7840896844863892,-0.0,-0.0022118103224784136,0.7793110013008118,0.0,0.0024072029627859592
958.0,926.0,1.1384,0.2166,9.4636,-0.0338,0.0258,-0.122,-1.7842747173705042,0.0,2.8105547428131104,-1.8745206594467163,-0.0,1.9802708625793457,5.0011398670967,-0.0,0.2876330614089966,-1.5972579161273401,-0.0,-0.009059076197445393,0.7840737700462341,-0.0,0.005903881974518299,0.7793270945549011,0.0,-0.012001611292362213
958.0,926.0,1.1384,0.2166,9.4636,-0.0338,0.0258,-0.122,-1.7843109569945277,0.0,2.807347536087036,-1.8744845390319824,-0.0,1.9638044834136963,5.001115637808599,-0.0,0.2992176413536072,-1.597274128590719,-0.0,-0.0033864022698253393,0.7840414047241211,-0.0,-0.0007311775116249919,0.7793513536453247,0.0,-0.04081861674785614
958.0,926.0,1.1384,0.2166,9.4636,-0.0338,0.0258,-0.122,-1.7843314609923304,0.0,2.900484561920166,-1.8745092153549194,-0.0,1.9471850395202637,5.001163679152288,-0.0,0.2879706025123596,-1.5973017851458948,-0.0,0.0034679342061281204,0.7840533256530762,-0.0,-0.0050086709670722485,0.7793230414390564,0.0,0.020672067999839783
958.0,926.0,1.1384,0.2166,9.4636,-0.0338,0.0258,-0.122,-1.7843276462950648,0.0,2.889068603515625,-1.8744598627090454,-0.0,1.9380371570587158,5.0011558411415,-0.0,0.29131031036376953,-1.5972860495196741,-0.0,0.0006112565752118826,0.7840213775634766,-0.0,-0.004870234988629818,0.779335081577301,0.0,0.05298570170998573
958.0,926.0,1.1384,0.2166,9.4636,-0.0338,0.0258,-0.122,-1.7843433819212855,0.0,2.84082293510437,-1.8745124340057373,-0.0,1.9611966609954834,5.001151758223333,-0.0,0.3020992577075958,-1.5972617308246058,-0.0,0.0024780503008514643,0.784045398235321,-0.0,-0.004167556297034025,0.7793713808059692,0.0,-0.00952192209661007
958.0,926.0,1.1384,0.2166,9.4636,-0.0338,0.0258,-0.122,-1.7842947445311488,0.0,2.808983325958252,-1.8745415210723877,-0.0,1.9750616550445557,5.001171874790945,-0.0,0.2909667491912842,-1.597245995198385,-0.0,0.004922974854707718,0.7840897440910339,-0.0,-0.004449416417628527,0.7793471217155457,0.0,-0.028608087450265884
958.0,926.0,1.1384,0.2166,9.4636,-0.0338,0.0258,-0.122,-1.7843276462950648,0.0,2.8586697578430176,-1.8745288848876953,-0.0,1.9175560474395752,5.001151758223333,-0.0,0.2874464988708496,-1.5972617308246058,-0.0,-0.004051859490573406,0.7840049266815186,-0.0,-0.019856056198477745,0.779375433921814,0.0,-0.015582239255309105
958.0,926.0,1.1384,0.2166,9.4636,-0.0338,0.0258,-0.122,-1.7843190632262171,0.0,2.8376662731170654,-1.8744845390319824,-0.0,1.9716054201126099,5.001184212952413,-0.0,0.2922050356864929,-1.5972378889666956,-0.0,-0.0030854304786771536,0.7840454578399658,-0.0,-0.0007164286216720939,0.7793795466423035,0.0,-0.05903131887316704
958.0,926.0,1.1384,0.2166,9.4636,-0.0338,0.0258,-0.122,-1.7843471966185511,0.0,2.8744969367980957,-1.8744524717330933,-0.0,1.8508186340332031,5.001159924059667,-0.0,0.2935411334037781,-1.5972541014300745,-0.0,-0.007288625463843346,0.7840373516082764,-0.0,0.0022712708450853825,0.7792990803718567,0.0,0.002274351194500923
958.0,926.0,1.1384,0.2166,9.4636,-0.0338,0.0258,-0.122,-1.7843066654601039,0.0,2.8713386058807373,-1.8744927644729614,-0.0,1.9482537508010864,5.001127618342199,-0.0,0.29165971279144287,-1.5972617308246058,-0.0,0.011496727354824543,0.784125804901123,-0.0,-0.003122147638350725,0.77934730052948,0.0,-0.024964047595858574
962.0,949.0,1.054,0.1872,9.5665,-0.0397,0.0293,-0.1196,-1.7843715153136195,0.0,2.883946418762207,-1.8744804859161377,-0.0,1.9608465433120728,5.001163977175512,-0.0,0.2994856834411621,-1.5972898642169397,-0.0,-0.00856632087379694,0.7840054035186768,-0.0,0.0014975443482398987,0.7793675065040588,0.0,-0.003347382415086031
962.0,949.0,1.054,0.1872,9.5665,-0.0397,0.0293,-0.1196,-1.784351488152975,0.0,2.8587803840637207,-1.8744442462921143,-0.0,1.9289891719818115,5.001159894257345,-0.0,0.2943240702152252,-1.5972936789142054,-0.0,-0.013908550143241882,0.7840336561203003,-0.0,-0.012902837246656418,0.7793150544166565,0.0,0.05695562809705734
962.0,949.0,1.054,0.1872,9.5665,-0.0397,0.0293,-0.1196,-1.7843314609923304,0.0,2.8555855751037598,-1.8745051622390747,-0.0,1.941234827041626,5.001147705107488,-0.0,0.295841246843338,-1.5972541014300745,-0.0,-0.015230905264616013,0.7840574383735657,-0.0,0.0044288658536970615,0.7793312072753906,0.0,0.006662176921963692
962.0,949.0,1.054,0.1872,9.5665,-0.0397,0.0293,-0.1196,-1.7843028507628382,0.0,2.8527841567993164,-1.874476432800293,-0.0,1.939758062362671,5.00115995386199,-0.0,0.28441476821899414,-1.597269360219137,-0.0,-0.002544074784964323,0.7840898036956787,-0.0,0.003259461373090744,0.7793312072753906,0.0,-0.005943529307842255
962.0,949.0,1.054,0.1872,9.5665,-0.0397,0.0293,-0.1196,-1.784335275689596,0.0,2.855842113494873,-1.8744845390319824,-0.0,1.9331389665603638,5.001135813980856,-0.0,0.29217737913131714,-1.5972655455218714,-0.0,-0.006668285466730595,0.7840774059295654,-0.0,0.001082645496353507,0.7793352603912354,0.0,-0.026198044419288635
962.0,949.0,1.054,0.1872,9.5665,-0.0397,0.0293,-0.1196,-1.7843395672240199,0.0,2.8569436073303223,-1.8744927644729614,-0.0,1.9887001514434814,5.001148003130712,-0.0,0.2852620482444763,-1.597269360219137,-0.0,0.006332876160740852,0.7839770913124084,-0.0,-0.005444079637527466,0.7793835997581482,0.0,-0.035934947431087494
962.0,949.0,1.054,0.1872,9.5665,-0.0397,0.0293,-0.1196,-1.7842909298338832,0.0,2.8269948959350586,-1.8744679689407349,-0.0,1.9617060422897339,5.001191931753912,-0.0,0.28936588764190674,-1.597269360219137,-0.0,-0.00652439147233963,0.7840009331703186,-0.0,-0.0007329098880290985,0.7793312072753906,0.0,0.07046495378017426
962.0,949.0,1.054,0.1872,9.5665,-0.0397,0.0293,-0.1196,-1.784323354760641,0.0,2.868180751800537,-1.8744597434997559,-0.0,1.9548530578613281,5.001135784178533,-0.0,0.2893255054950714,-1.5972421805011194,-0.0,0.00457759341225028,0.784077525138855,-0.0,-0.005660576745867729,0.7793352603912354,0.0,0.018815748393535614
962.0,949.0,1.054,0.1872,9.5665,-0.0397,0.0293,-0.1196,-1.7843109569945277,0.0,2.8585205078125,-1.8745206594467163,-0.0,1.9855401515960693,5.001191872149267,-0.0,0.2968451976776123,-1.597269360219137,-0.0,-0.005613643676042557,0.7840414047241211,-0.0,0.006201149895787239,0.7793675065040588,0.0,-0.0012930911034345627
962.0,949.0,1.054,0.1872,9.5665,-0.0397,0.0293,-0.1196,-1.7842747173705042,0.0,2.8553009033203125,-1.8744969367980957,-0.0,1.90203857421875,5.001119720726766,-0.0,0.29047343134880066,-1.597245995198385,-0.0,-0.0014049512101337314,0.7840693593025208,-0.0,-0.012634804472327232,0.7793513536453247,0.0,0.0016127536073327065
962.0,949.0,1.054,0.1872,9.5665,-0.0397,0.0293,-0.1196,-1.7843190632262171,0.0,2.8493881225585938,-1.8745206594467163,-0.0,1.969421148300171,5.001175957709112,-0.0,0.2894340753555298,-1.5972979704486292,-0.0,0.00025379512226209044,0.7840652465820312,-0.0,0.0018782177940011024,0.7793633937835693,0.0,-0.024865418672561646
962.0,949.0,1.054,0.1872,9.5665,-0.0397,0.0293,-0.1196,-1.7842985592284144,0.0,2.835813045501709,-1.8744804859161377,-0.0,1.9611961841583252,5.001148003130712,-0.0,0.29326730966567993,-1.5972655455218714,-0.0,-0.008371295407414436,0.784065306186676,-0.0,-0.006512662395834923,0.7793352603912354,0.0,0.039012107998132706
962.0,949.0,1.054,0.1872,9.5665,-0.0397,0.0293,-0.1196,-1.7843314609923304,0.0,2.8967928886413574,-1.8745009899139404,-0.0,1.9918274879455566,5.001172262221136,-0.0,0.2912938892841339,-1.5972502867328089,-0.0,-0.005050007253885269,0.7840856909751892,-0.0,0.0014174883253872395,0.7793675065040588,0.0,0.020656052976846695
962.0,949.0,1.054,0.1872,9.5665,-0.0397,0.0293,-0.1196,-1.7843028507628382,0.0,2.8318328857421875,-1.8744721412658691,-0.0,1.9496041536331177,5.001171844988622,-0.0,0.2899448573589325,-1.5972617308246058,-0.0,-0.000599587569013238,0.7840454578399658,-0.0,-0.009732295759022236,0.7793391346931458,0.0,-0.034582313150167465
962.0,949.0,1.054,0.1872,9.5665,-0.0397,0.0293,-0.1196,-1.7843109569945277,0.0,2.8291804790496826,-1.8744723796844482,-0.0,1.978751301765442,5.0011596260364435,-0.0,0.29048097133636475,-1.5972655455218714,-0.0,-0.007979625836014748,0.7840213775634766,-0.0,0.0034278244711458683,0.7793391346931458,0.0,-0.0035139471292495728
962.0,949.0,1.054,0.1872,9.5665,-0.0397,0.0293,-0.1196,-1.784351488152975,0.0,2.831643581390381,-1.8745412826538086,-0.0,1.9380247592926025,5.001175898104467,-0.0,0.29061320424079895,-1.597269360219137,-0.0,-0.012507697567343712,0.7840455174446106,-0.0,-0.0021943519823253155,0.7793795466423035,0.0,-0.011350744403898716
939.0,954.0,1.072,0.1914,9.6144,-0.0312,0.0217,-0.118,-1.7843276462950648,0.0,2.876321315765381,-1.8744679689407349,-0.0,1.9824283123016357,5.001191872149267,-0.0,0.2931162118911743,-1.5972817579852503,-0.0,-0.006097947712987661,0.7840656042098999,-0.0,-0.0041067395359277725,0.779387354850769,0.0,-0.047181516885757446
939.0,954.0,1.072,0.1914,9.6144,-0.0312,0.0217,-0.118,-1.7843276462950648,0.0,2.8606882095336914,-1.8744679689407349,2.947704857980682e-10,1.9403129816055298,5.001155870943823,-0.0,0.298682302236557,-1.597245995198385,-0.0,-0.0038309129886329174,0.7840332388877869,-0.0,-0.009944693185389042,0.7793189883232117,0.0,-0.015742845833301544
939.0,954.0,1.072,0.1914,9.6144,-0.0312,0.0217,-0.118,-1.7842909298338832,0.0,2.888029098510742,-1.8744721412658691,7.118361127189101e-16,1.922607183456421,5.0011558411415,-0.0,0.2936641573905945,-1.5972421805011194,-0.0,-0.012574872002005577,0.7840533256530762,-0.0,-0.010676983743906021,0.7793593406677246,0.0,-0.004804978147149086
939.0,954.0,1.072,0.1914,9.6144,-0.0312,0.0217,-0.118,-1.7842947445311488,0.0,2.8586978912353516,-1.8744319677352905,1.7190002604879244e-21,1.9248017072677612,5.001135784178533,-0.0,0.2974572777748108,-1.597325627003805,-0.0,-0.006166865583509207,0.7840979695320129,-0.0,0.0051602572202682495,0.7793433666229248,0.0,-0.03471413999795914
939.0,954.0,1.072,0.1914,9.6144,-0.0312,0.0217,-0.118,-1.784335275689596,0.0,2.870944023132324,-1.8744637966156006,4.151183683685258e-27,1.969089388847351,5.001171844988622,-0.0,0.2832077741622925,-1.597269360219137,-0.0,0.0008783363737165928,0.784029483795166,-0.0,0.007165289483964443,0.7793391942977905,0.0,-0.009875357151031494
939.0,954.0,1.072,0.1914,9.6144,-0.0312,0.0217,-0.118,-1.7843557796873988,0.0,2.810882329940796,-1.8744722604751587,7.471984231821059e-31,1.9545917510986328,5.001143920212545,-0.0,0.2945544421672821,-1.5973055998431605,-0.0,-0.0027130937669426203,0.784069299697876,-0.0,0.007752045523375273,0.779371440410614,0.0,0.002261598827317357
939.0,954.0,1.072,0.1914,9.6144,-0.0312,0.0217,-0.118,-1.7843190632262171,0.0,2.892289161682129,-1.8745051622390747,1.8043963841464517e-36,1.921539545059204,5.001115667610922,-0.0,0.2887578308582306,-1.597269360219137,-0.0,-0.015576951205730438,0.7840049266815186,-0.0,-0.004682008642703295,0.7793312072753906,0.0,0.009375839494168758
939.0,954.0,1.072,0.1914,9.6144,-0.0312,0.0217,-0.118,-1.784335275689596,0.0,2.8268792629241943,-1.8744680881500244,4.358038224050181e-42,1.9327969551086426,5.001159924059667,-0.0,0.29472869634628296,-1.5972860495196741,-0.0,-0.00922437570989132,0.7840734124183655,-0.0,-0.001934225670993328,0.7793795466423035,0.0,-0.023379843682050705
939.0,954.0,1.072,0.1914,9.6144,-0.0312,0.0217,-0.118,-1.7843152485289515,0.0,2.82958984375,-1.8745083808898926,1.401298464324817e-45,1.9316697120666504,5.001143622189321,-0.0,0.29317787289619446,-1.5972936789142054,-0.0,0.013254605233669281,0.7840290665626526,-0.0,0.007171445060521364,0.7793270945549011,0.0,0.04977858066558838
939.0,954.0,1.072,0.1914,9.6144,-0.0312,0.0217,-0.118,-1.7843395672240199,0.0,2.8280837535858154,-1.8744287490844727,-0.0,1.9472432136535645,5.001135754376211,-0.0,0.3043989837169647,-1.5972502867328089,-0.0,-0.015044904313981533,0.7840290665626526,-0.0,-0.0027826144360005856,0.77934730052948,0.0,0.030397042632102966
939.0,954.0,1.072,0.1914,9.6144,-0.0312,0.0217,-0.118,-1.784323354760641,0.0,2.886380672454834,-1.8745083808898926,-0.0,1.968267560005188,5.0011517880256555,-0.0,0.28441357612609863,-1.597245995198385,-0.0,-0.0025807435158640146,0.7840492725372314,-0.0,-0.006380119826644659,0.7793312072753906,0.0,-0.0049880556762218475
939.0,954.0,1.072,0.1914,9.6144,-0.0312,0.0217,-0.118,-1.7843433819212855,0.0,2.866485595703125,-1.8745372295379639,-0.0,1.9659451246261597,5.001127618342199,-0.0,0.29301196336746216,-1.597274128590719,-0.0,-0.00608275318518281,0.784061074256897,-0.0,0.0024337507784366608,0.7793190479278564,0.0,-0.07158198952674866
939.0,954.0,1.072,0.1914,9.6144,-0.0312,0.0217,-0.118,-1.7843433819212855,0.0,2.879389762878418,-1.8744442462921143,-0.0,1.9485394954681396,5.001135754376211,-0.0,0.2857323884963989,-1.5972502867328089,-0.0,-0.012635791674256325,0.7840090990066528,-0.0,-0.005471450742334127,0.7793917059898376,0.0,-0.023585638031363487
939.0,954.0,1.072,0.1914,9.6144,-0.0312,0.0217,-0.118,-1.7843672237791957,0.0,2.86299729347229,-1.8745083808898926,-0.0,1.9423027038574219,5.001139837294378,-0.0,0.29840198159217834,-1.597245995198385,-0.0,-0.012530884705483913,0.784069299697876,-0.0,-0.014282465912401676,0.779387354850769,0.0,-0.016444114968180656
939.0,954.0,1.072,0.1914,9.6144,-0.0312,0.0217,-0.118,-1.7843152485289515,0.0,2.862734317779541,-1.8744845390319824,-0.0,1.9535887241363525,5.0011759279067896,-0.0,0.2897564172744751,-1.597257439290182,-0.0,-0.008922229520976543,0.7840614914894104,-0.0,0.000986001337878406,0.7793593406677246,0.0,0.003927646204829216
939.0,954.0,1.072,0.1914,9.6144,-0.0312,0.0217,-0.118,-1.7843395672240199,0.0,2.838428020477295,-1.8745083808898926,-0.0,1.9768452644348145,5.001119839936056,-0.0,0.2895359694957733,-1.597245995198385,-0.0,-0.011768102645874023,0.7840693593025208,-0.0,-0.002467480255290866,0.7793513536453247,0.0,0.049632713198661804
939.0,954.0,1.072,0.1914,9.6144,-0.0312,0.0217,-0.118,-1.7843190632262171,0.0,2.836432456970215,-1.8744804859161377,-0.0,1.942643642425537,5.001148003130712,-0.0,0.2876238524913788,-1.597274128590719,-0.0,-0.015143642202019691,0.7840009331703186,-0.0,-0.0038130800239741802,0.7793633937835693,0.0,0.049493372440338135
950.0,935.0,1.3322,0.3057,9.0808,-0.0389,0.0234,-0.1269,-1.7843314609923304,0.0,2.834658145904541,-1.8745009899139404,-0.0,1.937713623046875,5.001139837294378,-0.0,0.2919231057167053,-1.5972979704486292,-0.0,-0.004427710082381964,0.7840372920036316,-0.0,-0.01179707795381546,0.7793835997581482,0.0,0.009897995740175247
950.0,935.0,1.3322,0.3057,9.0808,-0.0389,0.0234,-0.1269,-1.784323354760641,0.0,2.844886302947998,-1.8744556903839111,-0.0,1.9360640048980713,5.001139837294378,-0.0,0.2856105864048004,-1.597274128590719,-0.0,-0.01343625970184803,0.7840172648429871,-0.0,0.0040678298100829124,0.7793270945549011,0.0,-0.006828979589045048
950.0,935.0,1.3322,0.3057,9.0808,-0.0389,0.0234,-0.1269,-1.7842985592284144,0.0,2.8960649967193604,-1.8744484186172485,-0.0,1.914859414100647,5.0011640069778345,-0.0,0.2820916473865509,-1.5972536245929163,-0.0,-0.0016591332387179136,0.784029483795166,-0.0,-0.004731309600174427,0.7793270945549011,0.0,-0.022784557193517685
950.0,935.0,1.3322,0.3057,9.0808,-0.0389,0.0234,-0.1269,-1.7843314609923304,0.0,2.8736953735351562,-1.8744887113571167,-0.0,1.9413560628890991,5.001159924059667,-0.0,0.3078406751155853,-1.5972378889666956,-0.0,-0.008190583437681198,0.7840492725372314,-0.0,0.001396496081724763,0.7793391346931458,0.0,-0.016992874443531036
950.0,935.0,1.3322,0.3057,9.0808,-0.0389,0.0234,-0.1269,-1.784351488152975,0.0,2.855666160583496,-1.8745207786560059,-0.0,1.9223028421401978,5.0011320290859125,-0.0,0.29387596249580383,-1.5972579161273401,-0.0,-0.01457354798913002,0.7840897440910339,-0.0,-0.015537591651082039,0.7793352603912354,0.0,-0.018250610679388046
950.0,935.0,1.3322,0.3057,9.0808,-0.0389,0.0234,-0.1269,-1.784335275689596,0.0,2.8548130989074707,-1.874492883682251,-0.0,1.9226787090301514,5.001123922854223,-0.0,0.28559404611587524,-1.5972779432879847,-0.0,-0.006620780564844608,0.7840533256530762,-0.0,-0.007953029125928879,0.7794036269187927,0.0,0.0032715927809476852
950.0,935.0,1.3322,0.3057,9.0808,-0.0389,0.0234,-0.1269,-1.7843309841551722,0.0,2.8301968574523926,-1.8745207786560059,-0.0,1.9739594459533691,5.001135754376211,-0.0,0.29177647829055786,-1.597245995198385,-0.0,-0.013627374544739723,0.784069299697876,-0.0,-0.006557964254170656,0.7793715596199036,0.0,0.00833045318722725
950.0,935.0,1.3322,0.3057,9.0808,-0.0389,0.0234,-0.1269,-1.7843028507628382,0.0,2.812757730484009,-1.8745051622390747,-0.0,1.9563959836959839,5.001163679152288,-0.0,0.27984821796417236,-1.597274128590719,-0.0,-0.00877133198082447,0.7840253710746765,-0.0,-0.0021796664223074913,0.7793633937835693,0.0,-0.00523710809648037
950.0,935.0,1.3322,0.3057,9.0808,-0.0389,0.0234,-0.1269,-1.7843395672240199,0.0,2.87564754486084,-1.8745124340057373,-0.0,1.9468472003936768,5.001203822880544,-0.0,0.2874264419078827,-1.5972817579852503,-0.0,-0.006892714183777571,0.7840332388877869,-0.0,0.008770421147346497,0.7793310880661011,0.0,-0.010925578884780407
950.0,935.0,1.3322,0.3057,9.0808,-0.0389,0.0234,-0.1269,-1.7843276462950648,0.0,2.8729875087738037,-1.874432921409607,-0.0,1.9269342422485352,5.0011837659175775,-0.0,0.28474417328834534,-1.5972936789142054,-0.0,-0.016399232670664787,0.7840774655342102,-0.0,-0.008770182728767395,0.7793352603912354,0.0,0.034342359751462936
950.0,935.0,1.3322,0.3057,9.0808,-0.0389,0.0234,-0.1269,-1.7843314609923304,0.0,2.882864475250244,-1.8744515180587769,-0.0,1.9117671251296997,5.001127916365423,-0.0,0.29346802830696106,-1.5972536245929163,-0.0,-0.006189923267811537,0.7840050458908081,-0.0,-0.009019097313284874,0.7793593406677246,0.0,0.026689831167459488
950.0,935.0,1.3322,0.3057,9.0808,-0.0389,0.0234,-0.1269,-1.7843314609923304,0.0,2.9005327224731445,-1.8744721412658691,-0.0,1.9434590339660645,5.001135754376211,-0.0,0.2935777008533478,-1.5973017851458948,-0.0,-6.812671199440956e-05,0.7840496301651001,-0.0,-0.0026709071826189756,0.7793713808059692,0.0,-0.02280505746603012
950.0,935.0,1.3322,0.3057,9.0808,-0.0389,0.0234,-0.1269,-1.7843109569945277,0.0,2.816803455352783,-1.874516487121582,-0.0,1.9299993515014648,5.001155870943823,-0.0,0.29225867986679077,-1.597269360219137,-0.0,0.002027929527685046,0.784029483795166,-0.0,-0.0025695860385894775,0.7793351411819458,0.0,-0.024832965806126595
950.0,935.0,1.3322,0.3057,9.0808,-0.0389,0.0234,-0.1269,-1.7843433819212855,0.0,2.8140196800231934,-1.874509334564209,-0.0,1.941793441772461,5.001171844988622,-0.0,0.3005650043487549,-1.5972498098956507,-0.0,0.0015770099125802517,0.7840737700462341,-0.0,0.006366681773215532,0.7793391346931458,0.0,0.012185746803879738
950.0,935.0,1.3322,0.3057,9.0808,-0.0389,0.0234,-0.1269,-1.7843276462950648,0.0,2.858461856842041,-1.8744722604751587,-0.0,1.9345827102661133,5.001184212952413,-0.0,0.29925891757011414,-1.5972579161273401,-0.0,-0.013540828600525856,0.7840295433998108,-0.0,-0.017998147755861282,0.7793713808059692,0.0,0.02257043868303299
950.0,935.0,1.3322,0.3057,9.0808,-0.0389,0.0234,-0.1269,-1.784323354760641,0.0,2.8701682090759277,-1.8745124340057373,-0.0,1.9212329387664795,5.001171844988622,-0.0,0.2881104052066803,-1.597257439290182,-0.0,0.004814686253666878,0.7840774655342102,-0.0,-0.012454386800527573,0.779319167137146,0.0,-0.04306718334555626
950.0,935.0,1.3322,0.3057,9.0808,-0.0389,0.0234,-0.1269,-1.7842866382994593,0.0,2.7811672687530518,-1.8744887113571167,-0.0,1.9430515766143799,5.001179981022634,-0.0,0.2821975350379944,-1.5972617308246058,-0.0,-0.002783056814223528,0.7840733528137207,-0.0,0.0040498459711670876,0.7793351411819458,0.0,-0.0020506493747234344
934.0,955.0,1.1892,0.2399,9.3559,-0.0386,0.0226,-0.1193,-1.784335275689596,0.0,2.8426265716552734,-1.8744804859161377,-0.0,1.9651522636413574,5.001127916365423,-0.0,0.296554833650589,-1.5972817579852503,-0.0,-0.009854493662714958,0.7840774655342102,-0.0,-0.0027365898713469505,0.7793391346931458,0.0,-0.03533156216144562
934.0,955.0,1.1892,0.2399,9.3559,-0.0386,0.0226,-0.1193,-1.7842947445311488,0.0,2.8699731826782227,-1.8745083808898926,-0.0,1.9240942001342773,5.001171844988622,-0.0,0.28659865260124207,-1.5973175207721155,-0.0,-0.0020318457391113043,0.7840254306793213,-0.0,0.005700789857655764,0.779387354850769,0.0,0.019616885110735893
934.0,955.0,1.1892,0.2399,9.3559,-0.0386,0.0226,-0.1193,-1.7842546902098597,0.0,2.8886189460754395,-1.8744887113571167,-0.0,1.944162368774414,5.001167762070455,-0.0,0.2823942303657532,-1.5972779432879847,-0.0,-0.0038906231056898832,0.7840451002120972,-0.0,0.00018780975369736552,0.7793351411819458,0.0,0.004155321978032589
934.0,955.0,1.1892,0.2399,9.3559,-0.0386,0.0226,-0.1193,-1.784335275689596,0.0,2.8187594413757324,-1.8744606971740723,-0.0,1.9406123161315918,5.001079308777609,-0.0,0.28698405623435974,-1.5972421805011194,-0.0,-0.019016418606042862,0.7840492725372314,-0.0,-0.011446267366409302,0.779375433921814,0.0,-0.016112007200717926
934.0,955.0,1.1892,0.2399,9.3559,-0.0386,0.0226,-0.1193,-1.7843672237791957,0.0,2.901583433151245,-1.8745124340057373,-0.0,1.9205641746520996,5.001139837294378,-0.0,0.29801610112190247,-1.5972655455218714,-0.0,-0.005721603985875845,0.7840373516082764,-0.0,-0.010368616320192814,0.7793391346931458,0.0,0.04360835626721382
934.0,955.0,1.1892,0.2399,9.3559,-0.0386,0.0226,-0.1193,-1.7843395672240199,0.0,2.828596591949463,-1.874492883682251,-0.0,1.9304876327514648,5.0011759279067896,-0.0,0.29567649960517883,-1.5972421805011194,-0.0,-0.01699073612689972,0.7839930653572083,-0.0,0.0033532113302499056,0.7793471813201904,0.0,-0.008164060302078724
934.0,955.0,1.1892,0.2399,9.3559,-0.0386,0.0226,-0.1193,-1.7843152485289515,0.0,2.8433690071105957,-1.8744639158248901,-0.0,1.9698410034179688,5.001127946167745,-0.0,0.28996145725250244,-1.597325627003805,-0.0,0.002013079822063446,0.7840373516082764,-0.0,-0.002292230259627104,0.7793633937835693,0.0,0.042166050523519516
934.0,955.0,1.1892,0.2399,9.3559,-0.0386,0.0226,-0.1193,-1.7843028507628382,0.0,2.872650384902954,-1.874492883682251,-0.0,1.9718199968338013,5.0011558411415,-0.0,0.2899974584579468,-1.5972898642169397,-0.0,-0.013561641797423363,0.7840414047241211,-0.0,-0.007076463662087917,0.7793270945549011,0.0,-0.013799866661429405
934.0,955.0,1.1892,0.2399,9.3559,-0.0386,0.0226,-0.1193,-1.78436340908193,0.0,2.905579090118408,-1.8745455741882324,-0.0,1.9289785623550415,5.001183706312933,-0.0,0.2889226973056793,-1.5972617308246058,-0.0,-0.008332454599440098,0.784065306186676,-0.0,0.014444272965192795,0.7793593406677246,0.0,-0.03058788739144802
934.0,955.0,1.1892,0.2399,9.3559,-0.0386,0.0226,-0.1193,-1.7843433819212855,0.0,2.8528075218200684,-1.8745206594467163,-0.0,1.9338817596435547,5.0011238036449335,-0.0,0.28334957361221313,-1.5972502867328089,-0.0,-0.00802518054842949,0.7841098308563232,-0.0,0.013190614059567451,0.7793231010437012,0.0,0.006237702909857035
934.0,955.0,1.1892,0.2399,9.3559,-0.0386,0.0226,-0.1193,-1.7843309841551722,0.0,2.8024375438690186,-1.8744804859161377,-0.0,1.92604660987854,5.001143920212545,-0.0,0.2998265326023102,-1.5973175207721155,-0.0,0.003278974210843444,0.784069299697876,-0.0,-0.0038071265444159508,0.7793633937835693,0.0,0.0016723773442208767
934.0,955.0,1.1892,0.2399,9.3559,-0.0386,0.0226,-0.1193,-1.7843276462950648,0.0,2.898258686065674,-1.8745288848876953,-0.0,1.9501698017120361,5.001203912287512,-0.0,0.27918460965156555,-1.5972898642169397,-0.0,-0.0011851366143673658,0.7841057181358337,-0.0,0.006275558844208717,0.7793673276901245,0.0,0.005947079509496689
934.0,955.0,1.1892,0.2399,9.3559,-0.0386,0.0226,-0.1193,-1.7843476734557093,0.0,2.848963737487793,-1.8745331764221191,-0.0,1.9394400119781494,5.001159924059667,-0.0,0.2907363176345825,-1.5972502867328089,-0.0,-0.006225910037755966,0.7840172648429871,-0.0,-0.001156446523964405,0.7792950868606567,0.0,-0.023066960275173187
934.0,955.0,1.1892,0.2399,9.3559,-0.0386,0.0226,-0.1193,-1.7843271694579066,0.0,2.828468084335327,-1.8745207786560059,-0.0,1.9276822805404663,5.001119780331411,-0.0,0.2973516583442688,-1.5973055998431605,-0.0,-0.015412171371281147,0.7840614318847656,-0.0,0.0011331374989822507,0.7793675065040588,0.0,0.0024853143841028214
934.0,955.0,1.1892,0.2399,9.3559,-0.0386,0.0226,-0.1193,-1.7843309841551722,0.0,2.856614351272583,-1.8744969367980957,-0.0,1.9786579608917236,5.0011558411415,-0.0,0.3016941249370575,-1.597257439290182,-0.0,-0.003477014135569334,0.784069299697876,-0.0,6.471481174230576e-05,0.7793472409248352,0.0,0.04314905032515526
934.0,955.0,1.1892,0.2399,9.3559,-0.0386,0.0226,-0.1193,-1.784323354760641,0.0,2.8362019062042236,-1.8745496273040771,-0.0,1.9282348155975342,5.001143920212545,-0.0,0.29976484179496765,-1.5972660223590296,-0.0,-0.0051438878290355206,0.7840693593025208,-0.0,-0.014237810857594013,0.7793514132499695,0.0,0.013134855777025223
934.0,955.0,1.1892,0.2399,9.3559,-0.0386,0.0226,-0.1193,-1.7843433819212855,0.0,2.8536696434020996,-1.8745083808898926,-0.0,1.962118148803711,5.001135784178533,-0.0,0.29255229234695435,-1.5972617308246058,-0.0,0.0035610487684607506,0.7840493321418762,-0.0,-4.556251224130392e-05,0.7793633937835693,0.0,0.019216379150748253
948.0,940.0,1.1988,0.3302,9.4493,-0.0286,0.0296,-0.128,-1.784351488152975,0.0,2.8898680210113525,-1.8745083808898926,-0.0,1.9186186790466309,5.001103478461065,-0.0,0.2875392735004425,-1.59723407426943,-0.0,-0.008312581107020378,0.7840336561203003,-0.0,0.00756386062130332,0.7793312072753906,0.0,-0.015291880816221237
948.0,940.0,1.1988,0.3302,9.4493,-0.0286,0.0296,-0.128,-1.7843471966185511,0.0,2.841611862182617,-1.8744887113571167,-0.0,1.8989861011505127,5.0011759279067896,-0.0,0.29735255241394043,-1.5972817579852503,-0.0,-0.00284578837454319,0.7841098308563232,-0.0,-0.0012924920301884413,0.7793713808059692,0.0,-0.00021321512758731842
948.0,940.0,1.1988,0.3302,9.4493,-0.0286,0.0296,-0.128,-1.7843672237791957,0.0,2.9041378498077393,-1.8744804859161377,-0.0,1.9648590087890625,5.001191931753912,-0.0,0.29533976316452026,-1.597281281148092,-0.0,0.009844105690717697,0.7840615510940552,-0.0,0.005598676390945911,0.77934730052948,0.0,-0.047699857503175735
948.0,940.0,1.1988,0.3302,9.4493,-0.0286,0.0296,-0.128,-1.7843152485289515,0.0,2.7885584831237793,-1.8744763135910034,-0.0,1.9510977268218994,5.0011759279067896,-0.0,0.28613024950027466,-1.5972502867328089,-0.0,-0.0011346954852342606,0.7840049862861633,-0.0,-0.004785611759871244,0.779306948184967,0.0,0.008409520611166954
948.0,940.0,1.1988,0.3302,9.4493,-0.0286,0.0296,-0.128,-1.7843190632262171,0.0,2.833190679550171,-1.8745124340057373,-0.0,1.9055867195129395,5.001187908440389,-0.0,0.2816568613052368,-1.5972617308246058,-0.0,-0.011322785168886185,0.7840049266815186,-0.0,-0.01216740719974041,0.7793674468994141,0.0,0.00836275890469551
948.0,940.0,1.1988,0.3302,9.4493,-0.0286,0.0296,-0.128,-1.784323354760641,0.0,2.8192825317382812,-1.8744441270828247,-0.0,1.9454700946807861,5.001099753170767,-0.0,0.3004132807254791,-1.5972979704486292,-0.0,-0.002828428987413645,0.7840496897697449,-0.0,-0.004582204855978489,0.7793633341789246,0.0,-0.02273297868669033
948.0,940.0,1.1988,0.3302,9.4493,-0.0286,0.0296,-0.128,-1.7843314609923304,0.0,2.8943684101104736,-1.8744763135910034,-0.0,1.9158692359924316,5.0011640069778345,-0.0,0.29435765743255615,-1.5972541014300745,-0.0,0.0037653381004929543,0.7840492725372314,-0.0,0.0011661784956231713,0.7793391942977905,0.0,0.016041317954659462
948.0,940.0,1.1988,0.3302,9.4493,-0.0286,0.0296,-0.128,-1.784323354760641,0.0,2.849374294281006,-1.8745051622390747,-0.0,1.9509341716766357,5.001119720726766,-0.0,0.29216140508651733,-1.5972655455218714,-0.0,-0.007169144693762064,0.7840373516082764,-0.0,0.0009266390115953982,0.7793231010437012,0.0,0.04505898058414459
948.0,940.0,1.1988,0.3302,9.4493,-0.0286,0.0296,-0.128,-1.7843395672240199,0.0,2.866384506225586,-1.874492883682251,-0.0,1.944443702697754,5.001168149500646,-0.0,0.29214054346084595,-1.5972617308246058,-0.0,-0.01241096667945385,0.7840295433998108,-0.0,0.002484615659341216,0.7793110013008118,0.0,0.012256037443876266
948.0,940.0,1.1988,0.3302,9.4493,-0.0286,0.0296,-0.128,-1.7843395672240199,0.0,2.8386521339416504,-1.8745330572128296,-0.0,1.9444167613983154,5.00114397981719,-0.0,0.29767149686813354,-1.5972378889666956,-0.0,-0.0017635633703321218,0.7840290665626526,-0.0,0.002015643287450075,0.7793634533882141,0.0,-0.038709986954927444
948.0,940.0,1.1988,0.3302,9.4493,-0.0286,0.0296,-0.128,-1.784351488152975,0.0,2.8882994651794434,-1.8745248317718506,-0.0,1.9301369190216064,5.001135813980856,-0.0,0.2925015687942505,-1.5972979704486292,-0.0,0.001112603466026485,0.7840455174446106,-0.0,0.007985263131558895,0.7793432474136353,0.0,-0.006508831866085529
948.0,940.0,1.1988,0.3302,9.4493,-0.0286,0.0296,-0.128,-1.7843276462950648,0.0,2.82617449760437,-1.8745206594467163,-0.0,1.94917631149292,5.001191872149267,-0.0,0.2983453869819641,-1.5972779432879847,-0.0,-0.011645562946796417,0.7840131521224976,-0.0,-0.0013410354731604457,0.7793715000152588,0.0,0.04296167567372322
948.0,940.0,1.1988,0.3302,9.4493,-0.0286,0.0296,-0.128,-1.784335275689596,0.0,2.803224563598633,-1.8744680881500244,-0.0,1.9471161365509033,5.00115995386199,-0.0,0.29266566038131714,-1.5972979704486292,-0.0,-0.011307108215987682,0.7840454578399658,-0.0,0.0027294352184981108,0.7793393135070801,0.0,0.007120195776224136
948.0,940.0,1.1988,0.3302,9.4493,-0.0286,0.0296,-0.128,-1.7842947445311488,0.0,2.857085704803467,-1.8744845390319824,-0.0,1.953770637512207,5.001139896899023,-0.0,0.28367123007774353,-1.5972655455218714,-0.0,-0.010521921329200268,0.7839890122413635,-0.0,-0.003212136682122946,0.77934730052948,0.0,-0.01265887450426817
948.0,940.0,1.1988,0.3302,9.4493,-0.0286,0.0296,-0.128,-1.7843152485289515,0.0,2.8840770721435547,-1.8744845390319824,-0.0,1.9138102531433105,5.001167762070455,-0.0,0.30397462844848633,-1.5972860495196741,-0.0,0.0069954185746610165,0.7840492129325867,-0.0,-0.002308343769982457,0.779306948184967,0.0,-0.015302938409149647
948.0,940.0,1.1988,0.3302,9.4493,-0.0286,0.0296,-0.128,-1.7842909298338832,0.0,2.875645637512207,-1.8744597434997559,-0.0,1.9449304342269897,5.001191931753912,-0.0,0.29218852519989014,-1.597274128590719,-0.0,-0.016519887372851372,0.784077525138855,-0.0,-0.0018362354021519423,0.7793391942977905,0.0,-0.04392797127366066
944.0,952.0,1.06,0.2483,9.5438,-0.0342,0.0139,-0.119,-1.7843152485289515,0.0,2.8062517642974854,-1.8744484186172485,-0.0,1.9643654823303223,5.001103448658743,-0.0,0.3086574673652649,-1.5973017851458948,-0.0,-0.011721129529178143,0.7840213179588318,-0.0,-0.010761675424873829,0.7793310880661011,0.0,-0.031086858361959457
944.0,952.0,1.06,0.2483,9.5438,-0.0342,0.0139,-0.119,-1.7843028507628382,0.0,2.820749282836914,-1.8745083808898926,-0.0,1.9308204650878906,5.001203524857321,-0.0,0.2966422736644745,-1.597269360219137,-0.0,-0.007635931018739939,0.7840774655342102,-0.0,-0.004423785023391247,0.7793029546737671,0.0,-0.0055061643943190575
944.0,952.0,1.06,0.2483,9.5438,-0.0342,0.0139,-0.119,-1.7843109569945277,0.0,2.864560604095459,-1.8745248317718506,-0.0,1.9539742469787598,5.001103448658743,-0.0,0.2947515845298767,-1.5972979704486292,-0.0,-0.010648195631802082,0.7840577960014343,-0.0,-0.004788767546415329,0.7793593406677246,0.0,-0.0076597267761826515
944.0,952.0,1.06,0.2483,9.5438,-0.0342,0.0139,-0.119,-1.7842990360655726,0.0,2.844430446624756,-1.8744401931762695,-0.0,1.929772973060608,5.001115786820211,-0.0,0.2935486137866974,-1.5972898642169397,-0.0,-0.010841450653970242,0.7840254306793213,-0.0,-0.0037522639613598585,0.779375433921814,0.0,0.014822413213551044
944.0,952.0,1.06,0.2483,9.5438,-0.0342,0.0139,-0.119,-1.7842909298338832,0.0,2.849086284637451,-1.8745124340057373,-0.0,1.9317092895507812,5.001147675305166,-0.0,0.2886192798614502,-1.597274128590719,-0.0,-0.0006572372512891889,0.7840573787689209,-0.0,0.0016219676472246647,0.779375433921814,0.0,0.025263212621212006
944.0,952.0,1.06,0.2483,9.5438,-0.0342,0.0139,-0.119,-1.7842990360655726,0.0,2.8476932048797607,-1.8744888305664062,-0.0,1.9114577770233154,5.001127558737554,-0.0,0.28707998991012573,-1.5972936789142054,-0.0,-0.0037697518710047007,0.7840294241905212,-0.0,0.004810052923858166,0.7794074416160583,0.0,-0.023282386362552643
944.0,952.0,1.06,0.2483,9.5438,-0.0342,0.0139,-0.119,-1.7843152485289515,0.0,2.8380751609802246,-1.8745083808898926,-0.0,1.942352533340454,5.0011558411415,-0.0,0.3013450503349304,-1.5972936789142054,-0.0,-0.003279369091615081,0.7840254306793213,-0.0,-0.013492496684193611,0.7793673872947693,0.0,-0.059896014630794525
944.0,952.0,1.06,0.2483,9.5438,-0.0342,0.0139,-0.119,-1.7843190632262171,0.0,2.8614490032196045,-1.8745415210723877,-0.0,1.9332555532455444,5.001111614495077,-0.0,0.29001614451408386,-1.5972860495196741,-0.0,0.001747691072523594,0.784029483795166,-0.0,-0.0014551058411598206,0.7793673872947693,0.0,-0.015230493620038033
944.0,952.0,1.06,0.2483,9.5438,-0.0342,0.0139,-0.119,-1.784340044061178,0.0,2.8412303924560547,-1.8745207786560059,-0.0,1.940561294555664,5.001139837294378,-0.0,0.2985525131225586,-1.5972779432879847,-0.0,-0.007681847084313631,0.784013032913208,-0.0,-0.0043994225561618805,0.7793149948120117,0.0,-0.0018920013681054115
944.0,952.0,1.06,0.2483,9.5438,-0.0342,0.0139,-0.119,-1.7843028507628382,0.0,2.8251748085021973,-1.874516487121582,-0.0,1.968888759613037,5.001179951220312,-0.0,0.29136931896209717,-1.59731370607485,-0.0,-0.004118768498301506,0.7840979695320129,-0.0,-0.009512919932603836,0.779375433921814,0.0,-0.0225019920617342
944.0,952.0,1.06,0.2483,9.5438,-0.0342,0.0139,-0.119,-1.784323354760641,0.0,2.8721847534179688,-1.874516487121582,-0.0,1.9632594585418701,5.00113199928359,-0.0,0.29183030128479004,-1.5972898642169397,-0.0,-0.004522614646703005,0.7840372920036316,-0.0,0.00011258269660174847,0.7793351411819458,0.0,-0.015356568619608879
944.0,952.0,1.06,0.2483,9.5438,-0.0342,0.0139,-0.119,-1.7843395672240199,0.0,2.844846725463867,-1.8745248317718506,-0.0,1.9658572673797607,5.0011398670967,-0.0,0.28955942392349243,-1.597274128590719,-0.0,-0.004298654850572348,0.7840933799743652,-0.0,-0.015052318572998047,0.77934730052948,0.0,-0.01811092533171177
944.0,952.0,1.06,0.2483,9.5438,-0.0342,0.0139,-0.119,-1.784323354760641,0.0,2.8362298011779785,-1.8745124340057373,-0.0,1.963273048400879,5.001143920212545,-0.0,0.28873246908187866,-1.5972979704486292,-0.0,0.0008720934856683016,0.7840856909751892,-0.0,-0.0026371125131845474,0.7794115543365479,0.0,0.0330667644739151
944.0,952.0,1.06,0.2483,9.5438,-0.0342,0.0139,-0.119,-1.78436340908193,0.0,2.8516860008239746,-1.8745651245117188,-0.0,1.9354453086853027,5.001131969481268,-0.0,0.2991762161254883,-1.5972860495196741,-0.0,-0.008653679862618446,0.784069299697876,-0.0,0.006442578509449959,0.7794075012207031,0.0,-0.030662627890706062
944.0,952.0,1.06,0.2483,9.5438,-0.0342,0.0139,-0.119,-1.7843309841551722,0.0,2.8776493072509766,-1.8744887113571167,-0.0,1.8958481550216675,5.001135754376211,-0.0,0.29999908804893494,-1.5972817579852503,-0.0,-0.01510204654186964,0.7840414047241211,-0.0,8.426234126091003e-05,0.7793713808059692,0.0,-0.00819910317659378
944.0,952.0,1.06,0.2483,9.5438,-0.0342,0.0139,-0.119,-1.7842666111388148,0.0,2.895078659057617,-1.8744679689407349,-0.0,1.9386389255523682,5.001139837294378,-0.0,0.28718385100364685,-1.5972979704486292,-0.0,-0.002697923220694065,0.7840131521224976,-0.0,0.0017129364423453808,0.7793713808059692,3.0577675147469563e-07,-0.03657081350684166
944.0,952.0,1.06,0.2483,9.5438,-0.0342,0.0139,-0.119,-1.7843553028502406,0.0,2.8569304943084717,-1.8744515180587769,-0.0,1.962174415588379,5.001159924059667,-0.0,0.2916662395000458,-1.5972936789142054,-0.0,0.00021162931807339191,0.7840533256530762,-0.0,0.003397734835743904,0.7793471813201904,7.384148088991627e-13,-0.024306751787662506
970.0,945.0,1.0923,0.2602,9.4624,-0.0405,0.0263,-0.1161,-1.784351488152975,0.0,2.8528590202331543,-1.8745092153549194,-0.0,1.9445750713348389,5.001143622189321,-0.0,0.28887948393821716,-1.5973218123065394,-0.0,-0.006351310294121504,0.7840533256530762,-0.0,-0.0044701737351715565,0.7793794870376587,1.3291206903929013e-16,-0.014978950843214989
970.0,945.0,1.0923,0.2602,9.4624,-0.0405,0.0263,-0.1161,-1.784351488152975,0.0,2.9069719314575195,-1.8744845390319824,-0.0,1.9497053623199463,5.0011558411415,-0.0,0.29171985387802124,-1.59731370607485,-0.0,0.0008816337212920189,0.7840856909751892,-0.0,0.003426496870815754,0.7793552875518799,3.2096700457266844e-22,0.022114222869277
970.0,945.0,1.0923,0.2602,9.4624,-0.0405,0.0263,-0.1161,-1.7843028507628382,0.0,2.851935625076294,-1.8744598627090454,-0.0,1.960939645767212,5.001196014672079,-0.0,0.2953529357910156,-1.5973218123065394,-0.0,-0.006341360975056887,0.7840414047241211,-0.0,-0.0020924529526382685,0.7794113159179688,7.750975839111887e-28,-0.026041004806756973
970.0,945.0,1.0923,0.2602,9.4624,-0.0405,0.0263,-0.1161,-1.7843314609923304,0.0,2.9031686782836914,-1.8745497465133667,-0.0,1.9383227825164795,5.00113199928359,-0.0,0.2805742025375366,-1.5972779432879847,-0.0,0.006268133409321308,0.7840816378593445,-0.0,-0.005140539258718491,0.779395341873169,1.8717694095150836e-33,-0.023929502815008163
970.0,945.0,1.0923,0.2602,9.4624,-0.0405,0.0263,-0.1161,-1.7843066654601039,0.0,2.8623898029327393,-1.8744722604751587,-0.0,1.9634499549865723,5.0011640069778345,-0.0,0.3001197576522827,-1.5972979704486292,-0.0,-0.009487765841186047,0.7840413451194763,-0.0,-0.005784766748547554,0.7794315814971924,3.369118355961957e-37,0.023707278072834015
970.0,945.0,1.0923,0.2602,9.4624,-0.0405,0.0263,-0.1161,-1.7843066654601039,0.0,2.8308238983154297,-1.874500036239624,-0.0,1.9137868881225586,5.001147675305166,-0.0,0.281721830368042,-1.5972779432879847,-0.0,-0.012126789428293705,0.7840529084205627,-0.0,-0.008230417966842651,0.7793792486190796,8.141544077727187e-43,-0.01883864216506481
970.0,945.0,1.0923,0.2602,9.4624,-0.0405,0.0263,-0.1161,-1.7843553028502406,0.0,2.847637891769409,-1.8745083808898926,-0.0,1.9272942543029785,5.001139837294378,-0.0,0.29350903630256653,-1.5973218123065394,-0.0,-0.005795719102025032,0.7840816378593445,-0.0,-0.0038720418233424425,0.7793633937835693,0.0002029536262853071,-0.007768556475639343
970.0,945.0,1.0923,0.2602,9.4624,-0.0405,0.0263,-0.1161,-1.7843595943846644,0.0,2.848109006881714,-1.8745083808898926,-0.0,1.8723487854003906,5.001159924059667,-0.0,0.28477054834365845,-1.5973017851458948,-0.0,-0.013912348076701164,0.7840815782546997,-0.0,-0.009276377968490124,0.7793993949890137,0.00022339026327244937,0.04010096937417984
970.0,945.0,1.0923,0.2602,9.4624,-0.0405,0.0263,-0.1161,-1.784335275689596,0.0,2.8521087169647217,-1.8745330572128296,-0.0,1.951097011566162,5.0010874448116205,-0.0,0.2886219620704651,-1.5973294417010706,-0.0,-0.013352131471037865,0.7840496301651001,-0.0,-0.0002952825743705034,0.7794194221496582,0.00025359613937325776,-0.033658478409051895
970.0,945.0,1.0923,0.2602,9.4624,-0.0405,0.0263,-0.1161,-1.7842942676939906,0.0,2.839594841003418,-1.8744639158248901,-0.0,1.8968724012374878,5.001143920212545,-0.0,0.28432607650756836,-1.5972979704486292,-0.0,-0.0021606439258903265,0.7840496897697449,-0.0,0.0007229676702991128,0.779411256313324,0.00042261151247657835,0.02055865339934826
970.0,945.0,1.0923,0.2602,9.4624,-0.0405,0.0263,-0.1161,-1.7843309841551722,0.0,2.8712096214294434,-1.8745008707046509,-0.0,1.9446877241134644,5.001111614495077,-0.0,0.27793246507644653,-1.5972979704486292,-0.0,-0.0075763678178191185,0.7840090394020081,-0.0,0.0016669625183567405,0.7793872356414795,0.000497975037433207,-0.002808980643749237
970.0,945.0,1.0923,0.2602,9.4624,-0.0405,0.0263,-0.1161,-1.7843476734557093,0.0,2.897249698638916,-1.8744679689407349,-0.0,1.9863476753234863,5.0011837659175775,-0.0,0.2870776653289795,-1.5973418394671839,-0.0,-0.005681426264345646,0.7840529084205627,-0.0,-0.005936248227953911,0.7794474363327026,0.0009795387741178274,-0.01024209801107645
970.0,945.0,1.0923,0.2602,9.4624,-0.0405,0.0263,-0.1161,-1.7842947445311488,0.0,2.8674612045288086,-1.874448299407959,0.0010111440205946565,1.9597359895706177,5.001167762070455,-0.0,0.28426593542099,-1.5973418394671839,-0.0,0.004929904825985432,0.7840369343757629,-0.0,-0.0005637036520056427,0.7794795632362366,0.0013711464125663042,0.00793086364865303
970.0,945.0,1.0923,0.2602,9.4624,-0.0405,0.0263,-0.1161,-1.7843109569945277,0.0,2.8139586448669434,-1.8744606971740723,0.0013148020952939987,1.9538460969924927,5.001159596234121,-0.0,0.283623605966568,-1.5973737875567835,-9.393996151629835e-05,0.011971036903560162,0.7840652465820312,-0.0,0.007148772478103638,0.7794633507728577,0.002598550170660019,0.00908275693655014
970.0,945.0,1.0923,0.2602,9.4624,-0.0405,0.0263,-0.1161,-1.7843314609923304,0.0,2.8766419887542725,-1.874413013458252,0.001227665925398469,1.965762734413147,5.001195686846533,-0.0,0.2997675836086273,-1.5973776022540491,-0.00012090678501408547,0.004500696435570717,0.7840454578399658,-0.0,-0.006557987071573734,0.779503345489502,0.004063348285853863,-0.03827638924121857
970.0,945.0,1.0923,0.2602,9.4624,-0.0405,0.0263,-0.1161,-1.7842709026732386,0.0,2.860180377960205,-1.8744689226150513,0.0013559539802372456,1.9621193408966064,5.001203524857321,-0.0,0.2897685766220093,-1.5973380247699183,-0.00013002881314605474,-0.01197214424610138,0.7840574383735657,-0.0,-0.00918236467987299,0.7795273065567017,0.008347194641828537,0.05361122265458107
970.0,945.0,1.0923,0.2602,9.4624,-0.0405,0.0263,-0.1161,-1.7842828236021937,0.0,2.845414161682129,-1.8744244575500488,0.001178557169623673,1.9377431869506836,5.001187521010198,-0.0,0.294575959444046,-1.5973699728595179,-0.00014376893523149192,-0.01597766950726509,0.7840652465820312,-0.0,-0.0061933607794344425,0.7795917391777039,0.012213085778057575,0.09046277403831482
950.0,944.0,1.1904,0.3129,9.5085,-0.0241,0.0107,-0.0999,-1.7842990360655726,0.0,2.7992067337036133,-1.874412178993225,0.0011666350765153766,1.9167797565460205,5.001211690693655,-0.0,0.28459638357162476,-1.5973699728595179,-0.00013936003961134702,-0.013348308391869068,0.7840733528137207,-0.0,-0.0067275105975568295,0.7796756029129028,0.011798991821706295,0.037899527698755264
950.0,944.0,1.1904,0.3129,9.5085,-0.0241,0.0107,-0.0999,-1.7842990360655726,0.0,2.8257503509521484,-1.8744089603424072,0.002838914981111884,1.9287562370300293,5.001159596234121,-0.0,0.27692970633506775,-1.5973461310016077,-0.0003260526864323765,-0.015687189996242523,0.7840652465820312,-0.0,-0.0014211676316335797,0.7797355055809021,0.011261630803346634,0.10147489607334137
950.0,944.0,1.1904,0.3129,9.5085,-0.0241,0.0107,-0.0999,-1.784335275689596,0.0,2.768251419067383,-1.874421238899231,0.00390314357355237,1.9360411167144775,5.001143532782354,-0.0,0.2747988998889923,-1.5973857084857386,-0.00032201589783653617,-0.03286496177315712,0.7840008735656738,-0.0,0.005802215542644262,0.7797995805740356,0.012273505330085754,0.1001942828297615
950.0,944.0,1.1904,0.3129,9.5085,-0.0241,0.0107,-0.0999,-1.7843433819212855,0.0,2.789308786392212,-1.8743199110031128,0.003124312963336706,1.9461270570755005,5.001159596234121,-0.0,0.2651028037071228,-1.597365681325094,-0.0003186591493431479,-0.02327140048146248,0.7840652465820312,-0.0,-0.0029807633254677057,0.7799440026283264,0.01510271243751049,0.12363633513450623
950.0,944.0,1.1904,0.3129,9.5085,-0.0241,0.0107,-0.0999,-1.7843309841551722,0.0,2.7645792961120605,-1.874396562576294,0.002593129174783826,1.922105073928833,5.001159596234121,-0.0,0.2703644633293152,-1.5973895231830042,-0.00029005276155658066,-0.028533853590488434,0.7841012477874756,-0.0,-0.005206699948757887,0.7799798250198364,0.016502853482961655,0.1688162237405777
950.0,944.0,1.1904,0.3129,9.5085,-0.0241,0.0107,-0.0999,-1.7843395672240199,0.0,2.7847213745117188,-1.8743445873260498,0.0019535853061825037,1.9236469268798828,5.001159596234121,-0.0,0.26726919412612915,-1.5973857084857386,-0.0002920703263953328,-0.039856262505054474,0.7841094136238098,-0.0,-0.013868708163499832,0.7800639867782593,0.01780753582715988,0.19842080771923065
950.0,944.0,1.1904,0.3129,9.5085,-0.0241,0.0107,-0.0999,-1.7843190632262171,0.0,2.718888759613037,-1.8743250370025635,0.0019023757195100188,1.914482593536377,5.001199799567022,-0.0,0.25304633378982544,-1.5973699728595179,-0.0002895088691730052,-0.042152293026447296,0.7840771079063416,-0.0,0.0042926231399178505,0.7802006006240845,0.020885705947875977,0.1794622838497162
950.0,944.0,1.1904,0.3129,9.5085,-0.0241,0.0107,-0.0999,-1.7843595943846644,0.0,2.7175979614257812,-1.8742960691452026,0.001950552104972303,1.9465296268463135,5.001191901951589,-0.0,0.24532297253608704,-1.5974615255938929,-0.0003068678197450936,-0.033440373837947845,0.7841169834136963,-0.0,0.011000283062458038,0.780255913734436,0.0226441640406847,0.253518283367157
950.0,944.0,1.1904,0.3129,9.5085,-0.0241,0.0107,-0.0999,-1.7843395672240199,-0.00014891932369209826,2.7068138122558594,-1.8743373155593872,0.0018728490686044097,1.967268943786621,5.0011517880256555,-0.00035437868791632354,0.2509143352508545,-1.597410027180807,-0.0003051089006476104,-0.04623585194349289,0.7841169238090515,-0.0,0.0375332236289978,0.7804563641548157,0.027720501646399498,0.28216081857681274
950.0,944.0,1.1904,0.3129,9.5085,-0.0241,0.0107,-0.0999,-1.784323354760641,-0.00011933218047488481,2.658480644226074,-1.8742928504943848,0.001972134690731764,1.9338546991348267,5.001123475819387,-0.0006424314924515784,0.22815755009651184,-1.5974658171283167,-0.0003031845553778112,-0.053790539503097534,0.7840973138809204,-0.0,0.0076187727972865105,0.7806121706962585,0.031577445566654205,0.33386528491973877
950.0,944.0,1.1904,0.3129,9.5085,-0.0241,0.0107,-0.0999,-1.7843276462950648,-0.00014859235670883209,2.6723408699035645,-1.8742845058441162,0.0028357584960758686,1.934394121170044,5.0011759279067896,-0.0009189037373289466,0.23669758439064026,-1.5974538961993616,-0.0002716593735385686,-0.08088381588459015,0.7840930819511414,-0.0,0.026296306401491165,0.7808365821838379,0.03750055655837059,0.37908634543418884
950.0,944.0,1.1904,0.3129,9.5085,-0.0241,0.0107,-0.0999,-1.7843152485289515,-0.00013443079660646617,2.631781578063965,-1.8742609024047852,0.0028117310721427202,1.9623249769210815,5.0011558411415,-0.0013684420846402645,0.2341209053993225,-1.5974577108966272,-0.000283118017250672,-0.06157490611076355,0.7840771079063416,-0.0,0.015096573159098625,0.7809973955154419,0.042252521961927414,0.357014000415802
950.0,944.0,1.1904,0.3129,9.5085,-0.0241,0.0107,-0.0999,-1.7842947445311488,-0.00014303953503258526,2.623671054840088,-1.8742163181304932,0.002397040370851755,1.9119380712509155,5.001135754376211,-0.0018286191625520587,0.22873328626155853,-1.5974944273578089,-0.00030909551423974335,-0.060437820851802826,0.7841129302978516,0.0001897007314255461,0.03246591240167618,0.7812488675117493,0.05090078338980675,0.39696991443634033
950.0,944.0,1.1904,0.3129,9.5085,-0.0241,0.0107,-0.0999,-1.7843638859190882,-0.00028562205261550844,2.658914566040039,-1.8742483854293823,0.0017556989332661033,1.9642763137817383,5.001127916365423,-0.001713345292955637,0.22193697094917297,-1.597421948109762,-0.00031824325560592115,-0.07217180728912354,0.784065306186676,0.0002203035692218691,0.025394540280103683,0.7816266417503357,0.06051896512508392,0.44103604555130005
950.0,944.0,1.1904,0.3129,9.5085,-0.0241,0.0107,-0.0999,-1.7843395672240199,-0.0009993994608521461,2.618396282196045,-1.8742451667785645,0.001449352828785777,1.9473202228546143,5.001156228571691,-0.0017119237454608083,0.22210437059402466,-1.5974538961993616,-0.0003014029935002327,-0.06329374760389328,0.78412926197052,0.00022092022118158638,0.023572783917188644,0.7818854451179504,0.06861339509487152,0.4345589280128479
950.0,944.0,1.1904,0.3129,9.5085,-0.0241,0.0107,-0.0999,-1.7842990360655726,-0.0007509386050514877,2.6029300689697266,-1.874236822128296,0.0011687277583405375,1.996140718460083,5.001123922854223,-0.0017334513831883669,0.22505085170269012,-1.597410027180807,-0.00026780550251714885,-0.08454915881156921,0.7840972542762756,0.00022838400036562234,0.02297574281692505,0.7823178768157959,0.0810418650507927,0.5082716941833496
935.0,927.0,0.8136,-0.9547,9.5109,-0.0252,0.0182,0.0589,-1.7843591175475062,-0.0006320678512565792,2.5619051456451416,-1.8741923570632935,0.0007572895265184343,1.9648396968841553,5.001136171608724,-0.0022159377112984657,0.20574478805065155,-1.5974138418780726,-0.0002843165129888803,-0.07373194396495819,0.78412926197052,0.0003526193031575531,0.039312999695539474,0.7828662991523743,0.09440888464450836,0.5002267956733704
935.0,927.0,0.8136,-0.9547,9.5109,-0.0252,0.0182,0.0589,-1.7843591175475062,-0.000427439488703385,2.5882840156555176,-1.874220371246338,0.0005030693137086928,1.9972302913665771,5.001027631550588,-0.002559599233791232,0.2076570689678192,-1.5974538961993616,-0.000239052576944232,-0.10227024555206299,0.7840808033943176,0.00034267775481566787,0.030447766184806824,0.7835113406181335,0.10622850060462952,0.6086785197257996
935.0,927.0,0.8136,-0.9547,9.5109,-0.0252,0.0182,0.0589,-1.7843715153136195,-0.00039857905358076096,2.55474853515625,-1.874220371246338,0.0004921100335195661,1.9392189979553223,5.001047658711233,-0.002554572420194745,0.22378195822238922,-1.5974577108966272,-0.0002160867879865691,-0.0763976201415062,0.7841005921363831,0.0003044918121304363,0.03744406998157501,0.7838948965072632,0.11512790620326996,0.5977687239646912
935.0,927.0,0.8136,-0.9547,9.5109,-0.0252,0.0182,0.0589,-1.78436340908193,-0.0006935429992154241,2.6015334129333496,-1.8742690086364746,0.0003871789376717061,1.9518437385559082,5.001035737782278,-0.002812792081385851,0.20947124063968658,-1.5974538961993616,-0.00018887192709371448,-0.08616310358047485,0.78412926197052,0.00030380135285668075,0.04513172060251236,0.7847036719322205,0.13115225732326508,0.6436943411827087
935.0,927.0,0.8136,-0.9547,9.5109,-0.0252,0.0182,0.0589,-1.784375330010885,-0.001838736585341394,2.5857765674591064,-1.8742566108703613,0.00031862809555605054,1.935854434967041,5.0010403273399255,-0.00391553295776248,0.21715912222862244,-1.5974138418780726,-0.0001677461405051872,-0.08287692815065384,0.7841610908508301,0.00028396392008289695,0.053270965814590454,0.7854657173156738,0.14365118741989136,0.6395301818847656
935.0,927.0,0.8136,-0.9547,9.5109,-0.0252,0.0182,0.0589,-1.784375330010885,-0.0024768575094640255,2.6206202507019043,-1.8742525577545166,0.000284992391243577,1.9554994106292725,5.000987845450201,-0.004885829519480467,0.20104628801345825,-1.597410027180807,-0.00015610599075444043,-0.08757225424051285,0.7841570973396301,0.00027967497589997947,0.04889911413192749,0.7860827445983887,0.14668022096157074,0.5697479844093323
935.0,927.0,0.8136,-0.9547,9.5109,-0.0252,0.0182,0.0589,-1.784447809258932,-0.00433000735938549,2.5938162803649902,-1.8742772340774536,0.00024603394558653235,1.9463980197906494,5.000991987973013,-0.005124265793710947,0.21716144680976868,-1.5973823706256312,-0.00014138985716272146,-0.10171353071928024,0.7841610312461853,0.00025054748402908444,0.04222387075424194,0.7870180010795593,0.15584908425807953,0.6246660947799683
935.0,927.0,0.8136,-0.9547,9.5109,-0.0252,0.0182,0.0589,-1.7844392261900843,-0.006747962906956673,2.582042694091797,-1.8742287158966064,0.00021644738444592804,1.9030776023864746,5.000956284790792,-0.003966407384723425,0.21309122443199158,-1.5974577108966272,-0.00012920946755912155,-0.08693616092205048,0.7841734290122986,0.00021508039208129048,0.061134956777095795,0.7879863977432251,0.16394218802452087,0.684650182723999
935.0,927.0,0.8136,-0.9547,9.5109,-0.0252,0.0182,0.0589,-1.7844311199583949,-0.008699974976480007,2.595367431640625,-1.874220371246338,0.00020038212824147195,1.9521775245666504,5.0009885905082605,-0.0026417935732752085,0.21407485008239746,-1.5974019209491175,-0.00012219167547300458,-0.08516894280910492,0.7841250896453857,0.00019629181770142168,0.061403676867485046,0.7886791229248047,0.17223288118839264,0.6607159376144409
935.0,927.0,0.8136,-0.9547,9.5109,-0.0252,0.0182,0.0589,-1.7844912014403285,-0.008718456141650677,2.527304172515869,-1.874220371246338,0.00021035884856246412,1.9804751873016357,5.000952470093527,-0.0014590338105335832,0.21174529194831848,-1.597421948109762,-0.00011298705794615671,-0.09136463701725006,0.7841209173202515,0.0001735733385430649,0.055078744888305664,0.789752185344696,0.18112465739250183,0.7001272439956665
935.0,927.0,0.8136,-0.9547,9.5109,-0.0252,0.0182,0.0589,-1.7845717869200648,-0.007038317155092955,2.605438709259033,-1.8742163181304932,0.0001912070147227496,1.9630860090255737,5.000956642418661,-0.0009060652810148895,0.21101373434066772,-1.5973857084857386,-0.0001050721257342957,-0.09889201819896698,0.7841447591781616,0.00018664533854462206,0.048697568476200104,0.7909250259399414,0.19062727689743042,0.6920418739318848
935.0,927.0,0.8136,-0.9547,9.5109,-0.0252,0.0182,0.0589,-1.7845951519408167,-0.006016725208610296,2.5733354091644287,-1.8742409944534302,0.00020097079686820507,1.9041352272033691,5.000956314593115,-0.0006574336439371109,0.20639100670814514,-1.5974300543414515,-9.81936973403208e-05,-0.0867706760764122,0.78413325548172,0.00016913846775423735,0.0501733161509037,0.7920718789100647,0.202390655875206,0.7336480617523193
935.0,927.0,0.8136,-0.9547,9.5109,-0.0252,0.0182,0.0589,-1.7846280537047328,-0.006019914522767067,2.5763983726501465,-1.874236822128296,0.00018019607523456216,1.9147963523864746,5.000952470093527,-0.00038950159796513617,0.21602126955986023,-1.5974257628070276,-9.408740879734978e-05,-0.1135457456111908,0.7841570973396301,0.00015916646225377917,0.05896983668208122,0.7929330468177795,0.20982885360717773,0.7235709428787231
935.0,927.0,0.8136,-0.9547,9.5109,-0.0252,0.0182,0.0589,-1.784708162347311,-0.007161353714764118,2.5408897399902344,-1.874208927154541,0.00019862702174577862,1.9459874629974365,5.000952470093527,-0.0003071619139518589,0.22346942126750946,-1.5973895231830042,-8.853398321662098e-05,-0.09200840443372726,0.7841365933418274,0.00016429346578661352,0.05684391409158707,0.7942434549331665,0.21352525055408478,0.7481826543807983
935.0,927.0,0.8136,-0.9547,9.5109,-0.0252,0.0182,0.0589,-1.7847520313658656,-0.009286710992455482,2.5115585327148438,-1.8742079734802246,0.00018354503845330328,1.9430484771728516,5.000916111260214,-0.00035000816569663584,0.2065204381942749,-1.5973776022540491,-2.8126953111495823e-05,-0.09831711649894714,0.7841853499412537,0.00015778544184286147,0.05665510147809982,0.7955648899078369,0.21949343383312225,0.7383313179016113
935.0,927.0,0.8136,-0.9547,9.5109,-0.0252,0.0182,0.0589,-1.7847839794554652,-0.009621473960578442,2.5310115814208984,-1.874228596687317,0.00035123637644574046,2.0045433044433594,5.000988620310583,-0.00032053806353360415,0.19598977267742157,-1.5973776022540491,-7.466193210348138e-07,-0.08559208363294601,0.7841529846191406,0.00015025996253825724,0.057191766798496246,0.7964411973953247,0.22248220443725586,0.6968994140625
935.0,927.0,0.8136,-0.9547,9.5109,-0.0252,0.0182,0.0589,-1.784839769402975,-0.009963570162653923,2.5654096603393555,-1.8742574453353882,0.00052641547517851,1.9012629985809326,5.000948357373037,-0.00031782014411874115,0.2148575484752655,-1.5973461310016077,-2.0782421616960534e-10,-0.08822692930698395,0.7841365337371826,0.0001402260531904176,0.0623939074575901,0.7978788614273071,0.23921388387680054,0.7238157987594604
948.0,929.0,1.334,-0.3787,9.5862,0.025,0.0226,0.1472,-1.7849122486510218,-0.009882073849439621,2.5905327796936035,-1.8742245435714722,0.0009894834365695715,1.9706274271011353,5.0009566126163385,-0.0002882080152630806,0.21245327591896057,-1.5974019209491175,-5.784863012876437e-14,-0.07398243993520737,0.7842215299606323,0.00013144826516509056,0.05530477315187454,0.7993033528327942,0.24952146410942078,0.7712836861610413
948.0,929.0,1.334,-0.3787,9.5862,0.025,0.0226,0.1472,-1.784907957116598,-0.00825612060725689,2.6113243103027344,-1.874192476272583,0.001051097409799695,1.9631739854812622,5.000936138420858,-0.0002445286372676492,0.20828276872634888,-1.597393814717428,-1.6102379223073743e-17,-0.08329343050718307,0.7841209769248962,0.00012370488548185676,0.05905550718307495,0.8008046746253967,0.25178757309913635,0.7696783542633057
948.0,929.0,1.334,-0.3787,9.5862,0.025,0.0226,0.1472,-1.7849961719908656,-0.007652293890714645,2.6052846908569336,-1.874236822128296,0.0015304209664463997,1.9663293361663818,5.000916051655569,-0.00022055229055695236,0.20707155764102936,-1.597381893788473,-6.864696940334564e-20,-0.08625265210866928,0.7841129302978516,0.00011903019913006574,0.0677964836359024,0.8017894625663757,0.25286567211151123,0.7310526371002197
948.0,929.0,1.334,-0.3787,9.5862,0.025,0.0226,0.1472,-1.7850319347777308,-0.007554048206657171,2.58626127243042,-1.8742129802703857,0.00208130176179111,1.9334601163864136,5.000956642418661,-0.0001922734809340909,0.20388171076774597,-1.597381893788473,-1.9108137522783456e-23,-0.08360134065151215,0.784040629863739,0.00011264530621701851,0.04251214861869812,0.8033666014671326,0.2666744589805603,0.7082860469818115
948.0,929.0,1.334,-0.3787,9.5862,0.025,0.0226,0.1472,-1.7850877247252406,-0.007161377463489771,2.5811710357666016,-1.8742015361785889,0.0015859631821513176,1.9498056173324585,5.000964391022482,-0.000170424347743392,0.22372043132781982,-1.5973575750934046,-5.31881992737083e-27,-0.07302606105804443,0.7841570377349854,0.00010691038914956152,0.042899392545223236,0.8049361705780029,0.2767293453216553,0.7667216062545776
948.0,929.0,1.334,-0.3787,9.5862,0.025,0.0226,0.1472,-1.7851282558836878,-0.006828146521002054,2.5685460567474365,-1.8741933107376099,0.0011183293536305428,1.9078614711761475,5.00094028094367,-0.0001584228448336944,0.19864660501480103,-1.597393814717428,-2.2674963283632964e-29,-0.07637947052717209,0.78413325548172,0.00010340098378947005,0.058430060744285583,0.8060488104820251,0.2746279537677765,0.7839294672012329
948.0,929.0,1.334,-0.3787,9.5862,0.025,0.0226,0.1472,-1.785123964349264,-0.005561151076108217,2.6693434715270996,-1.8741726875305176,0.0008042780682444572,1.932567834854126,5.000952470093527,-0.00014328744146041572,0.22370177507400513,-1.5973299185382288,-6.31165969437085e-33,-0.07736235857009888,0.7841693162918091,9.854851668933406e-05,0.04005062207579613,0.807749330997467,0.27350130677223206,0.7141692638397217
948.0,929.0,1.334,-0.3787,9.5862,0.025,0.0226,0.1472,-1.7851764164366664,-0.003903911216184497,2.6796488761901855,-1.8741488456726074,0.000714762310963124,2.018711566925049,5.0009361682231805,-0.000130792788695544,0.22189098596572876,-1.597381893788473,-1.7568736672791324e-36,-0.06650973856449127,0.7841612100601196,9.413110819878057e-05,0.033233851194381714,0.8094189167022705,0.2859175205230713,0.6893811225891113
948.0,929.0,1.334,-0.3787,9.5862,0.025,0.0226,0.1472,-1.7852002582945765,-0.0024898983538150787,2.6308131217956543,-1.8741933107376099,0.0024905323516577482,1.9760721921920776,5.000932085305013,-0.00012030201469315216,0.22213831543922424,-1.5973699728595179,-4.890321445723963e-40,-0.06800499558448792,0.7841087579727173,9.00927625480108e-05,0.04426033794879913,0.8111721277236938,0.29620569944381714,0.7525197267532349
948.0,929.0,1.334,-0.3787,9.5862,0.025,0.0226,0.1472,-1.7852164707579554,-0.0016447972739115357,2.661712169647217,-1.8740763664245605,0.002764000091701746,1.89896559715271,5.000968891173162,-0.0001141959146480076,0.22635740041732788,-1.5973380247699183,-2.0851321149153278e-42,-0.07360611855983734,0.7841612696647644,8.758764306548983e-05,0.03296133130788803,0.8123378157615662,0.2913118600845337,0.6869168281555176
948.0,929.0,1.334,-0.3787,9.5862,0.025,0.0226,0.1472,-1.7852288685240687,-0.0010132919996976852,2.6808252334594727,-1.8741052150726318,0.004669569432735443,1.9985709190368652,5.00099607089118,-9.038103598868474e-05,0.22959989309310913,-1.5973299185382288,-0.0,-0.06448587775230408,0.784121036529541,8.408079884247854e-05,0.04604470729827881,0.8140662908554077,0.2915702164173126,0.7242118716239929
948.0,929.0,1.334,-0.3787,9.5862,0.025,0.0226,0.1472,-1.7852002582945765,-0.0002498646208550781,2.7401444911956787,-1.8741093873977661,0.006325863301753998,1.9485552310943604,5.000960725336828,-7.928582635940984e-05,0.2292603850364685,-1.5972936789142054,-0.0,-0.06279361248016357,0.78412926197052,8.084389264695346e-05,0.04096895456314087,0.8158760666847229,0.29657337069511414,0.6803816556930542
948.0,929.0,1.334,-0.3787,9.5862,0.025,0.0226,0.1472,-1.785168310204977,-0.00010974152246490121,2.691610336303711,-1.8740286827087402,0.008866183459758759,1.9769448041915894,5.000976311951437,-5.8220735809300095e-05,0.23536564409732819,-1.5973294417010706,0.00023354135919362307,-0.052082184702157974,0.78413325548172,7.882100180722773e-05,0.0429174043238163,0.8169840574264526,0.2976504862308502,0.6605145931243896
948.0,929.0,1.334,-0.3787,9.5862,0.025,0.0226,0.1472,-1.785168310204977,-1.0774897418741602e-06,2.7631824016571045,-1.87391996383667,0.011294960975646973,1.9846460819244385,5.00099607089118,3.726616341737099e-05,0.23464427888393402,-1.5973337332354944,0.0002070124464808032,-0.06777998059988022,0.7841012477874756,2.8205498892930336e-05,0.036818426102399826,0.8187898397445679,0.2955649495124817,0.6463140249252319
948.0,929.0,1.334,-0.3787,9.5862,0.025,0.0226,0.1472,-1.7851721249022425,-2.602011271377047e-12,2.718843698501587,-1.873884677886963,0.012973017990589142,2.0195391178131104,5.000991987973013,8.187480125343427e-05,0.24250048398971558,-1.5973418394671839,0.0002182736061513424,-0.06320913136005402,0.7840930819511414,2.689039865799714e-05,0.04189649224281311,0.8205954432487488,0.29151734709739685,0.6076527833938599
948.0,929.0,1.334,-0.3787,9.5862,0.025,0.0226,0.1472,-1.7851563892760218,-6.283550964625354e-18,2.735865592956543,-1.873744010925293,0.015927812084555626,1.9890366792678833,5.000983851939001,0.0006068304064683616,0.25903910398483276,-1.5973213354693812,0.00021056746481917799,-0.04673055559396744,0.7841012477874756,2.573691017460078e-05,0.049283552914857864,0.8223457336425781,0.2915172874927521,0.6491550207138062
948.0,929.0,1.334,-0.3787,9.5862,0.025,0.0226,0.1472,-1.785152097741598,-1.1310169156563084e-21,2.759383201599121,-1.8737332820892334,0.017947841435670853,2.0181174278259277,5.001016157656469,0.0007260223501361907,0.25949162244796753,-1.5973055998431605,0.00021177194139454514,-0.06106281280517578,0.78412926197052,2.5021372493938543e-05,0.021844077855348587,0.8235176801681519,0.29234564304351807,0.6015186309814453
932.0,913.0,1.1713,0.6832,9.4929,0.0296,0.0678,0.146,-1.7851845226683558,0.0008045629947446287,2.8205454349517822,-1.8735687732696533,0.01977774128317833,2.0465478897094727,5.001019823342123,0.000788260018453002,0.2771442234516144,-1.5973098913775843,0.000192428648006171,-0.0478501059114933,0.7841012477874756,1.5099272786756046e-05,0.023197244852781296,0.8252840638160706,0.2883964478969574,0.5677334070205688
932.0,913.0,1.1713,0.6832,9.4929,0.0296,0.0678,0.146,-1.7851478062071742,0.0006594597944058478,2.8229522705078125,-1.873441219329834,0.021748404949903488,2.0379292964935303,5.001040297537603,0.0008304886287078261,0.2699279189109802,-1.5973055998431605,0.00017627450870350003,-0.05862078070640564,0.7841169238090515,1.1548431757546496e-05,0.014476343989372253,0.826981246471405,0.2828353941440582,0.5525630712509155
932.0,913.0,1.1713,0.6832,9.4929,0.0296,0.0678,0.146,-1.7851563892760218,0.0006220541545189917,2.81404972076416,-1.8733325004577637,0.023076236248016357,2.0530171394348145,5.001044410258093,0.000835376966279,0.2780231237411499,-1.5973580519305628,0.00019036562298424542,-0.045199133455753326,0.7840690016746521,1.1258659469604027e-05,0.020554054528474808,0.8281540274620056,0.2804812490940094,0.522637665271759
932.0,913.0,1.1713,0.6832,9.4929,0.0296,0.0678,0.146,-1.7851563892760218,0.0005708187818527222,2.8329458236694336,-1.8732411861419678,0.02612178400158882,2.1097583770751953,5.001036125212469,0.0007110077422112226,0.2925494313240051,-1.5972860495196741,0.00017673026013653725,-0.04727957397699356,0.7840409874916077,1.0851415936485864e-05,0.018561793491244316,0.82982337474823,0.2832135260105133,0.5944456458091736
932.0,913.0,1.1713,0.6832,9.4929,0.0296,0.0678,0.146,-1.7851325474181117,0.0005858043441548944,2.84488582611084,-1.8730289936065674,0.028388377279043198,2.0906076431274414,5.0010403273399255,0.0006280260276980698,0.29033297300338745,-1.5973098913775843,0.00016460850019939244,-0.04194793850183487,0.7840975522994995,2.317463554390997e-08,0.025657782331109047,0.8314960598945618,0.27642834186553955,0.5063597559928894
932.0,913.0,1.1713,0.6832,9.4929,0.0296,0.0678,0.146,-1.7851163349547328,0.0004715476534329355,2.912529468536377,-1.8728808164596558,0.031263530254364014,2.1144683361053467,5.001092391997137,0.0005149049102328718,0.2979916036128998,-1.5972979704486292,0.00015404270379804075,-0.04639669880270958,0.7840570211410522,6.450745319852569e-12,0.0043559568002820015,0.8330895900726318,0.2671971917152405,0.4906423091888428
932.0,913.0,1.1713,0.6832,9.4929,0.0296,0.0678,0.146,-1.7851320705809535,0.00041692907689139247,2.8869986534118652,-1.8727532625198364,0.033806610852479935,2.096914052963257,5.000995623856344,0.0004491638101171702,0.302367627620697,-1.5973098913775843,0.00014433437900152057,-0.04358210414648056,0.7840692400932312,2.7500540771474222e-14,0.020025979727506638,0.8341501951217651,0.27133721113204956,0.44703763723373413
932.0,913.0,1.1713,0.6832,9.4929,0.0296,0.0678,0.146,-1.785152097741598,0.0003552132402546704,2.8590121269226074,-1.872549295425415,0.03779534250497818,2.132136821746826,5.001028078585424,0.00041519696242175996,0.30397623777389526,-1.59733754793276,0.00013166006829123944,-0.04054882377386093,0.7840893268585205,7.654877453895365e-18,0.01087646372616291,0.8357712030410767,0.2719777822494507,0.5147029161453247
932.0,913.0,1.1713,0.6832,9.4929,0.0296,0.0678,0.146,-1.785140176812643,0.00030941524892114103,2.924388885498047,-1.8722891807556152,0.041518233716487885,2.1250314712524414,5.001003849297323,0.0003495464916341007,0.2954915761947632,-1.5972660223590296,0.00014482185360975564,-0.03512638807296753,0.7840529084205627,2.130763135767614e-21,0.01987561583518982,0.8372833728790283,0.26085788011550903,0.5225383639335632
932.0,913.0,1.1713,0.6832,9.4929,0.0296,0.0678,0.146,-1.785135885278219,0.0002849241136573255,2.933926582336426,-1.872125506401062,0.044072225689888,2.1819369792938232,5.001023995667257,0.00031462128390558064,0.3077637553215027,-1.5973098913775843,0.0001378261367790401,-0.03581688553094864,0.7840331792831421,9.083776710969738e-24,0.006729507353156805,0.8383245468139648,0.25077834725379944,0.4777167737483978
932.0,913.0,1.1713,0.6832,9.4929,0.0296,0.0678,0.146,-1.7851277790465296,0.0002228513767477125,2.929569721221924,-1.8718003034591675,0.05012787878513336,2.1792969703674316,5.001044440060415,0.0002736176538746804,0.307342529296875,-1.5973218123065394,0.00014935547369532287,-0.04918380826711655,0.7840489745140076,2.52850257943547e-27,0.018617523834109306,0.839830219745636,0.2530364692211151,0.4983271360397339
932.0,913.0,1.1713,0.6832,9.4929,0.0296,0.0678,0.146,-1.7851845226683558,0.0002014705096371472,2.909886360168457,-1.8714326620101929,0.055006396025419235,2.116926908493042,5.0010686097438715,0.00024207073147408664,0.31627488136291504,-1.5972493330584925,0.00015918936696834862,-0.03712344169616699,0.7840611338615417,7.038180266791342e-31,0.0159063208848238,0.8413392901420593,0.2527407705783844,0.43876367807388306
932.0,913.0,1.1713,0.6832,9.4929,0.0296,0.0678,0.146,-1.7851845226683558,0.00018935913976747543,2.9705395698547363,-1.8712812662124634,0.06001003831624985,2.250101089477539,5.0010403273399255,0.00022479324252344668,0.30839845538139343,-1.597274128590719,0.0002019770472543314,-0.01944022998213768,0.7840409874916077,3.0004867993563213e-33,-0.005902818404138088,0.8422991037368774,0.2480708658695221,0.4331120252609253
932.0,913.0,1.1713,0.6832,9.4929,0.0296,0.0678,0.146,-1.7851644955077113,0.00017369654960930347,2.996100902557373,-1.8708605766296387,0.06612894684076309,2.1498913764953613,5.001056301384725,0.0002319302730029449,0.32246464490890503,-1.5972541014300745,0.0002179815201088786,-0.03331463783979416,0.7840291261672974,8.351965745623253e-37,0.0057395873591303825,0.8437011241912842,0.2323450893163681,0.3621402978897095
932.0,913.0,1.1713,0.6832,9.4929,0.0296,0.0678,0.146,-1.7851926289000453,0.00016042712377384305,3.0204598903656006,-1.870353102684021,0.07755322009325027,2.249289035797119,5.00099607089118,0.00021160025789868087,0.3168252110481262,-1.5973175207721155,0.00022837039432488382,-0.032481640577316284,0.7840291261672974,2.3247961912688013e-40,0.007379880640655756,0.8451263904571533,0.2267431914806366,0.4119636118412018
932.0,913.0,1.1713,0.6832,9.4929,0.0296,0.0678,0.146,-1.7851644955077113,0.00014904119598213583,2.9554600715637207,-1.8699374198913574,0.08933497220277786,2.2397584915161133,5.000987994461813,0.00014845661644358188,0.3214889466762543,-1.5972541014300745,0.00023585441522300243,-0.021515490487217903,0.784085750579834,6.445972935894159e-44,-0.007127787917852402,0.8464534878730774,0.22204965353012085,0.388206422328949
937.0,893.0,1.6002,1.2096,9.95,-0.006,0.1833,0.024,-1.785112043420309,0.00014230780652724206,2.9690282344818115,-1.8694642782211304,0.09645964950323105,2.2618651390075684,5.001028078585424,0.00013891527487430722,0.31272047758102417,-1.5972541014300745,0.00021993726841174066,-0.020181994885206223,0.784125030040741,0.0,-0.004278772044926882,0.8473317623138428,0.22170749306678772,0.30794432759284973
937.0,893.0,1.6002,1.2096,9.95,-0.006,0.1833,0.024,-1.785152097741598,0.0001332764804828912,3.0106656551361084,-1.8688405752182007,0.10849719494581223,2.2581708431243896,5.001016157656469,0.0001459752966184169,0.3345179855823517,-1.5972259680377405,0.00030467630131170154,-0.01343216560781002,0.7840652465820312,0.0,0.011189413256943226,0.8485963940620422,0.21216031908988953,0.33030080795288086
937.0,893.0,1.6002,1.2096,9.95,-0.006,0.1833,0.024,-1.7851764164366664,4.5449662138707936e-05,3.002305507659912,-1.8681092262268066,0.11997698992490768,2.274951696395874,5.001028078585424,0.00015215648454613984,0.3285380005836487,-1.5972297827350062,0.00031290785409510136,-0.006627713330090046,0.7839849591255188,0.0,0.00540285836905241,0.8498775362968445,0.19935940206050873,0.26519620418548584
937.0,893.0,1.6002,1.2096,9.95,-0.006,0.1833,0.024,-1.7852126560606898,4.024038935313001e-05,2.998645305633545,-1.867588996887207,0.1261318176984787,2.2640745639801025,5.001023995667257,0.00015590993280056864,0.3251104950904846,-1.5972140471087855,0.0003280261589679867,-0.014488743618130684,0.7840213179588318,0.0,0.0011810197029262781,0.8506606221199036,0.19164630770683289,0.2403547465801239
937.0,893.0,1.6002,1.2096,9.95,-0.006,0.1833,0.024,-1.7852002582945765,1.8855738744605333e-05,3.0348243713378906,-1.866813063621521,0.13824978470802307,2.2722153663635254,5.000987845450201,0.0001451782591175288,0.3298560380935669,-1.5972417036639612,0.00032423323136754334,-0.011540745384991169,0.7840253710746765,-0.00012355275976005942,0.011910445988178253,0.8518268465995789,0.18449661135673523,0.20680075883865356
937.0,893.0,1.6002,1.2096,9.95,-0.006,0.1833,0.024,-1.7851959667601527,2.0752966065629153e-06,3.0474891662597656,-1.86594557762146,0.14981940388679504,2.343210220336914,5.001023995667257,0.0001357902801828459,0.3266468942165375,-1.5972259680377405,0.0003911149105988443,0.010339373722672462,0.7840414047241211,-0.00013513097655959427,0.007622974459081888,0.8529073596000671,0.1780906468629837,0.2549782395362854
937.0,893.0,1.6002,1.2096,9.95,-0.006,0.1833,0.024,-1.785241266290182,5.011596606457891e-12,2.963196277618408,-1.8649895191192627,0.16194210946559906,2.3148422241210938,5.001023995667257,0.0001275430404348299,0.318450391292572,-1.5972541014300745,0.0004028111870866269,0.00889185443520546,0.7840734124183655,-0.00014865041885059327,-0.006824946962296963,0.8539161682128906,0.16621915996074677,0.1650574505329132
937.0,893.0,1.6002,1.2096,9.95,-0.006,0.1833,0.024,-1.7852045498290003,9.020696541559774e-16,2.99184250831604,-1.864233374595642,0.171311154961586,2.3618030548095703,5.0010403273399255,0.00012257964408490807,0.3280605971813202,-1.5971782843219202,0.0004291337972972542,0.012556604109704494,0.7840454578399658,-0.0001409929245710373,-0.0014193730894476175,0.8545926213264465,0.16326096653938293,0.15402010083198547
937.0,893.0,1.6002,1.2096,9.95,-0.006,0.1833,0.024,-1.7851840458311976,2.178391856165119e-21,2.978933095932007,-1.8631967306137085,0.18315477669239044,2.4020228385925293,5.000987845450201,0.00011581895523704588,0.3209081292152405,-1.5972016493426722,0.0006710679153911769,0.017351306974887848,0.7840090990066528,-0.00015216536121442914,-0.014977864921092987,0.8555532097816467,0.14905376732349396,0.1521994024515152
937.0,893.0,1.6002,1.2096,9.95,-0.006,0.1833,0.024,-1.7852407894530238,5.260560546553116e-27,2.990609645843506,-1.8620814085006714,0.1901642233133316,2.408328056335449,5.00105636098937,0.00010976520570693538,0.32169193029403687,-1.5972021261798304,0.0018704666290432215,0.009355803020298481,0.7839693427085876,-0.00016234959184657782,-0.0066301897168159485,0.8564140796661377,0.13205395638942719,0.10624870657920837
937.0,893.0,1.6002,1.2096,9.95,-0.006,0.1833,0.024,-1.7852369747557582,9.468822346438597e-31,2.970099449157715,-1.86127769947052,0.20133662223815918,2.3966686725616455,5.001048075943746,0.0001060690192389302,0.31004053354263306,-1.5971697012530726,0.004189616069197655,0.012198219075798988,0.7840418219566345,-0.0002722501812968403,-0.0008530626073479652,0.8569144010543823,0.12337922304868698,0.11834739148616791
937.0,893.0,1.6002,1.2096,9.95,-0.006,0.1833,0.024,-1.785192152062887,-0.0006021145381964743,2.960662841796875,-1.8600178956985474,0.21658983826637268,2.4594459533691406,5.001024293690481,5.6548080465290695e-05,0.33215197920799255,-1.5971382300006312,0.018408268690109253,0.014924458228051662,0.7840577960014343,-0.0003221497463528067,-0.01817045919597149,0.857642650604248,0.11154884845018387,0.01784895919263363
937.0,893.0,1.6002,1.2096,9.95,-0.006,0.1833,0.024,-1.785192152062887,-0.0005956293898634613,2.994912624359131,-1.8587499856948853,0.2282513678073883,2.4750254154205322,5.0009838221366785,4.907057882519439e-05,0.30635324120521545,-1.5970094839679163,0.025882527232170105,0.044781167060136795,0.7839975953102112,-0.0004465069796424359,-0.03171627223491669,0.8582353591918945,0.09716618061065674,0.044238679111003876
937.0,893.0,1.6002,1.2096,9.95,-0.006,0.1833,0.024,-1.7852727375426234,-0.0008477369556203485,2.9556779861450195,-1.8573426008224487,0.23379939794540405,2.4137046337127686,5.001016157656469,2.2731712306267582e-05,0.32700464129447937,-1.596893612538473,0.01789623126387596,0.03234131634235382,0.7840336561203003,-0.0005699238972738385,-0.01032394077628851,0.8587635159492493,0.08754439651966095,-0.04931940138339996
937.0,893.0,1.6002,1.2096,9.95,-0.006,0.1833,0.024,-1.7852727375426234,-0.0012274656910449266,2.9627890586853027,-1.8563544750213623,0.24174438416957855,2.4543893337249756,5.000972318440237,2.1591849872493185e-05,0.30771657824516296,-1.5968578497516077,0.008944114670157433,0.03570280596613884,0.7840414047241211,-0.0004988041473552585,-0.01520826481282711,0.8591077923774719,0.07970397919416428,-0.028879988938570023
937.0,893.0,1.6002,1.2096,9.95,-0.006,0.1833,0.024,-1.7852565250792445,-0.0008369166171178222,2.9569926261901855,-1.8548550605773926,0.2591349184513092,2.4930238723754883,5.001008319645681,2.014191704802215e-05,0.3135541081428528,-1.596837345753805,0.0001618075039004907,0.034050580114126205,0.7839857339859009,-0.000541107205208391,-0.03409367799758911,0.8595519661903381,0.07579851150512695,-0.06441086530685425
937.0,893.0,1.6002,1.2096,9.95,-0.006,0.1833,0.024,-1.7852684460081996,-0.0005711257108487189,2.9454431533813477,-1.853266954421997,0.2753300368785858,2.520000696182251,5.000952172070303,8.398846063073506e-08,0.30585116147994995,-1.5968220869647425,4.5039723062245685e-08,0.04428628832101822,0.7839934825897217,-0.0004810562531929463,-0.04011921584606171,0.8599531054496765,0.06827011704444885,-0.038440000265836716
910.0,890.0,1.2275,2.1517,10.3304,-0.0206,0.3584,-0.1652,-1.785264631310934,-0.00054662034381181,2.920276641845703,-1.852207899093628,0.2811551094055176,2.452772617340088,5.000960308104315,3.580560015148393e-10,0.2950465977191925,-1.5968416372882288,1.920114206521717e-10,0.04805855453014374,0.7839971780776978,-0.0004424341314006597,-0.022538285702466965,0.8601683378219604,0.06041733920574188,-0.06689611822366714
910.0,890.0,1.2275,2.1517,10.3304,-0.0206,0.3584,-0.1652,-1.7852889500060023,-0.00046397140249609947,2.9338860511779785,-1.8503633737564087,0.29287657141685486,2.5489401817321777,5.00099607089118,9.966621305384019e-14,0.29969704151153564,-1.5968053976642054,-0.00014347594697028399,0.05378272756934166,0.7839733958244324,-0.0003890457155648619,-0.035721555352211,0.8605126738548279,0.04818342626094818,-0.10630030930042267
910.0,890.0,1.2275,2.1517,10.3304,-0.0206,0.3584,-0.1652,-1.785304685632223,-0.0018092134268954396,2.924696445465088,-1.8486236333847046,0.3138108253479004,2.5783352851867676,5.000960278301992,2.7742454876752597e-17,0.29505592584609985,-1.5968182722674769,0.00017897032375913113,0.05859635770320892,0.783989429473877,-0.0003748857125174254,-0.034636933356523514,0.8608329892158508,0.03657366335391998,-0.1560213267803192
910.0,890.0,1.2275,2.1517,10.3304,-0.0206,0.3584,-0.1652,-1.7853247127928675,-0.004129099193960428,2.911895275115967,-1.8467330932617188,0.32402288913726807,2.494040012359619,5.000964778452673,-0.0005793427699245512,0.2893429696559906,-1.5968416372882288,0.00020552398927975446,0.05693370848894119,0.7840254902839661,-0.00030516934930346906,-0.04245886951684952,0.8610332012176514,0.026107637211680412,-0.26322293281555176
910.0,890.0,1.2275,2.1517,10.3304,-0.0206,0.3584,-0.1652,-1.7853247127928675,-0.007698483765125275,2.8955507278442383,-1.845342993736267,0.3274020552635193,2.5462095737457275,5.000968503742971,-0.0017460702219977975,0.2656075656414032,-1.596830193196432,0.0001793245319277048,0.06419245898723602,0.784013569355011,-0.0002679579774849117,-0.03508073091506958,0.8611010909080505,0.018127664923667908,-0.19510208070278168
910.0,890.0,1.2275,2.1517,10.3304,-0.0206,0.3584,-0.1652,-1.785356184045309,-0.010446812957525253,2.8394298553466797,-1.8433338403701782,0.34190723299980164,2.5670766830444336,5.000932085305013,-0.0008616956183686852,0.27258265018463135,-1.596854035054342,0.0001495221658842638,0.052078623324632645,0.7840176820755005,-0.00027277908520773053,-0.04728671908378601,0.8611810803413391,0.00809768307954073,-0.20782169699668884
910.0,890.0,1.2275,2.1517,10.3304,-0.0206,0.3584,-0.1652,-1.7854119739928187,-0.010632217861711979,2.8707480430603027,-1.841170310974121,0.3571658432483673,2.5795440673828125,5.000972616463461,-0.0005870411405339837,0.26163697242736816,-1.5968015829669397,0.00016522772784810513,0.0541076585650444,0.7840017676353455,-0.00027617908199317753,-0.03559548407793045,0.8611128926277161,0.0022202159743756056,-0.14590749144554138
910.0,890.0,1.2275,2.1517,10.3304,-0.0206,0.3584,-0.1652,-1.7854811153807582,-0.009576358832418919,2.8445119857788086,-1.839720606803894,0.36525264382362366,2.594111919403076,5.000952470093527,-0.0005004964186809957,0.27747517824172974,-1.5968177954303187,0.00015609609545208514,0.05371341109275818,0.7839857339859009,-0.00028552909498102963,-0.03345403075218201,0.8611050248146057,2.7080013751401566e-06,-0.24574926495552063
910.0,890.0,1.2275,2.1517,10.3304,-0.0206,0.3584,-0.1652,-1.785553594628805,-0.00846384558826685,2.895885467529297,-1.8374117612838745,0.3775261342525482,2.5960140228271484,5.000908303051748,-0.0004395588766783476,0.2639053165912628,-1.5968058745013636,0.00016808710643090308,0.06274253875017166,0.7839733958244324,-0.00025901920162141323,-0.039994847029447556,0.8611212372779846,-0.007355925627052784,-0.27038225531578064
910.0,890.0,1.2275,2.1517,10.3304,-0.0206,0.3584,-0.1652,-1.7856093845763148,-0.007437942549586296,2.806718349456787,-1.8351409435272217,0.3859436511993408,2.5664114952087402,5.000972616463461,-0.00042865436989814043,0.24526852369308472,-1.5967896620379847,0.00020528191816993058,0.059674352407455444,0.7839774489402771,-0.00026458062347956,-0.036893077194690704,0.861081600189209,-0.009703400544822216,-0.25715890526771545
910.0,890.0,1.2275,2.1517,10.3304,-0.0206,0.3584,-0.1652,-1.7856413326659144,-0.00819670595228672,2.84598708152771,-1.8335752487182617,0.3940819501876831,2.5832579135894775,5.000908303051748,-0.00026944931596517563,0.25041577219963074,-1.5967581907855433,0.0002591029624454677,0.07392741739749908,0.7839857339859009,-0.00023785584198776633,-0.05064334720373154,0.8609806895256042,-0.010758445598185062,-0.2721412777900696
910.0,890.0,1.2275,2.1517,10.3304,-0.0206,0.3584,-0.1652,-1.7857099972166957,-0.007697878871113062,2.8113465309143066,-1.8311635255813599,0.4083609879016876,2.5681185722351074,5.00087599733428,-0.00022764717868994921,0.2612696886062622,-1.596717659627096,0.0007271123467944562,0.048009879887104034,0.7839574813842773,-0.00020529594621621072,-0.043367862701416016,0.8608728647232056,-0.01094899233430624,-0.3327379822731018
910.0,890.0,1.2275,2.1517,10.3304,-0.0206,0.3584,-0.1652,-1.7857290707030238,-0.006909854244440794,2.809689521789551,-1.8286633491516113,0.4212239384651184,2.6390748023986816,5.000936585455694,-0.0007218666141852736,0.2574054002761841,-1.5967534224139612,0.0007533128373324871,0.08064523339271545,0.7839776277542114,-0.00021667999681085348,-0.03404578939080238,0.8607727289199829,-0.012028452008962631,-0.33324939012527466
910.0,890.0,1.2275,2.1517,10.3304,-0.0206,0.3584,-0.1652,-1.7857490978636683,-0.007447551470249891,2.7531309127807617,-1.8261526823043823,0.42926180362701416,2.601618528366089,5.000868546753683,-0.0037591741420328617,0.24271798133850098,-1.5967615286456507,0.0007797062280587852,0.0741109773516655,0.7839775085449219,-0.0001934045722009614,-0.04403811693191528,0.8607568144798279,-0.014950918965041637,-0.3389725089073181
910.0,890.0,1.2275,2.1517,10.3304,-0.0206,0.3584,-0.1652,-1.7857891521849574,-0.00803909357637167,2.747875452041626,-1.8243619203567505,0.43063339591026306,2.580054759979248,5.000896888762274,-0.004394853953272104,0.2352648824453354,-1.5967100302325647,0.0007959783542901278,0.08225971460342407,0.7839090824127197,-0.00021028467745054513,-0.04514283686876297,0.8606367111206055,-0.01630972884595394,-0.3560459613800049
910.0,890.0,1.2275,2.1517,10.3304,-0.0206,0.3584,-0.1652,-1.7858616314330042,-0.008809063583612442,2.7023634910583496,-1.8216863870620728,0.44627419114112854,2.639233350753784,5.000860798149862,-0.003876353148370981,0.22733525931835175,-1.596729580556051,0.0008512141648679972,0.08367689698934555,0.7839734554290771,-0.00019136520859319717,-0.050636544823646545,0.8605725765228271,-0.018410030752420425,-0.40713346004486084
608.0,8190.0,0.4899,0.1615,9.5288,-0.0698,0.4983,-0.1674,-1.7858616314330042,-0.008485479280352592,2.6658072471618652,-1.8190478086471558,0.4569777250289917,2.650852918624878,5.000800508051672,-0.002686734776943922,0.21223759651184082,-1.5967219511615198,0.0009936672868207097,0.09584158658981323,0.7839816212654114,-0.00020040680828969926,-0.06032262742519379,0.86045241355896,-0.019071310758590698,-0.3703945577144623
608.0,8190.0,0.4899,0.1615,9.5288,-0.0698,0.4983,-0.1674,-1.7859217129149378,-0.007885139435529709,2.6490511894226074,-1.817252516746521,0.46613821387290955,2.6471314430236816,5.000784921437063,-0.00398021237924695,0.1984388381242752,-1.5966857115374964,0.0009850957430899143,0.11066141724586487,0.7839534282684326,-0.0001898642221931368,-0.053785424679517746,0.8603725433349609,-0.0206313319504261,-0.35396841168403625
608.0,8190.0,0.4899,0.1615,9.5288,-0.0698,0.4983,-0.1674,-1.785973688165182,-0.009190811775624752,2.692370891571045,-1.8144210577011108,0.46726006269454956,2.656459331512451,5.000736939698019,-0.01010653842240572,0.19478574395179749,-1.5966900030719202,0.001754032215103507,0.10092094540596008,0.7839418649673462,-0.00017876934725791216,-0.05587846040725708,0.8602123260498047,-0.023697957396507263,-0.5101121664047241
