ramyac6/ROB537/final_project/csv/all/bad_127.csv
tof_0,tof_1,accelx,accely,accelz,gyrox,gyroy,gyroz,shoulder_lift_joint_position,shoulder_lift_joint_velocity,shoulder_lift_joint_effort,elbow_joint_position,elbow_joint_velocity,elbow_joint_effort,wrist_1_joint_position,wrist_1_joint_velocity,wrist_1_joint_effort,wrist_2_joint_position,wrist_2_joint_velocity,wrist_2_joint_effort,wrist_3_joint_position,wrist_3_joint_velocity,wrist_3_joint_effort,shoulder_pan_joint_position,shoulder_pan_joint_velocity,shoulder_pan_joint_effort
342.0,350.0,2.5436,-0.0736,9.0826,-0.0295,0.0191,-0.1161,-1.5311656345478077,2.2358536463235046e-13,2.005009651184082,-1.7988498210906982,-0.0,2.1650583744049072,4.548081083888672,-0.0,0.2884809970855713,-1.5967252890216272,-0.0,-0.0026041357778012753,0.8501942157745361,0.0,-0.0028428249061107635,0.7585552930831909,0.0,-0.028108548372983932
342.0,350.0,2.5436,-0.0736,9.0826,-0.0295,0.0191,-0.1161,-1.5311895732632657,4.024458011452604e-17,1.9792742729187012,-1.7988457679748535,-0.0,2.117208242416382,4.548081083888672,-0.0,0.30357635021209717,-1.5967620054828089,-0.0,-0.01255588885396719,0.8502863645553589,0.0,-0.004952315241098404,0.7585232257843018,0.0,0.011448632925748825
342.0,350.0,2.5436,-0.0736,9.0826,-0.0295,0.0191,-0.1161,-1.5311937008849164,9.718593434012441e-23,2.035228729248047,-1.7988375425338745,-0.0,2.1764039993286133,4.548097773189209,-0.0,0.28178471326828003,-1.596729580556051,-0.0,-0.0026646172627806664,0.8502700924873352,0.0,-0.006651862990111113,0.7585350871086121,0.0,6.164517253637314e-05
342.0,350.0,2.5436,-0.0736,9.0826,-0.0295,0.0191,-0.1161,-1.531193659906723,2.34692595242689e-28,1.9764841794967651,-1.7988498210906982,-0.0,2.147850275039673,4.548121615047119,-0.0,0.29263246059417725,-1.59674579301943,-0.0,-0.0018317843787372112,0.8502659797668457,0.0,-0.006898271851241589,0.7584951519966125,0.0,-0.015880584716796875
342.0,350.0,2.5436,-0.0736,9.0826,-0.0295,0.0191,-0.1161,-1.5311532777598877,5.667549585218693e-34,2.0332279205322266,-1.7988539934158325,-0.0,2.1935477256774902,4.548101587886475,-0.0,0.29268506169319153,-1.596757713948385,-0.0,0.0024638217873871326,0.8502455949783325,0.0,0.0023846200201660395,0.7585554122924805,0.0,0.019271880388259888
342.0,350.0,2.5436,-0.0736,9.0826,-0.0295,0.0191,-0.1161,-1.5311854642680665,1.0201391163152238e-37,1.9994227886199951,-1.7988146543502808,-0.0,2.187530279159546,4.548125429744385,-0.0,0.3117658495903015,-1.596729580556051,-0.0,-0.0029842262156307697,0.8502663373947144,0.0,-0.004844367038458586,0.7585272789001465,0.0,0.010344953276216984
342.0,350.0,2.5436,-0.0736,9.0826,-0.0295,0.0191,-0.1161,-1.5311371509781857,2.466285297211678e-43,2.0009710788726807,-1.7987898588180542,-0.0,2.178234338760376,4.548133059138916,-0.0,0.29815012216567993,-1.5967252890216272,-0.0,0.0018711655866354704,0.8502989411354065,0.0,-5.032616900280118e-05,0.7585432529449463,0.0,0.03183447942137718
342.0,350.0,2.5436,-0.0736,9.0826,-0.0295,0.0191,-0.1161,-1.5311656233719368,0.0,1.9881864786148071,-1.798810601234436,-0.0,2.1572980880737305,4.548117323512695,-0.0,0.29099464416503906,-1.596757713948385,-0.0,-0.021372895687818527,0.8502576947212219,0.0,-0.005670668091624975,0.7584830522537231,0.0,0.021525798365473747
342.0,350.0,2.5436,-0.0736,9.0826,-0.0295,0.0191,-0.1161,-1.5311535348049183,0.0,2.0258679389953613,-1.7988539934158325,-0.0,2.207371234893799,4.548097773189209,-0.0,0.29590079188346863,-1.5967538992511194,-0.0,0.005458553321659565,0.8502907752990723,0.0,-0.0006246682605706155,0.7585111260414124,0.0,0.02871963568031788
334.0,356.0,2.4054,0.0012,9.0832,-0.0348,0.0252,-0.1164,-1.531185695236065,0.0,2.0320568084716797,-1.7988457679748535,-0.0,2.146249294281006,4.548085375423096,-0.0,0.30087077617645264,-1.5967376867877405,-0.0,-0.0003962478367611766,0.8502785563468933,0.0,0.005008612759411335,0.7585391998291016,0.0,0.015468090772628784
334.0,356.0,2.4054,0.0012,9.0832,-0.0348,0.0252,-0.1164,-1.5311898116818448,0.0,2.0125153064727783,-1.7988539934158325,-0.0,2.1588189601898193,4.548133059138916,-0.0,0.3039431869983673,-1.5967863241778772,-0.0,-0.004967060871422291,0.8502416610717773,0.0,-0.009584363549947739,0.7585432529449463,0.0,0.0017381608486175537
334.0,356.0,2.4054,0.0012,9.0832,-0.0348,0.0252,-0.1164,-1.5311535161784668,0.0,1.9885969161987305,-1.7988622188568115,-0.0,2.202134132385254,4.548117323512695,-0.0,0.2966444194316864,-1.5967538992511194,-0.0,-0.004041784442961216,0.8502659797668457,0.0,-0.00545461755245924,0.758523166179657,0.0,-0.023971937596797943
334.0,356.0,2.4054,0.0012,9.0832,-0.0348,0.0252,-0.1164,-1.5311172653785725,0.0,2.0132339000701904,-1.7988260984420776,-0.0,2.1509013175964355,4.548124476070068,-0.0,0.3041383922100067,-1.5967662970172327,-0.0,-0.015005392953753471,0.8502261638641357,0.0,-0.006174119189381599,0.7585432529449463,0.0,-0.014715190976858139
334.0,356.0,2.4054,0.0012,9.0832,-0.0348,0.0252,-0.1164,-1.5311857399395485,0.0,1.9807884693145752,-1.798887014389038,-0.0,2.1778035163879395,4.548136873836182,-0.0,0.3002389669418335,-1.596705738698141,-0.0,0.0008319027256220579,0.8503021001815796,0.0,-0.010029166005551815,0.7585111260414124,0.0,-0.018235070630908012
334.0,356.0,2.4054,0.0012,9.0832,-0.0348,0.0252,-0.1164,-1.5311656308225174,0.0,1.9690637588500977,-1.7988334894180298,-0.0,2.119720697402954,4.548145456905029,-0.0,0.29243534803390503,-1.5967095533954065,-0.0,0.003937900066375732,0.8501979112625122,0.0,-0.0010079380590468645,0.7585152387619019,0.0,-0.010782880708575249
334.0,356.0,2.4054,0.0012,9.0832,-0.0348,0.0252,-0.1164,-1.5311131973615666,0.0,1.9985086917877197,-1.7988228797912598,-0.0,2.180177688598633,4.548081083888672,-0.0,0.3045935034751892,-1.5967252890216272,-0.0,0.00971340760588646,0.8502581715583801,0.0,0.005405676085501909,0.7585676908493042,0.0,0.00019728729967027903
334.0,356.0,2.4054,0.0012,9.0832,-0.0348,0.0252,-0.1164,-1.5311574351838608,0.0,2.0058021545410156,-1.7988260984420776,-0.0,2.1254239082336426,4.548117323512695,-0.0,0.3110074996948242,-1.5967376867877405,-0.0,-0.002361143473535776,0.8502421379089355,0.0,-0.012374801561236382,0.7585395574569702,0.0,0.008163286373019218
334.0,356.0,2.4054,0.0012,9.0832,-0.0348,0.0252,-0.1164,-1.5311656419983883,0.0,2.0431606769561768,-1.7988260984420776,-0.0,2.1721534729003906,4.548128767604492,-0.0,0.30129897594451904,-1.5967376867877405,-0.0,-0.014021968469023705,0.8502380847930908,0.0,-0.004869917407631874,0.7585436701774597,0.0,-0.030545460060238838
334.0,356.0,2.4054,0.0012,9.0832,-0.0348,0.0252,-0.1164,-1.531161518102028,0.0,2.0007336139678955,-1.7988829612731934,-0.0,2.172243118286133,4.548141165370605,-0.0,0.29766321182250977,-1.5967257658587855,-0.0,-0.0013695396482944489,0.8502866625785828,0.0,0.008420976810157299,0.7584913372993469,-0.0003869177307933569,-0.015881706029176712
334.0,356.0,2.4054,0.0012,9.0832,-0.0348,0.0252,-0.1164,-1.5311738599887867,0.0,1.9885531663894653,-1.798887014389038,-0.0,2.171631336212158,4.548157377833984,-0.0,0.30103063583374023,-1.596733872090475,-0.0,-0.013019245117902756,0.8502703309059143,0.0,-0.004372519440948963,0.7584793567657471,-0.0003962093614973128,-0.027789868414402008
334.0,356.0,2.4054,0.0012,9.0832,-0.0348,0.0252,-0.1164,-1.5311778907528897,0.0,1.9976589679718018,-1.7988104820251465,-0.0,2.1482977867126465,4.548113031978271,-0.0,0.29486364126205444,-1.5967219511615198,-0.0,-0.00646812142804265,0.850213885307312,0.0,-0.0041482700034976006,0.7584508657455444,-0.00056794862030074,0.020082248374819756
334.0,356.0,2.4054,0.0012,9.0832,-0.0348,0.0252,-0.1164,-1.5311172653785725,0.0,2.024880886077881,-1.7988457679748535,-0.0,2.2054715156555176,4.5480968195148925,-0.0,0.3043479323387146,-1.596677605305807,-0.0,-0.012318380177021027,0.8502618670463562,0.0,0.0005801869556307793,0.7584553956985474,-0.0006273806211538613,0.009581433609127998
334.0,356.0,2.4054,0.0012,9.0832,-0.0348,0.0252,-0.1164,-1.5311697211912652,0.0,2.0053839683532715,-1.7988383769989014,-0.0,2.196340799331665,4.548113031978271,-0.0,0.30435964465141296,-1.5967500845538538,-0.0,-0.011551214382052422,0.8502421379089355,0.0,-0.010064132511615753,0.7584834098815918,-0.0006931666284799576,0.015644345432519913
334.0,356.0,2.4054,0.0012,9.0832,-0.0348,0.0252,-0.1164,-1.5311696988395234,0.0,1.9964628219604492,-1.7988622188568115,-0.0,2.1609714031219482,4.5480968195148925,-0.0,0.2934151291847229,-1.5966818968402308,-0.0,-0.0121319480240345,0.8502101302146912,0.0,0.006592182908207178,0.7584110498428345,-0.0010831868276000023,0.07563924044370651
334.0,356.0,2.4054,0.0012,9.0832,-0.0348,0.0252,-0.1164,-1.5310931143215676,0.0,1.9970660209655762,-1.7988417148590088,-0.0,2.1452746391296387,4.548124476070068,-0.0,0.2990652024745941,-1.5967138449298304,-0.0,-0.008353504352271557,0.8502621650695801,0.0,0.004094226751476526,0.7584555745124817,-0.0012432788498699665,-0.04271971806883812
359.0,356.0,2.3432,-0.1436,9.1753,-0.0428,0.024,-0.1206,-1.5311617267182847,0.0,1.9862949848175049,-1.7988499402999878,-0.0,2.1642608642578125,4.548081083888672,-0.0,0.3009653091430664,-1.596689526234762,-0.0,0.0044650849886238575,0.8502020239830017,0.0,0.00224676844663918,0.7584192752838135,-0.0016633637715131044,0.009309902787208557
359.0,356.0,2.3432,-0.1436,9.1753,-0.0428,0.024,-0.1206,-1.5311293464950104,0.0,2.0279793739318848,-1.7988704442977905,-0.0,2.194308280944824,4.548145456905029,-0.0,0.29014715552330017,-1.5967019240008753,-0.0,-0.009940488263964653,0.8502659797668457,0.0,-0.007363640703260899,0.7583912014961243,-0.0022803873289376497,-0.020657889544963837
359.0,356.0,2.3432,-0.1436,9.1753,-0.0428,0.024,-0.1206,-1.5311293464950104,0.0,1.9666748046875,-1.7988622188568115,-0.0,2.1739084720611572,4.548141165370605,-0.0,0.295475572347641,-1.5967062155352991,-0.0,-0.013006417080760002,0.850246250629425,0.0,-0.009113393723964691,0.7583749890327454,-0.003276360686868429,-0.05166950821876526
359.0,356.0,2.3432,-0.1436,9.1753,-0.0428,0.024,-0.1206,-1.531165649448969,0.0,2.011547565460205,-1.7987980842590332,-0.0,2.201435089111328,4.548128767604492,-0.0,0.29263371229171753,-1.5966900030719202,-0.0,-0.014012419618666172,0.850174069404602,0.0,-0.007979307323694229,0.7583795785903931,-0.004642116371542215,-0.0660664513707161
359.0,356.0,2.3432,-0.1436,9.1753,-0.0428,0.024,-0.1206,-1.5311334741166611,0.0,1.9873615503311157,-1.7988417148590088,-0.0,2.199699640274048,4.548092527980469,-0.0,0.30011293292045593,-1.5967100302325647,-0.0,-0.0027662324719130993,0.8502020239830017,0.0,-0.02762378193438053,0.7582948803901672,-0.007830638438463211,0.019991695880889893
359.0,356.0,2.3432,-0.1436,9.1753,-0.0428,0.024,-0.1206,-1.5311494556120415,0.0,1.9909287691116333,-1.7988228797912598,-0.0,2.158313035964966,4.548124476070068,-0.0,0.3018055856227875,-1.5966737906085413,-0.0,-0.009117752313613892,0.8502182960510254,0.0,-0.018381742760539055,0.7583194375038147,-0.006037072278559208,0.016854342073202133
359.0,356.0,2.3432,-0.1436,9.1753,-0.0428,0.024,-0.1206,-1.5311213855496426,0.0,1.9791381359100342,-1.798878788948059,-0.0,2.167351722717285,4.548141165370605,-0.0,0.27801617980003357,-1.5966737906085413,-0.0,-0.012528473511338234,0.8502019643783569,0.0,-0.008616718463599682,0.7582432627677917,-0.00398549810051918,-0.00337080005556345
359.0,356.0,2.3432,-0.1436,9.1753,-0.0428,0.024,-0.1206,-1.531181962495186,0.0,2.025129556655884,-1.79878568649292,-0.0,2.159524440765381,4.548109217281006,-0.0,0.29795047640800476,-1.5966900030719202,-0.0,-0.007210330106317997,0.8502378463745117,0.0,-0.01026240549981594,0.758263349533081,-0.0026883117388933897,-0.0019277478568255901
359.0,356.0,2.3432,-0.1436,9.1753,-0.0428,0.024,-0.1206,-1.5311334666660805,0.0,1.971191167831421,-1.798827052116394,-0.0,2.1950206756591797,4.548149271602295,-0.0,0.2984054386615753,-1.596705738698141,-0.0,-0.010218057781457901,0.8502421379089355,0.0,-0.006400254555046558,0.758259654045105,-0.002125251805409789,0.009516031481325626
359.0,356.0,2.3432,-0.1436,9.1753,-0.0428,0.024,-0.1206,-1.5311898116818448,0.0,1.9966621398925781,-1.7988022565841675,-0.0,2.1644952297210693,4.548145456905029,-0.0,0.2994192838668823,-1.5967500845538538,-0.0,-0.020358841866254807,0.8502663373947144,0.0,-0.0036885077133774757,0.7582314610481262,-0.0012830764753744006,-0.007350975181907415
359.0,356.0,2.3432,-0.1436,9.1753,-0.0428,0.024,-0.1206,-1.5311091144433995,0.0,1.990175724029541,-1.7988022565841675,-0.0,2.221616268157959,4.548133059138916,-0.0,0.3094862699508667,-1.5966818968402308,-0.0,-0.007909096777439117,0.8502179980278015,0.0,-0.004574327729642391,0.7582191228866577,-0.000797199725639075,-0.018954845145344734
359.0,356.0,2.3432,-0.1436,9.1753,-0.0428,0.024,-0.1206,-1.5311255019954224,0.0,2.027226448059082,-1.7988228797912598,-0.0,2.1296868324279785,4.548109217281006,-0.0,0.30503442883491516,-1.5966976324664515,-0.0,-0.014132609590888023,0.8502781391143799,0.0,-0.009891713969409466,0.7582352757453918,-0.0005777445621788502,0.04572412744164467
359.0,356.0,2.3432,-0.1436,9.1753,-0.0428,0.024,-0.1206,-1.5310974207571526,0.0,1.965442180633545,-1.7988539934158325,-0.0,2.178229808807373,4.548141165370605,-0.0,0.2957580089569092,-1.5966656843768519,-0.0,-0.010384054854512215,0.8502302169799805,0.0,-0.0028083010111004114,0.7582312226295471,-0.0004530607257038355,-0.02725059539079666
359.0,356.0,2.3432,-0.1436,9.1753,-0.0428,0.024,-0.1206,-1.5311254945448418,0.0,2.0132369995117188,-1.798830270767212,-0.0,2.196864366531372,4.548092527980469,-0.0,0.294942170381546,-1.5967062155352991,-0.0,-0.010044919326901436,0.850222110748291,0.0,-0.0013344387989491224,0.7582311630249023,-0.00039608145016245544,0.0046220202930271626
359.0,356.0,2.3432,-0.1436,9.1753,-0.0428,0.024,-0.1206,-1.5311696913889428,0.0,2.0010223388671875,-1.7988022565841675,-0.0,2.1534128189086914,4.5480968195148925,-2.496229285497975e-07,0.29614847898483276,-1.5967181364642542,-0.0,-0.00994628295302391,0.8501979112625122,0.0,0.002378998324275017,0.7582312226295471,-0.00010659662802936509,0.018993161618709564
359.0,356.0,2.3432,-0.1436,9.1753,-0.0428,0.024,-0.1206,-1.5311173063567658,0.0,1.9921159744262695,-1.7988457679748535,-0.0,2.1822195053100586,4.548128767604492,-6.948346065183131e-11,0.3016383647918701,-1.5967138449298304,-0.0,-0.015065399929881096,0.850314199924469,0.0,-0.007474583573639393,0.7582191228866577,-4.528126373770647e-05,0.003462191205471754
357.0,349.0,2.5232,0.2907,9.058,-0.0339,0.013,-0.1269,-1.531137542133667,0.0,2.0064198970794678,-1.79884672164917,-0.0,2.2093119621276855,4.548124476070068,-1.9340977522883454e-14,0.300434947013855,-1.5967538992511194,-0.0,-0.008457348681986332,0.8502700924873352,0.0,0.002750970656052232,0.7582918405532837,-3.932271647499874e-05,-0.006656740326434374
357.0,349.0,2.5232,0.2907,9.058,-0.0339,0.013,-0.1269,-1.5311615106514473,0.0,2.019064426422119,-1.7988147735595703,-0.0,2.196378231048584,4.548141165370605,-8.245361492219201e-17,0.29467833042144775,-1.5966900030719202,-0.0,-0.01727925054728985,0.8502581715583801,0.0,-0.015535580925643444,0.7582674026489258,-3.6162487958790734e-05,-0.026866063475608826
357.0,349.0,2.5232,0.2907,9.058,-0.0339,0.013,-0.1269,-1.5311535608819504,0.0,1.9757225513458252,-1.7988425493240356,-0.0,2.173910140991211,4.548141165370605,-2.2951268315387415e-20,0.2949788570404053,-1.5967100302325647,-0.0,0.004422335885465145,0.8502581715583801,0.0,0.0017778963083401322,0.7582795023918152,-3.2272171665681526e-05,-0.0327814444899559
357.0,349.0,2.5232,0.2907,9.058,-0.0339,0.013,-0.1269,-1.5311293464950104,0.0,1.9803452491760254,-1.7988457679748535,-0.0,2.2057342529296875,4.548160715694092,-6.3885703194097336e-24,0.28354185819625854,-1.5967219511615198,-0.0,-0.007440682966262102,0.8502576947212219,0.0,0.002443668432533741,0.7582271099090576,-3.430499418755062e-06,-0.03113536909222603
357.0,349.0,2.5232,0.2907,9.058,-0.0339,0.013,-0.1269,-1.5311453466168423,0.0,2.001542806625366,-1.7988580465316772,-0.0,2.1545181274414062,4.548156900996826,-1.778281799281694e-27,0.29966455698013306,-1.5967062155352991,-0.0,0.0005157297709956765,0.8502296209335327,0.0,-0.009640630334615707,0.7582876682281494,-8.284252624168875e-12,0.0008399281650781631
357.0,349.0,2.5232,0.2907,9.058,-0.0339,0.013,-0.1269,-1.5311615032008667,0.0,1.9962214231491089,-1.7988063097000122,-0.0,2.185084819793701,4.548149271602295,-4.949912671764587e-31,0.28009700775146484,-1.5966737906085413,-0.0,-0.011926956474781036,0.8502256870269775,0.0,-0.01935768686234951,0.7582432627677917,-2.0005493809131758e-17,-0.013061866164207458
357.0,349.0,2.5232,0.2907,9.058,-0.0339,0.013,-0.1269,-1.5311614882997056,0.0,2.0223512649536133,-1.7988425493240356,-0.0,2.1590728759765625,4.548141165370605,-2.110225050735108e-33,0.2942548990249634,-1.596733872090475,-0.0,-0.010826077312231064,0.8503020405769348,0.0,-0.01565421372652054,0.7582592368125916,-3.6009187509382826e-21,0.02468942105770111
357.0,349.0,2.5232,0.2907,9.058,-0.0339,0.013,-0.1269,-1.5311095055988808,0.0,1.9832576513290405,-1.7988383769989014,-0.0,2.164053201675415,4.548124476070068,-5.8738893626133604e-37,0.28914815187454224,-1.596733872090475,-0.0,-0.015330364927649498,0.8502741456031799,0.0,-0.010140029713511467,0.758263349533081,-8.695795566037963e-27,0.01967659965157509
357.0,349.0,2.5232,0.2907,9.058,-0.0339,0.013,-0.1269,-1.5311576587012787,0.0,1.956430196762085,-1.798818826675415,-0.0,2.169188976287842,4.548141165370605,-1.6350210351895533e-40,0.2981598377227783,-1.5967095533954065,-0.0,-0.016653897240757942,0.8502896428108215,0.0,0.004090363159775734,0.7582835555076599,-2.0999319079205296e-32,0.01586895063519478
357.0,349.0,2.5232,0.2907,9.058,-0.0339,0.013,-0.1269,-1.5311334666660805,0.0,1.9928313493728638,-1.7987898588180542,-0.0,2.1306493282318115,4.548205061549805,-4.484155085839415e-44,0.2946217358112335,-1.5967500845538538,-0.0,-0.0027915395330637693,0.850209653377533,0.0,0.0005098465480841696,0.7582592368125916,-5.07108950814125e-38,0.00393062736839056
357.0,349.0,2.5232,0.2907,9.058,-0.0339,0.013,-0.1269,-1.5311778907528897,0.0,1.9876501560211182,-1.7988104820251465,-0.0,2.186476707458496,4.548152609462402,-0.0,0.3040878474712372,-1.5966976324664515,-0.0,0.0042992159724235535,0.8501937389373779,2.8230983843968716e-06,-0.0003134195285383612,0.7582592368125916,-9.128058196611858e-42,-0.015681620687246323
357.0,349.0,2.5232,0.2907,9.058,-0.0339,0.013,-0.1269,-1.531137542133667,0.0,1.954066514968872,-1.7988145351409912,-0.0,2.2094898223876953,4.548152609462402,-0.0,0.29901736974716187,-1.596733872090475,-0.0,-0.007179129868745804,0.8503061532974243,7.858199091437257e-10,0.006179070100188255,0.7582592368125916,-0.0,0.006051753647625446
357.0,349.0,2.5232,0.2907,9.058,-0.0339,0.013,-0.1269,-1.5311615032008667,0.0,2.00526762008667,-1.7988663911819458,-0.0,2.1518521308898926,4.548152609462402,-0.0,0.2952677011489868,-1.5967219511615198,-0.0,-0.006780168507248163,0.8502416610717773,2.187358502875672e-13,-0.01664319820702076,0.758251428604126,0.0,0.02690107375383377
357.0,349.0,2.5232,0.2907,9.058,-0.0339,0.013,-0.1269,-1.5311535385302086,0.0,2.0126092433929443,-1.7988187074661255,-0.0,2.185967445373535,4.548136873836182,-0.0,0.29850488901138306,-1.5967138449298304,-0.0,-0.008006354793906212,0.8502537608146667,6.088592600616609e-17,-0.007157377898693085,0.7582432627677917,0.0,0.0132153844460845
357.0,349.0,2.5232,0.2907,9.058,-0.0339,0.013,-0.1269,-1.5311656196466465,0.0,1.9476127624511719,-1.7988466024398804,-0.0,2.157240390777588,4.548201246852539,-0.0,0.2945668399333954,-1.5966976324664515,-0.0,-0.016260307282209396,0.8503021001815796,1.6947820842850553e-20,-0.00446581095457077,0.758263349533081,0.0,-0.004076023586094379
357.0,349.0,2.5232,0.2907,9.058,-0.0339,0.013,-0.1269,-1.5311615032008667,0.0,1.973954200744629,-1.798782467842102,-0.0,2.1704578399658203,4.548173113460205,-0.0,0.30418819189071655,-1.5966976324664515,-0.0,-0.00944826565682888,0.8502703905105591,7.225122126200244e-23,-0.0035701061133295298,0.758251428604126,0.0,0.03428099304437637
348.0,368.0,2.4897,0.0467,9.0556,-0.0244,0.0258,-0.1122,-1.5311895807138463,0.0,1.9806849956512451,-1.79878568649292,-0.0,2.1857361793518066,4.548124476070068,-0.0,0.2910667061805725,-1.596733872090475,-0.0,-0.008456025272607803,0.8502907752990723,2.0111395562515403e-26,-0.012729110196232796,0.7582592368125916,0.0,-0.004043733701109886
348.0,368.0,2.4897,0.0467,9.0556,-0.0244,0.0258,-0.1122,-1.5311535608819504,0.0,2.0145552158355713,-1.7987865209579468,-0.0,2.144943952560425,4.548169298762939,-0.0,0.29137617349624634,-1.596677605305807,-0.0,-0.004816437140107155,0.8502897024154663,5.598081009124381e-30,-0.005319194868206978,0.758263349533081,0.0,0.014725747518241405
348.0,368.0,2.4897,0.0467,9.0556,-0.0244,0.0258,-0.1122,-1.531185695236065,0.0,1.995043158531189,-1.798818588256836,-0.0,2.1334052085876465,4.548152609462402,-0.0,0.30033624172210693,-1.5967095533954065,-0.0,0.0006631433498114347,0.8502897024154663,1.5582465153805556e-33,-0.0011920229298993945,0.7582795023918152,0.0,-0.016372865065932274
348.0,368.0,2.4897,0.0467,9.0556,-0.0244,0.0258,-0.1122,-1.531125271027424,0.0,2.0356228351593018,-1.798827052116394,-0.0,2.1523053646087646,4.548160715694092,-0.0,0.3048689067363739,-1.5966976324664515,-0.0,-0.011584637686610222,0.850289523601532,4.337436670339309e-37,0.0018381807021796703,0.7582835555076599,0.0,-0.028317108750343323
348.0,368.0,2.4897,0.0467,9.0556,-0.0244,0.0258,-0.1122,-1.5311738152853032,0.0,2.0079121589660645,-1.798818826675415,5.771730502601713e-05,2.212214231491089,4.548109217281006,-0.0,0.2851639986038208,-1.5966938177691858,-0.0,0.0013463208451867104,0.8502663373947144,1.849117019762956e-39,0.0043554650619626045,0.7582995295524597,0.0,0.003973050974309444
348.0,368.0,2.4897,0.0467,9.0556,-0.0244,0.0258,-0.1122,-1.5311895807138463,0.0,2.007626533508301,-1.7987898588180542,5.7044726418098435e-05,2.1179966926574707,4.548141165370605,-0.0,0.2955731153488159,-1.5967138449298304,-0.0,-0.028547337278723717,0.850249707698822,5.142765364072079e-43,0.0013875876320526004,0.7583034634590149,0.0,0.003206507069990039
348.0,368.0,2.4897,0.0467,9.0556,-0.0244,0.0258,-0.1122,-1.5311334666660805,0.0,2.0756120681762695,-1.7988425493240356,5.4954856750555336e-05,2.189462900161743,4.548173113460205,-0.0,0.3012453615665436,-1.5966976324664515,-0.0,-0.016392569988965988,0.8502374887466431,0.0,0.00759187713265419,0.7582995891571045,0.0,0.010239900089800358
348.0,368.0,2.4897,0.0467,9.0556,-0.0244,0.0258,-0.1122,-1.5311293464950104,0.0,2.0231575965881348,-1.7988311052322388,5.301270357449539e-05,2.1928482055664062,4.548165007228516,-0.0,0.3105490207672119,-1.5966857115374964,-0.0,-0.004256200976669788,0.8502936363220215,0.0,-0.0027677901089191437,0.7582592368125916,0.0,0.037763796746730804
348.0,368.0,2.4897,0.0467,9.0556,-0.0244,0.0258,-0.1122,-1.5311334666660805,0.0,1.9965890645980835,-1.7988104820251465,5.179241634323262e-05,2.1804938316345215,4.548152609462402,-0.0,0.31170541048049927,-1.5966900030719202,-0.0,-0.017285075038671494,0.8503575921058655,0.0,-0.009305307641625404,0.7582069039344788,0.0,-0.01445603184401989
348.0,368.0,2.4897,0.0467,9.0556,-0.0244,0.0258,-0.1122,-1.5311774995974083,0.0,1.9923584461212158,-1.7988343238830566,5.0063885282725096e-05,2.2314579486846924,4.548145456905029,-0.0,0.30441391468048096,-1.5967062155352991,-0.0,-0.031387969851493835,0.8503099679946899,0.0,-0.007174683269113302,0.758295476436615,0.0,-0.00930512323975563
348.0,368.0,2.4897,0.0467,9.0556,-0.0244,0.0258,-0.1122,-1.5311170753887673,0.0,1.9848047494888306,-1.7988187074661255,3.0413902507575585e-09,2.1795616149902344,4.548173113460205,-0.0,0.3078213334083557,-1.5966976324664515,-0.0,-0.013329718261957169,0.8502735495567322,9.871808288153261e-05,0.004322313237935305,0.7582674026489258,0.0,-0.039304058998823166
348.0,368.0,2.4897,0.0467,9.0556,-0.0244,0.0258,-0.1122,-1.5311977763525029,0.0,2.0112600326538086,-1.7987785339355469,7.344599815752462e-15,2.2065494060516357,4.548113031978271,-0.0,0.3105428218841553,-1.5967019240008753,-0.0,-0.01801735907793045,0.8502897024154663,9.296098869526759e-05,-0.012823851779103279,0.7582672238349915,5.69551921216771e-05,-0.010550986975431442
348.0,368.0,2.4897,0.0467,9.0556,-0.0244,0.0258,-0.1122,-1.5311734241298218,0.0,1.9686193466186523,-1.7987661361694336,1.773634045528953e-20,2.184648036956787,4.548141165370605,-0.0,0.3093530535697937,-1.5966900030719202,-0.0,-0.011355157010257244,0.8503296971321106,0.00010387739894213155,-0.009441657923161983,0.7582873106002808,8.590639481553808e-05,0.011955957859754562
348.0,368.0,2.4897,0.0467,9.0556,-0.0244,0.0258,-0.1122,-1.5311576587012787,0.0,1.9645893573760986,-1.7988311052322388,3.1924786682319107e-24,2.1457159519195557,4.548133059138916,-0.0,0.2991906702518463,-1.5967219511615198,-0.0,-0.01607765257358551,0.8502743244171143,0.00010110447328770533,0.007823181338608265,0.7582753896713257,8.274712308775634e-05,0.03320183977484703
348.0,368.0,2.4897,0.0467,9.0556,-0.0244,0.0258,-0.1122,-1.5312096563032647,0.0,1.9466166496276855,-1.7988466024398804,7.709460703879263e-30,2.21358060836792,4.548173113460205,-0.0,0.29236769676208496,-1.5967138449298304,-0.0,-0.029551617801189423,0.850313663482666,9.573184797773138e-05,-0.022150937467813492,0.7582873106002808,7.84211588324979e-05,-0.027186891064047813
348.0,368.0,2.4897,0.0467,9.0556,-0.0244,0.0258,-0.1122,-1.5311416585794468,0.0,2.019787549972534,-1.7988227605819702,1.86174413591953e-35,2.1721956729888916,4.548153563136719,-0.0,0.30879223346710205,-1.596705738698141,-0.0,-0.0054817795753479,0.8503296971321106,0.00010601311078062281,0.0055299801751971245,0.7582993507385254,8.942989370552823e-05,-0.03015948086977005
352.0,368.0,2.3874,-0.0407,9.2016,-0.0333,0.0218,-0.1153,-1.5311816197684784,0.0,1.9372971057891846,-1.798850655555725,4.495925992939743e-41,2.155930280685425,4.548141165370605,-0.0,0.29647600650787354,-1.5967095533954065,-0.0,-0.015952765941619873,0.8502976894378662,0.00011348499538144097,0.006636337842792273,0.7583194375038147,8.519717084709555e-05,0.028330683708190918
352.0,368.0,2.3874,-0.0407,9.2016,-0.0333,0.0218,-0.1153,-1.5311412674239655,0.0,1.9634655714035034,-1.7988022565841675,0.0,2.2262518405914307,4.548141165370605,-0.0,0.29535987973213196,-1.5966976324664515,-0.0,-0.01519946102052927,0.8503014445304871,0.00011007826833520085,0.003609676845371723,0.7582791447639465,9.027311898535118e-05,-0.005223947111517191
352.0,368.0,2.3874,-0.0407,9.2016,-0.0333,0.0218,-0.1153,-1.5311412525228043,0.0,1.9694820642471313,-1.798818826675415,-0.0,2.188110828399658,4.548113031978271,-0.0,0.30086585879325867,-1.5967019240008753,-0.0,-0.014698967337608337,0.8503259420394897,0.0001068127530743368,0.014461115002632141,0.7583034634590149,9.212823351845145e-05,0.012323481030762196
352.0,368.0,2.3874,-0.0407,9.2016,-0.0333,0.0218,-0.1153,-1.5311895620873948,0.0,1.9524860382080078,-1.798766016960144,-0.0,2.179811954498291,4.548173113460205,-0.0,0.2865467667579651,-1.5966976324664515,-0.0,-0.01378556713461876,0.8503337502479553,0.00016753512318246067,0.004697761964052916,0.758287250995636,8.825725672068074e-05,-0.006311522796750069
352.0,368.0,2.3874,-0.0407,9.2016,-0.0333,0.0218,-0.1153,-1.5311734241298218,0.0,2.0167787075042725,-1.7988187074661255,-0.0,2.1689343452453613,4.548141165370605,-0.0,0.28195735812187195,-1.5967019240008753,-0.0,-0.024219557642936707,0.8502936363220215,0.00015076996351126581,0.006275958847254515,0.7582873106002808,8.469768363283947e-05,-0.01817544922232628
352.0,368.0,2.3874,-0.0407,9.2016,-0.0333,0.0218,-0.1153,-1.5311293949237843,0.0,1.963972568511963,-1.7988104820251465,-0.0,2.151766777038574,4.548145456905029,-0.0,0.2854931056499481,-1.5966900030719202,-0.0,-0.0005791950970888138,0.8503453731536865,0.00013699823466595262,-0.00726361246779561,0.7583031058311462,8.141414582496509e-05,0.006741438526660204
352.0,368.0,2.3874,-0.0407,9.2016,-0.0333,0.0218,-0.1153,-1.5311693151346226,0.0,1.974700927734375,-1.798818826675415,-0.0,2.1619420051574707,4.548149271602295,-0.0,0.2893831729888916,-1.5966861883746546,-0.0,-0.012997874058783054,0.8503337502479553,0.00015484481991734356,0.0014397506602108479,0.7583194375038147,7.936296606203541e-05,-0.00011004181578755379
352.0,368.0,2.3874,-0.0407,9.2016,-0.0333,0.0218,-0.1153,-1.5311574091068287,0.0,1.9435101747512817,-1.7988146543502808,-0.0,2.083864688873291,4.548136873836182,-0.0,0.2930108904838562,-1.5967100302325647,-0.0,-0.008459178730845451,0.8502854704856873,0.00014267746882978827,0.0007417355664074421,0.7582873106002808,6.190805288497359e-05,-0.016340982168912888
352.0,368.0,2.3874,-0.0407,9.2016,-0.0333,0.0218,-0.1153,-1.5311936412802716,0.0,1.978484869003296,-1.7988228797912598,-0.0,2.166846752166748,4.548136873836182,-0.0,0.29720598459243774,-1.596694294606344,-0.0,0.006365804933011532,0.8503017425537109,0.0001321980671491474,-0.001496854703873396,0.7582831978797913,4.98936788062565e-05,0.03518673777580261
352.0,368.0,2.3874,-0.0407,9.2016,-0.0333,0.0218,-0.1153,-1.5311895956150074,-0.00023996588424779475,1.9666712284088135,-1.7988104820251465,-0.0,2.1675455570220947,4.548141165370605,8.25001009729931e-08,0.2813124656677246,-1.5966375509845179,-0.0,-0.015186004340648651,0.8502936363220215,0.0001436721213394776,-0.002968954388052225,0.7582831978797913,2.3068805603543296e-05,0.01566457189619541
352.0,368.0,2.3874,-0.0407,9.2016,-0.0333,0.0218,-0.1153,-1.5312012781253834,-0.00032982087577693164,1.9156211614608765,-1.798837423324585,-0.0,2.1561167240142822,4.548109217281006,2.296420519021236e-11,0.2817858159542084,-1.5967462698565882,-0.0,-0.00035674870014190674,0.8503215312957764,0.00013447724631987512,0.002116023562848568,0.758271336555481,4.042250534297409e-09,-0.05856538563966751
352.0,368.0,2.3874,-0.0407,9.2016,-0.0333,0.0218,-0.1153,-1.5312094253352662,-0.00088005285942927,1.9204338788986206,-1.7988704442977905,-2.7245108867646195e-05,2.169828176498413,4.548092527980469,9.790000705727983e-14,0.27900463342666626,-1.5966575781451624,-0.0,-0.00018241757061332464,0.8503535389900208,0.00012897106353193521,-0.0028307773172855377,0.7582913637161255,7.275907307202623e-13,-0.015041068196296692
352.0,368.0,2.3874,-0.0407,9.2016,-0.0333,0.0218,-0.1153,-1.5311973851970215,-0.0014624149771407247,1.9069933891296387,-1.798810601234436,-3.82977923436556e-05,2.119676113128662,4.548128767604492,2.725082835148783e-17,0.28302156925201416,-1.5966699759112757,-0.0,0.008144679479300976,0.8503742218017578,0.00012150852853665128,0.008734755218029022,0.758271336555481,1.7570459787823162e-18,-0.054367970675230026
352.0,368.0,2.3874,-0.0407,9.2016,-0.0333,0.0218,-0.1153,-1.5312374767712136,-0.0028772077057510614,1.8982106447219849,-1.7988704442977905,-3.815833406406455e-05,2.128220558166504,4.548128767604492,7.585368193939873e-21,0.2779918909072876,-1.5966575781451624,-0.0,-0.005904838442802429,0.8502854108810425,0.0001229385961778462,0.004399511031806469,0.7583075165748596,4.243059167117192e-24,-0.0564243346452713
352.0,368.0,2.3874,-0.0407,9.2016,-0.0333,0.0218,-0.1153,-1.5312776055983086,-0.005575376562774181,1.9139738082885742,-1.7988498210906982,-4.880841152044013e-05,2.148637294769287,4.548136873836182,2.111415203462305e-24,0.28508877754211426,-1.596661392842428,-0.0,0.000992456916719675,0.8503216505050659,0.00012446106120478362,-0.0017053978517651558,0.7582589983940125,1.0246488219620569e-29,-0.045854806900024414
352.0,368.0,2.3874,-0.0407,9.2016,-0.0333,0.0218,-0.1153,-1.5312813085368653,-0.006964141968637705,1.886427640914917,-1.7988539934158325,-4.751991218654439e-05,2.1450581550598145,4.548136873836182,9.001294277536444e-27,0.2946508824825287,-1.5967062155352991,-0.0,0.003411215264350176,0.8503661155700684,0.00012030397920170799,-0.011265025474131107,0.7582831382751465,1.8443317183279606e-33,-0.061036594212055206
341.0,338.0,1.6594,0.6508,9.192,0.0302,-0.0702,-0.2318,-1.5313536201468487,-0.0073775420896708965,1.8834108114242554,-1.7988228797912598,-4.570985765894875e-05,2.175201892852783,4.548133059138916,2.505543827365266e-30,0.28337153792381287,-1.5966699759112757,-0.0,0.018448099493980408,0.8503334522247314,0.00011456118954811245,0.014650443568825722,0.7583234906196594,4.4538435987576045e-39,-0.019087882712483406
341.0,338.0,1.6594,0.6508,9.192,0.0302,-0.0702,-0.2318,-1.5313531917384644,-0.0050805737264454365,1.8971068859100342,-1.7988022565841675,-9.96045782812871e-05,2.1361265182495117,4.548149271602295,6.974273645808385e-34,0.28774842619895935,-1.5966780821429651,-0.0,0.003482009982690215,0.8503337502479553,0.0001093418977688998,0.001013405155390501,0.7582592964172363,1.1210387714598537e-44,-0.05098819360136986
341.0,338.0,1.6594,0.6508,9.192,0.0302,-0.0702,-0.2318,-1.5313893121531983,-0.003405405208468437,1.9002684354782104,-1.7988829612731934,-0.00012904273171443492,2.1727383136749268,4.548109217281006,1.941314723548006e-37,0.2924273610115051,-1.5966575781451624,-0.0,0.017374441027641296,0.8503494262695312,0.00010457741882419214,0.0027725263498723507,0.7582148909568787,0.0,-0.0727018341422081
341.0,338.0,1.6594,0.6508,9.192,0.0302,-0.0702,-0.2318,-1.5314253133586426,-0.0035417252220213413,1.8713603019714355,-1.7988457679748535,-0.00015042023733258247,2.16300892829895,4.548093481654785,5.40368713812936e-41,0.2861858010292053,-1.596661392842428,-0.0,0.0109627116471529,0.8503457307815552,0.00010021081834565848,0.000615940778516233,0.7582831978797913,0.0,-0.09906759858131409
341.0,338.0,1.6594,0.6508,9.192,0.0302,-0.0702,-0.2318,-1.5314372342875977,-0.004049208946526051,1.9040815830230713,-1.7987980842590332,-0.000138871866511181,2.1517627239227295,4.548104925746582,-0.00023491047613788396,0.2758341431617737,-1.5967019240008753,1.6713896044961984e-08,0.0019610165618360043,0.8503096103668213,9.749678429216146e-05,0.0028257910162210464,0.7583153247833252,0.0,-0.03059927001595497
341.0,338.0,1.6594,0.6508,9.192,0.0302,-0.0702,-0.2318,-1.5314331029406567,-0.004785129800438881,1.870356559753418,-1.7988139390945435,-0.00012446724576875567,2.093250274658203,4.548165960902832,-0.0003278462099842727,0.2777155339717865,-1.5966900030719202,4.652373538499566e-12,0.004264541901648045,0.8503215312957764,8.788373088464141e-05,0.005637487396597862,0.7583153247833252,0.0,-0.08679547905921936
341.0,338.0,1.6594,0.6508,9.192,0.0302,-0.0702,-0.2318,-1.5314851154438038,-0.004022889770567417,1.8595900535583496,-1.7987898588180542,-0.00011277037992840633,2.1104142665863037,4.548113031978271,-0.000705661135725677,0.2758331298828125,-1.5966900030719202,1.2950053796510503e-15,0.019338931888341904,0.8503375053405762,8.13051374279894e-05,-0.003288733772933483,0.7583194971084595,0.0,-0.05958355963230133
341.0,338.0,1.6594,0.6508,9.192,0.0302,-0.0702,-0.2318,-1.5315255236676713,-0.0027630182448774576,1.8845648765563965,-1.7988343238830566,-0.00010308296623406932,2.121302843093872,4.548161669368408,-0.0005797934136353433,0.28213411569595337,-1.5967143217669886,3.6046946527200024e-19,0.021690184250473976,0.8502694368362427,8.85733898030594e-05,0.010195804759860039,0.7583315372467041,0.0,-0.043237268924713135
341.0,338.0,1.6594,0.6508,9.192,0.0302,-0.0702,-0.2318,-1.531501342808344,-0.0016533918678760529,1.8539304733276367,-1.7988228797912598,-9.492825483903289e-05,2.1426472663879395,4.548089190120361,-0.0005117646069265902,0.2768128514289856,-1.5966699759112757,1.0033800794722135e-22,0.015720689669251442,0.850361704826355,8.802199590718374e-05,0.012177478522062302,0.7582992911338806,0.0,-0.11051706224679947
341.0,338.0,1.6594,0.6508,9.192,0.0302,-0.0702,-0.2318,-1.5314890195480366,-0.0012859581038355827,1.88322913646698,-1.7988457679748535,-9.017265983857214e-05,2.166898250579834,4.548081083888672,-0.0004941266379319131,0.27475517988204956,-1.596661392842428,4.277566211086662e-25,0.017635855823755264,0.8503214716911316,9.850894275587052e-05,0.01654239371418953,0.7583194375038147,0.0,-0.041279442608356476
341.0,338.0,1.6594,0.6508,9.192,0.0302,-0.0702,-0.2318,-1.5315170672586937,-0.00148949702270329,1.8609237670898438,-1.798838496208191,-8.387028356082737e-05,2.1657087802886963,4.548093481654785,-0.0005664557102136314,0.26364412903785706,-1.596682373677389,1.1906763362032706e-28,0.016837816685438156,0.8503293991088867,9.495417907601222e-05,0.008841300383210182,0.7582952976226807,0.0,-0.07929688692092896
341.0,338.0,1.6594,0.6508,9.192,0.0302,-0.0702,-0.2318,-1.5315611039153119,-0.003878794377669692,1.807045578956604,-1.7988024950027466,-7.83914583735168e-05,2.1392173767089844,4.548105879420898,-0.0011205777991563082,0.267006516456604,-1.5966985861407679,3.314291040716879e-32,0.011284398846328259,0.8503742814064026,0.0001038173504639417,0.009382527321577072,0.7582993507385254,0.0,-0.1245424821972847
341.0,338.0,1.6594,0.6508,9.192,0.0302,-0.0702,-0.2318,-1.531601258819439,-0.00527144642546773,1.811044454574585,-1.798887014389038,-7.358442962868139e-05,2.094438076019287,4.548069162959717,-0.0020417263731360435,0.2608291208744049,-1.5966737906085413,9.225451713315646e-36,0.03458382934331894,0.8503575921058655,0.00021363902487792075,0.002116953255608678,0.7582994103431702,0.0,-0.04885389655828476
341.0,338.0,1.6594,0.6508,9.192,0.0302,-0.0702,-0.2318,-1.5316092123142262,-0.006174896843731403,1.830125093460083,-1.798830270767212,-5.90649651712738e-05,2.151144027709961,4.54804961263623,-0.002699396340176463,0.24077850580215454,-1.5966294447528284,3.9329548954166336e-38,0.026967551559209824,0.8503577709197998,0.00020227946515660733,0.022432591766119003,0.758263111114502,0.0,-0.09481847286224365
341.0,338.0,1.6594,0.6508,9.192,0.0302,-0.0702,-0.2318,-1.5316695992699643,-0.007310366723686457,1.8159254789352417,-1.7988662719726562,2.1283356545609422e-05,2.1106865406036377,4.548045321101807,-0.0030919110868126154,0.25070565938949585,-1.5966904799090784,1.0946943603305471e-41,0.01953396201133728,0.8503334522247314,0.00021328753791749477,0.009807085618376732,0.7583396434783936,0.0,-0.09973500669002533
341.0,338.0,1.6594,0.6508,9.192,0.0302,-0.0702,-0.2318,-1.5316531223109742,-0.007663645315915346,1.7544423341751099,-1.7988417148590088,3.62326204594865e-08,2.0678369998931885,4.548016710872314,-0.003163572633638978,0.25310075283050537,-1.5966294447528284,2.802596928649634e-45,0.03946850076317787,0.8503453731536865,0.00022090230777394027,0.01934405043721199,0.7582551836967468,0.0,-0.1316804587841034
335.0,372.0,2.6489,0.5779,9.1101,-0.044,0.0228,-0.1075,-1.5317654025605698,-0.008337709121406078,1.7767590284347534,-1.798818826675415,8.749751411688683e-14,2.155163049697876,4.548009558314941,-0.005277852062135935,0.24587421119213104,-1.5966656843768519,0.0,0.035135503858327866,0.8503494262695312,0.0002016385260503739,0.015293318778276443,0.7583034634590149,0.0,-0.0912075787782669
335.0,372.0,2.6489,0.5779,9.1101,-0.044,0.0228,-0.1075,-1.5318092380515118,-0.009795170277357101,1.7679667472839355,-1.7988499402999878,2.112961788932818e-19,2.1341726779937744,4.547965689296387,-0.006896344944834709,0.23961219191551208,-1.596694294606344,0.0,0.03422294929623604,0.8503742218017578,0.00020935357315465808,0.017704293131828308,0.758271336555481,0.0,-0.11815686523914337
335.0,372.0,2.6489,0.5779,9.1101,-0.044,0.0228,-0.1075,-1.5318972964635869,-0.009966466575860977,1.7472598552703857,-1.7988466024398804,3.803256511795904e-23,2.1149685382843018,4.547917528743408,-0.007404441945254803,0.2539082467556,-1.5966337362872522,0.0,0.025005221366882324,0.8503496050834656,0.00019864733621943742,0.013315824791789055,0.7583555579185486,0.0,-0.0653475746512413
335.0,372.0,2.6489,0.5779,9.1101,-0.044,0.0228,-0.1075,-1.5319610026529809,-0.011398364789783955,1.7386116981506348,-1.7988457679748535,9.184417450364491e-29,2.1289517879486084,4.547889395351074,-0.006149543449282646,0.24829919636249542,-1.5966337362872522,0.00010337490675738081,0.041305214166641235,0.8503780364990234,0.0002259899047203362,0.02540609985589981,0.7582510709762573,0.0,-0.10214286297559738
335.0,372.0,2.6489,0.5779,9.1101,-0.044,0.0228,-0.1075,-1.532004826968052,-0.01364907156676054,1.717282772064209,-1.7988507747650146,2.2179287104387423e-34,2.1520862579345703,4.547865553493164,-0.004085525870323181,0.2480657696723938,-1.5966861883746546,9.680015500634909e-05,0.043859027326107025,0.8503897786140442,0.00023310547112487257,0.018073182553052902,0.7582913637161255,0.0,-0.12103967368602753
335.0,372.0,2.6489,0.5779,9.1101,-0.044,0.0228,-0.1075,-1.5321047839573403,-0.015438511036336422,1.662743091583252,-1.7988228797912598,5.356042990342316e-40,2.1028237342834473,4.547848864192627,-0.0031670366879552603,0.24344870448112488,-1.5966056028949183,9.093192056752741e-05,0.048155661672353745,0.8503133654594421,0.00020847337145823985,0.015551358461380005,0.7583194375038147,0.0,-0.10818824917078018
335.0,372.0,2.6489,0.5779,9.1101,-0.044,0.0228,-0.1075,-1.5322207671454926,-0.017080578953027725,1.741466999053955,-1.7988383769989014,1.401298464324817e-45,2.1330506801605225,4.5478736597248535,-0.002134854905307293,0.23774901032447815,-1.5966375509845179,0.00010284270683769137,0.040186282247304916,0.8503577709197998,0.00021742243552580476,0.019175173714756966,0.7583556175231934,0.0,-0.12221924960613251
335.0,372.0,2.6489,0.5779,9.1101,-0.044,0.0228,-0.1075,-1.5322969940355797,-0.018511736765503883,1.7065061330795288,-1.7987701892852783,-0.0,2.1048989295959473,4.547846003169678,-0.001645935932174325,0.24190443754196167,-1.5966461340533655,9.910478547681123e-05,0.0428638756275177,0.8503374457359314,0.0002038595557678491,0.018444351851940155,0.7583474516868591,0.0,-0.16074126958847046
335.0,372.0,2.6489,0.5779,9.1101,-0.044,0.0228,-0.1075,-1.532424734239914,-0.02139889821410179,1.7371437549591064,-1.7988146543502808,-0.0,2.0750885009765625,4.547781153316162,-0.000952988862991333,0.2468928098678589,-1.5966780821429651,9.393304935656488e-05,0.04461545869708061,0.8503577709197998,0.0001858213945524767,0.026472726836800575,0.7583715915679932,0.0,-0.09513725340366364
335.0,372.0,2.6489,0.5779,9.1101,-0.044,0.0228,-0.1075,-1.5325927560082455,-0.026874151080846786,1.7504841089248657,-1.7988498210906982,-0.0,2.0988693237304688,4.547825022334717,-0.0006228068959899247,0.24713751673698425,-1.5966256300555628,9.660082287155092e-05,0.0506771095097065,0.8503456115722656,0.00019426862127147615,0.016705360263586044,0.7583555579185486,0.0,-0.14824041724205017
335.0,372.0,2.6489,0.5779,9.1101,-0.044,0.0228,-0.1075,-1.532728263442852,-0.031175561249256134,1.6736351251602173,-1.7988581657409668,-0.0,2.1132898330688477,4.547825022334717,-0.0006111725815571845,0.2387869954109192,-1.5966256300555628,9.922964818542823e-05,0.03827037662267685,0.850405752658844,0.00018043261661659926,0.019965004175901413,0.7583552002906799,0.0,-0.13696801662445068
335.0,372.0,2.6489,0.5779,9.1101,-0.044,0.0228,-0.1075,-1.5328924556127568,-0.03653042018413544,1.6511213779449463,-1.7987898588180542,-0.0,2.1071090698242188,4.547769232387207,-0.0004818449669983238,0.24728813767433167,-1.5966294447528284,9.620118362363428e-05,0.05013710632920265,0.8504301309585571,0.00017182064766529948,0.023430639877915382,0.7583429217338562,0.0,-0.13047631084918976
335.0,372.0,2.6489,0.5779,9.1101,-0.044,0.0228,-0.1075,-1.5331202645650883,-0.04496678709983826,1.6554851531982422,-1.7988219261169434,-0.0,2.066366672515869,4.5478736597248535,-0.0007391159888356924,0.23692487180233002,-1.5966218153582972,9.198712359648198e-05,0.05169296637177467,0.8503288626670837,0.0001603409182280302,0.01924193650484085,0.7583832740783691,0.0009533677366562188,-0.2283339500427246
335.0,372.0,2.6489,0.5779,9.1101,-0.044,0.0228,-0.1075,-1.5334642019918938,-0.054822150617837906,1.6955831050872803,-1.7987980842590332,-0.0,2.124485969543457,4.547809763545654,-0.0006081421161070466,0.2540279030799866,-1.5966904799090784,8.81269370438531e-05,0.044600121676921844,0.850393533706665,0.0001502989325672388,0.006184556521475315,0.7583631873130798,0.0014758409233763814,-0.1576550155878067
335.0,372.0,2.6489,0.5779,9.1101,-0.044,0.0228,-0.1075,-1.533799936329462,-0.06540791690349579,1.5925266742706299,-1.7988269329071045,-0.0,2.1511502265930176,4.547841711635254,-0.000432493892731145,0.23913294076919556,-1.5966580549823206,8.457764488412067e-05,0.05913689732551575,0.850409984588623,0.00014144109445624053,0.011626101098954678,0.7584677338600159,0.0030860810074955225,-0.18638360500335693
335.0,372.0,2.6489,0.5779,9.1101,-0.044,0.0228,-0.1075,-1.5342475225082417,-0.07703854143619537,1.6316068172454834,-1.7987453937530518,-0.0,2.049370288848877,4.547809763545654,-0.00033562432508915663,0.2502101957798004,-1.5966218153582972,8.130317291943356e-05,0.06159089878201485,0.8503702282905579,0.00013356938143260777,0.020262302830815315,0.7584834098815918,0.004936783108860254,-0.2117074579000473
363.0,357.0,1.1378,0.0443,8.7464,-0.0205,-0.0425,-0.1064,-1.5345634457520028,-0.08433372527360916,1.618950605392456,-1.7987537384033203,0.00044359557796269655,2.124035596847534,4.5478221613117675,-0.00029203275335021317,0.23312926292419434,-1.5966375509845179,7.925745012471452e-05,0.04086499661207199,0.8503897786140442,0.00012879064888693392,0.021763138473033905,0.7584871649742126,0.006582231726497412,-0.18250155448913574
363.0,357.0,1.1378,0.0443,8.7464,-0.0205,-0.0425,-0.1064,-1.5351029273918648,-0.09559391438961029,1.6772212982177734,-1.7987866401672363,0.0004832833947148174,2.0884006023406982,4.547797365779541,-0.00024442459107376635,0.2406977415084839,-1.596649471913473,7.637496310053393e-05,0.057399652898311615,0.8503780364990234,0.00012223137309774756,0.020552318543195724,0.7585755586624146,0.010059290565550327,-0.14079469442367554
363.0,357.0,1.1378,0.0443,8.7464,-0.0205,-0.0425,-0.1064,-1.5356698644212265,-0.10673370957374573,1.6042382717132568,-1.7987866401672363,0.0004489318234845996,2.077455997467041,4.54781357824292,-0.0002101666759699583,0.24042876064777374,-1.5966537634478968,7.369479135377333e-05,0.05174197256565094,0.8503293991088867,0.00011630764493020251,0.021740268915891647,0.7586475610733032,0.012753198854625225,-0.1309666484594345
363.0,357.0,1.1378,0.0443,8.7464,-0.0205,-0.0425,-0.1064,-1.5363861073604603,-0.11299262940883636,1.6172229051589966,-1.7988145351409912,0.0003787527675740421,2.101092576980591,4.547846003169678,-0.00018433370860293508,0.23227936029434204,-1.5966656843768519,7.11963657522574e-05,0.05402766540646553,0.8503174781799316,0.00011093178909504786,0.01191348023712635,0.7586833238601685,0.012745940126478672,-0.16775956749916077
363.0,357.0,1.1378,0.0443,8.7464,-0.0205,-0.0425,-0.1064,-1.5369064968875428,-0.11602432280778885,1.5849413871765137,-1.7987536191940308,0.00030493942904286087,2.104306221008301,4.547857924098633,-0.00017037319776136428,0.2354917824268341,-1.5966218153582972,6.962269981158897e-05,0.04459860175848007,0.8503537178039551,0.00010761556040961295,0.026752885431051254,0.7587793469429016,0.0124762998893857,-0.13982520997524261
363.0,357.0,1.1378,0.0443,8.7464,-0.0205,-0.0425,-0.1064,-1.5375929300538083,-0.12171656638383865,1.6163368225097656,-1.798774242401123,0.00026238919235765934,2.129467487335205,4.547833605403564,-0.0001833181013353169,0.2458113729953766,-1.5966981093036097,1.937973337362564e-08,0.05779379978775978,0.8503856658935547,0.00010299716086592525,0.023816291242837906,0.7588313221931458,0.011296394281089306,-0.17631572484970093
363.0,357.0,1.1378,0.0443,8.7464,-0.0205,-0.0425,-0.1064,-1.5383722011796017,-0.13076144456863403,1.631766676902771,-1.7988539934158325,5.045456055086106e-05,2.0582664012908936,4.54786126195874,-0.00019411646644584835,0.24320730566978455,-1.5966575781451624,5.39442102098775e-12,0.05703360587358475,0.8503251075744629,9.875890100374818e-05,0.010122008621692657,0.7588953375816345,0.01005304791033268,-0.0977301299571991
363.0,357.0,1.1378,0.0443,8.7464,-0.0205,-0.0425,-0.1064,-1.5392523270896454,-0.1423942595720291,1.5462889671325684,-1.798827052116394,1.0189428190088279e-09,2.077098846435547,4.547809763545654,-0.0001467821712139994,0.25627440214157104,-1.5966985861407679,1.5015567990587348e-15,0.04500288888812065,0.8503169417381287,9.486545604886487e-05,0.02630973979830742,0.758927047252655,0.008694406598806381,-0.11873560398817062
363.0,357.0,1.1378,0.0443,8.7464,-0.0205,-0.0425,-0.1064,-1.5400991731188078,-0.1589760035276413,1.6255738735198975,-1.7987494468688965,2.46062690012548e-15,2.0795373916625977,4.547857924098633,-0.00015839650586713105,0.23148417472839355,-1.596649471913473,4.179638686690231e-19,0.04334279149770737,0.8503537178039551,7.351787644438446e-05,0.018436409533023834,0.7589992880821228,0.006681227590888739,-0.150465190410614
363.0,357.0,1.1378,0.0443,8.7464,-0.0205,-0.0425,-0.1064,-1.5407786846956988,-0.17104516923427582,1.624927282333374,-1.7987898588180542,4.429040879205329e-19,2.0992188453674316,4.547849817866943,-0.00014967228344175965,0.25041139125823975,-1.5966575781451624,1.781845590254389e-21,0.0571073517203331,0.850337028503418,7.118716166587546e-05,0.016792140901088715,0.7590152025222778,0.005268716719001532,-0.1374824047088623
363.0,357.0,1.1378,0.0443,8.7464,-0.0205,-0.0425,-0.1064,-1.5417380791953583,-0.17990729212760925,1.5666418075561523,-1.7988187074661255,1.0695612811258044e-24,2.080507516860962,4.547841711635254,-9.51674155658111e-05,0.24615821242332458,-1.5966656843768519,4.95983277952775e-25,0.05781785398721695,0.8503411412239075,6.796174420742318e-05,0.03550845757126808,0.7590192556381226,0.002611994743347168,-0.08772727847099304
363.0,357.0,1.1378,0.0443,8.7464,-0.0205,-0.0425,-0.1064,-1.5428332735649128,-0.18121039867401123,1.661020040512085,-1.798774242401123,2.582864460338626e-30,2.0641517639160156,4.547865553493164,0.0001191549890791066,0.2524847090244293,-1.5966299215899866,1.3805875935650564e-28,0.06305382400751114,0.8503496050834656,6.501602183561772e-05,1.469440758228302e-05,0.7590192556381226,0.0011628548381850123,-0.16442444920539856
363.0,357.0,1.1378,0.0443,8.7464,-0.0205,-0.0425,-0.1064,-1.5439442948303004,-0.1801672875881195,1.581108570098877,-1.798774242401123,6.237313361580624e-36,2.0795345306396484,4.54786126195874,0.0002215717831859365,0.2415095567703247,-1.5966418425189417,3.842915552259065e-32,0.04773680120706558,0.8503329753875732,6.231506267795339e-05,0.012360326014459133,0.7590154409408569,0.00035720967571251094,-0.18862837553024292
363.0,357.0,1.1378,0.0443,8.7464,-0.0205,-0.0425,-0.1064,-1.545083250184991,-0.18825148046016693,1.6411466598510742,-1.7988022565841675,4.0350980270886794e-05,2.1219263076782227,4.54786126195874,0.00019818401779048145,0.24190284311771393,-1.596682373677389,1.0696895995014452e-35,0.056136541068553925,0.8503329753875732,5.982951188343577e-05,0.019260521978139877,0.7589869499206543,-0.0003116141597274691,-0.19800010323524475
363.0,357.0,1.1378,0.0443,8.7464,-0.0205,-0.0425,-0.1064,-1.5458223813078185,-0.2004854530096054,1.5897268056869507,-1.7987743616104126,7.263033729998369e-09,2.091062545776367,4.547881765956543,0.0001785250351531431,0.25290602445602417,-1.5966699759112757,4.560254280502731e-38,0.04743869602680206,0.8503696918487549,5.8279816585127264e-05,0.0167696550488472,0.7590072154998779,-0.00016894980217330158,-0.08435632288455963
363.0,357.0,1.1378,0.0443,8.7464,-0.0205,-0.0425,-0.1064,-1.5470936142704268,-0.21661679446697235,1.6545813083648682,-1.7988063097000122,1.7539372325391447e-14,2.0786707401275635,4.547865553493164,0.0001561308599775657,0.2544137239456177,-1.596649471913473,1.2692961489854193e-41,0.059499554336071014,0.8503414392471313,5.610012885881588e-05,0.024964841082692146,0.7590192556381226,-6.590315024368465e-05,-0.1463315635919571
363.0,357.0,1.1378,0.0443,8.7464,-0.0205,-0.0425,-0.1064,-1.5483927105418225,-0.22715596854686737,1.6014697551727295,-1.798827052116394,-0.00028955441666767,2.0329749584198,4.547897501582764,0.00018410192569717765,0.25620585680007935,-1.5966337362872522,4.203895392974451e-45,0.057237688452005386,0.8503537178039551,5.4077652748674154e-05,0.022912725806236267,0.7590233683586121,-0.00015393740613944829,-0.1519750952720642
366.0,390.0,1.6786,-0.134,7.9854,-0.0535,-0.2166,-0.1254,-1.54972334698353,-0.23683381080627441,1.5437049865722656,-1.7988187074661255,-2.2768135821138458e-08,2.068523406982422,4.547897024745605,0.00019228308519814163,0.2521681487560272,-1.5966575781451624,0.0,0.04527899622917175,0.8503856658935547,6.263202521950006e-05,0.021109849214553833,0.7589551210403442,-0.0009540885221213102,-0.10834616422653198
366.0,390.0,1.6786,-0.134,7.9854,-0.0535,-0.2166,-0.1254,-1.550670651053526,-0.23995152115821838,1.5393258333206177,-1.798782467842102,-4.098184031714469e-12,2.1222705841064453,4.5479370790668945,0.00027469228371046484,0.2666110396385193,-1.5966418425189417,0.0,0.046252261847257614,0.8503494262695312,6.121500337030739e-05,0.030405692756175995,0.7589430212974548,-0.0014055432984605432,-0.16856025159358978
366.0,390.0,1.6786,-0.134,7.9854,-0.0535,-0.2166,-0.1254,-1.5521295194378872,-0.24403642117977142,1.5871772766113281,-1.7987266778945923,0.0008751623099669814,2.0961484909057617,4.547913237208984,0.0014487445587292314,0.25282660126686096,-1.5966256300555628,0.0,0.05604439973831177,0.8504058122634888,7.710060344834346e-06,0.01957206428050995,0.7589150071144104,-0.0015994629357010126,-0.16023099422454834
366.0,390.0,1.6786,-0.134,7.9854,-0.0535,-0.2166,-0.1254,-1.5536164094558735,-0.2481449991464615,1.5863144397735596,-1.7987618446350098,0.0007766532944515347,2.12884783744812,4.547949476833008,0.0010861578630283475,0.26130321621894836,-1.5966256300555628,0.0,0.05092586576938629,0.8503737449645996,2.1461235011344115e-09,0.026594877243041992,0.7589673399925232,-0.0011342075886204839,-0.19018010795116425
366.0,390.0,1.6786,-0.134,7.9854,-0.0535,-0.2166,-0.1254,-1.5551872209510584,-0.26131486892700195,1.593468427658081,-1.7987576723098755,0.000567203969694674,2.107123851776123,4.547921343440674,0.0006348572787828743,0.26258665323257446,-1.5966456572162073,0.0,0.0532739982008934,0.8504136204719543,5.973814108314879e-13,0.018118932843208313,0.7589188814163208,-0.0006738555966876447,-0.12591351568698883
366.0,390.0,1.6786,-0.134,7.9854,-0.0535,-0.2166,-0.1254,-1.5568213120898982,-0.2733996510505676,1.6209917068481445,-1.7987784147262573,0.00044655203237198293,2.080306053161621,4.547917528743408,0.0006175525486469269,0.2545948624610901,-1.5966575781451624,0.0,0.05260958522558212,0.8503251075744629,1.6628334074631705e-16,0.014151914045214653,0.7590197324752808,-0.0005100994021631777,-0.1589941382408142
366.0,390.0,1.6786,-0.134,7.9854,-0.0535,-0.2166,-0.1254,-1.5580052708140393,-0.2751619219779968,1.5948354005813599,-1.7987463474273682,0.0004468749393709004,2.120204448699951,4.547973318690918,0.0005536115495488048,0.26174646615982056,-1.5966056028949183,0.0,0.050731971859931946,0.8503661155700684,7.088918721027782e-19,0.024910293519496918,0.7589669823646545,-0.0004389926325529814,-0.11118821799755096
366.0,390.0,1.6786,-0.134,7.9854,-0.0535,-0.2166,-0.1254,-1.5597076074085017,-0.2855742871761322,1.6330152750015259,-1.7987431287765503,0.0003013471723534167,2.0612030029296875,4.547941370601318,0.0005319201154634356,0.2696508467197418,-1.5966656843768519,0.0,0.022810067981481552,0.8503496050834656,1.973226628496568e-22,0.016640981659293175,0.7589510083198547,-6.216995097929612e-05,-0.1032438576221466
366.0,390.0,1.6786,-0.134,7.9854,-0.0535,-0.2166,-0.1254,-1.5615103172934433,-0.30078205466270447,1.5842591524124146,-1.798774242401123,0.00030110220541246235,2.141021251678467,4.547953291530273,0.0004889324773102999,0.27176985144615173,-1.5966418425189417,0.0,0.0433385968208313,0.8503737449645996,5.492548206892687e-26,0.00985226221382618,0.7589913010597229,-1.210285760500085e-09,-0.10107249021530151
366.0,390.0,1.6786,-0.134,7.9854,-0.0535,-0.2166,-0.1254,-1.563355723661818,-0.30806806683540344,1.6586138010025024,-1.798738956451416,0.0002958390105050057,2.1091341972351074,4.5479652124592285,0.0006838038098067045,0.272882878780365,-1.596649471913473,0.0,0.04016648232936859,0.8503815531730652,1.528871199255749e-29,0.026496121659874916,0.7590033411979675,-2.922697984171041e-15,-0.06549398601055145
366.0,390.0,1.6786,-0.134,7.9854,-0.0535,-0.2166,-0.1254,-1.5652785802124818,-0.311048299074173,1.6320444345474243,-1.798755407333374,0.0005601831362582743,2.096393585205078,4.548025293941162,0.0014327395474538207,0.27800267934799194,-1.5966456572162073,0.0,0.03726176172494888,0.8503496646881104,4.25566938158879e-33,0.021808642894029617,0.7589831352233887,-7.057972698777694e-21,-0.10874292999505997
366.0,390.0,1.6786,-0.134,7.9854,-0.0535,-0.2166,-0.1254,-1.5665330498344083,-0.3210805058479309,1.6194735765457153,-1.7986739873886108,0.0015442519215866923,2.1050240993499756,4.54808156072583,0.0017455988563597202,0.2655886113643646,-1.5966737906085413,0.0,0.0361117422580719,0.850394070148468,1.8142582967436366e-35,0.03268657624721527,0.7589790225028992,-1.2704100993681185e-24,-0.11136633157730103
366.0,390.0,1.6786,-0.134,7.9854,-0.0535,-0.2166,-0.1254,-1.568568330756836,-0.33366718888282776,1.6494784355163574,-1.798747181892395,0.0011181471636518836,2.12319278717041,4.548045321101807,0.0009288674336858094,0.2706165313720703,-1.596694294606344,0.0,0.0356413871049881,0.8503533601760864,5.1574137614807114e-05,0.03648803383111954,0.7589828968048096,-3.0678903566065535e-30,-0.10969995707273483
366.0,390.0,1.6786,-0.134,7.9854,-0.0535,-0.2166,-0.1254,-1.570574872126901,-0.34039145708084106,1.675297737121582,-1.798774242401123,0.00017872866010293365,2.172380208969116,4.548025293941162,0.0005727775278501213,0.26661181449890137,-1.5966656843768519,0.0,0.03093557432293892,0.8504136204719543,7.057158654788509e-05,0.03786057233810425,0.7590233683586121,0.001745134242810309,-0.09326687455177307
366.0,390.0,1.6786,-0.134,7.9854,-0.0535,-0.2166,-0.1254,-1.5725962124266566,-0.35912856459617615,1.6868956089019775,-1.7987658977508545,2.0235120246070437e-08,2.108207941055298,4.548009558314941,0.0004971203161403537,0.2653389573097229,-1.5966537634478968,0.0,0.020226189866662025,0.850337028503418,8.082819840637967e-05,0.022618617862462997,0.7590274810791016,0.001795268035493791,-0.11750569939613342
366.0,390.0,1.6786,-0.134,7.9854,-0.0535,-0.2166,-0.1254,-1.5740038357176722,-0.36609411239624023,1.6616870164871216,-1.7986986637115479,3.642250563651306e-12,2.1167683601379395,4.5480334001728515,0.00048478826647624373,0.29273468255996704,-1.5966656843768519,0.0,0.03518066555261612,0.8504415154457092,7.853442366467789e-05,0.033155638724565506,0.7590432167053223,0.0016149270813912153,-0.13225054740905762
405.0,724.0,2.4497,-0.0257,8.2247,-0.0507,-0.3621,-0.1151,-1.5761901340880335,-0.3675653040409088,1.6637132167816162,-1.7986737489700317,8.795605840720293e-18,2.093041181564331,4.548077269191406,0.0014060883549973369,0.2677794396877289,-1.5966537634478968,0.0,0.02960074692964554,0.850393533706665,8.696282748132944e-05,0.027878737077116966,0.7590591907501221,0.0012690359726548195,-0.10061903297901154
405.0,724.0,2.4497,-0.0257,8.2247,-0.0507,-0.3621,-0.1151,-1.5783435306944789,-0.37361380457878113,1.6685917377471924,-1.7986509799957275,0.004363333806395531,2.0788097381591797,4.548081083888672,0.004868484567850828,0.2890615463256836,-1.5966699759112757,0.0,0.03291556239128113,0.8504054546356201,8.42700683278963e-05,0.0357183963060379,0.7590591907501221,0.0011638440191745758,-0.10503195226192474
405.0,724.0,2.4497,-0.0257,8.2247,-0.0507,-0.3621,-0.1151,-1.5805698833861292,-0.3777138292789459,1.744594931602478,-1.7986664772033691,0.005257061216980219,2.153154134750366,4.548124476070068,0.010011647827923298,0.3019953668117523,-1.5966981093036097,1.75377990672132e-05,0.030126996338367462,0.8503975868225098,9.239631617674604e-05,0.04198463261127472,0.7590872645378113,0.0013458338798955083,-0.1343977153301239
405.0,724.0,2.4497,-0.0257,8.2247,-0.0507,-0.3621,-0.1151,-1.582855840722555,-0.3813343942165375,1.7263776063919067,-1.7986104488372803,0.0030842390842735767,2.146751880645752,4.548233194942139,0.016827085986733437,0.2982695698738098,-1.5966294447528284,4.881710591320143e-09,0.027398547157645226,0.8503734469413757,8.915362559491768e-05,0.027238164097070694,0.759079098701477,0.0018979052547365427,-0.1242283433675766
405.0,724.0,2.4497,-0.0257,8.2247,-0.0507,-0.3621,-0.1151,-1.5843831501402796,-0.38678091764450073,1.7238571643829346,-1.7986023426055908,0.0016832760302349925,2.0980515480041504,4.5483009058186035,0.01737644523382187,0.2975526452064514,-1.5967100302325647,2.0811498357975466e-11,0.026491254568099976,0.8503207564353943,0.00018822099082171917,0.03812250867486,0.7591637372970581,0.002978650387376547,-0.09537535905838013
405.0,724.0,2.4497,-0.0257,8.2247,-0.0507,-0.3621,-0.1151,-1.586769243279928,-0.39705345034599304,1.7357220649719238,-1.798599123954773,0.001160798710770905,2.1222918033599854,4.548440619105957,0.015356599353253841,0.2966558039188385,-1.5966737906085413,5.7929565820940415e-15,0.018013548105955124,0.8504133224487305,0.00017969560576602817,0.025841278955340385,0.7591111660003662,0.005414812359958887,-0.036172591149806976
405.0,724.0,2.4497,-0.0257,8.2247,-0.0507,-0.3621,-0.1151,-1.589142461816305,-0.39938443899154663,1.7804659605026245,-1.798599123954773,0.001817962620407343,2.1297268867492676,4.54847161352124,0.011786052957177162,0.30475562810897827,-1.5966861883746546,1.6124909968598462e-18,0.02350372076034546,0.8503853678703308,0.0001903937227325514,0.029082395136356354,0.7591432929039001,0.005308226682245731,-0.029008327051997185
405.0,724.0,2.4497,-0.0257,8.2247,-0.0507,-0.3621,-0.1151,-1.5915686092772425,-0.3988635241985321,1.7916853427886963,-1.7985503673553467,0.005098140332847834,2.114949941635132,4.548584623927734,0.008681243285536766,0.29488638043403625,-1.596694294606344,4.488427709477366e-22,0.008381208404898643,0.850369393825531,0.00017395375471096486,0.03247307240962982,0.7592395544052124,0.005324153229594231,0.04258911684155464
405.0,724.0,2.4497,-0.0257,8.2247,-0.0507,-0.3621,-0.1151,-1.5941187343993128,-0.4034241735935211,1.7901841402053833,-1.7985152006149292,0.009193562902510166,2.1241092681884766,4.5486156183430175,0.005700062029063702,0.30298158526420593,-1.5966456572162073,1.2493702915573558e-25,0.01018771156668663,0.850393533706665,0.00018504432227928191,0.029288919642567635,0.7592635750770569,0.0077322921715676785,-0.050485461950302124
405.0,724.0,2.4497,-0.0257,8.2247,-0.0507,-0.3621,-0.1151,-1.5958100757994593,-0.4017317295074463,1.810075044631958,-1.7984106540679932,0.011567925103008747,2.1224312782287598,4.548640413875244,0.004229219630360603,0.30470120906829834,-1.5966699759112757,5.326260854007467e-28,0.01162934023886919,0.8504255414009094,0.00019964748935308307,0.04233131930232048,0.7592549920082092,0.008465788327157497,-0.007997613400220871
405.0,724.0,2.4497,-0.0257,8.2247,-0.0507,-0.3621,-0.1151,-1.5982877216734828,-0.4125564992427826,1.8038570880889893,-1.7984269857406616,0.00919486302882433,2.162318706512451,4.548628016109131,0.0018807572778314352,0.31662148237228394,-1.5966699759112757,1.4825839039647193e-31,-0.008798674680292606,0.8503652811050415,0.00030427900492213666,0.04723947495222092,0.7593673467636108,0.009969023987650871,-0.019590286538004875
405.0,724.0,2.4497,-0.0257,8.2247,-0.0507,-0.3621,-0.1151,-1.600785871545309,-0.4166390299797058,1.8461368083953857,-1.7983834743499756,0.005661323666572571,2.1252331733703613,4.548632307643555,0.0009925360791385174,0.32073545455932617,-1.5966699759112757,4.126827188091628e-35,-0.016027573496103287,0.8504209518432617,0.000667802756652236,0.030167292803525925,0.75943523645401,0.010783759877085686,-0.020288553088903427
405.0,724.0,2.4497,-0.0257,8.2247,-0.0507,-0.3621,-0.1151,-1.603323598901266,-0.4273396134376526,1.8616173267364502,-1.7982946634292603,0.002284851623699069,2.1174135208129883,4.54861228048291,0.0006733949994668365,0.3276212215423584,-1.5966861883746546,1.1487174989868903e-38,-0.010088021866977215,0.8503729701042175,0.0016998288920149207,0.03318440914154053,0.7594712972640991,0.011794237419962883,0.012152577750384808
405.0,724.0,2.4497,-0.0257,8.2247,-0.0507,-0.3621,-0.1151,-1.6050111256041468,-0.4323691129684448,1.8611476421356201,-1.7983794212341309,0.0002519953122828156,2.1439764499664307,4.548628016109131,0.0006309555610641837,0.3226229250431061,-1.5966618696795862,4.897117743275938e-41,-0.003274824470281601,0.8504369854927063,0.004411529283970594,0.03893386572599411,0.75947105884552,0.011905145831406116,0.030790574848651886
405.0,724.0,2.4497,-0.0257,8.2247,-0.0507,-0.3621,-0.1151,-1.607492586175436,-0.4292147755622864,1.8606390953063965,-1.7983349561691284,6.085390524823708e-10,2.128599166870117,4.5486485201069335,0.0004267490585334599,0.3159656524658203,-1.5966456572162073,1.401298464324817e-44,0.0016704672016203403,0.8505287170410156,0.01715768128633499,0.056074321269989014,0.7595672011375427,0.010450094938278198,-0.05000857636332512
405.0,724.0,2.4497,-0.0257,8.2247,-0.0507,-0.3621,-0.1151,-1.6099826298155726,-0.4267061948776245,1.8781359195709229,-1.7982914447784424,0.0009155287407338619,2.112704038619995,4.548624201411865,0.00044423132203519344,0.313024640083313,-1.5966375509845179,0.0,-0.0025643426924943924,0.8506572842597961,0.01941811852157116,0.05837532877922058,0.7595749497413635,0.0075400290079414845,-0.028216056525707245
930.0,911.0,2.8834,-0.0712,9.0275,-0.0577,-0.3937,-0.0988,-1.6125256023802699,-0.4236113727092743,1.8664889335632324,-1.7983111143112183,0.0023546151351183653,2.1520214080810547,4.548704310054443,0.0018917599227279425,0.31290921568870544,-1.5966737906085413,0.0,-0.007388819474726915,0.8507645726203918,0.012344703078269958,0.0565466545522213,0.7596752643585205,0.006624160334467888,-0.006269455887377262
930.0,911.0,2.8834,-0.0712,9.0275,-0.0577,-0.3937,-0.0988,-1.615035196343893,-0.42144736647605896,1.9432051181793213,-1.798295497894287,0.0039616660214960575,2.117629051208496,4.548699541682861,0.0027368618175387383,0.3151986300945282,-1.5966900030719202,0.0,-0.005382872652262449,0.8507840633392334,0.0038081894163042307,0.04930056631565094,0.7597272396087646,0.007575144991278648,-0.05100134387612343
930.0,911.0,2.8834,-0.0712,9.0275,-0.0577,-0.3937,-0.0988,-1.616741796533102,-0.4236946403980255,1.8797674179077148,-1.7982674837112427,0.00441689882427454,2.0711474418640137,4.548720522517822,0.0031793720554560423,0.31844690442085266,-1.5966818968402308,0.0,-0.0013895914889872074,0.8507919907569885,0.0012444641906768084,0.05030195042490959,0.7597429752349854,0.0088498555123806,-0.018572865054011345
930.0,911.0,2.8834,-0.0712,9.0275,-0.0577,-0.3937,-0.0988,-1.6193162403502406,-0.42943695187568665,1.9493299722671509,-1.798271656036377,0.004343294072896242,2.148448944091797,4.548772020930908,0.0035916876513510942,0.3299720585346222,-1.5967219511615198,0.0,-0.006158935371786356,0.8507960438728333,0.00017069657042156905,0.06287795305252075,0.7598351836204529,0.010780904442071915,-0.022421319037675858
930.0,911.0,2.8834,-0.0712,9.0275,-0.0577,-0.3937,-0.0988,-1.6218906841673792,-0.4275483191013336,1.9745486974716187,-1.7981629371643066,0.006406787782907486,2.1814208030700684,4.548803969020508,0.005457109771668911,0.3361801505088806,-1.5966861883746546,0.0,-0.003397507593035698,0.850787878036499,0.00010504887177376077,0.05741763114929199,0.7598387598991394,0.010853496380150318,0.07990600913763046
930.0,911.0,2.8834,-0.0712,9.0275,-0.0577,-0.3937,-0.0988,-1.6245280704894007,-0.43258973956108093,1.8883154392242432,-1.7981669902801514,0.010392439551651478,2.1680991649627686,4.548823519343994,0.01304401271045208,0.3312810957431793,-1.5966175238238733,0.0,-0.0036194315180182457,0.850727379322052,0.00019308370247017592,0.05738771706819534,0.7598868012428284,0.012946556322276592,0.024315709248185158
930.0,911.0,2.8834,-0.0712,9.0275,-0.0577,-0.3937,-0.0988,-1.6262389622130335,-0.4259967505931854,1.9618234634399414,-1.7981234788894653,0.012162708677351475,2.1576919555664062,4.548927469844482,0.020890051499009132,0.3301914930343628,-1.5966981093036097,0.0,-0.00042959232814610004,0.8508164882659912,0.0002559772110544145,0.05935972183942795,0.7599508166313171,0.013781384564936161,0.029004914686083794
930.0,911.0,2.8834,-0.0712,9.0275,-0.0577,-0.3937,-0.0988,-1.6289497814574183,-0.427298367023468,1.9503977298736572,-1.7980074882507324,0.014371383003890514,2.1705539226531982,4.549051924342773,0.02706035226583481,0.3508758544921875,-1.5967300573932093,0.0,-0.016324691474437714,0.8508684635162354,0.0005782677908428013,0.07054619491100311,0.7600588798522949,0.015411174856126308,0.08351073414087296
930.0,911.0,2.8834,-0.0712,9.0275,-0.0577,-0.3937,-0.0988,-1.6315151653685511,-0.42806559801101685,2.0358731746673584,-1.797959804534912,0.014204725623130798,2.141066074371338,4.5492469507404785,0.03212887421250343,0.34422552585601807,-1.5966938177691858,0.0,-0.01823735423386097,0.8508319854736328,0.002350006252527237,0.07891228795051575,0.7602149844169617,0.019531652331352234,0.07169467955827713
930.0,911.0,2.8834,-0.0712,9.0275,-0.0577,-0.3937,-0.0988,-1.6340843639769496,-0.4356811046600342,1.9840929508209229,-1.7978520393371582,0.012992673553526402,2.146209955215454,4.549426718349121,0.03306926414370537,0.355457067489624,-1.5966656843768519,0.0,-0.02205285057425499,0.8508633375167847,0.0036996128037571907,0.0875396877527237,0.7603430151939392,0.024046340957283974,0.04781738668680191
930.0,911.0,2.8834,-0.0712,9.0275,-0.0577,-0.3937,-0.0988,-1.6366507015623988,-0.4435618817806244,2.0144007205963135,-1.7977879047393799,0.011327434331178665,2.1589548587799072,4.549597902888916,0.03594764322042465,0.36487674713134766,-1.596733872090475,0.0,-0.03458498418331146,0.8509163856506348,0.0043010651133954525,0.10178885608911514,0.7604868412017822,0.02822824940085411,0.10704748332500458
930.0,911.0,2.8834,-0.0712,9.0275,-0.0577,-0.3937,-0.0988,-1.6383544407286585,-0.44129401445388794,2.0250601768493652,-1.7977153062820435,0.010694606229662895,2.1320202350616455,4.549758120174072,0.04089358448982239,0.3550381660461426,-1.5966780821429651,0.0,-0.026654288172721863,0.8509354591369629,0.004647541791200638,0.10143046081066132,0.7606150507926941,0.02955830842256546,0.10752862691879272
930.0,911.0,2.8834,-0.0712,9.0275,-0.0577,-0.3937,-0.0988,-1.6409036121764125,-0.43586254119873047,2.0020546913146973,-1.7976841926574707,0.012981466948986053,2.202406406402588,4.550049467677734,0.056989479809999466,0.36608976125717163,-1.5967062155352991,0.0,-0.02347470447421074,0.850935161113739,0.005085401237010956,0.09088847041130066,0.7607912421226501,0.03136014938354492,0.1301991194486618
930.0,911.0,2.8834,-0.0712,9.0275,-0.0577,-0.3937,-0.0988,-1.6434136829771937,-0.4266623258590698,2.044032573699951,-1.7975804805755615,0.016536695882678032,2.1738193035125732,4.5505053240009765,0.08185292035341263,0.39098602533340454,-1.5966532866107386,0.0,-0.021683089435100555,0.8510874509811401,0.004691894166171551,0.10635888576507568,0.7609950304031372,0.031738948076963425,0.09760337322950363
930.0,911.0,2.8834,-0.0712,9.0275,-0.0577,-0.3937,-0.0988,-1.645930906335348,-0.4169650673866272,2.082082748413086,-1.7974119186401367,0.01930241286754608,2.1718385219573975,4.551103754634521,0.11062709242105484,0.40594398975372314,-1.5966699759112757,0.0,-0.009929676540195942,0.851039469242096,0.004545316100120544,0.11034296452999115,0.7612069249153137,0.034612685441970825,0.12152718752622604
930.0,911.0,2.8834,-0.0712,9.0275,-0.0577,-0.3937,-0.0988,-1.648511072198385,-0.4139370620250702,2.136570453643799,-1.797327995300293,0.022246193140745163,2.193711996078491,4.551858587855957,0.126725435256958,0.4154345989227295,-1.5966900030719202,0.0,-0.013331695459783077,0.850986659526825,0.0035655421670526266,0.0959414541721344,0.7614187002182007,0.03678273782134056,0.05643782019615173
970.0,848.0,4.593,-0.0891,8.6441,-0.0286,-0.2553,-0.086,-1.6501323185362757,-0.41659659147262573,2.0922584533691406,-1.797244906425476,0.022417625412344933,2.165374755859375,4.552345438594482,0.1304025799036026,0.41688472032546997,-1.596694294606344,0.0,-0.02958645299077034,0.851075291633606,0.0032660223077982664,0.10273676365613937,0.7615306973457336,0.038016948848962784,0.1673458218574524
970.0,848.0,4.593,-0.0891,8.6441,-0.0286,-0.2553,-0.086,-1.6526943645873011,-0.4111229181289673,2.1239073276519775,-1.7970761060714722,0.023258227854967117,2.1475093364715576,4.553152247066162,0.12580209970474243,0.41117435693740845,-1.5966656843768519,0.0,-0.02095521241426468,0.8510707020759583,0.0026057790964841843,0.11452918499708176,0.7618108987808228,0.038421884179115295,0.12900657951831818
970.0,848.0,4.593,-0.0891,8.6441,-0.0286,-0.2553,-0.086,-1.6551996670165003,-0.41625118255615234,2.12334942817688,-1.7969577312469482,0.02755928784608841,2.223876476287842,4.553950949306152,0.14985422790050507,0.4319961667060852,-1.5967500845538538,0.0,-0.03247176110744476,0.8510585427284241,0.0021917710546404123,0.11430318653583527,0.7619866728782654,0.037232305854558945,0.07824695110321045
970.0,848.0,4.593,-0.0891,8.6441,-0.0286,-0.2553,-0.086,-1.6577278576292933,-0.4054243266582489,2.197082996368408,-1.7967661619186401,0.03139820322394371,2.2363593578338623,4.55507676183667,0.19102977216243744,0.44832056760787964,-1.5967181364642542,0.0,-0.031095515936613083,0.8510465621948242,0.002465753350406885,0.0924808531999588,0.762234628200531,0.0347314178943634,0.15672999620437622
970.0,848.0,4.593,-0.0891,8.6441,-0.0286,-0.2553,-0.086,-1.659402986566061,-0.4030556380748749,2.1772146224975586,-1.7966179847717285,0.032099876552820206,2.254686117172241,4.5558997827717285,0.20668531954288483,0.45709657669067383,-1.5967181364642542,0.0,-0.026378192007541656,0.851091206073761,0.0026142047718167305,0.11642908304929733,0.7623865008354187,0.032127831131219864,0.11963582038879395
970.0,848.0,4.593,-0.0891,8.6441,-0.0286,-0.2553,-0.086,-1.6618229351439417,-0.4022109806537628,2.1913299560546875,-1.7964708805084229,0.0332343727350235,2.231766700744629,4.557248755092285,0.23136292397975922,0.47688642144203186,-1.5966699759112757,0.0,-0.03562702611088753,0.8511831760406494,0.0028377133421599865,0.13064134120941162,0.7626306414604187,0.02973155677318573,0.14587552845478058
970.0,848.0,4.593,-0.0891,8.6441,-0.0286,-0.2553,-0.086,-1.6642605266966761,-0.398158997297287,2.2342405319213867,-1.796238899230957,0.03203973174095154,2.233665704727173,4.558790846461914,0.26727861166000366,0.5044469833374023,-1.596689526234762,0.0,-0.03734392672777176,0.8511505126953125,0.003259059274569154,0.12412917613983154,0.7627787590026855,0.02901839092373848,0.13076210021972656
970.0,848.0,4.593,-0.0891,8.6441,-0.0286,-0.2553,-0.086,-1.666605611840719,-0.4059773087501526,2.2001450061798096,-1.7960751056671143,0.027683867141604424,2.2348203659057617,4.560455484981201,0.27303561568260193,0.49067145586013794,-1.5967138449298304,0.0,-0.03413425385951996,0.8511905670166016,0.0037183761596679688,0.12458635866641998,0.7629224061965942,0.02988647297024727,0.13008615374565125
970.0,848.0,4.593,-0.0891,8.6441,-0.0286,-0.2553,-0.086,-1.6689473591246546,-0.4025198221206665,2.2164511680603027,-1.7959072589874268,0.024120138958096504,2.2395236492156982,4.5622240740009765,0.3059334456920624,0.5170525908470154,-1.5967138449298304,0.0,-0.025149883702397346,0.851210355758667,0.004812145140022039,0.1341654360294342,0.7631832957267761,0.031212182715535164,0.09615803509950638
970.0,848.0,4.593,-0.0891,8.6441,-0.0286,-0.2553,-0.086,-1.670497556725973,-0.39931827783584595,2.191162109375,-1.7958035469055176,0.02287488803267479,2.2124173641204834,4.563493414516113,0.3228071928024292,0.5273424983024597,-1.5967181364642542,0.0,-0.037725772708654404,0.8512542247772217,0.006086300127208233,0.11731758713722229,0.7632790803909302,0.031453341245651245,0.11807282269001007
970.0,848.0,4.593,-0.0891,8.6441,-0.0286,-0.2553,-0.086,-1.672847410241598,-0.38792914152145386,2.259899139404297,-1.7956604957580566,0.02327939309179783,2.2121057510375977,4.56559340536084,0.3703462481498718,0.5316183567047119,-1.5967257658587855,0.0,-0.024950042366981506,0.8513265252113342,0.008600159548223019,0.14201904833316803,0.7634430527687073,0.03229494020342827,0.11405143141746521
970.0,848.0,4.593,-0.0891,8.6441,-0.0286,-0.2553,-0.086,-1.6750208340086878,-0.3764290511608124,2.2390832901000977,-1.7955197095870972,0.02292095124721527,2.246453285217285,4.567988081569336,0.40366747975349426,0.5667014718055725,-1.596733872090475,0.0,-0.027739183977246284,0.8514022827148438,0.011114925146102905,0.13119035959243774,0.7636793255805969,0.03459010645747185,0.1591413915157318
970.0,848.0,4.593,-0.0891,8.6441,-0.0286,-0.2553,-0.086,-1.6772915325560511,-0.3651790916919708,2.3138463497161865,-1.7954325675964355,0.021893184632062912,2.2275962829589844,4.570577307338379,0.45144975185394287,0.5925334692001343,-1.596694294606344,0.0,-0.024813808500766754,0.8514618873596191,0.015229915268719196,0.15053090453147888,0.7639074921607971,0.037115778774023056,0.16218256950378418
970.0,848.0,4.593,-0.0891,8.6441,-0.0286,-0.2553,-0.086,-1.6794678173460902,-0.36220645904541016,2.277008056640625,-1.7953206300735474,0.019409900531172752,2.227968215942383,4.573437853450439,0.49925699830055237,0.6176283955574036,-1.5966818968402308,0.0,-0.041780736297369,0.8515542149543762,0.019845716655254364,0.153958261013031,0.7641878128051758,0.04237859696149826,0.14973603188991547
970.0,848.0,4.593,-0.0891,8.6441,-0.0286,-0.2553,-0.086,-1.6809021435179652,-0.36359703540802,2.303391456604004,-1.7952326536178589,0.01626664027571678,2.1991732120513916,4.575517340297363,0.5261300802230835,0.6221325397491455,-1.5967538992511194,0.0,-0.05184236913919449,0.8516577482223511,0.024166502058506012,0.15358737111091614,0.7642998695373535,0.04320082440972328,0.15368258953094482
970.0,848.0,4.593,-0.0891,8.6441,-0.0286,-0.2553,-0.086,-1.683091779748434,-0.3594732880592346,2.32678484916687,-1.7951050996780396,0.013390228152275085,2.2427096366882324,4.5789806085773925,0.5780895948410034,0.626476526260376,-1.5967257658587855,0.0,-0.04073749855160713,0.8518369793891907,0.03575534746050835,0.1531708836555481,0.7645961046218872,0.0444619283080101,0.18924760818481445
925.0,811.0,5.6542,-0.0167,8.4526,0.0122,0.2217,-0.0586,-1.685310503045553,-0.36197036504745483,2.3268961906433105,-1.795000672340393,0.012345151975750923,2.2279820442199707,4.582626982326172,0.6242321729660034,0.6292622685432434,-1.5967214743243616,0.0,-0.03294729068875313,0.8520835638046265,0.05581546202301979,0.17340055108070374,0.7648242115974426,0.0437919981777668,0.1724766194820404
925.0,811.0,5.6542,-0.0167,8.4526,0.0122,0.2217,-0.0586,-1.687512060204977,-0.35805845260620117,2.362832546234131,-1.7949373722076416,0.012274724431335926,2.2608585357666016,4.586588545436523,0.6752339005470276,0.633269190788269,-1.5967381636248987,0.0,-0.03298979997634888,0.8524905443191528,0.09181886911392212,0.16815172135829926,0.7650725245475769,0.043188609182834625,0.16724322736263275
925.0,811.0,5.6542,-0.0167,8.4526,0.0122,0.2217,-0.0586,-1.6889540157713832,-0.3469139337539673,2.3677823543548584,-1.7949661016464233,0.013312913477420807,2.1681039333343506,4.589441462154053,0.7030662894248962,0.6279565095901489,-1.5966818968402308,0.0,-0.0312145184725523,0.852953314781189,0.12095547467470169,0.1885756254196167,0.7652568817138672,0.04163116216659546,0.1511806845664978
925.0,811.0,5.6542,-0.0167,8.4526,0.0122,0.2217,-0.0586,-1.6910954914488734,-0.34488850831985474,2.321162462234497,-1.7948336601257324,0.015414356254041195,2.2238552570343018,4.593825026149414,0.7520073652267456,0.6428680419921875,-1.5966938177691858,0.0,-0.02298438549041748,0.8538467884063721,0.14544562995433807,0.2059481143951416,0.7654525637626648,0.04461004585027695,0.21041801571846008
925.0,811.0,5.6542,-0.0167,8.4526,0.0122,0.2217,-0.0586,-1.6931849918761195,-0.34313786029815674,2.4124112129211426,-1.7947291135787964,0.014942726120352745,2.2982985973358154,4.598405523891113,0.7949656248092651,0.620288610458374,-1.5967095533954065,0.0,-0.04128437489271164,0.8547192215919495,0.14165271818637848,0.20266787707805634,0.7657572031021118,0.045961473137140274,0.18473413586616516
925.0,811.0,5.6542,-0.0167,8.4526,0.0122,0.2217,-0.0586,-1.6952105961241664,-0.3384495973587036,2.412569761276245,-1.7947300672531128,0.012979160062968731,2.223452091217041,4.603235884303711,0.8317698240280151,0.6168728470802307,-1.5966938177691858,0.0,-0.019983883947134018,0.8555567860603333,0.14413654804229736,0.19791696965694427,0.7660816311836243,0.05066334456205368,0.1750999093055725
925.0,811.0,5.6542,-0.0167,8.4526,0.0122,0.2217,-0.0586,-1.6972485981383265,-0.34723639488220215,2.3813602924346924,-1.7946419715881348,0.009050149470567703,2.148465871810913,4.6082750993916015,0.8685576915740967,0.6156414151191711,-1.5967300573932093,0.0,-0.02157348394393921,0.8566129207611084,0.19068706035614014,0.21336233615875244,0.7663695812225342,0.05587935820221901,0.18331250548362732
925.0,811.0,5.6542,-0.0167,8.4526,0.0122,0.2217,-0.0586,-1.698606630364889,-0.34498652815818787,2.406822919845581,-1.7946254014968872,0.006566418334841728,2.194046974182129,4.611786528224609,0.8873802423477173,0.6049408912658691,-1.5967019240008753,0.0,-0.015665099024772644,0.8574833869934082,0.22816672921180725,0.24330389499664307,0.7666462063789368,0.05742843449115753,0.15843099355697632
925.0,811.0,5.6542,-0.0167,8.4526,0.0122,0.2217,-0.0586,-1.7006336651244105,-0.33675187826156616,2.3599629402160645,-1.7945144176483154,0.006389324087649584,2.173417568206787,4.617262049312256,0.9140368103981018,0.6100364923477173,-1.5967219511615198,0.0,-0.020681308582425117,0.8589729070663452,0.23829685151576996,0.22484183311462402,0.766946017742157,0.05687587708234787,0.1349986046552658
925.0,811.0,5.6542,-0.0167,8.4526,0.0122,0.2217,-0.0586,-1.7026072941222132,-0.3291723132133484,2.3416244983673096,-1.7944544553756714,0.00933099165558815,2.166801929473877,4.622981234187744,0.9427376389503479,0.600472092628479,-1.5967019240008753,0.0,-0.03279253840446472,0.8604015111923218,0.2671579420566559,0.24489331245422363,0.7672863006591797,0.053330857306718826,0.13359162211418152
925.0,811.0,5.6542,-0.0167,8.4526,0.0122,0.2217,-0.0586,-1.7044879398741664,-0.3167002201080322,2.381202220916748,-1.7943902015686035,0.011866680346429348,2.1580374240875244,4.628769083614014,0.9750794768333435,0.613920271396637,-1.5967019240008753,0.0,-0.0022596230264753103,0.8620351552963257,0.259960412979126,0.23616105318069458,0.7676308155059814,0.05003425478935242,0.07805439084768295
925.0,811.0,5.6542,-0.0167,8.4526,0.0122,0.2217,-0.0586,-1.7057348690428675,-0.31125983595848083,2.3752622604370117,-1.7944108247756958,0.014194766990840435,2.136381149291992,4.632687254542969,0.9934109449386597,0.5941779017448425,-1.5967019240008753,0.0,-0.015409313142299652,0.863057017326355,0.27135169506073,0.22907570004463196,0.7678148150444031,0.04940514639019966,0.14430329203605652
925.0,811.0,5.6542,-0.0167,8.4526,0.0122,0.2217,-0.0586,-1.7076169453062953,-0.3088870346546173,2.33003306388855,-1.7942461967468262,0.014689034782350063,2.178518295288086,4.6386939722248535,1.019559383392334,0.6144202947616577,-1.5966857115374964,0.0,-0.015282612293958664,0.8649020791053772,0.32232046127319336,0.2649608254432678,0.7680747509002686,0.04508253559470177,0.11382187902927399
925.0,811.0,5.6542,-0.0167,8.4526,0.0122,0.2217,-0.0586,-1.7094465694823207,-0.3071610927581787,2.4441022872924805,-1.7942067384719849,0.014253745786845684,2.177885055541992,4.644793673152588,1.036426067352295,0.5960370898246765,-1.5966857115374964,0.0,-0.006131241098046303,0.8668666481971741,0.34199100732803345,0.26655200123786926,0.7683711647987366,0.04318659380078316,0.08640041947364807
925.0,811.0,5.6542,-0.0167,8.4526,0.0122,0.2217,-0.0586,-1.7113009891905726,-0.3123798072338104,2.3294997215270996,-1.7941269874572754,0.013957989402115345,2.1154956817626953,4.65103451787915,1.0531493425369263,0.5999271273612976,-1.596694294606344,0.0,-0.010042371228337288,0.8689786195755005,0.3467835783958435,0.2465541660785675,0.7686029672622681,0.04017605260014534,0.08074654638767242
925.0,811.0,5.6542,-0.0167,8.4526,0.0122,0.2217,-0.0586,-1.7131501636900843,-0.31049302220344543,2.3548343181610107,-1.7939913272857666,0.016535067930817604,2.1166775226593018,4.657567186946533,1.0690025091171265,0.5810030698776245,-1.5967100302325647,0.0,-0.005603814031928778,0.8711382150650024,0.383630633354187,0.27913033962249756,0.7688353061676025,0.03580010309815407,0.08782096952199936
902.0,803.0,3.5569,0.7322,8.9498,0.0312,0.9235,0.2957,-1.7143589458861292,-0.3030209243297577,2.3503453731536865,-1.793878436088562,0.020504148676991463,2.1502363681793213,4.66180865346875,1.0843417644500732,0.6076290607452393,-1.59674579301943,0.0,-0.0011611729860305786,0.8727719187736511,0.39457347989082336,0.2751849591732025,0.7689513564109802,0.03314601257443428,0.13494694232940674
902.0,803.0,3.5569,0.7322,8.9498,0.0312,0.9235,0.2957,-1.716224809686178,-0.29908424615859985,2.328334331512451,-1.7937395572662354,0.02970214933156967,2.209968090057373,4.6683689790913085,1.0953210592269897,0.604510486125946,-1.5967095533954065,0.0,0.001100121415220201,0.8752270936965942,0.4184543192386627,0.26823538541793823,0.7691234946250916,0.02822122536599636,0.09135110676288605
902.0,803.0,3.5569,0.7322,8.9498,0.0312,0.9235,0.2957,-1.7180634937682093,-0.29836204648017883,2.433950424194336,-1.7935272455215454,0.037688709795475006,2.188720703125,4.674966021175049,1.1084802150726318,0.5985094308853149,-1.5966857115374964,0.0,-0.00045678496826440096,0.8777983784675598,0.4427627623081207,0.27926886081695557,0.7693400979042053,0.02384035848081112,0.029280245304107666
902.0,803.0,3.5569,0.7322,8.9498,0.0312,0.9235,0.2957,-1.7198487720885218,-0.29015663266181946,2.3973865509033203,-1.793259859085083,0.0442083515226841,2.2068300247192383,4.681634111995361,1.1151269674301147,0.5858083367347717,-1.5966857115374964,0.0,-0.00045806681737303734,0.8805403709411621,0.46804946660995483,0.2988516092300415,0.7694113850593567,0.019008757546544075,-0.02024584263563156
902.0,803.0,3.5569,0.7322,8.9498,0.0312,0.9235,0.2957,-1.7217284641661585,-0.2983991503715515,2.385660409927368,-1.7930121421813965,0.05036585405468941,2.230722665786743,4.688441439265869,1.1116498708724976,0.5759611129760742,-1.5967062155352991,0.0,0.005734120961278677,0.883438766002655,0.4754268229007721,0.2753380239009857,0.7695359587669373,0.01478469930589199,-0.015348323620855808
902.0,803.0,3.5569,0.7322,8.9498,0.0312,0.9235,0.2957,-1.722929140130514,-0.30640989542007446,2.386857509613037,-1.7927727699279785,0.05397248640656471,2.2153818607330322,4.692853136653564,1.1104880571365356,0.5912541151046753,-1.5966375509845179,0.0,0.012409143149852753,0.8855599164962769,0.510637104511261,0.30622854828834534,0.7695918679237366,0.012589839287102222,0.02377965673804283
902.0,803.0,3.5569,0.7322,8.9498,0.0312,0.9235,0.2957,-1.7247754536070765,-0.3064521253108978,2.358755111694336,-1.792412281036377,0.0592411532998085,2.194193124771118,4.699546499843262,1.100833773612976,0.5812430381774902,-1.5966900030719202,0.0,0.011646604165434837,0.8886696100234985,0.5324788689613342,0.3016664683818817,0.7696317434310913,0.0073301587253808975,0.03554120659828186
902.0,803.0,3.5569,0.7322,8.9498,0.0312,0.9235,0.2957,-1.7265974483885707,-0.3035578727722168,2.3473260402679443,-1.7920693159103394,0.06501966714859009,2.211916923522949,4.70603005468335,1.09539794921875,0.5591627359390259,-1.5966981093036097,-1.0645293286870583e-06,0.012535134330391884,0.891730785369873,0.5439610481262207,0.29618221521377563,0.7695714831352234,0.002520758891478181,0.022228289395570755
902.0,803.0,3.5569,0.7322,8.9498,0.0312,0.9235,0.2957,-1.7283641300597132,-0.307986319065094,2.31868577003479,-1.7916465997695923,0.069270059466362,2.1549923419952393,4.712533461838522,1.0868903398513794,0.559366762638092,-1.5966780821429651,-2.9631566644816587e-10,0.02185908704996109,0.8950932621955872,0.5658127665519714,0.27863097190856934,0.7696197032928467,5.712481652153656e-07,-0.005196673329919577
902.0,803.0,3.5569,0.7322,8.9498,0.0312,0.9235,0.2957,-1.7295695743956507,-0.3047321140766144,2.3497586250305176,-1.791411280632019,0.07346319407224655,2.193305253982544,4.716953339498051,1.0721193552017212,0.5808793306350708,-1.5966976324664515,-1.2632401635154222e-12,0.021929170936346054,0.8972450494766235,0.5588464140892029,0.27082359790802,0.7696077823638916,1.0282266010852581e-10,-0.012207345105707645
902.0,803.0,3.5569,0.7322,8.9498,0.0312,0.9235,0.2957,-1.7313281498351039,-0.29380255937576294,2.3318614959716797,-1.7908880710601807,0.07652710378170013,2.1799445152282715,4.723389799683847,1.0619617700576782,0.5631192326545715,-1.5967062155352991,-3.516275962535956e-16,0.01154041476547718,0.9008511304855347,0.5809280872344971,0.2678069472312927,0.7695716619491577,-0.0018829978071153164,-0.08686654269695282
902.0,803.0,3.5569,0.7322,8.9498,0.0312,0.9235,0.2957,-1.733060976068014,-0.29258525371551514,2.2955033779144287,-1.7904282808303833,0.07785915583372116,2.226539134979248,4.729612105503239,1.046091914176941,0.5377169847488403,-1.5966900030719202,-9.787683098928177e-20,0.028553400188684464,0.9042519927024841,0.5767692923545837,0.25501251220703125,0.7695877552032471,-0.0012159735197201371,-0.06674957275390625
902.0,803.0,3.5569,0.7322,8.9498,0.0312,0.9235,0.2957,-1.7348033390440882,-0.2896358072757721,2.329404354095459,-1.7900217771530151,0.0770106315612793,2.238860845565796,4.735671502515235,1.0338020324707031,0.5489974021911621,-1.5966780821429651,-2.724437159086426e-23,0.032113999128341675,0.9077692627906799,0.5954892635345459,0.24578173458576202,0.7695796489715576,-0.0005373338353820145,0.0040377965196967125
902.0,803.0,3.5569,0.7322,8.9498,0.0312,0.9235,0.2957,-1.7365461788573207,-0.28715258836746216,2.3032240867614746,-1.7894976139068604,0.07528563588857651,2.1416547298431396,4.741755497619071,1.0077718496322632,0.5381757020950317,-1.596694294606344,-7.583571023154335e-27,0.034712329506874084,0.9113945960998535,0.5916256904602051,0.23908451199531555,0.7695755362510681,0.00023125034931581467,-0.08239889144897461
902.0,803.0,3.5569,0.7322,8.9498,0.0312,0.9235,0.2957,-1.7377034626402796,-0.2882947027683258,2.3521664142608643,-1.7892107963562012,0.07676992565393448,2.197540044784546,4.745730589121141,0.9961263537406921,0.5614783763885498,-1.5966900030719202,-3.2329954030665526e-29,0.03638846054673195,0.9138370752334595,0.6078683137893677,0.2491988092660904,0.7696279287338257,0.00019839337619487196,-0.10261742025613785
902.0,803.0,3.5569,0.7322,8.9498,0.0312,0.9235,0.2957,-1.739345212975973,-0.28757715225219727,2.3492634296417236,-1.788796067237854,0.07799654453992844,2.185298442840576,4.751759002893724,0.9646803140640259,0.5436955690383911,-1.5966337362872522,-8.999160837245168e-33,0.027726173400878906,0.9175423979759216,0.6028589010238647,0.22564277052879333,0.7695914506912231,0.00014907974400557578,-0.11784973740577698
894.0,857.0,0.9852,-0.1603,8.9384,0.0388,0.7943,0.4907,-1.7410465679564417,-0.28739282488822937,2.3089160919189453,-1.788308024406433,0.08200313150882721,2.1624624729156494,4.757378841727533,0.9413000345230103,0.5240486264228821,-1.5967062155352991,-2.5049494760238198e-36,0.03238467127084732,0.9212023019790649,0.6140663027763367,0.23844832181930542,0.7695755362510681,0.00011940387048525736,-0.12237250804901123
894.0,857.0,0.9852,-0.1603,8.9384,0.0388,0.7943,0.4907,-1.7427975140013636,-0.2898504436016083,2.3237431049346924,-1.787745475769043,0.08768928050994873,2.202950954437256,4.7629359168703935,0.9215763211250305,0.5371322631835938,-1.5967181364642542,-6.9726229377413545e-40,0.038840584456920624,0.9247767329216003,0.6014198660850525,0.23589858412742615,0.7696077823638916,0.00014937357627786696,-0.10859858989715576
894.0,857.0,0.9852,-0.1603,8.9384,0.0388,0.7943,0.4907,-1.744551797906393,-0.2857716381549835,2.3100829124450684,-1.787230372428894,0.09923501312732697,2.2010498046875,4.768442179053583,0.8927772641181946,0.518547773361206,-1.5966780821429651,-1.9478048654114957e-43,0.049867961555719376,0.9284551739692688,0.6111780405044556,0.23672160506248474,0.7696319818496704,0.00012810991029255092,-0.08851081877946854
894.0,857.0,0.9852,-0.1603,8.9384,0.0388,0.7943,0.4907,-1.7456804714598597,-0.2842783033847809,2.332162380218506,-1.7867707014083862,0.10530020296573639,2.1371829509735107,4.771925928979673,0.8760285377502441,0.5268566608428955,-1.5966780821429651,-1.401298464324817e-45,0.03615429624915123,0.9309464693069458,0.6072918176651001,0.22091937065124512,0.7696641087532043,0.00011700556933647022,-0.13399410247802734
894.0,857.0,0.9852,-0.1603,8.9384,0.0388,0.7943,0.4907,-1.7474671802916468,-0.29129788279533386,2.3231313228607178,-1.7861601114273071,0.11213263124227524,2.22113037109375,4.777112687915125,0.8522879481315613,0.5307316184043884,-1.596661392842428,-0.0,0.05388195812702179,0.9346355199813843,0.6123820543289185,0.23768296837806702,0.7696036696434021,0.00010354358528275043,-0.15149419009685516
894.0,857.0,0.9852,-0.1603,8.9384,0.0388,0.7943,0.4907,-1.74932922939443,-0.30040374398231506,2.2733864784240723,-1.7854855060577393,0.1154274195432663,2.2286877632141113,4.782123903721132,0.8193743228912354,0.527283251285553,-1.5966981093036097,-0.0,0.04644962027668953,0.9382377862930298,0.602448046207428,0.21255403757095337,0.7695833444595337,0.00015111789980437607,-0.13652253150939941
894.0,857.0,0.9852,-0.1603,8.9384,0.0388,0.7943,0.4907,-1.7511517010130824,-0.2963714301586151,2.310169219970703,-1.784754991531372,0.11331365257501602,2.2001190185546875,4.786848607450285,0.8006393909454346,0.5259842872619629,-1.596694294606344,-0.0,0.04679016023874283,0.9418917894363403,0.6106253266334534,0.23002368211746216,0.7695874571800232,0.00017270231910515577,-0.11983895301818848
894.0,857.0,0.9852,-0.1603,8.9384,0.0388,0.7943,0.4907,-1.7523852787413539,-0.3004656434059143,2.2998507022857666,-1.7843000888824463,0.11513233184814453,2.1536152362823486,4.789908657758989,0.7833893895149231,0.5146484375,-1.596682373677389,-0.0,0.055020980536937714,0.9444019198417664,0.6088548302650452,0.21798193454742432,0.7696276903152466,0.00016158269136212766,-0.15957996249198914
894.0,857.0,0.9852,-0.1603,8.9384,0.0388,0.7943,0.4907,-1.7542511425414027,-0.30865439772605896,2.3282041549682617,-1.7835490703582764,0.12264221161603928,2.2027180194854736,4.794502059906282,0.7592235803604126,0.5049041509628296,-1.5966575781451624,-0.0,0.05224223807454109,0.9480918645858765,0.6151620149612427,0.2365366816520691,0.7696115970611572,0.0001458691112929955,-0.11029200255870819
894.0,857.0,0.9852,-0.1603,8.9384,0.0388,0.7943,0.4907,-1.7561222515501917,-0.30129748582839966,2.3398752212524414,-1.782863974571228,0.12583769857883453,2.2619049549102783,4.7989322049315355,0.7275499105453491,0.5108457803726196,-1.5966699759112757,-0.0,0.06255334615707397,0.9517222046852112,0.6081128716468811,0.21401530504226685,0.7696036696434021,0.000132940782350488,-0.16864275932312012
894.0,857.0,0.9852,-0.1603,8.9384,0.0388,0.7943,0.4907,-1.7578956089415492,-0.3008716106414795,2.2979860305786133,-1.7820454835891724,0.12960149347782135,2.232465982437134,4.803158107190885,0.6933777928352356,0.5045222043991089,-1.5966418425189417,-0.0,0.05695104971528053,0.9552837014198303,0.6113489866256714,0.22540858387947083,0.7695996165275574,0.00012211753346491605,-0.12413493543863297
894.0,857.0,0.9852,-0.1603,8.9384,0.0388,0.7943,0.4907,-1.759777685204977,-0.31123268604278564,2.363175868988037,-1.7812228202819824,0.13667543232440948,2.231872081756592,4.807227115124025,0.6611751317977905,0.504919707775116,-1.5966861883746546,-0.0,0.05797070637345314,0.9588460922241211,0.5998941659927368,0.1934446096420288,0.7696395516395569,0.0001129243173636496,-0.10983727872371674
894.0,857.0,0.9852,-0.1603,8.9384,0.0388,0.7943,0.4907,-1.7610279522337855,-0.31216681003570557,2.281250238418579,-1.7807210683822632,0.14067722856998444,2.2546777725219727,4.809854458063402,0.6269205808639526,0.5058642625808716,-1.5966699759112757,-0.0,0.056052520871162415,0.9612399339675903,0.606671154499054,0.2327837347984314,0.7696354389190674,0.00012873734522145241,-0.1765594184398651
894.0,857.0,0.9852,-0.1603,8.9384,0.0388,0.7943,0.4907,-1.7628699741759242,-0.31413325667381287,2.264378547668457,-1.7797783613204956,0.14390414953231812,2.2027692794799805,4.813481735974111,0.5867406129837036,0.49699562788009644,-1.5966580549823206,-0.0,0.05885021388530731,0.9648341536521912,0.5993502140045166,0.2175525724887848,0.7696317434310913,0.00012040210276609287,-0.1951790302991867
894.0,857.0,0.9852,-0.1603,8.9384,0.0388,0.7943,0.4907,-1.7646638355650843,-0.31604233384132385,2.2890796661376953,-1.7788447141647339,0.14506720006465912,2.213937759399414,4.8168504414852045,0.5531123876571655,0.4834478497505188,-1.5966580549823206,-0.0,0.06391850113868713,0.9683768153190613,0.5979308485984802,0.22173351049423218,0.7696155905723572,0.00011285335494903848,-0.19302383065223694
894.0,857.0,0.9852,-0.1603,8.9384,0.0388,0.7943,0.4907,-1.7664772472777308,-0.31238770484924316,2.2497966289520264,-1.777947187423706,0.15468835830688477,2.174100160598755,4.819991434901514,0.5266311764717102,0.4989930987358093,-1.5966294447528284,-0.0,0.07932932674884796,0.9719402194023132,0.5900612473487854,0.20935681462287903,0.7696317434310913,0.00010619530075928196,-0.18114490807056427
894.0,857.0,0.9852,-0.1603,8.9384,0.0388,0.7943,0.4907,-1.767679353753561,-0.30813756585121155,2.3134491443634033,-1.7773493528366089,0.1608080416917801,2.256511688232422,4.8219895390565775,0.5081855058670044,0.49965354800224304,-1.5966537634478968,-0.0,0.06181701645255089,0.9741792678833008,0.5772880911827087,0.22549650073051453,0.7696515917778015,0.00011920283577637747,-0.17465725541114807
890.0,853.0,0.8094,0.2578,9.603,0.0295,0.3752,0.4531,-1.7695700130858363,-0.3052886128425598,2.2974133491516113,-1.7763749361038208,0.1678745597600937,2.2570974826812744,4.824912103801527,0.47897520661354065,0.4804890751838684,-1.5966618696795862,-0.0,0.06844405829906464,0.9778254628181458,0.5828337073326111,0.21416959166526794,0.7695992588996887,0.00012890891230199486,-0.15923310816287994
890.0,853.0,0.8094,0.2578,9.603,0.0295,0.3752,0.4531,-1.7713800869383753,-0.30509498715400696,2.4005537033081055,-1.7753151655197144,0.17527657747268677,2.3017349243164062,4.827624293952741,0.4479404091835022,0.47101449966430664,-1.5966418425189417,-0.0,0.06777492165565491,0.9810835719108582,0.5690414309501648,0.217042475938797,0.769635796546936,0.00013315519026946276,-0.15165312588214874
890.0,853.0,0.8094,0.2578,9.603,0.0295,0.3752,0.4531,-1.7732182941832484,-0.31488320231437683,2.313535690307617,-1.7742334604263306,0.17942377924919128,2.3009274005889893,4.830155308335581,0.3995220959186554,0.443642795085907,-1.5966537634478968,-0.0,0.08288508653640747,0.9845651388168335,0.5696359276771545,0.20441192388534546,0.7696760892868042,0.00016834726557135582,-0.1631852388381958
890.0,853.0,0.8094,0.2578,9.603,0.0295,0.3752,0.4531,-1.775076528588766,-0.3184080123901367,2.3152668476104736,-1.773015022277832,0.19054068624973297,2.27590012550354,4.8324928907449625,0.3631044924259186,0.4226396977901459,-1.5966337362872522,-0.0,0.07191771268844604,0.9879127144813538,0.5483598113059998,0.20077399909496307,0.7696354389190674,0.00018092794925905764,-0.19447720050811768
890.0,853.0,0.8094,0.2578,9.603,0.0295,0.3752,0.4531,-1.7763306103148402,-0.3158020079135895,2.254551887512207,-1.7723215818405151,0.1992645263671875,2.310229539871216,4.833868439286508,0.34289610385894775,0.42819303274154663,-1.5966418425189417,-0.0,0.07554574310779572,0.9901385307312012,0.5537344813346863,0.20554932951927185,0.7696477174758911,0.00017227140779141337,-0.21883505582809448
890.0,853.0,0.8094,0.2578,9.603,0.0295,0.3752,0.4531,-1.7782331905760707,-0.31620195508003235,2.3177008628845215,-1.771024227142334,0.21075236797332764,2.318265438079834,4.835813614517011,0.3082592785358429,0.3933276832103729,-1.5966656843768519,-0.0,0.07790254801511765,0.9934149384498596,0.5356682538986206,0.1785474419593811,0.7696276307106018,0.00013858004240319133,-0.15454576909542084
890.0,853.0,0.8094,0.2578,9.603,0.0295,0.3752,0.4531,-1.7801357708373011,-0.31876346468925476,2.3192696571350098,-1.7697519063949585,0.22298869490623474,2.3326117992401123,4.837455379753866,0.26706281304359436,0.3706470727920532,-1.5966294447528284,-0.0,0.06797976791858673,0.9966058135032654,0.5358479022979736,0.2044104039669037,0.7696598172187805,5.632558531942777e-05,-0.22370216250419617
