ramyac6/ROB537/final_project/csv/all/bad_67.csv
tof_0,tof_1,accelx,accely,accelz,gyrox,gyroy,gyroz,shoulder_lift_joint_position,shoulder_lift_joint_velocity,shoulder_lift_joint_effort,elbow_joint_position,elbow_joint_velocity,elbow_joint_effort,wrist_1_joint_position,wrist_1_joint_velocity,wrist_1_joint_effort,wrist_2_joint_position,wrist_2_joint_velocity,wrist_2_joint_effort,wrist_3_joint_position,wrist_3_joint_velocity,wrist_3_joint_effort,shoulder_pan_joint_position,shoulder_pan_joint_velocity,shoulder_pan_joint_effort
230.0,304.0,-4.1115,-1.3244,8.7966,-0.0347,0.0214,-0.1124,-2.2942573032774867,0.0,4.756649971008301,-1.3406586647033691,-0.0,1.9188296794891357,5.544277298241415,-0.0,0.20922201871871948,-1.7077730337726038,0.0,0.00347320968285203,-0.06875020662416631,-0.0,-0.004694410599768162,1.221165657043457,0.0,-0.03406210616230965
230.0,304.0,-4.1115,-1.3244,8.7966,-0.0347,0.0214,-0.1124,-2.294201513329977,0.0,4.722848892211914,-1.340634822845459,-0.0,1.877281665802002,5.544269072800436,-0.0,0.20207558572292328,-1.7077439467059534,0.0,0.007445803843438625,-0.06870967546571904,-0.0,-0.00253130029886961,1.221205711364746,0.0,0.008118689060211182
230.0,304.0,-4.1115,-1.3244,8.7966,-0.0347,0.0214,-0.1124,-2.2942735157408656,0.0,4.8038716316223145,-1.3406544923782349,-0.0,1.8961679935455322,5.54427324512557,-0.0,0.20888471603393555,-1.7077325026141565,0.0,0.007294102571904659,-0.06874162355531865,-0.0,0.0007924595847725868,1.2211976051330566,0.0,-0.0062267109751701355
230.0,304.0,-4.1115,-1.3244,8.7966,-0.0347,0.0214,-0.1124,-2.294241567651266,0.0,4.768385887145996,-1.340695858001709,-0.0,1.8898571729660034,5.544265019684591,-0.0,0.21239754557609558,-1.7077925840960901,0.0,0.006621547043323517,-0.06871396700014287,-0.0,0.020064707845449448,1.2211496829986572,0.0,0.009522996842861176
230.0,304.0,-4.1115,-1.3244,8.7966,-0.0347,0.0214,-0.1124,-2.2942210636534632,0.0,4.720518112182617,-1.3406586647033691,-0.0,1.9550690650939941,5.544236826687612,-0.0,0.20229049026966095,-1.7078049818622034,0.0,0.004488895181566477,-0.06875020662416631,-0.0,0.0029301359318196774,1.2211856842041016,0.0,-0.022885436192154884
230.0,304.0,-4.1115,-1.3244,8.7966,-0.0347,0.0214,-0.1124,-2.2941891155638636,0.0,4.736764907836914,-1.340679407119751,-0.0,1.9065868854522705,5.544289159565725,-0.0,0.20841702818870544,-1.7077563444720667,0.0,0.00925547443330288,-0.06870156923402959,-0.0,0.002122320467606187,1.2211655378341675,0.0,-0.006919882260262966
230.0,304.0,-4.1115,-1.3244,8.7966,-0.0347,0.0214,-0.1124,-2.294229646722311,0.0,4.758752822875977,-1.3407073020935059,-0.0,1.9255999326705933,5.544232713967123,-0.0,0.22186315059661865,-1.7077201048480433,0.0,0.004121418576687574,-0.06869775453676397,-0.0,-0.00122064258903265,1.221165657043457,0.0,0.03414781391620636
230.0,304.0,-4.1115,-1.3244,8.7966,-0.0347,0.0214,-0.1124,-2.294237276116842,0.0,4.77280330657959,-1.3406709432601929,-0.0,1.890920639038086,5.5442367670829675,-0.0,0.21937119960784912,-1.7077482382403772,0.0,0.009119220077991486,-0.06875402132143194,-0.0,0.004074006341397762,1.221193552017212,0.0,0.024340862408280373
230.0,304.0,-4.1115,-1.3244,8.7966,-0.0347,0.0214,-0.1124,-2.2941934070982875,0.0,4.7575249671936035,-1.3406389951705933,-0.0,1.8974823951721191,5.5442449925239465,-0.0,0.20808543264865875,-1.7077606360064905,0.0,0.012244977988302708,-0.06875020662416631,-0.0,0.011371052823960781,1.221213936805725,0.0,0.028908545151352882
230.0,304.0,-4.1115,-1.3244,8.7966,-0.0347,0.0214,-0.1124,-2.2942172489561976,0.0,4.75095796585083,-1.3406834602355957,-0.0,1.924756407737732,5.544277298241415,-0.0,0.21036651730537415,-1.7077606360064905,0.0,0.006725768558681011,-0.06872970262636358,-0.0,-0.008777948096394539,1.2211976051330566,0.0,0.05563199520111084
221.0,314.0,-4.1091,-1.3214,8.735,-0.0409,0.0247,-0.113,-2.2942453823485316,0.0,4.720966339111328,-1.3406389951705933,-0.0,1.8912296295166016,5.5442449925239465,-0.0,0.21238121390342712,-1.7077482382403772,0.0,0.017120713368058205,-0.06875020662416631,-0.0,0.006706519052386284,1.221165657043457,0.0,0.03897392749786377
221.0,314.0,-4.1091,-1.3214,8.735,-0.0409,0.0247,-0.113,-2.294213434258932,0.0,4.755543231964111,-1.3406752347946167,-0.0,1.908132553100586,5.544265019684591,-0.0,0.20006698369979858,-1.7078207174884241,0.0,0.018002357333898544,-0.06878692308534795,-0.0,0.011794761754572392,1.221177577972412,0.0,-0.0002357647754251957
221.0,314.0,-4.1091,-1.3214,8.735,-0.0409,0.0247,-0.113,-2.294229646722311,0.0,4.7487945556640625,-1.340695858001709,-0.0,1.8977839946746826,5.544260966568746,-0.0,0.2155517041683197,-1.7077882925616663,0.0,0.0051677897572517395,-0.06868964830507451,-0.0,0.005548060405999422,1.2211816310882568,0.0,-0.00323445163667202
221.0,314.0,-4.1091,-1.3214,8.735,-0.0409,0.0247,-0.113,-2.2942573032774867,0.0,4.7283172607421875,-1.3406503200531006,-0.0,1.8930020332336426,5.544293272286215,-0.0,0.20625454187393188,-1.707796875630514,0.0,0.012374050915241241,-0.0687173048602503,-0.0,0.011325567960739136,1.221193552017212,0.0,0.00875670462846756
221.0,314.0,-4.1091,-1.3214,8.735,-0.0409,0.0247,-0.113,-2.2942010364928187,0.0,4.76979923248291,-1.3406710624694824,-0.0,1.9054715633392334,5.544273185520925,-0.0,0.20800544321537018,-1.7077882925616663,0.0,0.010464794933795929,-0.06873780885805303,-0.0,0.008020563051104546,1.221229910850525,0.0,0.025370236486196518
221.0,314.0,-4.1091,-1.3214,8.735,-0.0409,0.0247,-0.113,-2.294185300866598,0.0,4.731404781341553,-1.3406752347946167,-0.0,1.932926058769226,5.54430519321517,-0.0,0.21506913006305695,-1.7077439467059534,0.0,-0.008254170417785645,-0.06870967546571904,-0.0,0.005973089952021837,1.2212300300598145,0.0,-0.03739827498793602
221.0,314.0,-4.1091,-1.3214,8.735,-0.0409,0.0247,-0.113,-2.294229646722311,0.0,4.731708526611328,-1.3406710624694824,-0.0,1.8969216346740723,5.5442449925239465,-0.0,0.20043033361434937,-1.7077882925616663,0.0,0.0010727671906352043,-0.06876260439027959,-0.0,0.005800142884254456,1.2212258577346802,0.0,-0.006647094618529081
221.0,314.0,-4.1091,-1.3214,8.735,-0.0409,0.0247,-0.113,-2.2942334614195765,0.0,4.736367225646973,-1.3406628370285034,-0.0,1.9197616577148438,5.544260966568746,-0.0,0.2091210037469864,-1.7077925840960901,0.0,0.013516071252524853,-0.06872207323183233,-0.0,0.00678427005186677,1.2211893796920776,0.0,0.021602816879749298
221.0,314.0,-4.1091,-1.3214,8.735,-0.0409,0.0247,-0.113,-2.294237276116842,0.0,4.726990222930908,-1.3406267166137695,-0.0,1.8653022050857544,5.544301378517904,-0.0,0.21081367135047913,-1.7078006903277796,0.0,0.003682417329400778,-0.06872970262636358,-0.0,0.001136648003011942,1.221201777458191,0.0,0.0316607765853405
221.0,314.0,-4.1091,-1.3214,8.735,-0.0409,0.0247,-0.113,-2.2942010364928187,0.0,4.743220329284668,-1.3407042026519775,-0.0,1.9405021667480469,5.54427324512557,-0.0,0.20452088117599487,-1.707740608845846,0.0,0.012076008133590221,-0.0687177816974085,-0.0,0.0038900510407984257,1.221201777458191,0.0,-0.012569491751492023
221.0,314.0,-4.1091,-1.3214,8.735,-0.0409,0.0247,-0.113,-2.294156690637106,0.0,4.75206995010376,-1.3406752347946167,-0.0,1.9265072345733643,5.544216680317678,-0.0,0.20312052965164185,-1.7077768484698694,0.0,0.0002605919726192951,-0.06878310838808233,-0.0,0.00417157681658864,1.2211856842041016,0.0,-0.024512087926268578
221.0,314.0,-4.1091,-1.3214,8.735,-0.0409,0.0247,-0.113,-2.294217725793356,0.0,4.765161037445068,-1.3406472206115723,-0.0,1.892899990081787,5.544240939408102,-0.0,0.2082020789384842,-1.7077606360064905,0.0,-0.00042203650809824467,-0.06871396700014287,-0.0,0.007424043025821447,1.2212016582489014,0.0,0.008214437402784824
221.0,314.0,-4.1091,-1.3214,8.735,-0.0409,0.0247,-0.113,-2.294209142724508,0.0,4.7656569480896,-1.3406627178192139,-0.0,1.8769844770431519,5.544240939408102,-0.0,0.20659126341342926,-1.70776874223818,0.0,0.000191307975910604,-0.06876975694765264,-0.0,0.004992459900677204,1.2212258577346802,0.0,-0.0219032671302557
221.0,314.0,-4.1091,-1.3214,8.735,-0.0409,0.0247,-0.113,-2.294225355187887,0.0,4.782142162322998,-1.3406503200531006,-0.0,1.8678313493728638,5.544269072800436,-0.0,0.2068696767091751,-1.7077844778644007,0.0,0.005121428519487381,-0.06876260439027959,-0.0,0.003704979084432125,1.221193552017212,0.0,-0.02143157459795475
221.0,314.0,-4.1091,-1.3214,8.735,-0.0409,0.0247,-0.113,-2.294197221795553,0.0,4.757168769836426,-1.34068763256073,-0.0,1.9385895729064941,5.544204818993368,-0.0,0.20816998183727264,-1.7077606360064905,0.0,0.007636718451976776,-0.06881457964052373,-0.0,0.0037610323633998632,1.2212016582489014,0.0,0.024102889001369476
221.0,314.0,-4.1091,-1.3214,8.735,-0.0409,0.0247,-0.113,-2.294213434258932,0.0,4.801089286804199,-1.3406389951705933,-0.0,1.9391497373580933,5.544253098755636,-0.0,0.20608758926391602,-1.7077606360064905,0.0,0.006833312101662159,-0.06871396700014287,-0.0,0.0050482298247516155,1.221193552017212,0.0,0.011263958178460598
221.0,314.0,-4.1091,-1.3214,8.735,-0.0409,0.0247,-0.113,-2.294201513329977,0.0,4.752328395843506,-1.3406225442886353,-0.0,1.910109519958496,5.544213044434347,-0.0,0.21050027012825012,-1.7077563444720667,0.0,0.006928666960448027,-0.0687177816974085,-0.0,0.00022788404021412134,1.2211614847183228,0.0,-0.0356120765209198
221.0,314.0,-4.1091,-1.3214,8.735,-0.0409,0.0247,-0.113,-2.294224878350729,0.0,4.722674369812012,-1.3406833410263062,-0.0,1.8606560230255127,5.544297325402059,-0.0,0.21819327771663666,-1.70776874223818,0.0,-0.002523804549127817,-0.06872588792909795,-0.0,0.005143011920154095,1.2211737632751465,0.0,-0.004189555998891592
223.0,299.0,-4.0869,-1.3274,8.7236,-0.0347,0.0275,-0.1112,-2.294197221795553,0.0,4.760557651519775,-1.3406668901443481,-0.0,1.9272327423095703,5.544260966568746,-0.0,0.2100408673286438,-1.7077840010272425,0.0,0.004016802180558443,-0.06878596941103154,-0.0,0.0036384756676852703,1.2212098836898804,0.0,0.0020231865346431732
223.0,299.0,-4.0869,-1.3274,8.7236,-0.0347,0.0275,-0.1112,-2.2941934070982875,0.0,4.775620937347412,-1.3406587839126587,-0.0,1.8679776191711426,5.544297385006704,-0.0,0.20890134572982788,-1.7078045050250452,0.0,-0.008906370028853416,-0.06871015230287725,-0.0,0.008447125554084778,1.221165657043457,0.0,0.018286969512701035
223.0,299.0,-4.0869,-1.3274,8.7236,-0.0347,0.0275,-0.1112,-2.2941647968687953,0.0,4.768164157867432,-1.340695858001709,-0.0,1.881441354751587,5.544256913452902,-0.0,0.2073904275894165,-1.7077119986163538,0.0,0.005819401703774929,-0.06872970262636358,-0.0,-0.00043172226287424564,1.2211734056472778,0.0,-0.009407991543412209
223.0,299.0,-4.0869,-1.3274,8.7236,-0.0347,0.0275,-0.1112,-2.294265409509176,0.0,4.780280590057373,-1.34068763256073,-0.0,1.870117425918579,5.544277298241415,-0.0,0.21214228868484497,-1.7077325026141565,0.0,0.004161551594734192,-0.06875020662416631,-0.0,0.007394966669380665,1.2211897373199463,0.0,0.01321658119559288
223.0,299.0,-4.0869,-1.3274,8.7236,-0.0347,0.0275,-0.1112,-2.2942058048644007,0.0,4.801896095275879,-1.3406752347946167,-0.0,1.9037367105484009,5.544296967774191,-0.0,0.19938738644123077,-1.7077649275409144,0.0,0.008649643510580063,-0.06871396700014287,-0.0,0.005410080775618553,1.2212098836898804,0.0,0.003308673854917288
223.0,299.0,-4.0869,-1.3274,8.7236,-0.0347,0.0275,-0.1112,-2.2941891155638636,0.0,4.71463680267334,-1.3406267166137695,-0.0,1.8302819728851318,5.5442449925239465,-0.0,0.2078387290239334,-1.70776874223818,0.0,0.011762706562876701,-0.06877071062196904,-0.0,0.0051003992557525635,1.221201777458191,0.0,0.034245070070028305
223.0,299.0,-4.0869,-1.3274,8.7236,-0.0347,0.0275,-0.1112,-2.2941767177977503,0.0,4.741212844848633,-1.3406627178192139,-0.0,1.9004788398742676,5.544309305935659,-0.0,0.2211974561214447,-1.70776874223818,0.0,-0.0007328256033360958,-0.06871396700014287,-0.0,0.010433036834001541,1.2212340831756592,0.0,0.0030838046222925186
223.0,299.0,-4.0869,-1.3274,8.7236,-0.0347,0.0275,-0.1112,-2.294225355187887,0.0,4.7167158126831055,-1.3406918048858643,-0.0,1.899783968925476,5.54428921917037,-0.0,0.20023967325687408,-1.7077325026141565,0.0,0.0035492277238518,-0.06871015230287725,-0.0,0.0052084834314882755,1.2211734056472778,0.0,-0.023151420056819916
223.0,299.0,-4.0869,-1.3274,8.7236,-0.0347,0.0275,-0.1112,-2.294213434258932,0.0,4.772176742553711,-1.3407113552093506,-0.0,1.9041097164154053,5.544248688011923,-0.0,0.1999516785144806,-1.7077563444720667,0.0,0.005535872653126717,-0.0687339941607874,-0.0,-0.0067276619374752045,1.221177577972412,0.0,0.06088590249419212
223.0,299.0,-4.0869,-1.3274,8.7236,-0.0347,0.0275,-0.1112,-2.2942329845824183,0.0,4.780938148498535,-1.3406431674957275,-0.0,1.8898284435272217,5.544256913452902,-0.0,0.2172519862651825,-1.7077730337726038,0.0,0.0007312102243304253,-0.06870586076845342,-0.0,-0.005386365577578545,1.2211697101593018,0.0,0.022626910358667374
223.0,299.0,-4.0869,-1.3274,8.7236,-0.0347,0.0275,-0.1112,-2.2942329845824183,0.0,4.736252784729004,-1.3406307697296143,-0.0,1.9196816682815552,5.544256913452902,-0.0,0.20974260568618774,-1.7077730337726038,0.0,0.009559801779687405,-0.0687020460711878,-0.0,0.012521613389253616,1.2211812734603882,0.0,-0.007115684449672699
223.0,299.0,-4.0869,-1.3274,8.7236,-0.0347,0.0275,-0.1112,-2.2941767177977503,0.0,4.716780662536621,-1.3406668901443481,-0.0,1.9042928218841553,5.544248628407278,-0.0,0.21839432418346405,-1.707808796559469,0.0,0.002739718882367015,-0.06873828569521123,-0.0,-0.0006046335911378264,1.221165657043457,0.0,0.014887167140841484
223.0,299.0,-4.0869,-1.3274,8.7236,-0.0347,0.0275,-0.1112,-2.2942334614195765,0.0,4.722246170043945,-1.3406752347946167,-0.0,1.8796952962875366,5.5442285416419885,-0.0,0.22390572726726532,-1.7077482382403772,0.0,0.003952265717089176,-0.06868964830507451,-0.0,0.0074769905768334866,1.2212181091308594,0.0,0.028835123404860497
223.0,299.0,-4.0869,-1.3274,8.7236,-0.0347,0.0275,-0.1112,-2.294265409509176,0.0,4.7222113609313965,-1.3406792879104614,-0.0,1.9130370616912842,5.544277298241415,-0.0,0.21769775450229645,-1.7077325026141565,0.0,0.013429030776023865,-0.06878596941103154,-0.0,0.007764376699924469,1.2211495637893677,0.0,0.004543018992990255
223.0,299.0,-4.0869,-1.3274,8.7236,-0.0347,0.0275,-0.1112,-2.2942334614195765,0.0,4.729430198669434,-1.3406710624694824,-0.0,1.8888294696807861,5.544220733433523,-0.0,0.21178188920021057,-1.7077482382403772,0.0,0.009832728654146194,-0.06875402132143194,-0.0,0.0005689242389053106,1.2211332321166992,0.0,0.013821069151163101
223.0,299.0,-4.0869,-1.3274,8.7236,-0.0347,0.0275,-0.1112,-2.2942496738829554,0.0,4.762920379638672,-1.3406225442886353,-0.0,1.9252338409423828,5.544213044434347,-0.0,0.20984603464603424,-1.7077730337726038,0.0,0.003705034265294671,-0.06873828569521123,-0.0,0.0009708530269563198,1.221177577972412,0.0,-0.04132571443915367
223.0,299.0,-4.0869,-1.3274,8.7236,-0.0347,0.0275,-0.1112,-2.2941891155638636,0.0,4.750216007232666,-1.3406586647033691,-0.0,1.875312089920044,5.544240939408102,-0.0,0.21534281969070435,-1.7077801863299769,0.0,0.010061273351311684,-0.0687177816974085,-0.0,0.0011262630578130484,1.2211816310882568,0.0,0.017414875328540802
223.0,299.0,-4.0869,-1.3274,8.7236,-0.0347,0.0275,-0.1112,-2.294213434258932,0.0,4.751684188842773,-1.3406389951705933,-0.0,1.874175786972046,5.544265079289236,-0.0,0.20374245941638947,-1.7078526655780237,0.0,0.018075358122587204,-0.06875449815859014,-0.0,0.004245927091687918,1.2211737632751465,0.0,-0.01780186966061592
228.0,306.0,-4.1677,-1.349,8.8325,-0.0356,0.0295,-0.1159,-2.294229646722311,0.0,4.764102935791016,-1.3406472206115723,-0.0,1.9338675737380981,5.544277298241415,-0.0,0.20787417888641357,-1.7077563444720667,0.0,0.014689997769892216,-0.06874591508974248,-0.0,0.004403139930218458,1.221177577972412,0.0,0.006318883504718542
228.0,306.0,-4.1677,-1.349,8.8325,-0.0356,0.0295,-0.1159,-2.294225355187887,0.0,4.745887756347656,-1.3406472206115723,-0.0,1.8567225933074951,5.544248688011923,-0.0,0.2068723887205124,-1.7077649275409144,0.0,0.010519342496991158,-0.06877071062196904,-0.0,0.009491387754678726,1.221177577972412,0.0,0.030105436220765114
228.0,306.0,-4.1677,-1.349,8.8325,-0.0356,0.0295,-0.1159,-2.294213434258932,0.0,4.74263334274292,-1.3406462669372559,-0.0,1.8900200128555298,5.544249105244436,-0.0,0.2103276252746582,-1.7077730337726038,0.0,0.0034514875151216984,-0.06874972978700811,-0.0,3.665126860141754e-05,1.2211976051330566,0.0,-0.021478693932294846
228.0,306.0,-4.1677,-1.349,8.8325,-0.0356,0.0295,-0.1159,-2.2942453823485316,0.0,4.776058197021484,-1.3406668901443481,-0.0,1.8736774921417236,5.544245052128591,-0.0,0.21058985590934753,-1.7077649275409144,0.0,0.006616248749196529,-0.06875020662416631,-0.0,0.008545204065740108,1.221165657043457,0.0,0.03123631700873375
228.0,306.0,-4.1677,-1.349,8.8325,-0.0356,0.0295,-0.1159,-2.2942496738829554,0.0,4.722995281219482,-1.340614676475525,-0.0,1.8881785869598389,5.5442367670829675,-0.0,0.21334703266620636,-1.7077649275409144,0.0,0.0075252465903759,-0.06874972978700811,-0.0,-0.0036376870702952147,1.2211856842041016,0.0,-0.024001138284802437
228.0,306.0,-4.1677,-1.349,8.8325,-0.0356,0.0295,-0.1159,-2.2941891155638636,0.0,4.769755840301514,-1.3406710624694824,-0.0,1.9653620719909668,5.544240939408102,-0.0,0.2066466212272644,-1.7077325026141565,0.0,-0.002541222842410207,-0.06877071062196904,-0.0,-0.0028073303401470184,1.221165657043457,0.0,-0.00953320786356926
228.0,306.0,-4.1677,-1.349,8.8325,-0.0356,0.0295,-0.1159,-2.2942172489561976,0.0,4.768054962158203,-1.3406710624694824,-0.0,1.9138562679290771,5.544224488526144,-0.0,0.2140844166278839,-1.7077649275409144,0.0,0.012150916270911694,-0.06876641908754522,-0.0,-0.0031368418131023645,1.2211897373199463,0.0,0.003778873011469841
228.0,306.0,-4.1677,-1.349,8.8325,-0.0356,0.0295,-0.1159,-2.2941891155638636,0.0,4.772734642028809,-1.3406106233596802,-0.0,1.879636526107788,5.544269013195791,-0.0,0.2065562605857849,-1.7077840010272425,0.0,0.01376341748982668,-0.06872207323183233,-0.0,-0.0017919911770150065,1.2211697101593018,0.0,0.02808520942926407
228.0,306.0,-4.1677,-1.349,8.8325,-0.0356,0.0295,-0.1159,-2.294209142724508,0.0,4.7689900398254395,-1.3406989574432373,-0.0,1.8819886445999146,5.54427723863677,-0.0,0.2033301293849945,-1.7078126112567347,0.0,0.00512488791719079,-0.06877452531923467,-0.0,-0.0006978800520300865,1.2211616039276123,0.0,-0.016819095239043236
228.0,306.0,-4.1677,-1.349,8.8325,-0.0356,0.0295,-0.1159,-2.2941767177977503,0.0,4.749851703643799,-1.3406668901443481,-0.0,1.8901950120925903,5.5442449925239465,-0.0,0.21801045536994934,-1.707796875630514,0.0,0.004491128958761692,-0.06869346300234014,-0.0,0.009022178128361702,1.221185326576233,0.0,-0.01880708895623684
228.0,306.0,-4.1677,-1.349,8.8325,-0.0356,0.0295,-0.1159,-2.2942010364928187,0.0,4.760608673095703,-1.3406668901443481,-0.0,1.902901530265808,5.544248628407278,-0.0,0.21188530325889587,-1.7077563444720667,0.0,0.00260495999827981,-0.06877071062196904,-0.0,-0.013090556487441063,1.221193552017212,0.0,0.01174345426261425
228.0,306.0,-4.1677,-1.349,8.8325,-0.0356,0.0295,-0.1159,-2.294225355187887,0.0,4.760304927825928,-1.3406710624694824,-0.0,1.9315552711486816,5.544281410961904,-0.0,0.20730307698249817,-1.7077840010272425,0.0,0.005209329538047314,-0.06871015230287725,-0.0,0.002018035389482975,1.2211734056472778,0.0,-0.03247179090976715
228.0,306.0,-4.1677,-1.349,8.8325,-0.0356,0.0295,-0.1159,-2.294201513329977,0.0,4.732841491699219,-1.3407195806503296,-0.0,1.8560621738433838,5.544269132405081,-0.0,0.21653160452842712,-1.70776874223818,0.0,0.003906720783561468,-0.06872588792909795,-0.0,0.007363627664744854,1.2212258577346802,0.0,0.018700867891311646
228.0,306.0,-4.1677,-1.349,8.8325,-0.0356,0.0295,-0.1159,-2.294201513329977,0.0,4.75258731842041,-1.3406999111175537,-0.0,1.9100918769836426,5.544249105244436,-0.0,0.20932607352733612,-1.7077520529376429,0.0,0.0029472685419023037,-0.06870586076845342,-0.0,0.007881018333137035,1.2211697101593018,0.0,0.012416399084031582
228.0,306.0,-4.1677,-1.349,8.8325,-0.0356,0.0295,-0.1159,-2.294225355187887,0.0,4.789262294769287,-1.3406389951705933,-0.0,1.8712894916534424,5.544224965363302,-0.0,0.2070024609565735,-1.7077563444720667,0.0,0.004369187634438276,-0.06875020662416631,-0.0,0.004253334365785122,1.221193552017212,0.0,-0.00875108316540718
228.0,306.0,-4.1677,-1.349,8.8325,-0.0356,0.0295,-0.1159,-2.2942334614195765,0.0,4.776803016662598,-1.34068763256073,-0.0,1.9234676361083984,5.544253158360281,-0.0,0.2104158103466034,-1.7077768484698694,0.0,0.007188520394265652,-0.06875831285585576,-0.0,0.013593362644314766,1.2211893796920776,0.0,-0.012668399140238762
228.0,306.0,-4.1677,-1.349,8.8325,-0.0356,0.0295,-0.1159,-2.294181009332174,0.0,4.7463788986206055,-1.3406586647033691,-0.0,1.9306607246398926,5.544277298241415,-0.0,0.20302227139472961,-1.7078288237201136,0.0,-0.003679956542328,-0.06875831285585576,-0.0,0.018152402713894844,1.2211893796920776,0.0,-0.02654561772942543
228.0,306.0,-4.1677,-1.349,8.8325,-0.0356,0.0295,-0.1159,-2.294225355187887,0.0,4.727609157562256,-1.3406668901443481,-0.0,1.906489610671997,5.544240939408102,-0.0,0.20937660336494446,-1.7077925840960901,0.0,-0.0006096898578107357,-0.06873828569521123,-0.0,0.0011918803211301565,1.2212016582489014,0.0,-0.028573501855134964
218.0,324.0,-4.0983,-1.337,8.8229,-0.0292,0.0238,-0.1138,-2.2942611179747523,0.0,4.742973804473877,-1.3406022787094116,-0.0,1.8661184310913086,5.544245052128591,-0.0,0.21006561815738678,-1.7077730337726038,0.0,-0.000695509254001081,-0.06872922578920537,-0.0,0.009558483026921749,1.2212179899215698,0.0,-0.0005542030557990074
218.0,324.0,-4.0983,-1.337,8.8229,-0.0292,0.0238,-0.1138,-2.294229646722311,0.0,4.753293037414551,-1.3406627178192139,-0.0,1.9493440389633179,5.544212984829702,-0.0,0.2138526737689972,-1.7077606360064905,0.0,-0.0010821399046108127,-0.06872207323183233,-0.0,0.013974235393106937,1.2212016582489014,0.0,0.00899045541882515
218.0,324.0,-4.0983,-1.337,8.8229,-0.0292,0.0238,-0.1138,-2.2942291698851527,0.0,4.756895065307617,-1.3406143188476562,-0.0,1.9259618520736694,5.544224905758657,-0.0,0.2189415991306305,-1.7077801863299769,0.0,0.012147077359259129,-0.06877404848207647,-0.0,0.0058277808129787445,1.221213936805725,0.0,0.008886447176337242
218.0,324.0,-4.0983,-1.337,8.8229,-0.0292,0.0238,-0.1138,-2.294209142724508,0.0,4.717845916748047,-1.34068763256073,-0.0,1.8846712112426758,5.544229018479147,-0.0,0.20648181438446045,-1.7077649275409144,0.0,0.005691769998520613,-0.06877071062196904,-0.0,0.009703919291496277,1.2211614847183228,0.0,0.002289962023496628
218.0,324.0,-4.0983,-1.337,8.8229,-0.0292,0.0238,-0.1138,-2.2941767177977503,0.0,4.79020357131958,-1.3406544923782349,-0.0,1.8989434242248535,5.544261026173391,-0.0,0.20888057351112366,-1.7077520529376429,0.0,0.023806437849998474,-0.06872207323183233,-0.0,0.0029176268726587296,1.221193552017212,0.0,-0.05273312330245972
218.0,324.0,-4.0983,-1.337,8.8229,-0.0292,0.0238,-0.1138,-2.294213434258932,0.0,4.72271728515625,-1.3406710624694824,-0.0,1.8708791732788086,5.544240402966299,-0.0,0.20842525362968445,-1.7078006903277796,0.0,-0.00017160369316115975,-0.06872159639467412,-0.0,0.0007821035687811673,1.2212016582489014,0.0,-0.011312047019600868
218.0,324.0,-4.0983,-1.337,8.8229,-0.0292,0.0238,-0.1138,-2.294197221795553,0.0,4.770720481872559,-1.3406668901443481,-0.0,1.913560152053833,5.544232654362478,-0.0,0.20954395830631256,-1.70776874223818,0.0,0.0008193152025341988,-0.06871396700014287,-0.0,0.010368234477937222,1.2212220430374146,0.0,-0.0005622301250696182
218.0,324.0,-4.0983,-1.337,8.8229,-0.0292,0.0238,-0.1138,-2.294265409509176,0.0,4.763816833496094,-1.3406668901443481,-0.0,1.8842616081237793,5.544252741127767,-0.0,0.20311935245990753,-1.7077768484698694,0.0,-5.5536802392452955e-06,-0.06875020662416631,-0.0,0.010347285307943821,1.2211816310882568,0.0,-0.005059477873146534
218.0,324.0,-4.0983,-1.337,8.8229,-0.0292,0.0238,-0.1138,-2.294237276116842,0.0,4.7317047119140625,-1.3406667709350586,-0.0,1.9120129346847534,5.5442367670829675,-0.0,0.21056392788887024,-1.7077606360064905,0.0,0.0050155785866081715,-0.0687945524798792,-0.0,-0.0007919658673927188,1.2211976051330566,0.0,-0.011797158978879452
218.0,324.0,-4.0983,-1.337,8.8229,-0.0292,0.0238,-0.1138,-2.2942453823485316,0.0,4.726719856262207,-1.3406267166137695,-0.0,1.9037086963653564,5.544293331890859,-0.0,0.22180871665477753,-1.707740608845846,0.0,-0.0007805675268173218,-0.06877452531923467,-0.0,0.004680256359279156,1.2212263345718384,0.0,-0.036368124186992645
218.0,324.0,-4.0983,-1.337,8.8229,-0.0292,0.0238,-0.1138,-2.294225355187887,0.0,4.748589992523193,-1.3406668901443481,-0.0,1.9266518354415894,5.544256913452902,-0.0,0.21227556467056274,-1.707728687916891,0.0,-0.0013625042047351599,-0.06875831285585576,-0.0,-0.0018490003421902657,1.221193552017212,0.0,0.0172291100025177
218.0,324.0,-4.0983,-1.337,8.8229,-0.0292,0.0238,-0.1138,-2.2942496738829554,0.0,4.768655776977539,-1.3406503200531006,-0.0,1.86592698097229,5.544241356640615,-0.0,0.20071353018283844,-1.7077768484698694,0.0,0.021485334262251854,-0.06874591508974248,-0.0,0.0004929271526634693,1.2211976051330566,0.0,0.0057109203189611435
218.0,324.0,-4.0983,-1.337,8.8229,-0.0292,0.0238,-0.1138,-2.2942053280272425,0.0,4.70665168762207,-1.3406752347946167,-0.0,1.9245834350585938,5.544245052128591,-0.0,0.1870301365852356,-1.7077925840960901,0.0,0.010903725400567055,-0.06874639192690069,-0.0,-0.0009933686815202236,1.2212179899215698,0.0,-0.010694699361920357
218.0,324.0,-4.0983,-1.337,8.8229,-0.0292,0.0238,-0.1138,-2.294229646722311,0.0,4.802335739135742,-1.3406389951705933,-0.0,1.8671691417694092,5.544289159565725,-0.0,0.22145923972129822,-1.70776874223818,0.0,0.002537615830078721,-0.06871015230287725,-0.0,-0.00416153110563755,1.2211614847183228,0.0,-0.02982664480805397
218.0,324.0,-4.0983,-1.337,8.8229,-0.0292,0.0238,-0.1138,-2.2942053280272425,0.0,4.772849082946777,-1.3406503200531006,-0.0,1.9039514064788818,5.544244634896078,-0.0,0.2087448239326477,-1.707808796559469,0.0,0.022137165069580078,-0.06877071062196904,-0.0,0.00457822997123003,1.2211697101593018,0.0,0.009055551141500473
218.0,324.0,-4.0983,-1.337,8.8229,-0.0292,0.0238,-0.1138,-2.294197221795553,0.0,4.789240837097168,-1.340679407119751,-0.0,1.9208483695983887,5.544240939408102,-0.0,0.21755284070968628,-1.7077882925616663,0.0,-1.913006417453289e-05,-0.0687020460711878,-0.0,0.004139365628361702,1.2211495637893677,0.0,0.014296401292085648
218.0,324.0,-4.0983,-1.337,8.8229,-0.0292,0.0238,-0.1138,-2.294209142724508,0.0,4.787925720214844,-1.3407073020935059,-0.0,1.8515610694885254,5.544256913452902,-0.0,0.21410074830055237,-1.7078169027911585,0.0,0.0057992711663246155,-0.0687945524798792,-0.0,-0.005853692535310984,1.221193552017212,0.0,0.001654414925724268
218.0,324.0,-4.0983,-1.337,8.8229,-0.0292,0.0238,-0.1138,-2.294181009332174,0.0,4.740026473999023,-1.3407073020935059,-0.0,1.9303154945373535,5.544260966568746,-0.0,0.2120644748210907,-1.7078006903277796,0.0,0.00698320334777236,-0.06870156923402959,-0.0,0.008158411830663681,1.221169352531433,0.0,0.020042089745402336
222.0,308.0,-4.0989,-1.3555,8.8325,-0.0212,0.0182,-0.1121,-2.2941934070982875,0.0,4.729506492614746,-1.3406668901443481,-0.0,1.9051578044891357,5.544269132405081,-0.0,0.20675382018089294,-1.7077730337726038,0.0,0.0019942931830883026,-0.06875402132143194,-0.0,0.0037733297795057297,1.221193552017212,0.0,0.039246223866939545
222.0,308.0,-4.0989,-1.3555,8.8325,-0.0212,0.0182,-0.1121,-2.294197221795553,0.0,4.722592353820801,-1.34068763256073,-0.0,1.8961737155914307,5.544229018479147,-0.0,0.2090185582637787,-1.7077844778644007,0.0,-0.002484059426933527,-0.06878215471376592,-0.0,0.009265536442399025,1.221177577972412,0.0,0.02750563994050026
222.0,308.0,-4.0989,-1.3555,8.8325,-0.0212,0.0182,-0.1121,-2.294209142724508,0.0,4.751075744628906,-1.3406668901443481,-0.0,1.8782535791397095,5.544261026173391,-0.0,0.2257523536682129,-1.7077367941485804,0.0,-0.0010100739309564233,-0.06875449815859014,-0.0,-0.0016741615254431963,1.221193552017212,0.0,-0.011045699007809162
222.0,308.0,-4.0989,-1.3555,8.8325,-0.0212,0.0182,-0.1121,-2.294229646722311,0.0,4.773937225341797,-1.3406710624694824,-0.0,1.8905339241027832,5.544269132405081,-0.0,0.20780131220817566,-1.7077644507037562,0.0,0.010214826092123985,-0.06872588792909795,-0.0,0.010370146483182907,1.221177577972412,0.0,-0.0009111315011978149
222.0,308.0,-4.0989,-1.3555,8.8325,-0.0212,0.0182,-0.1121,-2.2942329845824183,0.0,4.73483943939209,-1.3406710624694824,-0.0,1.8890494108200073,5.544249045639791,-0.0,0.20744428038597107,-1.7077367941485804,0.0,0.011325312778353691,-0.06869393983949834,-0.0,0.0031626999843865633,1.2211734056472778,0.0,-0.012222266755998135
222.0,308.0,-4.0989,-1.3555,8.8325,-0.0212,0.0182,-0.1121,-2.2942611179747523,0.0,4.7200822830200195,-1.3406503200531006,-0.0,1.9355504512786865,5.544256853848257,-0.0,0.21278047561645508,-1.7077606360064905,0.0,0.002847132505849004,-0.06870967546571904,-0.0,0.011621939949691296,1.2212058305740356,0.0,0.019335534423589706
222.0,308.0,-4.0989,-1.3555,8.8325,-0.0212,0.0182,-0.1121,-2.294209142724508,0.0,4.7770562171936035,-1.3406307697296143,-0.0,1.8225574493408203,5.5442449925239465,-0.0,0.2040078043937683,-1.7077840010272425,0.0,0.003557841992005706,-0.06867343584169561,-0.0,0.011983457952737808,1.221177577972412,0.0,0.009562557563185692
222.0,308.0,-4.0989,-1.3555,8.8325,-0.0212,0.0182,-0.1121,-2.2942172489561976,0.0,4.739193916320801,-1.3406503200531006,-0.0,1.8926433324813843,5.544269072800436,-0.0,0.2179890275001526,-1.7077840010272425,0.0,0.004063690546900034,-0.06877071062196904,-0.0,0.01926293969154358,1.2211893796920776,0.0,0.0242000799626112
222.0,308.0,-4.0989,-1.3555,8.8325,-0.0212,0.0182,-0.1121,-2.2941934070982875,0.0,4.740664958953857,-1.3406422138214111,-0.0,1.885500192642212,5.544260966568746,-0.0,0.2073073536157608,-1.707775894795553,0.0,-0.008529365994036198,-0.06877404848207647,-0.0,0.00566596444696188,1.221177577972412,0.0,0.013509687967598438
222.0,308.0,-4.0989,-1.3555,8.8325,-0.0212,0.0182,-0.1121,-2.294253488580221,0.0,4.754340171813965,-1.3406668901443481,-0.0,1.8957393169403076,5.544240879803457,-0.0,0.21422389149665833,-1.7077811400042933,0.0,-0.0007312336820177734,-0.06872970262636358,-0.0,0.006440215744078159,1.2211816310882568,0.0,-0.005258688237518072
222.0,308.0,-4.0989,-1.3555,8.8325,-0.0212,0.0182,-0.1121,-2.2942210636534632,0.0,4.758623123168945,-1.3406628370285034,-0.0,1.9360036849975586,5.54427324512557,-0.0,0.2038959562778473,-1.7077520529376429,0.0,0.010526038706302643,-0.0687339941607874,-0.0,0.0072639938443899155,1.2211976051330566,0.0,0.012757163494825363
222.0,308.0,-4.0989,-1.3555,8.8325,-0.0212,0.0182,-0.1121,-2.2942210636534632,0.0,4.74215841293335,-1.3406503200531006,-0.0,1.9365278482437134,5.544256913452902,-0.0,0.20166251063346863,-1.7077649275409144,0.0,0.0015075730625540018,-0.06875020662416631,-0.0,0.016812177374958992,1.2211816310882568,0.0,0.021535050123929977
222.0,308.0,-4.0989,-1.3555,8.8325,-0.0212,0.0182,-0.1121,-2.294213434258932,0.0,4.690572738647461,-1.3407071828842163,-0.0,1.9052760601043701,5.544280993729391,-0.0,0.2099722921848297,-1.7077401320086878,0.0,0.0046913200058043,-0.0687339941607874,-0.0,0.004353031516075134,1.2211898565292358,0.0,-0.006771781016141176
222.0,308.0,-4.0989,-1.3555,8.8325,-0.0212,0.0182,-0.1121,-2.2942377529540003,0.0,4.782210826873779,-1.3406710624694824,-0.0,1.8873178958892822,5.544260966568746,-0.0,0.2161896526813507,-1.7077768484698694,0.0,0.010603968985378742,-0.06872970262636358,-0.0,-0.0029893433675169945,1.2211737632751465,0.0,0.0007932800799608231
222.0,308.0,-4.0989,-1.3555,8.8325,-0.0212,0.0182,-0.1121,-2.2942329845824183,0.0,4.775694370269775,-1.3406586647033691,-0.0,1.934473991394043,5.544292914658346,-0.0,0.21189020574092865,-1.7077730337726038,0.0,0.004911584313958883,-0.06876260439027959,-0.0,-0.0019012452103197575,1.2211893796920776,0.0,-0.04131968319416046
222.0,308.0,-4.0989,-1.3555,8.8325,-0.0212,0.0182,-0.1121,-2.2942334614195765,0.0,4.780670642852783,-1.3406586647033691,-0.0,1.876408338546753,5.54428921917037,-0.0,0.21038322150707245,-1.70776874223818,0.0,0.008610539138317108,-0.06870967546571904,-0.0,0.010763050988316536,1.2211894989013672,0.0,-0.023067167028784752
222.0,308.0,-4.0989,-1.3555,8.8325,-0.0212,0.0182,-0.1121,-2.294209142724508,0.0,4.755671977996826,-1.3406833410263062,-0.0,1.9360448122024536,5.544256913452902,-0.0,0.22308942675590515,-1.7077811400042933,0.0,-0.00046316743828356266,-0.06875020662416631,-0.0,0.002637384459376335,1.2211697101593018,0.0,-0.013105034828186035
222.0,308.0,-4.0989,-1.3555,8.8325,-0.0212,0.0182,-0.1121,-2.2941891155638636,0.0,4.786722660064697,-1.3406503200531006,-0.0,1.9160702228546143,5.544252741127767,-0.0,0.21639427542686462,-1.7077925840960901,0.0,-0.0052406019531190395,-0.0687339941607874,-0.0,-0.008684109896421432,1.2211897373199463,0.0,0.010295791551470757
222.0,308.0,-4.0989,-1.3555,8.8325,-0.0212,0.0182,-0.1121,-2.2942215404906214,0.0,4.796050548553467,-1.3406752347946167,-0.0,1.8909199237823486,5.544252741127767,-0.0,0.20804113149642944,-1.7078207174884241,0.0,0.008637445978820324,-0.06873017946352178,-0.0,0.007153075188398361,1.2211976051330566,0.0,0.007941639050841331
216.0,307.0,-4.1079,-1.3059,8.8301,-0.0331,0.0257,-0.1107,-2.294201513329977,0.0,4.806358337402344,-1.3406752347946167,-0.0,1.8554949760437012,5.544269072800436,-0.0,0.21459290385246277,-1.7077730337726038,0.0,0.00881972536444664,-0.06869775453676397,-0.0,0.008026410825550556,1.221165657043457,0.0,-0.010071495547890663
216.0,307.0,-4.1079,-1.3059,8.8301,-0.0331,0.0257,-0.1107,-2.294197221795553,0.0,4.782281398773193,-1.3406792879104614,-0.0,1.8547483682632446,5.544228601246633,-0.0,0.21351933479309082,-1.7077840010272425,0.0,0.008607963100075722,-0.06874591508974248,-0.0,0.008275792934000492,1.221193552017212,0.0,0.06924135982990265
216.0,307.0,-4.1079,-1.3059,8.8301,-0.0331,0.0257,-0.1107,-2.294253488580221,0.0,4.766132354736328,-1.3407031297683716,-0.0,1.8976004123687744,5.544260966568746,-0.0,0.1960710734128952,-1.7077367941485804,0.0,0.01080536749213934,-0.0687177816974085,-0.0,0.002640401478856802,1.2211697101593018,0.0,0.015160447917878628
216.0,307.0,-4.1079,-1.3059,8.8301,-0.0331,0.0257,-0.1107,-2.294237276116842,0.0,4.733190059661865,-1.3406918048858643,-0.0,1.958876132965088,5.54428510644988,-0.0,0.19449862837791443,-1.70776874223818,0.0,0.004979956895112991,-0.06878215471376592,-0.0,0.005876629613339901,1.221157431602478,0.0,0.04237750172615051
216.0,307.0,-4.1079,-1.3059,8.8301,-0.0331,0.0257,-0.1107,-2.294213434258932,0.0,4.744962692260742,-1.3407195806503296,-0.0,1.874779462814331,5.544277298241415,-0.0,0.2069227248430252,-1.7077367941485804,0.0,0.0010809842497110367,-0.0687177816974085,-0.0,0.00380787905305624,1.221157431602478,0.0,-0.022381991147994995
216.0,307.0,-4.1079,-1.3059,8.8301,-0.0331,0.0257,-0.1107,-2.2942334614195765,0.0,4.700653553009033,-1.3406544923782349,-0.0,1.9071294069290161,5.544277298241415,-0.0,0.2008337527513504,-1.7077520529376429,0.0,0.0021974460687488317,-0.0687177816974085,-0.0,0.012097930535674095,1.2211976051330566,0.0,-4.669651389122009e-06
216.0,307.0,-4.1079,-1.3059,8.8301,-0.0331,0.0257,-0.1107,-2.294213434258932,0.0,4.757325172424316,-1.3406586647033691,-0.0,1.8939545154571533,5.544200706272878,-0.0,0.20047420263290405,-1.7077563444720667,0.0,0.007946069352328777,-0.06876641908754522,-0.0,0.007937828078866005,1.2212258577346802,0.0,0.012776631861925125
216.0,307.0,-4.1079,-1.3059,8.8301,-0.0331,0.0257,-0.1107,-2.294217725793356,0.0,4.7294745445251465,-1.3406710624694824,-0.0,1.9009016752243042,5.544269072800436,-0.0,0.20292964577674866,-1.7078049818622034,0.0,0.007279444485902786,-0.06875402132143194,-0.0,0.00623056897893548,1.2211495637893677,0.0,-0.05970009043812752
216.0,307.0,-4.1079,-1.3059,8.8301,-0.0331,0.0257,-0.1107,-2.294181009332174,0.0,4.761146545410156,-1.3406833410263062,-0.0,1.9102106094360352,5.544252741127767,-0.0,0.21762003004550934,-1.70776874223818,0.0,0.016805686056613922,-0.06876641908754522,-0.0,0.0005567376501858234,1.2211976051330566,0.0,-0.03691212460398674
216.0,307.0,-4.1079,-1.3059,8.8301,-0.0331,0.0257,-0.1107,-2.294201513329977,0.0,4.756344795227051,-1.3406462669372559,-0.0,1.919490098953247,5.544281410961904,-0.0,0.20890597999095917,-1.7077649275409144,0.0,0.015115806832909584,-0.06878596941103154,-0.0,0.003080977126955986,1.221205711364746,0.0,-0.013695193454623222
216.0,307.0,-4.1079,-1.3059,8.8301,-0.0331,0.0257,-0.1107,-2.294197221795553,0.0,4.742526054382324,-1.3407031297683716,-0.0,1.8789163827896118,5.544232654362478,-0.0,0.20358487963676453,-1.707836929951803,0.0,0.0075344727374613285,-0.06873017946352178,-0.0,0.01113637164235115,1.221193552017212,0.0,0.0017642499879002571
216.0,307.0,-4.1079,-1.3059,8.8301,-0.0331,0.0257,-0.1107,-2.294241567651266,0.0,4.77184534072876,-1.3406628370285034,-0.0,1.8981199264526367,5.544204759388723,-0.0,0.21209214627742767,-1.70776874223818,0.0,-0.008685946464538574,-0.06875020662416631,-0.0,-0.019931603223085403,1.2212623357772827,0.0,0.0441337488591671
216.0,307.0,-4.1079,-1.3059,8.8301,-0.0331,0.0257,-0.1107,-2.294229646722311,0.0,4.707904815673828,-1.3406225442886353,-0.0,1.8962717056274414,5.544296967774191,-0.0,0.20981721580028534,-1.7077367941485804,0.0,-0.0015254844911396503,-0.06875831285585576,-0.0,0.003532588481903076,1.2211976051330566,0.0,0.004879903048276901
216.0,307.0,-4.1079,-1.3059,8.8301,-0.0331,0.0257,-0.1107,-2.294213434258932,0.0,4.732202053070068,-1.3406989574432373,-0.0,1.9351346492767334,5.544260966568746,-0.0,0.20371301472187042,-1.7077720800982874,0.0,0.005607869941741228,-0.06868154207338506,-0.0,-0.003463391214609146,1.2212016582489014,0.0,0.02982800081372261
216.0,307.0,-4.1079,-1.3059,8.8301,-0.0331,0.0257,-0.1107,-2.2942615948119105,0.0,4.78077507019043,-1.3406668901443481,-0.0,1.87080717086792,5.544309365540304,-0.0,0.2088640034198761,-1.7078006903277796,0.0,-0.010699608363211155,-0.06869775453676397,-0.0,0.0064292894676327705,1.2212258577346802,0.0,0.010229958221316338
216.0,307.0,-4.1079,-1.3059,8.8301,-0.0331,0.0257,-0.1107,-2.2942053280272425,0.0,4.791019916534424,-1.3406918048858643,-0.0,1.9219170808792114,5.54430108049468,-0.0,0.2035895586013794,-1.7078006903277796,0.0,0.016906555742025375,-0.06871396700014287,-0.0,0.007298734970390797,1.2211697101593018,0.0,-0.003168079536408186
216.0,307.0,-4.1079,-1.3059,8.8301,-0.0331,0.0257,-0.1107,-2.2942058048644007,0.0,4.7622575759887695,-1.34068763256073,-0.0,1.8975822925567627,5.544244575291433,-0.0,0.21273809671401978,-1.7077840010272425,0.0,0.00795269850641489,-0.06875020662416631,-0.0,-0.0008853320614434779,1.221177577972412,0.0,-0.0017810836434364319
216.0,307.0,-4.1079,-1.3059,8.8301,-0.0331,0.0257,-0.1107,-2.294201513329977,0.0,4.75550651550293,-1.3406022787094116,-0.0,1.8964686393737793,5.544208931713857,-0.0,0.21389633417129517,-1.70776874223818,0.0,0.0018620709888637066,-0.06875831285585576,-0.0,0.01172894611954689,1.221177577972412,0.0,-0.00011757528409361839
215.0,301.0,-4.1007,-1.331,8.7362,-0.0334,0.0197,-0.1185,-2.294209142724508,0.0,4.791523456573486,-1.3406225442886353,-0.0,1.8802192211151123,5.544252741127767,-0.0,0.2075684368610382,-1.7077482382403772,0.0,-0.005082780960947275,-0.06880265871156865,-0.0,-0.002153252251446247,1.221177577972412,0.0,-0.014604561030864716
215.0,301.0,-4.1007,-1.331,8.7362,-0.0334,0.0197,-0.1185,-2.2942697010436,0.0,4.751840114593506,-1.3406792879104614,-0.0,1.9268629550933838,5.544276940613546,-0.0,0.22003626823425293,-1.707775894795553,0.0,0.006332254968583584,-0.06869393983949834,-0.0,0.012074428610503674,1.2211734056472778,0.0,0.030661458149552345
215.0,301.0,-4.1007,-1.331,8.7362,-0.0334,0.0197,-0.1185,-2.294213434258932,0.0,4.729137420654297,-1.3407073020935059,-0.0,1.926290512084961,5.54427324512557,-0.0,0.21333631873130798,-1.7077730337726038,0.0,0.003372037783265114,-0.06875020662416631,-0.0,-0.0046017104759812355,1.2212098836898804,0.0,-0.004335459787398577
215.0,301.0,-4.1007,-1.331,8.7362,-0.0334,0.0197,-0.1185,-2.294253488580221,0.0,4.742952823638916,-1.340704083442688,-0.0,1.8815852403640747,5.5442367670829675,-0.0,0.21496668457984924,-1.7078049818622034,0.0,0.00388336437754333,-0.06875402132143194,-0.0,0.013094327412545681,1.2211291790008545,0.0,-0.003139099571853876
215.0,301.0,-4.1007,-1.331,8.7362,-0.0334,0.0197,-0.1185,-2.294237276116842,0.0,4.753879547119141,-1.3406225442886353,-0.0,1.924226999282837,5.54427735784606,-0.0,0.20169028639793396,-1.707796875630514,0.0,0.003713256446644664,-0.06873780885805303,-0.0,-0.004669636487960815,1.2211737632751465,0.0,0.03617728874087334
215.0,301.0,-4.1007,-1.331,8.7362,-0.0334,0.0197,-0.1185,-2.294249197045797,0.0,4.750370025634766,-1.3406187295913696,-0.0,1.8913798332214355,5.544261026173391,-0.0,0.2163265347480774,-1.7077963987933558,0.0,0.0206830482929945,-0.06875402132143194,-0.0,0.008640114217996597,1.2211816310882568,0.0,-0.029940234497189522
215.0,301.0,-4.1007,-1.331,8.7362,-0.0334,0.0197,-0.1185,-2.2942735157408656,0.0,4.7698564529418945,-1.3406225442886353,-0.0,1.9037339687347412,5.54427324512557,-0.0,0.21243205666542053,-1.707728687916891,0.0,-0.004355104174464941,-0.06872970262636358,-0.0,0.015294416807591915,1.2212098836898804,0.0,0.032056186348199844
215.0,301.0,-4.1007,-1.331,8.7362,-0.0334,0.0197,-0.1185,-2.2942615948119105,0.0,4.7676801681518555,-1.3406752347946167,-0.0,1.8938746452331543,5.544280993729391,-0.0,0.19818250834941864,-1.7077925840960901,0.0,0.0043625617399811745,-0.06875020662416631,-0.0,0.0036709164269268513,1.2211573123931885,0.0,-0.015602769330143929
215.0,301.0,-4.1007,-1.331,8.7362,-0.0334,0.0197,-0.1185,-2.2941767177977503,0.0,4.757406234741211,-1.3406792879104614,-0.0,1.8928656578063965,5.544220733433523,-0.0,0.2069079577922821,-1.7077482382403772,0.0,-0.007472467143088579,-0.06875402132143194,-0.0,0.003977712709456682,1.221193552017212,0.0,-0.04444880038499832
215.0,301.0,-4.1007,-1.331,8.7362,-0.0334,0.0197,-0.1185,-2.2941891155638636,0.0,4.7679443359375,-1.3406710624694824,-0.0,1.8785322904586792,5.5442330715949915,-0.0,0.2107740044593811,-1.7077882925616663,0.0,0.013701293617486954,-0.06878644624818975,-0.0,0.010814622975885868,1.221165657043457,0.0,-0.05141998454928398
215.0,301.0,-4.1007,-1.331,8.7362,-0.0334,0.0197,-0.1185,-2.2942615948119105,0.0,4.7839250564575195,-1.3406544923782349,-0.0,1.9252030849456787,5.544240939408102,-0.0,0.2181539535522461,-1.7078169027911585,0.0,0.017623770982027054,-0.06875402132143194,-0.0,0.0005495618097484112,1.2211897373199463,0.0,-0.04405559226870537
215.0,301.0,-4.1007,-1.331,8.7362,-0.0334,0.0197,-0.1185,-2.294156690637106,0.0,4.716797828674316,-1.3406667709350586,-0.0,1.9095144271850586,5.544264960079946,-0.0,0.20187045633792877,-1.7077730337726038,0.0,-0.0005892892368137836,-0.06872207323183233,-0.0,0.0057417540811002254,1.2212181091308594,0.0,0.003016384784132242
215.0,301.0,-4.1007,-1.331,8.7362,-0.0334,0.0197,-0.1185,-2.2942615948119105,0.0,4.733054161071777,-1.3406918048858643,-0.0,1.8321728706359863,5.544252741127767,-0.0,0.20767533779144287,-1.7077840010272425,0.0,0.0010827898513525724,-0.06872922578920537,-0.0,0.00537271099165082,1.221193552017212,0.0,-0.02596808783710003
215.0,301.0,-4.1007,-1.331,8.7362,-0.0334,0.0197,-0.1185,-2.294213434258932,0.0,4.7850117683410645,-1.3407154083251953,-0.0,1.8759102821350098,5.544301557331838,-0.0,0.21952447295188904,-1.7077840010272425,0.0,0.001718469662591815,-0.0687177816974085,-0.0,-0.008093439042568207,1.221193552017212,0.0,0.012559289112687111
215.0,301.0,-4.1007,-1.331,8.7362,-0.0334,0.0197,-0.1185,-2.294209142724508,0.0,4.756861686706543,-1.3406389951705933,-0.0,1.9390000104904175,5.544249045639791,-0.0,0.20334896445274353,-1.7077601591693323,0.0,0.012204225175082684,-0.06875020662416631,-0.0,0.022898048162460327,1.221185326576233,0.0,0.026895998045802116
215.0,301.0,-4.1007,-1.331,8.7362,-0.0334,0.0197,-0.1185,-2.294197221795553,0.0,4.773427963256836,-1.3406792879104614,-0.0,1.9012224674224854,5.5442449925239465,-0.0,0.20250439643859863,-1.7077649275409144,0.0,0.0032208943739533424,-0.06871396700014287,-0.0,0.0033542688470333815,1.2211976051330566,0.0,0.04722888022661209
215.0,301.0,-4.1007,-1.331,8.7362,-0.0334,0.0197,-0.1185,-2.294241567651266,0.0,4.757866859436035,-1.3407434225082397,-0.0,1.8674485683441162,5.544248628407278,-0.0,0.20845624804496765,-1.7077844778644007,0.0,0.0036333792377263308,-0.06877023378481084,-0.0,0.010152752511203289,1.221193552017212,0.0,-0.004086154513061047
215.0,301.0,-4.1007,-1.331,8.7362,-0.0334,0.0197,-0.1185,-2.294197221795553,0.0,4.769637584686279,-1.3406544923782349,-0.0,1.939486026763916,5.544240939408102,-0.0,0.20839406549930573,-1.7077882925616663,0.0,0.010160751640796661,-0.06877786317934209,-0.0,0.00987228099256754,1.221201777458191,0.0,0.01399240456521511
227.0,305.0,-4.1127,-1.3071,8.7452,-0.047,0.0224,-0.1159,-2.2941934070982875,0.0,4.745619773864746,-1.3406586647033691,-0.0,1.8690142631530762,5.544252741127767,-0.0,0.19966590404510498,-1.7078049818622034,0.0,0.00035844394005835056,-0.06871396700014287,-0.0,-0.009240586310625076,1.2211734056472778,0.0,0.01584305241703987
227.0,305.0,-4.1127,-1.3071,8.7452,-0.047,0.0224,-0.1159,-2.294197221795553,0.0,4.754548072814941,-1.3406106233596802,-0.0,1.90498685836792,5.544281410961904,-0.0,0.2067623734474182,-1.7077730337726038,0.0,0.015815189108252525,-0.06875020662416631,-0.0,-0.005134261678904295,1.2211414575576782,0.0,0.020641503855586052
227.0,305.0,-4.1127,-1.3071,8.7452,-0.047,0.0224,-0.1159,-2.294185300866598,0.0,4.750850200653076,-1.3406959772109985,-0.0,1.8994061946868896,5.544289278775015,-0.0,0.20537376403808594,-1.70776874223818,0.0,0.002806583419442177,-0.06876260439027959,-0.0,0.005812305957078934,1.221177577972412,0.0,-0.002208211924880743
227.0,305.0,-4.1127,-1.3071,8.7452,-0.047,0.0224,-0.1159,-2.2942329845824183,0.0,4.774135112762451,-1.3406908512115479,-0.0,1.8983194828033447,5.544301020890035,-0.0,0.20701824128627777,-1.7078049818622034,0.0,0.004170509986579418,-0.06876641908754522,-0.0,-0.002613415475934744,1.221193552017212,0.0,0.024711579084396362
227.0,305.0,-4.1127,-1.3071,8.7452,-0.047,0.0224,-0.1159,-2.294209142724508,0.0,4.777656078338623,-1.3406710624694824,-0.0,1.9008715152740479,5.54427735784606,-0.0,0.21499228477478027,-1.7077882925616663,0.0,-0.002178854076191783,-0.06875831285585576,-0.0,0.012185726314783096,1.221185326576233,0.0,0.025188306346535683
227.0,305.0,-4.1127,-1.3071,8.7452,-0.047,0.0224,-0.1159,-2.294209142724508,0.0,4.748701572418213,-1.3407073020935059,-0.0,1.8754324913024902,5.544252741127767,-0.0,0.2115362137556076,-1.7077162901507776,0.0,0.0009029016364365816,-0.06875020662416631,-0.0,0.018144924193620682,1.2211939096450806,0.0,-0.00800401158630848
227.0,305.0,-4.1127,-1.3071,8.7452,-0.047,0.0224,-0.1159,-2.294241567651266,0.0,4.774637222290039,-1.3406544923782349,-0.0,1.9009817838668823,5.544220793038168,-0.0,0.2037964165210724,-1.7077367941485804,0.0,0.008794146589934826,-0.06877786317934209,-0.0,-0.00952962227165699,1.2211816310882568,0.0,0.015724843367934227
227.0,305.0,-4.1127,-1.3071,8.7452,-0.047,0.0224,-0.1159,-2.294225355187887,0.0,4.773076057434082,-1.3406503200531006,-0.0,1.885643720626831,5.544252741127767,-0.0,0.2036275714635849,-1.7077201048480433,0.0,0.024050625041127205,-0.0687020460711878,-0.0,0.004000619053840637,1.2211697101593018,0.0,-0.005356069654226303
227.0,305.0,-4.1127,-1.3071,8.7452,-0.047,0.0224,-0.1159,-2.2942573032774867,0.0,4.74473237991333,-1.3407031297683716,-0.0,1.916153907775879,5.544264960079946,-0.0,0.21771711111068726,-1.7077520529376429,0.0,0.011978761292994022,-0.06880265871156865,-0.0,0.011297076009213924,1.2211734056472778,0.0,0.015133798122406006
227.0,305.0,-4.1127,-1.3071,8.7452,-0.047,0.0224,-0.1159,-2.294217725793356,0.0,4.768800735473633,-1.3406668901443481,-0.0,1.8932386636734009,5.544269072800436,-0.0,0.19893929362297058,-1.7077730337726038,0.0,-0.006644153967499733,-0.06874162355531865,-0.0,0.0013122876407578588,1.2211856842041016,0.0,-0.004187764599919319
227.0,305.0,-4.1127,-1.3071,8.7452,-0.047,0.0224,-0.1159,-2.294229646722311,0.0,4.736316204071045,-1.340634822845459,-0.0,1.9093315601348877,5.544240939408102,-0.0,0.20278272032737732,-1.707735840474264,0.0,-3.4659169614315033e-06,-0.06871396700014287,-0.0,-0.0051913936622440815,1.221165657043457,0.0,0.018656400963664055
227.0,305.0,-4.1127,-1.3071,8.7452,-0.047,0.0224,-0.1159,-2.294281621972555,0.0,4.7732744216918945,-1.3406834602355957,-0.0,1.9215617179870605,5.544269072800436,-0.0,0.2160656452178955,-1.7077840010272425,0.0,0.0061439271084964275,-0.06877786317934209,-0.0,-0.009392693638801575,1.221201777458191,0.0,0.0009535234421491623
227.0,305.0,-4.1127,-1.3071,8.7452,-0.047,0.0224,-0.1159,-2.2942215404906214,0.0,4.795506000518799,-1.3406389951705933,-0.0,1.8832015991210938,5.54428510644988,-0.0,0.2102351039648056,-1.7077840010272425,0.0,0.013513308949768543,-0.0687177816974085,-0.0,0.004442934412509203,1.2211697101593018,0.0,-0.025748230516910553
227.0,305.0,-4.1127,-1.3071,8.7452,-0.047,0.0224,-0.1159,-2.294253488580221,0.0,4.766146659851074,-1.3406752347946167,-0.0,1.8758593797683716,5.544277298241415,-0.0,0.21962407231330872,-1.70776874223818,0.0,0.001412111334502697,-0.06870967546571904,-0.0,-0.003919652663171291,1.2211616039276123,0.0,0.021875152364373207
227.0,305.0,-4.1127,-1.3071,8.7452,-0.047,0.0224,-0.1159,-2.294229646722311,0.0,4.773630142211914,-1.3406225442886353,-0.0,1.9077353477478027,5.544249045639791,-0.0,0.20147141814231873,-1.7077882925616663,0.0,0.006540957372635603,-0.06875402132143194,-0.0,-0.0049041821621358395,1.2212098836898804,0.0,0.04036601632833481
227.0,305.0,-4.1127,-1.3071,8.7452,-0.047,0.0224,-0.1159,-2.294225355187887,0.0,4.7440619468688965,-1.3406710624694824,-0.0,1.9382555484771729,5.544288742333212,-0.0,0.20952057838439941,-1.707724396382467,0.0,0.008284520357847214,-0.06870967546571904,-0.0,-0.004915374331176281,1.2212339639663696,0.0,0.027181684970855713
227.0,305.0,-4.1127,-1.3071,8.7452,-0.047,0.0224,-0.1159,-2.2941934070982875,0.0,4.7383551597595215,-1.3406668901443481,-0.0,1.9176366329193115,5.544248688011923,-0.0,0.19719050824642181,-1.7078049818622034,0.0,0.0019733619410544634,-0.0687177816974085,-0.0,-0.006398103199899197,1.2211976051330566,0.0,0.019913142547011375
227.0,305.0,-4.1127,-1.3071,8.7452,-0.047,0.0224,-0.1159,-2.294217725793356,0.0,4.737679481506348,-1.3406389951705933,-0.0,1.9329884052276611,5.544289278775015,-0.0,0.2090323567390442,-1.707796875630514,0.0,0.004104401916265488,-0.06871396700014287,-0.0,-0.007961372844874859,1.221165657043457,0.0,0.021850625053048134
229.0,317.0,-4.1916,-1.2927,8.8277,-0.0392,0.0244,-0.1177,-2.2942453823485316,0.0,4.765945911407471,-1.3405946493148804,-0.0,1.9054975509643555,5.544236707478323,-0.0,0.20522373914718628,-1.707808796559469,0.0,0.0007266898173838854,-0.0687339941607874,-0.0,0.005916308611631393,1.2211976051330566,0.0,-0.028926601633429527
229.0,317.0,-4.1916,-1.2927,8.8277,-0.0392,0.0244,-0.1177,-2.294181009332174,0.0,4.781872749328613,-1.3406472206115723,-0.0,1.887501835823059,5.544233011990347,-0.0,0.21407854557037354,-1.707728687916891,0.0,0.010879844427108765,-0.06874591508974248,-0.0,0.009975084103643894,1.221165657043457,0.0,0.05180180072784424
229.0,317.0,-4.1916,-1.2927,8.8277,-0.0392,0.0244,-0.1177,-2.294265409509176,0.0,4.791267395019531,-1.34068763256073,-0.0,1.9005401134490967,5.544224905758657,-0.0,0.21427594125270844,-1.7077325026141565,0.0,0.0072867413982748985,-0.0687339941607874,-0.0,-0.015878943726420403,1.221165657043457,0.0,0.03742668405175209
229.0,317.0,-4.1916,-1.2927,8.8277,-0.0392,0.0244,-0.1177,-2.2941934070982875,0.0,4.745437145233154,-1.3406503200531006,-0.0,1.9437098503112793,5.544269072800436,-0.0,0.21957436203956604,-1.7077649275409144,0.0,0.007355724461376667,-0.06879836717714483,-0.0,0.00948250386863947,1.2211816310882568,0.0,0.0026963353157043457
229.0,317.0,-4.1916,-1.2927,8.8277,-0.0392,0.0244,-0.1177,-2.294217725793356,0.0,4.752529621124268,-1.34068763256073,-0.0,1.88008713722229,5.544224905758657,-0.0,0.20093098282814026,-1.7077730337726038,0.0,0.015761282294988632,-0.06874591508974248,-0.0,-0.0019849403761327267,1.2211616039276123,0.0,-0.027195364236831665
229.0,317.0,-4.1916,-1.2927,8.8277,-0.0392,0.0244,-0.1177,-2.294168611566061,0.0,4.7965168952941895,-1.3406267166137695,-0.0,1.9271326065063477,5.54427735784606,-0.0,0.2158268243074417,-1.7078169027911585,0.0,0.01763194426894188,-0.06876212755312139,-0.0,0.00713545735925436,1.2212179899215698,0.0,0.007969174534082413
229.0,317.0,-4.1916,-1.2927,8.8277,-0.0392,0.0244,-0.1177,-2.294213434258932,0.0,4.733150482177734,-1.340704083442688,-0.0,1.8784992694854736,5.544297385006704,-0.0,0.22782552242279053,-1.7077882925616663,0.0,-0.0011972379870712757,-0.06870586076845342,-0.0,0.006216832436621189,1.221161961555481,0.0,0.03142266720533371
229.0,317.0,-4.1916,-1.2927,8.8277,-0.0392,0.0244,-0.1177,-2.294241567651266,0.0,4.763382911682129,-1.3406431674957275,-0.0,1.9060580730438232,5.544285046845236,-0.0,0.20890292525291443,-1.707740608845846,0.0,-0.006574404891580343,-0.06870967546571904,-0.0,0.0012815720401704311,1.2212140560150146,0.0,-0.038900166749954224
229.0,317.0,-4.1916,-1.2927,8.8277,-0.0392,0.0244,-0.1177,-2.294197221795553,0.0,4.777456283569336,-1.340606451034546,-0.0,1.8765525817871094,5.5442367670829675,-0.0,0.21300765872001648,-1.7078006903277796,0.0,-0.010444117709994316,-0.06874639192690069,-0.0,-0.007893967442214489,1.221137285232544,0.0,0.00029813311994075775
229.0,317.0,-4.1916,-1.2927,8.8277,-0.0392,0.0244,-0.1177,-2.2942377529540003,0.0,4.772674083709717,-1.3406544923782349,-0.0,1.8655753135681152,5.544269072800436,-0.0,0.20741355419158936,-1.7077649275409144,6.493688431419287e-08,-0.0038285148330032825,-0.06875831285585576,-0.0,0.013077357783913612,1.2211976051330566,0.0,0.0016445009969174862
229.0,317.0,-4.1916,-1.2927,8.8277,-0.0392,0.0244,-0.1177,-2.294213434258932,0.0,4.778412818908691,-1.3406389951705933,-0.0,1.9765268564224243,5.544293331890859,-0.0,0.2197236269712448,-1.7077844778644007,1.8075423102725807e-11,0.006091262213885784,-0.06878215471376592,-0.0,0.007469441741704941,1.221193552017212,0.0,0.0013045659288764
229.0,317.0,-4.1916,-1.2927,8.8277,-0.0392,0.0244,-0.1177,-2.2942215404906214,0.0,4.732581615447998,-1.3406752347946167,-0.0,1.9174407720565796,5.544264960079946,-0.0,0.21541351079940796,-1.7077840010272425,7.705836836680025e-14,-0.0054548135958611965,-0.06874639192690069,-0.0,-0.000617439451161772,1.2211697101593018,0.0,-0.037347059696912766
229.0,317.0,-4.1916,-1.2927,8.8277,-0.0392,0.0244,-0.1177,-2.2942329845824183,0.0,4.813656806945801,-1.3406143188476562,-0.0,1.8862583637237549,5.54430108049468,-0.0,0.20873090624809265,-1.7078207174884241,2.1449479843408427e-17,-0.005630659870803356,-0.06874591508974248,-0.0,-0.00047423713840544224,1.2211697101593018,0.0,-0.00320394616574049
229.0,317.0,-4.1916,-1.2927,8.8277,-0.0392,0.0244,-0.1177,-2.294168611566061,0.0,4.753093719482422,-1.3406389951705933,-0.0,1.9128427505493164,5.544232654362478,-0.0,0.2151637226343155,-1.7078164259540003,9.144249673461294e-20,0.008380023762583733,-0.0687020460711878,-0.0,0.0070251645520329475,1.2212295532226562,0.0,0.04151603579521179
229.0,317.0,-4.1916,-1.2927,8.8277,-0.0392,0.0244,-0.1177,-2.294213434258932,0.0,4.771507263183594,-1.3406472206115723,-0.0,1.8864755630493164,5.544244932919302,-0.0,0.21032118797302246,-1.7078283468829554,2.5453355991146769e-23,0.0113417599350214,-0.06877404848207647,-0.0,0.005863999016582966,1.2212536334991455,0.002351182047277689,-0.04242805391550064
229.0,317.0,-4.1916,-1.2927,8.8277,-0.0392,0.0244,-0.1177,-2.294213434258932,0.0,4.735996246337891,-1.340634822845459,-0.0,1.921597957611084,5.544269132405081,-0.0,0.21227926015853882,-1.7078283468829554,1.0851166321006313e-25,0.007322906516492367,-0.0687020460711878,-0.0,0.013518525287508965,1.2212615013122559,0.003604761091992259,-0.037292055785655975
229.0,317.0,-4.1916,-1.2927,8.8277,-0.0392,0.0244,-0.1177,-2.2941934070982875,0.0,4.762412071228027,-1.3405789136886597,1.0480165346660186e-11,1.8538010120391846,5.5442367670829675,-0.0,0.2041402906179428,-1.7078245321856897,3.0204621123926835e-29,0.00934065692126751,-0.06874591508974248,-0.0,-0.004712387919425964,1.2213057279586792,0.005202101077884436,-0.0325176939368248
229.0,317.0,-4.1916,-1.2927,8.8277,-0.0392,0.0244,-0.1177,-2.2941891155638636,0.0,4.761507511138916,-1.3406027555465698,0.0012695379555225372,1.8865044116973877,5.544236707478323,-0.0,0.22027431428432465,-1.7078283468829554,1.2876704836774725e-31,-0.006445854436606169,-0.06874162355531865,-0.0,0.005420065484941006,1.2213294506072998,0.004990552552044392,-0.018294891342520714
218.0,313.0,-4.3735,-1.7958,8.5101,-0.062,0.0194,-0.0965,-2.294201513329977,0.0,4.74267053604126,-1.340667724609375,0.001717316685244441,1.8700644969940186,5.54428921917037,-0.0,0.22887811064720154,-1.7078521887408655,3.584278287044267e-35,0.011882898397743702,-0.06872636476625615,-0.0,-0.0018093360122293234,1.2213373184204102,0.004516548942774534,0.014680705033242702
218.0,313.0,-4.3735,-1.7958,8.5101,-0.062,0.0194,-0.0965,-2.29418482402944,0.0,4.785006523132324,-1.3406106233596802,0.0013179999077692628,1.9079079627990723,5.54427324512557,-0.0,0.21799838542938232,-1.7078283468829554,1.5280339153081422e-37,0.010934554971754551,-0.06873780885805303,-0.0,-0.004634807351976633,1.221413493156433,0.004514735657721758,0.018862852826714516
218.0,313.0,-4.3735,-1.7958,8.5101,-0.062,0.0194,-0.0965,-2.294169088403219,0.0,4.736433982849121,-1.340634822845459,0.0008898445521481335,1.889604091644287,5.544240939408102,-0.0,0.21026615798473358,-1.7078283468829554,6.514244197076064e-40,0.014271819032728672,-0.06876641908754522,-0.0,-0.012157482095062733,1.2213689088821411,0.004824576899409294,-0.04395874962210655
218.0,313.0,-4.3735,-1.7958,8.5101,-0.062,0.0194,-0.0965,-2.2942058048644007,0.0,4.767875671386719,-1.3405829668045044,0.000595269026234746,1.907832145690918,5.544256913452902,-0.0,0.2169335037469864,-1.7078283468829554,1.807675018979014e-43,0.009045347571372986,-0.06869775453676397,-0.0,-0.0011046500876545906,1.2214573621749878,0.006305438466370106,0.006508290767669678
218.0,313.0,-4.3735,-1.7958,8.5101,-0.062,0.0194,-0.0965,-2.2942377529540003,0.0,4.767149448394775,-1.3406310081481934,0.0004876942839473486,1.8850317001342773,5.5442449925239465,-0.0,0.2184801548719406,-1.7077963987933558,1.401298464324817e-45,0.0013179329689592123,-0.06876260439027959,-0.0,-0.0063356440514326096,1.2214410305023193,0.007491999305784702,0.004763242322951555
218.0,313.0,-4.3735,-1.7958,8.5101,-0.062,0.0194,-0.0965,-2.294229646722311,0.0,4.754111289978027,-1.3406187295913696,0.00032742912298999727,1.9009714126586914,5.544224905758657,-0.0,0.20440725982189178,-1.7078283468829554,0.0,0.013151119463145733,-0.06880265871156865,-0.0,0.0008673666743561625,1.2215008735656738,0.009654946625232697,0.005812956020236015
218.0,313.0,-4.3735,-1.7958,8.5101,-0.062,0.0194,-0.0965,-2.2942496738829554,0.0,4.7651214599609375,-1.340598702430725,0.00027995998971164227,1.8789637088775635,5.544321524887838,-0.0,0.2006872594356537,-1.707820240651266,0.0,0.009715056046843529,-0.06876260439027959,-0.0,0.0018687460105866194,1.221540927886963,0.010272740386426449,-0.005722338333725929
218.0,313.0,-4.3735,-1.7958,8.5101,-0.062,0.0194,-0.0965,-2.2942334614195765,0.0,4.740540504455566,-1.340651273727417,0.00014716557052452117,1.9131224155426025,5.544196653157034,-0.0,0.21805545687675476,-1.707832161580221,0.0,0.0038631996139883995,-0.06872159639467412,-0.0,0.010338645428419113,1.2216007709503174,0.010630759410560131,-0.028715813532471657
218.0,313.0,-4.3735,-1.7958,8.5101,-0.062,0.0194,-0.0965,-2.294209142724508,0.0,4.721038818359375,-1.3406027555465698,-6.97404975653626e-05,1.9194637537002563,5.544200706272878,-0.0,0.2124273180961609,-1.7078283468829554,0.0,0.008893841877579689,-0.06876641908754522,-0.0,0.0016437189187854528,1.2216367721557617,0.009838954545557499,0.030112938955426216
218.0,313.0,-4.3735,-1.7958,8.5101,-0.062,0.0194,-0.0965,-2.2942410908141078,0.0,4.78964376449585,-1.3406709432601929,-0.00016624361160211265,1.8557608127593994,5.544253158360281,-0.0,0.1941009759902954,-1.7078240553485315,0.0,0.012470025569200516,-0.06872159639467412,-0.0,0.014595702290534973,1.2217047214508057,0.009278764948248863,-0.019778529182076454
218.0,313.0,-4.3735,-1.7958,8.5101,-0.062,0.0194,-0.0965,-2.2942210636534632,0.0,4.75344181060791,-1.3406472206115723,-0.0001772161922417581,1.9071872234344482,5.544285523682394,-0.0,0.21337415277957916,-1.7078283468829554,0.0,0.012956740334630013,-0.0687177816974085,-0.0,-0.003141202498227358,1.221748948097229,0.008309855125844479,0.02324424311518669
218.0,313.0,-4.3735,-1.7958,8.5101,-0.062,0.0194,-0.0965,-2.294281145135397,0.0,4.748360633850098,-1.3406267166137695,-0.0001688800984993577,1.9126497507095337,5.544237124710836,-0.0,0.209058940410614,-1.707832161580221,0.0,0.017175965011119843,-0.0687945524798792,-0.0,0.00371725345030427,1.2217445373535156,0.0066821579821407795,-0.011413040570914745
218.0,313.0,-4.3735,-1.7958,8.5101,-0.062,0.0194,-0.0965,-2.2942611179747523,0.0,4.777522087097168,-1.3406267166137695,-0.0001570890744915232,1.9188306331634521,5.544260966568746,-0.0,0.22219060361385345,-1.7078283468829554,0.0,0.012018989771604538,-0.06875831285585576,-0.0,0.0047640991397202015,1.2217724323272705,0.005221609957516193,-0.013631273992359638
218.0,313.0,-4.3735,-1.7958,8.5101,-0.062,0.0194,-0.0965,-2.294277330438131,0.0,4.769204139709473,-1.340651273727417,-0.00014219693548511714,1.8797543048858643,5.544224905758657,-0.0,0.2265745997428894,-1.7077882925616663,0.0,0.008770101703703403,-0.06870156923402959,-0.0,0.016681866720318794,1.2217761278152466,0.00260031851939857,0.019656630232930183
218.0,313.0,-4.3735,-1.7958,8.5101,-0.062,0.0194,-0.0965,-2.2942854366698207,0.0,4.771082878112793,-1.3406749963760376,-0.00010700060374801978,1.9361588954925537,5.544252741127767,-0.0,0.21828408539295197,-1.7078126112567347,0.0,0.004193278029561043,-0.06873780885805303,-0.0,0.004496444016695023,1.221800684928894,0.0014596475521102548,-0.007607693783938885
218.0,313.0,-4.3735,-1.7958,8.5101,-0.062,0.0194,-0.0965,-2.2943016491331996,0.0,4.746273040771484,-1.3405945301055908,-9.685824625194073e-05,1.8725148439407349,5.5442449925239465,-3.600071795517579e-05,0.20568202435970306,-1.7078283468829554,0.0,0.006780463736504316,-0.06873017946352178,-0.0,-0.002295993734151125,1.2218126058578491,0.0005375532782636583,0.018911093473434448
218.0,313.0,-4.3735,-1.7958,8.5101,-0.062,0.0194,-0.0965,-2.2943135700621546,0.0,4.760655403137207,-1.3406554460525513,-4.433033609529957e-05,1.8975696563720703,5.544220733433523,-3.615095920395106e-05,0.20962631702423096,-1.7078364531146448,0.0,0.017156366258859634,-0.06868964830507451,-0.0,-0.006148519925773144,1.2217766046524048,0.0003102431073784828,0.07078006118535995
218.0,313.0,-4.3735,-1.7958,8.5101,-0.062,0.0194,-0.0965,-2.294264932672018,-0.00022295657254289836,4.782400608062744,-1.3406710624694824,-8.91257123658562e-10,1.920590877532959,5.54428921917037,-3.410286080907099e-05,0.22336655855178833,-1.7078126112567347,0.0,0.006902857683598995,-0.0687182585345667,-0.0,0.006313525605946779,1.2217885255813599,-0.0003231872688047588,0.004802200011909008
222.0,307.0,-3.9553,-1.2993,8.8899,-0.0354,0.0095,-0.1214,-2.294309278527731,-0.0002434274647384882,4.7699785232543945,-1.3405908346176147,-1.6042312064260683e-13,1.892289161682129,5.544257330685415,-3.2857820770004764e-05,0.2037663459777832,-1.7078283468829554,0.0,0.013631269335746765,-0.06871015230287725,-0.0,0.005670677870512009,1.2217605113983154,-0.0008032224723137915,-0.03279746323823929
222.0,307.0,-3.9553,-1.2993,8.8899,-0.0354,0.0095,-0.1214,-2.294248720208639,-0.00025017166626639664,4.749063491821289,-1.3406554460525513,-3.8740295715521553e-19,1.8987915515899658,5.5442412970359705,-5.827980930916965e-05,0.2086825966835022,-1.7078207174884241,0.0,0.010656898841261864,-0.06875020662416631,-0.0,-0.00746981892734766,1.2217166423797607,-0.0014891927130520344,0.04065907374024391
222.0,307.0,-3.9553,-1.2993,8.8899,-0.0354,0.0095,-0.1214,-2.294309755364889,-0.00023176451213657856,4.726690292358398,-1.3406269550323486,-6.973116407950684e-23,1.9069502353668213,5.544200706272878,-6.026562550687231e-05,0.2188260853290558,-1.7078164259540003,0.0,0.017240259796380997,-0.06867772737611944,-0.0,-0.00897984765470028,1.2216883897781372,-0.001283673569560051,-0.002284013433381915
222.0,307.0,-3.9553,-1.2993,8.8899,-0.0354,0.0095,-0.1214,-2.294325967828268,-0.00022641436953563243,4.73762321472168,-1.3405747413635254,-1.2551362484769392e-26,1.9384691715240479,5.544233488827505,-0.0001782768522389233,0.2070062905550003,-1.707832161580221,0.0,0.009840738959610462,-0.06866962114442998,-0.0,-0.004178787115961313,1.221684217453003,-0.0009782732231542468,0.01359327882528305
222.0,307.0,-3.9553,-1.2993,8.8899,-0.0354,0.0095,-0.1214,-2.29429354290151,-0.00019575614714995027,4.744261264801025,-1.340639352798462,-3.031006599997102e-32,1.8882125616073608,5.544188844948568,-0.0002514827065169811,0.21617209911346436,-1.7078045050250452,0.0,0.0069041261449456215,-0.06868154207338506,-0.0,0.0030863964930176735,1.221692442893982,-0.0006948530790396035,0.009677235968410969
222.0,307.0,-3.9553,-1.2993,8.8899,-0.0354,0.0095,-0.1214,-2.2942611179747523,-0.00018430243653710932,4.7140984535217285,-1.3405663967132568,0.0003837397089228034,1.906196117401123,5.544257330685415,-0.0006220906507223845,0.20914064347743988,-1.7078169027911585,0.0,-0.00016816379502415657,-0.06871062914003545,-0.0,0.0007297585252672434,1.2217129468917847,-0.00046012632083147764,0.011909901164472103
222.0,307.0,-3.9553,-1.2993,8.8899,-0.0354,0.0095,-0.1214,-2.2942329845824183,-0.0001694322854746133,4.765219211578369,-1.3405663967132568,0.0010949401184916496,1.8932936191558838,5.544221150666036,-0.00045636435970664024,0.21329975128173828,-1.7077606360064905,0.0,0.014244167134165764,-0.06868154207338506,-0.0,0.009766988456249237,1.2216764688491821,-0.0009181902860291302,-0.008451183326542377
222.0,307.0,-3.9553,-1.2993,8.8899,-0.0354,0.0095,-0.1214,-2.294236799279684,-8.536679524695501e-05,4.747537612915039,-1.340550422668457,0.0016243263380602002,1.9102303981781006,5.544200765877523,-0.0003062673204112798,0.2091066837310791,-1.7077649275409144,0.0,0.013054246082901955,-0.06868249574770147,-0.0,0.01479891873896122,1.221652626991272,-0.002201902912929654,0.010046133771538734
222.0,307.0,-3.9553,-1.2993,8.8899,-0.0354,0.0095,-0.1214,-2.2942449055113734,-9.889801003737375e-05,4.750007629394531,-1.3405423164367676,0.0020100960973650217,1.88139009475708,5.544164705067434,-0.00024217728059738874,0.22730302810668945,-1.7077882925616663,0.0,-0.004871089477092028,-0.06869823137392217,-0.0,-0.006842519156634808,1.2216408252716064,-0.004445372615009546,-0.009354906156659126
222.0,307.0,-3.9553,-1.2993,8.8899,-0.0354,0.0095,-0.1214,-2.2942897282042445,-0.00010316308180335909,4.770667552947998,-1.3405587673187256,0.0025302511639893055,1.9303112030029297,5.544221150666036,-0.00021344367996789515,0.2243250012397766,-1.7077482382403772,0.0,0.011194763705134392,-0.06863338152040654,-0.0,0.011004162952303886,1.2216129302978516,-0.006832716520875692,-0.008669856935739517
222.0,307.0,-3.9553,-1.2993,8.8899,-0.0354,0.0095,-0.1214,-2.294281145135397,-9.255535405827686e-05,4.737865447998047,-1.3405508995056152,0.0027219997718930244,1.956397533416748,5.544213104038992,-6.699511141050607e-05,0.21694979071617126,-1.7077840010272425,0.0,0.008231722749769688,-0.06861335435976201,-0.0,0.014980180189013481,1.221500277519226,-0.010790731757879257,0.0013394767884165049
222.0,307.0,-3.9553,-1.2993,8.8899,-0.0354,0.0095,-0.1214,-2.294281145135397,-8.661672472953796e-05,4.768728733062744,-1.3405022621154785,0.002749033970758319,1.9220317602157593,5.544184732228079,-0.00010952295997412875,0.215068519115448,-1.7077925840960901,0.0,5.7915516663342714e-05,-0.06869393983949834,-0.0,0.021716566756367683,1.2214566469192505,-0.012219127267599106,0.05595845729112625
222.0,307.0,-3.9553,-1.2993,8.8899,-0.0354,0.0095,-0.1214,-2.2942730389037074,-7.90124322520569e-05,4.7548627853393555,-1.340527057647705,0.0022363648749887943,1.953859806060791,5.544208991318502,-0.0004296083061490208,0.23039907217025757,-1.7077325026141565,0.0,-0.005463548004627228,-0.0686419645892542,-0.0,0.031162060797214508,1.2213971614837646,-0.014437873847782612,0.02744140848517418
222.0,307.0,-3.9553,-1.2993,8.8899,-0.0354,0.0095,-0.1214,-2.294305463830465,-7.464367809006944e-05,4.753692626953125,-1.3404701948165894,0.002059825463220477,1.9317705631256104,5.5441810367401025,-0.000817201507743448,0.2127455472946167,-1.7077840010272425,0.0,-0.001691349083557725,-0.06861383119692022,-0.0,0.029740065336227417,1.221305251121521,-0.01589004509150982,-0.015256304293870926
222.0,307.0,-3.9553,-1.2993,8.8899,-0.0354,0.0095,-0.1214,-2.2942687473692835,-6.892688543302938e-05,4.7679266929626465,-1.340527057647705,0.002510541118681431,1.9768884181976318,5.544164883881368,-0.0015704574761912227,0.20622047781944275,-1.707796875630514,0.0,-0.0006389242480508983,-0.0686424414264124,0.00038615131052210927,0.019585810601711273,1.2211976051330566,-0.018895553424954414,0.01625489443540573
222.0,307.0,-3.9553,-1.2993,8.8899,-0.0354,0.0095,-0.1214,-2.294244428674215,4.109367364435457e-05,4.743196964263916,-1.3404784202575684,0.0029835908208042383,1.9418587684631348,5.544172990113058,-0.001608832972124219,0.19816678762435913,-1.7077201048480433,0.0,-0.013694116845726967,-0.06865436235536748,0.00036548831849358976,0.03967218101024628,1.2211374044418335,-0.0206164363771677,0.008715499192476273
222.0,307.0,-3.9553,-1.2993,8.8899,-0.0354,0.0095,-0.1214,-2.294253011743063,3.730017124325968e-05,4.766681671142578,-1.3404587507247925,0.0039763497188687325,1.9821064472198486,5.544164943486013,-0.0013851238181814551,0.20603959262371063,-1.707740608845846,0.0,-0.008837268687784672,-0.06859428087343389,0.00037908696685917675,0.02665170654654503,1.2209653854370117,-0.021205762401223183,0.03240819275379181
222.0,307.0,-3.9553,-1.2993,8.8899,-0.0354,0.0095,-0.1214,-2.2942291698851527,6.88829823047854e-05,4.768512725830078,-1.3404384851455688,0.005336348433047533,1.9384596347808838,5.544181275158682,-0.0011029805755242705,0.1990782916545868,-1.7077882925616663,0.0,-0.003762719454243779,-0.06858617464174444,0.0004169074818491936,0.04819532111287117,1.2209300994873047,-0.021720053628087044,0.006119418423622847
222.0,307.0,-3.9553,-1.2993,8.8899,-0.0354,0.0095,-0.1214,-2.294229646722311,9.269099246012047e-05,4.799289703369141,-1.340374231338501,0.006916494574397802,1.9779541492462158,5.544172930508413,-0.000913904863409698,0.20832252502441406,-1.707825009022848,0.0,-0.013365644961595535,-0.0686424414264124,0.00047042162623256445,0.023627392947673798,1.2207698822021484,-0.021165385842323303,0.07458385825157166
232.0,328.0,-3.9739,-1.4889,8.7793,-0.0281,0.0318,-0.1494,-2.294237276116842,0.00011224459012737498,4.728509902954102,-1.3403630256652832,0.009384362027049065,2.0658504962921143,5.544168996601858,-0.0008697562734596431,0.19668465852737427,-1.7077606360064905,0.0,-0.019782233983278275,-0.06859809557069951,0.0004680893907789141,0.050584033131599426,1.2206741571426392,-0.019658558070659637,0.00285958219319582
232.0,328.0,-3.9739,-1.4889,8.7793,-0.0281,0.0318,-0.1494,-2.2942697010436,0.00010548232967266813,4.782925605773926,-1.3402701616287231,0.009992387145757675,2.038099765777588,5.544157075672903,-0.0019679730758070946,0.19434253871440887,-1.7077449003802698,0.0,-0.022103458642959595,-0.06858617464174444,0.0005570286302827299,0.03023226372897625,1.220570683479309,-0.018674517050385475,0.02236279845237732
232.0,328.0,-3.9739,-1.4889,8.7793,-0.0281,0.0318,-0.1494,-2.2942449055113734,9.964308992493898e-05,4.787602424621582,-1.3402504920959473,0.01079077273607254,2.035275936126709,5.544072675495901,-0.003366822376847267,0.1958097219467163,-1.7077606360064905,0.0,-0.024875855073332787,-0.0686424414264124,0.0005394290201365948,0.03449626639485359,1.2205110788345337,-0.018121372908353806,0.05812790244817734
232.0,328.0,-3.9739,-1.4889,8.7793,-0.0281,0.0318,-0.1494,-2.2942291698851527,9.441641304874793e-05,4.775185585021973,-1.340226650238037,0.01130923442542553,2.0371456146240234,5.544117021351614,-0.005638709291815758,0.186778262257576,-1.7077119986163538,0.0,-0.027520375326275826,-0.0686262289630335,0.0005251406109891832,0.0506572350859642,1.2204188108444214,-0.018017148599028587,0.0444808229804039
232.0,328.0,-3.9739,-1.4889,8.7793,-0.0281,0.0318,-0.1494,-2.294213434258932,8.752949361223727e-05,4.794869422912598,-1.3401541709899902,0.01146836020052433,2.0276260375976562,5.544081020146169,-0.010250643827021122,0.17425739765167236,-1.7077563444720667,0.0,-0.013144100084900856,-0.06859809557069951,0.0004805346252396703,0.05745121091604233,1.220299243927002,-0.017295291647315025,0.034535687416791916
232.0,328.0,-3.9739,-1.4889,8.7793,-0.0281,0.0318,-0.1494,-2.294237276116842,8.34705206216313e-05,4.7250895500183105,-1.340077519416809,0.012264243327081203,2.0800750255584717,5.544008481293478,-0.011752517893910408,0.19019311666488647,-1.7077811400042933,0.0,-0.03184805065393448,-0.0686424414264124,0.0004472889704629779,0.04981599748134613,1.2202110290527344,-0.01685296930372715,0.04250326752662659
232.0,328.0,-3.9739,-1.4889,8.7793,-0.0281,0.0318,-0.1494,-2.294209142724508,7.804206688888371e-05,4.793357849121094,-1.3400216102600098,0.011269450187683105,2.069258451461792,5.543944644718923,-0.010484162718057632,0.18747581541538239,-1.7077844778644007,0.0,-0.02846112661063671,-0.06855804124941045,0.0004781351890414953,0.056598737835884094,1.2201197147369385,-0.015493255108594894,0.0766962468624115
232.0,328.0,-3.9739,-1.4889,8.7793,-0.0281,0.0318,-0.1494,-2.294241567651266,7.479900523321703e-05,4.7919182777404785,-1.3399370908737183,0.011173960752785206,2.0789291858673096,5.5438924310501,-0.010142895393073559,0.1781182885169983,-1.707740608845846,0.0,-0.0265829935669899,-0.06863004366029912,0.0004627874295692891,0.05690382793545723,1.2200677394866943,-0.014658549800515175,0.05052832141518593
232.0,328.0,-3.9739,-1.4889,8.7793,-0.0281,0.0318,-0.1494,-2.2942053280272425,7.04101548762992e-05,4.805320739746094,-1.339925765991211,0.010581259615719318,2.132232427597046,5.543868768006124,-0.011887401342391968,0.16923481225967407,-1.7077730337726038,0.0,-0.01072853896766901,-0.06857759157289678,0.0003990053664892912,0.05200760066509247,1.2199678421020508,-0.01293276995420456,0.08063013851642609
232.0,328.0,-3.9739,-1.4889,8.7793,-0.0281,0.0318,-0.1494,-2.294277330438131,6.775965448468924e-05,4.780740261077881,-1.3398491144180298,0.010538212023675442,2.1111271381378174,5.543764579087057,-0.014134003780782223,0.15906888246536255,-1.7077367941485804,0.0,-0.026927856728434563,-0.06863004366029912,0.00039101156289689243,0.056978583335876465,1.2199152708053589,-0.011519121937453747,0.05185699462890625
232.0,328.0,-3.9739,-1.4889,8.7793,-0.0281,0.0318,-0.1494,-2.2942172489561976,6.413803930627182e-05,4.789112091064453,-1.3398014307022095,0.010036123916506767,2.1105847358703613,5.543688285141744,-0.013583901338279247,0.16046231985092163,-1.7077606360064905,0.0,-0.02538110874593258,-0.06863862672914678,0.0003735199570655823,0.052634097635746,1.2198920249938965,-0.009121405892074108,0.08892539143562317
232.0,328.0,-3.9739,-1.4889,8.7793,-0.0281,0.0318,-0.1494,-2.294225355187887,6.193132867338136e-05,4.818517684936523,-1.339821696281433,0.009608695283532143,2.109353542327881,5.543664562493124,-0.012470443733036518,0.17421916127204895,-1.7077606360064905,0.0,-0.036374226212501526,-0.06863862672914678,0.0003289966844022274,0.05995139479637146,1.2198801040649414,-0.00788083951920271,0.07413361966609955
232.0,328.0,-3.9739,-1.4889,8.7793,-0.0281,0.0318,-0.1494,-2.2942573032774867,5.8891957451123744e-05,4.776828765869141,-1.339733600616455,0.008830862119793892,2.1031739711761475,5.5436086533363245,-0.009929598309099674,0.15510223805904388,-1.7077491919146937,0.0,-0.02648860588669777,-0.06859809557069951,0.0003242784005124122,0.05350487306714058,1.219820261001587,-0.006289694458246231,0.06894365698099136
232.0,328.0,-3.9739,-1.4889,8.7793,-0.0281,0.0318,-0.1494,-2.294277330438131,5.702625639969483e-05,4.782116413116455,-1.3396854400634766,0.00817519798874855,2.121737480163574,5.5435688374336145,-0.008507822640240192,0.17794263362884521,-1.7077563444720667,0.0,-0.03343169018626213,-0.06859046617616826,0.000314714212436229,0.06329472362995148,1.2198004722595215,-0.005360748618841171,0.10644110292196274
232.0,328.0,-3.9739,-1.4889,8.7793,-0.0281,0.0318,-0.1494,-2.294277330438131,5.4439198720501736e-05,4.780596733093262,-1.3396332263946533,0.007955119013786316,2.0984601974487305,5.543504583626547,-0.0067588333040475845,0.15690234303474426,-1.7077520529376429,0.0,-0.028875701129436493,-0.06863004366029912,0.00029504296253435314,0.06284140050411224,1.219788670539856,-0.003955559805035591,0.02804793231189251
232.0,328.0,-3.9739,-1.4889,8.7793,-0.0281,0.0318,-0.1494,-2.294253488580221,4.015734884887934e-05,4.762182712554932,-1.3396735191345215,0.006944611668586731,2.1550848484039307,5.543444025307455,-0.006104131694883108,0.15913799405097961,-1.7078130880938929,0.0,-0.02237800881266594,-0.06860667863954717,0.0003089789825025946,0.04834217578172684,1.2197362184524536,-0.0031627800781279802,0.09157763421535492
232.0,328.0,-3.9739,-1.4889,8.7793,-0.0281,0.0318,-0.1494,-2.2942854366698207,3.795934753725305e-05,4.794195175170898,-1.3395652770996094,0.0061513022519648075,2.1671533584594727,5.543440568238058,-0.005902139935642481,0.15613073110580444,-1.7077606360064905,0.0,-0.01657785475254059,-0.06854612032045537,0.00035467324778437614,0.05517563223838806,1.2197604179382324,-0.0018673494923859835,0.07222110033035278
232.0,328.0,-3.9739,-1.4889,8.7793,-0.0281,0.0318,-0.1494,-2.294248720208639,3.692120299092494e-05,4.791662693023682,-1.3395776748657227,0.006014578510075808,2.1817684173583984,5.54337244012908,-0.006576388143002987,0.14483428001403809,-1.7077563444720667,0.0,-0.022564541548490524,-0.06857425371278936,0.0006155146402306855,0.04343518614768982,1.2197767496109009,-0.0013444058131426573,0.02388181909918785
224.0,306.0,-4.1821,-1.4812,8.9216,-0.0283,0.036,-0.1092,-2.2942449055113734,3.5466284316498786e-05,4.7603864669799805,-1.3394891023635864,0.006062841508537531,2.1292519569396973,5.543300258904257,-0.009883732534945011,0.13831797242164612,-1.7077811400042933,0.0,-0.031071022152900696,-0.06859094301332647,0.0006418881821446121,0.058492422103881836,1.2197481393814087,-0.000583937275223434,0.07203736901283264
224.0,306.0,-4.1821,-1.4812,8.9216,-0.0283,0.036,-0.1092,-2.294249197045797,3.455841215327382e-05,4.758492946624756,-1.3394969701766968,0.006204336415976286,2.164595603942871,5.543260443001547,-0.01203547976911068,0.12487678229808807,-1.707740608845846,0.0,-0.027411725372076035,-0.06853753725160772,0.0008565586758777499,0.0626424252986908,1.219772219657898,-0.00034608025453053415,0.08314234018325806
224.0,306.0,-4.1821,-1.4812,8.9216,-0.0283,0.036,-0.1092,-2.2942611179747523,3.328052116557956e-05,4.784702301025391,-1.3394207954406738,0.007664309814572334,2.155197858810425,5.5431999442871,-0.014147056266665459,0.14538002014160156,-1.7077520529376429,0.0,-0.02657764032483101,-0.06853038469423467,0.0013134063920006156,0.06017809733748436,1.2197767496109009,-0.00023049047740641981,0.09506820887327194
224.0,306.0,-4.1821,-1.4812,8.9216,-0.0283,0.036,-0.1092,-2.2942453823485316,4.3159401684533805e-05,4.7814459800720215,-1.3394176959991455,0.009342794306576252,2.1589243412017822,5.543184864311971,-0.014645744115114212,0.13534611463546753,-1.7077882925616663,0.0,-0.025388920679688454,-0.06849843660463506,0.0018481762381270528,0.07751335203647614,1.2197644710540771,-0.00019686861196532845,0.1161641925573349
224.0,306.0,-4.1821,-1.4812,8.9216,-0.0283,0.036,-0.1092,-2.2942615948119105,4.228899706504308e-05,4.801596164703369,-1.3394217491149902,0.010172278620302677,2.1944663524627686,5.543101060181417,-0.014887332916259766,0.13284006714820862,-1.7077563444720667,0.0,-0.03445036709308624,-0.06851417223085576,0.0025829742662608624,0.07540986686944962,1.2197965383529663,0.00016439515457022935,0.1054941713809967
224.0,306.0,-4.1821,-1.4812,8.9216,-0.0283,0.036,-0.1092,-2.2942735157408656,4.084949614480138e-05,4.793465614318848,-1.3392324447631836,0.012385453097522259,2.202817440032959,5.542992579727926,-0.013835068792104721,0.12899217009544373,-1.7078130880938929,0.0,-0.042525071650743484,-0.06848651567567998,0.005521769635379314,0.08196151256561279,1.2198046445846558,0.00019480011542327702,0.12662820518016815
224.0,306.0,-4.1821,-1.4812,8.9216,-0.0283,0.036,-0.1092,-2.2942010364928187,3.994303187937476e-05,4.8143486976623535,-1.3392726182937622,0.014119118452072144,2.1838438510894775,5.5429078815277,-0.012464739382266998,0.1290932297706604,-1.7077768484698694,0.0,-0.027289804071187973,-0.06849080721010381,0.00891881063580513,0.07409530133008957,1.2197726964950562,0.00022050898405723274,0.09132860600948334
224.0,306.0,-4.1821,-1.4812,8.9216,-0.0283,0.036,-0.1092,-2.294265409509176,8.28167867616969e-10,4.788962364196777,-1.339132308959961,0.01693062297999859,2.252213954925537,5.54284821727828,-0.009638526476919651,0.11467418074607849,-1.7077482382403772,0.0,-0.04111488163471222,-0.06839448610414678,0.011835247278213501,0.08853396028280258,1.2197964191436768,0.00023864452668931335,0.14114786684513092
224.0,306.0,-4.1821,-1.4812,8.9216,-0.0283,0.036,-0.1092,-2.294253488580221,1.490672955082109e-13,4.820831775665283,-1.3390716314315796,0.018734082579612732,2.206998348236084,5.5428687808807275,-0.007875151932239532,0.11268271505832672,-1.70776874223818,0.0,-0.04787511005997658,-0.0683220068560999,0.010112100280821323,0.09023542702198029,1.219792366027832,0.00021594912686850876,0.13330285251140594
224.0,306.0,-4.1821,-1.4812,8.9216,-0.0283,0.036,-0.1092,-2.294236799279684,3.59979981144522e-19,4.826642036437988,-1.3389557600021362,0.023188283666968346,2.236164093017578,5.542816686421194,-0.00519466120749712,0.1124909445643425,-1.7077730337726038,0.0,-0.046306852251291275,-0.0682747999774378,0.006121209356933832,0.0881589725613594,1.2198169231414795,0.00031587283592671156,0.14258475601673126
224.0,306.0,-4.1821,-1.4812,8.9216,-0.0283,0.036,-0.1092,-2.294277330438131,2.0886833226541057e-05,4.835002899169922,-1.3388837575912476,0.02433807961642742,2.2633328437805176,5.542768466263571,-0.004069462884217501,0.11416718363761902,-1.707775894795553,0.0,-0.04363632947206497,-0.06831580797304326,0.0035064488183707,0.09432241320610046,1.2198244333267212,0.0002770031278487295,0.1536143571138382
224.0,306.0,-4.1821,-1.4812,8.9216,-0.0283,0.036,-0.1092,-2.2943021259703578,2.169304934795946e-05,4.792230129241943,-1.3387278318405151,0.027979515492916107,2.3403260707855225,5.542675959854879,-0.0030005674343556166,0.10917156934738159,-1.7077882925616663,0.0,-0.04761366546154022,-0.06831533113588506,0.0016174414195120335,0.08288787305355072,1.2198004722595215,0.00023381887876894325,0.15482887625694275
224.0,306.0,-4.1821,-1.4812,8.9216,-0.0283,0.036,-0.1092,-2.2942611179747523,2.1182508135098033e-05,4.847342014312744,-1.338578701019287,0.031099122017621994,2.3130998611450195,5.542732465058126,-0.0028678353410214186,0.09513706713914871,-1.70776874223818,0.0,-0.04613916575908661,-0.06829911867250615,0.0008531223284080625,0.09536796808242798,1.2197602987289429,0.00021180554176680744,0.15914928913116455
224.0,306.0,-4.1821,-1.4812,8.9216,-0.0283,0.036,-0.1092,-2.294281145135397,2.046019653789699e-05,4.811107158660889,-1.3383705615997314,0.036710768938064575,2.2798571586608887,5.542696463852682,-0.0030605338979512453,0.10982194542884827,-1.707740608845846,0.0,-0.040631890296936035,-0.06828719774355108,0.0006372170755639672,0.09204922616481781,1.219772219657898,0.0001855970040196553,0.17754840850830078
224.0,306.0,-4.1821,-1.4812,8.9216,-0.0283,0.036,-0.1092,-2.294237276116842,2.0005396436317824e-05,4.819849014282227,-1.3382467031478882,0.039986804127693176,2.2978501319885254,5.542728471546926,-0.0031014131382107735,0.09626433253288269,-1.7077482382403772,0.0,-0.046301938593387604,-0.06829530397524053,0.0006782776908949018,0.08398527652025223,1.219780445098877,0.00017145350284408778,0.12771379947662354
224.0,306.0,-4.1821,-1.4812,8.9216,-0.0283,0.036,-0.1092,-2.294277330438131,1.2153471562470486e-09,4.81732702255249,-1.3379985094070435,0.04611913859844208,2.305823564529419,5.542700576573171,-0.002651062561199069,0.1132027804851532,-1.707796875630514,0.0,-0.04078413546085358,-0.06821090379823858,0.000742684118449688,0.0980476438999176,1.2197726964950562,0.00015386560698971152,0.13656079769134521
224.0,306.0,-4.1821,-1.4812,8.9216,-0.0283,0.036,-0.1092,-2.2942568264403285,2.1875822550990187e-13,4.834599494934082,-1.337744951248169,0.049484092742204666,2.3129916191101074,5.5426602242286584,-0.0022625960409641266,0.10308878123760223,-1.7077325026141565,0.0,-0.05227133631706238,-0.06820708910097295,0.0012020441936329007,0.10199028253555298,1.219800591468811,0.00014401652151718736,0.1542823165655136
224.0,306.0,-4.1821,-1.4812,8.9216,-0.0283,0.036,-0.1092,-2.294209142724508,5.282753309905995e-19,4.816322326660156,-1.3374332189559937,0.054270725697278976,2.34940505027771,5.542692887573995,-0.0016065017553046346,0.10997436940670013,-1.7077325026141565,0.0,-0.04822956770658493,-0.06825572649110967,0.0014491069596260786,0.11274145543575287,1.2198169231414795,0.00013140049122739583,0.17081211507320404
221.0,298.0,-4.2933,-1.2826,9.0682,-0.0698,0.0715,-0.1315,-2.2942611179747523,9.508770317175584e-23,4.840348243713379,-1.3372372388839722,0.056380998343229294,2.316397190093994,5.542648303299703,-0.001400079345330596,0.10694985836744308,-1.7078006903277796,0.0,-0.04616539552807808,-0.06827956834901983,0.001653327839449048,0.09188007563352585,1.2197881937026978,0.0001241499703610316,0.16777147352695465
221.0,298.0,-4.2933,-1.2826,9.0682,-0.0698,0.0715,-0.1315,-2.2942730389037074,2.2962561800375203e-28,4.79844331741333,-1.3368715047836304,0.06125782057642937,2.324929714202881,5.542636382370748,-0.0010933422017842531,0.10805001854896545,-1.707740608845846,0.0,-0.05138564109802246,-0.06823569933046514,0.0018205486703664064,0.10230974853038788,1.2197602987289429,0.00011465995339676738,0.157878115773201
221.0,298.0,-4.2933,-1.2826,9.0682,-0.0698,0.0715,-0.1315,-2.2942897282042445,4.133179784560437e-32,4.78188943862915,-1.3366276025772095,0.06809207051992416,2.369581699371338,5.542660641461172,-0.0009338624076917768,0.09575755894184113,-1.7077439467059534,0.0,-0.057869866490364075,-0.06816274324526006,0.0020960140973329544,0.10712769627571106,1.219792366027832,0.00010910029232036322,0.15273693203926086
221.0,298.0,-4.2933,-1.2826,9.0682,-0.0698,0.0715,-0.1315,-2.2942410908141078,9.981141796762292e-38,4.848996162414551,-1.3361870050430298,0.07363822311162949,2.3879144191741943,5.542583989887991,-0.0007103588432073593,0.10855241864919662,-1.7077801863299769,0.0,-0.058903925120830536,-0.06823951402773076,0.0027186579536646605,0.10946314036846161,1.2197726964950562,0.00010170294990530238,0.14216548204421997
221.0,298.0,-4.2933,-1.2826,9.0682,-0.0698,0.0715,-0.1315,-2.294249197045797,1.796604761110848e-41,4.807764053344727,-1.3358782529830933,0.07878591865301132,2.3994665145874023,5.542628335743704,-0.0007549021393060684,0.1282123625278473,-1.7077840010272425,0.0,-0.03932679072022438,-0.06824762025942022,0.0029418792109936476,0.12504184246063232,1.2197643518447876,8.450232417089865e-05,0.15833249688148499
221.0,298.0,-4.2933,-1.2826,9.0682,-0.0698,0.0715,-0.1315,-2.2942611179747523,2.802596928649634e-45,4.837243556976318,-1.3355457782745361,0.08410068601369858,2.3541252613067627,5.542576181679525,-0.0010046623647212982,0.11049515008926392,-1.7077925840960901,0.0,-0.050222817808389664,-0.06818753877748662,0.003124769777059555,0.11802501231431961,1.2197965383529663,7.461804489139467e-05,0.2049923986196518
221.0,298.0,-4.2933,-1.2826,9.0682,-0.0698,0.0715,-0.1315,-2.294237276116842,0.0,4.821949005126953,-1.334956407546997,0.08980421721935272,2.376920700073242,5.542600381165304,-0.001254804665222764,0.1069541722536087,-1.7078207174884241,0.0,-0.05781498923897743,-0.06823236147035772,0.0032655561808496714,0.11789416521787643,1.2197320461273193,7.024878868833184e-05,0.17784073948860168
221.0,298.0,-4.2933,-1.2826,9.0682,-0.0698,0.0715,-0.1315,-2.2942735157408656,0.0,4.8360676765441895,-1.3345717191696167,0.09301234036684036,2.401587963104248,5.54259221532897,-0.0013377710711210966,0.12072506546974182,-1.7077606360064905,0.0,-0.05737841874361038,-0.06813985506166631,0.0033476853277534246,0.1180284172296524,1.2197562456130981,5.07108197780326e-05,0.16900992393493652
221.0,298.0,-4.2933,-1.2826,9.0682,-0.0698,0.0715,-0.1315,-2.294241567651266,0.0,4.841365814208984,-1.3340387344360352,0.09733619540929794,2.404191732406616,5.542592632561483,-0.0016513130394741893,0.12791310250759125,-1.707796875630514,-4.4275063615373256e-09,-0.05167155712842941,-0.06808787981142217,0.0034664147533476353,0.11844267696142197,1.219744086265564,4.800311216968112e-05,0.1984197497367859
221.0,298.0,-4.2933,-1.2826,9.0682,-0.0698,0.0715,-0.1315,-2.294241567651266,0.0,4.820335388183594,-1.3335891962051392,0.10094127058982849,2.4317994117736816,5.54254429319457,-0.0017919744132086635,0.11522677540779114,-1.7077811400042933,-1.8875151441832827e-11,-0.05102658271789551,-0.06808787981142217,0.003349471837282181,0.11708835512399673,1.2197644710540771,4.635484583559446e-05,0.17887133359909058
221.0,298.0,-4.2933,-1.2826,9.0682,-0.0698,0.0715,-0.1315,-2.294253488580221,0.0,4.874998569488525,-1.3329447507858276,0.1085987314581871,2.439173936843872,5.542568433075704,-0.0017156656831502914,0.1303655356168747,-1.7077882925616663,-5.2539687654489225e-15,-0.051725275814533234,-0.06814414659609014,0.003174287499859929,0.1351824402809143,1.219780445098877,4.408431050251238e-05,0.17155355215072632
221.0,298.0,-4.2933,-1.2826,9.0682,-0.0698,0.0715,-0.1315,-2.2942568264403285,0.0,4.847278594970703,-1.3325201272964478,0.11468647420406342,2.3729114532470703,5.54254840591506,-0.0021360134705901146,0.12090310454368591,-1.7078045050250452,-2.239849257966194e-17,-0.07381097227334976,-0.068031136189596,0.002994799753651023,0.12478840351104736,1.2197563648223877,4.269023338565603e-05,0.21774441003799438
221.0,298.0,-4.2933,-1.2826,9.0682,-0.0698,0.0715,-0.1315,-2.294249197045797,0.0,4.833923816680908,-1.331815242767334,0.12572692334651947,2.4344322681427,5.542475628643789,-0.003113562474027276,0.11942768096923828,-1.7077606360064905,-6.23470221098547e-21,-0.07032191753387451,-0.06808025041689092,0.0023889176081866026,0.12821874022483826,1.2197685241699219,4.075702599948272e-05,0.16579493880271912
221.0,298.0,-4.2933,-1.2826,9.0682,-0.0698,0.0715,-0.1315,-2.294237276116842,0.0,4.862017631530762,-1.3312337398529053,0.13177351653575897,2.440964698791504,5.542520332127371,-0.003351629711687565,0.12229228019714355,-1.7077563444720667,-2.657951015361313e-23,-0.06743815541267395,-0.0680473486529749,0.0020054085180163383,0.12446485459804535,1.2197844982147217,3.956263026339002e-05,0.15149369835853577
221.0,298.0,-4.2933,-1.2826,9.0682,-0.0698,0.0715,-0.1315,-2.2942611179747523,-1.5915253243292682e-05,4.859650135040283,-1.3303956985473633,0.14187286794185638,2.4624650478363037,5.542468297272482,-0.004636927042156458,0.10961452126502991,-1.7077520529376429,-7.398505333310254e-27,-0.04916268587112427,-0.0680320898639124,0.001711575430817902,0.118622325360775,1.2197685241699219,-3.05299399769865e-05,0.21286320686340332
221.0,298.0,-4.2933,-1.2826,9.0682,-0.0698,0.0715,-0.1315,-2.2942730389037074,-1.574563248141203e-05,4.819694519042969,-1.3298311233520508,0.14760002493858337,2.4211008548736572,5.542424011021414,-0.005384762771427631,0.11878674477338791,-1.7077730337726038,-3.154098780115068e-29,-0.06357952207326889,-0.06805974641908819,0.001468153321184218,0.1287161260843277,1.2197563648223877,-3.9262893551494926e-05,0.17891180515289307
221.0,298.0,-4.2933,-1.2826,9.0682,-0.0698,0.0715,-0.1315,-2.29423250774526,-2.9918222935521044e-05,4.829387664794922,-1.3289257287979126,0.1502911001443863,2.4481332302093506,5.542420911579885,-0.006204158999025822,0.1166122555732727,-1.7077520529376429,-8.779550574520733e-33,-0.0583566389977932,-0.06805164018739873,0.0015370695618912578,0.12735682725906372,1.2197768688201904,-4.2231109546264634e-05,0.18374058604240417
221.0,298.0,-4.2933,-1.2826,9.0682,-0.0698,0.0715,-0.1315,-2.2942897282042445,-2.8958291295566596e-05,4.821223258972168,-1.3282999992370605,0.14957310259342194,2.4787182807922363,5.542359757214346,-0.006835061591118574,0.1222556084394455,-1.7077963987933558,-3.7428601087958115e-35,-0.05784773826599121,-0.06799966493715459,0.0014796716859564185,0.12466566264629364,1.2197563648223877,-5.459272870211862e-05,0.16369476914405823
209.0,260.0,-4.2042,-1.73,8.854,-0.1507,0.1266,-0.1504,-2.2942611179747523,-2.7625028451438993e-05,4.847301006317139,-1.3274224996566772,0.1581706404685974,2.450451374053955,5.5423481343086145,-0.007140842266380787,0.10884521156549454,-1.70776874223818,-1.0418389236845258e-38,-0.06451128423213959,-0.06797963777651006,0.001633971929550171,0.12646763026714325,1.219740390777588,-6.0820406361017376e-05,0.14315994083881378
209.0,260.0,-4.2042,-1.73,8.854,-0.1507,0.1266,-0.1504,-2.2942568264403285,-1.3403651792032178e-05,4.866037845611572,-1.3267816305160522,0.16380904614925385,2.497042179107666,5.542336630612173,-0.006505738012492657,0.11942685395479202,-1.7077649275409144,-4.44155561252394e-41,-0.06547845155000687,-0.06799966493715459,0.001915008993819356,0.13374000787734985,1.2197767496109009,-6.343860150082037e-05,0.1723499745130539
209.0,260.0,-4.2042,-1.73,8.854,-0.1507,0.1266,-0.1504,-2.294265409509176,-1.2828143553633709e-05,4.817267417907715,-1.3257238864898682,0.17540298402309418,2.4980101585388184,5.542236017971792,-0.007386547047644854,0.12163785099983215,-1.707808796559469,-1.2611686178923354e-44,-0.06101788580417633,-0.06798822084535772,0.0018719821237027645,0.11962953954935074,1.2197526693344116,-0.00026147643802687526,0.14205770194530487
209.0,260.0,-4.2042,-1.73,8.854,-0.1507,0.1266,-0.1504,-2.2942568264403285,-1.2472592061385512e-05,4.833882808685303,-1.325087308883667,0.18165495991706848,2.526129961013794,5.542216110020437,-0.007790165487676859,0.12014196813106537,-1.7077768484698694,-0.0,-0.05390206724405289,-0.06797582307924444,0.0017326191300526261,0.12174727022647858,1.2197768688201904,-0.00023660676379222423,0.17723101377487183
209.0,260.0,-4.2042,-1.73,8.854,-0.1507,0.1266,-0.1504,-2.294297834435934,-2.255316940136254e-05,4.8652143478393555,-1.323880910873413,0.18665385246276855,2.5367016792297363,5.542168128281393,-0.00869281217455864,0.12460043281316757,-1.7077768484698694,-0.0,-0.05467068776488304,-0.06795961061586553,0.001477084239013493,0.12428497523069382,1.2197284698486328,-0.0002043680433416739,0.17532141506671906
209.0,260.0,-4.2042,-1.73,8.854,-0.1507,0.1266,-0.1504,-2.2942897282042445,-2.332845178898424e-05,4.803450584411621,-1.323119044303894,0.18516306579113007,2.5499298572540283,5.542075502663412,-0.009841187857091427,0.12425637245178223,-1.7077367941485804,-0.0,-0.04726548492908478,-0.06796437898744756,0.001186097040772438,0.12126928567886353,1.2197927236557007,-0.00018734981131274253,0.1767844706773758
209.0,260.0,-4.2042,-1.73,8.854,-0.1507,0.1266,-0.1504,-2.2942730389037074,-2.2739295673090965e-05,4.865802764892578,-1.3223823308944702,0.18981170654296875,2.5603737831115723,5.542047786503591,-0.012479220516979694,0.11255256831645966,-1.7077730337726038,-0.0,-0.05391452834010124,-0.06795627275575811,0.0010855916189029813,0.12546157836914062,1.219740390777588,-0.00017294833378400654,0.18803104758262634
209.0,260.0,-4.2042,-1.73,8.854,-0.1507,0.1266,-0.1504,-2.294314046899313,-2.1908999769948423e-05,4.811352729797363,-1.3212116956710815,0.19554483890533447,2.5103940963745117,5.541919278889456,-0.016720356419682503,0.11502665281295776,-1.707700554524557,-0.0,-0.05046616122126579,-0.06797200838197881,0.0009511345997452736,0.11638268828392029,1.2197767496109009,-0.00015506854106206447,0.14879722893238068
209.0,260.0,-4.2042,-1.73,8.854,-0.1507,0.1266,-0.1504,-2.294253011743063,-2.1388343157013878e-05,4.887233734130859,-1.320426344871521,0.20421439409255981,2.527585506439209,5.541860031872549,-0.021351931616663933,0.12636953592300415,-1.7077201048480433,-0.0,-0.04746897891163826,-0.0680001417743128,0.0008916018414311111,0.1231570839881897,1.2197809219360352,-0.00014507013838738203,0.16242730617523193
209.0,260.0,-4.2042,-1.73,8.854,-0.1507,0.1266,-0.1504,-2.294333597222799,-2.065215267066378e-05,4.8375725746154785,-1.3192250728607178,0.21556155383586884,2.5948123931884766,5.54166733005599,-0.032388653606176376,0.10979534685611725,-1.7077563444720667,-0.0,-0.04923741891980171,-0.06791145006288701,0.0007602269761264324,0.1310909241437912,1.219712495803833,-0.0001587319275131449,0.1886977106332779
209.0,260.0,-4.2042,-1.73,8.854,-0.1507,0.1266,-0.1504,-2.2943011722960414,-3.693081089295447e-05,4.849208354949951,-1.3183141946792603,0.21719001233577728,2.5588183403015137,5.541499244957723,-0.047237329185009,0.09867949783802032,-1.7077129522906702,-0.0,-0.04774415120482445,-0.06793147722353154,0.0006370118935592473,0.11112384498119354,1.2197521924972534,-0.00014991835632827133,0.19195178151130676
209.0,260.0,-4.2042,-1.73,8.854,-0.1507,0.1266,-0.1504,-2.294309278527731,-0.00014092560741119087,4.88370943069458,-1.317008137702942,0.2164696455001831,2.5697169303894043,5.54114710071639,-0.07863298058509827,0.09551292657852173,-1.7077282110797327,-0.0,-0.05438597500324249,-0.06798822084535772,0.0005489819450303912,0.12437878549098969,1.2197685241699219,-0.00016145575500559062,0.1913328766822815
209.0,260.0,-4.2042,-1.73,8.854,-0.1507,0.1266,-0.1504,-2.2943173847594203,-0.00015720030933152884,4.837899208068848,-1.3161425590515137,0.22074051201343536,2.5925211906433105,5.5407625315483,-0.10570622235536575,0.0937335193157196,-1.7077129522906702,-0.0,-0.04655453562736511,-0.06799632707704717,0.0005317170289345086,0.11877700686454773,1.219752550125122,-0.00015358501696027815,0.18890051543712616
209.0,260.0,-4.2042,-1.73,8.854,-0.1507,0.1266,-0.1504,-2.294333120385641,-0.0001463438820792362,4.819126129150391,-1.314885139465332,0.22781042754650116,2.603303909301758,5.539929795056143,-0.1429968774318695,0.06031835079193115,-1.7077644507037562,-0.0,-0.05162666738033295,-0.06791907945741826,0.00039764007669873536,0.11966535449028015,1.219724416732788,-0.00014311795530375093,0.19874894618988037
209.0,260.0,-4.2042,-1.73,8.854,-0.1507,0.1266,-0.1504,-2.294333120385641,-0.00015955099661368877,4.868504524230957,-1.313938856124878,0.2316773682832718,2.5976336002349854,5.53934936502532,-0.1596141904592514,0.047283418476581573,-1.7077119986163538,-0.0,-0.03906455636024475,-0.06796771684755498,0.000334392098011449,0.11459580063819885,1.219752550125122,-0.00013689811748918146,0.18309611082077026
209.0,260.0,-4.2042,-1.73,8.854,-0.1507,0.1266,-0.1504,-2.2943207226195277,-0.0005349479033611715,4.882533550262451,-1.3125572204589844,0.2306983470916748,2.5284152030944824,5.538344907551565,-0.1718941181898117,0.04983004555106163,-1.7077449003802698,-0.0,-0.05801673233509064,-0.06793147722353154,0.0003278035728726536,0.11535795032978058,1.219805121421814,-0.00012851995415985584,0.15767118334770203
209.0,260.0,-4.2042,-1.73,8.854,-0.1507,0.1266,-0.1504,-2.2942968807616175,-0.0014249744126573205,4.878026008605957,-1.3115500211715698,0.2303185760974884,2.5614383220672607,5.537644672184744,-0.18330948054790497,0.037028998136520386,-1.7077325026141565,-0.0,-0.0610155314207077,-0.06797582307924444,0.000339535647071898,0.11410769820213318,1.2198210954666138,-0.0001234819646924734,0.2052440345287323
