ramyac6/ROB537/final_project/csv/all/bad_170.csv
tof_0,tof_1,accelx,accely,accelz,gyrox,gyroy,gyroz,shoulder_lift_joint_position,shoulder_lift_joint_velocity,shoulder_lift_joint_effort,elbow_joint_position,elbow_joint_velocity,elbow_joint_effort,wrist_1_joint_position,wrist_1_joint_velocity,wrist_1_joint_effort,wrist_2_joint_position,wrist_2_joint_velocity,wrist_2_joint_effort,wrist_3_joint_position,wrist_3_joint_velocity,wrist_3_joint_effort,shoulder_pan_joint_position,shoulder_pan_joint_velocity,shoulder_pan_joint_effort
982.0,919.0,1.7509,0.1795,9.323,-0.0327,0.0226,-0.1138,-1.6847826443114222,0.0,2.407907485961914,-2.0346643924713135,-0.0,1.879340410232544,5.031301605492391,0.0,0.31111764907836914,-1.6079052130328577,0.0,-0.0024207013193517923,0.8364906311035156,-0.0,-0.014584260061383247,0.7732905745506287,0.0,0.004044506698846817
982.0,919.0,1.7509,0.1795,9.323,-0.0327,0.0226,-0.1138,-1.6847988567748011,0.0,2.323864459991455,-2.034644365310669,-0.0,1.8708713054656982,5.031354415207662,0.0,0.28341707587242126,-1.6079219023333948,0.0,-0.021256819367408752,0.836514949798584,-0.0,-0.000917556113563478,0.7733144760131836,0.0,0.008758040145039558
982.0,919.0,1.7509,0.1795,9.323,-0.0327,0.0226,-0.1138,-1.6847826443114222,0.0,2.393773078918457,-2.0346484184265137,-0.0,1.8618865013122559,5.03131793716506,0.0,0.29093876481056213,-1.6079219023333948,0.0,-0.01439525093883276,0.8365591168403625,-0.0,-0.0058196415193378925,0.7732665538787842,0.0,0.028467932716012
982.0,919.0,1.7509,0.1795,9.323,-0.0327,0.0226,-0.1138,-1.6847707233824671,0.0,2.386535167694092,-2.034672260284424,-0.0,1.9377076625823975,5.031305777817526,0.0,0.2924323081970215,-1.6079333464251917,0.0,-0.014533739537000656,0.8364944458007812,-0.0,-0.009357796981930733,0.773266613483429,0.0,-0.033367905765771866
982.0,919.0,1.7509,0.1795,9.323,-0.0327,0.0226,-0.1138,-1.684786935845846,0.0,2.3537678718566895,-2.034712076187134,-0.0,1.8517799377441406,5.0313137648399255,0.0,0.2940516471862793,-1.6079376379596155,0.0,0.006227131001651287,0.8365390300750732,-0.0,0.003978296183049679,0.7732706069946289,0.0,0.003344411263242364
982.0,919.0,1.7509,0.1795,9.323,-0.0327,0.0226,-0.1138,-1.6847988567748011,0.0,2.379617691040039,-2.0346760749816895,-0.0,1.911820411682129,5.031346100359716,0.0,0.2972184717655182,-1.6079333464251917,0.0,0.0026082322001457214,0.8365148901939392,-0.0,0.00397039670497179,0.7732945680618286,0.0,0.011448388919234276
982.0,919.0,1.7509,0.1795,9.323,-0.0327,0.0226,-0.1138,-1.684786935845846,0.0,2.379375457763672,-2.034668445587158,-0.0,1.9134352207183838,5.031334268837728,0.0,0.30502068996429443,-1.6078851858722132,0.0,-0.010929676704108715,0.8364666104316711,-0.0,-0.0038942566607147455,0.773282527923584,0.0,0.023702599108219147
982.0,919.0,1.7509,0.1795,9.323,-0.0327,0.0226,-0.1138,-1.6848145924010218,0.0,2.3959856033325195,-2.0346484184265137,-0.0,1.8568124771118164,5.03133841136054,0.0,0.28266456723213196,-1.6078932921039026,0.0,-0.00014769291738048196,0.8365390300750732,-0.0,-0.00020569050684571266,0.7732464671134949,0.0,-0.05972927436232567
995.0,960.0,1.7342,0.1687,9.414,-0.0373,0.0246,-0.111,-1.6847382984557093,0.0,2.37392520904541,-2.034660816192627,-0.0,1.872233271598816,5.0312974629695795,0.0,0.2998363971710205,-1.6079376379596155,0.0,-0.0017630436923354864,0.8364907503128052,-0.0,-0.009954100474715233,0.7732784748077393,0.0,-0.0009786197915673256
995.0,960.0,1.7342,0.1687,9.414,-0.0373,0.0246,-0.111,-1.6847707233824671,0.0,2.3911030292510986,-2.0346524715423584,-0.0,1.8684128522872925,5.031301605492391,0.0,0.28884464502334595,-1.6079333464251917,0.0,-0.003436280880123377,0.8365309238433838,-0.0,-0.0065689398907125,0.773322582244873,0.0,-0.006212397012859583
995.0,960.0,1.7342,0.1687,9.414,-0.0373,0.0246,-0.111,-1.6847545109190882,0.0,2.3830082416534424,-2.0346570014953613,-0.0,1.8819036483764648,5.03131793716506,0.0,0.2900153398513794,-1.607901398335592,0.0,-0.0065005989745259285,0.836547315120697,-0.0,-0.0044541810639202595,0.773282527923584,0.0,0.02081524021923542
995.0,960.0,1.7342,0.1687,9.414,-0.0373,0.0246,-0.111,-1.6847945652403773,0.0,2.3656222820281982,-2.0346240997314453,-0.0,1.8801906108856201,5.0313704190547845,0.0,0.28874126076698303,-1.6079300085650843,0.0,0.0037911823019385338,0.8365309238433838,-0.0,-0.008075397461652756,0.7732905745506287,0.0,-0.02713819034397602
995.0,960.0,1.7342,0.1687,9.414,-0.0373,0.0246,-0.111,-1.684775014916891,0.0,2.3448970317840576,-2.0346405506134033,-0.0,1.928602933883667,5.031334268837728,0.0,0.2962988018989563,-1.607901398335592,0.0,0.00508161261677742,0.8365431427955627,-0.0,-0.015477122738957405,0.7732585668563843,0.0,-0.002893294906243682
995.0,960.0,1.7342,0.1687,9.414,-0.0373,0.0246,-0.111,-1.6847902737059535,0.0,2.3945748805999756,-2.034691572189331,-0.0,1.9281620979309082,5.0313137648399255,0.0,0.303152471780777,-1.6079137961017054,0.0,-0.01127751637250185,0.8365550637245178,-0.0,-0.0037673157639801502,0.7733067274093628,0.0,-0.027342215180397034
995.0,960.0,1.7342,0.1687,9.414,-0.0373,0.0246,-0.111,-1.6847826443114222,0.0,2.3772082328796387,-2.03462815284729,-0.0,1.8555376529693604,5.031318086176672,0.0,0.2879451513290405,-1.6079333464251917,0.0,0.0008312300778925419,0.8365550637245178,-0.0,-0.007470797747373581,0.7732706069946289,0.0,0.02471926063299179
995.0,960.0,1.7342,0.1687,9.414,-0.0373,0.0246,-0.111,-1.6848069630064906,0.0,2.396242618560791,-2.034660816192627,-0.0,1.8989219665527344,5.031305777817526,0.0,0.2902013659477234,-1.607917610798971,0.0,-0.009389206767082214,0.83649080991745,-0.0,1.3487486285157502e-05,0.773266613483429,0.0,-0.01751467026770115
995.0,960.0,1.7342,0.1687,9.414,-0.0373,0.0246,-0.111,-1.6847826443114222,0.0,2.392436981201172,-2.034708023071289,-0.0,1.88453209400177,5.03131394365386,0.0,0.2860010266304016,-1.6079137961017054,0.0,-0.014235367998480797,0.8365468978881836,-0.0,-0.012625756673514843,0.7732784748077393,0.0,0.002834577113389969
995.0,960.0,1.7342,0.1687,9.414,-0.0373,0.0246,-0.111,-1.6847826443114222,0.0,2.383185625076294,-2.0346877574920654,-0.0,1.8871386051177979,5.031285601645269,0.0,0.30279332399368286,-1.6078928152667444,0.0,-0.0060280365869402885,0.8365148901939392,-0.0,-0.0030491212382912636,0.7732787132263184,0.0,0.006421323865652084
995.0,960.0,1.7342,0.1687,9.414,-0.0373,0.0246,-0.111,-1.6847506962218226,0.0,2.3145291805267334,-2.0346837043762207,-0.0,1.8945608139038086,5.031322109490194,0.0,0.29836317896842957,-1.6079137961017054,0.0,0.005061591975390911,0.8365631699562073,-0.0,0.0043604737147688866,0.7732505202293396,0.0,0.0066075571812689304
995.0,960.0,1.7342,0.1687,9.414,-0.0373,0.0246,-0.111,-1.6847664318480433,0.0,2.34466552734375,-2.0346837043762207,-0.0,1.8360342979431152,5.031281459122457,0.0,0.2983386516571045,-1.607901398335592,0.0,0.00787398312240839,0.8364989757537842,-0.0,0.0036416305229067802,0.7732986211776733,0.0,0.01850472390651703
995.0,960.0,1.7342,0.1687,9.414,-0.0373,0.0246,-0.111,-1.6848026714720667,0.0,2.402279853820801,-2.0346529483795166,-0.0,1.8953304290771484,5.031281459122457,0.0,0.292892724275589,-1.607873264943258,0.0,0.010320737957954407,0.8364907503128052,-0.0,-0.007920436561107635,0.773282527923584,0.0,0.008103065192699432
995.0,960.0,1.7342,0.1687,9.414,-0.0373,0.0246,-0.111,-1.684786935845846,0.0,2.381896495819092,-2.0346484184265137,-0.0,1.8762354850769043,5.031301545887747,0.0,0.29082387685775757,-1.6079052130328577,0.0,-0.001354992389678955,0.836555004119873,-0.0,-0.004572354257106781,0.7733104825019836,0.0,-0.00044686259934678674
995.0,960.0,1.7342,0.1687,9.414,-0.0373,0.0246,-0.111,-1.6847626171507777,0.0,2.4066038131713867,-2.0346567630767822,-0.0,1.8625941276550293,5.0313137648399255,0.0,0.29572319984436035,-1.6079538504229944,0.0,-0.009031016379594803,0.8365267515182495,-0.0,-0.0010013383580371737,0.773282527923584,0.0,0.020821956917643547
965.0,951.0,1.7527,0.4373,9.201,-0.0195,0.0328,-0.1405,-1.6848064861693324,0.0,2.3999853134155273,-2.034648895263672,-0.0,1.8794193267822266,5.03133841136054,0.0,0.30838149785995483,-1.6079376379596155,0.0,0.007612786255776882,0.8365509510040283,-0.0,0.00885575171560049,0.7732706069946289,0.0,-0.02953474409878254
965.0,951.0,1.7527,0.4373,9.201,-0.0195,0.0328,-0.1405,-1.6847506962218226,0.0,2.365896701812744,-2.0346763134002686,-0.0,1.8815914392471313,5.0312897739704034,0.0,0.2902524173259735,-1.6079290548907679,0.0,-0.0040175896137952805,0.8365190029144287,-0.0,0.0016430667601525784,0.773282527923584,0.0,0.02303464338183403
965.0,951.0,1.7527,0.4373,9.201,-0.0195,0.0328,-0.1405,-1.6847545109190882,0.0,2.4098501205444336,-2.034672260284424,-0.0,1.8795207738876343,5.031342494278707,0.0,0.2827566862106323,-1.6079619566546839,0.0,-0.00768637377768755,0.8365190029144287,-0.0,-0.004719652235507965,0.7732784748077393,0.0,-0.01818987727165222
965.0,951.0,1.7527,0.4373,9.201,-0.0195,0.0328,-0.1405,-1.6847297153868617,0.0,2.3896589279174805,-2.0346240997314453,-0.0,1.9172271490097046,5.031350242882528,0.0,0.28226611018180847,-1.6079137961017054,0.0,-0.00430853758007288,0.8365431427955627,-0.0,0.0009608021937310696,0.7733026146888733,0.0,0.00861801952123642
965.0,951.0,1.7527,0.4373,9.201,-0.0195,0.0328,-0.1405,-1.6847664318480433,0.0,2.3530564308166504,-2.0346570014953613,-0.0,1.937824010848999,5.031326013594427,0.0,0.2859961986541748,-1.6079538504229944,0.0,-0.013728316873311996,0.8364866375923157,-0.0,-0.008868927136063576,0.7732945680618286,0.0,0.005193144083023071
965.0,951.0,1.7527,0.4373,9.201,-0.0195,0.0328,-0.1405,-1.6847945652403773,0.0,2.39633846282959,-2.034680128097534,-0.0,1.8428304195404053,5.03131793716506,0.0,0.2859562337398529,-1.607945744191305,0.0,0.00566924549639225,0.8364866375923157,-0.0,0.006455730646848679,0.7732784748077393,0.0,-0.025892674922943115
965.0,951.0,1.7527,0.4373,9.201,-0.0195,0.0328,-0.1405,-1.6847506962218226,0.0,2.360053539276123,-2.0346760749816895,-0.0,1.8598411083221436,5.031322109490194,0.0,0.2973775267601013,-1.6079261938678187,0.0,-0.01662549376487732,0.8365468978881836,-0.0,-0.0070874555967748165,0.7733064889907837,0.0,0.019998280331492424
965.0,951.0,1.7527,0.4373,9.201,-0.0195,0.0328,-0.1405,-1.6847425899901332,0.0,2.389366388320923,-2.0346837043762207,-0.0,1.8554728031158447,5.031305777817526,0.0,0.29328134655952454,-1.6079095045672815,0.0,-0.004668383859097958,0.8365148901939392,-0.0,-0.008393862284719944,0.7732945680618286,0.0,-0.03838625177741051
965.0,951.0,1.7527,0.4373,9.201,-0.0195,0.0328,-0.1405,-1.6847826443114222,0.0,2.3573102951049805,-2.0346837043762207,-0.0,1.8703179359436035,5.0313137648399255,0.0,0.27883589267730713,-1.6079500357257288,0.0,-0.005276871379464865,0.8364947438240051,-0.0,0.0003583887591958046,0.7733064889907837,0.0,-0.03372419625520706
965.0,951.0,1.7527,0.4373,9.201,-0.0195,0.0328,-0.1405,-1.6848231754698695,0.0,2.3714754581451416,-2.034680128097534,-0.0,1.8669545650482178,5.03133841136054,0.0,0.2919098436832428,-1.6079095045672815,0.0,-0.012051858939230442,0.8365029692649841,-0.0,-0.008608344942331314,0.7733104825019836,0.0,0.009421136230230331
965.0,951.0,1.7527,0.4373,9.201,-0.0195,0.0328,-0.1405,-1.6848069630064906,0.0,2.381187915802002,-2.034668207168579,-0.0,1.9375104904174805,5.031350242882528,0.0,0.2935163080692291,-1.607877556477682,0.0,-0.0005408711149357259,0.8365427255630493,-0.0,-0.004153365269303322,0.7732986211776733,0.0,0.03359154611825943
965.0,951.0,1.7527,0.4373,9.201,-0.0195,0.0328,-0.1405,-1.6847826443114222,0.0,2.3993537425994873,-2.0347001552581787,-0.0,1.9013488292694092,5.031301605492391,0.0,0.2956138253211975,-1.607901398335592,0.0,0.0024254643358290195,0.8365468978881836,-0.0,0.00792989693582058,0.7732985615730286,0.0,0.005846617743372917
965.0,951.0,1.7527,0.4373,9.201,-0.0195,0.0328,-0.1405,-1.684786935845846,0.0,2.397958278656006,-2.0346529483795166,-0.0,1.8416109085083008,5.031386393099584,0.0,0.2955707013607025,-1.6079414526568812,0.0,-0.012046825140714645,0.8365431427955627,-0.0,-0.0042471932247281075,0.7733185291290283,0.0,0.015038397163152695
965.0,951.0,1.7527,0.4373,9.201,-0.0195,0.0328,-0.1405,-1.6847669086852015,0.0,2.36159348487854,-2.0346319675445557,-0.0,1.8815975189208984,5.031350242882528,0.0,0.2846103012561798,-1.6079052130328577,0.0,0.00047209206968545914,0.8365755081176758,-0.0,0.0015730406157672405,0.7732663750648499,6.247663259273395e-05,0.026597917079925537
965.0,951.0,1.7527,0.4373,9.201,-0.0195,0.0328,-0.1405,-1.684775014916891,0.0,2.37666916847229,-2.0346405506134033,-0.0,1.9241673946380615,5.031309711724081,0.0,0.29182732105255127,-1.6079300085650843,0.0,-0.008541752584278584,0.8364907503128052,-0.0,-0.002855145838111639,0.7732986211776733,5.658485315507278e-05,0.02009468525648117
993.0,948.0,1.9005,0.4798,9.5139,-0.0194,-0.0003,-0.1379,-1.684770246545309,0.0,2.351539134979248,-2.0346367359161377,-0.0,1.8460583686828613,5.031326043396749,0.0,0.30267688632011414,-1.6079261938678187,0.0,-0.00024970690719783306,0.8364666700363159,-0.0,-0.01519543956965208,0.7732746601104736,5.1708208047784865e-05,-0.02039417251944542
993.0,948.0,1.9005,0.4798,9.5139,-0.0194,-0.0003,-0.1379,-1.6847826443114222,0.0,2.398348093032837,-2.034660816192627,-0.0,1.8661084175109863,5.03131793716506,0.0,0.278872013092041,-1.6079095045672815,0.0,-0.002347768982872367,0.8365230560302734,-0.0,0.013381054624915123,0.7732986211776733,4.76055865874514e-05,-0.006520684342831373
993.0,948.0,1.9005,0.4798,9.5139,-0.0194,-0.0003,-0.1379,-1.6847826443114222,0.0,2.397225856781006,-2.0347001552581787,-0.0,1.8498797416687012,5.0312897739704034,0.0,0.2975577712059021,-1.6079333464251917,0.0,-0.015373917296528816,0.8364707231521606,-0.0,0.00651679327711463,0.773282527923584,4.410604014992714e-05,0.03878520429134369
993.0,948.0,1.9005,0.4798,9.5139,-0.0194,-0.0003,-0.1379,-1.6847945652403773,0.0,2.375981330871582,-2.034668207168579,-0.0,1.8782495260238647,5.031330096512594,0.0,0.2872200012207031,-1.6078932921039026,0.0,0.0023211180232465267,0.8365070819854736,-0.0,-0.0011438762303441763,0.7732344269752502,4.108586654183455e-05,0.031215762719511986
993.0,948.0,1.9005,0.4798,9.5139,-0.0194,-0.0003,-0.1379,-1.6847988567748011,0.0,2.3683342933654785,-2.034679651260376,-0.0,1.9036253690719604,5.0313137648399255,0.0,0.2989739775657654,-1.6079261938678187,0.0,0.0007515267934650183,0.8365390300750732,-0.0,0.0016996614867821336,0.7732784748077393,3.8452737499028444e-05,-0.03534937649965286
993.0,948.0,1.9005,0.4798,9.5139,-0.0194,-0.0003,-0.1379,-1.684775014916891,0.0,2.34975528717041,-2.0347044467926025,-0.0,1.9126083850860596,5.031326013594427,2.310564517493674e-10,0.29331326484680176,-1.6079095045672815,0.0,-0.004555059131234884,0.8364826440811157,-0.0,-0.0047987280413508415,0.7732505202293396,1.7955206203623675e-05,0.009187638759613037
993.0,948.0,1.9005,0.4798,9.5139,-0.0194,-0.0003,-0.1379,-1.684786935845846,0.0,2.390869140625,-2.0347163677215576,-0.0014109351905062795,1.894372820854187,5.031330096512594,6.431540819666279e-14,0.30392515659332275,-1.6079052130328577,0.0,0.002194192260503769,0.8365070819854736,-0.0,-0.010355867445468903,0.7732585668563843,3.6627648136722257e-10,-0.0035928385332226753
993.0,948.0,1.9005,0.4798,9.5139,-0.0194,-0.0003,-0.1379,-1.6847945652403773,0.0,2.3597207069396973,-2.034719944000244,-0.0009771321201696992,1.8510143756866455,5.0313704190547845,1.7902431769468763e-17,0.29947754740715027,-1.607917610798971,0.0,-0.0024109790101647377,0.8365309238433838,-0.0,-0.00476837856695056,0.773234486579895,8.84514631626336e-16,0.03391758352518082
993.0,948.0,1.9005,0.4798,9.5139,-0.0194,-0.0003,-0.1379,-1.684786935845846,0.0,2.3825745582580566,-2.0347647666931152,-0.00012558928574435413,1.8710646629333496,5.031326043396749,4.9832082364514996e-21,0.2933506965637207,-1.6079300085650843,0.0,-0.0015734696062281728,0.8365427255630493,-0.0,0.005594408139586449,0.7732505202293396,-0.0009041182929649949,-0.012552564963698387
993.0,948.0,1.9005,0.4798,9.5139,-0.0194,-0.0003,-0.1379,-1.684758802453512,0.0,2.3995614051818848,-2.0347163677215576,-5.428800164963832e-08,1.9393084049224854,5.031322109490194,1.3870945587714976e-24,0.27949658036231995,-1.6078813711749476,0.0,0.0016690143384039402,0.8364866971969604,-0.0,0.001193227362819016,0.7732786536216736,-0.0006017834530211985,-0.006678969599306583
993.0,948.0,1.9005,0.4798,9.5139,-0.0194,-0.0003,-0.1379,-1.684742113152975,0.0,2.403630256652832,-2.0346922874450684,-1.3109913816426039e-13,1.8832179307937622,5.031309711724081,3.861028037533484e-28,0.30130741000175476,-1.6079137961017054,0.0,0.004624331369996071,0.8365349769592285,-0.0,-0.0007626987062394619,0.7733025550842285,-0.0003759237879421562,-0.018740052357316017
993.0,948.0,1.9005,0.4798,9.5139,-0.0194,-0.0003,-0.1379,-1.684786935845846,0.0,2.385000228881836,-2.0346882343292236,-3.165889813421341e-19,1.8840124607086182,5.031326013594427,8.639793668407947e-05,0.2968595027923584,-1.607934300099508,0.0,-0.0055014160461723804,0.8365472555160522,-0.0,-0.006758769508451223,0.7732384204864502,-0.0003004895697813481,-0.025746721774339676
993.0,948.0,1.9005,0.4798,9.5139,-0.0194,-0.0003,-0.1379,-1.6847583256163539,0.0,2.365605354309082,-2.034679651260376,-7.645251872444291e-25,1.8865125179290771,5.031305748015203,7.567800639662892e-05,0.29463884234428406,-1.6079018751727503,0.0,0.008797682821750641,0.8365468978881836,-0.0,-0.008877551183104515,0.7733066082000732,-0.00020232575479894876,-0.048067059367895126
993.0,948.0,1.9005,0.4798,9.5139,-0.0194,-0.0003,-0.1379,-1.6847788296141566,0.0,2.357391119003296,-2.0347204208374023,-1.8462381982489455e-30,1.9014374017715454,5.03126539567069,6.72002715873532e-05,0.29153352975845337,-1.6079500357257288,0.0,-0.011572780087590218,0.8365468978881836,-0.0,-0.0036680842749774456,0.7733066082000732,-0.00013046993990428746,-0.039610184729099274
993.0,948.0,1.9005,0.4798,9.5139,-0.0194,-0.0003,-0.1379,-1.6848026714720667,0.0,2.3727798461914062,-2.0346121788024902,-4.4584483215633144e-36,1.9094808101654053,5.031322109490194,9.062836761586368e-05,0.28664910793304443,-1.6078932921039026,0.0,-0.0033766189590096474,0.8365472555160522,-0.0,0.0006009772187098861,0.7732945680618286,8.820863149594516e-05,-0.0023468718864023685
995.0,945.0,2.0812,0.2572,9.3488,-0.0327,-0.0041,-0.1127,-1.6848145924010218,0.0,2.3124794960021973,-2.0346760749816895,-1.076617610140757e-41,1.8651340007781982,5.031330066710272,8.23513837531209e-05,0.30141448974609375,-1.6078451315509241,0.0,0.006833161227405071,0.8364948034286499,-0.0,0.002291272161528468,0.7732585072517395,0.0001157335500465706,0.03427094966173172
995.0,945.0,2.0812,0.2572,9.3488,-0.0327,-0.0041,-0.1127,-1.6847664318480433,0.0,2.3647165298461914,-2.0346643924713135,-0.0,1.8938510417938232,5.031326192408361,7.544724212493747e-05,0.3003779649734497,-1.607945744191305,0.0,-0.018673602491617203,0.8365468978881836,-0.0,-0.007608314510434866,0.7732344269752502,0.00010254803055431694,0.008581951260566711
995.0,945.0,2.0812,0.2572,9.3488,-0.0327,-0.0041,-0.1127,-1.6847707233824671,0.0,2.3621597290039062,-2.0347204208374023,-0.0,1.84757661819458,5.031293380051412,-2.950935777334962e-05,0.2908642888069153,-1.6079300085650843,0.0,0.004212426953017712,0.8365427255630493,-0.0,-0.005043556913733482,0.7732905745506287,9.205847163684666e-05,-0.005649285856634378
995.0,945.0,2.0812,0.2572,9.3488,-0.0327,-0.0041,-0.1127,-1.684786935845846,0.0,2.4211935997009277,-2.034672260284424,-0.0,1.9027304649353027,5.031305777817526,-3.889768777298741e-05,0.3053598403930664,-1.6079133192645472,0.0,-0.014062207192182541,0.8365468978881836,-0.0,-0.002467953134328127,0.7732986211776733,0.00011133844964206219,-0.042510025203228
995.0,945.0,2.0812,0.2572,9.3488,-0.0327,-0.0041,-0.1127,-1.6847745380797328,0.0,2.3653693199157715,-2.034636974334717,-0.0,1.9181859493255615,5.031342494278707,-6.856016989331692e-05,0.2950180172920227,-1.6079333464251917,0.0,-0.001787157030776143,0.8365309238433838,-0.0,-0.0025556995533406734,0.7732905745506287,0.0001273712987313047,-0.020645402371883392
995.0,945.0,2.0812,0.2572,9.3488,-0.0327,-0.0041,-0.1127,-1.6848303280272425,0.0,2.370187759399414,-2.034735918045044,-0.0,1.891751766204834,5.031293827086248,-9.259607031708583e-05,0.30207961797714233,-1.6078975836383265,0.0,-0.021794185042381287,0.8365832567214966,-0.0,0.0023873448371887207,0.7732744812965393,0.00026024715043604374,-0.01963955909013748
995.0,945.0,2.0812,0.2572,9.3488,-0.0327,-0.0041,-0.1127,-1.6847902737059535,0.0,2.3709869384765625,-2.0347204208374023,-0.0,1.9208152294158936,5.03131394365386,-8.401674858760089e-05,0.2961238920688629,-1.6079052130328577,0.0,-0.006655513774603605,0.8364907503128052,-0.0,-0.0063475994393229485,0.7732744812965393,0.0002394081384409219,0.018673155456781387
995.0,945.0,2.0812,0.2572,9.3488,-0.0327,-0.0041,-0.1127,-1.6848184070982875,0.0,2.375763177871704,-2.0346405506134033,-0.0,1.9000439643859863,5.031257468252935,-7.684273441554978e-05,0.2861766815185547,-1.607889477406637,0.0,9.245402179658413e-05,0.8365591168403625,-0.0,0.006328224204480648,0.7733026146888733,0.00021130235109012574,-0.02402748540043831
995.0,945.0,2.0812,0.2572,9.3488,-0.0327,-0.0041,-0.1127,-1.684770246545309,-0.00038075874908827245,2.3557512760162354,-2.0346877574920654,-0.0,1.8876075744628906,5.031253236323156,-7.079746865201741e-05,0.29632094502449036,-1.6079052130328577,0.0,-0.00026486534625291824,0.8365350365638733,-0.0,-0.000400323246140033,0.7732905745506287,0.00018910256039816886,-0.021859467029571533
995.0,945.0,2.0812,0.2572,9.3488,-0.0327,-0.0041,-0.1127,-1.6847859821715296,-0.000316094869049266,2.364166498184204,-2.034648895263672,-0.0,1.8890554904937744,5.031301635294714,-6.563410715898499e-05,0.3010913133621216,-1.6079261938678187,0.0,-0.0021434538066387177,0.8365509510040283,-0.0,0.0018486492335796356,0.7733225226402283,0.00019962915393989533,0.015015769749879837
995.0,945.0,2.0812,0.2572,9.3488,-0.0327,-0.0041,-0.1127,-1.684798379937643,-0.000268872594460845,2.3771960735321045,-2.034708023071289,-0.0,1.906267762184143,5.031277853041448,-6.117284647189081e-05,0.29731228947639465,-1.6079095045672815,0.0,-0.004772577900439501,0.836539089679718,-0.0,-0.017582882195711136,0.7733266949653625,0.00018231244757771492,-0.011348672211170197
995.0,945.0,2.0812,0.2572,9.3488,-0.0327,-0.0041,-0.1127,-1.6848064861693324,-0.0002242134214611724,2.3478147983551025,-2.0347039699554443,-0.0,1.8298816680908203,5.0313221392925165,-5.6089436839101836e-05,0.300708532333374,-1.6079538504229944,0.0,-0.016783906146883965,0.8365070819854736,-0.0,0.0022341746371239424,0.7732905745506287,8.630820957478136e-05,-0.032761503010988235
995.0,945.0,2.0812,0.2572,9.3488,-0.0327,-0.0041,-0.1127,-1.6847902737059535,-0.0001661476562730968,2.38794207572937,-2.0346920490264893,-0.0,1.914581298828125,5.031358527928152,-5.279883407638408e-05,0.29201987385749817,-1.6079095045672815,0.0,-0.002925452310591936,0.8365591168403625,-0.0,0.00017354986630380154,0.7733064889907837,7.518055645050481e-05,0.011640114709734917
995.0,945.0,2.0812,0.2572,9.3488,-0.0327,-0.0041,-0.1127,-1.6847902737059535,-0.00014957909297663718,2.3647711277008057,-2.0347204208374023,-0.0,1.9014065265655518,5.031301605492391,-5.1562739827204496e-05,0.29819589853286743,-1.607901398335592,0.0,-0.007950438186526299,0.8365390300750732,-0.0,-0.008028951473534107,0.7732465267181396,6.68089633109048e-05,0.022090068086981773
995.0,945.0,2.0812,0.2572,9.3488,-0.0327,-0.0041,-0.1127,-1.6847745380797328,-0.00013601529644802213,2.4189302921295166,-2.034679651260376,-0.0,1.8215819597244263,5.031342494278707,-4.774202898261137e-05,0.2987425923347473,-1.607917610798971,0.0,0.0034225289709866047,0.8365835547447205,-0.0,0.0023964548017829657,0.7732986211776733,6.011512959958054e-05,-0.014541669748723507
970.0,962.0,1.5188,0.2219,9.3583,-0.0261,0.018,-0.1193,-1.6847826443114222,-0.00012470727961044759,2.397350549697876,-2.034696102142334,-0.0,1.8995981216430664,5.0313384411628626,-4.422312485985458e-05,0.27940139174461365,-1.6079219023333948,0.0,-0.0005779827479273081,0.8365713357925415,-0.0,-0.006870982237160206,0.7732706069946289,2.7335456252330914e-05,-0.0036674989387392998
970.0,962.0,1.5188,0.2219,9.3583,-0.0261,0.018,-0.1193,-1.684826513329977,-9.24249688978307e-05,2.3519785404205322,-2.0347437858581543,-0.0,1.9053510427474976,5.031342077046194,-4.118717333767563e-05,0.28828907012939453,-1.6079137961017054,0.0,-0.007531302515417337,0.8365230560302734,-0.0,-0.002238590968772769,0.7732224464416504,1.0081097343572765e-06,0.009039996191859245
970.0,962.0,1.5188,0.2219,9.3583,-0.0261,0.018,-0.1193,-1.684775014916891,-8.554208761779591e-05,2.3581013679504395,-2.0346837043762207,-0.0,1.8628604412078857,5.031334268837728,-3.854144233628176e-05,0.2899104952812195,-1.6079095045672815,0.0,0.0006632166914641857,0.83649080991745,-0.0,-0.0016171729657799006,0.773266613483429,2.434466473896779e-12,0.019739896059036255
970.0,962.0,1.5188,0.2219,9.3583,-0.0261,0.018,-0.1193,-1.6847902737059535,-7.98499386291951e-05,2.400768280029297,-2.034695625305176,-0.0,1.8983070850372314,5.031301605492391,-3.621511496021412e-05,0.2958959937095642,-1.6078813711749476,0.0,-0.0012549050152301788,0.8365431427955627,-0.0,-0.01060573011636734,0.7732986211776733,5.8789504572460666e-18,0.028293119743466377
970.0,962.0,1.5188,0.2219,9.3583,-0.0261,0.018,-0.1193,-1.6847707233824671,-5.615461486740969e-05,2.3942675590515137,-2.0347084999084473,-0.0,1.8551287651062012,5.031330126314916,-3.415361788938753e-05,0.28978052735328674,-1.6078856627093714,0.0,0.0012392469216138124,0.8365309238433838,-0.0,-0.0024978211149573326,0.7732706069946289,1.4196973516803316e-23,-0.004505178425461054
970.0,962.0,1.5188,0.2219,9.3583,-0.0261,0.018,-0.1193,-1.6847783527769984,-5.28535783814732e-05,2.373772382736206,-2.034679651260376,-0.0,1.8788747787475586,5.031322109490194,-3.2314128475263715e-05,0.27700772881507874,-1.6079219023333948,0.0,-0.008714485913515091,0.8365312218666077,-0.0,-0.006564184557646513,0.773262619972229,3.428402361709958e-29,0.037330981343984604
970.0,962.0,1.5188,0.2219,9.3583,-0.0261,0.018,-0.1193,-1.6847664318480433,-4.99218913319055e-05,2.3418829441070557,-2.0346922874450684,-0.0,1.8842017650604248,5.031305718212881,-3.066275894525461e-05,0.2953639030456543,-1.607861344014303,0.0,-0.004589055199176073,0.8365070819854736,-0.0,-0.0070759616792202,0.7732585668563843,8.279188087946283e-35,0.006811961531639099
970.0,962.0,1.5188,0.2219,9.3583,-0.0261,0.018,-0.1193,-1.6847783527769984,-6.122208287706599e-05,2.370983362197876,-2.0347046852111816,-0.0,1.89463472366333,5.031305777817526,-2.9171906135161407e-05,0.29609400033950806,-1.6079219023333948,0.0,-0.005791600793600082,0.8365271091461182,-0.0,-0.00977320782840252,0.7732505798339844,1.9993306099447193e-40,-0.03123428300023079
970.0,962.0,1.5188,0.2219,9.3583,-0.0261,0.018,-0.1193,-1.6847826443114222,-5.9915655583608896e-05,2.3739078044891357,-2.0347204208374023,-0.0,1.8870866298675537,5.031342553883352,-2.781933289952576e-05,0.30125153064727783,-1.6079300085650843,0.0,0.002506404649466276,0.8366029262542725,-0.0,-0.011568000540137291,0.7732905745506287,0.0,0.003106175921857357
970.0,962.0,1.5188,0.2219,9.3583,-0.0261,0.018,-0.1193,-1.6848308048644007,-5.7066405133809894e-05,2.397932529449463,-2.0346953868865967,-0.0,1.923954963684082,5.0313137648399255,-2.6586612875689752e-05,0.2835731506347656,-1.6078975836383265,0.0,-0.005052839871495962,0.8365590572357178,-0.0,-0.004660029895603657,0.77321857213974,0.0,-0.0022858185693621635
970.0,962.0,1.5188,0.2219,9.3583,-0.0261,0.018,-0.1193,-1.6847945652403773,-5.447586954687722e-05,2.3734989166259766,-2.0347278118133545,-0.0,1.8900222778320312,5.031305748015203,-2.5458528398303315e-05,0.29396572709083557,-1.6078932921039026,0.0,-0.0012314929626882076,0.8365512490272522,-0.0,0.004305363167077303,0.773234486579895,0.0,-0.024808557704091072
970.0,962.0,1.5188,0.2219,9.3583,-0.0261,0.018,-0.1193,-1.6848308048644007,-5.211023744777776e-05,2.409992218017578,-2.0346837043762207,-0.0,1.9047377109527588,5.031362610846319,-2.4422271962976083e-05,0.29203128814697266,-1.6078975836383265,0.0,-0.0030433759093284607,0.8365590572357178,-0.0,0.009896413423120975,0.7732746601104736,0.0,-0.00379034667275846
970.0,962.0,1.5188,0.2219,9.3583,-0.0261,0.018,-0.1193,-1.6848026714720667,-4.994160190108232e-05,2.373638868331909,-2.034668445587158,-0.0,1.8771026134490967,5.031305777817526,-2.346709879930131e-05,0.28192195296287537,-1.607877556477682,0.0,0.0011084998259320855,0.8365427851676941,-0.0,0.003189826849848032,0.7732865214347839,-6.784318975405768e-05,0.01975739374756813
970.0,962.0,1.5188,0.2219,9.3583,-0.0261,0.018,-0.1193,-1.6847902737059535,-4.794619235326536e-05,2.42181396484375,-2.034648895263672,-0.0,1.8674687147140503,5.031322109490194,-2.258379572595004e-05,0.2899038791656494,-1.6078851858722132,0.0,-0.014120174571871758,0.8364948630332947,-0.0,-0.0036646132357418537,0.773262619972229,-2.9638811611221172e-05,-0.009871549904346466
970.0,962.0,1.5188,0.2219,9.3583,-0.0261,0.018,-0.1193,-1.6848226986327113,-2.47221742029069e-05,2.4130330085754395,-2.0346837043762207,-0.0,1.9037147760391235,5.031289744168081,-2.984927050420083e-05,0.2979755103588104,-1.607934300099508,0.0,-0.005809929687529802,0.8365070819854736,-0.0,-0.0002255473518744111,0.7732905149459839,-2.6960024115396664e-05,0.01810280978679657
964.0,925.0,2.0949,0.5222,9.07,-0.0247,0.0108,-0.12,-1.6847945652403773,-1.301455449720379e-05,2.3577775955200195,-2.034679651260376,-0.0,1.899620771408081,5.0312897739704034,-3.150334669044241e-05,0.3016436696052551,-1.6079376379596155,0.0,-0.00013745453907176852,0.8365631699562073,-0.0,0.0032847877591848373,0.7733104825019836,-6.51052892153281e-11,0.04759782552719116
964.0,925.0,2.0949,0.5222,9.07,-0.0247,0.0108,-0.12,-1.6848184070982875,-2.4940070943557657e-05,2.3666844367980957,-2.0346717834472656,-0.0,1.8599084615707397,5.031297939806738,-3.0438655812758952e-05,0.29883673787117004,-1.6079137961017054,0.0,0.007287756074219942,0.8365190029144287,-0.0,0.002922315848991275,0.773282527923584,-1.5722159698813333e-16,-0.0032911808229982853
964.0,925.0,2.0949,0.5222,9.07,-0.0247,0.0108,-0.12,-1.6848346195616664,-3.57636708940845e-05,2.378716230392456,-2.034696102142334,-0.0,1.9045690298080444,5.031302112131872,-1.302575014960894e-06,0.2878109812736511,-1.6079376379596155,0.0,0.0008632910903543234,0.8365067839622498,-0.0,0.0029920749366283417,0.7732745409011841,-3.796716854891622e-22,0.009315388277173042
964.0,925.0,2.0949,0.5222,9.07,-0.0247,0.0108,-0.12,-1.6848541698851527,-0.0003030239313375205,2.3625752925872803,-2.0347483158111572,4.15463800515492e-12,1.8919460773468018,5.03130208232955,-2.9196451578172855e-05,0.29670000076293945,-1.6079333464251917,0.0,0.009537589736282825,0.83649080991745,-0.0,-0.004511245992034674,0.7732784748077393,-1.2300879948247587e-29,-0.005682608112692833
964.0,925.0,2.0949,0.5222,9.07,-0.0247,0.0108,-0.12,-1.6848145924010218,-0.0003310836327727884,2.3868966102600098,-2.0347044467926025,1.0032961330800603e-17,1.8518238067626953,5.0312901614005945,-2.7852864150190726e-05,0.30028098821640015,-1.607945744191305,0.0,0.004022584762424231,0.8365111351013184,-0.0,-0.00457354262471199,0.7732745409011841,-2.97051755940267e-35,0.02650526724755764
964.0,925.0,2.0949,0.5222,9.07,-0.0247,0.0108,-0.12,-1.684866567651266,-0.0002798360656015575,2.3434150218963623,-2.0346837043762207,2.4228422243850444e-23,1.9229739904403687,5.031277882843771,-3.6499863199424e-05,0.3001517951488495,-1.607917610798971,0.0,-0.0070882271975278854,0.8365352749824524,-0.0,-0.02529454603791237,0.7733064889907837,-7.173386968725171e-41,0.041708797216415405
964.0,925.0,2.0949,0.5222,9.07,-0.0247,0.0108,-0.12,-1.6848260364928187,-0.00024218179169110954,2.364262104034424,-2.0347044467926025,5.850878874551203e-29,1.8524178266525269,5.031265604286947,-3.822897269856185e-05,0.27965399622917175,-1.6079252401935022,0.0,0.013573740608990192,0.836558997631073,-0.0,-0.012810662388801575,0.7733144760131836,0.00026446511037647724,0.05676921829581261
964.0,925.0,2.0949,0.5222,9.07,-0.0247,0.0108,-0.12,-1.684770246545309,-0.0002134596143150702,2.3424034118652344,-2.0347323417663574,1.4129184957494653e-34,1.8826167583465576,5.0312819359596155,-3.667219425551593e-05,0.29394620656967163,-1.6079095045672815,0.0,0.009212309494614601,0.8365190029144287,-0.0,0.006867568474262953,0.7732784748077393,0.00018170091789215803,0.011568522080779076
964.0,925.0,2.0949,0.5222,9.07,-0.0247,0.0108,-0.12,-1.6848303280272425,-0.0001908288395497948,2.366760015487671,-2.0347084999084473,3.4120356437691403e-40,1.8588817119598389,5.031273829727926,-3.523642953950912e-05,0.30324751138687134,-1.6079657713519495,0.0,-0.0059121521189808846,0.8365030288696289,-0.0,-0.00905256811529398,0.7732784748077393,0.0001564135600347072,-0.024323035031557083
964.0,925.0,2.0949,0.5222,9.07,-0.0247,0.0108,-0.12,-1.6848226986327113,-0.00017253663099836558,2.377197742462158,-2.0347001552581787,1.401298464324817e-45,1.8737328052520752,5.031293856888571,-3.39088546752464e-05,0.2908041477203369,-1.6079900900470179,0.0,0.011942071840167046,0.836555004119873,-0.0,0.00493735121563077,0.7733064889907837,0.00013837584992870688,0.027489354833960533
964.0,925.0,2.0949,0.5222,9.07,-0.0247,0.0108,-0.12,-1.6848064861693324,-0.00015744450502097607,2.39530086517334,-2.0347001552581787,-0.0,1.9004888534545898,5.031245934754171,-3.2677664421498775e-05,0.29124635457992554,-1.6079290548907679,0.0,-0.009050529450178146,0.8365111351013184,-0.0,0.0006587319076061249,0.7732945680618286,0.00012406858149915934,-0.03228330984711647
964.0,925.0,2.0949,0.5222,9.07,-0.0247,0.0108,-0.12,-1.684866567651266,-0.00014478075900115073,2.404849052429199,-2.034731864929199,-0.0,1.883434534072876,5.031273859530248,-3.1532788852928206e-05,0.2934524118900299,-1.6079261938678187,0.0,-0.010575774125754833,0.8365271091461182,-0.0,0.011809159070253372,0.7732906341552734,5.1727573008975014e-05,-0.06808806955814362
964.0,925.0,2.0949,0.5222,9.07,-0.0247,0.0108,-0.12,-1.684782167474264,-0.00011167285992996767,2.3487908840179443,-2.034672260284424,-0.0,1.8955645561218262,5.0313139138515375,-3.046539677598048e-05,0.29268038272857666,-1.6079376379596155,0.0,-0.006350274197757244,0.8365631699562073,-0.0,-0.003552434965968132,0.7733025550842285,4.411851114127785e-05,-0.0026409944985061884
964.0,925.0,2.0949,0.5222,9.07,-0.0247,0.0108,-0.12,-1.6848184070982875,-0.0001039312919601798,2.362359046936035,-2.034672260284424,-0.0,1.9149861335754395,5.031342464476385,-1.945275471371133e-06,0.2866162061691284,-1.6079333464251917,0.0,-0.005784363020211458,0.8365631699562073,-0.0,0.007078612223267555,0.7733104825019836,3.846177060040645e-05,-0.0025669457390904427
964.0,925.0,2.0949,0.5222,9.07,-0.0247,0.0108,-0.12,-1.6848021946349085,-9.719692025100812e-05,2.3764984607696533,-2.0347278118133545,-0.0,1.8458867073059082,5.031306165247717,-5.414745873899562e-10,0.28893786668777466,-1.6079500357257288,0.0,-0.008370735682547092,0.8365509510040283,-0.0,-0.0034835392143577337,0.7732744812965393,3.409085184102878e-05,0.014655920676887035
971.0,965.0,1.8419,0.195,9.1896,-0.0338,0.0067,-0.1116,-1.6848226986327113,-9.128203964792192e-05,2.411327600479126,-2.034696102142334,-0.0,1.911891222000122,5.031305777817526,-1.5072140855266342e-13,0.2929644286632538,-1.6079652945147913,0.0,0.009164847433567047,0.836555004119873,-0.0,-0.0029676007106900215,0.7732985615730286,6.120693433331326e-05,0.024618320167064667
971.0,965.0,1.8419,0.195,9.1896,-0.0338,0.0067,-0.1116,-1.6848184070982875,-8.604572940384969e-05,2.3701834678649902,-2.0347163677215576,-0.0,1.8753522634506226,5.031301605492391,-4.1953856206138266e-17,0.2974364757537842,-1.6079376379596155,0.0,-0.007090597413480282,0.8365631699562073,-0.0,0.0035622476134449244,0.7733227014541626,0.00010784163896460086,0.03464745357632637
971.0,965.0,1.8419,0.195,9.1896,-0.0338,0.0067,-0.1116,-1.6847864590086878,-8.137765689752996e-05,2.3707258701324463,-2.0346877574920654,-0.0,1.8876922130584717,5.031318086176672,-1.1678009064433634e-20,0.28880250453948975,-1.607973877583639,0.0,-0.01503724791109562,0.8365387320518494,-0.0,-0.003646619152277708,0.7732744812965393,0.00026261244784109294,0.026402579620480537
971.0,965.0,1.8419,0.195,9.1896,-0.0338,0.0067,-0.1116,-1.6847902737059535,-7.719000132055953e-05,2.3895516395568848,-2.0347084999084473,-0.0,1.8640697002410889,5.031237321883001,-3.2506171253010203e-24,0.2980189919471741,-1.6080182234393519,0.0,0.0020992921199649572,0.8365831971168518,-0.0,0.005901831202208996,0.773298442363739,0.0010725799947977066,0.050747454166412354
971.0,965.0,1.8419,0.195,9.1896,-0.0338,0.0067,-0.1116,-1.6848184070982875,-7.34123241272755e-05,2.3837203979492188,-2.0347397327423096,-0.0,1.8793628215789795,5.031273770123281,-9.048211471725673e-28,0.2923445701599121,-1.6080101172076624,0.0,-0.005382982082664967,0.8364827632904053,-0.0,-0.012906860560178757,0.7733466029167175,0.0014282779302448034,-0.03164117410778999
971.0,965.0,1.8419,0.195,9.1896,-0.0338,0.0067,-0.1116,-1.684794088403219,-6.998707249294966e-05,2.3867101669311523,-2.0347163677215576,-0.0,1.8735220432281494,5.031301635294714,-2.5186029113260653e-31,0.2966427505016327,-1.6079452673541468,0.0,0.015898611396551132,0.8365709781646729,-0.0,-0.006338594015687704,0.773310661315918,0.0025794627144932747,0.05024219676852226
971.0,965.0,1.8419,0.195,9.1896,-0.0338,0.0067,-0.1116,-1.6847902737059535,-7.567209104308859e-05,2.362959861755371,-2.0346837043762207,-0.0,1.8942444324493408,5.031277853041448,-7.01062362751453e-35,0.29478636384010315,-1.6079734007464808,-0.0002813716419041157,-0.009923179633915424,0.836499035358429,-0.0,-0.00244370149448514,0.7733705639839172,0.0031538675539195538,-0.0063895839266479015
971.0,965.0,1.8419,0.195,9.1896,-0.0338,0.0067,-0.1116,-1.6847902737059535,-7.681641727685928e-05,2.3653786182403564,-2.034696102142334,-0.0,1.8857430219650269,5.031297939806738,-1.951432967265479e-38,0.29187098145484924,-1.608025852833883,-0.00023988074099179357,-0.008064161986112595,0.8365831971168518,-0.0,-0.01012931764125824,0.7733625173568726,0.004261289723217487,-0.034737806767225266
971.0,965.0,1.8419,0.195,9.1896,-0.0338,0.0067,-0.1116,-1.6848184070982875,-7.367239595623687e-05,2.3783934116363525,-2.0346410274505615,-0.0,1.8823738098144531,5.0312856314475916,-5.431432847722991e-42,0.29462942481040955,-1.6079734007464808,-0.00020679969748016447,-0.002417556243017316,0.8365509510040283,-0.0,0.0007553515606559813,0.7734426856040955,0.004571585915982723,0.009151790291070938
971.0,965.0,1.8419,0.195,9.1896,-0.0338,0.0067,-0.1116,-1.6848303280272425,-9.178924665320665e-05,2.378488063812256,-2.0347001552581787,-0.0,1.9224070310592651,5.031257468252935,-0.0,0.29553747177124023,-1.6079533735858362,-0.0002095972013194114,-0.009978617541491985,0.8365070819854736,-0.0,-0.01288583129644394,0.7734386920928955,0.0037987830583006144,0.006344057619571686
971.0,965.0,1.8419,0.195,9.1896,-0.0338,0.0067,-0.1116,-1.6848508320250453,-6.929664959898219e-05,2.376075506210327,-2.034672260284424,-0.0,1.8661988973617554,5.031297939806738,-0.0,0.2863858640193939,-1.607981030141012,-0.00018775083299260587,-0.003488427959382534,0.8365590572357178,-0.0,0.000312653137370944,0.7734467387199402,0.0027290552388876677,0.04397252947092056
971.0,965.0,1.8419,0.195,9.1896,-0.0338,0.0067,-0.1116,-1.6848179302611292,-6.37857083347626e-05,2.3979806900024414,-2.0346877574920654,-0.0,1.8838826417922974,5.031269776612081,-0.0,0.2891421616077423,-1.6080220381366175,-0.00017001485684886575,-0.002910993993282318,0.8365947604179382,-0.0,-0.004979133605957031,0.7734786868095398,0.001993014942854643,-0.008221827447414398
971.0,965.0,1.8419,0.195,9.1896,-0.0338,0.0067,-0.1116,-1.6848498783507289,-6.118400779087096e-05,2.356423854827881,-2.0347166061401367,-0.0,1.9019343852996826,5.031294244318762,-0.0,0.30630192160606384,-1.6079734007464808,-0.00015534109843429178,0.00697415042668581,0.8365831971168518,-0.0,-0.005820408929139376,0.7734947800636292,0.0014953743666410446,0.03718036413192749
971.0,965.0,1.8419,0.195,9.1896,-0.0338,0.0067,-0.1116,-1.6848751507201136,-6.652875163126737e-05,2.3151965141296387,-2.0346882343292236,-0.0,1.8561670780181885,5.031293856888571,-0.0,0.290113627910614,-1.6079614798175257,-0.0001429991243639961,0.01002403162419796,0.8365271091461182,-0.0,-0.02191908098757267,0.7734827399253845,0.0010673479409888387,0.02711854875087738
976.0,936.0,1.8616,-0.009,9.1651,-0.0399,0.0263,-0.1109,-1.6848746738829554,-6.788304017391056e-05,2.357220411300659,-2.034679651260376,-0.0,1.900313138961792,5.031305807619848,-0.0,0.2949337959289551,-1.6079652945147913,-0.00013247434981167316,-0.003925043158233166,0.8365070819854736,-0.0,-0.0061872126534581184,0.7735307216644287,0.0008116144454106688,-0.0012691961601376534
976.0,936.0,1.8616,-0.009,9.1651,-0.0399,0.0263,-0.1109,-1.6848260364928187,-6.541615584865212e-05,2.408308267593384,-2.0346603393554688,-0.0,1.881574273109436,5.0312819359596155,-0.0,0.2997012436389923,-1.6080220381366175,-0.000123392601381056,-0.016717329621315002,0.8365309238433838,-0.0,-0.012488728389143944,0.773502767086029,0.0006111550610512495,0.023120883852243423
976.0,936.0,1.8616,-0.009,9.1651,-0.0399,0.0263,-0.1109,-1.6848141155638636,-6.312212644843385e-05,2.3645851612091064,-2.0347278118133545,-0.0,1.8886220455169678,5.031298327236929,-0.0,0.2918603718280792,-1.6079652945147913,-0.00011547606845851988,-0.015462113544344902,0.8365390300750732,-0.0,-0.002211401704698801,0.77346271276474,0.0006070120143704116,-0.004104342311620712
976.0,936.0,1.8616,-0.009,9.1651,-0.0399,0.0263,-0.1109,-1.684822221795553,-6.098360972828232e-05,2.385526180267334,-2.0346643924713135,-0.0,1.8752399682998657,5.031225460558691,-0.0,0.2899163067340851,-1.6079934279071253,-0.00010851425759028643,-0.013700632378458977,0.836555004119873,-0.0,0.0013841006439179182,0.7734746932983398,0.0006440525176003575,0.03649895638227463
976.0,936.0,1.8616,-0.009,9.1651,-0.0399,0.0263,-0.1109,-1.6848865948119105,-8.00102100129152e-07,2.408926010131836,-2.034672260284424,-0.0,1.853485107421875,5.031306165247717,-0.0,0.29120591282844543,-1.6080015341388147,-0.00010234428191324696,0.008872704580426216,0.8365866541862488,-0.0,-0.007927854545414448,0.7734546065330505,0.0006905454793013632,-0.007427908480167389
976.0,936.0,1.8616,-0.009,9.1651,-0.0399,0.0263,-0.1109,-1.684866567651266,-1.932152571618162e-12,2.379236936569214,-2.0347163677215576,-0.0,1.9034948348999023,5.031257468252935,-0.0,0.30490949749946594,-1.6079934279071253,-0.00011270102550042793,-0.008934642188251019,0.8365511298179626,-0.0,-0.002756671514362097,0.7735267281532288,0.0008622993482276797,0.03474462777376175
976.0,936.0,1.8616,-0.009,9.1651,-0.0399,0.0263,-0.1109,-1.6848827801146449,-4.665921935390635e-18,2.348449230194092,-2.034668207168579,-0.0,1.920020341873169,5.031309860735693,-0.0,0.29320472478866577,-1.6079571882831019,-0.00010720985301304609,-0.012451305985450745,0.8366066813468933,-0.0,-0.012138349935412407,0.7735187411308289,0.0015764046693220735,-0.02517852559685707
976.0,936.0,1.8616,-0.009,9.1651,-0.0399,0.0263,-0.1109,-1.6848470173277796,-1.126765214123544e-23,2.401982307434082,-2.034679651260376,-0.0,1.9099000692367554,5.03123368599967,-0.0,0.2932012677192688,-1.6079452673541468,-0.00010200235556112602,-0.009828776121139526,0.8365108966827393,-0.0,-0.0013904452789574862,0.7735468745231628,0.002367346780374646,-0.02038751356303692
976.0,936.0,1.8616,-0.009,9.1651,-0.0399,0.0263,-0.1109,-1.6848346195616664,-2.7210052838709884e-29,2.3570330142974854,-2.034731864929199,-0.0,1.8589162826538086,5.0312901614005945,-0.0,0.2916787564754486,-1.6079815069781702,-9.727737779030576e-05,-0.0031915789004415274,0.8365309238433838,-0.0,-0.00454153073951602,0.773618757724762,0.0029686212074011564,0.010998583398759365
976.0,936.0,1.8616,-0.009,9.1651,-0.0399,0.0263,-0.1109,-1.6848584614195765,-6.570908958219707e-35,2.3647711277008057,-2.0346405506134033,-0.0,1.8728184700012207,5.03128610828475,-0.0,0.29076892137527466,-1.6080101172076624,-9.951359970727935e-05,-0.010056925006210804,0.8365427851676941,-0.0,-0.002533391583710909,0.7735628485679626,0.0036139970179647207,0.008485113270580769
976.0,936.0,1.8616,-0.009,9.1651,-0.0399,0.0263,-0.1109,-1.6848470173277796,-1.5868023550321364e-40,2.335641384124756,-2.034672260284424,-0.0,1.9130795001983643,5.03128610828475,-0.0,0.28224027156829834,-1.6079891363727015,-0.00010174568160437047,-0.0088924840092659,0.8365427851676941,-0.0,-0.0010113895405083895,0.7736750245094299,0.004756101407110691,0.04072260484099388
976.0,936.0,1.8616,-0.009,9.1651,-0.0399,0.0263,-0.1109,-1.6848498783507289,-0.0,2.3585243225097656,-2.034696102142334,-0.0,1.8956453800201416,5.031310128956594,-1.66187135164364e-06,0.2922465205192566,-1.6080220381366175,-7.860410551074892e-05,-0.01891576498746872,0.8365150094032288,-0.0,0.0013483082875609398,0.7736427783966064,0.006213646847754717,0.047068506479263306
976.0,936.0,1.8616,-0.009,9.1651,-0.0399,0.0263,-0.1109,-1.6848865948119105,0.0,2.3667964935302734,-2.0346920490264893,-0.0,1.8268765211105347,5.031233626395025,-4.625879679309719e-10,0.2831311821937561,-1.608025375996725,-7.211368210846558e-05,-0.02324715256690979,0.8365150094032288,-0.0,-0.005073412321507931,0.77370285987854,0.0073789688758552074,0.06823821365833282
976.0,936.0,1.8616,-0.009,9.1651,-0.0399,0.0263,-0.1109,-1.6848498783507289,-0.00012190693814773113,2.359199285507202,-2.0347282886505127,-0.0,1.9097967147827148,5.031257855683126,-1.287630619533145e-13,0.2812842130661011,-1.6080101172076624,-6.88050567987375e-05,-0.021945718675851822,0.8365911841392517,-0.0,0.004281454253941774,0.7737870216369629,0.008902118541300297,0.07777810096740723
976.0,936.0,1.8616,-0.009,9.1651,-0.0399,0.0263,-0.1109,-1.6848947010436,-0.0012317398795858026,2.3563919067382812,-2.034696102142334,-0.0,1.9217747449874878,5.031257825880804,-3.5841669767473685e-17,0.2785332202911377,-1.6079977194415491,-6.578732427442446e-05,-0.021917933598160744,0.8365549445152283,-0.0,-0.015265568159520626,0.7738189697265625,0.009944911114871502,0.1103651225566864
1009.0,963.0,1.7492,0.4935,9.2638,-0.0194,0.0136,-0.0974,-1.6849223575987757,-0.002347088884562254,2.317122459411621,-2.034696102142334,-0.0,1.8778960704803467,5.03124966004447,-9.976660910919012e-21,0.28409263491630554,-1.607969109212057,-6.302328256424516e-05,-0.01586000621318817,0.8365230560302734,-0.0,0.005707780364900827,0.7739070653915405,0.011980488896369934,0.093163400888443
1009.0,963.0,1.7492,0.4935,9.2638,-0.0194,0.0136,-0.0974,-1.6849309406676234,-0.0034609478898346424,2.3427605628967285,-2.0347039699554443,-0.0,1.8933334350585938,5.031233626395025,-1.8132088700831068e-25,0.28390514850616455,-1.608025852833883,-6.854557432234287e-05,-0.01712024211883545,0.8365871906280518,-0.0,-0.0005019321106374264,0.773975133895874,0.01266847737133503,0.05912339687347412
1009.0,963.0,1.7492,0.4935,9.2638,-0.0194,0.0136,-0.0974,-1.6849752865233363,-0.005609611049294472,2.2995500564575195,-2.0346837043762207,-0.0,1.8647990226745605,5.031294184714117,-5.047133540125616e-29,0.2897297143936157,-1.6080377737628382,-6.887475319672376e-05,-0.020587563514709473,0.8365309238433838,-0.0,-0.003723353613168001,0.7740792632102966,0.014117423444986343,0.07423177361488342
1009.0,963.0,1.7492,0.4935,9.2638,-0.0194,0.0136,-0.0974,-1.684958120385641,-0.007158234715461731,2.3446106910705566,-2.0346877574920654,-0.0,1.8544344902038574,5.031317966967382,-1.404888106091823e-32,0.28581833839416504,-1.6079614798175257,-6.633725570281968e-05,-0.022275205701589584,0.8364706635475159,-0.0,-0.008931088261306286,0.7741552591323853,0.013573787175118923,0.10513836145401001
1009.0,963.0,1.7492,0.4935,9.2638,-0.0194,0.0136,-0.0974,-1.685026308099264,-0.00669447984546423,2.328434467315674,-2.034672260284424,-0.0,1.9313989877700806,5.031245904951849,-3.910557392752332e-36,0.27560263872146606,-1.6079652945147913,-6.397940160240978e-05,-0.023018810898065567,0.8365427851676941,-0.0,-0.005197298713028431,0.7742072343826294,0.013206875883042812,0.05775881186127663
1009.0,963.0,1.7492,0.4935,9.2638,-0.0194,0.0136,-0.0974,-1.6850539646544398,-0.006206342484802008,2.332777500152588,-2.0346875190734863,-0.0,1.8744852542877197,5.0312538025672815,-1.0885174366998033e-39,0.27934378385543823,-1.608025852833883,-6.178339390316978e-05,-0.018894745036959648,0.8365549445152283,-0.0,-0.005752815864980221,0.7742552757263184,0.012772435322403908,0.07186733186244965
1009.0,963.0,1.7492,0.4935,9.2638,-0.0194,0.0136,-0.0974,-1.685089727441305,-0.006954246666282415,2.336284875869751,-2.0346875190734863,-0.0,1.9018526077270508,5.031237828522482,-3.026804682941605e-43,0.29544198513031006,-1.6080015341388147,-5.9733083617175e-05,-0.009255766868591309,0.8365793824195862,-0.0,0.0054235393181443214,0.7743394374847412,0.010694188997149467,0.09451168775558472
1009.0,963.0,1.7492,0.4935,9.2638,-0.0194,0.0136,-0.0974,-1.685174127618307,-0.008093643933534622,2.342690944671631,-2.0346837043762207,-0.0,1.8850774765014648,5.031273829727926,-0.00012957424041815102,0.2813567519187927,-1.6079571882831019,-1.662692206139127e-08,-0.019800182431936264,0.8365631699562073,-0.0,0.005232938565313816,0.7744274735450745,0.00880778580904007,0.057624779641628265
1009.0,963.0,1.7492,0.4935,9.2638,-0.0194,0.0136,-0.0974,-1.6852103672423304,-0.008302226662635803,2.3677921295166016,-2.0346643924713135,-0.0,1.8892199993133545,5.031294303923406,-0.00014296011067926884,0.29153892397880554,-1.6079734007464808,-4.628165472392309e-12,-0.010363545268774033,0.8365190029144287,-0.0,-0.011217305436730385,0.7744514346122742,0.007117595989257097,-0.016218135133385658
1009.0,963.0,1.7492,0.4935,9.2638,-0.0194,0.0136,-0.0974,-1.6852618656554164,-0.008486557751893997,2.3202695846557617,-2.0346643924713135,-0.0,1.8746511936187744,5.031261908798971,-0.00013279716949909925,0.2881637215614319,-1.607981030141012,-1.2882669149182871e-15,-0.012309186160564423,0.836614727973938,-0.0,0.0104087945073843,0.7745155692100525,0.004765976220369339,0.03262099623680115
1009.0,963.0,1.7492,0.4935,9.2638,-0.0194,0.0136,-0.0974,-1.6853462658324183,-0.007390703074634075,2.3324856758117676,-2.0347163677215576,-0.0,1.8868889808654785,5.031229930907049,-0.00014358425687532872,0.28770944476127625,-1.6079934279071253,-3.5859383323303625e-19,-0.013410165905952454,0.8364827632904053,-0.0,-0.006173890084028244,0.7745396494865417,0.0027451184578239918,0.03527210280299187
1009.0,963.0,1.7492,0.4935,9.2638,-0.0194,0.0136,-0.0974,-1.6853376827635707,-0.006695407442748547,2.3783349990844727,-2.0346717834472656,-0.0,1.8986601829528809,5.031282025366583,-0.00013500815839506686,0.2739138901233673,-1.6080220381366175,-9.981590824570988e-23,-0.01621166616678238,0.8365752696990967,-0.0,-0.004429155960679054,0.7745075225830078,0.0012842284049838781,0.05710359662771225
1009.0,963.0,1.7492,0.4935,9.2638,-0.0194,0.0136,-0.0974,-1.6854058704771937,-0.006220572162419558,2.3779101371765137,-2.034668445587158,-0.0,1.902137279510498,5.031254219799795,-0.00014510528126265854,0.2786555886268616,-1.6080058256732386,-2.778412481614322e-26,-0.006831966806203127,0.8365350365638733,-0.0,0.003570438828319311,0.7744874358177185,0.0008286917582154274,0.018866853788495064
1009.0,963.0,1.7492,0.4935,9.2638,-0.0194,0.0136,-0.0974,-1.68542542080068,-0.0057126120664179325,2.367671251296997,-2.0346882343292236,-0.0,1.8542358875274658,5.031221854477682,-0.00025791331427171826,0.2885814905166626,-1.6079772154437464,-7.733813185246378e-30,-0.00246800621971488,0.8364827632904053,-0.0,-0.006362792570143938,0.7744954824447632,0.0005673389532603323,-0.0028493194840848446
1009.0,963.0,1.7492,0.4935,9.2638,-0.0194,0.0136,-0.0974,-1.6854735813536585,-0.005786811001598835,2.3475592136383057,-2.034712076187134,-0.0,1.8934383392333984,5.031173634320059,-0.00023456691997125745,0.29582902789115906,-1.6079891363727015,-2.152735701906642e-33,-0.01839347556233406,0.8365427851676941,-0.0,-0.002193565247580409,0.7744555473327637,0.0004313307872507721,0.017854075878858566
961.0,956.0,1.6361,0.0933,9.2812,-0.0538,0.0454,-0.1115,-1.6855017147459925,-0.00532203633338213,2.364957094192505,-2.034679651260376,-0.0,1.914140224456787,5.0312218246753595,-0.00020752102136611938,0.2907206118106842,-1.607940975819723,-5.992219489096034e-37,-0.01221113558858633,0.8365309238433838,-0.0,-0.0014133593067526817,0.7745034694671631,0.0002899459796026349,0.043845243752002716
961.0,956.0,1.6361,0.0933,9.2812,-0.0538,0.0454,-0.1115,-1.6854893169798792,-0.0035985619761049747,2.366971015930176,-2.0347001552581787,-0.0,1.917820692062378,5.031217682152548,-0.00018606595403980464,0.29702621698379517,-1.6079495588885706,-1.6679515491011865e-40,-0.007403062656521797,0.8365508913993835,-0.0,-0.0068110087886452675,0.7744714021682739,0.00024297248455695808,0.03591340780258179
961.0,956.0,1.6361,0.0933,9.2812,-0.0538,0.0454,-0.1115,-1.685537954370016,-0.002071700058877468,2.3665707111358643,-2.034712553024292,-0.0,1.8680436611175537,5.031245875149526,-0.00014065479626879096,0.2807609438896179,-1.6079815069781702,-4.624284932271896e-44,-0.0028089487459510565,0.8365711569786072,-0.0,-0.00014040700625628233,0.7745316028594971,0.0001816775038605556,0.026702139526605606
961.0,956.0,1.6361,0.0933,9.2812,-0.0538,0.0454,-0.1115,-1.6854530773558558,-0.0007540835649706423,2.3635456562042236,-2.0346648693084717,-0.0,1.907768726348877,5.0312538025672815,-0.0001045179960783571,0.2940940856933594,-1.6079252401935022,-0.0,-0.009840575978159904,0.8365471363067627,-0.0,-0.0018911799415946007,0.7744834423065186,-5.936382513027638e-05,0.06983809173107147
961.0,956.0,1.6361,0.0933,9.2812,-0.0538,0.0454,-0.1115,-1.6854735813536585,-0.0003426107869017869,2.385228395462036,-2.0346646308898926,-0.0,1.8373630046844482,5.031273859530248,-7.142163667595014e-05,0.28824442625045776,-1.6079695860492151,-0.0,-0.005495639517903328,0.8365511894226074,-0.0,0.0031965505331754684,0.7744274139404297,-0.00014437008940149099,0.07951861619949341
961.0,956.0,1.6361,0.0933,9.2812,-0.0538,0.0454,-0.1115,-1.685458322564596,0.00019383910694159567,2.3821041584014893,-2.0346524715423584,0.0006621117936447263,1.9115383625030518,5.031249630242147,0.00010767604544525966,0.2847815155982971,-1.6079776922809046,-0.0,-0.006931758020073175,0.8365309834480286,-0.0,-0.008186839520931244,0.774447500705719,-0.0006303151603788137,0.060664013028144836
961.0,956.0,1.6361,0.0933,9.2812,-0.0538,0.0454,-0.1115,-1.685465475121969,0.0003003109886776656,2.3539180755615234,-2.0345962047576904,0.0015668222913518548,1.9015560150146484,5.03129010179595,0.0001332952087977901,0.30010291934013367,-1.6079376379596155,-0.0,0.0004503793315961957,0.8365030288696289,-0.0,0.000842641107738018,0.7744354009628296,-0.0010606317082419991,0.04073689877986908
961.0,956.0,1.6361,0.0933,9.2812,-0.0538,0.0454,-0.1115,-1.6853934727110804,0.00028333079535514116,2.341939926147461,-2.0346086025238037,0.0024588892702013254,1.8535470962524414,5.031265574484625,0.00014566660684067756,0.30207160115242004,-1.607945744191305,-0.0,-0.003383907489478588,0.8364867568016052,-0.0,-0.0028193756006658077,0.7744074463844299,-0.0012818120885640383,0.02019493468105793
961.0,956.0,1.6361,0.0933,9.2812,-0.0538,0.0454,-0.1115,-1.685437341729635,0.0003330047184135765,2.3902382850646973,-2.0345609188079834,0.0033203924540430307,1.864788293838501,5.031277882843771,0.0003076106368098408,0.2849653363227844,-1.6079695860492151,-0.0,-0.0009389498736709356,0.8365309834480286,-0.0,-0.006906676106154919,0.7744314074516296,-0.0008745163213461637,0.013638319447636604
961.0,956.0,1.6361,0.0933,9.2812,-0.0538,0.0454,-0.1115,-1.6854459247984828,0.0002585096808616072,2.3456733226776123,-2.0345520973205566,0.0030044761952012777,1.91449773311615,5.03130208232955,0.00026929835439659655,0.30359914898872375,-1.6079819838153284,-0.0,-0.00811765156686306,0.8365508913993835,-0.0,0.0026229326613247395,0.7744874954223633,-0.00025542028015479445,-0.02876889333128929
961.0,956.0,1.6361,0.0933,9.2812,-0.0538,0.0454,-0.1115,-1.685465475121969,0.000159774674102664,2.364089012145996,-2.034508466720581,0.0022215477656573057,1.8976867198944092,5.03125752785758,0.0001990559685509652,0.29289689660072327,-1.6079896132098597,-0.0,-0.016939515247941017,0.8365468978881836,-0.0,-0.009674552828073502,0.7744154930114746,-0.0001711776276351884,-0.005443306639790535
961.0,956.0,1.6361,0.0933,9.2812,-0.0538,0.0454,-0.1115,-1.6854778728880824,0.0001354950072709471,2.402156352996826,-2.0345921516418457,0.0015843267319723964,1.903631567955017,5.031309801131048,0.00017072078480850905,0.28820493817329407,-1.6079657713519495,-2.93120251626533e-07,-0.010621108114719391,0.8365029692649841,-0.0,0.008184886537492275,0.7744634747505188,-0.00013317055709194392,0.0212370865046978
961.0,956.0,1.6361,0.0933,9.2812,-0.0538,0.0454,-0.1115,-1.6855303249754847,0.00011776417522924021,2.4036550521850586,-2.034512519836426,0.0014940437395125628,1.8572583198547363,5.031253772764959,0.00014945278235245496,0.2939095199108124,-1.6079981962787073,-8.159110193028951e-11,-0.009846331551671028,0.8365471363067627,-0.0,-0.007907838560640812,0.774423360824585,-0.00010897795436903834,0.02220764383673668
961.0,956.0,1.6361,0.0933,9.2812,-0.0538,0.0454,-0.1115,-1.6854778728880824,0.00010413701966172084,2.349921464920044,-2.0345566272735596,0.0020292066037654877,1.8588193655014038,5.031322109490194,0.00013289808703120798,0.303447425365448,-1.607945744191305,-2.2711182706604965e-14,0.005293757189065218,0.8365589380264282,-0.0,-0.001564043341204524,0.7744035124778748,-5.159392094356008e-05,-0.029060285538434982
961.0,956.0,1.6361,0.0933,9.2812,-0.0538,0.0454,-0.1115,-1.6854540310301722,9.333677735412493e-05,2.383795976638794,-2.034480571746826,0.0032155190128833055,1.8802733421325684,5.031237828522482,0.00011964596342295408,0.2884361743927002,-1.6079657713519495,-6.3217406527360086e-18,0.008714108727872372,0.8365508913993835,-0.0,-0.0032396740280091763,0.7744634747505188,-1.6298478158205398e-06,-0.0017454421613365412
985.0,927.0,1.5218,-0.0156,10.1934,-0.0264,0.031,-0.1045,-1.6854015789427699,8.456646901322529e-05,2.391181468963623,-2.034456253051758,0.005856486037373543,1.8861792087554932,5.031289803772726,0.00010879700857913122,0.29123789072036743,-1.607889477406637,-1.759679734777382e-21,0.0078107621520757675,0.8365468978881836,-0.0,0.0020411426667124033,0.7744393944740295,-3.935891109557721e-12,0.01523077953606844
985.0,927.0,1.5218,-0.0156,10.1934,-0.0264,0.031,-0.1045,-1.6855021915831507,7.730277138762176e-05,2.3591222763061523,-2.034353017807007,0.008670419454574585,1.9441936016082764,5.03130583742217,9.97523166006431e-05,0.3036606013774872,-1.6079219023333948,-4.89813300990202e-25,0.0035737836733460426,0.836602509021759,-0.0,-0.0036799516528844833,0.7744234204292297,-9.504713865456889e-18,0.014492567628622055
985.0,927.0,1.5218,-0.0156,10.1934,-0.0264,0.031,-0.1045,-1.6854735813536585,7.118825305951759e-05,2.345317840576172,-2.034313201904297,0.010782944038510323,1.9264733791351318,5.031293856888571,9.209613926941529e-05,0.2930046319961548,-1.6079500357257288,-1.3634132336566048e-28,-0.005813815630972385,0.8365387916564941,-0.0,-0.00355360796675086,0.7744954824447632,-2.295276631807022e-23,-0.027114126831293106
985.0,927.0,1.5218,-0.0156,10.1934,-0.0264,0.031,-0.1045,-1.685441633264059,6.597007450181991e-05,2.3693437576293945,-2.0342490673065186,0.012002029456198215,1.8938984870910645,5.031261610775747,8.55315156513825e-05,0.3070949912071228,-1.6079300085650843,-3.795111429620587e-32,-0.0086958147585392,0.8365590572357178,-0.0,0.002867401810362935,0.7744954824447632,0.000903936626855284,-0.01574600860476494
985.0,927.0,1.5218,-0.0156,10.1934,-0.0264,0.031,-0.1045,-1.6854335270323695,6.146474333945662e-05,2.422067403793335,-2.034173011779785,0.014120979234576225,1.938022494316101,5.031261580973425,7.984063995536417e-05,0.28184255957603455,-1.6079414526568812,-1.056383353572966e-35,-0.003135734237730503,0.836534857749939,-0.0,-0.011732801795005798,0.7745316028594971,0.0011397943599149585,0.0020148572511970997
985.0,927.0,1.5218,-0.0156,10.1934,-0.0264,0.031,-0.1045,-1.6854859791197718,5.7535355153959244e-05,2.398503303527832,-2.034045934677124,0.01517962384968996,1.9098061323165894,5.031289833575048,7.485981041099876e-05,0.29364269971847534,-1.6079300085650843,-2.9404818949422675e-39,0.0024478461127728224,0.8365590572357178,-0.0,0.00617386307567358,0.7745476365089417,0.0009128813399001956,-0.006811885163187981
985.0,927.0,1.5218,-0.0156,10.1934,-0.0264,0.031,-0.1045,-1.6854540310301722,5.4078303946880624e-05,2.3545007705688477,-2.033933162689209,0.016767121851444244,1.9093506336212158,5.031290131598272,7.046393147902563e-05,0.29214802384376526,-1.607934300099508,-8.183583031656932e-43,-0.02182110957801342,0.8365427851676941,-0.0,0.0031148288398981094,0.7745075225830078,0.0008960211416706443,-0.0169654693454504
985.0,927.0,1.5218,-0.0156,10.1934,-0.0264,0.031,-0.1045,-1.6854611835875453,5.101307760924101e-05,2.3838822841644287,-2.0338096618652344,0.020314378663897514,1.9262785911560059,5.031289863377371,6.655566539848223e-05,0.2875937223434448,-1.607877556477682,0.0001515607291366905,0.005238471087068319,0.8365108966827393,-0.0,0.013899185694754124,0.7745236158370972,0.0007980694645084441,-0.004816582426428795
985.0,927.0,1.5218,-0.0156,10.1934,-0.0264,0.031,-0.1045,-1.6854335270323695,4.827669181395322e-05,2.338637351989746,-2.0337295532226562,0.023629797622561455,1.9896705150604248,5.031277882843771,2.275292899867054e-05,0.3040565848350525,-1.6078856627093714,0.0001934240135597065,-0.005128975957632065,0.8365590572357178,-0.0,-0.000879594124853611,0.774535596370697,0.000827290175948292,-0.01564609631896019
985.0,927.0,1.5218,-0.0156,10.1934,-0.0264,0.031,-0.1045,-1.685465475121969,4.58189970231615e-05,2.384845495223999,-2.0335865020751953,0.02738608792424202,1.9481184482574463,5.031326162606039,1.8649972844286822e-05,0.3007214665412903,-1.6079137961017054,0.0006103634950704873,-0.0004028705880045891,0.8365269303321838,-0.0,0.005615842528641224,0.7745996713638306,0.0007662977441214025,-0.041643086820840836
985.0,927.0,1.5218,-0.0156,10.1934,-0.0264,0.031,-0.1045,-1.6855017147459925,-7.024912065389799e-06,2.3983538150787354,-2.033327341079712,0.032158251851797104,1.998821496963501,5.031326132803716,1.755768244038336e-05,0.30670979619026184,-1.6078937689410608,0.0005490376497618854,0.0077360705472528934,0.8365511298179626,-0.0,-0.0017543602734804153,0.7745236754417419,0.0005687091033905745,-0.04636067524552345
985.0,927.0,1.5218,-0.0156,10.1934,-0.0264,0.031,-0.1045,-1.6854859791197718,-3.1565825338475406e-05,2.4019620418548584,-2.0332107543945312,0.03591877222061157,2.010089635848999,5.031277882843771,4.887245719231714e-09,0.2930919826030731,-1.6078456083880823,0.0008320769993588328,0.01511731930077076,0.8365387916564941,-0.0,0.02011236920952797,0.7744753956794739,0.00044748614891432226,-0.02798617258667946
985.0,927.0,1.5218,-0.0156,10.1934,-0.0264,0.031,-0.1045,-1.6854573688902796,-4.4982276449445635e-05,2.383735179901123,-2.0329196453094482,0.040699176490306854,2.042543888092041,5.031330185919561,1.3603828350264302e-12,0.28568392992019653,-1.6078208128558558,0.0016451601404696703,0.019654080271720886,0.8366067409515381,-0.0,0.0052384911105036736,0.7745035290718079,0.00017457938520237803,-0.03963550552725792
985.0,927.0,1.5218,-0.0156,10.1934,-0.0264,0.031,-0.1045,-1.6855141125121058,-5.7055083743762225e-05,2.3868117332458496,-2.032674789428711,0.04549003764986992,2.044595241546631,5.0312819359596155,3.7866756137769266e-16,0.28579479455947876,-1.6078298727618616,0.0018066823249682784,0.025776248425245285,0.8365671038627625,-0.0,0.01092693954706192,0.7744914889335632,3.713843099717451e-08,-0.09660354256629944
985.0,927.0,1.5218,-0.0156,10.1934,-0.0264,0.031,-0.1045,-1.685481687585348,-5.371257429942489e-05,2.365994691848755,-2.0322394371032715,0.05280528590083122,2.1054954528808594,5.031290131598272,6.882095844414307e-21,0.2764447033405304,-1.6078017393695276,0.0017244485206902027,0.034267328679561615,0.8366307616233826,-0.0,-0.005299300886690617,0.7744873762130737,1.2032379360246378e-15,-0.10036007314920425
989.0,964.0,1.8784,-0.0933,9.9583,-0.0457,0.1286,-0.1196,-1.6855060062804164,-5.141143992659636e-05,2.3521151542663574,-2.031951904296875,0.06024333834648132,2.1131467819213867,5.031265634089269,1.9156566088185426e-24,0.2889918386936188,-1.6077821890460413,0.002074939664453268,0.037233032286167145,0.8365745544433594,-0.0,0.015877973288297653,0.7744913697242737,-0.0010897195897996426,-0.0661545917391777
989.0,964.0,1.8784,-0.0933,9.9583,-0.0457,0.1286,-0.1196,-1.6854974232115687,-4.929934220854193e-05,2.3700101375579834,-2.031531810760498,0.06770102679729462,2.1490631103515625,5.031209665327825,5.3323005703130655e-28,0.2686458230018616,-1.607769791279928,0.005501217674463987,0.03979939967393875,0.836586594581604,-0.0,0.017738208174705505,0.7744754552841187,-0.0010886259842664003,-0.10465777665376663
989.0,964.0,1.8784,-0.0933,9.9583,-0.0457,0.1286,-0.1196,-1.6855422459044398,-5.919233808526769e-05,2.2987284660339355,-2.031071901321411,0.07665795087814331,2.162966012954712,5.031286078482427,1.4842656837324407e-31,0.2693626284599304,-1.6076973120318812,0.01031001377850771,0.05195741355419159,0.8365826606750488,-0.0,0.0157617274671793,0.7744715213775635,-0.0007745401817373931,-0.13275031745433807
989.0,964.0,1.8784,-0.0933,9.9583,-0.0457,0.1286,-0.1196,-1.685537954370016,-0.00016449549002572894,2.326395273208618,-2.0305724143981934,0.08655478805303574,2.161458969116211,5.031286078482427,4.1315079285364303e-35,0.27416661381721497,-1.6076253096209925,0.013267049565911293,0.06069782376289368,0.8365508913993835,-0.0,0.01859014853835106,0.7744755148887634,-0.0007143293041735888,-0.11729097366333008
989.0,964.0,1.8784,-0.0933,9.9583,-0.0457,0.1286,-0.1196,-1.6855017147459925,-0.00022259358956944197,2.3195714950561523,-2.030013084411621,0.09904705733060837,2.1415891647338867,5.0312538025672815,1.150020566428866e-38,0.2531633973121643,-1.6075571219073694,0.008748911321163177,0.05099862068891525,0.8365387916564941,-0.0,0.02354045957326889,0.7744755148887634,-0.0006119550671428442,-0.10201771557331085
989.0,964.0,1.8784,-0.0933,9.9583,-0.0457,0.1286,-0.1196,-1.6855341396727503,-0.0010717744007706642,2.3083133697509766,-2.029370069503784,0.10968723893165588,2.1527042388916016,5.031269776612081,-0.0003231342707294971,0.2609436511993408,-1.6075294653521937,0.0031400048173964024,0.060687094926834106,0.836602509021759,-0.0,0.0141201326623559,0.7744554877281189,-0.0005215549608692527,-0.12271636724472046
989.0,964.0,1.8784,-0.0933,9.9583,-0.0457,0.1286,-0.1196,-1.6854855022826136,-0.0020546813029795885,2.3475353717803955,-2.0287067890167236,0.11750105023384094,2.2070608139038086,5.031241851836004,-0.0003522331244312227,0.2779909670352936,-1.6075695196734827,0.0012580560287460685,0.07034602761268616,0.8366226553916931,-0.0,0.011696191504597664,0.7744394540786743,-0.0004046227259095758,-0.16801214218139648
989.0,964.0,1.8784,-0.0933,9.9583,-0.0457,0.1286,-0.1196,-1.6855212650694789,-0.002267553238198161,2.2592132091522217,-2.027954339981079,0.12312331795692444,2.190106153488159,5.031257855683126,-0.0003423824964556843,0.24998018145561218,-1.6075456778155726,0.0008970052585937083,0.06932032108306885,0.8366148471832275,-0.0,0.040366362780332565,0.7744434475898743,-0.0003851328801829368,-0.16067123413085938
989.0,964.0,1.8784,-0.0933,9.9583,-0.0457,0.1286,-0.1196,-1.6855493984618128,-0.001945946365594864,2.2557601928710938,-2.027099132537842,0.13454890251159668,2.221886157989502,5.031265663891592,-0.0002956587413791567,0.2567368149757385,-1.6075175444232386,0.0006530350656248629,0.0734102800488472,0.8365905284881592,-0.0,0.014658311381936073,0.774443507194519,-0.0001401617337251082,-0.17301934957504272
989.0,964.0,1.8784,-0.0933,9.9583,-0.0457,0.1286,-0.1196,-1.685545106927389,-0.0014238711446523666,2.273832321166992,-2.026287317276001,0.14227095246315002,2.2528347969055176,5.031265932112493,-0.0002591630909591913,0.24293719232082367,-1.607565704976217,0.00034037319710478187,0.0721818059682846,0.8365786671638489,0.00013667323219124228,0.02249058708548546,0.7744715213775635,-0.00011360648204572499,-0.2087431252002716
989.0,964.0,1.8784,-0.0933,9.9583,-0.0457,0.1286,-0.1196,-1.685578008691305,-0.0010001263581216335,2.2787184715270996,-2.025376558303833,0.15465129911899567,2.261136770248413,5.031270104437628,-0.00023068844166118652,0.2585928738117218,-1.607553784047262,0.00031815041438676417,0.08260577917098999,0.8365705609321594,0.0001255237148143351,0.029176030308008194,0.7744954228401184,-9.551837865728885e-05,-0.1672963798046112
989.0,964.0,1.8784,-0.0933,9.9583,-0.0457,0.1286,-0.1196,-1.6855656109251917,-0.0006824471638537943,2.241950750350952,-2.0244648456573486,0.1662694215774536,2.323970317840576,5.031209635525503,-0.0002078525722026825,0.2578393816947937,-1.6075456778155726,0.00028082868084311485,0.06319164484739304,0.8366506099700928,0.00011583000741666183,0.02276882715523243,0.7744714617729187,-4.120058292755857e-05,-0.16894426941871643
989.0,964.0,1.8784,-0.0933,9.9583,-0.0457,0.1286,-0.1196,-1.6855980358519496,-0.00101324578281492,2.292823553085327,-2.023381233215332,0.1747051477432251,2.363638162612915,5.031249987870016,-0.0002152228553313762,0.25401902198791504,-1.607525650654928,0.0002429213054710999,0.07701738178730011,0.8366146683692932,0.00012346997391432524,0.02562880329787731,0.7744314670562744,-1.7416122943814116e-07,-0.16926518082618713
989.0,964.0,1.8784,-0.0933,9.9583,-0.0457,0.1286,-0.1196,-1.685629507104391,-0.002747625345364213,2.2936627864837646,-2.022321939468384,0.18504208326339722,2.291929244995117,5.031261908798971,-0.00019828970835078508,0.2726828157901764,-1.6075213591205042,0.00024969084188342094,0.07824236899614334,0.8365590572357178,0.00012039898138027638,0.015959087759256363,0.7744675874710083,-4.2057896336607226e-13,-0.172285795211792
989.0,964.0,1.8784,-0.0933,9.9583,-0.0457,0.1286,-0.1196,-1.6856299839415492,-0.003085326636210084,2.3354344367980957,-2.0211191177368164,0.2018841654062271,2.357052803039551,5.031229930907049,-0.00018315631314180791,0.2507837414741516,-1.6075094381915491,0.0002544810122344643,0.06899580359458923,0.8365670442581177,0.00011285166692687199,0.02438458986580372,0.7744954824447632,-1.0156486486419831e-18,-0.17268875241279602
1009.0,933.0,1.7815,0.3332,10.212,-0.0269,0.272,-0.1245,-1.6856819591917933,-0.0025698705576360226,2.302898406982422,-2.0199081897735596,0.21182917058467865,2.3515281677246094,5.031250017672338,-0.00016214518109336495,0.26109325885772705,-1.6075213591205042,0.0002249446843052283,0.07557395845651627,0.8366387486457825,0.00011932501365663484,0.025790706276893616,0.7744994759559631,-2.4526718951107097e-24,-0.13307616114616394
1009.0,933.0,1.7815,0.3332,10.212,-0.0269,0.272,-0.1245,-1.6856938801207484,-0.0031896873842924833,2.3642990589141846,-2.0186171531677246,0.2198418527841568,2.3058266639709473,5.031249987870016,-0.00021299741638358682,0.24325522780418396,-1.6075332800494593,0.00019141595112159848,0.08672955632209778,0.8365705609321594,0.00011698918387992308,0.02065102383494377,0.7745435833930969,-5.92291429684417e-30,-0.17681708931922913
1009.0,933.0,1.7815,0.3332,10.212,-0.0269,0.272,-0.1245,-1.685713907281393,-0.004599296022206545,2.2841413021087646,-2.0172135829925537,0.2304813712835312,2.3597168922424316,5.031233984022894,-0.0005981855792924762,0.25113072991371155,-1.6075337568866175,0.00020339194452390075,0.07114270329475403,0.8365705609321594,0.00011081678530899808,0.019894802942872047,0.7745075225830078,-1.43031417632186e-35,-0.17823146283626556
1009.0,933.0,1.7815,0.3332,10.212,-0.0269,0.272,-0.1245,-1.6857296429076136,-0.005815740209072828,2.2770168781280518,-2.015822410583496,0.24468426406383514,2.431070327758789,5.031254130392828,-0.0004907625843770802,0.24450452625751495,-1.607513729725973,0.00021294898760970682,0.07659977674484253,0.8365985751152039,0.00011833252210635692,0.029979605227708817,0.7745115160942078,-3.4540605847142416e-41,-0.14016525447368622
1009.0,933.0,1.7815,0.3332,10.212,-0.0269,0.272,-0.1245,-1.6857449016966761,-0.006874545942991972,2.2699382305145264,-2.0143191814422607,0.25554484128952026,2.3946642875671387,5.031198012619772,-0.0007221592823043466,0.2438828945159912,-1.6075332800494593,0.0002205163473263383,0.07909611612558365,0.8366108536720276,0.0001145567002822645,0.025144655257463455,0.7744516134262085,-0.0,-0.1352807730436325
1009.0,933.0,1.7815,0.3332,10.212,-0.0269,0.272,-0.1245,-1.6858579121031703,-0.008995011448860168,2.2722177505493164,-2.012164354324341,0.2613140940666199,2.417372226715088,5.031218158989706,-0.0014542877906933427,0.22045768797397614,-1.6074817816363733,0.0002775275497697294,0.0951235219836235,0.8365745544433594,0.00012015802349196747,0.028869979083538055,0.7745436429977417,0.0,-0.15440769493579865
1009.0,933.0,1.7815,0.3332,10.212,-0.0269,0.272,-0.1245,-1.6858650646605433,-0.01043695118278265,2.2581474781036377,-2.0105979442596436,0.2783624827861786,2.431084156036377,5.031193989306249,-0.0009076030110009015,0.2256920039653778,-1.6075018087970179,0.0002809230063576251,0.11508917808532715,0.8365985751152039,0.00011513270874274895,0.031002800911664963,0.7745035290718079,0.0,-0.21964219212532043
1009.0,933.0,1.7815,0.3332,10.212,-0.0269,0.272,-0.1245,-1.685941835443014,-0.00830554123967886,2.261772632598877,-2.008866548538208,0.2949400544166565,2.413956880569458,5.0311538753803156,-0.0005559336859732866,0.22474753856658936,-1.6075337568866175,0.00028421595925465226,0.0957413911819458,0.8365705609321594,0.00012278117355890572,0.039151631295681,0.7745354771614075,0.00016310323553625494,-0.17545683681964874
1009.0,933.0,1.7815,0.3332,10.212,-0.0269,0.272,-0.1245,-1.6860181293883265,-0.00737732695415616,2.276700019836426,-2.007195472717285,0.29643335938453674,2.402066230773926,5.031189936190405,-0.0024878778494894505,0.22510960698127747,-1.607497517262594,0.0002860170498024672,0.09780243039131165,0.8365986347198486,0.00011977180110989138,0.04496359825134277,0.7745035290718079,0.000147110185935162,-0.23955295979976654
1009.0,933.0,1.7815,0.3332,10.212,-0.0269,0.272,-0.1245,-1.6860972843565882,-0.008785256184637547,2.203855514526367,-2.0053493976593018,0.3041197657585144,2.418151378631592,5.031149822264471,-0.003853599075227976,0.20978030562400818,-1.6075180212603968,0.0002920153783634305,0.1026323214173317,0.8365904688835144,0.00012150628754170612,0.020969104021787643,0.7745474576950073,0.00013397102884482592,-0.18332427740097046
1009.0,933.0,1.7815,0.3332,10.212,-0.0269,0.272,-0.1245,-1.6861540279784144,-0.010931828059256077,2.222688674926758,-2.0034618377685547,0.31912392377853394,2.4506497383117676,5.031129824906149,-0.007086724508553743,0.22700558602809906,-1.6074569861041468,0.0002723880170378834,0.11757390201091766,0.836634635925293,0.00012332040932960808,0.04081716388463974,0.7745156288146973,0.00014746752276550978,-0.21914216876029968
1009.0,933.0,1.7815,0.3332,10.212,-0.0269,0.272,-0.1245,-1.6861840687193812,-0.012540832161903381,2.2531378269195557,-2.0015201568603516,0.32134106755256653,2.4132914543151855,5.031029629498281,-0.015900973230600357,0.20708143711090088,-1.6075018087970179,0.00027651176787912846,0.12052997946739197,0.8365388512611389,0.00011648243525996804,0.03953341394662857,0.7745315432548523,0.0001364000781904906,-0.1948685497045517
1009.0,933.0,1.7815,0.3332,10.212,-0.0269,0.272,-0.1245,-1.686317583123678,-0.013251652009785175,2.143004894256592,-1.9995402097702026,0.329192578792572,2.4153151512145996,5.030969399004736,-0.014506766572594643,0.19433683156967163,-1.6074941794024866,0.0002692834532354027,0.11547580361366272,0.8365589380264282,0.00011812185402959585,0.04060865193605423,0.7744914889335632,0.0001267919287784025,-0.14757861196994781
1009.0,933.0,1.7815,0.3332,10.212,-0.0269,0.272,-0.1245,-1.6863442860045375,-0.011977264657616615,2.1512081623077393,-1.997462511062622,0.3372223377227783,2.428177833557129,5.030942070275106,-0.008690528571605682,0.20331832766532898,-1.6074941794024866,0.0002640976454131305,0.11611992120742798,0.8365786671638489,0.00011982706200797111,0.04276251792907715,0.774535596370697,0.00011844854452647269,-0.1768621802330017
1009.0,933.0,1.7815,0.3332,10.212,-0.0269,0.272,-0.1245,-1.686470171014303,-0.010516616515815258,2.1874475479125977,-1.9954187870025635,0.3410273492336273,2.4125404357910156,5.030881839781561,-0.003674030303955078,0.18035021424293518,-1.6074536482440394,0.0002975222305394709,0.1302051842212677,0.8366267681121826,0.00011413086031097919,0.045989230275154114,0.7744875550270081,0.00011113540676888078,-0.2408646047115326
994.0,977.0,1.2275,0.1531,9.7801,-0.0238,0.3725,-0.1257,-1.6865412197508753,-0.010426212102174759,2.1900806427001953,-1.9932721853256226,0.34640979766845703,2.4093756675720215,5.030869948654928,-0.0015820745611563325,0.18261003494262695,-1.60746938387026,0.00034143083030357957,0.1310565024614334,0.8365905284881592,0.00010894978186115623,0.03993302956223488,0.7744834423065186,0.00010467282845638692,-0.17154750227928162
994.0,977.0,1.2275,0.1531,9.7801,-0.0238,0.3725,-0.1257,-1.686552187005514,-0.01102625485509634,2.0957062244415283,-1.9912060499191284,0.3523966372013092,2.4145994186401367,5.030825394182958,-0.0007999238441698253,0.17638330161571503,-1.6074937025653284,0.00034156403853558004,0.13234968483448029,0.8365785479545593,0.00013408299128059298,0.0459178201854229,0.7745316028594971,0.00011539809929672629,-0.22933539748191833
994.0,977.0,1.2275,0.1531,9.7801,-0.0238,0.3725,-0.1257,-1.6866566143431605,-0.011420846916735172,2.1344709396362305,-1.989009976387024,0.35702136158943176,2.421123743057251,5.030857699900427,-0.002746052574366331,0.18166431784629822,-1.6074898878680628,0.0005129608325660229,0.13011334836483002,0.8366383910179138,0.00012356221850495785,0.03684238716959953,0.7745195627212524,0.00010939536150544882,-0.22083064913749695
994.0,977.0,1.2275,0.1531,9.7801,-0.0238,0.3725,-0.1257,-1.6867324314513148,-0.01160756777971983,2.1190247535705566,-1.986863136291504,0.3608624041080475,2.3488473892211914,5.030837732344427,-0.0030748608987778425,0.17333851754665375,-1.6074374357806605,0.0005308573599904776,0.13169947266578674,0.8365350961685181,0.00011415804328862578,0.04231288284063339,0.7745475172996521,0.00010397883306723088,-0.18462522327899933
994.0,977.0,1.2275,0.1531,9.7801,-0.0238,0.3725,-0.1257,-1.6868416271605433,-0.011976808309555054,2.111290216445923,-1.984744668006897,0.36537253856658936,2.369871139526367,5.030793624907293,-0.005324909463524818,0.16257041692733765,-1.6074736754046839,0.001719295047223568,0.1277139037847519,0.8365625739097595,0.00010608411685097963,0.0446646623313427,0.7745595574378967,9.907343337545171e-05,-0.2004365772008896
994.0,977.0,1.2275,0.1531,9.7801,-0.0238,0.3725,-0.1257,-1.6868640385069789,-0.012740878388285637,2.0767710208892822,-1.9826064109802246,0.36761149764060974,2.4289565086364746,5.030733781843939,-0.008829155005514622,0.16985619068145752,-1.6073978582965296,0.013446963392198086,0.1337863802909851,0.8366305828094482,0.00011888056178577244,0.03086627461016178,0.774535596370697,0.00010350829688832164,-0.19657433032989502
994.0,977.0,1.2275,0.1531,9.7801,-0.0238,0.3725,-0.1257,-1.6869727573790492,-0.013842025771737099,2.075942039489746,-1.980376124382019,0.3655758500099182,2.4087114334106445,5.030697780638494,-0.011660616844892502,0.16501018404960632,-1.6072734037982386,0.03015068918466568,0.15530294179916382,0.8366667032241821,0.00011152541992487386,0.04494504630565643,0.7745676040649414,0.00010153919720323756,-0.19309991598129272
994.0,977.0,1.2275,0.1531,9.7801,-0.0238,0.3725,-0.1257,-1.687052389184469,-0.015107116661965847,2.04122257232666,-1.9782377481460571,0.3767808973789215,2.456986427307129,5.030633705645361,-0.013331894762814045,0.15630967915058136,-1.6070693174945276,0.03158458322286606,0.15448686480522156,0.8365905284881592,0.00010501858923817053,0.03886520117521286,0.7745674848556519,0.0001513835886726156,-0.17368698120117188
994.0,977.0,1.2275,0.1531,9.7801,-0.0238,0.3725,-0.1257,-1.6871401272215785,-0.015308370813727379,2.0805084705352783,-1.9760268926620483,0.3767809271812439,2.3991708755493164,5.030489313393392,-0.018152957782149315,0.1329573392868042,-1.606917683278219,0.02566642127931118,0.14011752605438232,0.8366385102272034,9.922899334924296e-05,0.040191687643527985,0.7745755910873413,0.0007418931345455348,-0.21920517086982727
994.0,977.0,1.2275,0.1531,9.7801,-0.0238,0.3725,-0.1257,-1.6872483692564906,-0.01604965329170227,2.074584722518921,-1.973724126815796,0.37739554047584534,2.427588701248169,5.030369448452749,-0.026635438203811646,0.15345579385757446,-1.6067894140826624,0.013680828735232353,0.139434814453125,0.8366147875785828,0.00010918982297880575,0.030130606144666672,0.7745355367660522,0.00052623450756073,-0.19158464670181274
994.0,977.0,1.2275,0.1531,9.7801,-0.0238,0.3725,-0.1257,-1.6873399219908656,-0.018274301663041115,2.0896897315979004,-1.9714893102645874,0.37752071022987366,2.440671920776367,5.030137407570638,-0.04173506423830986,0.12907642126083374,-1.6068018118487757,0.002084903884679079,0.1574966013431549,0.8366146683692932,0.00010427059896755964,0.03860289230942726,0.7745355367660522,0.000407159241149202,-0.19861683249473572
994.0,977.0,1.2275,0.1531,9.7801,-0.0238,0.3725,-0.1257,-1.687523981133932,-0.02210872992873192,2.0509443283081055,-1.9684728384017944,0.37299102544784546,2.4448869228363037,5.029661017447271,-0.08661041408777237,0.10773029923439026,-1.6067741552936,-0.0006633304874412715,0.15583497285842896,0.8365825414657593,9.779621905181557e-05,0.040625497698783875,0.7745436429977417,0.00036419081152416766,-0.19976791739463806
994.0,977.0,1.2275,0.1531,9.7801,-0.0238,0.3725,-0.1257,-1.6876722774901332,-0.023867662996053696,2.060563802719116,-1.9661706686019897,0.3785797357559204,2.407740592956543,5.029020207911291,-0.12731072306632996,0.09840544313192368,-1.606786076222555,-0.0002966645697597414,0.15765629708766937,0.8365865349769592,0.0001033571534208022,0.04984074458479881,0.7745715975761414,0.00035528800799511373,-0.2311173975467682
994.0,977.0,1.2275,0.1531,9.7801,-0.0238,0.3725,-0.1257,-1.6878038845457972,-0.023832567036151886,2.0695204734802246,-1.9639428853988647,0.3787921965122223,2.3660616874694824,5.028099912195959,-0.1561470627784729,0.07827562838792801,-1.606753174458639,-0.00019826188508886844,0.14396150410175323,0.8365586400032043,0.0001022432406898588,0.03969024121761322,0.7745795249938965,0.00030949077336117625,-0.19998770952224731
994.0,977.0,1.2275,0.1531,9.7801,-0.0238,0.3725,-0.1257,-1.6879197559752406,-0.02332450821995735,1.996801733970642,-1.961625576019287,0.38009682297706604,2.463273525238037,5.027164149075308,-0.16743730008602142,0.06744340062141418,-1.6067655722247522,-7.521928637288511e-05,0.1433008760213852,0.836650550365448,9.806638263398781e-05,0.03954309970140457,0.7745715975761414,0.00023987088934518397,-0.16808903217315674
986.0,966.0,0.0401,0.0359,9.4223,-0.0629,0.098,-0.1158,-1.688103815118307,-0.025149378925561905,2.061717987060547,-1.9593478441238403,0.3802929222583771,2.3979523181915283,5.026075142412939,-0.177982896566391,0.07266346365213394,-1.6067779699908655,-5.966093158349395e-05,0.1518997848033905,0.8366226553916931,9.421662980457768e-05,0.04712558165192604,0.7745715975761414,0.0002460275427438319,-0.19952654838562012
986.0,966.0,0.0401,0.0359,9.4223,-0.0629,0.098,-0.1158,-1.6882149181761683,-0.02819441817700863,2.0405333042144775,-1.9570173025131226,0.38529685139656067,2.419382333755493,5.024926560908117,-0.2052311897277832,0.057350512593984604,-1.606713596974508,-4.976000127498992e-05,0.15091636776924133,0.8366307020187378,9.065770427696407e-05,0.04054117202758789,0.7745755910873413,0.00022315647220239043,-0.20643848180770874
986.0,966.0,0.0401,0.0359,9.4223,-0.0629,0.098,-0.1158,-1.6884762249388636,-0.03321163356304169,2.0599710941314697,-1.9547806978225708,0.3848743140697479,2.377990484237671,5.023598718434133,-0.21751059591770172,0.030799198895692825,-1.6067741552936,-4.267854819772765e-05,0.16701896488666534,0.8366345167160034,8.73578610480763e-05,0.053364347666502,0.7745876312255859,0.0002041717671090737,-0.19290399551391602
986.0,966.0,0.0401,0.0359,9.4223,-0.0629,0.098,-0.1158,-1.6886183224120082,-0.036790430545806885,2.0117127895355225,-1.9524827003479004,0.3853724002838135,2.4291090965270996,5.022278296738424,-0.24144136905670166,0.04155697301030159,-1.6067536512957972,-1.1879730976716019e-08,0.16033095121383667,0.8366107940673828,8.421981328865513e-05,0.04497857391834259,0.7745475769042969,0.00016464800864923745,-0.18254026770591736
986.0,966.0,0.0401,0.0359,9.4223,-0.0629,0.098,-0.1158,-1.688882967034811,-0.04369143769145012,2.001932144165039,-1.9501653909683228,0.3805589973926544,2.4181292057037354,5.0206655142600916,-0.27041107416152954,0.01838022843003273,-1.6067217032061976,-3.306766752780854e-12,0.16602157056331635,0.8366464972496033,7.97619140939787e-05,0.0475325882434845,0.7745035886764526,0.0001528465945739299,-0.20493660867214203
986.0,966.0,0.0401,0.0359,9.4223,-0.0629,0.098,-0.1158,-1.6891304455199183,-0.04988531023263931,2.042684555053711,-1.9478156566619873,0.3868303894996643,2.4186127185821533,5.019036042481222,-0.28499728441238403,0.00635112589225173,-1.6067174116717737,-9.204506926278693e-16,0.1675334870815277,0.8365551233291626,7.573465700261295e-05,0.03688911348581314,0.7745715975761414,4.577034997055307e-05,-0.2552211582660675
986.0,966.0,0.0401,0.0359,9.4223,-0.0629,0.098,-0.1158,-1.6895071468748988,-0.05519444867968559,2.013822555541992,-1.9455499649047852,0.3917401432991028,2.3973159790039062,5.017207312374868,-0.31635501980781555,-0.007590617053210735,-1.606741730366842,-2.562108195345982e-19,0.16727155447006226,0.8366544842720032,7.209461182355881e-05,0.046974487602710724,0.7745474576950073,4.252603685017675e-05,-0.21545211970806122
986.0,966.0,0.0401,0.0359,9.4223,-0.0629,0.098,-0.1158,-1.6897937260069789,-0.06061166897416115,2.0583863258361816,-1.9432291984558105,0.3914055824279785,2.441614866256714,5.015135663538732,-0.3520447313785553,-0.02742369845509529,-1.6067536512957972,0.0005183338653296232,0.167051762342453,0.8365585803985596,6.878839485580102e-05,0.03507759049534798,0.7745236754417419,7.971651712068706e-07,-0.22202461957931519
986.0,966.0,0.0401,0.0359,9.4223,-0.0629,0.098,-0.1158,-1.6902300320067347,-0.06868885457515717,1.9452166557312012,-1.9408595561981201,0.3953503966331482,2.4379684925079346,5.012826192169943,-0.38247695565223694,-0.031130071729421616,-1.6067617575274866,0.0005066752200946212,0.15847766399383545,0.8365987539291382,6.577213207492605e-05,0.03133667632937431,0.7744874954223633,1.9250599378461963e-12,-0.2508002817630768
986.0,966.0,0.0401,0.0359,9.4223,-0.0629,0.098,-0.1158,-1.6907063923277796,-0.07597775012254715,1.9537595510482788,-1.9384620189666748,0.38952094316482544,2.419557809829712,5.010500478535452,-0.41667184233665466,-0.05781269073486328,-1.6066935698138636,0.000524662435054779,0.16919498145580292,0.8365825414657593,5.0622224080143496e-05,0.03442409634590149,0.7744956016540527,4.648792679265887e-18,-0.24031493067741394
986.0,966.0,0.0401,0.0359,9.4223,-0.0629,0.098,-0.1158,-1.6911732159056605,-0.08581563085317612,1.9597392082214355,-1.9360933303833008,0.3956960439682007,2.44903826713562,5.007908481150427,-0.4475652873516083,-0.06925709545612335,-1.6067097822772425,0.00047354947309941053,0.1542752981185913,0.8365746140480042,4.837546293856576e-05,0.03975054621696472,0.7744954824447632,1.1226285853087461e-23,-0.2248723804950714
986.0,966.0,0.0401,0.0359,9.4223,-0.0629,0.098,-0.1158,-1.691671987573141,-0.09209759533405304,1.9648349285125732,-1.933715581893921,0.39557674527168274,2.4519805908203125,5.005119818239965,-0.47912758588790894,-0.07535752654075623,-1.6067021528827112,0.0005650818347930908,0.16138911247253418,0.8366107940673828,4.6500845201080665e-05,0.03169725835323334,0.7745474576950073,2.711015725990695e-29,-0.28153765201568604
986.0,966.0,0.0401,0.0359,9.4223,-0.0629,0.098,-0.1158,-1.6922394237914027,-0.08752454817295074,2.023178815841675,-1.9312982559204102,0.39423036575317383,2.468411922454834,5.002061533718862,-0.5147677063941956,-0.07750336080789566,-1.6066978613482874,0.0006775695364922285,0.16215930879116058,0.8365630507469177,4.476615140447393e-05,0.030500248074531555,0.7744995951652527,-0.00019908887043129653,-0.2705147862434387
986.0,966.0,0.0401,0.0359,9.4223,-0.0629,0.098,-0.1158,-1.692824502984518,-0.07866399735212326,2.0233922004699707,-1.9288361072540283,0.39368367195129395,2.4146225452423096,4.998777377396383,-0.5528183579444885,-0.07055025547742844,-1.6067140738116663,0.0009451878722757101,0.17288219928741455,0.8365987539291382,4.315619662520476e-05,0.027540173381567,0.774535596370697,-0.00039848461165092885,-0.2927725315093994
986.0,966.0,0.0401,0.0359,9.4223,-0.0629,0.098,-0.1158,-1.6932627163329066,-0.07481278479099274,1.9723576307296753,-1.926572561264038,0.3969408869743347,2.417505979537964,4.995239364891805,-0.5960456132888794,-0.10220281779766083,-1.6066902319537562,0.0009390817722305655,0.17409510910511017,0.8365590572357178,4.165802602074109e-05,0.03268978372216225,0.7745235562324524,-0.0003494546690490097,-0.27026012539863586
955.0,940.0,-0.341,-0.0604,8.7667,-0.071,-0.4493,-0.1202,-1.6937996349730433,-0.07449723035097122,2.0041775703430176,-1.9242503643035889,0.39356687664985657,2.408379554748535,4.991290408163824,-0.6377647519111633,-0.09530717134475708,-1.606645409260885,0.0020480609964579344,0.16956958174705505,0.8366067409515381,3.053221007576212e-05,0.027743728831410408,0.7745435237884521,-0.00019825513300020248,-0.25957101583480835
955.0,940.0,-0.341,-0.0604,8.7667,-0.071,-0.4493,-0.1202,-1.6941615543761195,-0.07798386365175247,2.0163865089416504,-1.9219326972961426,0.390712708234787,2.4029154777526855,4.987361895829,-0.6779183745384216,-0.10811813175678253,-1.6066296736346644,0.0020196030382066965,0.17509639263153076,0.8365865349769592,1.2739741350742406e-07,0.01748364418745041,0.774535596370697,-0.00022345154138747603,-0.29129087924957275
955.0,940.0,-0.341,-0.0604,8.7667,-0.071,-0.4493,-0.1202,-1.6946288547911585,-0.08585768193006516,2.0011520385742188,-1.9195951223373413,0.38426029682159424,2.4005019664764404,4.983056682139196,-0.7263904809951782,-0.09936966001987457,-1.6066377798663538,0.003293955698609352,0.18095174431800842,0.8366107940673828,3.546153648503747e-11,0.015200461260974407,0.7745435833930969,-0.00023155426606535912,-0.29004162549972534
955.0,940.0,-0.341,-0.0604,8.7667,-0.071,-0.4493,-0.1202,-1.6953126392760218,-0.09384360909461975,1.9726555347442627,-1.91647469997406,0.39067384600639343,2.42972731590271,4.977156775980749,-0.7725046277046204,-0.118252694606781,-1.6065614859210413,0.0054605696350336075,0.18122035264968872,0.8366866111755371,-3.797621320700273e-05,-0.0011451411992311478,0.7744434475898743,-0.00033667421666905284,-0.27224642038345337
955.0,940.0,-0.341,-0.0604,8.7667,-0.071,-0.4493,-0.1202,-1.6958476505675257,-0.09300009906291962,1.9784427881240845,-1.914142370223999,0.39860567450523376,2.455916404724121,4.972443568497457,-0.8104285001754761,-0.12195873260498047,-1.606480900441305,0.008325506001710892,0.19377535581588745,0.8365511894226074,-3.591742643038742e-05,0.012834770604968071,0.7744554877281189,-0.0007420791662298143,-0.31376442313194275
955.0,940.0,-0.341,-0.0604,8.7667,-0.071,-0.4493,-0.1202,-1.696383615533346,-0.09135837107896805,1.9840178489685059,-1.9117282629013062,0.4016255736351013,2.4693071842193604,4.967603909760275,-0.8326610922813416,-0.10598436743021011,-1.6064370314227503,0.011732613667845726,0.18763834238052368,0.8365471959114075,-5.0828173698391765e-05,0.013235412538051605,0.7744515538215637,-0.0006964102503843606,-0.2839299440383911
955.0,940.0,-0.341,-0.0604,8.7667,-0.071,-0.4493,-0.1202,-1.696953912774557,-0.09412956237792969,1.9746391773223877,-1.909363865852356,0.4060521721839905,2.4476089477539062,4.962360653072157,-0.8678870797157288,-0.10503758490085602,-1.6064098517047327,0.01454817783087492,0.20157575607299805,0.8365671038627625,-6.414468225557357e-05,0.009387051686644554,0.7744994759559631,-0.0005230220267549157,-0.33271849155426025
955.0,940.0,-0.341,-0.0604,8.7667,-0.071,-0.4493,-0.1202,-1.6975985966124476,-0.09788279235363007,2.0226738452911377,-1.9069087505340576,0.4015871584415436,2.4770126342773438,4.957057791739263,-0.8945168852806091,-0.08703432977199554,-1.6062935034381312,0.01653808169066906,0.1923125684261322,0.8365985751152039,-7.219930557766929e-05,-0.0029051569290459156,0.7744555473327637,-0.0004187092126812786,-0.30408456921577454
955.0,940.0,-0.341,-0.0604,8.7667,-0.071,-0.4493,-0.1202,-1.698238035241598,-0.10417294502258301,1.9998829364776611,-1.9044175148010254,0.4049344062805176,2.4754247665405273,4.951548325806417,-0.9283009767532349,-0.1253701001405716,-1.6061895529376429,0.02323201112449169,0.1903582662343979,0.8365945816040039,-7.244510197779164e-05,-0.00012880316353403032,0.7744835615158081,-0.00038174999644979835,-0.3121490478515625
955.0,940.0,-0.341,-0.0604,8.7667,-0.071,-0.4493,-0.1202,-1.6988126240172328,-0.10575083643198013,2.034018039703369,-1.9020088911056519,0.40144336223602295,2.4869794845581055,4.945822256594457,-0.9492202401161194,-0.11504749953746796,-1.6060088316546839,0.037388674914836884,0.20452696084976196,0.8365710973739624,-6.910841329954565e-05,0.004841775167733431,0.7744355797767639,-0.0003420899738557637,-0.3462089002132416
955.0,940.0,-0.341,-0.0604,8.7667,-0.071,-0.4493,-0.1202,-1.699440141717428,-0.10698490589857101,1.9864602088928223,-1.8995575904846191,0.39937666058540344,2.4633638858795166,4.940106156259336,-0.9772421717643738,-0.07904203981161118,-1.6057089010821741,0.0597989484667778,0.2193918526172638,0.8366144299507141,-0.00019746694306377321,0.007907085120677948,0.7744554877281189,-0.0002650262031238526,-0.3159608840942383
955.0,940.0,-0.341,-0.0604,8.7667,-0.071,-0.4493,-0.1202,-1.7000967464842738,-0.10412926971912384,2.047048568725586,-1.8971022367477417,0.39929327368736267,2.4890387058258057,4.934182363539495,-0.9976615309715271,-0.09552326053380966,-1.6051886717425745,0.10048544406890869,0.22095265984535217,0.8365905284881592,-0.00017462190589867532,-0.0037391402292996645,0.7744675874710083,-0.0003235710319131613,-0.3228585422039032
955.0,940.0,-0.341,-0.0604,8.7667,-0.071,-0.4493,-0.1202,-1.7006265125670375,-0.10013319551944733,2.124763011932373,-1.894682765007019,0.4104789197444916,2.5574498176574707,4.928194272309103,-1.0086044073104858,-0.09726721048355103,-1.6043718496905726,0.16056978702545166,0.2460511326789856,0.8365231156349182,-0.00018761934188660234,0.0009865351021289825,0.7744395136833191,-0.0005986648611724377,-0.31320804357528687
955.0,940.0,-0.341,-0.0604,8.7667,-0.071,-0.4493,-0.1202,-1.7012134991087855,-0.09266317635774612,2.1246771812438965,-1.8922871351242065,0.41511237621307373,2.5237770080566406,4.922079700022497,-1.01045560836792,-0.06309568881988525,-1.6031997839557093,0.2000468373298645,0.2537577748298645,0.8365349769592285,-0.00016996744670905173,-0.006794041953980923,0.7744675874710083,-0.0005133741651661694,-0.3513677716255188
955.0,940.0,-0.341,-0.0604,8.7667,-0.071,-0.4493,-0.1202,-1.701724191705221,-0.0880671963095665,2.1649575233459473,-1.8898086547851562,0.42156192660331726,2.5501279830932617,4.9159676162298105,-1.017270803451538,-0.047799043357372284,-1.6020243803607386,0.20434105396270752,0.27696138620376587,0.8366025686264038,-0.0001810679241316393,-0.0054063075222074986,0.7744474411010742,-0.0003408531774766743,-0.30286335945129395
954.0,945.0,3.201,1.2796,10.8586,-0.452,-0.64,-0.1301,-1.7023364506163539,-0.08679140359163284,2.2007572650909424,-1.88723623752594,0.42046281695365906,2.57680344581604,4.909918355732717,-1.0225592851638794,-0.0464777946472168,-1.6005891005145472,0.2523510158061981,0.27905943989753723,0.8365905284881592,-0.00016679317923262715,-0.0007988898432813585,0.7745074033737183,-0.00027239214978180826,-0.30616217851638794
954.0,945.0,3.201,1.2796,10.8586,-0.452,-0.64,-0.1301,-1.7028356991209925,-0.08325554430484772,2.1917831897735596,-1.8847092390060425,0.4335803687572479,2.647029161453247,4.903828623681822,-1.0146268606185913,-0.042809344828128815,-1.5989840666400355,0.2721560299396515,0.2732986509799957,0.8364912271499634,-0.00015451967192348093,0.008047038689255714,0.7744873762130737,-0.00018630956765264273,-0.3159976005554199
954.0,945.0,3.201,1.2796,10.8586,-0.452,-0.64,-0.1301,-1.7033354244627894,-0.07885265350341797,2.2630481719970703,-1.882165789604187,0.4413048028945923,2.6536054611206055,4.897644015937605,-1.0046441555023193,-0.03535410761833191,-1.5971711317645472,0.32327598333358765,0.2885160446166992,0.8365269899368286,-0.0001439289189875126,0.00820042472332716,0.7745073437690735,-0.00011991085921181366,-0.2765958905220032
954.0,945.0,3.201,1.2796,10.8586,-0.452,-0.64,-0.1301,-1.7037621937193812,-0.07476940006017685,2.2722878456115723,-1.879542589187622,0.4493025243282318,2.7025413513183594,4.891670483141699,-0.9940196871757507,-0.01009365264326334,-1.595102612172262,0.3466756343841553,0.27844512462615967,0.8365790247917175,-0.0001346967474091798,-0.003285665065050125,0.774443507194519,-4.4331896788207814e-05,-0.26529327034950256
954.0,945.0,3.201,1.2796,10.8586,-0.452,-0.64,-0.1301,-1.7041861019530238,-0.07036521285772324,2.311286211013794,-1.8768229484558105,0.44608601927757263,2.698375701904297,4.885745692044058,-0.9897835850715637,-0.020148728042840958,-1.5928824583636683,0.39179643988609314,0.30633124709129333,0.8365671038627625,-0.00013999248039908707,0.006126858294010162,0.7744594812393188,-3.826817192020826e-05,-0.2883347272872925
954.0,945.0,3.201,1.2796,10.8586,-0.452,-0.64,-0.1301,-1.7045895061888636,-0.06651734560728073,2.329011917114258,-1.874026894569397,0.45222264528274536,2.702803373336792,4.879999029427328,-0.9729396104812622,-0.007727360352873802,-1.5904868284808558,0.42953771352767944,0.33233195543289185,0.8365509510040283,-0.00013643491547554731,0.00036994757829234004,0.7744594812393188,-3.3938675187528133e-05,-0.23986639082431793
954.0,945.0,3.201,1.2796,10.8586,-0.452,-0.64,-0.1301,-1.7049852810301722,-0.06462934613227844,2.365828514099121,-1.871299147605896,0.46197807788848877,2.7079367637634277,4.874302419811048,-0.9542550444602966,0.012350097298622131,-1.5877159277545374,0.4616051912307739,0.32413047552108765,0.8366223573684692,-0.00012909711222164333,-0.003937394358217716,0.7744675874710083,-2.385605324395357e-10,-0.19931480288505554
954.0,945.0,3.201,1.2796,10.8586,-0.452,-0.64,-0.1301,-1.7053691349425257,-0.060101114213466644,2.3848795890808105,-1.8683971166610718,0.4701152741909027,2.741194486618042,4.868494811445036,-0.9367495775222778,-0.004676060751080513,-1.5847309271441858,0.500980019569397,0.3339170813560486,0.8365309834480286,-0.00012250732106622308,0.0005496158264577389,0.7744634747505188,-5.760956418500603e-16,-0.25567159056663513
954.0,945.0,3.201,1.2796,10.8586,-0.452,-0.64,-0.1301,-1.705696245233053,-0.05513404682278633,2.425748109817505,-1.865585207939148,0.4748089015483856,2.7390170097351074,4.863017591625013,-0.9115738272666931,0.002099554752930999,-1.5815776030169886,0.5455957651138306,0.3090822398662567,0.8365032076835632,-0.00010913337609963492,-0.00976160354912281,0.7744913697242737,-1.3912034875244696e-21,-0.24417445063591003
954.0,945.0,3.201,1.2796,10.8586,-0.452,-0.64,-0.1301,-1.7061039410033167,-0.04723797366023064,2.4721927642822266,-1.861701250076294,0.4877041280269623,2.802149534225464,4.855833786516943,-0.8829217553138733,0.016978761181235313,-1.576930348073141,0.597025454044342,0.3383086323738098,0.8365508913993835,-9.94394940789789e-05,-0.007173840422183275,0.7744834423065186,-4.507322460103717e-29,-0.1895119845867157
954.0,945.0,3.201,1.2796,10.8586,-0.452,-0.64,-0.1301,-1.7063795528807582,-0.04328222945332527,2.4695703983306885,-1.8587582111358643,0.5003446936607361,2.8996715545654297,4.850726249604978,-0.859632670879364,0.04625026881694794,-1.5732443968402308,0.6325386166572571,0.3323674201965332,0.8364912271499634,-9.325707651441917e-05,-0.0012845138553529978,0.7744954824447632,-1.0884652949444652e-34,-0.24211375415325165
