ramyac6/ROB537/final_project/csv/all/bad_102.csv
tof_0,tof_1,accelx,accely,accelz,gyrox,gyroy,gyroz,shoulder_lift_joint_position,shoulder_lift_joint_velocity,shoulder_lift_joint_effort,elbow_joint_position,elbow_joint_velocity,elbow_joint_effort,wrist_1_joint_position,wrist_1_joint_velocity,wrist_1_joint_effort,wrist_2_joint_position,wrist_2_joint_velocity,wrist_2_joint_effort,wrist_3_joint_position,wrist_3_joint_velocity,wrist_3_joint_effort,shoulder_pan_joint_position,shoulder_pan_joint_velocity,shoulder_pan_joint_effort
778.0,903.0,1.2479,0.9799,9.3224,-0.0391,0.0211,-0.119,-1.8178755245604457,0.0,3.132997989654541,-1.752498745918274,-0.0,1.9772398471832275,4.917090344219961,0.0,0.29377055168151855,-1.6656978766070765,-0.0,0.006332011893391609,0.7357380986213684,-0.0,-0.005469770636409521,0.8110800385475159,0.0,-0.00314893526956439
778.0,903.0,1.2479,0.9799,9.3224,-0.0391,0.0211,-0.119,-1.8178593120970667,0.0,3.0585649013519287,-1.7525349855422974,-0.0,2.016411304473877,4.917126136809149,0.0,0.29328563809394836,-1.6656659285174769,-0.0,0.0010799991432577372,0.735745906829834,-0.0,-0.0030014505609869957,0.8110515475273132,0.0,-0.00021655671298503876
778.0,903.0,1.2479,0.9799,9.3224,-0.0391,0.0211,-0.119,-1.8178674183287562,0.0,3.0981802940368652,-1.7524750232696533,-0.0,2.0502498149871826,4.917046445399084,0.0,0.2822057604789734,-1.665701691304342,-0.0,0.004806960001587868,0.735745906829834,-0.0,0.009847589768469334,0.8110594749450684,-4.34732015719419e-07,-0.02015252783894539
778.0,903.0,1.2479,0.9799,9.3224,-0.0391,0.0211,-0.119,-1.8179079494872035,0.0,3.0799057483673096,-1.7525349855422974,-0.0,2.042909860610962,4.9170943079288385,0.0,0.30130845308303833,-1.6656740347491663,-0.0,0.0019373701652511954,0.7357218265533447,-0.0,-0.0010035388404503465,0.8110638856887817,-1.049826892085548e-12,0.015764236450195312
778.0,903.0,1.2479,0.9799,9.3224,-0.0391,0.0211,-0.119,-1.8178674183287562,0.0,3.069355010986328,-1.7524906396865845,-0.0,2.047175645828247,4.9170943079288385,0.0,0.28709545731544495,-1.6657050291644495,-0.0,0.0039757732301950455,0.7357701659202576,-0.0,-0.012090539559721947,0.8110758662223816,-2.535208695416064e-18,0.017038317397236824
778.0,903.0,1.2479,0.9799,9.3224,-0.0391,0.0211,-0.119,-1.8178922138609828,0.0,3.128904342651367,-1.7525070905685425,-0.0,1.9343657493591309,4.917118105083265,0.0,0.2978363335132599,-1.6656740347491663,-0.0,-0.0022005648352205753,0.7357581257820129,-0.0,-0.002211153507232666,0.8110114932060242,-6.122230367423584e-24,0.00777764618396759
778.0,903.0,1.2479,0.9799,9.3224,-0.0391,0.0211,-0.119,-1.8178798160948695,0.0,3.098966360092163,-1.7524864673614502,-0.0,2.0546019077301025,4.91710618415431,0.0,0.2816500663757324,-1.6656492392169397,-0.0,-0.01860213093459606,0.7357338070869446,-0.0,-0.011136498302221298,0.8111201524734497,-1.983524935797865e-31,-0.011155849322676659
778.0,903.0,1.2479,0.9799,9.3224,-0.0391,0.0211,-0.119,-1.8178960285582484,0.0,3.066657066345215,-1.7525554895401,-0.0,2.0135397911071777,4.917114156275549,0.0,0.2806514799594879,-1.6656411329852503,-0.0,0.002714987611398101,0.7357298135757446,-0.0,0.0013925654347985983,0.8110638856887817,-4.789979395264257e-37,-0.01510400790721178
785.0,899.0,1.2658,0.9607,9.3835,-0.0368,0.0266,-0.126,-1.817883630792135,0.0,3.035707473754883,-1.7525711059570312,-0.0,2.022000789642334,4.917110192566671,0.0,0.28642159700393677,-1.6656892935382288,-0.0,-0.002958598081022501,0.7357059121131897,-0.0,-0.007069168146699667,0.8110718131065369,-1.1560712330679741e-42,-0.018350642174482346
785.0,899.0,1.2658,0.9607,9.3835,-0.0368,0.0266,-0.126,-1.8178674183287562,0.0,3.064793109893799,-1.7524906396865845,-0.0,2.043304204940796,4.917122113495626,0.0,0.29301053285598755,-1.6656211058246058,-0.0,-0.010105710476636887,0.7357299327850342,-0.0,-0.0030840039253234863,0.8110639452934265,0.0,0.00582293514162302
785.0,899.0,1.2658,0.9607,9.3835,-0.0368,0.0266,-0.126,-1.8178922138609828,0.0,3.072661876678467,-1.752530813217163,-0.0,2.0392932891845703,4.917082386999883,0.0,0.2881515920162201,-1.6656768957721155,-0.0,0.006999148055911064,0.7357499599456787,-0.0,-0.016969043761491776,0.8110638856887817,0.0,-0.0056578838266432285
785.0,899.0,1.2658,0.9607,9.3835,-0.0368,0.0266,-0.126,-1.8178392849364222,0.0,3.010124683380127,-1.7525112628936768,-0.0,2.052088737487793,4.917086350708761,0.0,0.2893471121788025,-1.6656530539142054,-0.0,-0.00044035911560058594,0.7357422113418579,-0.0,-0.018453635275363922,0.8110842108726501,0.0,-0.014947498217225075
785.0,899.0,1.2658,0.9607,9.3835,-0.0368,0.0266,-0.126,-1.8179003200926722,0.0,3.095231771469116,-1.752506971359253,-0.0,1.999288558959961,4.9170983163412,0.0,0.28314799070358276,-1.665701691304342,-0.0,-0.005567710381001234,0.7358103394508362,-0.0,0.008484749123454094,0.8111163377761841,0.0,0.003218044526875019
785.0,899.0,1.2658,0.9607,9.3835,-0.0368,0.0266,-0.126,-1.8178755245604457,0.0,3.0974156856536865,-1.7525867223739624,-0.0,2.045358180999756,4.917050319700994,0.0,0.2970971167087555,-1.6656768957721155,-0.0,-0.0066918558441102505,0.7357339859008789,-0.0,0.010917128063738346,0.8110920786857605,0.0,0.00436081737279892
785.0,899.0,1.2658,0.9607,9.3835,-0.0368,0.0266,-0.126,-1.8178922138609828,0.0,3.025801181793213,-1.752458930015564,-0.0,2.011148452758789,4.917102205544271,0.0,0.29945868253707886,-1.665685002003805,-0.0,0.0028011961840093136,0.7357540726661682,-0.0,0.010086816735565662,0.8110721111297607,0.0,0.018695177510380745
785.0,899.0,1.2658,0.9607,9.3835,-0.0368,0.0266,-0.126,-1.8178674183287562,0.0,3.098620891571045,-1.7525391578674316,-0.0,1.9924429655075073,4.917098271637716,0.0,0.2832592725753784,-1.665661636983053,-0.0,-0.012954875826835632,0.7357178926467896,-0.0,-0.005360870156437159,0.8110597729682922,0.0,-0.015622099861502647
785.0,899.0,1.2658,0.9607,9.3835,-0.0368,0.0266,-0.126,-1.8179079494872035,0.0,3.1271018981933594,-1.7524906396865845,-0.0,1.97458016872406,4.917070525675573,0.0,0.29838117957115173,-1.6656978766070765,-0.0,0.005452174227684736,0.7357580661773682,-0.0,-0.0004239962436258793,0.8110518455505371,0.0,-0.032619837671518326
785.0,899.0,1.2658,0.9607,9.3835,-0.0368,0.0266,-0.126,-1.8178960285582484,0.0,3.0237021446228027,-1.7524832487106323,-0.0,2.0299315452575684,4.917110192566671,0.0,0.2856905460357666,-1.6656935850726526,-0.0,-0.009838806465268135,0.7357380986213684,-0.0,-0.01105065830051899,0.8110962510108948,0.0,0.004945575259625912
785.0,899.0,1.2658,0.9607,9.3835,-0.0368,0.0266,-0.126,-1.817904611627096,0.0,3.063261032104492,-1.7525349855422974,-0.0,2.023561954498291,4.917066517263212,0.0,0.2867116928100586,-1.6656768957721155,-0.0,0.007375706918537617,0.7357017397880554,-0.0,0.006945550907403231,0.8110842108726501,0.0,-0.014877637848258018
785.0,899.0,1.2658,0.9607,9.3835,-0.0368,0.0266,-0.126,-1.817887922326559,0.0,3.027512550354004,-1.7524946928024292,-0.0,2.0219054222106934,4.9170424071844,0.0,0.2937595248222351,-1.6656492392169397,-0.0,-0.004088074900209904,0.7357058525085449,-0.0,-0.002364068990573287,0.8110597729682922,0.0,-0.012623024173080921
785.0,899.0,1.2658,0.9607,9.3835,-0.0368,0.0266,-0.126,-1.8178111515440882,0.0,3.124394178390503,-1.7525546550750732,-0.0,2.0672030448913574,4.917070525675573,0.0,0.2769585847854614,-1.6656492392169397,-0.0,-0.0009990147082135081,0.7357258796691895,-0.0,0.0004284532042220235,0.8110477328300476,0.0,-0.02127474546432495
785.0,899.0,1.2658,0.9607,9.3835,-0.0368,0.0266,-0.126,-1.817944189111227,0.0,3.0424466133117676,-1.752539038658142,-0.0,2.028834819793701,4.917114156275549,0.0,0.2959628701210022,-1.665661636983053,-0.0,0.004935182631015778,0.735774040222168,-0.0,-0.01472481805831194,0.8110556602478027,0.0,0.025746464729309082
739.0,875.0,1.264,0.9679,9.3087,-0.042,0.0278,-0.118,-1.8179041347899378,0.0,3.053004741668701,-1.7525153160095215,-0.0,2.069488525390625,4.917133989721098,0.0,0.2936047911643982,-1.6656973997699183,-0.0,0.006526502314954996,0.7357017397880554,-0.0,-0.02116149663925171,0.8110920786857605,0.0,-0.014972053468227386
739.0,875.0,1.264,0.9679,9.3087,-0.042,0.0278,-0.118,-1.8179241619505824,0.0,3.075275421142578,-1.7524832487106323,-0.0,2.0085785388946533,4.917114156275549,0.0,0.2747993767261505,-1.665644947682516,-0.0,0.0002938294783234596,0.7356702089309692,-0.0,-0.0032256650738418102,0.8110721111297607,0.0,0.02270687371492386
739.0,875.0,1.264,0.9679,9.3087,-0.042,0.0278,-0.118,-1.817887922326559,0.0,3.087179183959961,-1.7524946928024292,-0.0,2.072263717651367,4.917137938528814,0.0,0.2921443283557892,-1.665701691304342,-0.0,0.00312599865719676,0.7357981204986572,-0.0,-0.006351483054459095,0.8110597729682922,0.0,-0.00592163298279047
739.0,875.0,1.264,0.9679,9.3087,-0.042,0.0278,-0.118,-1.8178631267943324,0.0,3.0872111320495605,-1.7525670528411865,-0.0,2.009122848510742,4.917106228857794,0.0,0.28659117221832275,-1.6656768957721155,-0.0,-0.004683210980147123,0.7357421517372131,-0.0,-0.006264167372137308,0.8111205101013184,0.0,-0.008253104984760284
739.0,875.0,1.264,0.9679,9.3087,-0.042,0.0278,-0.118,-1.8178674183287562,0.0,3.084256649017334,-1.7525349855422974,-0.0,2.1219282150268555,4.917098271637716,0.0,0.29587647318840027,-1.6657093206988733,-0.0,0.00015281394007615745,0.7356702089309692,-0.0,-0.018981121480464935,0.8110474348068237,0.0,0.014667692594230175
739.0,875.0,1.264,0.9679,9.3087,-0.042,0.0278,-0.118,-1.8178712330260218,0.0,3.0514042377471924,-1.7524906396865845,-0.0,2.0005931854248047,4.917098271637716,0.0,0.28887829184532166,-1.665661636983053,-0.0,-0.00675933575257659,0.7356861233711243,-0.0,0.005182615015655756,0.8110800385475159,0.0,0.032179445028305054
739.0,875.0,1.264,0.9679,9.3087,-0.042,0.0278,-0.118,-1.817883630792135,0.0,3.083188533782959,-1.7524265050888062,-0.0,1.9962960481643677,4.917102235346594,0.0,0.29140087962150574,-1.6656492392169397,-0.0,0.002279262989759445,0.7356861233711243,-0.0,-0.005437527317553759,0.8110518455505371,0.0,-0.04635799303650856
739.0,875.0,1.264,0.9679,9.3087,-0.042,0.0278,-0.118,-1.817883630792135,0.0,3.0941848754882812,-1.7525112628936768,-0.0,1.9835262298583984,4.917090344219961,0.0,0.29524505138397217,-1.665713135396139,-0.0,-0.0058014607056975365,0.7357339859008789,-0.0,-0.015780674293637276,0.8110800385475159,0.0,0.02888006716966629
739.0,875.0,1.264,0.9679,9.3087,-0.042,0.0278,-0.118,-1.8178674183287562,0.0,3.0724213123321533,-1.752507209777832,-0.0,1.9887580871582031,4.917098271637716,0.0,0.29519930481910706,-1.66567308107485,-0.0,0.0015438548289239407,0.7357299327850342,-0.0,-0.006933891214430332,0.811087965965271,0.0,-0.005228862166404724
739.0,875.0,1.264,0.9679,9.3087,-0.042,0.0278,-0.118,-1.8178755245604457,0.0,3.0512964725494385,-1.7525153160095215,-0.0,2.032578468322754,4.917098286538877,0.0,0.2895667850971222,-1.6656811873065394,-0.0,0.0012725096894428134,0.7357421517372131,-0.0,0.007934654131531715,0.8111003637313843,0.0,0.027467146515846252
739.0,875.0,1.264,0.9679,9.3087,-0.042,0.0278,-0.118,-1.8178960285582484,0.0,3.08474063873291,-1.7525194883346558,-0.0,2.0115737915039062,4.91711017766551,0.0,0.2981871962547302,-1.6656659285174769,-0.0,0.013426225632429123,0.7357099056243896,-0.0,-0.009123455733060837,0.8110759258270264,0.0,0.027733569964766502
739.0,875.0,1.264,0.9679,9.3087,-0.042,0.0278,-0.118,-1.8178712330260218,0.0,3.0728116035461426,-1.752530813217163,-0.0,2.048250198364258,4.9171141413743875,0.0,0.29568755626678467,-1.6657255331622522,-0.0,0.008267681114375591,0.7357177138328552,-0.0,-0.008212319575250149,0.8110882639884949,0.0,0.02355518750846386
739.0,875.0,1.264,0.9679,9.3087,-0.042,0.0278,-0.118,-1.8179079494872035,0.0,3.1520090103149414,-1.752507209777832,-0.0,2.0024514198303223,4.917137938528814,0.0,0.28996193408966064,-1.6656492392169397,-0.0,-0.0005173333920538425,0.7357177138328552,-0.0,-0.007802674546837807,0.8110882639884949,0.0,-0.024458937346935272
739.0,875.0,1.264,0.9679,9.3087,-0.042,0.0278,-0.118,-1.8179241619505824,0.0,3.0692076683044434,-1.7525153160095215,-0.0,1.9963607788085938,4.917165758996763,0.0,0.30119821429252625,-1.665677849446432,-0.0,-0.009941145777702332,0.7356821894645691,-0.0,0.005486614536494017,0.8110759258270264,0.0,-0.007174704223871231
739.0,875.0,1.264,0.9679,9.3087,-0.042,0.0278,-0.118,-1.8178955517210902,0.0,3.0673508644104004,-1.7525185346603394,-0.0,1.9960966110229492,4.917062553554334,0.0,0.2912027835845947,-1.6656492392169397,-0.0,0.00042030541226267815,0.7357219457626343,-0.0,-0.005284436978399754,0.8110477328300476,0.0,0.029066257178783417
786.0,903.0,1.2957,0.9529,9.2674,-0.0296,0.0254,-0.1216,-1.817887922326559,0.0,3.0780534744262695,-1.7525432109832764,-0.0,2.022378444671631,4.917078438192167,0.0,0.27520662546157837,-1.6656978766070765,-0.0,-0.009967649355530739,0.7357339859008789,-0.0,-0.005497917998582125,0.811055600643158,0.0,0.033245284110307693
786.0,903.0,1.2957,0.9529,9.2674,-0.0296,0.0254,-0.1216,-1.8178712330260218,0.0,3.1043171882629395,-1.7525112628936768,-0.0,1.9832701683044434,4.917094278126516,0.0,0.2921881079673767,-1.6656659285174769,-0.0,-0.0019851995166391134,0.7357739806175232,-0.0,0.006955110467970371,0.8110436201095581,0.0,0.03975867107510567
786.0,903.0,1.2957,0.9529,9.2674,-0.0296,0.0254,-0.1216,-1.8178636036314906,0.0,3.0884408950805664,-1.7525391578674316,-0.0,2.027672052383423,4.9170903144176386,0.0,0.28074735403060913,-1.6657212416278284,-0.0,0.00411927979439497,0.7357298135757446,-0.0,0.0009511220268905163,0.8110759258270264,0.0,-0.005758780054748058
786.0,903.0,1.2957,0.9529,9.2674,-0.0296,0.0254,-0.1216,-1.8178392849364222,0.0,3.0476412773132324,-1.752530813217163,-0.0,2.0416526794433594,4.9170903144176386,0.0,0.2773909568786621,-1.6656978766070765,-0.0,0.0030873394571244717,0.7357380986213684,-0.0,0.004757695831358433,0.81109619140625,0.0,0.024003058671951294
786.0,903.0,1.2957,0.9529,9.2674,-0.0296,0.0254,-0.1216,-1.8179322681822718,0.0,3.109672784805298,-1.7525267601013184,-0.0,2.035757303237915,4.917126092105665,0.0,0.300029993057251,-1.6656492392169397,-0.0,0.005247835535556078,0.7357218265533447,-0.0,-0.0003835386596620083,0.8110638856887817,0.0,0.004300949163734913
786.0,903.0,1.2957,0.9529,9.2674,-0.0296,0.0254,-0.1216,-1.8179079494872035,0.0,3.0787887573242188,-1.7525670528411865,-0.0,2.020611524581909,4.917134064226904,0.0,0.30087628960609436,-1.665644947682516,-0.0,-0.008764607831835747,0.7357497215270996,-0.0,-0.0025226976722478867,0.8110038042068481,0.0,-0.0549544021487236
786.0,903.0,1.2957,0.9529,9.2674,-0.0296,0.0254,-0.1216,-1.8178922138609828,0.0,3.0367698669433594,-1.7524914741516113,-0.0,1.963367223739624,4.917106243758955,0.0,0.2907896041870117,-1.6656330267535608,-0.0,-0.0076377494260668755,0.7357380986213684,-0.0,-0.007114820647984743,0.8110718131065369,0.0,-0.004522133618593216
786.0,903.0,1.2957,0.9529,9.2674,-0.0296,0.0254,-0.1216,-1.817916055718893,0.0,3.0881872177124023,-1.7525670528411865,-0.0,1.9967920780181885,4.917134034424581,0.0,0.309756338596344,-1.6656697432147425,-0.0,0.003424526657909155,0.7357339859008789,-0.0,0.0024317214265465736,0.8110759258270264,0.0,0.04751939699053764
786.0,903.0,1.2957,0.9529,9.2674,-0.0296,0.0254,-0.1216,-1.8179241619505824,0.0,3.0912914276123047,-1.7524667978286743,-0.0,2.018153190612793,4.917054223805227,0.0,0.286878764629364,-1.665661636983053,-0.0,0.004382861312478781,0.7356977462768555,-0.0,-0.009016443975269794,0.8110597729682922,0.0,-0.007154074963182211
786.0,903.0,1.2957,0.9529,9.2674,-0.0296,0.0254,-0.1216,-1.8178755245604457,0.0,3.0222811698913574,-1.752507209777832,-0.0,1.963146686553955,4.9171181348855875,0.0,0.2971579432487488,-1.6657093206988733,-0.0,-0.002646565902978182,0.7357540130615234,-0.0,-0.011217755265533924,0.8110759258270264,0.0,0.05137743800878525
786.0,903.0,1.2957,0.9529,9.2674,-0.0296,0.0254,-0.1216,-1.8178636036314906,0.0,3.0319337844848633,-1.7525267601013184,-0.0,2.042698383331299,4.91713401952342,0.0,0.2950578033924103,-1.6656492392169397,-0.0,0.003964593634009361,0.7357460260391235,-0.0,-0.0018027250189334154,0.8110679984092712,0.0,-0.031950693577528
786.0,903.0,1.2957,0.9529,9.2674,-0.0296,0.0254,-0.1216,-1.8178755245604457,0.0,3.110854387283325,-1.7524906396865845,-0.0,1.9999213218688965,4.917082386999883,0.0,0.29245007038116455,-1.665644947682516,-0.0,0.009048250503838062,0.7357779145240784,-0.0,-0.0048454804345965385,0.811104416847229,0.0,0.017579728737473488
786.0,903.0,1.2957,0.9529,9.2674,-0.0296,0.0254,-0.1216,-1.8178554973998011,0.0,3.0151376724243164,-1.7525235414505005,-0.0,2.040999174118042,4.9171181348855875,0.0,0.2956415116786957,-1.665685002003805,-0.0,0.008592085912823677,0.7357258200645447,-0.0,-0.0028841509483754635,0.8110718131065369,0.0,0.010864883661270142
786.0,903.0,1.2957,0.9529,9.2674,-0.0296,0.0254,-0.1216,-1.8178593120970667,0.0,3.1040778160095215,-1.7524914741516113,-0.0,2.0277109146118164,4.917098271637716,0.0,0.2874086797237396,-1.6656330267535608,-0.0,-0.002852397970855236,0.7356937527656555,-0.0,-0.00714127067476511,0.8110638856887817,0.0,-0.020740598440170288
745.0,870.0,1.2772,0.9571,9.4379,-0.0408,0.0269,-0.1216,-1.8178392849364222,0.0,3.1313669681549072,-1.7524585723876953,-0.0,2.013946056365967,4.917114156275549,0.0,0.28847265243530273,-1.6657050291644495,-0.0,0.00647270493209362,0.7357497215270996,-0.0,0.003204366657882929,0.8111043572425842,0.0,-0.08149205893278122
745.0,870.0,1.2772,0.9571,9.4379,-0.0408,0.0269,-0.1216,-1.8178554973998011,0.0,3.125943660736084,-1.752539038658142,-0.0,2.0425212383270264,4.917082386999883,0.0,0.3008473515510559,-1.6657050291644495,-0.0,0.0059761060401797295,0.7357420921325684,-0.0,0.013544164597988129,0.8110477328300476,0.0,0.03182041645050049
745.0,870.0,1.2772,0.9571,9.4379,-0.0408,0.0269,-0.1216,-1.8178674183287562,0.0,3.0751757621765137,-1.7525112628936768,-0.0,1.992003083229065,4.917086365609922,0.0,0.29621294140815735,-1.665661636983053,-0.0,0.005250353831797838,0.7357420921325684,-0.0,-0.011749486438930035,0.8111122846603394,0.0,0.008473703637719154
745.0,870.0,1.2772,0.9571,9.4379,-0.0408,0.0269,-0.1216,-1.8178554973998011,0.0,3.0423779487609863,-1.7524946928024292,-0.0,2.0965051651000977,4.91713401952342,0.0,0.2825305461883545,-1.6656530539142054,-0.0,-0.006064205430448055,0.7357339859008789,-0.0,0.0035705098416656256,0.8110275864601135,0.0,-0.03598698228597641
745.0,870.0,1.2772,0.9571,9.4379,-0.0408,0.0269,-0.1216,-1.8178674183287562,0.0,3.072774887084961,-1.7525235414505005,-0.0,2.018183946609497,4.917102235346594,0.0,0.2827611267566681,-1.6656768957721155,-0.0,0.008634747937321663,0.7357137799263,-0.0,-0.0026102419942617416,0.8110556602478027,0.0,0.004546196665614843
745.0,870.0,1.2772,0.9571,9.4379,-0.0408,0.0269,-0.1216,-1.8178631267943324,0.0,3.053173065185547,-1.7525432109832764,-0.0,2.044255256652832,4.9170943079288385,0.0,0.3003832697868347,-1.6656573454486292,-0.0,0.002638503909111023,0.7357177138328552,-0.0,-0.002885662019252777,0.8110318183898926,0.0,-0.0010929703712463379
745.0,870.0,1.2772,0.9571,9.4379,-0.0408,0.0269,-0.1216,-1.8178922138609828,0.0,3.1172735691070557,-1.7525514364242554,-0.0,2.023974895477295,4.917086365609922,0.0,0.28115370869636536,-1.6656659285174769,-0.0,0.005944122560322285,0.7357058525085449,-0.0,0.002869659336283803,0.8110477328300476,0.0,-0.03114832565188408
745.0,870.0,1.2772,0.9571,9.4379,-0.0408,0.0269,-0.1216,-1.8178392849364222,0.0,3.062638759613037,-1.7525349855422974,-0.0,2.019026041030884,4.9170903293188,0.0,0.2911032438278198,-1.6656411329852503,-0.0,0.0034006626810878515,0.7357297539710999,-0.0,-0.00045228598173707724,0.8110477328300476,0.0,0.012728500179946423
745.0,870.0,1.2772,0.9571,9.4379,-0.0408,0.0269,-0.1216,-1.8178712330260218,0.0,3.073984146118164,-1.7525227069854736,-0.0,1.9890801906585693,4.9170903293188,0.0,0.2877905070781708,-1.665661636983053,-0.0,0.004691633395850658,0.7357499003410339,-0.0,-0.006415260955691338,0.8110923767089844,0.0,0.0457063764333725
745.0,870.0,1.2772,0.9571,9.4379,-0.0408,0.0269,-0.1216,-1.8178392849364222,0.0,3.0726797580718994,-1.7525588274002075,-0.0,2.0405445098876953,4.917058545141973,0.0,0.29464995861053467,-1.6656697432147425,-0.0,-0.004545191302895546,0.7357138395309448,-0.0,0.0017574864905327559,0.8110679984092712,0.0,0.025708213448524475
745.0,870.0,1.2772,0.9571,9.4379,-0.0408,0.0269,-0.1216,-1.8179122410216273,0.0,3.074672222137451,-1.752547264099121,-0.0,2.0184736251831055,4.917074444680967,0.0,0.2894388735294342,-1.6656697432147425,-0.0,0.0011822915403172374,0.7356783151626587,-0.0,0.004702075384557247,0.8110353946685791,0.0,0.028421005234122276
745.0,870.0,1.2772,0.9571,9.4379,-0.0408,0.0269,-0.1216,-1.8179203472533167,0.0,3.0447750091552734,-1.7525267601013184,-0.0,2.016721248626709,4.917062523752012,0.0,0.2954899072647095,-1.6656697432147425,-0.0,-0.0018606830853968859,0.7357420921325684,-0.0,-0.011150097474455833,0.8111080527305603,0.0,-0.0224970281124115
745.0,870.0,1.2772,0.9571,9.4379,-0.0408,0.0269,-0.1216,-1.8179041347899378,0.0,3.0740203857421875,-1.7525112628936768,-0.0,2.0576977729797363,4.9171181348855875,0.0,0.27352309226989746,-1.665685002003805,-0.0,0.0028049005195498466,0.7357420921325684,-0.0,0.0014281130861490965,0.8111283779144287,0.0,-0.011146347969770432
745.0,870.0,1.2772,0.9571,9.4379,-0.0408,0.0269,-0.1216,-1.8178149662413539,0.0,3.0993082523345947,-1.7525588274002075,-0.0,2.0388131141662598,4.917142036348142,0.0,0.287397563457489,-1.6656740347491663,-0.0,-0.0009178285836242139,0.7357219457626343,-0.0,-0.006385576445609331,0.811072051525116,0.0,0.0006895130500197411
745.0,870.0,1.2772,0.9571,9.4379,-0.0408,0.0269,-0.1216,-1.8179241619505824,0.0,3.080552101135254,-1.752482533454895,-0.0,2.1075258255004883,4.917126077204504,0.0,0.29031920433044434,-1.665661636983053,-0.0,0.013410277664661407,0.7357420921325684,-0.0,-0.006310031283646822,0.8110638856887817,0.0,0.030823947861790657
767.0,884.0,1.267,0.9739,9.2925,-0.035,0.0224,-0.1135,-1.8178960285582484,0.0,3.070788860321045,-1.7525029182434082,-0.0,2.0315051078796387,4.917126181512632,0.0,0.298348993062973,-1.665705982838766,-0.0,0.002956774551421404,0.735686182975769,-0.0,0.0009378566173836589,0.8110639452934265,0.0,0.01948699727654457
767.0,884.0,1.267,0.9739,9.2925,-0.035,0.0224,-0.1135,-1.8179041347899378,0.0,3.103457450866699,-1.7524906396865845,-0.0,2.0134992599487305,4.917058217316427,0.0,0.2847970128059387,-1.6656492392169397,-0.0,0.0037972251884639263,0.7357099056243896,-0.0,-0.009688585996627808,0.8110718131065369,0.0,-0.013499444350600243
767.0,884.0,1.267,0.9739,9.2925,-0.035,0.0224,-0.1135,-1.8179079494872035,0.0,3.0575006008148193,-1.7525588274002075,-0.0,1.9819872379302979,4.9170903144176386,0.0,0.29180291295051575,-1.665644947682516,-0.0,0.007279025856405497,0.7356823086738586,-0.0,0.004853007383644581,0.8110677599906921,0.0,0.02259593829512596
767.0,884.0,1.267,0.9739,9.2925,-0.035,0.0224,-0.1135,-1.8179236851134242,0.0,3.044779062271118,-1.7524585723876953,-0.0,1.9648568630218506,4.917137998133459,0.0,0.29897260665893555,-1.6656530539142054,-0.0,0.0007347747450694442,0.7357619404792786,-0.0,-0.008551389910280704,0.8110237717628479,0.0,-0.00820283591747284
767.0,884.0,1.267,0.9739,9.2925,-0.035,0.0224,-0.1135,-1.8179036579527796,0.0,3.093648672103882,-1.7525267601013184,-0.0,1.9814798831939697,4.9171181348855875,0.0,0.28876200318336487,-1.6656892935382288,-0.0,0.00817943550646305,0.7357937693595886,-0.0,0.0024847884196788073,0.8110358715057373,0.0,-0.013978542760014534
767.0,884.0,1.267,0.9739,9.2925,-0.035,0.0224,-0.1135,-1.8178755245604457,0.0,3.0899786949157715,-1.7524874210357666,-0.0,2.057433843612671,4.917066502362051,0.0,0.28955718874931335,-1.6656373182879847,-0.0,-0.005564946681261063,0.7357380986213684,-0.0,0.0055372342467308044,0.8110718131065369,0.0,0.01858518086373806
767.0,884.0,1.267,0.9739,9.2925,-0.035,0.0224,-0.1135,-1.8178273640074671,0.0,3.108731269836426,-1.7525029182434082,-0.0,2.0083842277526855,4.917050215392866,0.0,0.29273298382759094,-1.6657455603228968,-0.0,-0.004060973413288593,0.7357178926467896,-0.0,-0.00033647450618445873,0.8110759258270264,0.0,-0.015050247311592102
767.0,884.0,1.267,0.9739,9.2925,-0.035,0.0224,-0.1135,-1.8178755245604457,0.0,3.075338363647461,-1.7524832487106323,-0.0,2.016785144805908,4.9170903144176386,0.0,0.2996056079864502,-1.665701691304342,-0.0,0.007757736369967461,0.735741913318634,-0.0,-0.010014898143708706,0.8110638856887817,0.0,-0.012085149064660072
767.0,884.0,1.267,0.9739,9.2925,-0.035,0.0224,-0.1135,-1.8178755245604457,0.0,3.0998854637145996,-1.7525793313980103,-0.0,2.055294990539551,4.9171141413743875,0.0,0.2911674976348877,-1.6656330267535608,-0.0,0.0007849907269701362,0.7357580065727234,-0.0,-0.006889226846396923,0.8110800981521606,0.0,0.003848446998745203
767.0,884.0,1.267,0.9739,9.2925,-0.035,0.0224,-0.1135,-1.817843576470846,0.0,3.1034293174743652,-1.7525588274002075,-0.0,1.9992239475250244,4.917138057738104,0.0,0.30470067262649536,-1.6656740347491663,-0.0,0.004519579000771046,0.7357059121131897,-0.0,-0.01041856687515974,0.8110395073890686,0.0,-0.016270963475108147
767.0,884.0,1.267,0.9739,9.2925,-0.035,0.0224,-0.1135,-1.8178674183287562,0.0,3.077852725982666,-1.7524906396865845,-0.0,2.004749298095703,4.917106228857794,0.0,0.28960052132606506,-1.6656373182879847,-0.0,0.0023503259290009737,0.7357177138328552,-0.0,0.0184461772441864,0.8110515475273132,0.0,0.02839566022157669
767.0,884.0,1.267,0.9739,9.2925,-0.035,0.0224,-0.1135,-1.8178922138609828,0.0,3.0703067779541016,-1.752506971359253,-0.0,2.0323801040649414,4.917106273561277,0.0,0.29654189944267273,-1.6656654516803187,-0.0,-0.0015662057558074594,0.7356500029563904,-0.0,0.016758723184466362,0.8110639452934265,0.0,0.044380396604537964
767.0,884.0,1.267,0.9739,9.2925,-0.035,0.0224,-0.1135,-1.817916055718893,0.0,3.1244072914123535,-1.7524864673614502,-0.0,2.0623490810394287,4.917086350708761,0.0,0.2935122847557068,-1.6656892935382288,-0.0,0.0004832291160710156,0.735745906829834,-0.0,-0.005615291651338339,0.8110477328300476,0.0,-0.00016674073413014412
767.0,884.0,1.267,0.9739,9.2925,-0.035,0.0224,-0.1135,-1.8178311787047328,0.0,3.0598950386047363,-1.7525310516357422,-0.0,2.0289769172668457,4.917138057738104,0.0,0.2959853410720825,-1.6656530539142054,-0.0,0.003211923874914646,0.7357218265533447,-0.0,-0.00951496884226799,0.8110759258270264,0.0,0.015095742419362068
768.0,870.0,1.2568,0.9517,9.3733,-0.0302,0.0171,-0.1155,-1.8179003200926722,0.0,3.0409417152404785,-1.7525349855422974,-0.0,2.0433738231658936,4.91710618415431,0.0,0.2907620072364807,-1.665644947682516,-0.0,-0.011788592673838139,0.7357059121131897,-0.0,-0.003984689712524414,0.8111003637313843,0.0,-0.02211642637848854
768.0,870.0,1.2568,0.9517,9.3733,-0.0302,0.0171,-0.1155,-1.8178798160948695,0.0,3.0689504146575928,-1.7525554895401,-0.0,1.9916467666625977,4.917122173100271,0.0,0.2939460873603821,-1.6656697432147425,-0.0,0.003969567362219095,0.7356938123703003,-0.0,-0.002198787871748209,0.8110677599906921,0.0,-0.008129585534334183
768.0,870.0,1.2568,0.9517,9.3733,-0.0302,0.0171,-0.1155,-1.8178631267943324,0.0,3.097714900970459,-1.7525112628936768,-0.0,2.0554115772247314,4.917114156275549,0.0,0.3000597655773163,-1.6656573454486292,-0.0,0.012811645865440369,0.735729992389679,-0.0,-0.008247710764408112,0.8111039996147156,0.0,0.004742437042295933
768.0,870.0,1.2568,0.9517,9.3733,-0.0302,0.0171,-0.1155,-1.8178755245604457,0.0,3.122464895248413,-1.7524914741516113,-0.0,1.9911043643951416,4.917130085616865,0.0,0.28318682312965393,-1.6656768957721155,-0.0,-0.0019892423879355192,0.7356501221656799,-0.0,-0.004195069894194603,0.8110477328300476,0.0,0.008711451664566994
768.0,870.0,1.2568,0.9517,9.3733,-0.0302,0.0171,-0.1155,-1.8178674183287562,0.0,3.078680992126465,-1.7524946928024292,-0.0,2.04353666305542,4.917078408389845,0.0,0.2988508343696594,-1.6656659285174769,-0.0,0.017315881326794624,0.7356982231140137,-0.0,-0.0017613882664591074,0.8110559582710266,0.0,-0.0330619141459465
768.0,870.0,1.2568,0.9517,9.3733,-0.0302,0.0171,-0.1155,-1.8178922138609828,0.0,3.048901081085205,-1.7524946928024292,-0.0,2.009190559387207,4.917114200979032,0.0,0.2944919764995575,-1.6656573454486292,-0.0,0.0022038486786186695,0.7357218265533447,-0.0,-0.004438875243067741,0.8110679984092712,0.0,-0.04839402437210083
768.0,870.0,1.2568,0.9517,9.3733,-0.0302,0.0171,-0.1155,-1.8179241619505824,0.0,3.1199660301208496,-1.7525112628936768,-0.0,2.0514156818389893,4.917082372098722,0.0,0.2898293137550354,-1.665685002003805,-0.0,-0.007914028130471706,0.7357739210128784,-0.0,-0.005267052445560694,0.8110800385475159,0.0,-0.013959437608718872
768.0,870.0,1.2568,0.9517,9.3733,-0.0302,0.0171,-0.1155,-1.8178712330260218,0.0,3.0921947956085205,-1.7525275945663452,-0.0,1.9994137287139893,4.917066472559728,0.0,0.29313239455223083,-1.6656811873065394,-0.0,-0.009878184646368027,0.7356783747673035,-0.0,0.007490670308470726,0.811055600643158,0.0,0.028636440634727478
768.0,870.0,1.2568,0.9517,9.3733,-0.0302,0.0171,-0.1155,-1.8178798160948695,0.0,3.098055839538574,-1.7525194883346558,-0.0,2.024965286254883,4.917098256736555,0.0,0.29819753766059875,-1.6656530539142054,-0.0,0.008395136334002018,0.7357499599456787,-0.0,0.006357248872518539,0.8110838532447815,0.0,0.006884482689201832
768.0,870.0,1.2568,0.9517,9.3733,-0.0302,0.0171,-0.1155,-1.8179079494872035,0.0,3.0981311798095703,-1.7525112628936768,-0.0,2.0156054496765137,4.9170783934886835,0.0,0.29141902923583984,-1.6656768957721155,-0.0,-0.008199648931622505,0.7357817888259888,-0.0,-0.003807480214163661,0.8110962510108948,0.0,-0.005288422107696533
768.0,870.0,1.2568,0.9517,9.3733,-0.0302,0.0171,-0.1155,-1.8178712330260218,0.0,3.0592899322509766,-1.752547264099121,-0.0,2.089832305908203,4.91711417117671,0.0,0.30048587918281555,-1.6657050291644495,-0.0,0.015590956434607506,0.7356621623039246,-0.0,0.001857314957305789,0.8110679984092712,0.0,-0.01958414539694786
768.0,870.0,1.2568,0.9517,9.3733,-0.0302,0.0171,-0.1155,-1.8178922138609828,0.0,3.0917696952819824,-1.7525227069854736,-0.0,2.066924571990967,4.9170743999774835,0.0,0.2865644097328186,-1.6656892935382288,-0.0,0.006432402413338423,0.7357099056243896,-0.0,-0.003775626188144088,0.8110597729682922,0.0,0.009237841702997684
768.0,870.0,1.2568,0.9517,9.3733,-0.0302,0.0171,-0.1155,-1.8178798160948695,0.0,3.06626558303833,-1.752498745918274,-0.0,2.0071945190429688,4.917110192566671,0.0,0.3050379753112793,-1.665661636983053,-0.0,0.012854284606873989,0.7356663346290588,-0.0,-0.0026211922522634268,0.8110477328300476,0.0,0.012509096413850784
768.0,870.0,1.2568,0.9517,9.3733,-0.0302,0.0171,-0.1155,-1.8178636036314906,0.0,3.0861716270446777,-1.752530813217163,-0.0,2.012453556060791,4.917134064226904,0.0,0.29049330949783325,-1.6656935850726526,-0.0,-0.010995128192007542,0.735701858997345,-0.0,-0.006574878469109535,0.8111081123352051,0.0,0.02157769538462162
768.0,870.0,1.2568,0.9517,9.3733,-0.0302,0.0171,-0.1155,-1.817883630792135,0.0,3.076150894165039,-1.7524906396865845,-0.0,1.9981567859649658,4.917102265148916,0.0,0.2906033396720886,-1.6656492392169397,-0.0,-0.0019886698573827744,0.7357857823371887,-0.0,-0.00620627636089921,0.8110800385475159,0.0,-0.005430430173873901
767.0,897.0,1.3065,0.9823,9.4469,-0.0308,0.0325,-0.1251,-1.817916055718893,0.0,3.0798137187957764,-1.7525267601013184,-0.0,2.0336217880249023,4.917134064226904,0.0,0.29568806290626526,-1.665713135396139,-0.0,0.002735727932304144,0.7357057929039001,-0.0,-0.0025676151271909475,0.8110518455505371,0.0,0.03402978181838989
767.0,897.0,1.3065,0.9823,9.4469,-0.0308,0.0325,-0.1251,-1.8178922138609828,0.0,3.0733022689819336,-1.7524946928024292,-0.0,1.9826312065124512,4.917122143297949,0.0,0.2892642319202423,-1.665661636983053,-0.0,0.0009182606590911746,0.7356703281402588,-0.0,0.001533444388769567,0.8110395073890686,0.0,-0.036675140261650085
767.0,897.0,1.3065,0.9823,9.4469,-0.0308,0.0325,-0.1251,-1.817916055718893,0.0,3.0570790767669678,-1.7525588274002075,-0.0,2.1133036613464355,4.9170783934886835,0.0,0.28619149327278137,-1.665701691304342,-0.0,-0.0026749763637781143,0.7357777953147888,-0.0,0.005810844711959362,0.8110718131065369,0.0,0.03132811188697815
767.0,897.0,1.3065,0.9823,9.4469,-0.0308,0.0325,-0.1251,-1.817956110040182,0.0,3.1261167526245117,-1.7524946928024292,-0.0,2.0055251121520996,4.917110192566671,0.0,0.29798954725265503,-1.665644947682516,-0.0,-0.012213977985084057,0.7357380390167236,-0.0,-0.005152367986738682,0.8110677003860474,0.0,0.044436078518629074
767.0,897.0,1.3065,0.9823,9.4469,-0.0308,0.0325,-0.1251,-1.817887922326559,0.0,3.052051544189453,-1.752547264099121,-0.0,2.020183563232422,4.917106213956632,0.0,0.2877250909805298,-1.6656492392169397,-0.0,-0.0025659380480647087,0.7357137799263,-0.0,-0.0008916290244087577,0.811087965965271,0.0,-0.0019578244537115097
767.0,897.0,1.3065,0.9823,9.4469,-0.0308,0.0325,-0.1251,-1.8179198704161585,0.0,3.0863518714904785,-1.7524832487106323,-0.0,1.9927330017089844,4.917114156275549,0.0,0.2871744930744171,-1.6656573454486292,-0.0,-0.007934654131531715,0.735701858997345,-0.0,-0.0035937654320150614,0.8110556602478027,0.0,-0.03882678225636482
767.0,897.0,1.3065,0.9823,9.4469,-0.0308,0.0325,-0.1251,-1.8178712330260218,0.0,3.049968957901001,-1.7525588274002075,-0.0,2.0341715812683105,4.917118149786749,0.0,0.2846299707889557,-1.665661636983053,-0.0,-0.0074314638040959835,0.735701858997345,-0.0,-0.001982118934392929,0.8110638856887817,0.0,0.012572449631989002
767.0,897.0,1.3065,0.9823,9.4469,-0.0308,0.0325,-0.1251,-1.8178922138609828,0.0,3.0757312774658203,-1.7525267601013184,-0.0,2.037203311920166,4.917126092105665,0.0,0.29226037859916687,-1.6656211058246058,-0.0,-0.00599018856883049,0.7357618808746338,-0.0,-0.008953862823545933,0.8110477328300476,0.0,0.0051917824894189835
767.0,897.0,1.3065,0.9823,9.4469,-0.0308,0.0325,-0.1251,-1.8179079494872035,0.0,3.031076669692993,-1.752547264099121,-0.0,2.0468149185180664,4.917106228857794,0.0,0.286525160074234,-1.6656211058246058,-0.0,-0.005958185065537691,0.7356903553009033,-0.0,0.001643533119931817,0.81109619140625,0.0,-0.01593860052525997
767.0,897.0,1.3065,0.9823,9.4469,-0.0308,0.0325,-0.1251,-1.8178960285582484,0.0,3.0615334510803223,-1.752530813217163,-0.0,2.031630039215088,4.917118149786749,0.0,0.28936031460762024,-1.665644947682516,-0.0,0.007097347639501095,0.7357579469680786,-0.0,-0.010240904986858368,0.8110597729682922,0.0,-0.03184472769498825
767.0,897.0,1.3065,0.9823,9.4469,-0.0308,0.0325,-0.1251,-1.8179036579527796,0.0,3.082120895385742,-1.7525227069854736,-0.0,1.99647855758667,4.917126092105665,0.0,0.2946222424507141,-1.6656768957721155,-0.0,0.009286301210522652,0.7357258200645447,-0.0,-0.008793791756033897,0.811055600643158,0.0,0.013985008001327515
767.0,897.0,1.3065,0.9823,9.4469,-0.0308,0.0325,-0.1251,-1.8179122410216273,0.0,3.0763096809387207,-1.7524946928024292,-0.0,2.075162887573242,4.917126092105665,0.0,0.2872786819934845,-1.665701691304342,-0.0,-0.0054433392360806465,0.7357258200645447,-0.0,-0.000557959545403719,0.8110155463218689,0.0,0.0337560661137104
767.0,897.0,1.3065,0.9823,9.4469,-0.0308,0.0325,-0.1251,-1.8177992306151332,0.0,3.0937976837158203,-1.7525711059570312,-0.0,2.018139123916626,4.917082372098722,0.0,0.27601563930511475,-1.665644947682516,-0.0,-0.0005878228694200516,0.7357618808746338,-0.0,-0.005430777091532946,0.8110477328300476,0.0,-0.0014980658888816833
767.0,897.0,1.3065,0.9823,9.4469,-0.0308,0.0325,-0.1251,-1.8178593120970667,0.0,3.087322235107422,-1.7525153160095215,-0.0,2.055677652359009,4.917094293027677,0.0,0.29107147455215454,-1.6656373182879847,-0.0,0.004762711469084024,0.7356857657432556,-0.0,-0.004330010153353214,0.8110882639884949,0.0,-0.010518007911741734
776.0,882.0,1.2275,0.883,9.3362,-0.0295,0.0252,-0.1222,-1.817883630792135,0.0,3.099548578262329,-1.752506971359253,-0.0,2.013740062713623,4.917126196413793,0.0,0.29433202743530273,-1.6656654516803187,-0.0,0.0074361031875014305,0.7357258200645447,-0.0,-0.005654862616211176,0.8110962510108948,0.0,0.034901633858680725
776.0,882.0,1.2275,0.883,9.3362,-0.0295,0.0252,-0.1222,-1.8178712330260218,0.0,3.1187732219696045,-1.752507209777832,-0.0,2.0279793739318848,4.917106213956632,0.0,0.2968301773071289,-1.6656973997699183,-0.0,0.018201539292931557,0.7357218265533447,-0.0,0.003988819662481546,0.8110962510108948,0.0,0.004645532928407192
776.0,882.0,1.2275,0.883,9.3362,-0.0295,0.0252,-0.1222,-1.8178712330260218,0.0,3.095766544342041,-1.7525194883346558,-0.0,2.041731357574463,4.9170823422964,0.0,0.28992411494255066,-1.6656411329852503,-0.0,0.004550337325781584,0.7357380390167236,-0.0,-0.0014293426647782326,0.8110196590423584,0.0,0.004068856127560139
776.0,882.0,1.2275,0.883,9.3362,-0.0295,0.0252,-0.1222,-1.8179241619505824,0.0,3.050626039505005,-1.7525275945663452,-0.0,2.01391339302063,4.917054208904066,0.0,0.28694331645965576,-1.6656935850726526,-0.0,0.0016522801015526056,0.7357699275016785,-0.0,0.006796607747673988,0.811055600643158,0.0,0.006179879419505596
776.0,882.0,1.2275,0.883,9.3362,-0.0295,0.0252,-0.1222,-1.817887922326559,0.0,3.0978481769561768,-1.752547264099121,-0.0,2.0297415256500244,4.917126121907987,0.0,0.2827666997909546,-1.6656811873065394,-0.0,-0.005672045983374119,0.7357578277587891,-0.0,0.011518219485878944,0.8110435605049133,0.0,0.02076895907521248
776.0,882.0,1.2275,0.883,9.3362,-0.0295,0.0252,-0.1222,-1.817887922326559,0.0,3.0541515350341797,-1.7524832487106323,-0.0,2.020052909851074,4.917086350708761,0.0,0.289737731218338,-1.665701691304342,-0.0,0.004496390465646982,0.7357099056243896,-0.0,-0.0031472628470510244,0.8110559582710266,0.0,0.025401096791028976
776.0,882.0,1.2275,0.883,9.3362,-0.0295,0.0252,-0.1222,-1.8178349934019984,0.0,3.0201077461242676,-1.7525391578674316,-0.0,2.0273401737213135,4.9171380428369424,0.0,0.28463855385780334,-1.6656811873065394,-0.0,-0.013796569779515266,0.7357499003410339,-0.0,-0.007248925976455212,0.8110477328300476,0.0,0.007850020192563534
776.0,882.0,1.2275,0.883,9.3362,-0.0295,0.0252,-0.1222,-1.8179041347899378,0.0,3.083005905151367,-1.7524906396865845,-0.0,2.0312747955322266,4.917078497796812,0.0,0.28536713123321533,-1.6656892935382288,-0.0,0.006006099749356508,0.7357737421989441,-0.0,-0.003930714912712574,0.8110518455505371,0.0,-0.007471246644854546
776.0,882.0,1.2275,0.883,9.3362,-0.0295,0.0252,-0.1222,-1.817883630792135,0.0,3.0631825923919678,-1.7525432109832764,-0.0,2.0276665687561035,4.917070436268606,0.0,0.2950209975242615,-1.6656659285174769,-0.0,3.6161800380796194e-06,0.7357380390167236,-0.0,-0.00958256796002388,0.811055600643158,0.0,0.006909652147442102
776.0,882.0,1.2275,0.883,9.3362,-0.0295,0.0252,-0.1222,-1.8179284534850062,0.0,3.088887929916382,-1.7525349855422974,-0.0,2.027890682220459,4.9170624790485284,0.0,0.2889648675918579,-1.6656573454486292,-0.0,-0.006700122728943825,0.735670268535614,-0.0,0.009037457406520844,0.811023473739624,0.0,-0.0031869877129793167
776.0,882.0,1.2275,0.883,9.3362,-0.0295,0.0252,-0.1222,-1.8178469143309535,0.0,3.053586006164551,-1.752530813217163,-0.0,2.0237059593200684,4.9170624790485284,0.0,0.2973451316356659,-1.665677849446432,-0.0,-0.003068384947255254,0.735765814781189,-0.0,-0.006324075162410736,0.8110114336013794,0.0,-0.0348534882068634
776.0,882.0,1.2275,0.883,9.3362,-0.0295,0.0252,-0.1222,-1.8179241619505824,0.0,3.0898077487945557,-1.7524709701538086,-0.0,2.0146286487579346,4.917078363686361,0.0,0.2887943387031555,-1.665701691304342,-0.0,-0.000993040157482028,0.735797643661499,-0.0,-0.005311578046530485,0.8110962510108948,0.0,-0.02618982084095478
776.0,882.0,1.2275,0.883,9.3362,-0.0295,0.0252,-0.1222,-1.8179122410216273,0.0,3.096102237701416,-1.7524627447128296,-0.0,2.068211793899536,4.917102250247755,0.0,0.2965671718120575,-1.6656768957721155,-0.0,-0.005413711536675692,0.7357738614082336,-0.0,0.003633063053712249,0.8110597729682922,0.0,0.047286927700042725
776.0,882.0,1.2275,0.883,9.3362,-0.0295,0.0252,-0.1222,-1.817916055718893,4.8140609720803695e-08,3.077674150466919,-1.752498745918274,1.3434090284647482e-08,2.025761604309082,4.917054551630773,0.0,0.2768387794494629,-1.6656892935382288,-0.0,-0.0010421674232929945,0.735745906829834,-0.0,-0.0075394269078969955,0.8110920786857605,0.0,0.056562259793281555
776.0,882.0,1.2275,0.883,9.3362,-0.0295,0.0252,-0.1222,-1.8178230724730433,1.162538896528828e-13,3.0764193534851074,-1.7524585723876953,3.244174473873186e-14,2.061866283416748,4.91711816468791,0.0,0.2926661968231201,-1.665701691304342,-0.0,0.0012102934997528791,0.7357177734375,-0.0,-0.0033384449779987335,0.811055600643158,0.0,0.030938338488340378
775.0,884.0,1.2233,0.7172,9.2483,-0.0588,0.0214,-0.1078,-1.8178798160948695,2.8073946473257458e-19,3.0820353031158447,-1.7524751424789429,7.834299959793323e-20,2.0232973098754883,4.917126092105665,0.0,0.28887346386909485,-1.6656740347491663,-0.0,0.005859621800482273,0.735701858997345,-0.0,-0.013206272386014462,0.811055600643158,0.0,0.007215827237814665
775.0,884.0,1.2233,0.7172,9.2483,-0.0588,0.0214,-0.1078,-1.8178798160948695,6.779527318846938e-25,3.069211483001709,-1.7525029182434082,1.891891089365015e-25,2.015373706817627,4.917118149786749,0.0,0.2784438729286194,-1.6656330267535608,-0.0,-0.0163877010345459,0.7356902956962585,-0.0,-0.008243280462920666,0.8110275864601135,0.0,0.021699370816349983
775.0,884.0,1.2233,0.7172,9.2483,-0.0588,0.0214,-0.1078,-1.8178712330260218,1.6371762458365575e-30,3.10984206199646,-1.7525194883346558,4.568693741222295e-31,2.0013508796691895,4.917110207467832,0.0,0.2972027361392975,-1.6656330267535608,-0.0,0.007763268891721964,0.7357336282730103,-0.0,-0.0019828053191304207,0.8111003637313843,0.0,-0.02131909318268299
775.0,884.0,1.2233,0.7172,9.2483,-0.0588,0.0214,-0.1078,-1.8179322681822718,3.953587703688454e-36,3.076315402984619,-1.752539038658142,1.1032857324257103e-36,2.028158664703369,4.9170783487852,0.0,0.2798631191253662,-1.6656892935382288,-0.0,0.007946338504552841,0.735701858997345,-0.0,-0.0067175147123634815,0.8110842108726501,0.0,-0.0010862769559025764
775.0,884.0,1.2233,0.7172,9.2483,-0.0588,0.0214,-0.1078,-1.8178922138609828,1.2751816025355835e-43,3.049403667449951,-1.752506971359253,3.6433760072445244e-44,2.0037174224853516,4.917070391565122,0.0,0.28463882207870483,-1.665701691304342,-0.0,0.01234348677098751,0.7357339859008789,-0.0,0.0010699671693146229,0.8110597729682922,0.0,-0.011719279922544956
775.0,884.0,1.2233,0.7172,9.2483,-0.0588,0.0214,-0.1078,-1.8178554973998011,0.0,3.066708564758301,-1.752498745918274,-0.0,1.9877188205718994,4.917094293027677,0.0,0.28792423009872437,-1.6656811873065394,-0.0,-0.001519971527159214,0.7357738614082336,-0.0,0.003734952537342906,0.8110718131065369,0.0,-0.012845616787672043
775.0,884.0,1.2233,0.7172,9.2483,-0.0588,0.0214,-0.1078,-1.8179241619505824,0.0,3.078139066696167,-1.7524750232696533,-0.0,2.0443174839019775,4.91711417117671,0.0,0.2935645878314972,-1.6656330267535608,-0.0,0.006355132441967726,0.7357737421989441,-0.0,0.003683004528284073,0.8110920786857605,0.0,-0.0070389024913311005
775.0,884.0,1.2233,0.7172,9.2483,-0.0588,0.0214,-0.1078,-1.817916055718893,0.0,3.081136703491211,-1.7525317668914795,-0.0,2.0069773197174072,4.917086380511083,0.0,0.2816845178604126,-1.6657174269305628,-0.0,-0.0016128858551383018,0.7357099056243896,-0.0,8.198642171919346e-05,0.8110718131065369,0.0,0.029830660670995712
775.0,884.0,1.2233,0.7172,9.2483,-0.0588,0.0214,-0.1078,-1.8178955517210902,0.0,3.100184440612793,-1.7525432109832764,-0.0,1.974653720855713,4.917145985155859,0.0,0.2935766577720642,-1.6656978766070765,-0.0,0.006487507838755846,0.7357221245765686,-0.0,-0.006224631331861019,0.8110638856887817,0.0,0.00995990913361311
775.0,884.0,1.2233,0.7172,9.2483,-0.0588,0.0214,-0.1078,-1.817887922326559,0.0,3.095005989074707,-1.7525506019592285,-0.0,2.0699238777160645,4.917110207467832,0.0,0.2947263717651367,-1.665705982838766,-0.0,0.011172260157763958,0.7358177900314331,-0.0,-0.0034675579518079758,0.8110800385475159,0.0,-0.00831195991486311
775.0,884.0,1.2233,0.7172,9.2483,-0.0588,0.0214,-0.1078,-1.8178712330260218,0.0,3.0687999725341797,-1.752498984336853,-4.567973155644722e-05,2.0040040016174316,4.917134079128065,0.0,0.29304736852645874,-1.6656892935382288,-0.0,0.006361421197652817,0.7357339859008789,-0.0,-0.004065928980708122,0.8110800385475159,0.0,-0.009347746148705482
775.0,884.0,1.2233,0.7172,9.2483,-0.0588,0.0214,-0.1078,-1.817843576470846,0.0,3.116147994995117,-1.7525391578674316,-4.24483951064758e-05,2.0474157333374023,4.9170783487852,0.0,0.2880435585975647,-1.6657007376300257,-0.0,-0.01065639965236187,0.7357737421989441,-0.0,-0.0042542507871985435,0.8111525774002075,0.0,0.026771824806928635
775.0,884.0,1.2233,0.7172,9.2483,-0.0588,0.0214,-0.1078,-1.8178674183287562,0.0,3.0528860092163086,-1.7524874210357666,-1.9914941731258295e-05,2.0169143676757812,4.9170823422964,0.0,0.3037627339363098,-1.6657093206988733,-0.0,0.007999878376722336,0.7357499003410339,-0.0,-0.008800213225185871,0.811051607131958,0.0,-0.02424364909529686
775.0,884.0,1.2233,0.7172,9.2483,-0.0588,0.0214,-0.1078,-1.8179041347899378,0.0,3.0591673851013184,-1.7525514364242554,-7.519711653003469e-05,2.0335962772369385,4.917098271637716,0.0,0.29321998357772827,-1.6657293478595179,-0.0,-3.8682876038365066e-05,0.7357339859008789,-0.0,0.0008641388267278671,0.8110635876655579,5.253669951343909e-05,-0.01525991503149271
763.0,870.0,1.3621,1.3938,9.5593,-0.0067,0.0286,-0.1185,-1.8178674183287562,0.0,3.078645706176758,-1.7525391578674316,-6.067091817385517e-05,2.0390052795410156,4.917134034424581,0.0,0.28784477710723877,-1.6656773726092737,-0.0,-0.004296372644603252,0.735729992389679,-0.0,-0.00362907606177032,0.8110838532447815,0.000899681996088475,-0.04189864173531532
763.0,870.0,1.3621,1.3938,9.5593,-0.0067,0.0286,-0.1185,-1.8179079494872035,0.0,3.070030689239502,-1.7525185346603394,-4.77840039820876e-05,2.030938148498535,4.917122173100271,0.0,0.2960653305053711,-1.6657293478595179,-0.0,0.004607556387782097,0.735785722732544,-0.0,0.006811006926000118,0.81113600730896,0.0010601001558825374,-0.002096567302942276
763.0,870.0,1.3621,1.3938,9.5593,-0.0067,0.0286,-0.1185,-1.8178631267943324,0.0,3.092736005783081,-1.7525875568389893,-4.121818346902728e-05,1.9963823556900024,4.917110192566671,0.0,0.29392677545547485,-1.6657374540912073,-0.0,0.001616345951333642,0.7357260584831238,-0.0,-0.0032350439578294754,0.8111401796340942,0.0012191312853246927,-0.01369522325694561
763.0,870.0,1.3621,1.3938,9.5593,-0.0067,0.0286,-0.1185,-1.8179241619505824,0.0,3.070361614227295,-1.7525391578674316,-3.623891461757012e-05,2.00338077545166,4.917106199055471,0.0,0.28394222259521484,-1.6657007376300257,-0.0,-0.0013879190664738417,0.735729992389679,-0.0,0.0027895858511328697,0.8111761212348938,0.0015191163402050734,-0.031593531370162964
763.0,870.0,1.3621,1.3938,9.5593,-0.0067,0.0286,-0.1185,-1.8179165325560511,0.0,3.0679445266723633,-1.7525547742843628,-5.356318433769047e-05,2.0282046794891357,4.917094278126516,0.0,0.2909943461418152,-1.6657374540912073,-0.0,0.005729071795940399,0.7357339859008789,-0.0,0.002234779531136155,0.8112002611160278,0.0019436177099123597,0.017847562208771706
763.0,870.0,1.3621,1.3938,9.5593,-0.0067,0.0286,-0.1185,-1.8178755245604457,0.0,3.06652569770813,-1.7524874210357666,-3.036628731933888e-05,2.038426160812378,4.917106199055471,0.0,0.28066399693489075,-1.6657455603228968,-0.0,-0.0017075305804610252,0.7357539534568787,-0.0,-0.020411791279911995,0.8112162947654724,0.002363641047850251,-0.04632340371608734
763.0,870.0,1.3621,1.3938,9.5593,-0.0067,0.0286,-0.1185,-1.8179198704161585,0.0,3.0617356300354004,-1.7524906396865845,-4.325537972249549e-08,2.042323350906372,4.917094278126516,0.0,0.3007487654685974,-1.6657293478595179,-5.256127977304459e-09,0.005955638363957405,0.735729992389679,-0.0,0.0072577898390591145,0.8112605810165405,0.0021199577022343874,0.022679202258586884
763.0,870.0,1.3621,1.3938,9.5593,-0.0067,0.0286,-0.1185,-1.8178955517210902,0.0,3.032383918762207,-1.7525194883346558,-1.4014191876057921e-15,1.9739298820495605,4.917098271637716,0.0,0.3046761155128479,-1.6657217184649866,-9.552751520586558e-14,0.006451357156038284,0.7357578277587891,-0.0,-0.006955739110708237,0.8112121224403381,0.0010405852226540446,0.01333894394338131
763.0,870.0,1.3621,1.3938,9.5593,-0.0067,0.0286,-0.1185,-1.8179241619505824,8.552832696295809e-06,3.078908920288086,-1.752495527267456,0.0011529525509104133,2.028029680252075,4.917098212033071,0.0,0.29148709774017334,-1.6657007376300257,-2.6590433820205095e-17,-0.005347497295588255,0.735729992389679,-0.0,0.0007376046851277351,0.811191976070404,0.000659083656501025,-0.0037341550923883915
763.0,870.0,1.3621,1.3938,9.5593,-0.0067,0.0286,-0.1185,-1.8178755245604457,2.2455144062405452e-05,3.0303122997283936,-1.7524914741516113,0.0008707709494046867,1.9907846450805664,4.917126107006826,0.0,0.2823057770729065,-1.6656811873065394,-7.401545074258435e-21,-0.01242283545434475,0.7357137799263,-0.0,-0.0008076883386820555,0.8112688660621643,0.0004823646158911288,-0.009497608058154583
763.0,870.0,1.3621,1.3938,9.5593,-0.0067,0.0286,-0.1185,-1.8178922138609828,1.4549342267855536e-05,3.0280497074127197,-1.7524389028549194,0.00013631803449243307,2.0096938610076904,4.917110192566671,0.0,0.30092576146125793,-1.6657293478595179,-2.0602473185669545e-24,0.005171459633857012,0.7357737421989441,-0.0,-0.012851863168179989,0.8111720085144043,0.0003169944684486836,0.005314544774591923
763.0,870.0,1.3621,1.3938,9.5593,-0.0067,0.0286,-0.1185,-1.8178798160948695,1.2196317129564704e-06,3.083334445953369,-1.7524946928024292,0.00018490602087695152,2.018099546432495,4.917118179589071,0.0,0.30422452092170715,-1.665689770375387,-5.734774669336305e-28,0.0017363966908305883,0.7356745004653931,-0.0,-0.0011704065836966038,0.8112361431121826,0.00026168275508098304,0.04479433223605156
763.0,870.0,1.3621,1.3938,9.5593,-0.0067,0.0286,-0.1185,-1.817895074883932,2.9452672939411784e-12,3.0598127841949463,-1.7524585723876953,7.934575114632025e-05,1.967209815979004,4.917054462223806,0.0,0.295379638671875,-1.6657012144671839,-1.5962955850903834e-31,-0.0046575176529586315,0.7357138395309448,-0.0,0.00027435942320153117,0.8112324476242065,0.00026736926520243287,-0.013482796028256416
763.0,870.0,1.3621,1.3938,9.5593,-0.0067,0.0286,-0.1185,-1.817956110040182,-0.0015092701651155949,3.102761745452881,-1.7525153160095215,1.5879467185619944e-10,2.0053486824035645,4.917062270432272,0.0,0.3056049346923828,-1.665713135396139,-2.9011887909585613e-36,-8.594244718551636e-06,0.7357579469680786,-0.0,0.0005232711555436254,0.8111838102340698,0.0002588483039289713,-0.028003640472888947
763.0,870.0,1.3621,1.3938,9.5593,-0.0067,0.0286,-0.1185,-1.8179518185057582,-0.0015273763565346599,3.0281505584716797,-1.752495527267456,3.8347042347708176e-16,1.997194528579712,4.917090344219961,0.0,0.2855335474014282,-1.6656811873065394,-8.075570946026775e-40,-0.003487369976937771,0.7357339859008789,-0.0,0.004507487174123526,0.811191976070404,0.00023164109734352678,0.006006350740790367
786.0,875.0,0.944,1.0816,9.198,-0.0244,0.0516,-0.1258,-1.817923208276266,-0.0009295524214394391,3.0763094425201416,-1.7524946928024292,9.260357639468253e-22,2.0282537937164307,4.917102250247755,0.0,0.28306785225868225,-1.665713135396139,-2.2420775429197073e-43,-0.009411786682903767,0.7357816696166992,-0.0,0.001245679333806038,0.8112038969993591,0.0002086274471366778,0.01283788587898016
786.0,875.0,0.944,1.0816,9.198,-0.0244,0.0516,-0.1258,-1.8179718456664027,-0.0006127700326032937,3.0900793075561523,-1.7525194883346558,-0.00010196617222391069,2.0077390670776367,4.917086350708761,0.0,0.2900884747505188,-1.6656978766070765,-0.0,0.009151113219559193,0.7357339859008789,-0.0,0.00448988750576973,0.8112401962280273,0.00021688244305551052,0.03808697313070297
786.0,875.0,0.944,1.0816,9.198,-0.0244,0.0516,-0.1258,-1.8179761372008265,-0.00045708721154369414,3.0344622135162354,-1.75253164768219,-1.337049297944759e-07,2.0235633850097656,4.917054208904066,0.0,0.28527310490608215,-1.6657093206988733,-0.0,0.0029497172217816114,0.7357498407363892,-0.0,0.0008240173337981105,0.8112766146659851,0.0001597432274138555,-0.014241734519600868
786.0,875.0,0.944,1.0816,9.198,-0.0244,0.0516,-0.1258,-1.8179718456664027,-0.00030375548521988094,3.0534963607788086,-1.7525194883346558,-3.228816682337293e-13,2.0117106437683105,4.917102265148916,0.0,0.302184522151947,-1.6657336393939417,-0.0,0.00416595209389925,0.7356863617897034,-0.0,-0.008550355210900307,0.8112159371376038,0.0009409203194081783,-0.0062471721321344376
786.0,875.0,0.944,1.0816,9.198,-0.0244,0.0516,-0.1258,-1.817968030969137,-0.0001920107170008123,3.0892040729522705,-1.7525267601013184,-1.0460955772523203e-20,2.043890953063965,4.917058202415266,0.0,0.28952252864837646,-1.665713135396139,-0.0,0.004691313020884991,0.7357538938522339,-0.0,-0.0027985558845102787,0.8112680912017822,0.001641780138015747,0.002540670335292816
786.0,875.0,0.944,1.0816,9.198,-0.0244,0.0516,-0.1258,-1.8179718456664027,-4.666953827836551e-05,3.0572381019592285,-1.7524832487106323,-2.526197780552423e-26,2.0138533115386963,4.917066442757406,0.0,0.2880637049674988,-1.6656768957721155,-0.0,-0.002320270286872983,0.7356943488121033,-0.0,-0.01065276563167572,0.8112276792526245,0.001642064773477614,-0.021956171840429306
786.0,875.0,0.944,1.0816,9.198,-0.0244,0.0516,-0.1258,-1.8180037937560023,-8.017051732167602e-05,3.079514980316162,-1.75253164768219,-6.10047008542853e-32,2.0702309608459473,4.917046355992117,5.543004277797081e-08,0.2817550301551819,-1.66567308107485,-0.0,0.009197445586323738,0.7357217669487,-0.0,0.00483929505571723,0.8112358450889587,0.0012761871330440044,0.040469687432050705
786.0,875.0,0.944,1.0816,9.198,-0.0244,0.0516,-0.1258,-1.8179837665953578,-0.00014087508316151798,3.074615955352783,-1.7525153160095215,-1.4731921380889404e-37,1.9687726497650146,4.917050304799833,1.542915795127442e-11,0.3019942045211792,-1.6657217184649866,-0.0,-0.005371189676225185,0.7356823682785034,-0.0,-0.0015275474870577455,0.8112437129020691,0.0009030015207827091,-0.030973680317401886
786.0,875.0,0.944,1.0816,9.198,-0.0244,0.0516,-0.1258,-1.8179756603636683,-0.0006430313806049526,3.0839757919311523,-1.752498745918274,-3.5592980993850354e-43,2.045126438140869,4.917070272355833,4.294762397956788e-15,0.28613346815109253,-1.6656768957721155,-0.0,0.00032785499934107065,0.7357177734375,-0.0,0.004639023914933205,0.8112560510635376,0.0006313305348157883,0.013325633481144905
786.0,875.0,0.944,1.0816,9.198,-0.0244,0.0516,-0.1258,-1.8180281124510707,-0.0014295695582404733,3.0560405254364014,-1.752539038658142,-0.0,1.9926600456237793,4.917058366328039,7.805519244355307e-20,0.3021523952484131,-1.6656811873065394,-0.0,0.0017524051945656538,0.7357138395309448,-0.0,-0.01963679865002632,0.811240017414093,8.330979471793398e-05,0.04029667377471924
786.0,875.0,0.944,1.0816,9.198,-0.0244,0.0516,-0.1258,-1.81803621868276,-0.0011018799850717187,3.069154739379883,-1.7525110244750977,-0.0,2.0530214309692383,4.916998657375135,2.1726952202003668e-23,0.2942788600921631,-1.6656535307513636,-0.0,0.002506832592189312,0.7357218265533447,-0.0,-0.007516172714531422,0.8112483024597168,4.709872492014711e-09,0.014025934971868992
786.0,875.0,0.944,1.0816,9.198,-0.0244,0.0516,-0.1258,-1.8179875812926234,-0.000655603245832026,3.106905221939087,-1.75246262550354,-0.0,2.056305408477783,4.917066353350439,6.047776707601621e-27,0.28985142707824707,-1.6657093206988733,-0.0,-0.0020356611348688602,0.7356704473495483,-0.0,0.007587038911879063,0.8112601637840271,1.1373788162108347e-14,-0.03893876075744629
786.0,875.0,0.944,1.0816,9.198,-0.0244,0.0516,-0.1258,-1.8180118999876917,-0.0004560876695904881,3.0517215728759766,-1.7524429559707642,-0.0,1.9887287616729736,4.916994634061613,1.6834209459142908e-30,0.29785990715026855,-1.665713135396139,-0.0,0.00753963366150856,0.7358058094978333,-0.0,-0.003610926680266857,0.8112038969993591,-0.0011726734228432178,0.004144878126680851
786.0,875.0,0.944,1.0816,9.198,-0.0244,0.0516,-0.1258,-1.8180200062193812,-0.0004196485679131001,3.0681862831115723,-1.7525275945663452,-0.0,2.0210676193237305,4.917014586716451,-0.00027682140353135765,0.2945445477962494,-1.6656492392169397,-0.0,-0.0020150719210505486,0.7356542944908142,-0.0,-0.003027484519407153,0.811191976070404,-0.001334310625679791,0.03467009216547012
780.0,899.0,1.282,1.212,9.347,-0.0165,0.0212,-0.1323,-1.8180395565428675,-0.0004513824242167175,3.052532196044922,-1.7525153160095215,-0.0,2.0137388706207275,4.9169867662485025,-0.0002404411934548989,0.2912956476211548,-1.6656740347491663,-0.0,0.004009974654763937,0.7357300519943237,-0.0,-0.005434076301753521,0.8111797571182251,-0.0009432702208869159,0.037865571677684784
780.0,899.0,1.282,1.212,9.347,-0.0165,0.0212,-0.1323,-1.8180519543089808,-0.00036650869878940284,3.1108970642089844,-1.7525556087493896,-0.0,2.091517686843872,4.916978779226103,-0.00019809318473562598,0.27839353680610657,-1.6656811873065394,-0.0,-0.01118523720651865,0.7357498407363892,-0.0,0.005670324899256229,0.8112080097198486,-0.0004403349885251373,-0.006886621005833149
780.0,899.0,1.282,1.212,9.347,-0.0165,0.0212,-0.1323,-1.8180681667723597,-0.00035594619112089276,3.0451459884643555,-1.7524995803833008,-0.0,1.9911220073699951,4.916986721545019,-0.00017498013039585203,0.2906242609024048,-1.6656659285174769,-0.0,0.0041150785982608795,0.7356784343719482,-0.0,-0.0029773630667477846,0.811191976070404,-0.0003027087077498436,-0.02382575534284115
780.0,899.0,1.282,1.212,9.347,-0.0165,0.0212,-0.1323,-1.81803621868276,-0.000347839726600796,3.075009822845459,-1.752530813217163,-0.0,1.9788599014282227,4.917038428574362,-0.00015669793356209993,0.2926359474658966,-1.6656292120562952,-0.0,0.0004905632231384516,0.7357938885688782,-0.0,-0.016780398786067963,0.8111756443977356,-0.0002417174109723419,0.002068699337542057
780.0,899.0,1.282,1.212,9.347,-0.0165,0.0212,-0.1323,-1.8180600605406703,-0.00039051607018336654,3.085278034210205,-1.7524584531784058,-0.0,2.0273308753967285,4.9170424220855615,-0.00014187507622409612,0.287271112203598,-1.6656811873065394,-0.0,0.003385640447959304,0.7357138991355896,-0.0,0.0023254994302988052,0.8111960887908936,-0.00020118514657951891,-0.042909491807222366
780.0,899.0,1.282,1.212,9.347,-0.0165,0.0212,-0.1323,-1.8180519543089808,-0.0003098367596976459,3.0808768272399902,-1.7524750232696533,0.00010484688391443342,1.9517713785171509,4.917010623007574,-0.00012961443280801177,0.3018929958343506,-1.6656373182879847,-0.0,0.000753376167267561,0.7357776761054993,-0.0,0.007062980905175209,0.8112442493438721,-0.00017229605873581022,-0.01040714606642723
780.0,899.0,1.282,1.212,9.347,-0.0165,0.0212,-0.1323,-1.8180238209166468,-0.00020551648049149662,3.098572015762329,-1.7524749040603638,0.0011513382196426392,2.0384621620178223,4.917006614595213,-0.00011930470645893365,0.29180294275283813,-1.6656373182879847,-3.8845882066596005e-09,0.003691103309392929,0.7357538938522339,-0.0,0.005193800199776888,0.8111637234687805,-0.00015066242485772818,-0.02769705280661583
780.0,899.0,1.282,1.212,9.347,-0.0165,0.0212,-0.1323,-1.8180519543089808,-0.00016724938177503645,3.0846681594848633,-1.7524831295013428,0.0028154682368040085,1.954169511795044,4.917002576380529,-0.00010786506027216092,0.28500550985336304,-1.665633503590719,-7.060047398045263e-14,-0.0031953828874975443,0.7357538938522339,-0.0,-0.01450524665415287,0.8112162947654724,-0.0001290569780394435,0.03005470149219036
780.0,899.0,1.282,1.212,9.347,-0.0165,0.0212,-0.1323,-1.8180562458434046,-0.0001467890979256481,3.1096584796905518,-1.7523787021636963,0.0046095699071884155,2.0553362369537354,4.917022499233045,-0.0001006285529001616,0.2883218824863434,-1.665661636983053,-1.9651902221406165e-17,0.006415287032723427,0.7357300519943237,-0.0,-0.0032370388507843018,0.8112282752990723,-0.00011652455577859655,0.0352339968085289
780.0,899.0,1.282,1.212,9.347,-0.0165,0.0212,-0.1323,-1.8180157146849574,-5.898088056710549e-05,3.0732922554016113,-1.752399206161499,0.005650833714753389,1.986177682876587,4.9170265076454065,-9.43020568229258e-05,0.2825188636779785,-1.6656535307513636,-5.470178510349417e-21,-0.005355629604309797,0.7357177734375,-0.0,0.007407539524137974,0.8111796379089355,-7.965978875290602e-05,-0.006002921145409346
780.0,899.0,1.282,1.212,9.347,-0.0165,0.0212,-0.1323,-1.818035741845602,-4.240413545630872e-05,3.1054787635803223,-1.7523187398910522,0.005041782278567553,2.0105910301208496,4.9170305011566064,-8.872402395354584e-05,0.2948343753814697,-1.6655777136432093,-1.5226441336851715e-24,-0.0011130878701806068,0.7356705069541931,-0.0,-0.0032592087518423796,0.8112038969993591,-7.317816198337823e-05,0.04124203696846962
780.0,899.0,1.282,1.212,9.347,-0.0165,0.0212,-0.1323,-1.8180681667723597,-7.429757533827797e-05,3.0834193229675293,-1.752347469329834,0.005288819316774607,2.06364369392395,4.917022499233045,-8.376894402317703e-05,0.2943969964981079,-1.6655972639666956,-4.238335287749686e-28,0.0062186261638998985,0.7357019186019897,-0.0,0.0010704098967835307,0.8112200498580933,-6.76755080348812e-05,0.01856229454278946
780.0,899.0,1.282,1.212,9.347,-0.0165,0.0212,-0.1323,-1.8180557690062464,-0.00013089257117826492,3.0698835849761963,-1.7522635459899902,0.005338990595191717,2.041607618331909,4.917030516057768,-9.493393008597195e-05,0.27755048871040344,-1.6655891577350062,0.00023399149358738214,-0.006325902882963419,0.7357697486877441,-0.0,0.001679848413914442,0.8112360835075378,-6.294442573562264e-05,-0.0004118671640753746
780.0,899.0,1.282,1.212,9.347,-0.0165,0.0212,-0.1323,-1.8180395565428675,-0.0004435726732481271,3.0358824729919434,-1.7522873878479004,0.0043305824510753155,2.0299346446990967,4.91698673644618,-0.00011807472037617117,0.2850176990032196,-1.665605370198385,0.00025161754456348717,0.006587086245417595,0.7357656955718994,-0.0,-0.002676722826436162,0.8112241625785828,4.3635795009322464e-05,-0.0394228920340538
780.0,899.0,1.282,1.212,9.347,-0.0165,0.0212,-0.1323,-1.8180681667723597,-0.0009168439428322017,3.035426616668701,-1.7521952390670776,0.003775680670514703,2.045258045196533,4.91697874942378,-9.246209083357826e-05,0.2882063090801239,-1.6656134764300745,0.00025874641141854227,0.022627606987953186,0.7356979846954346,-0.0,-0.005820657126605511,0.8112442493438721,4.0725997678237036e-05,-0.05038899555802345
758.0,897.0,1.2867,0.9416,9.5037,-0.0432,0.0221,-0.1196,-1.818075796166891,-0.0012992089614272118,3.0123238563537598,-1.7521673440933228,0.0032593365758657455,2.061087131500244,4.916990744858541,-0.00011699983588187024,0.26677313446998596,-1.6655734221087855,0.0004704449384007603,0.03203197196125984,0.7357261180877686,-0.0,-0.002345870016142726,0.8111956119537354,1.983252150239423e-05,-0.06541196256875992
758.0,897.0,1.2867,0.9416,9.5037,-0.0432,0.0221,-0.1196,-1.818063875237936,-0.0017868722788989544,3.0144615173339844,-1.7521600723266602,0.003157975384965539,1.999068260192871,4.91698673644618,-0.00013070504064671695,0.2708982229232788,-1.6655452887164515,0.0004381426842883229,0.03501570597290993,0.7357498407363892,-0.0,0.002351250033825636,0.8112080097198486,1.7929018213180825e-05,-0.09825579077005386
758.0,897.0,1.2867,0.9416,9.5037,-0.0432,0.0221,-0.1196,-1.81811585048818,-0.003245365573093295,2.984638214111328,-1.7521557807922363,0.0032267700880765915,2.0265519618988037,4.916966813593664,-0.0004246840544510633,0.25302964448928833,-1.665581528340475,0.0004150427703280002,0.042558345943689346,0.7357419729232788,-0.0,0.006796280853450298,0.8112277984619141,1.6918376786634326e-05,-0.12808960676193237
758.0,897.0,1.2867,0.9416,9.5037,-0.0432,0.0221,-0.1196,-1.818216939965719,-0.00504495482891798,2.9522228240966797,-1.7521764039993286,0.003686219686642289,2.017852306365967,4.91698673644618,-0.00036531922523863614,0.2477450668811798,-1.6655576864825647,0.00042693139403127134,0.048042379319667816,0.7357816100120544,-0.0,0.011285738088190556,0.8112647533416748,1.573485860717483e-05,-0.15313705801963806
758.0,897.0,1.2867,0.9416,9.5037,-0.0432,0.0221,-0.1196,-1.8181759319701136,-0.005253559909760952,2.939680576324463,-1.7520833015441895,0.004898864310234785,2.085707664489746,4.9170066741998575,-0.00030949682695791125,0.24885383248329163,-1.6655214468585413,0.0004035615420434624,0.04397481679916382,0.7357380390167236,-0.0,-0.0070634386502206326,0.8112241625785828,3.7997834045899737e-11,-0.20940756797790527
758.0,897.0,1.2867,0.9416,9.5037,-0.0432,0.0221,-0.1196,-1.818216463128561,-0.004123781807720661,2.892800807952881,-1.7520604133605957,0.006377844605594873,2.0312013626098633,4.916978823929586,-0.00030806101858615875,0.2500876188278198,-1.6655495802508753,0.0003868534113280475,0.05865800753235817,0.7356940507888794,-0.0,-0.00635459553450346,0.8112524151802063,9.176031002080983e-17,-0.2204696536064148
758.0,897.0,1.2867,0.9416,9.5037,-0.0432,0.0221,-0.1196,-1.8182364902892054,-0.003546918975189328,2.933727741241455,-1.7520519495010376,0.007005980703979731,2.074101209640503,4.916966664582052,-0.0003118616878055036,0.24543750286102295,-1.6655095259295862,0.00038015583413653076,0.039595067501068115,0.7357538938522339,-0.0,0.0014754988951608539,0.8112038969993591,2.2159037194430907e-22,-0.2157846838235855
758.0,897.0,1.2867,0.9416,9.5037,-0.0432,0.0221,-0.1196,-1.8182484112181605,-0.0037310176994651556,2.882296323776245,-1.7519642114639282,0.006567247211933136,2.02634859085083,4.916974964528837,-0.0002844937553163618,0.24492323398590088,-1.665541950856344,0.0003061436873394996,0.06342454999685287,0.7357656955718994,-0.0,-0.02007444016635418,0.8112523555755615,5.351147239266353e-28,-0.22558817267417908
758.0,897.0,1.2867,0.9416,9.5037,-0.0432,0.0221,-0.1196,-1.8182841740050257,-0.004426987376064062,2.8986377716064453,-1.751965045928955,0.005990975070744753,2.040356397628784,4.916954132705488,-0.00028680454124696553,0.2270633578300476,-1.6655662695514124,0.0003045999037567526,0.051109492778778076,0.7357218265533447,-0.0,-0.010703064501285553,0.8112401962280273,1.29223912328718e-33,-0.18495166301727295
758.0,897.0,1.2867,0.9416,9.5037,-0.0432,0.0221,-0.1196,-1.8183161220946253,-0.003942996729165316,2.8945326805114746,-1.7518688440322876,0.005197232123464346,2.0299582481384277,4.91693480589942,-0.0002952236100099981,0.22871211171150208,-1.6655381361590784,0.00024882651632651687,0.0850101187825203,0.7357736825942993,-0.0,0.004301203414797783,0.8112200498580933,4.186659421863256e-41,-0.25855252146720886
758.0,897.0,1.2867,0.9416,9.5037,-0.0432,0.0221,-0.1196,-1.818336626092428,-0.003563805017620325,2.8893754482269287,-1.7518811225891113,0.005439789965748787,2.0595545768737793,4.91693069317893,-0.0003234432660974562,0.2410983443260193,-1.6655257383929651,0.00025502292555756867,0.07405587285757065,0.7357099056243896,-0.0,0.0006431538495235145,0.8111556172370911,0.0,-0.2881527543067932
758.0,897.0,1.2867,0.9416,9.5037,-0.0432,0.0221,-0.1196,-1.8183852634825648,-0.0030559555161744356,2.829894781112671,-1.7518366575241089,0.006294808816164732,2.0629310607910156,4.916970836907186,-0.00029584189178422093,0.22915318608283997,-1.665530029927389,0.00025987892877310514,0.08868579566478729,0.735713541507721,-0.0,-0.0007139217341318727,0.8112643361091614,0.0,-0.29128992557525635
758.0,897.0,1.2867,0.9416,9.5037,-0.0432,0.0221,-0.1196,-1.8183847866454066,-0.0031382860615849495,2.7942638397216797,-1.7518322467803955,0.006466813385486603,2.0153725147247314,4.916970672994413,-0.0002742034266702831,0.21981891989707947,-1.665541950856344,0.0002277446328662336,0.07597238570451736,0.7358096837997437,-0.0,-0.006377323064953089,0.8112524151802063,0.0,-0.3444804549217224
758.0,897.0,1.2867,0.9416,9.5037,-0.0432,0.0221,-0.1196,-1.8183685741820277,-0.0030382161494344473,2.8719494342803955,-1.7516803741455078,0.007993749342858791,2.038525104522705,4.916958752065458,-0.0002775977773126215,0.21872751414775848,-1.6655457655536097,0.00019645995052997023,0.07879520207643509,0.7357339859008789,-0.0,0.0036575710400938988,0.8112038969993591,-0.0002525920863263309,-0.3502156734466553
762.0,907.0,1.2646,0.99,9.3793,-0.0467,0.0333,-0.1298,-1.818432947198385,-0.003603075398132205,2.8252665996551514,-1.7516647577285767,0.008691124618053436,2.0375261306762695,4.916982951551237,-0.00028005591593682766,0.2298748791217804,-1.665530029927389,0.0002084237930830568,0.09115087240934372,0.7357422709465027,-0.0,0.0010065489914268255,0.8112117648124695,-0.0003441475855652243,-0.3136714696884155
762.0,907.0,1.2646,0.99,9.3793,-0.0467,0.0333,-0.1298,-1.8184405765929164,-0.0037066563963890076,2.791874885559082,-1.7516250610351562,0.0102602643892169,2.064621925354004,4.916970807104864,-0.00024317472707480192,0.2192515730857849,-1.665485684071676,0.00023676133423577994,0.08892939984798431,0.7357617616653442,-0.0,-0.007670494262129068,0.8112200498580933,-0.0016207400476559997,-0.3208892345428467
762.0,907.0,1.2646,0.99,9.3793,-0.0467,0.0333,-0.1298,-1.818489213983053,-0.0032544578425586224,2.8058128356933594,-1.7515215873718262,0.011356146074831486,2.0614542961120605,4.916990908771314,-0.00022612788598053157,0.22074495255947113,-1.665501896535055,0.0003371286147739738,0.09967833757400513,0.7357218265533447,-0.0,0.0030067230109125376,0.8111637830734253,-0.0023154320660978556,-0.3195857107639313
762.0,907.0,1.2646,0.99,9.3793,-0.0467,0.0333,-0.1298,-1.8184968433775843,-0.003661527531221509,2.7876195907592773,-1.751413106918335,0.01214513834565878,2.061069965362549,4.916954728751936,-0.00023443058307748288,0.20185250043869019,-1.6655061880694788,0.00038571105687879026,0.10515552759170532,0.735754132270813,-0.0,-0.0072001926600933075,0.8111480474472046,-0.003504059510305524,-0.31896650791168213
762.0,907.0,1.2646,0.99,9.3793,-0.0467,0.0333,-0.1298,-1.8184968433775843,-0.003749891882762313,2.770583152770996,-1.7513734102249146,0.013972238637506962,2.094025135040283,4.916926431446829,-0.00020848495478276163,0.19873517751693726,-1.665501896535055,0.00037395732942968607,0.08757215738296509,0.7357218861579895,-0.0,-0.009937066584825516,0.8111318945884705,-0.005529756657779217,-0.3904443383216858
762.0,907.0,1.2646,0.99,9.3793,-0.0467,0.0333,-0.1298,-1.8185082874693812,-0.004263957031071186,2.7399556636810303,-1.751314401626587,0.014802798628807068,2.045365333557129,4.9169106660182855,-0.00021794383064843714,0.1990799605846405,-1.665473763142721,0.0005007810541428626,0.11703799664974213,0.7357582449913025,-0.0,0.002242865739390254,0.811180591583252,-0.005103159695863724,-0.4197810888290405
762.0,907.0,1.2646,0.99,9.3793,-0.0467,0.0333,-0.1298,-1.8185650310912074,-0.0048080068081617355,2.7900240421295166,-1.7512426376342773,0.017045309767127037,2.030975818634033,4.916978809028425,-0.00022379013535100967,0.20958548784255981,-1.665473763142721,0.00045567168854177,0.11315107345581055,0.7357381582260132,-0.0,0.006817631423473358,0.8111081123352051,-0.0035740211606025696,-0.4417363405227661
762.0,907.0,1.2646,0.99,9.3793,-0.0467,0.0333,-0.1298,-1.8185926876463832,-0.006032954901456833,2.7750394344329834,-1.751082181930542,0.018555674701929092,2.0546696186065674,4.916922601848402,-0.00023710059758741409,0.21083420515060425,-1.6654980818377894,0.0004180869727861136,0.11045867204666138,0.7357339859008789,-0.0,-0.0008146965992636979,0.8111086487770081,-0.002648266265168786,-0.49319133162498474
762.0,907.0,1.2646,0.99,9.3793,-0.0467,0.0333,-0.1298,-1.818653245965475,-0.007591757923364639,2.7556495666503906,-1.7509227991104126,0.01983807422220707,2.049715518951416,4.916954833060064,-0.00020533172937575728,0.2079281508922577,-1.665461842213766,0.00042562460293993354,0.1282913088798523,0.7357622385025024,-0.0,-0.007872175425291061,0.8110234141349792,-0.0025281808339059353,-0.46397465467453003
762.0,907.0,1.2646,0.99,9.3793,-0.0467,0.0333,-0.1298,-1.818676610986227,-0.00807750504463911,2.748427152633667,-1.7508150339126587,0.021735021844506264,2.0928494930267334,4.916922542243757,-0.0002165576006518677,0.20975351333618164,-1.6654217878924769,0.0004043645749334246,0.12715739011764526,0.7357016801834106,-0.0,-0.0013061192585155368,0.8110600113868713,-0.0026460750959813595,-0.3961638808250427
762.0,907.0,1.2646,0.99,9.3793,-0.0467,0.0333,-0.1298,-1.8187128506102503,-0.008451948873698711,2.738920211791992,-1.7507432699203491,0.02331276424229145,2.0924134254455566,4.91694692054347,-0.00019343115855008364,0.2026371955871582,-1.6654623190509241,0.0004946376429870725,0.12750068306922913,0.7356942296028137,-0.0,-0.007548780180513859,0.8110196590423584,-0.003084487747400999,-0.4384509325027466
762.0,907.0,1.2646,0.99,9.3793,-0.0467,0.0333,-0.1298,-1.8187648258604945,-0.009350486099720001,2.7116034030914307,-1.7505197525024414,0.024105776101350784,2.125457763671875,4.916930663376608,-0.00020376074826344848,0.19475245475769043,-1.665429417287008,0.0005181137821637094,0.13272401690483093,0.7357701659202576,-0.0,-0.007031407672911882,0.8110077977180481,-0.003307285951450467,-0.45832565426826477
762.0,907.0,1.2646,0.99,9.3793,-0.0467,0.0333,-0.1298,-1.8188611469664515,-0.011202365159988403,2.717695713043213,-1.7503796815872192,0.02580520696938038,2.1146199703216553,4.91691471913413,-0.00024127226788550615,0.20573660731315613,-1.665417496358053,0.0004856596642639488,0.13934607803821564,0.7358024716377258,-0.0,0.0028218617662787437,0.8110319375991821,-0.0029303531628102064,-0.4275006055831909
762.0,907.0,1.2646,0.99,9.3793,-0.0467,0.0333,-0.1298,-1.818965574304098,-0.012791864573955536,2.6712331771850586,-1.7501808404922485,0.026970582082867622,2.1133885383605957,4.916942822724142,-0.0002580542932264507,0.18003934621810913,-1.6655104796039026,0.0005020065582357347,0.14254537224769592,0.7357820272445679,-0.0,-0.016089580953121185,0.8109839558601379,-0.002483565593138337,-0.4869402050971985
762.0,907.0,1.2646,0.99,9.3793,-0.0467,0.0333,-0.1298,-1.8190375767149867,-0.013480315916240215,2.7035975456237793,-1.7499973773956299,0.027471309527754784,2.0857975482940674,4.916926565557279,-0.00023018839419819415,0.20268471539020538,-1.6654298941241663,0.0005186846829019487,0.13708347082138062,0.7357381582260132,-0.0,-0.003416007850319147,0.8109880685806274,-0.0020471687894314528,-0.5211524367332458
747.0,892.0,0.9111,1.066,9.0694,-0.0347,0.0176,-0.1231,-1.819090028802389,-0.014727873727679253,2.677387237548828,-1.7498459815979004,0.027324551716446877,2.1232080459594727,4.916971403151312,-0.00023357791360467672,0.1960802674293518,-1.6653936545001429,0.0004509089922066778,0.14814360439777374,0.7357619404792786,-0.0,-0.006333967205137014,0.8109230995178223,-0.0016796583076938987,-0.5609118938446045
747.0,892.0,0.9111,1.066,9.0694,-0.0347,0.0176,-0.1231,-1.8191734753050746,-0.015293661504983902,2.6914708614349365,-1.749625563621521,0.02676446922123432,2.0924975872039795,4.916922527342596,-0.00021384870342444628,0.18931052088737488,-1.6654585043536585,0.00046793106594122946,0.14490607380867004,0.735713541507721,-0.0,-0.012070720084011555,0.8109880685806274,-0.0015269641298800707,-0.5055227875709534
747.0,892.0,0.9111,1.066,9.0694,-0.0347,0.0176,-0.1231,-1.8193227253355921,-0.016356151551008224,2.674238443374634,-1.7495020627975464,0.025822969153523445,2.1050078868865967,4.916930678277769,-0.00019408347725402564,0.19427938759326935,-1.6654341856585901,0.0005946213495917618,0.15317751467227936,0.7358106374740601,-0.0,0.0023363218642771244,0.8109474778175354,-0.0013662537094205618,-0.47114354372024536
747.0,892.0,0.9111,1.066,9.0694,-0.0347,0.0176,-0.1231,-1.8194219074644984,-0.019368749111890793,2.681617259979248,-1.7492784261703491,0.022796863690018654,2.094965934753418,4.916970687895574,-0.0001972548197954893,0.18393999338150024,-1.6654499212848108,0.0012976940488442779,0.1445876955986023,0.7357701659202576,-0.0,-0.003297951305285096,0.8109638690948486,-0.0010369403753429651,-0.5013222098350525
747.0,892.0,0.9111,1.066,9.0694,-0.0347,0.0176,-0.1231,-1.8195630512633265,-0.02175491489470005,2.6767187118530273,-1.7491960525512695,0.0206766277551651,2.1190059185028076,4.916990953474798,-0.00018245962564833462,0.18411993980407715,-1.6654179731952112,0.0032415755558758974,0.1593306064605713,0.7357697486877441,-0.0,0.001999357482418418,0.810939610004425,-0.0008805734105408192,-0.49722370505332947
747.0,892.0,0.9111,1.066,9.0694,-0.0347,0.0176,-0.1231,-1.819718977014059,-0.024958210065960884,2.6716463565826416,-1.749039888381958,0.01830390654504299,2.1055214405059814,4.916942807822981,-0.0001695675600785762,0.1806475818157196,-1.6653946081744593,0.012984691187739372,0.1554245948791504,0.7357578277587891,-0.0,-0.020420417189598083,0.81092768907547,-0.0007936307811178267,-0.5246336460113525
747.0,892.0,0.9111,1.066,9.0694,-0.0347,0.0176,-0.1231,-1.8198110065855921,-0.027891572564840317,2.6419003009796143,-1.7489640712738037,0.01570139080286026,2.1176884174346924,4.916982817440786,-0.00015837732644286007,0.19341842830181122,-1.6652544180499476,0.016659453511238098,0.16318267583847046,0.7356902360916138,-0.0,-0.0021759793162345886,0.8109519481658936,-0.000682746700476855,-0.48891741037368774
747.0,892.0,0.9111,1.066,9.0694,-0.0347,0.0176,-0.1231,-1.8199831447997035,-0.031142914667725563,2.6437015533447266,-1.748871922492981,0.014189732261002064,2.110724925994873,4.916955309897222,-0.00014857252244837582,0.1931183636188507,-1.6652067343341272,0.0128828389570117,0.16164939105510712,0.7357701063156128,-0.0,0.0036311401054263115,0.810935914516449,-0.0005165687180124223,-0.567083477973938
747.0,892.0,0.9111,1.066,9.0694,-0.0347,0.0176,-0.1231,-1.8201796017088832,-0.03428267315030098,2.6162819862365723,-1.748732328414917,0.011590534821152687,2.0519182682037354,4.916962820082464,-0.00013991106243338436,0.1951078474521637,-1.6650822798358362,0.007231643423438072,0.17188286781311035,0.7357422113418579,-0.0,-0.007803499232977629,0.810935914516449,-0.00045995734399184585,-0.4892401695251465
747.0,892.0,0.9111,1.066,9.0694,-0.0347,0.0176,-0.1231,-1.820456167260641,-0.03804423660039902,2.6675515174865723,-1.748720645904541,0.009812937118113041,2.1052064895629883,4.916906612902441,-0.00012982018233742565,0.20609676837921143,-1.6650989691363733,0.0019995342008769512,0.1606493890285492,0.7357340455055237,-0.0,-0.0005908638122491539,0.8109437227249146,-0.0004384215280879289,-0.5701879858970642
747.0,892.0,0.9111,1.066,9.0694,-0.0347,0.0176,-0.1231,-1.8206964931883753,-0.0414680540561676,2.676011800765991,-1.748612880706787,0.007335309404879808,2.0777297019958496,4.9169025895889185,-0.00012315822823438793,0.18637016415596008,-1.6650946776019495,0.0009486426133662462,0.16484786570072174,0.7357217669487,-0.0,0.0030292142182588577,0.8109277486801147,-0.00040484595228917897,-0.5454665422439575
747.0,892.0,0.9111,1.066,9.0694,-0.0347,0.0176,-0.1231,-1.8209406338133753,-0.0467090904712677,2.6602301597595215,-1.748673677444458,0.004896192811429501,2.0371015071868896,4.916970792203703,-0.00011714669381035492,0.19293594360351562,-1.6650875250445765,0.0006205099634826183,0.1472638100385666,0.7357176542282104,-0.0,-0.014009496197104454,0.8109238743782043,-0.0004454369191080332,-0.5189743638038635
747.0,892.0,0.9111,1.066,9.0694,-0.0347,0.0176,-0.1231,-1.8212248287596644,-0.05183130502700806,2.6033782958984375,-1.74857759475708,0.003064969787374139,2.074845790863037,4.916926565557279,-0.00011169472418259829,0.19273942708969116,-1.665119473134176,0.0005373827880248427,0.16498300433158875,0.7357618808746338,-0.0,-0.01127418503165245,0.8109078407287598,-0.0006782399141229689,-0.5145801305770874
747.0,892.0,0.9111,1.066,9.0694,-0.0347,0.0176,-0.1231,-1.821590086022848,-0.05333114415407181,2.5908007621765137,-1.7486014366149902,0.0017854793695732951,2.116448402404785,4.91691871264533,-0.00010672767530195415,0.19643747806549072,-1.6650551001178187,0.0004811531107407063,0.15238702297210693,0.7357176542282104,-0.0,-0.0017596343532204628,0.8108956813812256,-0.0009309771121479571,-0.5195518732070923
756.0,887.0,1.4674,1.0164,9.0425,-0.0435,-0.0481,-0.1266,-1.8218823872008265,-0.05443258956074715,2.643144130706787,-1.7486292123794556,0.0009714392945170403,2.071476936340332,4.916962864785948,-0.00010218359966529533,0.195146381855011,-1.66506272951235,0.000310161238303408,0.17859870195388794,0.7357503175735474,-0.0,-0.013233549892902374,0.810920238494873,-0.0013117562048137188,-0.5723872184753418
756.0,887.0,1.4674,1.0164,9.0425,-0.0435,-0.0481,-0.1266,-1.822378774682516,-0.0540275014936924,2.6553008556365967,-1.7486735582351685,0.00047066749539226294,2.0807995796203613,4.916926550656118,-9.669439896242693e-05,0.18789511919021606,-1.665051285420553,0.00028688376187346876,0.17035457491874695,0.7357500195503235,-0.0,-0.004959244281053543,0.8109039068222046,-0.0015507895732298493,-0.5774511098861694
756.0,887.0,1.4674,1.0164,9.0425,-0.0435,-0.0481,-0.1266,-1.8226992092528285,-0.05302298069000244,2.6771533489227295,-1.7485849857330322,0.00028957644826732576,2.0860674381256104,4.91691471913413,-9.294955088989809e-05,0.1919373869895935,-1.6650875250445765,0.0003056950808968395,0.16671980917453766,0.7357823848724365,-0.0,-0.0010326514020562172,0.810815155506134,-0.001438035862520337,-0.5390742421150208
756.0,887.0,1.4674,1.0164,9.0425,-0.0435,-0.0481,-0.1266,-1.8230802021422328,-0.05454018712043762,2.62982177734375,-1.7486251592636108,0.00023131984926294535,2.0615668296813965,4.916907059937277,-8.948396134655923e-05,0.19765879213809967,-1.6650226751910608,0.0005057292873971164,0.1491558849811554,0.7356935739517212,-0.0,0.01391071267426014,0.8109039068222046,-0.0015088127693161368,-0.5348542332649231
756.0,887.0,1.4674,1.0164,9.0425,-0.0435,-0.0481,-0.1266,-1.8233276806273402,-0.05860520526766777,2.5955069065093994,-1.7485816478729248,0.00019393117690924555,2.0820627212524414,4.91691471913413,-6.775260408176109e-05,0.19833551347255707,-1.6650832335101526,0.0007569924928247929,0.16388435661792755,0.7356741428375244,-0.0,-0.0012539599556475878,0.8108436465263367,-0.001669194782152772,-0.5125520825386047
756.0,887.0,1.4674,1.0164,9.0425,-0.0435,-0.0481,-0.1266,-1.823700567285055,-0.05900181457400322,2.5677549839019775,-1.7486014366149902,0.00016694799705874175,2.062167167663574,4.916962864785948,-6.424389721360058e-05,0.20245714485645294,-1.6650469938861292,0.0017613215604797006,0.16516537964344025,0.7357422709465027,-0.0,-0.007703030481934547,0.8108680844306946,-0.002155764726921916,-0.5081326961517334
756.0,887.0,1.4674,1.0164,9.0425,-0.0435,-0.0481,-0.1266,-1.8240577183165492,-0.06039559096097946,2.6085901260375977,-1.7485891580581665,0.00014655703853350133,2.0057427883148193,4.916887181788244,-6.16051911492832e-05,0.20377150177955627,-1.6650274435626429,0.0021334723569452763,0.17383356392383575,0.7357705235481262,-0.0,-0.013018377125263214,0.81085604429245,-0.0025583694223314524,-0.530372679233551
756.0,887.0,1.4674,1.0164,9.0425,-0.0435,-0.0481,-0.1266,-1.8244735203185023,-0.05944811925292015,2.5899667739868164,-1.7485487461090088,0.00012617858010344207,2.0504660606384277,4.916922676354208,-5.840687663294375e-05,0.18679413199424744,-1.665023152028219,0.002619881182909012,0.17653152346611023,0.7356781959533691,-0.0,-0.00018645869567990303,0.8108199834823608,-0.0034577511250972748,-0.5198255777359009
756.0,887.0,1.4674,1.0164,9.0425,-0.0435,-0.0481,-0.1266,-1.8248945675291957,-0.05780499428510666,2.6481151580810547,-1.7486096620559692,3.114649371127598e-05,2.067574977874756,4.916914704232969,-5.621788659482263e-05,0.20413684844970703,-1.6650193373309534,0.003143992507830262,0.15044908225536346,0.7356942296028137,-0.0,0.001322357915341854,0.8107795715332031,-0.0030398392118513584,-0.5484330058097839
756.0,887.0,1.4674,1.0164,9.0425,-0.0435,-0.0481,-0.1266,-1.8251706562437953,-0.05902737379074097,2.6531920433044434,-1.7486374378204346,2.8216711143613793e-05,2.096001148223877,4.916895004897871,-5.4187032219488174e-05,0.1926831752061844,-1.6649587790118616,0.003707451978698373,0.18120881915092468,0.7357098460197449,-0.0,-0.009783772751688957,0.8107836842536926,-0.0025813898537307978,-0.514113187789917
756.0,887.0,1.4674,1.0164,9.0425,-0.0435,-0.0481,-0.1266,-1.8255955181517542,-0.0616622157394886,2.651437520980835,-1.7485405206680298,2.5790877771214582e-05,2.049936294555664,4.91687102892951,-5.2297793445177376e-05,0.19923719763755798,-1.6649435202227991,0.0042207310907542706,0.16748550534248352,0.7357064485549927,-0.0,-0.004464901052415371,0.8107796907424927,-0.00194769655354321,-0.5394811630249023
756.0,887.0,1.4674,1.0164,9.0425,-0.0435,-0.0481,-0.1266,-1.8259560070433558,-0.06568189710378647,2.601442575454712,-1.7485809326171875,2.37491858570138e-05,2.0743203163146973,4.916879060655393,-5.0535887567093596e-05,0.20326992869377136,-1.6649397055255335,0.005505720619112253,0.17621567845344543,0.7356982231140137,-0.0,-0.01716841384768486,0.810792088508606,-0.0015523547772318125,-0.5128960609436035
756.0,887.0,1.4674,1.0164,9.0425,-0.0435,-0.0481,-0.1266,-1.826460977593893,-0.06850115954875946,2.635131359100342,-1.7485857009887695,2.1481748262885958e-05,2.039809226989746,4.9169669328029535,-5.4138851623974915e-08,0.20272296667099,-1.6648719946490687,0.007385966368019581,0.17594513297080994,0.7356863617897034,-0.0,-0.010126967914402485,0.8106954097747803,-0.0016201288672164083,-0.5353483557701111
756.0,887.0,1.4674,1.0164,9.0425,-0.0435,-0.0481,-0.1266,-1.8268896541991175,-0.06622049957513809,2.5845413208007812,-1.748597264289856,5.933545980951749e-05,2.0764801502227783,4.916934671788969,-1.5069749267904164e-11,0.20343126356601715,-1.6648200193988245,0.008639822714030743,0.15413248538970947,0.7356982231140137,-0.0,-0.004462224896997213,0.8107479214668274,-0.0018169053364545107,-0.4938042163848877
756.0,887.0,1.4674,1.0164,9.0425,-0.0435,-0.0481,-0.1266,-1.8272739849486292,-0.06096389517188072,2.615722179412842,-1.7485445737838745,7.515927427448332e-05,2.088487148284912,4.916899087816038,-4.194719760073056e-15,0.1930040419101715,-1.6647236982928675,0.011894476599991322,0.166408970952034,0.7356904745101929,-0.0,-0.019502295181155205,0.8106792569160461,-0.0020587474573403597,-0.5976572036743164
830.0,889.0,1.1133,3.2495,9.2889,-0.0771,-0.0315,-0.1483,-1.827630182305807,-0.059029459953308105,2.6302225589752197,-1.7485734224319458,7.073242886690423e-05,2.0520825386047363,4.916926640063085,-1.167615479045658e-18,0.19954152405261993,-1.6646440664874476,0.01735028624534607,0.18466755747795105,0.7356461882591248,-0.0,-0.026397503912448883,0.8106874823570251,-0.0022484553046524525,-0.5929338932037354
830.0,889.0,1.1133,3.2495,9.2889,-0.0771,-0.0315,-0.1483,-1.828043600121969,-0.06041364371776581,2.6279616355895996,-1.7485250234603882,6.679567013634369e-05,2.0641298294067383,4.916950958758154,-3.2501008710588165e-22,0.19770269095897675,-1.6645482222186487,0.02531667798757553,0.16997066140174866,0.7357179522514343,-0.0,-0.006809155456721783,0.8106954097747803,-0.0019801997113972902,-0.5233705639839172
830.0,889.0,1.1133,3.2495,9.2889,-0.0771,-0.0315,-0.1483,-1.828299184838766,-0.06422160565853119,2.639153480529785,-1.7486178874969482,6.327345909085125e-05,2.0692179203033447,4.916922676354208,-9.046775806507929e-26,0.201573446393013,-1.6643403212176722,0.04339571297168732,0.18219223618507385,0.7356901168823242,-0.0,-0.01106564886868,0.8106390833854675,-0.0021070060320198536,-0.537665069103241
830.0,889.0,1.1133,3.2495,9.2889,-0.0771,-0.0315,-0.1483,-1.828792234460348,-0.06481076031923294,2.654052734375,-1.748589038848877,0.00012063372560078278,2.0440149307250977,4.916878986149587,-1.6442068305290515e-30,0.20949792861938477,-1.6637890974627894,0.09255717694759369,0.193890780210495,0.7356539964675903,-0.0,-0.017712032422423363,0.8106716275215149,-0.002538700820878148,-0.5362364053726196
830.0,889.0,1.1133,3.2495,9.2889,-0.0771,-0.0315,-0.1483,-1.829144140283102,-0.06021255999803543,2.637239933013916,-1.748561143875122,0.00018140790052711964,2.074657440185547,4.916930663376608,-4.576710113109804e-34,0.19281738996505737,-1.6630709807025355,0.14563694596290588,0.20939752459526062,0.7357221841812134,-0.0,-0.01768871396780014,0.8106114268302917,-0.0028467474039644003,-0.5766387581825256
830.0,889.0,1.1133,3.2495,9.2889,-0.0771,-0.0315,-0.1483,-1.829501291314596,-0.05589040368795395,2.6383962631225586,-1.7485289573669434,0.002365187741816044,2.0830817222595215,4.916950958758154,-1.2739438636280147e-37,0.19244644045829773,-1.6621139685260218,0.1722973883152008,0.24134789407253265,0.7356417775154114,-0.0,-0.004166091326624155,0.8106638193130493,-0.0022982736118137836,-0.5320774912834167
830.0,889.0,1.1133,3.2495,9.2889,-0.0771,-0.0315,-0.1483,-1.8297931156554164,-0.04980191960930824,2.653858184814453,-1.7485092878341675,0.003067772602662444,2.082218647003174,4.916958766966619,-3.546125893820382e-41,0.20173747837543488,-1.6609838644610804,0.17949344217777252,0.22354689240455627,0.7357065081596375,-0.0,-0.0127102667465806,0.8106353282928467,-0.0013368724612519145,-0.5403849482536316
830.0,889.0,1.1133,3.2495,9.2889,-0.0771,-0.0315,-0.1483,-1.830142160455221,-0.04899092763662338,2.6597962379455566,-1.7485297918319702,0.0026974075008183718,2.0675485134124756,4.9169587818677805,-9.80908925027372e-45,0.21268980205059052,-1.6597631613360804,0.23088893294334412,0.2382599115371704,0.7356863021850586,-0.0,-0.015741825103759766,0.8106316328048706,-0.0009331578039564192,-0.4934532046318054
830.0,889.0,1.1133,3.2495,9.2889,-0.0771,-0.0315,-0.1483,-1.8304506740965785,-0.04966670647263527,2.7025346755981445,-1.7484968900680542,0.0017985557205975056,2.0600178241729736,4.916942852526464,-0.0,0.21139872074127197,-1.6581953207599085,0.269437313079834,0.26888608932495117,0.7356821894645691,-0.0,-0.013354005292057991,0.8106558918952942,-0.0005079457187093794,-0.5156118869781494
830.0,889.0,1.1133,3.2495,9.2889,-0.0771,-0.0315,-0.1483,-1.8308192692198695,-0.04811754822731018,2.6598267555236816,-1.7484896183013916,0.0009565416839905083,2.0423583984375,4.916918742447653,-0.0,0.20044530928134918,-1.6558893362628382,0.3128093481063843,0.2849898636341095,0.7356539368629456,-0.0,-0.015583065338432789,0.8106435537338257,-0.0004194645443931222,-0.5146258473396301
830.0,889.0,1.1133,3.2495,9.2889,-0.0771,-0.0315,-0.1483,-1.8310347996153773,-0.04728225618600845,2.6492466926574707,-1.7485018968582153,0.0009135673171840608,2.0621604919433594,4.916946935444631,-0.0,0.1992039680480957,-1.6538742224322718,0.3382975459098816,0.2837258577346802,0.7356261014938354,-0.0,-0.009902603924274445,0.8106154203414917,-0.0004530625301413238,-0.570655107498169
830.0,889.0,1.1133,3.2495,9.2889,-0.0771,-0.0315,-0.1483,-1.8313600025572718,-0.0481276661157608,2.642364978790283,-1.7484408617019653,0.0015153306303545833,2.0311219692230225,4.916934656887808,-0.0,0.20817574858665466,-1.65155536333193,0.39725640416145325,0.30986452102661133,0.7356622815132141,-0.0,-0.01706938073039055,0.8106481432914734,-0.0005346806137822568,-0.5287072658538818
830.0,889.0,1.1133,3.2495,9.2889,-0.0771,-0.0315,-0.1483,-1.8315593204894007,-0.044330157339572906,2.6302199363708496,-1.7484616041183472,0.0036645943764597178,2.0520358085632324,4.916918489127912,-0.0,0.19791775941848755,-1.6491501967059534,0.4300082325935364,0.3256896734237671,0.7356057167053223,-0.0,-0.013375834561884403,0.8105992674827576,-0.0007868710090406239,-0.5007725358009338
830.0,889.0,1.1133,3.2495,9.2889,-0.0771,-0.0315,-0.1483,-1.8318358860411585,-0.0404016487300396,2.680847644805908,-1.748393177986145,0.005196717567741871,2.065631866455078,4.916970687895574,-0.0,0.19259291887283325,-1.6463778654681605,0.46719157695770264,0.33592405915260315,0.7356663346290588,-0.0,-0.00034090480767190456,0.8106517791748047,-0.0005228511872701347,-0.5454553365707397
888.0,905.0,1.6995,1.7318,9.6832,-0.7442,-0.0655,-0.153,-1.8321172199644984,-0.037194907665252686,2.657355308532715,-1.7483372688293457,0.007080047391355038,2.0716640949249268,4.916986959963598,-0.0,0.1902676373720169,-1.643325153981344,0.5115458369255066,0.33900830149650574,0.7356582283973694,-0.0,-0.0075685856863856316,0.8106476664543152,-0.0003876562404911965,-0.515496551990509
888.0,905.0,1.6995,1.7318,9.6832,-0.7442,-0.0655,-0.153,-1.8323890171446742,-0.033540450036525726,2.6582510471343994,-1.748349666595459,0.007815112359821796,2.012320041656494,4.916922527342596,-0.0,0.1965886354446411,-1.638909641896383,0.5778786540031433,0.3573873043060303,0.7356499433517456,-0.0,-0.004325873218476772,0.8106516003608704,-0.00028828930226154625,-0.48932725191116333
888.0,905.0,1.6995,1.7318,9.6832,-0.7442,-0.0655,-0.153,-1.832569261590475,-0.029991965740919113,2.6652164459228516,-1.7482895851135254,0.006440214812755585,2.102444648742676,4.9169306484754465,-0.0,0.199645534157753,-1.6351988951312464,0.6209030747413635,0.35910332202911377,0.7356904745101929,-0.0,-0.0198499895632267,0.8106357455253601,-0.00019368396897334605,-0.5164163708686829
888.0,905.0,1.6995,1.7318,9.6832,-0.7442,-0.0655,-0.153,-1.8327413998045863,-0.0263281911611557,2.692652463912964,-1.748261570930481,0.0059390198439359665,2.0570545196533203,4.91695852854804,1.2661142136494163e-05,0.19603395462036133,-1.6313436667071741,0.6629448533058167,0.34693247079849243,0.7356622219085693,-0.0,-0.013873540796339512,0.810655951499939,-0.0001665889867581427,-0.5367379784584045
888.0,905.0,1.6995,1.7318,9.6832,-0.7442,-0.0655,-0.153,-1.8328615627684535,-0.02397863380610943,2.7278504371643066,-1.7482138872146606,0.0053276177495718,2.043947219848633,4.9169625518615625,1.96144345210314e-08,0.20225554704666138,-1.6272833983050745,0.7000088691711426,0.3472665548324585,0.7356461882591248,-0.0,-0.011646393686532974,0.8106440305709839,-0.00014628014469053596,-0.504277765750885
888.0,905.0,1.6995,1.7318,9.6832,-0.7442,-0.0655,-0.153,-1.8329817257323207,-0.020550062879920006,2.762080192565918,-1.7481942176818848,0.0053228288888931274,2.051243782043457,4.916962536960401,5.459749839731298e-12,0.19168320298194885,-1.6229642073260706,0.7358294129371643,0.3233390152454376,0.7356539964675903,-0.0,-0.02446766197681427,0.810619592666626,-0.00013038559700362384,-0.4692518711090088
888.0,905.0,1.6995,1.7318,9.6832,-0.7442,-0.0655,-0.153,-1.833118577996725,-0.017274703830480576,2.7724509239196777,-1.7481341361999512,0.006284641567617655,2.0863869190216064,4.916946607619085,1.519741643524219e-15,0.20267093181610107,-1.6184709707843226,0.7647549510002136,0.3478688597679138,0.7356863021850586,-0.0,-0.011737274006009102,0.8106640577316284,-8.825300028547645e-05,-0.4849129617214203
888.0,905.0,1.6995,1.7318,9.6832,-0.7442,-0.0655,-0.153,-1.8332263431944789,-0.013081436976790428,2.7282087802886963,-1.7481423616409302,0.007544544525444508,2.0719656944274902,4.916966664582052,2.762055585482007e-20,0.2176576554775238,-1.612115208302633,0.8050889372825623,0.3157547116279602,0.7356622219085693,-0.0,-0.01901494711637497,0.8106679320335388,9.059817239176482e-05,-0.4691919684410095
888.0,905.0,1.6995,1.7318,9.6832,-0.7442,-0.0655,-0.153,-1.8332983456053675,-0.00972619280219078,2.8222899436950684,-1.748002529144287,0.008360303938388824,2.020573139190674,4.916922527342596,7.688282558494673e-24,0.2058992236852646,-1.6071623007403772,0.837149977684021,0.32266074419021606,0.7356782555580139,-0.0,-0.007034259382635355,0.8106393814086914,0.0001382049813400954,-0.4248015284538269
888.0,905.0,1.6995,1.7318,9.6832,-0.7442,-0.0655,-0.153,-1.8333221874632777,-0.007504832465201616,2.822599411010742,-1.7479984760284424,0.008792138658463955,2.0038681030273438,4.916950720339575,2.1400617689520085e-27,0.22268930077552795,-1.6019795576678675,0.8563243746757507,0.3001292645931244,0.7357344627380371,-0.0,-0.02189401164650917,0.8106597065925598,0.0008307240786962211,-0.3974575400352478
888.0,905.0,1.6995,1.7318,9.6832,-0.7442,-0.0655,-0.153,-1.8333660564818324,-0.005591821391135454,2.7863454818725586,-1.7479506731033325,0.00992630049586296,2.0220694541931152,4.916934761195936,5.956940814599908e-31,0.2097248136997223,-1.5968611876117151,0.8750209808349609,0.3233623802661896,0.7356782555580139,-0.0,-0.01781228370964527,0.8106756210327148,0.0014148508198559284,-0.3983822464942932
888.0,905.0,1.6995,1.7318,9.6832,-0.7442,-0.0655,-0.153,-1.8334065876402796,-0.00393499294295907,2.846449851989746,-1.7478914260864258,0.011022315360605717,2.046999931335449,4.916986959963598,1.6581366044412017e-34,0.21361884474754333,-1.5916641394244593,0.8809965252876282,0.28465500473976135,0.7357299327850342,-0.0,-0.015136050060391426,0.8107241988182068,0.0013416967121884227,-0.30925095081329346
888.0,905.0,1.6995,1.7318,9.6832,-0.7442,-0.0655,-0.153,-1.833398004571432,-0.0017623086459934711,2.8218722343444824,-1.7477755546569824,0.012379404157400131,2.0403077602386475,4.916958766966619,3.013582030632236e-39,0.23228350281715393,-1.5845845381366175,0.8854811787605286,0.2613515257835388,0.7356097102165222,-0.0,-0.012082671746611595,0.8106714487075806,0.0022939948830753565,-0.2495957911014557
888.0,905.0,1.6995,1.7318,9.6832,-0.7442,-0.0655,-0.153,-1.8333779774107875,-0.0009713919716887176,2.865166664123535,-1.7476750612258911,0.013455484993755817,2.018845558166504,4.916946607619085,8.393777801305654e-43,0.23526400327682495,-1.5792644659625452,0.889508843421936,0.2729191482067108,0.735674262046814,-0.0,-0.015335958451032639,0.810735821723938,0.0034275632351636887,-0.2597706913948059
888.0,905.0,1.6995,1.7318,9.6832,-0.7442,-0.0655,-0.153,-1.8333941898741664,-0.0006306525319814682,2.8639025688171387,-1.7475559711456299,0.0164079200476408,2.0097270011901855,4.916974815517225,0.0,0.22678455710411072,-1.5739896933185022,0.8796137571334839,0.24242308735847473,0.7357339859008789,-0.0,0.004803745541721582,0.8107678294181824,0.005686292424798012,-0.13182242214679718
900.0,881.0,1.4447,-1.5392,9.3093,-0.9061,0.0024,-0.0728,-1.8334022961058558,-0.0004669607151299715,2.8827009201049805,-1.7474761009216309,0.01943841017782688,1.9985873699188232,4.916998880892553,0.00011561091378098354,0.22625739872455597,-1.5686724821673792,0.8768361806869507,0.2472982406616211,0.7357218265533447,-0.0,-0.008323765359818935,0.8107795715332031,0.01093614473938942,-0.01769421249628067
900.0,881.0,1.4447,-1.5392,9.3093,-0.9061,0.0024,-0.0728,-1.8333660564818324,-0.00030896274256519973,2.918396472930908,-1.7472959756851196,0.023242924362421036,2.081313133239746,4.916938531189718,0.00010883895447477698,0.22473345696926117,-1.5635417143451136,0.8525933027267456,0.20858675241470337,0.735657811164856,-0.0,-0.016083329916000366,0.8108639121055603,0.012906888499855995,-0.01736932061612606
900.0,881.0,1.4447,-1.5392,9.3093,-0.9061,0.0024,-0.0728,-1.833398004571432,-0.00025618431391194463,2.8410181999206543,-1.7471685409545898,0.02646896243095398,2.0506889820098877,4.916986959963598,0.00012142083869548514,0.21810735762119293,-1.5584543387042444,0.8407846689224243,0.20881491899490356,0.7357418537139893,-0.0,0.001315263332799077,0.8109115362167358,0.013590128161013126,0.11048749089241028
900.0,881.0,1.4447,-1.5392,9.3093,-0.9061,0.0024,-0.0728,-1.8334223232665003,-0.0002086624881485477,2.8641347885131836,-1.7469290494918823,0.03284498676657677,2.0433950424194336,4.916998880892553,0.00010751985246315598,0.23032739758491516,-1.5518582502948206,0.8100493550300598,0.19243192672729492,0.7357499599456787,-0.0,-0.00117135897744447,0.8110721111297607,0.015570579096674919,0.13761483132839203
900.0,881.0,1.4447,-1.5392,9.3093,-0.9061,0.0024,-0.0728,-1.8333703480162562,-0.00021980774181429297,2.866811752319336,-1.7467331886291504,0.03539356216788292,2.0254595279693604,4.916922601848402,0.0001051684666890651,0.22193393111228943,-1.5470832029925745,0.7840903997421265,0.16019251942634583,0.7357177138328552,-0.0,-0.0031067151576280594,0.8111563324928284,0.015743840485811234,0.1698257327079773
900.0,881.0,1.4447,-1.5392,9.3093,-0.9061,0.0024,-0.0728,-1.8334223232665003,-0.00019589185831137002,2.8631606101989746,-1.7465269565582275,0.039862945675849915,2.0699849128723145,4.916990998178282,8.281281043309718e-05,0.21762283146381378,-1.542577091847555,0.7495984435081482,0.18134912848472595,0.7357618808746338,-0.0,-0.009489214979112148,0.8112601637840271,0.017019150778651237,0.2368582785129547
900.0,881.0,1.4447,-1.5392,9.3093,-0.9061,0.0024,-0.0728,-1.8334342441954554,-0.0002060606493614614,2.8661818504333496,-1.7462430000305176,0.04501602426171303,2.062941312789917,4.916954743653097,6.483111064881086e-05,0.20778553187847137,-1.5381138960467737,0.7221335768699646,0.1562095582485199,0.7357299327850342,-0.0,-0.00643317773938179,0.8113645315170288,0.019773060455918312,0.2725984454154968
