ramyac6/ROB537/final_project/csv/all/bad_52.csv
tof_0,tof_1,accelx,accely,accelz,gyrox,gyroy,gyroz,shoulder_lift_joint_position,shoulder_lift_joint_velocity,shoulder_lift_joint_effort,elbow_joint_position,elbow_joint_velocity,elbow_joint_effort,wrist_1_joint_position,wrist_1_joint_velocity,wrist_1_joint_effort,wrist_2_joint_position,wrist_2_joint_velocity,wrist_2_joint_effort,wrist_3_joint_position,wrist_3_joint_velocity,wrist_3_joint_effort,shoulder_pan_joint_position,shoulder_pan_joint_velocity,shoulder_pan_joint_effort
234.0,212.0,-0.2686,0.4708,9.6957,-0.033,0.0214,-0.1148,-1.879101415673727,0.0,3.378291130065918,-1.7033809423446655,-0.0,2.012220859527588,5.06923188546256,0.0,0.27562329173088074,-1.5456703344928187,-0.0,-0.020875582471489906,0.12744402885437012,0.0,0.00404329365119338,0.9644818305969238,0.0,0.017419101670384407
234.0,212.0,-0.2686,0.4708,9.6957,-0.033,0.0214,-0.1148,-1.87902893642568,0.0,3.30574369430542,-1.7033809423446655,-0.0,1.9947561025619507,5.0693035302455804,0.0,0.2772582769393921,-1.545638386403219,-0.0,-0.0008101295679807663,0.12746043503284454,0.0,0.014008568599820137,0.9644777774810791,0.0,0.022231031209230423
234.0,212.0,-0.2686,0.4708,9.6957,-0.033,0.0214,-0.1148,-1.8790446720519007,0.0,3.299185276031494,-1.703389286994934,-0.0,2.028301239013672,5.06923188546256,0.0,0.28044551610946655,-1.5456708113299769,-0.0,-0.01779910922050476,0.1274685263633728,0.0,0.0009661819785833359,0.9645342230796814,0.0,-0.019543517380952835
234.0,212.0,-0.2686,0.4708,9.6957,-0.033,0.0214,-0.1148,-1.879057069818014,0.0,3.3154187202453613,-1.7033567428588867,-0.0,2.037165641784668,5.0692714033420465,0.0,0.2716110348701477,-1.5456627050982874,-0.0,-0.019412685185670853,0.12740421295166016,0.0,-0.0023621972650289536,0.9645178914070129,0.0,-0.037182632833719254
234.0,212.0,-0.2686,0.4708,9.6957,-0.033,0.0214,-0.1148,-1.8790208301939906,0.0,3.2984979152679443,-1.7033852338790894,-0.0,1.981207251548767,5.069187778025427,0.0,0.27887865900993347,-1.5456503073321741,-0.0,-0.01855354756116867,0.12744036316871643,0.0,-0.0018712803721427917,0.9645097255706787,0.0,0.01884828507900238
234.0,212.0,-0.2686,0.4708,9.6957,-0.033,0.0214,-0.1148,-1.8790489635863246,0.0,3.3376293182373047,-1.703381061553955,-0.0,1.9994332790374756,5.069243925600805,0.0,0.2808900475502014,-1.5456903616534632,-0.0,-0.0243588387966156,0.12746451795101166,0.0,-0.008508375845849514,0.9644253849983215,0.0,-0.002812781371176243
234.0,212.0,-0.2686,0.4708,9.6957,-0.033,0.0214,-0.1148,-1.879040857354635,0.0,3.2902650833129883,-1.7033809423446655,-0.0,1.9582037925720215,5.06923188546256,0.0,0.26854363083839417,-1.5456503073321741,-0.0,-0.018748242408037186,0.1274198293685913,0.0,-0.004855989012867212,0.9644937515258789,0.0,-0.019393831491470337
234.0,212.0,-0.2686,0.4708,9.6957,-0.033,0.0214,-0.1148,-1.8790484867491664,0.0,3.3044304847717285,-1.7033686637878418,-0.0,2.0207254886627197,5.069219815521993,0.0,0.2580658495426178,-1.5456903616534632,-0.0,-0.028320124372839928,0.12744396924972534,0.0,-0.005025981459766626,0.9645342826843262,0.0,-0.001609991304576397
234.0,212.0,-0.2686,0.4708,9.6957,-0.033,0.0214,-0.1148,-1.8790527782835902,0.0,3.31093168258667,-1.703389286994934,-0.0,2.000041961669922,5.069239842682638,0.0,0.2716893255710602,-1.545694653187887,-0.0,-0.006429455243051052,0.12745994329452515,0.0,-0.005405619274824858,0.9644617438316345,0.0,0.009494173340499401
234.0,212.0,-0.2686,0.4708,9.6957,-0.033,0.0214,-0.1148,-1.8790608845152796,0.0,3.294084310531616,-1.7033851146697998,-0.0,1.994868516921997,5.069207656174459,0.0,0.2750912308692932,-1.5456746260272425,-0.0,-0.008346572518348694,0.12740382552146912,0.0,-0.003959399648010731,0.9644978642463684,0.0,-0.0035133385099470615
236.0,214.0,-0.2201,0.4433,9.5755,-0.0397,0.0247,-0.1188,-1.8790775738158167,0.0,3.293510913848877,-1.7033567428588867,-0.0,1.9197641611099243,5.069259571820059,0.0,0.2890075147151947,-1.5456903616534632,-0.0,-0.013370581902563572,0.12743616104125977,0.0,5.379668436944485e-06,0.9645097851753235,0.0,0.003786366432905197
236.0,214.0,-0.2201,0.4433,9.5755,-0.0397,0.0247,-0.1188,-1.8790246448912562,0.0,3.3087692260742188,-1.703389286994934,-0.0,2.0092155933380127,5.069243925600805,0.0,0.2846110463142395,-1.5456340948687952,-0.0,-0.01877937838435173,0.12737633287906647,0.0,-0.0017699277959764004,0.9644737243652344,0.0,0.011651436798274517
236.0,214.0,-0.2201,0.4433,9.5755,-0.0397,0.0247,-0.1188,-1.8790489635863246,0.0,3.286639928817749,-1.7033209800720215,-0.0,1.9828283786773682,5.069207656174459,0.0,0.2712029814720154,-1.545694653187887,-0.0,-0.017119545489549637,0.12746815383434296,0.0,-0.003592830151319504,0.9644535183906555,0.0,-0.008299022912979126
236.0,214.0,-0.2201,0.4433,9.5755,-0.0397,0.0247,-0.1188,-1.8790527782835902,0.0,3.3654632568359375,-1.7033448219299316,-0.0,2.0173733234405518,5.069199698954382,0.0,0.2649652361869812,-1.5456221739398401,-0.0,-0.019027264788746834,0.12746815383434296,0.0,0.013571050949394703,0.9644978046417236,0.0,-0.007388410158455372
236.0,214.0,-0.2201,0.4433,9.5755,-0.0397,0.0247,-0.1188,-1.879045148889059,0.0,3.330695152282715,-1.7033485174179077,-0.0,1.9916110038757324,5.06925197222785,0.0,0.2658817172050476,-1.545638386403219,-0.0,-0.01609385386109352,0.12743616104125977,0.0,0.004482100252062082,0.9644535779953003,0.0,0.004372516646981239
236.0,214.0,-0.2201,0.4433,9.5755,-0.0397,0.0247,-0.1188,-1.8790089092650355,0.0,3.2811226844787598,-1.7033488750457764,-0.0,2.0336828231811523,5.069259571820059,0.0,0.28032371401786804,-1.5456503073321741,-0.0,-0.009745510295033455,0.12745633721351624,0.0,0.002859480446204543,0.9644818305969238,0.0,0.03359765559434891
236.0,214.0,-0.2201,0.4433,9.5755,-0.0397,0.0247,-0.1188,-1.879040857354635,0.0,3.3138020038604736,-1.7033448219299316,-0.0,1.9697456359863281,5.069243925600805,0.0,0.2754981517791748,-1.545638386403219,-0.0,-0.0007447060197591782,0.1274280846118927,0.0,0.0059756990522146225,0.9645097851753235,0.0,-0.01167980395257473
236.0,214.0,-0.2201,0.4433,9.5755,-0.0397,0.0247,-0.1188,-1.8791095219054164,0.0,3.2976717948913574,-1.7033525705337524,-0.0,2.023087978363037,5.069207656174459,0.0,0.27440354228019714,-1.5456746260272425,-0.0,-0.011523783206939697,0.12743616104125977,0.0,0.013074155896902084,0.9645097255706787,0.0,-0.024767909198999405
236.0,214.0,-0.2201,0.4433,9.5755,-0.0397,0.0247,-0.1188,-1.8790813885130824,0.0,3.306314706802368,-1.703381061553955,-0.0,2.031280517578125,5.069231706648626,0.0,0.2825421094894409,-1.5456584135638636,-0.0,0.002335156314074993,0.12746410071849823,0.0,0.007870160974562168,0.9644736647605896,0.0,-0.03071550652384758
236.0,214.0,-0.2201,0.4433,9.5755,-0.0397,0.0247,-0.1188,-1.8790208301939906,0.0,3.334620237350464,-1.7034015655517578,-0.0,2.0193583965301514,5.0692553398902795,0.0,0.27798935770988464,-1.5456541220294397,-0.0,-0.017337679862976074,0.12743207812309265,0.0,0.0014272838598117232,0.9644978046417236,0.0,0.021466299891471863
236.0,214.0,-0.2201,0.4433,9.5755,-0.0397,0.0247,-0.1188,-1.8790894947447718,0.0,3.289372444152832,-1.7033288478851318,-0.0,1.9656569957733154,5.069255459099569,0.0,0.27898386120796204,-1.545694653187887,-0.0,-0.010986777022480965,0.12743616104125977,0.0,0.011064654216170311,0.9644937515258789,0.0,0.013625739142298698
236.0,214.0,-0.2201,0.4433,9.5755,-0.0397,0.0247,-0.1188,-1.879097124139303,0.0,3.264005661010742,-1.7033768892288208,-0.0,2.011120557785034,5.069263446121969,0.0,0.2751697897911072,-1.5456746260272425,-0.0,-0.011191630735993385,0.1274280846118927,0.0,-0.01366459857672453,0.964505672454834,0.0,-0.010892653837800026
236.0,214.0,-0.2201,0.4433,9.5755,-0.0397,0.0247,-0.1188,-1.8790365658202113,0.0,3.2949323654174805,-1.7034131288528442,-0.0,1.988115668296814,5.069191711931982,0.0,0.2652007043361664,-1.5456903616534632,-0.0,-0.026917263865470886,0.127436101436615,0.0,0.004185524769127369,0.9644896388053894,0.0,0.042118459939956665
236.0,214.0,-0.2201,0.4433,9.5755,-0.0397,0.0247,-0.1188,-1.8790365658202113,0.0,3.310887336730957,-1.7033648490905762,-0.0,2.0062456130981445,5.069247501879492,0.0,0.26553183794021606,-1.545666519795553,-0.0,-0.015728410333395004,0.12743207812309265,0.0,-0.003419356420636177,0.9644699096679688,0.0,0.012433582916855812
236.0,214.0,-0.2201,0.4433,9.5755,-0.0397,0.0247,-0.1188,-1.8790608845152796,0.0,3.331486225128174,-1.7033168077468872,-0.0,2.03507661819458,5.069207656174459,0.0,0.2682710289955139,-1.5456746260272425,-0.0,-0.013596954755485058,0.12746044993400574,0.0,-0.0024621030315756798,0.9644535779953003,0.0,0.009629786014556885
236.0,214.0,-0.2201,0.4433,9.5755,-0.0397,0.0247,-0.1188,-1.879073282281393,0.0,3.311356544494629,-1.7033448219299316,-0.0,1.9678623676300049,5.069215643196859,0.0,0.289533793926239,-1.5456584135638636,-0.0,-0.01662653498351574,0.12748047709465027,0.0,-0.0036773092579096556,0.9645138382911682,0.0,0.015010214410722256
236.0,214.0,-0.2201,0.4433,9.5755,-0.0397,0.0247,-0.1188,-1.8790527782835902,0.0,3.2813057899475098,-1.7033965587615967,-0.0,1.9931538105010986,5.06923188546256,0.0,0.28003814816474915,-1.5456865469561976,-0.0,-0.0163726843893528,0.12745214998722076,0.0,0.0048071458004415035,0.9644694924354553,0.0,0.005471324548125267
236.0,214.0,-0.2201,0.4433,9.5755,-0.0397,0.0247,-0.1188,-1.879073282281393,0.0,3.286303997039795,-1.7033571004867554,-0.0,1.9621927738189697,5.069259571820059,0.0,0.26518040895462036,-1.5456503073321741,-0.0,-0.004525716416537762,0.12745633721351624,0.0,-0.003597621340304613,0.9644777178764343,0.0,0.02293568104505539
227.0,209.0,-0.1669,0.4403,9.5845,-0.0359,0.0234,-0.1239,-1.8790651760497035,0.0,3.318741798400879,-1.703352928161621,-0.0,2.0197954177856445,5.069251525193014,0.0,0.2741354703903198,-1.5456903616534632,-0.0,-0.017789511010050774,0.12747642397880554,0.0,0.006539934314787388,0.9645138382911682,0.0,0.01679161936044693
227.0,209.0,-0.1669,0.4403,9.5845,-0.0359,0.0234,-0.1239,-1.879057069818014,0.0,3.3201255798339844,-1.703324794769287,-0.0,2.0145273208618164,5.069239842682638,0.0,0.27610090374946594,-1.5457270781146448,-0.0,-0.0047693196684122086,0.12745635211467743,0.0,-0.008052276447415352,0.9644859433174133,0.0,-0.0029868176206946373
227.0,209.0,-0.1669,0.4403,9.5845,-0.0359,0.0234,-0.1239,-1.879057069818014,0.0,3.3388352394104004,-1.703389286994934,-0.0,2.031144618988037,5.069243925600805,0.0,0.2593082785606384,-1.545654598866598,-0.0,0.004019449930638075,0.1274198740720749,0.0,0.014734936878085136,0.9644937515258789,0.0,-0.01152651384472847
227.0,209.0,-0.1669,0.4403,9.5845,-0.0359,0.0234,-0.1239,-1.879040857354635,0.0,3.3128843307495117,-1.7033488750457764,-0.0,1.9677810668945312,5.069251525193014,0.0,0.2784061133861542,-1.545666519795553,-0.0,-0.010720317251980305,0.1274120807647705,0.0,-0.009428662247955799,0.9645097255706787,0.0,0.028039919212460518
227.0,209.0,-0.1669,0.4403,9.5845,-0.0359,0.0234,-0.1239,-1.879057069818014,0.0,3.3169097900390625,-1.7034374475479126,-0.0,1.9994714260101318,5.069259571820059,0.0,0.2811092436313629,-1.5456340948687952,-0.0,-0.02702905237674713,0.12743207812309265,0.0,-0.00424102321267128,0.9644777774810791,0.0,-0.022062234580516815
227.0,209.0,-0.1669,0.4403,9.5845,-0.0359,0.0234,-0.1239,-1.8790284595885218,0.0,3.254122734069824,-1.7033365964889526,-0.0,1.9711676836013794,5.069283413677969,0.0,0.2926778197288513,-1.5456865469561976,-0.0,-0.012369660660624504,0.12745632231235504,0.0,-0.006841603666543961,0.964465856552124,0.0,0.03753552958369255
227.0,209.0,-0.1669,0.4403,9.5845,-0.0359,0.0234,-0.1239,-1.8790208301939906,0.0,3.342564821243286,-1.703324794769287,-0.0,2.0282297134399414,5.069275486260214,0.0,0.278243750333786,-1.5456584135638636,-0.0,-0.01862393319606781,0.12742382287979126,0.0,-0.0033476250246167183,0.9644896984100342,0.0,-0.010621709749102592
227.0,209.0,-0.1669,0.4403,9.5845,-0.0359,0.0234,-0.1239,-1.8790694675841273,0.0,3.330345869064331,-1.703381061553955,-0.0,1.995582103729248,5.069259571820059,0.0,0.27957960963249207,-1.5456865469561976,-0.0,-0.003965726122260094,0.12743620574474335,0.0,-0.007295507937669754,0.9645301699638367,0.0,-0.01850067265331745
227.0,209.0,-0.1669,0.4403,9.5845,-0.0359,0.0234,-0.1239,-1.8790694675841273,0.0,3.330634117126465,-1.703381061553955,-0.0,1.9645042419433594,5.069267469435491,0.0,0.2844093441963196,-1.5456822554217737,-0.0,-0.017891936004161835,0.1274198442697525,0.0,0.01361590065062046,0.9644536375999451,0.0,-0.0002825101837515831
227.0,209.0,-0.1669,0.4403,9.5845,-0.0359,0.0234,-0.1239,-1.8790694675841273,0.0,3.293384075164795,-1.703381061553955,-0.0,1.9996025562286377,5.069219636708059,0.0,0.2801060080528259,-1.5456541220294397,-0.0,-0.0019086063839495182,0.12745216488838196,0.0,-0.008200926706194878,0.9644855260848999,0.0,0.0036526184994727373
227.0,209.0,-0.1669,0.4403,9.5845,-0.0359,0.0234,-0.1239,-1.879040857354635,0.0,3.2559618949890137,-1.7033164501190186,-0.0,1.9802887439727783,5.069227683335104,0.0,0.27912598848342896,-1.5456660429583948,-0.0,-0.0015368207823485136,0.1274280846118927,0.0,0.0059004491195082664,0.9644576907157898,0.0,-0.03120417892932892
227.0,209.0,-0.1669,0.4403,9.5845,-0.0359,0.0234,-0.1239,-1.879073282281393,0.0,3.29782772064209,-1.7033525705337524,-0.0,1.99778151512146,5.069251525193014,0.0,0.26925626397132874,-1.5456584135638636,-0.0,-0.007039487827569246,0.12745216488838196,0.0,-0.011127393692731857,0.9644535183906555,0.0,-0.019411856308579445
227.0,209.0,-0.1669,0.4403,9.5845,-0.0359,0.0234,-0.1239,-1.8790365658202113,0.0,3.314375400543213,-1.7033169269561768,-0.0,1.972354769706726,5.069259571820059,0.0,0.2816188335418701,-1.5456584135638636,-0.0,-0.009822404943406582,0.1274157613515854,0.0,0.0004987441352568567,0.9644900560379028,0.0,-0.04479124769568443
227.0,209.0,-0.1669,0.4403,9.5845,-0.0359,0.0234,-0.1239,-1.879040857354635,0.0,3.2561419010162354,-1.7034049034118652,-0.0,1.9956637620925903,5.069271462946691,0.0,0.2848978042602539,-1.5456622282611292,-0.0,-0.00489034503698349,0.12745177745819092,0.0,0.00818511750549078,0.9645138382911682,0.0,0.0023826686665415764
227.0,209.0,-0.1669,0.4403,9.5845,-0.0359,0.0234,-0.1239,-1.8790284595885218,0.0,3.300027847290039,-1.703324794769287,-0.0,1.990088939666748,5.069215732603826,0.0,0.2714117169380188,-1.5456422011004847,-0.0,-0.015612330287694931,0.1274886280298233,0.0,0.006898045539855957,0.9644616842269897,0.0,0.032285451889038086
227.0,209.0,-0.1669,0.4403,9.5845,-0.0359,0.0234,-0.1239,-1.8790484867491664,0.0,3.3271753787994385,-1.7033485174179077,-0.0,1.9948004484176636,5.069223600416937,0.0,0.2722627520561218,-1.545678440724508,-0.0,-0.012415487319231033,0.12739568948745728,0.0,0.009178942069411278,0.9644937515258789,0.0,-0.017674803733825684
227.0,209.0,-0.1669,0.4403,9.5845,-0.0359,0.0234,-0.1239,-1.879073282281393,0.0,3.344902992248535,-1.7033933401107788,-0.0,2.0139966011047363,5.069227683335104,0.0,0.2681676149368286,-1.5457070509540003,-0.0,-0.021568171679973602,0.12741976976394653,0.0,-0.006016037426888943,0.9644900560379028,0.0,-0.01889156550168991
227.0,209.0,-0.1669,0.4403,9.5845,-0.0359,0.0234,-0.1239,-1.879057069818014,0.0,3.327646255493164,-1.703352928161621,-0.0,2.0085368156433105,5.069227862149038,0.0,0.2765316367149353,-1.5456822554217737,-0.0,-0.008155238814651966,0.1274804323911667,0.0,-0.008458267897367477,0.9644576907157898,0.0,0.006784746423363686
227.0,209.0,-0.1669,0.4403,9.5845,-0.0359,0.0234,-0.1239,-1.8790246448912562,0.0,3.2823872566223145,-1.7033933401107788,-0.0,1.9840883016586304,5.069247501879492,0.0,0.28162330389022827,-1.5456183592425745,-0.0,-0.01646522805094719,0.1274082213640213,0.0,0.0033298577181994915,0.9644618034362793,0.0,-0.05600840598344803
235.0,219.0,-0.2602,0.4546,9.5994,-0.0353,0.022,-0.1526,-1.879073282281393,0.0,3.3024444580078125,-1.7033365964889526,-0.0,2.0194575786590576,5.069295632630148,0.0,0.26683342456817627,-1.5456584135638636,-0.0,-0.02305125817656517,0.12746816873550415,0.0,-0.004580101929605007,0.9645383358001709,0.0,-0.03201538324356079
235.0,219.0,-0.2602,0.4546,9.5994,-0.0353,0.022,-0.1526,-1.879057069818014,0.0,3.3413968086242676,-1.7033365964889526,-0.0,2.032998561859131,5.069211560278692,0.0,0.27665644884109497,-1.5456059614764612,-0.0,-0.009125957265496254,0.1274518221616745,0.0,0.003533864626660943,0.9644818305969238,0.0,0.04156487435102463
235.0,219.0,-0.2602,0.4546,9.5994,-0.0353,0.022,-0.1526,-1.8790694675841273,0.0,3.261258125305176,-1.7033448219299316,-0.0,1.9687376022338867,5.069223600416937,0.0,0.2704533040523529,-1.5456746260272425,-0.0,-0.017032016068696976,0.12743209302425385,0.0,0.0013201916590332985,0.9644777774810791,0.0,-0.04950709640979767
235.0,219.0,-0.2602,0.4546,9.5994,-0.0353,0.022,-0.1526,-1.8790365658202113,0.0,3.2894740104675293,-1.7033284902572632,-0.0,2.011418581008911,5.06923188546256,0.0,0.2714782953262329,-1.5456703344928187,-0.0,-0.009648308157920837,0.12744809687137604,0.0,-0.002269140211865306,0.9645019173622131,0.0,-0.014388740062713623
235.0,219.0,-0.2602,0.4546,9.5994,-0.0353,0.022,-0.1526,-1.8789965114989222,0.0,3.328115463256836,-1.7033525705337524,-0.0,1.9967358112335205,5.069259571820059,0.0,0.2683911621570587,-1.5456503073321741,-0.0,-0.018375907093286514,0.12739197909832,0.0,0.0022544781677424908,0.9644978642463684,0.0,-0.0029622686561197042
235.0,219.0,-0.2602,0.4546,9.5994,-0.0353,0.022,-0.1526,-1.8790489635863246,0.0,3.321453094482422,-1.7033648490905762,-0.0,2.0143051147460938,5.069243448763647,0.0,0.2749152183532715,-1.545626465474264,-0.0,-0.01194448210299015,0.127415731549263,0.0,-0.0016384300542995334,0.9645060300827026,0.0,0.013213181868195534
235.0,219.0,-0.2602,0.4546,9.5994,-0.0353,0.022,-0.1526,-1.8790208301939906,0.0,3.2876949310302734,-1.703364610671997,-0.0,2.0231637954711914,5.069223600416937,0.0,0.27327030897140503,-1.5456660429583948,-0.0,-0.012032038532197475,0.12745220959186554,0.0,0.001150705968029797,0.9644978642463684,0.0,0.03413986787199974
235.0,219.0,-0.2602,0.4546,9.5994,-0.0353,0.022,-0.1526,-1.8790365658202113,0.0,3.298612117767334,-1.7033365964889526,-0.0,1.9973596334457397,5.069259571820059,0.0,0.2814718782901764,-1.5456183592425745,-0.0,-0.014354145154356956,0.127455934882164,0.0,0.00019561359658837318,0.9644454121589661,0.0,-0.014734366908669472
235.0,219.0,-0.2602,0.4546,9.5994,-0.0353,0.022,-0.1526,-1.8790694675841273,0.0,3.3230504989624023,-1.7033686637878418,-0.0,2.013197183609009,5.069275486260214,0.0,0.2793836295604706,-1.5456660429583948,-0.0,-0.013208650052547455,0.12745626270771027,0.0,-0.0011056946823373437,0.9645260572433472,0.0,-0.020369499921798706
235.0,219.0,-0.2602,0.4546,9.5994,-0.0353,0.022,-0.1526,-1.8790284595885218,0.0,3.3343658447265625,-1.7034332752227783,-0.0,1.9794752597808838,5.069231706648626,0.0,0.26442015171051025,-1.5456145445453089,-0.0,-0.005523090250790119,0.12746410071849823,0.0,-0.00723954988643527,0.9644616842269897,0.0,0.006996046751737595
235.0,219.0,-0.2602,0.4546,9.5994,-0.0353,0.022,-0.1526,-1.8790775738158167,0.0,3.3488452434539795,-1.703372836112976,-0.0,2.0283777713775635,5.069219636708059,0.0,0.286810040473938,-1.5456340948687952,-0.0,-0.017626283690333366,0.12744808197021484,0.0,-0.010619438253343105,0.9644937515258789,0.0,-0.03587322682142258
235.0,219.0,-0.2602,0.4546,9.5994,-0.0353,0.022,-0.1526,-1.8790327511229457,0.0,3.3256640434265137,-1.703400731086731,-0.0,1.9874505996704102,5.069259601622381,0.0,0.28945493698120117,-1.5456703344928187,-0.0,-0.012033114209771156,0.1274644285440445,0.0,-0.017907746136188507,0.9645301699638367,0.0,-0.025295130908489227
235.0,219.0,-0.2602,0.4546,9.5994,-0.0353,0.022,-0.1526,-1.879045148889059,0.0,3.294099807739258,-1.7033933401107788,-0.0,2.039475917816162,5.069187778025427,0.0,0.2797049880027771,-1.545694653187887,-0.0,-0.01227080449461937,0.12745219469070435,0.0,-0.004950508009642363,0.9644818305969238,0.0,0.019387058913707733
235.0,219.0,-0.2602,0.4546,9.5994,-0.0353,0.022,-0.1526,-1.8790527782835902,0.0,3.3252272605895996,-1.703344464302063,-0.0,1.9592970609664917,5.069239842682638,0.0,0.2763957977294922,-1.5456584135638636,-0.0,-0.006796387955546379,0.12747633457183838,0.0,-0.0091976597905159,0.9644855260848999,0.0,0.020848479121923447
235.0,219.0,-0.2602,0.4546,9.5994,-0.0353,0.022,-0.1526,-1.8790608845152796,0.0,3.2961409091949463,-1.7033370733261108,-0.0,1.9720067977905273,5.069223570614614,0.0,0.2716991901397705,-1.5456584135638636,-0.0,-0.005416356027126312,0.12743616104125977,0.0,-0.0003949245437979698,0.9645178914070129,0.0,-0.018201177939772606
235.0,219.0,-0.2602,0.4546,9.5994,-0.0353,0.022,-0.1526,-1.879057069818014,0.0,3.287656784057617,-1.7033973932266235,-0.0,1.9717247486114502,5.069255459099569,0.0,0.2808783948421478,-1.5456021467791956,-0.0,-0.01616973802447319,0.12745629251003265,0.0,-0.00965341366827488,0.9644618034362793,0.0,0.04925281181931496
235.0,219.0,-0.2602,0.4546,9.5994,-0.0353,0.022,-0.1526,-1.8790894947447718,0.0,3.2735655307769775,-1.703332543373108,-0.0,1.996617078781128,5.069243955403127,0.0,0.2962619364261627,-1.5456660429583948,-0.0,-0.007943913340568542,0.12741579115390778,0.0,-0.008204977959394455,0.9644694924354553,0.0,-0.012169460766017437
235.0,219.0,-0.2602,0.4546,9.5994,-0.0353,0.022,-0.1526,-1.8790775738158167,0.0,3.31522798538208,-1.7033329010009766,-0.0,1.980642557144165,5.069283354073324,0.0,0.27866753935813904,-1.5456822554217737,-0.0,-0.025320833548903465,0.1274198591709137,0.0,-0.006126439198851585,0.9644896984100342,0.0,-0.09582454711198807
226.0,213.0,-0.2249,0.4409,9.6072,-0.0362,0.0235,-0.1168,-1.879073282281393,0.0,3.3640193939208984,-1.703372836112976,-0.0,1.958408236503601,5.069243448763647,0.0,0.2731367349624634,-1.5456627050982874,-0.0,-0.02269112318754196,0.12746000289916992,0.0,0.001412291661836207,0.9644937515258789,0.0,-0.04023632034659386
226.0,213.0,-0.2249,0.4409,9.6072,-0.0362,0.0235,-0.1168,-1.879040857354635,0.0,3.3456878662109375,-1.7033284902572632,-0.0,2.036160469055176,5.0692873177822015,0.0,0.273559033870697,-1.5456541220294397,-0.0,-0.017507867887616158,0.12743209302425385,0.0,0.009127199649810791,0.9644736647605896,0.0,0.04941939935088158
226.0,213.0,-0.2249,0.4409,9.6072,-0.0362,0.0235,-0.1168,-1.879057069818014,0.0,3.3511180877685547,-1.7033809423446655,-0.0,2.026337146759033,5.069267469435491,0.0,0.2807855010032654,-1.5456422011004847,-0.0,-0.006067109294235706,0.1274443417787552,0.0,-0.0010284242453053594,0.9645015001296997,0.0,-0.03704865649342537
226.0,213.0,-0.2249,0.4409,9.6072,-0.0362,0.0235,-0.1168,-1.8790489635863246,0.0,3.2691569328308105,-1.703316569328308,-0.0,2.0258750915527344,5.069215643196859,0.0,0.2771996855735779,-1.545638386403219,-0.0,-0.015959482640028,0.12744437158107758,0.0,0.002663146238774061,0.9644818305969238,0.0,-0.030024949461221695
226.0,213.0,-0.2249,0.4409,9.6072,-0.0362,0.0235,-0.1168,-1.879057069818014,0.0,3.293041229248047,-1.7033690214157104,-0.0,1.9604802131652832,5.069235908776083,0.0,0.2707359194755554,-1.5456584135638636,-0.0,-0.009140594862401485,0.12741583585739136,0.0,-0.0060613094829022884,0.9644576907157898,0.0,0.011368783190846443
226.0,213.0,-0.2249,0.4409,9.6072,-0.0362,0.0235,-0.1168,-1.8790527782835902,0.0,3.291576862335205,-1.7033607959747314,-0.0,1.9877816438674927,5.069259542017736,0.0,0.26109543442726135,-1.5456584135638636,-0.0,-0.013903763145208359,0.1274038851261139,0.0,0.0006274709012359381,0.9645138382911682,0.0,-0.006605247035622597
226.0,213.0,-0.2249,0.4409,9.6072,-0.0362,0.0235,-0.1168,-1.8790527782835902,0.0,3.30465030670166,-1.7033607959747314,-0.0,1.9754979610443115,5.069267588644781,0.0,0.2786247134208679,-1.545710865651266,-0.0,-0.010210100561380386,0.12741988897323608,0.0,-0.0050110905431210995,0.9645138382911682,0.0,0.014170411974191666
226.0,213.0,-0.2249,0.4409,9.6072,-0.0362,0.0235,-0.1168,-1.8790127239623011,0.0,3.3098833560943604,-1.7033648490905762,-0.0,1.966949701309204,5.069243478565969,0.0,0.2802688181400299,-1.5456822554217737,-0.0,-0.019511783495545387,0.12737227976322174,0.0,-0.0042894259095191956,0.9645301699638367,0.0,-0.032128725200891495
226.0,213.0,-0.2249,0.4409,9.6072,-0.0362,0.0235,-0.1168,-1.8790446720519007,0.0,3.31050443649292,-1.7034088373184204,-0.0,1.9857778549194336,5.069295453816213,0.0,0.26903918385505676,-1.5456746260272425,-0.0,-0.004429264925420284,0.12744033336639404,0.0,-0.0017591214273124933,0.9644736647605896,0.0,-0.0288860946893692
226.0,213.0,-0.2249,0.4409,9.6072,-0.0362,0.0235,-0.1168,-1.8790446720519007,0.0,3.338805675506592,-1.7033973932266235,-0.0,2.0188398361206055,5.069267469435491,0.0,0.2804194688796997,-1.5456584135638636,-0.0,-0.028971383348107338,0.12743614614009857,0.0,-0.012313696555793285,0.9644699096679688,0.0,0.017677510157227516
226.0,213.0,-0.2249,0.4409,9.6072,-0.0362,0.0235,-0.1168,-1.8790694675841273,0.0,3.318704605102539,-1.703332543373108,-0.0,1.988810658454895,5.069251554995336,0.0,0.27734076976776123,-1.5456460157977503,-0.0,-0.011284777894616127,0.12744808197021484,0.0,0.008622761815786362,0.9644535183906555,0.0,-0.05246208235621452
226.0,213.0,-0.2249,0.4409,9.6072,-0.0362,0.0235,-0.1168,-1.879040857354635,0.0,3.270922899246216,-1.7033649682998657,-0.0,2.038724899291992,5.069235908776083,0.0,0.27258825302124023,-1.5456627050982874,-0.0,-0.023114021867513657,0.12742020189762115,0.0,-0.0004084543325006962,0.9644937515258789,0.0,0.037350259721279144
226.0,213.0,-0.2249,0.4409,9.6072,-0.0362,0.0235,-0.1168,-1.8790365658202113,0.0,3.2830944061279297,-1.703316569328308,-0.0,2.0051522254943848,5.069235908776083,0.0,0.2745681703090668,-1.5456584135638636,-0.0,-0.014441393315792084,0.12739203870296478,0.0,0.004643033724278212,0.9644694924354553,0.0,-0.06137777864933014
226.0,213.0,-0.2249,0.4409,9.6072,-0.0362,0.0235,-0.1168,-1.8790694675841273,0.0,3.3137168884277344,-1.7033329010009766,-0.0,1.9435150623321533,5.069195794850149,0.0,0.282060831785202,-1.5456703344928187,-0.0,-0.011696704663336277,0.1274121254682541,0.0,0.00576454121619463,0.9644699096679688,0.0,0.005130417179316282
226.0,213.0,-0.2249,0.4409,9.6072,-0.0362,0.0235,-0.1168,-1.879073282281393,0.0,3.2989730834960938,-1.7033485174179077,-0.0,2.072932004928589,5.069267439633169,0.0,0.2695378065109253,-1.5457189718829554,-0.0,-0.013017360121011734,0.1273915320634842,0.0,-0.004516136832535267,0.964465856552124,0.0,0.020634714514017105
226.0,213.0,-0.2249,0.4409,9.6072,-0.0362,0.0235,-0.1168,-1.8790527782835902,0.0,3.311058521270752,-1.7034130096435547,-0.0,1.9963767528533936,5.069299715548315,0.0,0.26985451579093933,-1.5456584135638636,-0.0,-0.0003639841452240944,0.12747639417648315,0.0,0.0023605686146765947,0.9645097255706787,0.0,0.04565843194723129
226.0,213.0,-0.2249,0.4409,9.6072,-0.0362,0.0235,-0.1168,-1.8790246448912562,0.0,3.2553672790527344,-1.7034131288528442,-0.0,2.006101131439209,5.069235908776083,0.0,0.26337534189224243,-1.5456340948687952,-0.0,-0.003453349694609642,0.12747231125831604,0.0,-0.008386217057704926,0.9644978642463684,0.0,-0.017685914412140846
226.0,213.0,-0.2249,0.4409,9.6072,-0.0362,0.0235,-0.1168,-1.879045148889059,0.0,3.3539438247680664,-1.7033607959747314,-0.0,1.98604416847229,5.06923587897376,0.0,0.28187915682792664,-1.5456703344928187,-0.0,-0.007493309676647186,0.12744033336639404,0.0,-0.0052164653316140175,0.9644937515258789,0.0,0.017964309081435204
226.0,213.0,-0.2249,0.4409,9.6072,-0.0362,0.0235,-0.1168,-1.8790651760497035,0.0,3.294841766357422,-1.703372836112976,-0.0,2.04641056060791,5.069215643196859,0.0,0.27179691195487976,-1.545694653187887,-0.0,-0.014626222662627697,0.12745632231235504,0.0,0.002346377819776535,0.964505672454834,0.0,-0.029599610716104507
242.0,214.0,-0.2046,0.4522,9.6126,-0.0315,0.0281,-0.1219,-1.8790813885130824,0.0,3.3361520767211914,-1.7033690214157104,-0.0,2.0194199085235596,5.069223600416937,0.0,0.2684001922607422,-1.5456627050982874,-0.0,-0.018663190305233,0.12746456265449524,0.0,-0.0034746311139315367,0.9644134640693665,0.0,0.012126121670007706
242.0,214.0,-0.2046,0.4522,9.6126,-0.0315,0.0281,-0.1219,-1.8790365658202113,0.0,3.2714273929595947,-1.703324794769287,-0.0,2.0085737705230713,5.069255459099569,0.0,0.27174943685531616,-1.5456989447223108,-0.0,-0.010914560407400131,0.12742798030376434,0.0,-0.005069645121693611,0.9644818305969238,0.0,0.047664713114500046
242.0,214.0,-0.2046,0.4522,9.6126,-0.0315,0.0281,-0.1219,-1.8790527782835902,0.0,3.3319761753082275,-1.703372836112976,-0.0,2.0225882530212402,5.069279420166769,0.0,0.2793235182762146,-1.5456741491900843,-0.0,-0.020676514133810997,0.1274079978466034,0.0,-0.009729675948619843,0.9645420908927917,0.0,0.002567827235907316
242.0,214.0,-0.2046,0.4522,9.6126,-0.0315,0.0281,-0.1219,-1.879057069818014,0.0,3.3001890182495117,-1.7033365964889526,-0.0,2.0419650077819824,5.069239842682638,0.0,0.26446613669395447,-1.5456422011004847,-0.0,-0.012141224928200245,0.12744808197021484,0.0,0.005134353414177895,0.9645580649375916,0.0,-0.026234831660985947
242.0,214.0,-0.2046,0.4522,9.6126,-0.0315,0.0281,-0.1219,-1.8790446720519007,0.0,3.2915873527526855,-1.7033811807632446,-0.0,1.9616813659667969,5.069291490107336,0.0,0.2727382779121399,-1.5456584135638636,-0.0,-0.02005065232515335,0.1274280846118927,0.0,-0.004052743315696716,0.9645097255706787,0.0,-0.0016869611572474241
242.0,214.0,-0.2046,0.4522,9.6126,-0.0315,0.0281,-0.1219,-1.879057069818014,0.0,3.314725875854492,-1.7033567428588867,-0.0,2.0081288814544678,5.06923587897376,0.0,0.27997666597366333,-1.5456903616534632,-0.0,-0.005105155520141125,0.12750877439975739,0.0,-0.00455081881955266,0.9645342230796814,0.0,0.048019737005233765
242.0,214.0,-0.2046,0.4522,9.6126,-0.0315,0.0281,-0.1219,-1.8790532551207484,0.0,3.3121018409729004,-1.7033488750457764,-0.0,1.9958291053771973,5.069235908776083,0.0,0.27069807052612305,-1.545710865651266,-0.0,-0.015881523489952087,0.1274116486310959,0.0,-0.003654472529888153,0.9644695520401001,0.0,-0.005127348471432924
242.0,214.0,-0.2046,0.4522,9.6126,-0.0315,0.0281,-0.1219,-1.8790327511229457,0.0,3.307307481765747,-1.703368902206421,-0.0,2.022289514541626,5.069239842682638,0.0,0.2816924750804901,-1.5456541220294397,-0.0,-0.020971285179257393,0.12743225693702698,0.0,-0.01140406634658575,0.9644777774810791,0.0,0.019278278574347496
242.0,214.0,-0.2046,0.4522,9.6126,-0.0315,0.0281,-0.1219,-1.879040857354635,0.0,3.28330659866333,-1.7033686637878418,-0.0,1.9866995811462402,5.069251525193014,0.0,0.273014634847641,-1.5456541220294397,-0.0,-0.02251547761261463,0.12745246291160583,0.0,-0.005130439065396786,0.9644495248794556,0.0,0.02523496001958847
242.0,214.0,-0.2046,0.4522,9.6126,-0.0315,0.0281,-0.1219,-1.8790365658202113,0.0,3.3322229385375977,-1.7033365964889526,-0.0,1.976050615310669,5.069235908776083,0.0,0.27065497636795044,-1.5456627050982874,-0.0,-0.025836776942014694,0.12743213772773743,0.0,-0.01777556911110878,0.9644695520401001,0.0,-0.009071534499526024
242.0,214.0,-0.2046,0.4522,9.6126,-0.0315,0.0281,-0.1219,-1.8790484867491664,0.0,3.286480665206909,-1.703364610671997,-0.0,1.9943084716796875,5.069259601622381,0.0,0.27182820439338684,-1.5456627050982874,-0.0,-0.02267318218946457,0.12742400169372559,0.0,9.409524500370026e-05,0.9645178914070129,0.0,-0.022373635321855545
242.0,214.0,-0.2046,0.4522,9.6126,-0.0315,0.0281,-0.1219,-1.8790933094420375,0.0,3.3226161003112793,-1.7033246755599976,-0.0,2.0135271549224854,5.069239842682638,0.0,0.26999902725219727,-1.5456703344928187,-0.0,-0.007862410508096218,0.12743611633777618,0.0,-0.007058394141495228,0.9644937515258789,0.0,-0.006752006243914366
242.0,214.0,-0.2046,0.4522,9.6126,-0.0315,0.0281,-0.1219,-1.8790327511229457,0.0,3.3273448944091797,-1.7033206224441528,-0.0,1.977097988128662,5.069239842682638,0.0,0.2752782106399536,-1.5456460157977503,-0.0,-0.010033602826297283,0.12743206322193146,0.0,-0.005838548298925161,0.9644657969474792,0.0,0.02671915292739868
242.0,214.0,-0.2046,0.4522,9.6126,-0.0315,0.0281,-0.1219,-1.879040857354635,0.0,3.3110928535461426,-1.703372836112976,-0.0,2.0501298904418945,5.069227832346716,0.0,0.28073206543922424,-1.5456660429583948,-0.0,-0.015949659049510956,0.12746448814868927,0.0,-0.015864890068769455,0.9645015001296997,0.0,0.013393479399383068
242.0,214.0,-0.2046,0.4522,9.6126,-0.0315,0.0281,-0.1219,-1.8790484867491664,0.0,3.26859712600708,-1.7033525705337524,-0.0,1.9824010133743286,5.069231855660238,0.0,0.27722102403640747,-1.5456464926349085,-0.0,-0.02758578397333622,0.1274280548095703,0.0,-0.0002856662031263113,0.9644855856895447,0.0,-0.05702945217490196
242.0,214.0,-0.2046,0.4522,9.6126,-0.0315,0.0281,-0.1219,-1.879057069818014,0.0,3.283116340637207,-1.7033686637878418,-0.0,2.0546271800994873,5.069223540812292,0.0,0.26930853724479675,-1.5456865469561976,-0.0,-0.015081493183970451,0.1274280995130539,0.0,-0.0063882069662213326,0.964465856552124,0.0,0.0320407971739769
242.0,214.0,-0.2046,0.4522,9.6126,-0.0315,0.0281,-0.1219,-1.8790651760497035,0.0,3.2870519161224365,-1.7034006118774414,-0.0,1.960044026374817,5.069287377386846,0.0,0.25832581520080566,-1.5456865469561976,-0.0,-0.006473573390394449,0.12746849656105042,0.0,0.005827013868838549,0.9644896388053894,0.0,-0.010997391305863857
242.0,214.0,-0.2046,0.4522,9.6126,-0.0315,0.0281,-0.1219,-1.8790527782835902,0.0,3.326512336730957,-1.7033329010009766,-0.0,1.9891860485076904,5.06925197222785,0.0,0.2815157175064087,-1.5456460157977503,-0.0,-0.012061351910233498,0.127423956990242,0.0,-0.01020006649196148,0.9644535183906555,0.0,0.00981287844479084
228.0,215.0,-0.265,0.4822,9.6168,-0.0379,0.0241,-0.1158,-1.8790165386595667,0.0,3.326399326324463,-1.7033768892288208,-0.0,1.9495012760162354,5.069211709290304,0.0,0.27077898383140564,-1.545694653187887,-0.0,-0.006234899163246155,0.12743617594242096,0.0,-0.009190487675368786,0.9644858837127686,0.0,-0.009085065685212612
228.0,215.0,-0.265,0.4822,9.6168,-0.0379,0.0241,-0.1158,-1.8790527782835902,0.0,3.327058792114258,-1.703324794769287,-0.0,2.022315740585327,5.069243925600805,0.0,0.2772967219352722,-1.5456259886371058,-0.0,-0.00285461638122797,0.12744031846523285,0.0,0.0015390877379104495,0.964505672454834,0.0,0.03447785973548889
228.0,215.0,-0.265,0.4822,9.6168,-0.0379,0.0241,-0.1158,-1.879085203210348,0.0,3.3029122352600098,-1.703425407409668,-0.0,1.9839096069335938,5.069251525193014,0.0,0.27237164974212646,-1.5457027594195765,-0.0,0.003369914833456278,0.12742400169372559,0.0,-0.0013859886676073074,0.9645019173622131,0.0,0.04702557623386383
228.0,215.0,-0.265,0.4822,9.6168,-0.0379,0.0241,-0.1158,-1.8790976009764613,0.0,3.2808122634887695,-1.7033411264419556,-0.0,2.0089216232299805,5.069235908776083,0.0,0.26539433002471924,-1.5456660429583948,-0.0,-0.01960057206451893,0.12744851410388947,0.0,-0.006056966260075569,0.9645060896873474,0.0,-0.03443056344985962
228.0,215.0,-0.265,0.4822,9.6168,-0.0379,0.0241,-0.1158,-1.879040857354635,0.0,3.2899155616760254,-1.703332543373108,-0.0,2.0447840690612793,5.069219636708059,0.0,0.27628713846206665,-1.5456584135638636,-0.0,-0.007016023620963097,0.12744033336639404,0.0,0.001239861361682415,0.9645056128501892,0.0,-0.022227998822927475
228.0,215.0,-0.265,0.4822,9.6168,-0.0379,0.0241,-0.1158,-1.8790608845152796,0.0,3.3076376914978027,-1.7033933401107788,-0.0,2.0139596462249756,5.069259601622381,0.0,0.284890741109848,-1.5456464926349085,-0.0,-0.011534130200743675,0.12743215262889862,0.0,-0.005517882294952869,0.9644617438316345,0.0,0.0114417290315032
228.0,215.0,-0.265,0.4822,9.6168,-0.0379,0.0241,-0.1158,-1.8790694675841273,0.0,3.3180384635925293,-1.703340768814087,-0.0,2.0385162830352783,5.069231676846304,0.0,0.27007678151130676,-1.545638386403219,-0.0,-0.01581980288028717,0.1274079978466034,0.0,0.0038894223980605602,0.9644576907157898,0.0,-0.05130111426115036
228.0,215.0,-0.265,0.4822,9.6168,-0.0379,0.0241,-0.1158,-1.8790489635863246,0.0,3.327040672302246,-1.7033934593200684,-0.0,1.9684381484985352,5.069259571820059,0.0,0.2867644429206848,-1.545678440724508,-0.0,-0.017977993935346603,0.12746815383434296,0.0,0.010714110918343067,0.9644855260848999,0.0,0.017755962908267975
228.0,215.0,-0.265,0.4822,9.6168,-0.0379,0.0241,-0.1158,-1.879040857354635,0.0,3.280256986618042,-1.7033966779708862,-0.0,2.0228161811828613,5.0692398128803156,0.0,0.2680470049381256,-1.545678440724508,-0.0,-0.011234697885811329,0.1274079978466034,0.0,-0.005211181938648224,0.9644978046417236,0.0,0.013802108354866505
228.0,215.0,-0.265,0.4822,9.6168,-0.0379,0.0241,-0.1158,-1.8790651760497035,0.0,3.3139705657958984,-1.7033411264419556,-0.0,1.957061529159546,5.069239842682638,0.0,0.26842862367630005,-1.5456865469561976,-0.0,-0.017815247178077698,0.12746039032936096,0.0,-0.006334367208182812,0.9644777774810791,0.0,-0.022248584777116776
228.0,215.0,-0.265,0.4822,9.6168,-0.0379,0.0241,-0.1158,-1.879057069818014,0.0,3.2974724769592285,-1.7033365964889526,-0.0,2.0256316661834717,5.069283413677969,0.0,0.26729854941368103,-1.5457027594195765,-0.0,-0.017768699675798416,0.12744848430156708,0.0,-0.0010362726170569658,0.9644937515258789,0.0,-0.00953717902302742
228.0,215.0,-0.265,0.4822,9.6168,-0.0379,0.0241,-0.1158,-1.879040857354635,0.0,3.3550195693969727,-1.703352928161621,-0.0,1.9857581853866577,5.069227683335104,0.0,0.28533637523651123,-1.5456503073321741,-0.0,0.0019481820054352283,0.1274239718914032,0.0,-0.01637863554060459,0.9644576907157898,0.0,0.029217801988124847
228.0,215.0,-0.265,0.4822,9.6168,-0.0379,0.0241,-0.1158,-1.8790775738158167,0.0,3.331430435180664,-1.7033648490905762,-0.0,2.0025289058685303,5.06924797871665,0.0,0.2756063938140869,-1.5456660429583948,-0.0,-0.01666390150785446,0.12742380797863007,0.0,0.0028009822126477957,0.9644937515258789,0.0,-0.008732875809073448
228.0,215.0,-0.265,0.4822,9.6168,-0.0379,0.0241,-0.1158,-1.8790527782835902,0.0,3.326233386993408,-1.703332543373108,-0.0,1.9892308712005615,5.069255429297247,0.0,0.27034497261047363,-1.5456903616534632,-0.0,-0.026850853115320206,0.12748052179813385,0.0,-0.00039223977364599705,0.9644900560379028,0.0,-0.03256811946630478
228.0,215.0,-0.265,0.4822,9.6168,-0.0379,0.0241,-0.1158,-1.8790365658202113,0.0,3.2949941158294678,-1.703364610671997,-0.0,2.0156469345092773,5.069211739092626,0.0,0.2752407491207123,-1.5456422011004847,-0.0,-0.009437203407287598,0.12742386758327484,0.0,0.004795359913259745,0.9644896984100342,0.0,-0.02877538651227951
228.0,215.0,-0.265,0.4822,9.6168,-0.0379,0.0241,-0.1158,-1.879040857354635,0.0,3.2916555404663086,-1.7033284902572632,-0.0,1.9841530323028564,5.069235908776083,0.0,0.28165748715400696,-1.5456541220294397,-0.0,-0.012823045253753662,0.12744806706905365,0.0,0.0014163870364427567,0.964465856552124,0.0,-0.04136831685900688
228.0,215.0,-0.265,0.4822,9.6168,-0.0379,0.0241,-0.1158,-1.8790813885130824,0.0,3.338179111480713,-1.703344464302063,-0.0,1.9828940629959106,5.069247531681814,0.0,0.27142995595932007,-1.545638386403219,-0.0,-0.019072359427809715,0.12746405601501465,0.0,-0.003215482924133539,0.9645342230796814,0.0,0.037504930049180984
228.0,215.0,-0.265,0.4822,9.6168,-0.0379,0.0241,-0.1158,-1.879057069818014,0.0,3.263418674468994,-1.703405737876892,1.4781058599311336e-09,1.9992129802703857,5.069227683335104,0.0,0.283318430185318,-1.5456464926349085,-0.0,-0.012195576913654804,0.12741619348526,0.0,0.0026139733381569386,0.9644736647605896,0.0,0.002660365542396903
228.0,215.0,-0.265,0.4822,9.6168,-0.0379,0.0241,-0.1158,-1.879073282281393,0.0,3.2982349395751953,-1.7033485174179077,3.569451896871193e-15,2.0037379264831543,5.069275367050924,0.0,0.26599329710006714,-1.5456822554217737,-0.0,-0.012576368637382984,0.12746404111385345,0.0,-0.004978054203093052,0.9645138382911682,0.0,-0.010282475501298904
234.0,206.0,-0.2124,0.457,9.6849,-0.0409,0.0237,-0.1228,-1.8790608845152796,0.0,3.2803006172180176,-1.7033485174179077,6.424888627555299e-19,2.0159997940063477,5.069211560278692,0.0,0.2851172685623169,-1.5456627050982874,-0.0,-0.01578635536134243,0.12739205360412598,0.0,0.0062574297189712524,0.9645178914070129,0.0,-0.0017826855182647705
234.0,206.0,-0.2124,0.457,9.6849,-0.0409,0.0237,-0.1228,-1.8790813885130824,0.0,3.3132219314575195,-1.7033607959747314,1.15645721284403e-22,1.980414628982544,5.069199639349737,0.0,0.2802738845348358,-1.545694653187887,-0.0,-0.011666521430015564,0.1274280846118927,0.0,0.002664944389835,0.964457631111145,0.0,0.008027594536542892
234.0,206.0,-0.2124,0.457,9.6849,-0.0409,0.0237,-0.1228,-1.8790127239623011,0.0,3.345423698425293,-1.703332543373108,2.792708197368322e-28,1.9720406532287598,5.069279479771414,0.0,0.28076738119125366,-1.5456541220294397,-0.0,-0.008984015323221684,0.1274157464504242,0.0,-0.003388567129150033,0.9645019173622131,0.0,0.0015616575255990028
234.0,206.0,-0.2124,0.457,9.6849,-0.0409,0.0237,-0.1228,-1.879073282281393,0.0,3.2926268577575684,-1.7033567428588867,5.02677648412333e-32,2.0055532455444336,5.069267469435491,0.0,0.2838181257247925,-1.5456541220294397,-0.0,-0.01600547693669796,0.12737222015857697,0.0,-0.0003777979873120785,0.9644699096679688,0.0,0.036972615867853165
234.0,206.0,-0.2124,0.457,9.6849,-0.0409,0.0237,-0.1228,-1.879057069818014,0.0,3.3214149475097656,-1.7033209800720215,5.393856918090023e-05,2.0191025733947754,5.069219636708059,0.0,0.28460580110549927,-1.5456746260272425,-0.0,-0.01593768410384655,0.12745998799800873,0.0,-0.007376611232757568,0.9644736647605896,0.0,0.018606141209602356
234.0,206.0,-0.2124,0.457,9.6849,-0.0409,0.0237,-0.1228,-1.8790165386595667,0.0,3.276179790496826,-1.7033649682998657,7.972165622049943e-05,2.0249056816101074,5.069255459099569,0.0,0.25947141647338867,-1.5456865469561976,-0.0,-0.0125217130407691,0.12744808197021484,0.0,-0.008691255934536457,0.9644617438316345,0.0,0.018399633467197418
234.0,206.0,-0.2124,0.457,9.6849,-0.0409,0.0237,-0.1228,-1.8789683781065882,0.0,3.3307690620422363,-1.7033768892288208,8.701667684363201e-05,2.0201656818389893,5.069235908776083,0.0,0.26442164182662964,-1.5457027594195765,-0.0,-0.020378896966576576,0.12744805216789246,0.0,0.005939507856965065,0.9644896388053894,0.0,-0.001509996596723795
234.0,206.0,-0.2124,0.457,9.6849,-0.0409,0.0237,-0.1228,-1.8790484867491664,0.0,3.2785229682922363,-1.703344464302063,7.599675882374868e-05,1.9543668031692505,5.069247501879492,0.0,0.27599114179611206,-1.5456584135638636,-0.0,-0.02535102516412735,0.1274120807647705,0.0,-0.006463320925831795,0.9645383954048157,0.0,0.02273636683821678
234.0,206.0,-0.2124,0.457,9.6849,-0.0409,0.0237,-0.1228,-1.8790608845152796,0.0,3.306494951248169,-1.7033525705337524,7.007888052612543e-05,2.0044641494750977,5.069259601622381,0.0,0.28068992495536804,-1.5456584135638636,-0.0,-0.014723682776093483,0.1274198442697525,0.0,-0.006114650517702103,0.9644814133644104,0.0,-0.01182258129119873
234.0,206.0,-0.2124,0.457,9.6849,-0.0409,0.0237,-0.1228,-1.8790365658202113,0.0,3.2946572303771973,-1.703332543373108,6.274961197050288e-05,1.984828233718872,5.0693077621753595,0.0,0.26338428258895874,-1.5456541220294397,-0.0,-0.02301766350865364,0.12737628817558289,0.0,-0.0069360556080937386,0.9645138382911682,0.0,-0.02836841531097889
234.0,206.0,-0.2124,0.457,9.6849,-0.0409,0.0237,-0.1228,-1.879040857354635,0.0,3.3002049922943115,-1.7033369541168213,5.865954153705388e-05,2.0040359497070312,5.069247501879492,0.0,0.2762431502342224,-1.5456422011004847,-0.0,-0.020622046664357185,0.12739203870296478,0.0,-0.005826659966260195,0.9644896984100342,0.0,-0.01871095411479473
234.0,206.0,-0.2124,0.457,9.6849,-0.0409,0.0237,-0.1228,-1.879045148889059,0.0,3.317974328994751,-1.7033686637878418,5.3435425797943026e-05,2.009265899658203,5.069239842682638,0.0,0.2898588180541992,-1.545626465474264,-0.0,-0.014216423034667969,0.12744441628456116,0.0,0.00035331398248672485,0.9644694924354553,0.0,0.042696353048086166
234.0,206.0,-0.2124,0.457,9.6849,-0.0409,0.0237,-0.1228,-1.879057069818014,0.0,3.3099255561828613,-1.7033933401107788,5.0440568884368986e-05,1.9878803491592407,5.069255459099569,0.0,0.2689799666404724,-1.5456464926349085,-0.0,-0.012660757638514042,0.12744033336639404,0.0,0.0025245281867682934,0.9644777774810791,0.0,-0.006034021265804768
234.0,206.0,-0.2124,0.457,9.6849,-0.0409,0.0237,-0.1228,-1.8790894947447718,0.0,3.2898354530334473,-1.7033686637878418,4.776363493874669e-05,2.001811981201172,5.069259571820059,0.0,0.27919575572013855,-1.5456822554217737,-0.0,-0.006061377935111523,0.12743206322193146,0.0,-0.008112333714962006,0.9644900560379028,0.0,-0.014732947573065758
234.0,206.0,-0.2124,0.457,9.6849,-0.0409,0.0237,-0.1228,-1.8790046177306117,0.0,3.342555522918701,-1.7033730745315552,4.424173312145285e-05,1.9757013320922852,5.069235908776083,0.0,0.28738105297088623,-1.5456584135638636,-0.0,-0.004269212484359741,0.12740381062030792,0.0,-0.0027768758591264486,0.9644777178764343,0.0,0.03604882210493088
234.0,206.0,-0.2124,0.457,9.6849,-0.0409,0.0237,-0.1228,-1.879045148889059,0.0,3.3085732460021973,-1.7033288478851318,4.21688164351508e-05,1.9851408004760742,5.069227832346716,0.0,0.27039533853530884,-1.5456145445453089,-0.0,-0.01760265976190567,0.12750087678432465,0.0,-0.010610168799757957,0.9644978046417236,0.0,0.03637460991740227
234.0,206.0,-0.2124,0.457,9.6849,-0.0409,0.0237,-0.1228,-1.879000803033346,0.0,3.306425094604492,-1.703389286994934,3.9399757952196524e-05,1.971973180770874,5.069267469435491,0.0,0.2685418725013733,-1.5456903616534632,-0.0,-0.0038997132796794176,0.12743982672691345,0.0,0.0015263059176504612,0.9644937515258789,0.0,-0.011836900375783443
234.0,206.0,-0.2124,0.457,9.6849,-0.0409,0.0237,-0.1228,-1.8790894947447718,0.0,3.298985242843628,-1.703381061553955,3.7747304304502904e-05,2.0084259510040283,5.069251525193014,0.0,0.2748779058456421,-1.5456460157977503,-0.0,-0.016663191840052605,0.12743224203586578,0.0,-0.002372060902416706,0.9644978046417236,0.0,-0.026024386286735535
233.0,205.0,-0.1836,0.4654,9.6377,-0.0334,0.0185,-0.1208,-1.8790208301939906,0.0,3.2915773391723633,-1.7033485174179077,3.622784424806014e-05,2.0014138221740723,5.069215583592214,0.0,0.2753050625324249,-1.5456627050982874,-0.0,-0.016701286658644676,0.12746818363666534,0.0,0.003392269369214773,0.9644736647605896,0.0,0.030616624280810356
233.0,205.0,-0.1836,0.4654,9.6377,-0.0334,0.0185,-0.1208,-1.8790527782835902,0.0,3.334944725036621,-1.7033604383468628,3.4165037504862994e-05,1.98366117477417,5.069287377386846,0.0,0.27291640639305115,-1.545638386403219,-0.0,-0.013715788722038269,0.1274886280298233,0.0,-0.003277705516666174,0.9645383954048157,0.0,-0.009138059802353382
233.0,205.0,-0.1836,0.4654,9.6377,-0.0334,0.0185,-0.1208,-1.8790694675841273,0.0,3.3178839683532715,-1.7033567428588867,3.291553002782166e-05,2.0342204570770264,5.069179671793737,0.0,0.2766905725002289,-1.5456903616534632,-0.0,-0.010665440000593662,0.12739203870296478,0.0,0.016438214108347893,0.9644495248794556,0.0,0.029444212093949318
233.0,205.0,-0.1836,0.4654,9.6377,-0.0334,0.0185,-0.1208,-1.8790327511229457,0.0,3.3187971115112305,-1.7033770084381104,3.120374458376318e-05,1.988168478012085,5.069235908776083,0.0,0.2699829339981079,-1.5456541220294397,-0.0,-0.005813452415168285,0.12744034826755524,0.0,-0.008488199673593044,0.9644937515258789,0.0,0.004053113050758839
233.0,205.0,-0.1836,0.4654,9.6377,-0.0334,0.0185,-0.1208,-1.879040857354635,0.0,3.30305814743042,-1.7033246755599976,3.015812035300769e-05,2.021554470062256,5.069223719626226,0.0,0.27728113532066345,-1.5456464926349085,-0.0,-0.012763336300849915,0.12743979692459106,0.0,0.0067609939724206924,0.9644781351089478,0.0,-0.02623630128800869
233.0,205.0,-0.1836,0.4654,9.6377,-0.0334,0.0185,-0.1208,-1.879045148889059,0.0,3.313443183898926,-1.7033365964889526,2.8714850486721843e-05,1.9986339807510376,5.069203662663259,0.0,0.27139902114868164,-1.5456340948687952,-0.0,-0.012385843321681023,0.12748868763446808,0.0,0.0028573342133313417,0.9644937515258789,0.0,-0.0463884212076664
233.0,205.0,-0.1836,0.4654,9.6377,-0.0334,0.0185,-0.1208,-1.8790694675841273,0.0,3.284766674041748,-1.7033288478851318,2.7827050871565007e-05,2.0210812091827393,5.069243478565969,0.0,0.2797165811061859,-1.5456584135638636,-0.0,-0.01735512539744377,0.12743619084358215,0.0,0.0025634306948632,0.964505672454834,0.0,0.0247269868850708
233.0,205.0,-0.1836,0.4654,9.6377,-0.0334,0.0185,-0.1208,-1.8790127239623011,0.0,3.3115944862365723,-1.703340768814087,3.8913643948035315e-05,1.9831666946411133,5.069263624935903,0.0,0.27565014362335205,-1.5456989447223108,-0.0,-0.003300350159406662,0.12744446098804474,0.0,0.00044835018343292177,0.9644855260848999,0.0,-0.02591683156788349
233.0,205.0,-0.1836,0.4654,9.6377,-0.0334,0.0185,-0.1208,-1.8790284595885218,0.0,3.3480327129364014,-1.703324794769287,3.874566391459666e-05,1.9721364974975586,5.069259571820059,0.0,0.2665925621986389,-1.5456703344928187,-0.0,-0.011284353211522102,0.12743212282657623,0.0,-0.005147741641849279,0.9644896984100342,0.0,-0.0032317854929715395
233.0,205.0,-0.1836,0.4654,9.6377,-0.0334,0.0185,-0.1208,-1.879073282281393,0.0,3.321216106414795,-1.703372836112976,3.766472218558192e-05,1.9771308898925781,5.069267469435491,0.0,0.2746043801307678,-1.545682732258932,-0.0,-0.011654119938611984,0.1274120956659317,0.0,0.0026599173434078693,0.9645220041275024,0.0,0.025693364441394806
233.0,205.0,-0.1836,0.4654,9.6377,-0.0334,0.0185,-0.1208,-1.8789764843382777,0.0,3.3110456466674805,-1.7033329010009766,3.6151817766949534e-05,2.0073978900909424,5.069219636708059,0.0,0.26674985885620117,-1.545638386403219,-0.0,-0.004920965991914272,0.12747231125831604,0.0,0.0030775777995586395,0.9644896388053894,0.0,-0.0513605996966362
233.0,205.0,-0.1836,0.4654,9.6377,-0.0334,0.0185,-0.1208,-1.879045148889059,0.0,3.281832695007324,-1.7033648490905762,3.520896643749438e-05,2.03788685798645,5.069243955403127,0.0,0.2720159888267517,-1.5456822554217737,-0.0,-0.009010229259729385,0.12744444608688354,0.0,-0.0012214567977935076,0.9644937515258789,0.0,-0.006863012444227934
233.0,205.0,-0.1836,0.4654,9.6377,-0.0334,0.0185,-0.1208,-1.8790446720519007,0.0,3.2932987213134766,-1.703372836112976,3.431403456488624e-05,1.981752634048462,5.069255459099569,0.0,0.2593056261539459,-1.5457151571856897,-0.0,-0.014857703819870949,0.1274804025888443,0.0,0.006661156192421913,0.9645219445228577,0.0,0.025174684822559357
233.0,205.0,-0.1836,0.4654,9.6377,-0.0334,0.0185,-0.1208,-1.8790484867491664,0.0,3.30397891998291,-1.7033768892288208,3.3053849620046094e-05,2.005800485610962,5.069287377386846,0.0,0.2834833860397339,-1.545682732258932,-0.0,-0.02098248153924942,0.12742403149604797,0.0,0.004409203305840492,0.9644855260848999,0.0,-0.021794548258185387
233.0,205.0,-0.1836,0.4654,9.6377,-0.0334,0.0185,-0.1208,-1.879073282281393,0.0,3.3462138175964355,-1.7033448219299316,3.226390981581062e-05,1.9787975549697876,5.069259571820059,0.0,0.27844566106796265,-1.5456422011004847,-0.0,-0.007437027059495449,0.12742440402507782,0.0,-0.012847505509853363,0.9644535183906555,0.0,0.03841906413435936
233.0,205.0,-0.1836,0.4654,9.6377,-0.0334,0.0185,-0.1208,-1.8790694675841273,0.0,3.325955867767334,-1.7033288478851318,3.1147323170444e-05,2.0314998626708984,5.069207656174459,0.0,0.28274354338645935,-1.5457146803485315,-0.0,-0.006932683289051056,0.12746818363666534,0.0,0.0075781992636621,0.9644896984100342,0.0,0.05777876079082489
233.0,205.0,-0.1836,0.4654,9.6377,-0.0334,0.0185,-0.1208,-1.8791052303709925,0.0,3.349689483642578,-1.7033448219299316,3.0444911317317747e-05,1.9630541801452637,5.069215583592214,0.0,0.2757031321525574,-1.5456422011004847,-0.0,-0.010667580179870129,0.12744396924972534,0.0,-0.0054323142394423485,0.9645138382911682,0.0,0.008976777084171772
233.0,205.0,-0.1836,0.4654,9.6377,-0.0334,0.0185,-0.1208,-1.879085203210348,0.0,3.3079891204833984,-1.7033891677856445,2.3300081011257134e-05,1.999358057975769,5.069247501879492,0.0,0.28261420130729675,-1.5456822554217737,-0.0,-0.017028136178851128,0.1274157464504242,0.0,-0.0037242427933961153,0.9645220041275024,0.0,0.02478385530412197
233.0,205.0,-0.1836,0.4654,9.6377,-0.0334,0.0185,-0.1208,-1.879073282281393,0.0,3.3677406311035156,-1.7033690214157104,2.268504431413021e-05,1.9798564910888672,5.0691836951072595,0.0,0.27493053674697876,-1.5456622282611292,-0.0,-0.013457570225000381,0.12746043503284454,0.0,0.005337211303412914,0.9645379781723022,-1.3628026485079658e-09,0.01594359055161476
231.0,222.0,0.0173,0.2381,9.6,-0.0449,0.0185,-0.1115,-1.8790365658202113,0.0,3.32039737701416,-1.7033768892288208,3.318500966997817e-05,2.054975748062134,5.069207626372137,0.0,0.2630563974380493,-1.5457027594195765,-0.0,-0.012904539704322815,0.12743572890758514,0.0,-0.004725877661257982,0.964533805847168,-2.452996573226729e-13,0.00022165710106492043
231.0,222.0,0.0173,0.2381,9.6,-0.0449,0.0185,-0.1115,-1.8789969883360804,0.0,3.292541027069092,-1.7033209800720215,4.263123628334142e-05,1.9930493831634521,5.069227653532781,0.0,0.2862498462200165,-1.545710865651266,-0.0,-0.0019458192400634289,0.12745632231235504,0.0,-0.00370975723490119,0.9645699858665466,-5.923697309470005e-19,-0.0061444384045898914
231.0,222.0,0.0173,0.2381,9.6,-0.0449,0.0185,-0.1115,-1.8790527782835902,0.0,3.2761778831481934,-1.7033488750457764,0.0002519584377296269,2.017256736755371,5.069239842682638,0.0,0.2594527006149292,-1.54567796388735,-0.0,-0.02401156723499298,0.12736395001411438,0.0,-0.006342523265630007,0.9644855260848999,-1.0662445943358932e-22,0.060229528695344925
231.0,222.0,0.0173,0.2381,9.6,-0.0449,0.0185,-0.1115,-1.879057069818014,0.0,3.347893714904785,-1.703296184539795,0.0011738435132429004,1.9815785884857178,5.069267469435491,0.0,0.2650810480117798,-1.5457266012774866,-0.0,-0.01804371178150177,0.12740753591060638,0.0,-0.006177774630486965,0.9645540118217468,-2.5748556687439877e-28,-0.028703629970550537
231.0,222.0,0.0173,0.2381,9.6,-0.0449,0.0185,-0.1115,-1.8790694675841273,6.318765066737342e-09,3.3145203590393066,-1.7032971382141113,0.0023974834475666285,1.9768264293670654,5.069263624935903,0.0,0.28288766741752625,-1.5456698576556605,-2.495809496849688e-07,-0.01891137845814228,0.1273997277021408,0.0,-0.0137481065467,0.964533805847168,-4.6346489072306896e-32,-0.013964276760816574
231.0,222.0,0.0173,0.2381,9.6,-0.0449,0.0185,-0.1115,-1.8791090450682582,1.137355509252258e-12,3.319321632385254,-1.7032650709152222,0.005483571439981461,2.014219284057617,5.069263624935903,0.0,0.2723410725593567,-1.545694653187887,-1.0640026637531719e-09,-0.0034814453683793545,0.12738372385501862,0.0,-0.01347661018371582,0.9645457863807678,-8.342203740001381e-36,0.04550247639417648
231.0,222.0,0.0173,0.2381,9.6,-0.0449,0.0185,-0.1115,-1.8790928326048792,2.746579604907811e-18,3.30259370803833,-1.7032328844070435,0.01079682819545269,1.98909592628479,5.069219636708059,0.0,0.2709497809410095,-1.5456903616534632,-2.9616904089792284e-13,-0.015030157752335072,0.12748053669929504,0.0,-0.00503977295011282,0.9645540118217468,-2.014506672313357e-41,-0.008494894951581955
231.0,222.0,0.0173,0.2381,9.6,-0.0449,0.0185,-0.1115,-1.8791653118529261,-0.0018181574996560812,3.270148754119873,-1.7032090425491333,0.010666940361261368,2.0343167781829834,5.069227683335104,0.0,0.28017669916152954,-1.5456989447223108,-1.2626150515062827e-15,-0.007579108700156212,0.12743614614009857,0.0,-0.002840849570930004,0.9645137786865234,-4.203895392974451e-45,-0.032989367842674255
231.0,222.0,0.0173,0.2381,9.6,-0.0449,0.0185,-0.1115,-1.8791610203185023,-0.0028570948634296656,3.3006210327148438,-1.7031288146972656,0.006754936650395393,2.033970832824707,5.069227683335104,0.0,0.2702542245388031,-1.5457389990436,-3.5145350678790195e-19,-0.010937590152025223,0.1273915022611618,0.0,0.0013761913869529963,0.9645096659660339,0.0,-0.03830408304929733
231.0,222.0,0.0173,0.2381,9.6,-0.0449,0.0185,-0.1115,-1.879164835015768,-0.0029597606044262648,3.29776668548584,-1.7030807733535767,0.004160253796726465,2.0357847213745117,5.069252061634817,0.0,0.2682090103626251,-1.545638386403219,-1.4983013644753874e-21,-0.01832795888185501,0.1273914873600006,0.0,0.005126405041664839,0.964533805847168,0.0,0.006560465320944786
231.0,222.0,0.0173,0.2381,9.6,-0.0449,0.0185,-0.1115,-1.8791686497130335,-0.0016504295635968447,3.3030765056610107,-1.7030764818191528,0.0017699868185445666,1.9528892040252686,5.069239783077993,0.0,0.27765122056007385,-1.5457070509540003,-4.170577443854128e-25,-0.0064123934134840965,0.12744398415088654,0.0,-0.01433103159070015,0.9645096659660339,0.00015582631749566644,-0.010550344362854958
231.0,222.0,0.0173,0.2381,9.6,-0.0449,0.0185,-0.1115,-1.879136701623434,-0.0005081789568066597,3.295072555541992,-1.703080654144287,0.0014229300431907177,2.0166425704956055,5.06916760185317,0.0,0.2720768451690674,-1.5456422011004847,-1.7779823171753417e-27,-0.016330759972333908,0.12746450304985046,0.0,0.007604668382555246,0.964521586894989,0.00017596919497009367,-0.01983843930065632
231.0,222.0,0.0173,0.2381,9.6,-0.0449,0.0185,-0.1115,-1.879120489160055,-2.659388655956718e-06,3.314417839050293,-1.7031131982803345,0.0011462215334177017,1.9830820560455322,5.06916760185317,0.0,0.28047478199005127,-1.5456865469561976,-7.57981853523216e-30,-0.014047781005501747,0.12743203341960907,0.0,0.010111628100275993,0.9645174145698547,0.00016625385615043342,0.015345903113484383
231.0,222.0,0.0173,0.2381,9.6,-0.0449,0.0185,-0.1115,-1.8791734180846156,-6.422111540477227e-12,3.288234233856201,-1.7030774354934692,0.001269482308998704,1.9918133020401,5.0691716251666925,0.0,0.27001431584358215,-1.5456903616534632,-2.1098703820489458e-33,-0.018316633999347687,0.12744027376174927,0.0,-0.000597096630372107,0.9645056128501892,0.00015219629858620465,-0.02049471065402031
231.0,222.0,0.0173,0.2381,9.6,-0.0449,0.0185,-0.1115,-1.8791409931578578,-1.15595740394185e-15,3.3672547340393066,-1.7030526399612427,0.0016895974986255169,2.018188714981079,5.069215762406149,0.0,0.28118664026260376,-1.545666519795553,-8.994708572035369e-36,-0.01190177071839571,0.12747232615947723,0.0,-0.0016163159161806107,0.9645420908927917,0.0001440750202164054,0.03222355246543884
231.0,222.0,0.0173,0.2381,9.6,-0.0449,0.0185,-0.1115,-1.8791691265501917,-2.791500913077229e-21,3.266045331954956,-1.7030246257781982,0.0042522684670984745,2.0087063312530518,5.069207894593038,3.5918804042189834e-10,0.2730235755443573,-1.545626465474264,-2.503709775298401e-39,-0.020772211253643036,0.12743206322193146,0.0,-0.0037033483386039734,0.9645178318023682,0.00013339753786567599,-0.01796320080757141
231.0,222.0,0.0173,0.2381,9.6,-0.0449,0.0185,-0.1115,-1.8792010746397914,-5.024602697188987e-25,3.324740409851074,-1.7030370235443115,0.0056477985344827175,2.017854690551758,5.069196033268728,1.5312747814535954e-12,0.2696276605129242,-1.5456460157977503,-1.0673690402762132e-41,-0.010014388710260391,0.12751278281211853,0.0,-0.005773510783910751,0.9645015001296997,0.0001060308059095405,0.020008796826004982
231.0,222.0,0.0173,0.2381,9.6,-0.0449,0.0185,-0.1115,-1.8792249164977015,-0.00025203460245393217,3.304948091506958,-1.7030494213104248,0.0052390084601938725,1.9981918334960938,5.069163816958227,6.528064289764053e-15,0.2796325087547302,-1.5456345717059534,-4.484155085839415e-44,-0.010512134060263634,0.12744440138339996,0.0,-0.016915373504161835,0.9645137786865234,0.00010116785415448248,0.051140595227479935
230.0,216.0,-0.6658,0.6018,9.405,-0.0606,0.0224,-0.1277,-1.8792005978026332,-0.0015153719577938318,3.329483985900879,-1.7030255794525146,0.003543486353009939,2.046529769897461,5.069175648480215,-0.0004983513499610126,0.2707262635231018,-1.5456507841693323,-0.0,-0.014019382186233997,0.1274762898683548,0.0,-0.008945236913859844,0.9644736647605896,6.335024227155373e-05,0.050874412059783936
230.0,216.0,-0.6658,0.6018,9.405,-0.0606,0.0224,-0.1277,-1.8791924915709437,-0.0028031310066580772,3.312507152557373,-1.7029212713241577,0.002270667813718319,2.0136117935180664,5.069167840271749,-0.0006039600702933967,0.2758359909057617,-1.5456903616534632,-0.0,-0.013641675934195518,0.12743203341960907,0.0,0.010015849955379963,0.964505672454834,5.456812505144626e-05,-0.01582588441669941
230.0,216.0,-0.6658,0.6018,9.405,-0.0606,0.0224,-0.1277,-1.8792687855162562,-0.0038083926774561405,3.2743735313415527,-1.7029569149017334,0.0013718183618038893,1.983657717704773,5.069123673229971,-0.0008365127723664045,0.28259867429733276,-1.5456422011004847,-0.0,-0.024309180676937103,0.12742801010608673,0.0,-0.00204808940179646,0.964505672454834,5.144773604115471e-05,0.021237865090370178
230.0,216.0,-0.6658,0.6018,9.405,-0.0606,0.0224,-0.1277,-1.8792568645873011,-0.003586249891668558,3.2657933235168457,-1.7029448747634888,0.0009442560258321464,1.9566731452941895,5.069135623961248,-0.0006841686554253101,0.27247950434684753,-1.5456703344928187,-0.0,-0.02307431399822235,0.12743614614009857,0.0,-0.0023048175498843193,0.9645301699638367,-6.585271330550313e-05,0.007819032296538353
230.0,216.0,-0.6658,0.6018,9.405,-0.0606,0.0224,-0.1277,-1.8793055019774378,-0.002104303566738963,3.307805061340332,-1.702949047088623,0.0008003869443200529,1.988985538482666,5.069188046246328,-0.0005778570775873959,0.2688491940498352,-1.5456302801715296,-0.0,-0.016310663893818855,0.1274803876876831,0.0,0.001558493124321103,0.9644777774810791,-5.978596527711488e-05,0.03046773001551628
230.0,216.0,-0.6658,0.6018,9.405,-0.0606,0.0224,-0.1277,-1.8792368374266566,-0.0013415635330602527,3.3022572994232178,-1.7029448747634888,0.0006816008826717734,1.9653656482696533,5.069131839066305,-0.0005569822387769818,0.2608569264411926,-1.5456541220294397,-0.0,-0.024932358413934708,0.12744399905204773,0.0,-0.005297808442264795,0.9644818305969238,-5.6061704526655376e-05,0.01579214446246624
230.0,216.0,-0.6658,0.6018,9.405,-0.0606,0.0224,-0.1277,-1.87927307705068,-0.000976968789473176,3.3030190467834473,-1.702949047088623,0.0006274268380366266,2.0301589965820312,5.069131839066305,-0.00044033757876604795,0.2544892430305481,-1.5456183592425745,-0.0,-0.011341869831085205,0.12745583057403564,0.0,-0.0007640046533197165,0.964457631111145,-7.911869033705443e-05,0.019000757485628128
230.0,216.0,-0.6658,0.6018,9.405,-0.0606,0.0224,-0.1277,-1.8792568645873011,-0.0006941893370822072,3.252101421356201,-1.7029047012329102,0.0011115060187876225,1.972589373588562,5.069164025574484,-0.0003134910948574543,0.26120349764823914,-1.545638386403219,3.3755990443751216e-05,-0.01483333483338356,0.12744811177253723,0.0,-0.008160058408975601,0.9644777178764343,-7.276154065039009e-05,-0.004643469583243132
230.0,216.0,-0.6658,0.6018,9.405,-0.0606,0.0224,-0.1277,-1.879244943658346,-0.0005819291109219193,3.2351443767547607,-1.702925205230713,0.0019341391744092107,1.9957517385482788,5.069131839066305,-0.00032632306101731956,0.25803548097610474,-1.545654598866598,3.3649801480351016e-05,-0.017501676455140114,0.12746000289916992,0.0,0.018715310841798782,0.9644901156425476,-8.417153003392741e-05,0.007938184775412083
230.0,216.0,-0.6658,0.6018,9.405,-0.0606,0.0224,-0.1277,-1.8792649708189906,-0.0004683423030655831,3.282654285430908,-1.7029169797897339,0.0029029923025518656,2.0247859954833984,5.0691517172153375,-0.0003222531813662499,0.2649037837982178,-1.5456183592425745,3.186741378158331e-05,-0.0052413297817111015,0.12745589017868042,0.0,-0.007859798148274422,0.9644822478294373,-8.549533959012479e-05,-0.040996577590703964
230.0,216.0,-0.6658,0.6018,9.405,-0.0606,0.0224,-0.1277,-1.879244943658346,-0.0003277341602370143,3.2581372261047363,-1.7028403282165527,0.0029368754476308823,2.004441976547241,5.069132315903463,-0.0002949567569885403,0.25297844409942627,-1.545666519795553,3.0777609936194494e-05,-0.026250850409269333,0.12749643623828888,0.0,0.003764883615076542,0.9644900560379028,-8.161870937328786e-05,0.05372098833322525
230.0,216.0,-0.6658,0.6018,9.405,-0.0606,0.0224,-0.1277,-1.8792368374266566,-0.0002497010864317417,3.235119342803955,-1.7028485536575317,0.0028635060880333185,2.0580387115478516,5.069100248604574,-0.00030755094485357404,0.25050556659698486,-1.5456708113299769,2.9759898097836412e-05,-0.0010339277796447277,0.1274968534708023,0.0,0.007855807431042194,0.9644977450370789,-9.75943185039796e-05,0.039534684270620346
230.0,216.0,-0.6658,0.6018,9.405,-0.0606,0.0224,-0.1277,-1.8792687855162562,-0.0002567960473243147,3.2224984169006348,-1.7028367519378662,0.0026879075448960066,2.00575590133667,5.069143909006872,-0.0002981219731736928,0.24639126658439636,-1.5456269423114222,2.8353515517665073e-05,-0.0025972265284508467,0.12745998799800873,0.0,-0.0035371030680835247,0.9644781351089478,-9.163565118797123e-05,0.08555492758750916
230.0,216.0,-0.6658,0.6018,9.405,-0.0606,0.0224,-0.1277,-1.8792406521239222,-0.0002720511402003467,3.210172176361084,-1.7028330564498901,0.0032823437359184027,2.018115520477295,5.0690961358840845,-0.00031519183539785445,0.24853208661079407,-1.5456145445453089,3.943558476748876e-05,-0.0084743183106184,0.1274845153093338,0.0,-0.0014217686839401722,0.9644179940223694,-8.804976096143946e-05,0.0714997947216034
230.0,216.0,-0.6658,0.6018,9.405,-0.0606,0.0224,-0.1277,-1.8792764149107875,-0.000380799756385386,3.2191267013549805,-1.7028082609176636,0.003638711990788579,2.040376663208008,5.069132375508108,-0.0003362194693181664,0.24258075654506683,-1.5456627050982874,3.942469265894033e-05,-0.01729757897555828,0.12744399905204773,0.0,0.01110529713332653,0.9644216299057007,-8.316778257722035e-05,0.08680897951126099
230.0,216.0,-0.6658,0.6018,9.405,-0.0606,0.0224,-0.1277,-1.8792368374266566,-0.00043893783004023135,3.1991429328918457,-1.7028040885925293,0.0033242455683648586,1.9946184158325195,5.069108235626974,-0.0004898044862784445,0.2343543916940689,-1.5456269423114222,3.830647619906813e-05,-0.020930040627717972,0.1274358034133911,0.0,-0.0008701797341927886,0.9644900560379028,-8.020325185498223e-05,0.056224897503852844
230.0,216.0,-0.6658,0.6018,9.405,-0.0606,0.0224,-0.1277,-1.8792687855162562,-0.0004705740138888359,3.171830177307129,-1.7027894258499146,0.003761978354305029,2.0084805488586426,5.06912441828803,-0.0005640352028422058,0.2418145388364792,-1.5456145445453089,3.674262188724242e-05,-0.02510126493871212,0.1274198293685913,0.0,-0.010615944862365723,0.9644294381141663,-7.613255002070218e-05,0.11209242045879364
230.0,216.0,-0.6658,0.6018,9.405,-0.0606,0.0224,-0.1277,-1.879256387750143,-0.0007261380087584257,3.162285327911377,-1.702760934829712,0.005274426657706499,2.0118961334228516,5.06912441828803,-0.000750708335544914,0.23811590671539307,-1.5456226507769983,3.5769080568570644e-05,-0.0163717083632946,0.12744811177253723,0.0,-0.008180280216038227,0.964474081993103,-7.3640861955937e-05,0.06524836272001266
230.0,216.0,-0.6658,0.6018,9.405,-0.0606,0.0224,-0.1277,-1.8792606792845667,-0.0007638801471330225,3.1555941104888916,-1.7027087211608887,0.0060487911105155945,2.0365045070648193,5.069075900107183,-0.0008203877368941903,0.22868980467319489,-1.5456307570086878,3.484584885882214e-05,-0.013099074363708496,0.12749643623828888,0.0,-0.002213146071881056,0.9644699096679688,-7.130709127523005e-05,0.09679973125457764
230.0,219.0,-0.1926,0.393,9.5946,-0.0267,0.0286,-0.1237,-1.8792444668211878,-0.0011113554937765002,3.133852481842041,-1.7027251720428467,0.006825151853263378,2.0258612632751465,5.069064426213064,-0.001128163537941873,0.22962121665477753,-1.5456388632403772,3.354697400936857e-05,-0.017177261412143707,0.1274803876876831,0.0,0.003380956593900919,0.9644854664802551,-6.807120371377096e-05,0.10991960763931274
230.0,219.0,-0.1926,0.393,9.5946,-0.0267,0.0286,-0.1237,-1.8793093166747035,-0.0016071215504780412,3.125436782836914,-1.7026766538619995,0.0075043910183012486,2.0174288749694824,5.069044041424551,-0.0015915228286758065,0.23666884005069733,-1.5456426779376429,3.273357651778497e-05,-0.018283046782016754,0.12745995819568634,0.0,-0.00856300350278616,0.9644495248794556,-6.607222894672304e-05,0.0945635661482811
230.0,219.0,-0.1926,0.393,9.5946,-0.0267,0.0286,-0.1237,-1.8793450794615687,-0.0021546529605984688,3.0850725173950195,-1.702616572380066,0.008072137832641602,2.03456974029541,5.0690601644809625,-0.0020100174006074667,0.21195627748966217,-1.5456269423114222,3.158482286380604e-05,-0.015351539477705956,0.12742801010608673,0.0,-0.0017979417461901903,0.9644334316253662,-6.32847732049413e-05,0.07784057408571243
230.0,219.0,-0.1926,0.393,9.5946,-0.0267,0.0286,-0.1237,-1.8793450794615687,-0.0022796830162405968,3.099224328994751,-1.7025967836380005,0.008098600432276726,2.0392706394195557,5.0690321801002405,-0.002482012379914522,0.23521821200847626,-1.5456507841693323,3.086274955421686e-05,-0.02500802092254162,0.12749674916267395,0.0,0.015651991590857506,0.9645056128501892,-6.15534809185192e-05,0.10143508017063141
230.0,219.0,-0.1926,0.393,9.5946,-0.0267,0.0286,-0.1237,-1.8793770275511683,-0.002367662265896797,3.1277055740356445,-1.7025730609893799,0.008536909706890583,2.0558056831359863,5.069020288973608,-0.0034444439224898815,0.23749315738677979,-1.5456026236163538,3.0172970582498237e-05,-0.018472235649824142,0.12746815383434296,0.0,-0.00042392866453155875,0.9645220637321472,-4.798718509846367e-05,0.1051560789346695
230.0,219.0,-0.1926,0.393,9.5946,-0.0267,0.0286,-0.1237,-1.8793570003905238,-0.002388582332059741,3.067333221435547,-1.7024683952331543,0.009033164009451866,2.0775206089019775,5.068988549500265,-0.009532068856060505,0.21363791823387146,-1.54559833208193,1.6409117620241886e-07,-0.024365322664380074,0.12743209302425385,0.0,0.009162724949419498,0.9644858837127686,-4.609059760696255e-05,0.1518002301454544
230.0,219.0,-0.1926,0.393,9.5946,-0.0267,0.0286,-0.1237,-1.8793403110899867,-0.002511894330382347,3.084146738052368,-1.7024405002593994,0.00877074059098959,2.084493398666382,5.068871992617407,-0.014880846254527569,0.20419247448444366,-1.5456269423114222,6.995464207903979e-10,-0.01345776952803135,0.12746454775333405,0.0,-0.001921822433359921,0.9645019173622131,-4.49398867203854e-05,0.08357909321784973
230.0,219.0,-0.1926,0.393,9.5946,-0.0267,0.0286,-0.1237,-1.8793727360167445,-0.0027117577847093344,3.078563690185547,-1.7024290561676025,0.008209402672946453,2.043771266937256,5.068856942444601,-0.014233987778425217,0.22243157029151917,-1.5455902258502405,1.9472131426809952e-13,-0.011531155556440353,0.12744808197021484,0.0,0.009888631291687489,0.9644818305969238,-4.331767559051514e-05,0.08370370417833328
230.0,219.0,-0.1926,0.393,9.5946,-0.0267,0.0286,-0.1237,-1.8794127903380335,-0.002640381222590804,3.133368968963623,-1.702344298362732,0.008235563524067402,2.0324270725250244,5.0687768039997,-0.011543127708137035,0.20779988169670105,-1.5456064383136194,8.301276519347622e-16,-0.019115963950753212,0.1274033933877945,0.0,-0.0034659518860280514,0.9644454717636108,-4.229972182656638e-05,0.12246233224868774
230.0,219.0,-0.1926,0.393,9.5946,-0.0267,0.0286,-0.1237,-1.879420896569723,-0.003624659962952137,3.0728633403778076,-1.7023082971572876,0.007610674016177654,2.0248568058013916,5.0687536773975275,-0.007559345103800297,0.21461047232151031,-1.5455902258502405,2.310690784063552e-19,-0.016113394871354103,0.12744808197021484,0.0,0.005974138621240854,0.964465856552124,-4.085949694854207e-05,0.12155335396528244
230.0,219.0,-0.1926,0.393,9.5946,-0.0267,0.0286,-0.1237,-1.879465242425436,-0.0041732098907232285,3.0618045330047607,-1.702304720878601,0.006272782105952501,2.030735969543457,5.068713384657659,-0.005461781285703182,0.21388399600982666,-1.5455787817584437,9.850835551808795e-22,-0.010519782081246376,0.12746818363666534,0.0,0.0016357860295102,0.9645220637321472,-3.995258157374337e-05,0.11404561996459961
230.0,219.0,-0.1926,0.393,9.5946,-0.0267,0.0286,-0.1237,-1.8794933758177699,-0.004603095352649689,3.0554311275482178,-1.7023128271102905,0.006105676293373108,2.074716806411743,5.068689334183492,-0.004320316016674042,0.21516793966293335,-1.5455744902240198,4.1995657155382845e-24,-0.010984186083078384,0.1274198442697525,0.0,0.007415157742798328,0.9645060300827026,-6.174325051233609e-08,0.11547492444515228
230.0,219.0,-0.1926,0.393,9.5946,-0.0267,0.0286,-0.1237,-1.879460950891012,-0.005449065938591957,3.027522087097168,-1.7023046016693115,0.0049962690100073814,2.03027606010437,5.068665730744161,-0.0036842196714133024,0.20612429082393646,-1.5456226507769983,1.1689645575682155e-27,-0.013059105724096298,0.12743616104125977,0.0,0.0055864909663796425,0.964465856552124,-1.4910269470914256e-13,0.13824501633644104
230.0,219.0,-0.1926,0.393,9.5946,-0.0267,0.0286,-0.1237,-1.8795205555357875,-0.006768892984837294,3.066192865371704,-1.7022730112075806,0.00446732435375452,2.096881151199341,5.068669783860006,-0.00418451800942421,0.1997290998697281,-1.5456064383136194,4.9834791480511875e-30,-0.015988916158676147,0.12742380797863007,0.0,0.0044681355357170105,0.9644818305969238,-2.6837957692344238e-17,0.09451243281364441
230.0,219.0,-0.1926,0.393,9.5946,-0.0267,0.0286,-0.1237,-1.8795162640013636,-0.008067825809121132,2.9962029457092285,-1.702200174331665,0.0035259798169136047,2.0504889488220215,5.068605649262228,-0.005481472704559565,0.20641785860061646,-1.54559833208193,7.000555342528969e-05,-0.009116142988204956,0.12744808197021484,0.0,-0.007913550361990929,0.964465856552124,-2.4188282623072155e-05,0.12066510319709778
230.0,219.0,-0.1926,0.393,9.5946,-0.0267,0.0286,-0.1237,-1.8796006641783656,-0.007888752967119217,3.0296125411987305,-1.702224850654602,0.0033474969677627087,2.0375325679779053,5.068545508175649,-0.006829681806266308,0.2088855355978012,-1.5455907026873987,6.79997683619149e-05,0.00011007563443854451,0.12744808197021484,0.0,0.0014547696337103844,0.9644495248794556,-2.357694029342383e-05,0.08719747513532639
230.0,219.0,-0.1926,0.393,9.5946,-0.0267,0.0286,-0.1237,-1.8796287975706996,-0.009288769215345383,2.9473767280578613,-1.7021887302398682,0.0029561179690063,2.043168544769287,5.068489658623495,-0.008994502946734428,0.19973069429397583,-1.5455902258502405,6.600545020774007e-05,-0.019827231764793396,0.12746818363666534,0.0,-0.007663033902645111,0.9645138382911682,-2.2975091269472614e-05,0.13713589310646057
230.0,219.0,-0.1926,0.393,9.5946,-0.0267,0.0286,-0.1237,-1.8797174892821253,-0.009691821411252022,2.9939420223236084,-1.7021484375,0.002590712858363986,2.0852911472320557,5.068462061672964,-0.012324130162596703,0.2044832408428192,-1.5455787817584437,6.322338595055044e-05,0.005425324663519859,0.12742798030376434,0.0,-0.006973096169531345,0.9644978642463684,-2.212779327237513e-05,0.1201668381690979
225.0,208.0,-0.3661,0.1747,9.4869,-0.0466,0.0188,-0.1132,-1.8797170124449671,-0.010784268379211426,2.9671220779418945,-1.7021969556808472,0.002718729432672262,2.0494542121887207,5.068410265236654,-0.014650212600827217,0.19434629380702972,-1.5456026236163538,6.149539694888517e-05,-0.007834486663341522,0.12737548351287842,0.0,-0.0023539450485259295,0.9645097255706787,-2.159680843760725e-05,0.13576452434062958
225.0,208.0,-0.3661,0.1747,9.4869,-0.0466,0.0188,-0.1132,-1.8798090420165003,-0.012298831716179848,2.931201934814453,-1.7021931409835815,0.002896580845117569,2.072829246520996,5.068362760334768,-0.020124584436416626,0.20072847604751587,-1.5456350485431116,7.088152051437646e-05,-0.009207319468259811,0.12744809687137604,0.0,0.004270071629434824,0.9644978642463684,-1.042388794303406e-05,0.14722004532814026
225.0,208.0,-0.3661,0.1747,9.4869,-0.0466,0.0188,-0.1132,-1.8798767528929652,-0.013230942189693451,2.951789140701294,-1.7021368741989136,0.003191655036062002,2.054098129272461,5.068267512112417,-0.023711927235126495,0.18414312601089478,-1.5456107298480433,6.90746892360039e-05,-0.0030768350698053837,0.12742799520492554,0.0,-0.004048026166856289,0.9644818305969238,-1.0187274710915517e-05,0.10707330703735352
225.0,208.0,-0.3661,0.1747,9.4869,-0.0466,0.0188,-0.1132,-1.8799649677672328,-0.015236330218613148,2.9292774200439453,-1.702173113822937,0.0035320003516972065,2.030895471572876,5.068034606962957,-0.03033147007226944,0.1916327327489853,-1.5456307570086878,6.652193405898288e-05,-0.010570148006081581,0.12752805650234222,0.0,0.008138222619891167,0.964505672454834,-3.9160116216407914e-07,0.1286199539899826
225.0,208.0,-0.3661,0.1747,9.4869,-0.0466,0.0188,-0.1132,-1.8799802265562953,-0.016454093158245087,2.9625840187072754,-1.7021533250808716,0.004424154292792082,2.063870429992676,5.067923652916708,-0.03654355928301811,0.18456509709358215,-1.5455949942218226,6.492242391686887e-05,-0.00449379300698638,0.1274116337299347,0.0,-0.0037185493856668472,0.964505672454834,-7.04868316492302e-11,0.16174663603305817
225.0,208.0,-0.3661,0.1747,9.4869,-0.0466,0.0188,-0.1132,-1.8801003895201625,-0.017746342346072197,2.9489901065826416,-1.7021048069000244,0.004886317998170853,2.0736050605773926,5.067747044354238,-0.04506582021713257,0.16607490181922913,-1.5455902258502405,6.339800165733323e-05,-0.01627025008201599,0.12748447060585022,0.0,-0.008351791650056839,0.9645498394966125,-1.2687378715171577e-14,0.14349128305912018
225.0,208.0,-0.3661,0.1747,9.4869,-0.0466,0.0188,-0.1132,-1.8802248440184535,-0.020141687244176865,2.880169630050659,-1.7020323276519775,0.005528577603399754,2.0814716815948486,5.067453282862463,-0.06028083711862564,0.15434464812278748,-1.5456064383136194,6.882486923132092e-05,-0.006592149846255779,0.1274963766336441,0.0,-0.00371122476644814,0.9645420908927917,-3.063853078206833e-20,0.07990770787000656
225.0,208.0,-0.3661,0.1747,9.4869,-0.0466,0.0188,-0.1132,-1.8803049526610316,-0.021983085200190544,2.9018876552581787,-1.702008605003357,0.0072199213318526745,2.06217622756958,5.067222016840734,-0.07219838351011276,0.15328671038150787,-1.5456107298480433,6.985211803112179e-05,-0.0034621430095285177,0.12744402885437012,0.0,0.0021467464976012707,0.9644937515258789,-5.514827586356488e-24,0.16780295968055725
225.0,208.0,-0.3661,0.1747,9.4869,-0.0466,0.0188,-0.1132,-1.8804809055724085,-0.023910731077194214,2.9165115356445312,-1.7020007371902466,0.008976735174655914,2.092242956161499,5.066735732346334,-0.08955923467874527,0.14964409172534943,-1.5455825964557093,3.8360226994882396e-08,-0.011978249996900558,0.12745583057403564,0.0,-0.015056426636874676,0.9644654393196106,-1.3317659616059138e-29,0.1215956062078476
225.0,208.0,-0.3661,0.1747,9.4869,-0.0466,0.0188,-0.1132,-1.8805605373778285,-0.025541458278894424,2.8866474628448486,-1.701960802078247,0.00983837153762579,2.0922017097473145,5.066348719387808,-0.09791986644268036,0.13299210369586945,-1.5456064383136194,1.6353564336046844e-10,-0.014847652986645699,0.12745584547519684,0.0,-0.01472874078899622,0.9644814133644104,-2.3971314466891577e-33,0.1461917757987976
225.0,208.0,-0.3661,0.1747,9.4869,-0.0466,0.0188,-0.1132,-1.8806525669493617,-0.027648866176605225,2.8945865631103516,-1.7019286155700684,0.010495808906853199,2.0939807891845703,5.065974521427908,-0.1016935184597969,0.12991175055503845,-1.54559833208193,6.971779924203059e-13,0.0004914295859634876,0.12745220959186554,0.0,0.011635852977633476,0.964505672454834,-4.314752226591065e-37,0.19918090105056763
225.0,208.0,-0.3661,0.1747,9.4869,-0.0466,0.0188,-0.1132,-1.8808285198607386,-0.0307136382907629,2.9359183311462402,-1.701880931854248,0.012053157202899456,2.084801197052002,5.0653483150298975,-0.09553410857915878,0.13939794898033142,-1.5455663839923304,4.711390283773653e-05,-0.007230768911540508,0.12746404111385345,2.8985034372652763e-09,-0.004036972299218178,0.9644855260848999,-1.0425660574576639e-42,0.16922912001609802
225.0,208.0,-0.3661,0.1747,9.4869,-0.0466,0.0188,-0.1132,-1.8809439144530238,-0.0350128598511219,2.8462090492248535,-1.7018249034881592,0.012176611460745335,2.113353729248047,5.064993190556326,-0.08740127086639404,0.13687768578529358,-1.5455940405475062,4.490585342864506e-05,-0.011565346270799637,0.12750831246376038,1.235677445782235e-11,0.009870859794318676,0.9644694924354553,-0.0,0.07579924166202545
225.0,208.0,-0.3661,0.1747,9.4869,-0.0466,0.0188,-0.1132,-1.881188531915182,-0.03926285356283188,2.858867883682251,-1.7017204761505127,0.013350543566048145,2.0983738899230957,5.064519154816427,-0.08890433609485626,0.14604626595973969,-1.54559833208193,6.230796134332195e-05,-0.00647413544356823,0.12742801010608673,3.4395532534208786e-15,0.0016334144165739417,0.9644855260848999,0.0,0.16349981725215912
225.0,208.0,-0.3661,0.1747,9.4869,-0.0466,0.0188,-0.1132,-1.8813439808287562,-0.04312143102288246,2.8770387172698975,-1.7016322612762451,0.014231868088245392,2.110844850540161,5.064128237753668,-0.10284820199012756,0.12958955764770508,-1.5456064383136194,5.988723205518909e-05,-0.01831454411149025,0.1274358183145523,1.4663354618111167e-17,0.008107204921543598,0.9645383954048157,0.0,0.15476219356060028
225.0,208.0,-0.3661,0.1747,9.4869,-0.0466,0.0188,-0.1132,-1.8816081486144007,-0.04485346004366875,2.8771250247955322,-1.7015845775604248,0.018817858770489693,2.0922775268554688,5.063469308405676,-0.12836913764476776,0.12971460819244385,-1.5455902258502405,5.615214831777848e-05,0.001695091719739139,0.12746818363666534,4.081599140227172e-21,0.019016701728105545,0.9644978046417236,0.0,0.13896602392196655
225.0,208.0,-0.3661,0.1747,9.4869,-0.0466,0.0188,-0.1132,-1.8818003139891566,-0.045939747244119644,2.8579959869384766,-1.7014563083648682,0.021580642089247704,2.1165883541107178,5.0629126010234735,-0.13762085139751434,0.10684850066900253,-1.5456231276141565,5.3909756388748065e-05,0.0018185406224802136,0.12749232351779938,1.7400496632138773e-23,0.0015929872170090675,0.9645383954048157,0.0,0.1456904113292694
225.0,208.0,-0.3661,0.1747,9.4869,-0.0466,0.0188,-0.1132,-1.8819757900633753,-0.047613371163606644,2.8285069465637207,-1.7014250755310059,0.023649848997592926,2.0618858337402344,5.062328326493063,-0.13378779590129852,0.1257786899805069,-1.5456064383136194,5.1839600928360596e-05,4.304398316890001e-06,0.12744399905204773,7.418103442349943e-26,0.006457292474806309,0.964465856552124,0.0,0.09663626551628113
225.0,208.0,-0.3661,0.1747,9.4869,-0.0466,0.0188,-0.1132,-1.8821989498534144,-0.05179445818066597,2.8685896396636963,-1.7012401819229126,0.02841213345527649,2.1160976886749268,5.061604308872976,-0.12382818013429642,0.12161306291818619,-1.5456026236163538,4.901621650788002e-05,-0.003221917897462845,0.1274845153093338,2.0648565999990553e-29,-0.0011664119083434343,0.9644978046417236,0.0,0.14373795688152313
227.0,214.0,-0.6353,-0.1442,9.6389,0.0267,-0.0747,-0.1069,-1.8824597797789515,-0.056168556213378906,2.7909507751464844,-1.7011287212371826,0.03132493421435356,2.1653122901916504,5.061116117029943,-0.12319380044937134,0.12851470708847046,-1.5455825964557093,4.729880311060697e-05,0.0034907162189483643,0.12743571400642395,8.802807583314958e-32,0.010016432963311672,0.9644937515258789,0.0,0.1136423647403717
227.0,214.0,-0.6353,-0.1442,9.6389,0.0267,-0.0747,-0.1069,-1.8828393421568812,-0.0633738785982132,2.8340229988098145,-1.7009202241897583,0.03648144751787186,2.1316311359405518,5.0603123781974695,-0.1384374350309372,0.12047487497329712,-1.5455663839923304,4.493719097808935e-05,-0.006105454172939062,0.12752801179885864,2.4502941544572423e-35,0.00644651660695672,0.9645178914070129,0.0,0.12421790510416031
227.0,214.0,-0.6353,-0.1442,9.6389,0.0267,-0.0747,-0.1069,-1.8830672703185023,-0.06787428259849548,2.8358988761901855,-1.7007806301116943,0.041143376380205154,2.1374244689941406,5.059751975327291,-0.15127521753311157,0.12269248068332672,-1.5455544630633753,5.749777119490318e-05,0.0019830057863146067,0.12745213508605957,1.044598837061952e-37,0.015259225852787495,0.9644371867179871,0.0,0.11086621880531311
227.0,214.0,-0.6353,-0.1442,9.6389,0.0267,-0.0747,-0.1069,-1.8833514652647914,-0.0730472132563591,2.7978744506835938,-1.7005643844604492,0.04566699266433716,2.1493277549743652,5.05911352017478,-0.15648707747459412,0.11504773795604706,-1.5455663839923304,5.617422721115872e-05,0.007584018167108297,0.12745584547519684,4.453284480670339e-40,0.012459713965654373,0.9644170999526978,0.0,0.09893554449081421
227.0,214.0,-0.6353,-0.1442,9.6389,0.0267,-0.0747,-0.1069,-1.883794446984762,-0.07968923449516296,2.8351640701293945,-1.7002638578414917,0.05254471302032471,2.154763698577881,5.058195638447561,-0.14865002036094666,0.11456754803657532,-1.5455663839923304,5.366411278373562e-05,0.005253000184893608,0.12743209302425385,1.233142648605839e-43,0.0032326350919902325,0.9644699096679688,0.0,0.19148898124694824
227.0,214.0,-0.6353,-0.1442,9.6389,0.0267,-0.0747,-0.1069,-1.8840862713255824,-0.08136200904846191,2.811723470687866,-1.7000644207000732,0.05805829539895058,2.177002429962158,5.057643699436941,-0.15120616555213928,0.11912419646978378,-1.5456026236163538,5.211050302023068e-05,0.002870638854801655,0.12750045955181122,0.0,0.004413431044667959,0.9644777774810791,0.0,0.14419442415237427
227.0,214.0,-0.6353,-0.1442,9.6389,0.0267,-0.0747,-0.1069,-1.8846069775023402,-0.08088858425617218,2.8021512031555176,-1.6996965408325195,0.06662273406982422,2.1862823963165283,5.05661906579093,-0.17750753462314606,0.0944264605641365,-1.5456107298480433,4.9941747420234606e-05,-0.003977096639573574,0.12748868763446808,0.0,0.0020641640294343233,0.9644535779953003,0.0,0.05392681807279587
227.0,214.0,-0.6353,-0.1442,9.6389,0.0267,-0.0747,-0.1069,-1.8849221668639125,-0.07888003438711166,2.8479223251342773,-1.6993966102600098,0.07252988964319229,2.169466733932495,5.055807935982504,-0.18616598844528198,0.09809152781963348,-1.545591179524557,4.859353430219926e-05,-0.002833256497979164,0.12746815383434296,0.0,-0.009095799177885056,0.9644495248794556,0.0,0.12400795519351959
227.0,214.0,-0.6353,-0.1442,9.6389,0.0267,-0.0747,-0.1069,-1.88543762783193,-0.07996217906475067,2.8058600425720215,-1.6988756656646729,0.08090545982122421,2.1792781352996826,5.0547082898910425,-0.17498821020126343,0.10188984125852585,-1.5456307570086878,4.670237467507832e-05,0.0005808768328279257,0.12744808197021484,0.0,-0.005335893016308546,0.9644535779953003,0.0,0.12547831237316132
227.0,214.0,-0.6353,-0.1442,9.6389,0.0267,-0.0747,-0.1069,-1.8857494793333949,-0.08349543064832687,2.8417112827301025,-1.6986243724822998,0.08286875486373901,2.159060478210449,5.054002094059744,-0.1713237166404724,0.10659990459680557,-1.5455902258502405,4.5521239371737465e-05,-0.00010983319953083992,0.1274198293685913,0.0,0.004045624751597643,0.9644777774810791,0.0,0.11454463005065918
227.0,214.0,-0.6353,-0.1442,9.6389,0.0267,-0.0747,-0.1069,-1.8861338100829066,-0.08894260972738266,2.863072395324707,-1.6982598304748535,0.08345823734998703,2.15582013130188,5.053257602244177,-0.17929190397262573,0.10762229561805725,-1.5456350485431116,4.439845361048356e-05,-0.020197341218590736,0.12747633457183838,0.0,0.0079234903678298,0.9645220637321472,0.0,0.1786462962627411
227.0,214.0,-0.6353,-0.1442,9.6389,0.0267,-0.0747,-0.1069,-1.8866974316039027,-0.09613118320703506,2.7613444328308105,-1.6977722644805908,0.08501908928155899,2.192565679550171,5.052135157376089,-0.18708986043930054,0.10675842314958572,-1.5455825964557093,4.2814375774469227e-05,-0.015968961641192436,0.12746000289916992,0.0,0.002317675855010748,0.9645019173622131,0.0,0.09979347884654999
227.0,214.0,-0.6353,-0.1442,9.6389,0.0267,-0.0747,-0.1069,-1.8870445690550746,-0.0990632027387619,2.7836155891418457,-1.6974159479141235,0.08272025734186172,2.188182830810547,5.051485913782873,-0.17833633720874786,0.0921044573187828,-1.54559833208193,4.181970143690705e-05,-0.005379005800932646,0.12744399905204773,0.0,0.007076490670442581,0.9644617438316345,0.0,0.18553781509399414
227.0,214.0,-0.6353,-0.1442,9.6389,0.0267,-0.0747,-0.1069,-1.8875686130919398,-0.10248805582523346,2.822909116744995,-1.6968317031860352,0.08477149903774261,2.168062210083008,5.050483691483297,-0.17355982959270477,0.10117467492818832,-1.54559833208193,3.035259578609839e-05,-0.02623807266354561,0.1274804174900055,0.0,-0.005861304234713316,0.9644699096679688,0.0,0.1657486855983734
227.0,214.0,-0.6353,-0.1442,9.6389,0.0267,-0.0747,-0.1069,-1.8879887066283167,-0.10021791607141495,2.843390464782715,-1.696503758430481,0.08708102256059647,2.183806896209717,5.0496888039405725,-0.1900259554386139,0.09376364946365356,-1.5456188360797327,7.6165197242517024e-06,-0.005508536007255316,0.12743616104125977,0.0,0.007900459691882133,0.9645060896873474,0.0,0.19755244255065918
227.0,214.0,-0.6353,-0.1442,9.6389,0.0267,-0.0747,-0.1069,-1.888343950311178,-0.09945939481258392,2.7926509380340576,-1.6961795091629028,0.09309115260839462,2.1583259105682373,5.048930185824194,-0.1973731517791748,0.09719233214855194,-1.545586887990133,3.2470421018615525e-08,-0.023160014301538467,0.1274074763059616,0.0,0.017460018396377563,0.9644858837127686,0.0,0.16131435334682465
227.0,214.0,-0.6353,-0.1442,9.6389,0.0267,-0.0747,-0.1069,-1.888956209222311,-0.09635163098573685,2.8188741207122803,-1.6955796480178833,0.10083434730768204,2.2138473987579346,5.047766792565145,-0.191208153963089,0.08080272376537323,-1.545553986226217,9.03826059134305e-12,-0.012562276795506477,0.12747637927532196,0.0,-0.011647649109363556,0.9644900560379028,0.0,0.15256667137145996
227.0,214.0,-0.6353,-0.1442,9.6389,0.0267,-0.0747,-0.1069,-1.889355798760885,-0.09396187961101532,2.774075746536255,-1.695167899131775,0.10767955332994461,2.2315704822540283,5.0469683585460565,-0.1879558116197586,0.08093143254518509,-1.5456269423114222,3.853152877059812e-14,-0.021614091470837593,0.12741972506046295,0.0,-0.021170174703001976,0.9644454121589661,0.0,0.17295938730239868
227.0,214.0,-0.6353,-0.1442,9.6389,0.0267,-0.0747,-0.1069,-1.889963766137594,-0.09450022131204605,2.790505886077881,-1.6944714784622192,0.11726856976747513,2.207146167755127,5.045773136406698,-0.19617828726768494,0.07924562692642212,-1.5455787817584437,1.072539339438813e-17,-0.017124854028224945,0.12742386758327484,0.0,0.0024926853366196156,0.9645138382911682,0.0,0.20518338680267334
230.0,232.0,-0.4522,-0.1741,9.7478,0.048,-0.1038,-0.1127,-1.8903876743712367,-0.09873408824205399,2.818681001663208,-1.6940233707427979,0.12460149824619293,2.2712912559509277,5.044983643084326,-0.19761109352111816,0.06719505786895752,-1.5456226507769983,4.57240336395253e-20,-0.02073083445429802,0.12746043503284454,0.0,-0.0010074286255985498,0.9645220637321472,0.0,0.16772428154945374
230.0,232.0,-0.4522,-0.1741,9.7478,0.048,-0.1038,-0.1127,-1.8909951649107875,-0.11243866384029388,2.7787249088287354,-1.6932592391967773,0.1315980851650238,2.231170177459717,5.043822335987844,-0.1888427734375,0.08864354342222214,-1.5455620924579065,1.2727453445843217e-23,-0.03224235028028488,0.12743617594242096,0.0,-0.00011269189417362213,0.9644777774810791,0.0,0.1876690685749054
230.0,232.0,-0.4522,-0.1741,9.7478,0.048,-0.1038,-0.1127,-1.8914467296996058,-0.12140343338251114,2.7433714866638184,-1.6927436590194702,0.13461202383041382,2.211171865463257,5.0430717943008325,-0.20063082873821259,0.0856456309556961,-1.5455744902240198,5.425912879709635e-26,-0.03467131033539772,0.12741577625274658,0.0,-0.004882512614130974,0.9644982218742371,0.0,0.13494986295700073
230.0,232.0,-0.4522,-0.1741,9.7478,0.048,-0.1038,-0.1127,-1.8918620548644007,-0.1245298832654953,2.7292838096618652,-1.6921916007995605,0.13784578442573547,2.271841049194336,5.042247015028753,-0.21062107384204865,0.0772380381822586,-1.5455825964557093,2.3131518819571434e-28,-0.02633173018693924,0.12744808197021484,0.0,-0.014515416696667671,0.9645060896873474,0.0,0.2081558257341385
230.0,232.0,-0.4522,-0.1741,9.7478,0.048,-0.1038,-0.1127,-1.8925415478148402,-0.12386590242385864,2.787121295928955,-1.6913233995437622,0.13862648606300354,2.21650767326355,5.041027384787359,-0.1955796778202057,0.06692919135093689,-1.5455940405475062,6.438743270259011e-32,-0.028268620371818542,0.12744396924972534,0.0,0.00036895222729071975,0.9644175171852112,0.0,0.18265587091445923
230.0,232.0,-0.4522,-0.1741,9.7478,0.048,-0.1038,-0.1127,-1.8930055103697718,-0.11871596425771713,2.7676987648010254,-1.690723180770874,0.14386101067066193,2.263356924057007,5.040344911604681,-0.1819203794002533,0.08882856369018555,-1.5456026236163538,2.7449370366346927e-34,-0.005969601683318615,0.12743981182575226,0.0,-0.009045890532433987,0.9644299149513245,0.0,0.15568020939826965
230.0,232.0,-0.4522,-0.1741,9.7478,0.048,-0.1038,-0.1127,-1.8937293491759242,-0.11335301399230957,2.767272472381592,-1.689831256866455,0.15199410915374756,2.263099431991577,5.039266693383016,-0.18099132180213928,0.09689405560493469,-1.5455940405475062,7.640631444514552e-38,-0.021301422268152237,0.12747594714164734,0.0,0.004569378215819597,0.9644454121589661,0.0,0.19331184029579163
230.0,232.0,-0.4522,-0.1741,9.7478,0.048,-0.1038,-0.1127,-1.894189020196432,-0.11106874793767929,2.7777600288391113,-1.6892030239105225,0.15786200761795044,2.2724719047546387,5.038512009173193,-0.1837795525789261,0.10155826061964035,-1.5456226507769983,3.2573182803230373e-40,-0.0270346961915493,0.12738381326198578,0.0,-0.0037378440611064434,0.9644699096679688,0.0,0.20523934066295624
230.0,232.0,-0.4522,-0.1741,9.7478,0.048,-0.1038,-0.1127,-1.8948241672911585,-0.10937993228435516,2.761770248413086,-1.6882832050323486,0.16169807314872742,2.271087646484375,5.0374202010925195,-0.1720804125070572,0.09994541853666306,-1.5455902258502405,9.10844001811131e-44,-0.015326851978898048,0.12752816081047058,0.0,0.016641812399029732,0.9645060896873474,0.0,0.2093300223350525
230.0,232.0,-0.4522,-0.1741,9.7478,0.048,-0.1038,-0.1127,-1.8952957592406214,-0.1096002385020256,2.8551785945892334,-1.6875872611999512,0.16782861948013306,2.2963509559631348,5.036755668907919,-0.17101848125457764,0.09911084920167923,-1.5456345717059534,-8.776750291872304e-06,-0.021748539060354233,0.12746000289916992,0.0,-0.007327423430979252,0.9644818305969238,0.0,0.20741213858127594
230.0,232.0,-0.4522,-0.1741,9.7478,0.048,-0.1038,-0.1127,-1.8957511387267054,-0.11331735551357269,2.8574891090393066,-1.6868833303451538,0.16710041463375092,2.2710928916931152,5.036047684937277,-0.18559536337852478,0.09555214643478394,-1.5455787817584437,-5.024961865274236e-06,-0.016380686312913895,0.12745584547519684,0.0,0.0019035562872886658,0.9644858837127686,0.0,0.16194115579128265
230.0,232.0,-0.4522,-0.1741,9.7478,0.048,-0.1038,-0.1127,-1.8964830837645472,-0.1236029714345932,2.7833399772644043,-1.6858348846435547,0.165909081697464,2.266691207885742,5.03491501787261,-0.19127076864242554,0.08445082604885101,-1.5456469694720667,-1.3987166980200527e-09,-0.017287250608205795,0.12742801010608673,0.0,-0.014824111014604568,0.964474081993103,0.0,0.21986302733421326
230.0,232.0,-0.4522,-0.1741,9.7478,0.048,-0.1038,-0.1127,-1.8969713650145472,-0.12931814789772034,2.7491722106933594,-1.685227394104004,0.16553866863250732,2.2749757766723633,5.034227746516027,-0.18109145760536194,0.09241607785224915,-1.5456426779376429,-5.9629484509826636e-12,-0.02004346437752247,0.1274845153093338,0.0,0.0005390695296227932,0.9644417762756348,0.0,0.18236185610294342
230.0,232.0,-0.4522,-0.1741,9.7478,0.048,-0.1038,-0.1127,-1.897715230981344,-0.13416904211044312,2.764228582382202,-1.6841955184936523,0.17063792049884796,2.2740297317504883,5.033172893315115,-0.16527198255062103,0.09420587122440338,-1.5455620924579065,-1.6598087057480846e-15,-0.031339094042778015,0.12748000025749207,0.0,-0.0030235217418521643,0.964433491230011,0.0,0.22399869561195374
230.0,232.0,-0.4522,-0.1741,9.7478,0.048,-0.1038,-0.1127,-1.8981944523253382,-0.1296677142381668,2.8065571784973145,-1.6834185123443604,0.1749185025691986,2.279444694519043,5.032589155226507,-0.16205839812755585,0.10155326128005981,-1.5456469694720667,-7.076025560217494e-18,-0.040565140545368195,0.12743207812309265,0.0,-0.0006028572097420692,0.9644257426261902,0.0,0.16556337475776672
230.0,232.0,-0.4522,-0.1741,9.7478,0.048,-0.1038,-0.1127,-1.8986898861327113,-0.12459103763103485,2.809640645980835,-1.6826786994934082,0.1844281703233719,2.326655149459839,5.0319308815296075,-0.15723071992397308,0.10632719099521637,-1.5455744902240198,-3.016620742112628e-20,-0.029400460422039032,0.12744399905204773,0.0,-0.004897078964859247,0.9644097685813904,0.0,0.21274861693382263
230.0,232.0,-0.4522,-0.1741,9.7478,0.048,-0.1038,-0.1127,-1.8993970356383265,-0.11435149610042572,2.8812007904052734,-1.6815664768218994,0.19261983036994934,2.347663402557373,5.0310473320777795,-0.13723152875900269,0.10957641899585724,-1.5456064383136194,-8.396874500026732e-24,-0.0254219938069582,0.12751244008541107,0.0,0.008172888308763504,0.9644379615783691,0.0,0.19679710268974304
230.0,232.0,-0.4522,-0.1741,9.7478,0.048,-0.1038,-0.1127,-1.8999372921385707,-0.10988854616880417,2.813840389251709,-1.6808146238327026,0.19400401413440704,2.306976795196533,5.03052898028449,-0.11695561558008194,0.11137370765209198,-1.5456226507769983,-3.579719208359151e-26,-0.038488030433654785,0.12744808197021484,0.0,0.0012070145457983017,0.9644859433174133,0.0,0.20709964632987976
243.0,239.0,0.1956,0.1944,9.6084,0.017,-0.0519,-0.1008,-1.9006806812682093,-0.11523779481649399,2.865354061126709,-1.6796791553497314,0.19588027894496918,2.2926859855651855,5.02988080957488,-0.11059381812810898,0.1400785893201828,-1.545615021382467,-9.964280049773461e-30,-0.02218073420226574,0.12744399905204773,0.0,-0.004554592538625002,0.964481770992279,0.0,0.20166611671447754
243.0,239.0,0.1956,0.1944,9.6084,0.017,-0.0519,-0.1008,-1.9011479816832484,-0.1257064789533615,2.8116443157196045,-1.6788262128829956,0.1958368569612503,2.341160297393799,5.02941923120574,-0.12288633733987808,0.12832866609096527,-1.5456469694720667,-4.2479288982254193e-32,-0.025129325687885284,0.12752407789230347,0.0,0.008754231035709381,0.9644577503204346,0.0,0.1811949759721756
243.0,239.0,0.1956,0.1944,9.6084,0.017,-0.0519,-0.1008,-1.901963850060934,-0.14391250908374786,2.8078560829162598,-1.6776903867721558,0.19774632155895233,2.3166251182556152,5.028643446951666,-0.13623520731925964,0.11609427630901337,-1.5455825964557093,-1.1824265675990697e-35,-0.03247309476137161,0.1274116188287735,0.0,-0.009336206130683422,0.9644535779953003,0.0,0.2388763427734375
243.0,239.0,0.1956,0.1944,9.6084,0.017,-0.0519,-0.1008,-1.9025598965086878,-0.154237300157547,2.7691574096679688,-1.6768467426300049,0.20120663940906525,2.3213915824890137,5.028099137335577,-0.13243305683135986,0.11100095510482788,-1.5456388632403772,-5.040870226498392e-38,-0.01798905059695244,0.12742380797863007,0.0,-0.004465585574507713,0.9644417762756348,0.0,0.23359492421150208
243.0,239.0,0.1956,0.1944,9.6084,0.017,-0.0519,-0.1008,-1.9031435451903285,-0.16056415438652039,2.782625913619995,-1.6759905815124512,0.20360548794269562,2.293178081512451,5.027651506453314,-0.1208411231637001,0.11800574511289597,-1.545615021382467,-2.149003298919253e-40,-0.02014297991991043,0.12747633457183838,0.0,0.0005868820007890463,0.9644179344177246,0.0,0.2634512782096863
243.0,239.0,0.1956,0.1944,9.6084,0.017,-0.0519,-0.1008,-1.904062410394186,-0.1542346179485321,2.8037335872650146,-1.6746976375579834,0.21753381192684174,2.3594393730163574,5.0270283100898645,-0.0935656875371933,0.13737428188323975,-1.5455902258502405,-6.025583396596713e-44,-0.019943654537200928,0.12745216488838196,0.0,-0.0018321662209928036,0.9644539952278137,0.0,0.21296973526477814
243.0,239.0,0.1956,0.1944,9.6084,0.017,-0.0519,-0.1008,-1.9046985111632289,-0.14627186954021454,2.785611629486084,-1.6738864183425903,0.22647304832935333,2.374598979949951,5.026683109789648,-0.0792878121137619,0.1466350108385086,-1.5456388632403772,-0.0,-0.02703155390918255,0.12744402885437012,0.0,0.0034540416672825813,0.9644458293914795,0.0,0.19376398622989655
243.0,239.0,0.1956,0.1944,9.6084,0.017,-0.0519,-0.1008,-1.9056574306883753,-0.13404881954193115,2.8810949325561523,-1.6724573373794556,0.23692916333675385,2.38618803024292,5.0261882422264,-0.07107529044151306,0.14697015285491943,-1.5456469694720667,-0.0,-0.03425750881433487,0.12750427424907684,0.0,-0.0019026859663426876,0.9644699096679688,0.0,0.19685405492782593
243.0,239.0,0.1956,0.1944,9.6084,0.017,-0.0519,-0.1008,-1.9062572918333949,-0.1328858882188797,2.8902101516723633,-1.6715704202651978,0.24148812890052795,2.3530592918395996,5.025854396611013,-0.07186388224363327,0.14634518325328827,-1.5456064383136194,-0.0,-0.037612516433000565,0.12740376591682434,0.0,-0.010650191456079483,0.9644659161567688,0.0,0.21952441334724426
243.0,239.0,0.1956,0.1944,9.6084,0.017,-0.0519,-0.1008,-1.9068647823729457,-0.14465245604515076,2.83271861076355,-1.6706137657165527,0.24121098220348358,2.375683546066284,5.02555068114356,-0.0773046612739563,0.1649017035961151,-1.5455945173846644,-0.0,-0.020458687096834183,0.12745214998722076,0.0,-0.006748781073838472,0.9644978046417236,0.0,0.1929878294467926
