ramyac6/ROB537/final_project/csv/all/bad_162.csv
tof_0,tof_1,accelx,accely,accelz,gyrox,gyroy,gyroz,shoulder_lift_joint_position,shoulder_lift_joint_velocity,shoulder_lift_joint_effort,elbow_joint_position,elbow_joint_velocity,elbow_joint_effort,wrist_1_joint_position,wrist_1_joint_velocity,wrist_1_joint_effort,wrist_2_joint_position,wrist_2_joint_velocity,wrist_2_joint_effort,wrist_3_joint_position,wrist_3_joint_velocity,wrist_3_joint_effort,shoulder_pan_joint_position,shoulder_pan_joint_velocity,shoulder_pan_joint_effort
549.0,1059.0,-0.1944,-0.6784,9.5336,-0.0302,0.0252,-0.1194,-1.741345068017477,0.0,2.2257468700408936,-2.2940855026245117,-0.0,1.4287370443344116,5.51962302902297,0.0,0.2756722569465637,-1.521313492451803,-0.0,-0.011882463470101357,0.9287998676300049,0.0,-0.004815220832824707,0.732389509677887,0.0,-0.04018622264266014
549.0,1059.0,-0.1944,-0.6784,9.5336,-0.0302,0.0252,-0.1194,-1.741340776483053,0.0,2.1945877075195312,-2.2941060066223145,-0.0,1.485408067703247,5.519610631256857,0.0,0.28434300422668457,-1.5213497320758265,-0.0,-0.0028860727325081825,0.9287919998168945,0.0,0.012284900061786175,0.7324216961860657,0.0,0.04394645243883133
549.0,1059.0,-0.1944,-0.6784,9.5336,-0.0302,0.0252,-0.1194,-1.7412921390929164,0.0,2.200032949447632,-2.29414963722229,-0.0,1.4513628482818604,5.51964299657897,0.0,0.277115136384964,-1.5213497320758265,-0.0,0.0013448442332446575,0.9287440180778503,0.0,-0.0018192315474152565,0.7323936223983765,0.0,-0.009785988368093967
549.0,1059.0,-0.1944,-0.6784,9.5336,-0.0302,0.0252,-0.1194,-1.7412964306273402,0.0,2.159942388534546,-2.2941412925720215,-0.0,1.448462963104248,5.51958196142272,0.0,0.29106205701828003,-1.5213454405414026,-0.0,-0.003187705995514989,0.92881178855896,0.0,-0.002654406940564513,0.732349157333374,0.0,0.02467108890414238
549.0,1059.0,-0.1944,-0.6784,9.5336,-0.0302,0.0252,-0.1194,-1.741356988946432,0.0,2.1625797748565674,-2.2941536903381348,-0.0,1.46571683883667,5.5196507451827905,0.0,0.2842075824737549,-1.5213373343097132,-0.0,-0.023059304803609848,0.9287879467010498,0.0,-0.006185856647789478,0.7323774695396423,0.0,-0.04109225049614906
549.0,1059.0,-0.1944,-0.6784,9.5336,-0.0302,0.0252,-0.1194,-1.7412520847716273,0.0,2.1939804553985596,-2.2941248416900635,-0.0,1.4309461116790771,5.519634651928701,0.0,0.2767610549926758,-1.5213335196124476,-0.0,-0.01522437110543251,0.9287317991256714,0.0,-0.0036213197745382786,0.7323734164237976,0.0,-0.011898158118128777
549.0,1059.0,-0.1944,-0.6784,9.5336,-0.0302,0.0252,-0.1194,-1.7412921390929164,0.0,2.179483413696289,-2.2941248416900635,-0.0,1.4411762952804565,5.519638764649191,0.0,0.28825387358665466,-1.5213454405414026,-0.0,-0.006563540548086166,0.9287599921226501,0.0,-0.0034754546359181404,0.7324055433273315,0.0,-0.02458181604743004
549.0,1059.0,-0.1944,-0.6784,9.5336,-0.0302,0.0252,-0.1194,-1.7413207493224085,0.0,2.165560245513916,-2.2941534519195557,-0.0,1.4509986639022827,5.519602405815878,0.0,0.27832281589508057,-1.5213454405414026,-0.0,-0.015156766399741173,0.9288199543952942,0.0,-0.003748794086277485,0.7323733568191528,0.0,0.0011064326390624046
549.0,1059.0,-0.1944,-0.6784,9.5336,-0.0302,0.0252,-0.1194,-1.7412477932372035,0.0,2.17052960395813,-2.294165849685669,-0.0,1.4333457946777344,5.519626962929525,0.0,0.28408604860305786,-1.5213173071490687,-0.0,-0.025480547919869423,0.9288761615753174,0.0,0.000984742073342204,0.7323815822601318,0.0,-0.02541130594909191
8190.0,1022.0,-0.1376,-0.6508,9.4379,-0.0356,0.0321,-0.1203,-1.7413207493224085,0.0,2.2008228302001953,-2.2941577434539795,-0.0,1.3975648880004883,5.519642936974325,0.0,0.2810342311859131,-1.5213497320758265,-0.0,-0.01675659976899624,0.928784191608429,0.0,-0.0019706347957253456,0.732381284236908,0.0,0.0025634625926613808
8190.0,1022.0,-0.1376,-0.6508,9.4379,-0.0356,0.0321,-0.1203,-1.7412883243956507,0.0,2.2017507553100586,-2.2941174507141113,-0.0,1.486142873764038,5.5195984719093225,0.0,0.27649837732315063,-1.5213292280780237,-0.0,-0.01256328821182251,0.9288080334663391,0.0,0.007622856646776199,0.7323976755142212,0.0,0.0005915542133152485
8190.0,1022.0,-0.1376,-0.6508,9.4379,-0.0356,0.0321,-0.1203,-1.7413245640196742,0.0,2.2119386196136475,-2.294105291366577,-0.0,1.4280872344970703,5.519602405815878,0.0,0.2804073095321655,-1.5213378111468714,-0.0,-0.013604789972305298,0.92877596616745,0.0,0.00387916574254632,0.7323651313781738,0.0,-0.03159629926085472
8190.0,1022.0,-0.1376,-0.6508,9.4379,-0.0356,0.0321,-0.1203,-1.7412964306273402,0.0,2.160804510116577,-2.294145345687866,-0.0,1.4337620735168457,5.519622790604391,0.0,0.29106438159942627,-1.5212886969195765,-0.0,-0.014684734866023064,0.9287678599357605,0.0,0.005358257330954075,0.7323774099349976,0.0,-0.016619719564914703
8190.0,1022.0,-0.1376,-0.6508,9.4379,-0.0356,0.0321,-0.1203,-1.7412601910033167,0.0,2.1617650985717773,-2.294161796569824,-0.0,1.459658145904541,5.519606458931722,0.0,0.2835884094238281,-1.5213292280780237,-0.0,-0.014975125901401043,0.928796112537384,0.0,-0.005165043752640486,0.7323853969573975,0.0,0.045302871614694595
8190.0,1022.0,-0.1376,-0.6508,9.4379,-0.0356,0.0321,-0.1203,-1.7412640057005824,0.0,2.171318531036377,-2.2941691875457764,-0.0,1.4521377086639404,5.5195860145385645,0.0,0.2827637195587158,-1.521353546773092,-0.0,-0.012080298736691475,0.9287719130516052,0.0,0.003550775581970811,0.7323853969573975,0.0,-0.005326392129063606
8190.0,1022.0,-0.1376,-0.6508,9.4379,-0.0356,0.0321,-0.1203,-1.7413364849486292,0.0,2.2123615741729736,-2.294110059738159,-0.0,1.4348231554031372,5.519687163620748,0.0,0.29060742259025574,-1.5213335196124476,-0.0,-0.021186117082834244,0.9287998676300049,0.0,0.009604203514754772,0.7323973178863525,0.0,0.009406505152583122
8190.0,1022.0,-0.1376,-0.6508,9.4379,-0.0356,0.0321,-0.1203,-1.7413083515562953,0.0,2.2175092697143555,-2.2941205501556396,-0.0,1.468045711517334,5.519663083344259,0.0,0.2855079770088196,-1.5213735739337366,-0.0,-0.0089093167334795,0.9287358522415161,0.0,0.0033407793380320072,0.7323573231697083,0.0,-0.02116425707936287
8190.0,1022.0,-0.1376,-0.6508,9.4379,-0.0356,0.0321,-0.1203,-1.741340776483053,0.0,2.206537961959839,-2.2941248416900635,-0.0,1.5027258396148682,5.519618856697836,0.0,0.275961309671402,-1.5213258902179163,-0.0,-0.023450450971722603,0.9287756681442261,0.0,0.007494564168155193,0.7323210835456848,0.0,0.03929723799228668
8190.0,1022.0,-0.1376,-0.6508,9.4379,-0.0356,0.0321,-0.1203,-1.7412802181639613,0.0,2.2081491947174072,-2.2941248416900635,-0.0,1.4319748878479004,5.519614624768057,0.0,0.27960285544395447,-1.5213292280780237,-0.0,-0.014813890680670738,0.9288798570632935,0.0,0.004230627790093422,0.7323532104492188,0.0,-0.016719916835427284
8190.0,1022.0,-0.1376,-0.6508,9.4379,-0.0356,0.0321,-0.1203,-1.741284509698385,0.0,2.1578760147094727,-2.2940938472747803,-0.0,1.4841275215148926,5.519590186863699,0.0,0.2885984182357788,-1.5213335196124476,-0.0,-0.0115729421377182,0.9287920594215393,0.0,0.004064123146235943,0.7323774695396423,0.0,-0.04096658527851105
8190.0,1022.0,-0.1376,-0.6508,9.4379,-0.0356,0.0321,-0.1203,-1.7413245640196742,0.0,2.1622684001922607,-2.2941012382507324,-0.0,1.4657573699951172,5.519598412304678,0.0,0.2763015031814575,-1.5213010946856897,-0.0,-0.008805625140666962,0.9287879467010498,0.0,0.003639881033450365,0.7323614358901978,0.0,-0.004756977781653404
8190.0,1022.0,-0.1376,-0.6508,9.4379,-0.0356,0.0321,-0.1203,-1.7412764034666957,0.0,2.223888397216797,-2.2941370010375977,-0.0,1.451419472694397,5.519586074143209,0.0,0.2821888327598572,-1.5213335196124476,-0.0,-0.007165058050304651,0.9288080334663391,0.0,0.0013315747492015362,0.7323691844940186,0.0,-0.025048984214663506
8190.0,1022.0,-0.1376,-0.6508,9.4379,-0.0356,0.0321,-0.1203,-1.7412802181639613,0.0,2.212508201599121,-2.2941536903381348,-0.0,1.4485292434692383,5.519602525025167,0.0,0.27030321955680847,-1.5213454405414026,-0.0,-0.015958400443196297,0.9288039803504944,0.0,0.010227454826235771,0.7323251962661743,0.0,0.04783390089869499
8190.0,1022.0,-0.1376,-0.6508,9.4379,-0.0356,0.0321,-0.1203,-1.7412964306273402,0.0,2.2275795936584473,-2.294121503829956,-0.0,1.4571707248687744,5.519618677883901,0.0,0.2755163908004761,-1.5213173071490687,-0.0,-0.017656147480010986,0.9287998676300049,0.0,-0.002696910174563527,0.7323815822601318,0.0,0.006942467298358679
8190.0,1022.0,-0.1376,-0.6508,9.4379,-0.0356,0.0321,-0.1203,-1.741300722161764,0.0,2.211977958679199,-2.2941133975982666,-0.0,1.46034836769104,5.519610631256857,0.0,0.2925202548503876,-1.521353546773092,-0.0,-0.004713004920631647,0.9287998676300049,0.0,-0.00017421296797692776,0.7323936223983765,0.0,0.01836763508617878
545.0,1052.0,-0.2931,-0.7268,9.7406,-0.0342,0.0263,-0.1139,-1.741284509698385,0.0,2.1950716972351074,-2.2941741943359375,-0.0,1.470165729522705,5.519614803581991,0.0,0.27949950098991394,-1.5213335196124476,-0.0,-0.016766943037509918,0.9287714958190918,7.510678301514417e-09,0.011678483337163925,0.7323894500732422,0.0,0.0018662037327885628
545.0,1052.0,-0.2931,-0.7268,9.7406,-0.0342,0.0263,-0.1139,-1.7413083515562953,0.0,2.1561434268951416,-2.294145345687866,-0.0,1.4280171394348145,5.519606458931722,0.0,0.2906552255153656,-1.5213292280780237,-0.0,-0.012498191557824612,0.9287838935852051,2.0906249821595058e-12,0.009087488986551762,0.7323733568191528,0.0,-0.008910148404538631
545.0,1052.0,-0.2931,-0.7268,9.7406,-0.0342,0.0263,-0.1139,-1.741345068017477,0.0,2.1546127796173096,-2.294121503829956,-0.0,1.4304322004318237,5.519634651928701,0.0,0.27956345677375793,-1.5213335196124476,-0.0,-0.01604630798101425,0.9287958145141602,8.91266193606046e-15,-0.004467311780899763,0.732357382774353,0.0,-0.03399462252855301
545.0,1052.0,-0.2931,-0.7268,9.7406,-0.0342,0.0263,-0.1139,-1.7413045368590296,0.0,2.232752561569214,-2.2941370010375977,-0.0,1.494206190109253,5.519626962929525,0.0,0.2826738655567169,-1.5213378111468714,-0.0,-0.036736052483320236,0.9287760257720947,2.4808720281580682e-18,0.010705721564590931,0.7323651313781738,0.0,-0.01083155907690525
545.0,1052.0,-0.2931,-0.7268,9.7406,-0.0342,0.0263,-0.1139,-1.741312643090719,0.0,2.210937261581421,-2.2941136360168457,-0.0,1.4563190937042236,5.519618856697836,0.0,0.2774438261985779,-1.5213215986834925,-0.0,-0.010740509256720543,0.9288199543952942,6.905599002141394e-22,-0.0017476824577897787,0.7323452830314636,0.0,-0.04113936051726341
545.0,1052.0,-0.2931,-0.7268,9.7406,-0.0342,0.0263,-0.1139,-1.741340776483053,0.0,2.172116756439209,-2.29412579536438,-0.0,1.405630350112915,5.5196547386939905,0.0,0.27303892374038696,-1.521341625844137,-0.0,-0.017339743673801422,0.9287678599357605,2.943965000551493e-24,0.006223542615771294,0.7323733568191528,0.0,0.02270868979394436
545.0,1052.0,-0.2931,-0.7268,9.7406,-0.0342,0.0263,-0.1139,-1.741300722161764,0.0,2.18821382522583,-2.2941205501556396,-0.0,1.4857761859893799,5.519626962929525,0.0,0.2894527316093445,-1.521341625844137,-0.0,-0.013269523158669472,0.9288079738616943,8.194634505548389e-28,0.0083396527916193,0.7323935627937317,0.0,-0.031550150364637375
545.0,1052.0,-0.2931,-0.7268,9.7406,-0.0342,0.0263,-0.1139,-1.741300722161764,0.0,2.1871814727783203,-2.294128894805908,-0.0,1.4822540283203125,5.519635188370504,0.0,0.28462618589401245,-1.5213292280780237,-0.0,-0.020423606038093567,0.9287879467010498,2.2810063507649806e-31,0.0013435491127893329,0.7323733568191528,0.0,0.011878752149641514
545.0,1052.0,-0.2931,-0.7268,9.7406,-0.0342,0.0263,-0.1139,-1.7412644825377406,0.0,2.1949822902679443,-2.2941536903381348,-0.0,1.4830056428909302,5.519610631256857,0.0,0.2794904410839081,-1.521357838307516,-0.0,-0.02208619937300682,0.9287436604499817,6.349263988242396e-35,-0.0030262507498264313,0.732357382774353,0.0,0.021920662373304367
545.0,1052.0,-0.2931,-0.7268,9.7406,-0.0342,0.0263,-0.1139,-1.7413412533202113,0.0,2.171523332595825,-2.2941372394561768,-0.0,1.4503740072250366,5.519602584629812,0.0,0.28385233879089355,-1.5213454405414026,-0.0,-0.02157432958483696,0.9288278222084045,2.706790713163132e-37,8.424930274486542e-05,0.7323614358901978,0.0,0.00767823401838541
545.0,1052.0,-0.2931,-0.7268,9.7406,-0.0342,0.0263,-0.1139,-1.7412802181639613,0.0,2.1989879608154297,-2.2941205501556396,-0.0,1.4148948192596436,5.519622790604391,0.0,0.28308719396591187,-1.5213335196124476,-0.0,-0.018291756510734558,0.9288485646247864,7.534501582981676e-41,-0.0005015679053030908,0.732329249382019,0.0,0.023128345608711243
545.0,1052.0,-0.2931,-0.7268,9.7406,-0.0342,0.0263,-0.1139,-1.7413164577879847,0.0,2.14239239692688,-2.294128894805908,-0.0,1.439218282699585,5.519622790604391,0.0,0.27459585666656494,-1.5212896505938929,-0.0,-0.01408226415514946,0.928763747215271,2.1019476964872256e-44,-5.8399338740855455e-05,0.7323251962661743,0.0,9.499490261077881e-08
545.0,1052.0,-0.2931,-0.7268,9.7406,-0.0342,0.0263,-0.1139,-1.7413245640196742,0.0,2.1916239261627197,-2.294105291366577,-0.0,1.4377789497375488,5.519590127259054,0.0,0.28348952531814575,-1.5213010946856897,-0.0,-0.01843733713030815,0.9287797808647156,0.0,0.0018542557954788208,0.7323532104492188,0.0,0.002842515939846635
545.0,1052.0,-0.2931,-0.7268,9.7406,-0.0342,0.0263,-0.1139,-1.7413083515562953,0.0,2.1888604164123535,-2.294081449508667,-0.0,1.4809067249298096,5.519634711533346,0.0,0.2853449285030365,-1.5213010946856897,-0.0,-0.024481385946273804,0.9289242029190063,0.0,-0.007240944541990757,0.732397735118866,0.0,-0.020597808063030243
545.0,1052.0,-0.2931,-0.7268,9.7406,-0.0342,0.0263,-0.1139,-1.7412439785399378,0.0,2.1806640625,-2.2941248416900635,-0.0,1.4852221012115479,5.519610631256857,0.0,0.2958260774612427,-1.521313492451803,-0.0,-0.02052074857056141,0.9288638830184937,0.0,-0.00536282267421484,0.7323853969573975,0.0,0.028273705393075943
545.0,1052.0,-0.2931,-0.7268,9.7406,-0.0342,0.0263,-0.1139,-1.7413326702513636,0.0,2.207185983657837,-2.294109344482422,-0.0,1.4315708875656128,5.519635188370504,0.0,0.2793855667114258,-1.5213497320758265,-0.0,-0.027646979317069054,0.9288240671157837,0.0,-0.001966542098671198,0.7323973178863525,0.0,0.01967160776257515
545.0,1052.0,-0.2931,-0.7268,9.7406,-0.0342,0.0263,-0.1139,-1.7412764034666957,0.0,2.1956071853637695,-2.2941691875457764,-0.0,1.47383713722229,5.519622790604391,0.0,0.2797624468803406,-1.5213378111468714,-0.0,-0.020457398146390915,0.9287600517272949,0.0,0.007078569382429123,0.7323774099349976,0.0,-0.018871231004595757
522.0,8190.0,-0.1807,-0.6718,9.6473,-0.0312,0.0229,-0.1119,-1.7413326702513636,0.0,2.15181565284729,-2.294132947921753,-0.0,1.4364041090011597,5.519647109299459,0.0,0.28339993953704834,-1.5213454405414026,-0.0,-0.021578192710876465,0.9287920594215393,0.0,0.009626699611544609,0.7323936223983765,0.0,-0.0031388569623231888
522.0,8190.0,-0.1807,-0.6718,9.6473,-0.0312,0.0229,-0.1119,-1.7413326702513636,0.0,2.2244653701782227,-2.294145345687866,-0.0,1.458428144454956,5.519614624768057,0.0,0.2793307602405548,-1.5213497320758265,-0.0,-0.006046695169061422,0.9288159608840942,0.0,0.0011995062232017517,0.732381284236908,0.0,0.027177926152944565
522.0,8190.0,-0.1807,-0.6718,9.6473,-0.0312,0.0229,-0.1119,-1.7413083515562953,0.0,2.210677146911621,-2.2941372394561768,-0.0,1.4662933349609375,5.519618677883901,0.0,0.28040990233421326,-1.5212815443622034,-0.0,-0.015123780816793442,0.9288240671157837,0.0,-0.005259078461676836,0.7324055433273315,0.0,-0.006699131801724434
522.0,8190.0,-0.1807,-0.6718,9.6473,-0.0312,0.0229,-0.1119,-1.7412964306273402,0.0,2.2174417972564697,-2.2941699028015137,-0.0,1.4289703369140625,5.519614803581991,0.0,0.2916673719882965,-1.521357838307516,-0.0,-0.0113103948533535,0.9287838339805603,0.0,0.00936561543494463,0.7323815822601318,0.0,0.0368117019534111
522.0,8190.0,-0.1807,-0.6718,9.6473,-0.0312,0.0229,-0.1119,-1.7412921390929164,0.0,2.1875839233398438,-2.2941205501556396,-0.0,1.4808447360992432,5.519618737488546,0.0,0.28385353088378906,-1.521341625844137,-0.0,-0.020083406940102577,0.9288080334663391,0.0,-0.00725196860730648,0.7323856353759766,0.0,0.03899715840816498
522.0,8190.0,-0.1807,-0.6718,9.6473,-0.0312,0.0229,-0.1119,-1.741288801232809,0.0,2.1887969970703125,-2.294132947921753,-0.0,1.465643286705017,5.519570100098409,0.0,0.28618568181991577,-1.521353546773092,-0.0,-0.013713004067540169,0.9287879467010498,0.0,0.0036699259653687477,0.7323853969573975,0.0,-0.009994889609515667
522.0,8190.0,-0.1807,-0.6718,9.6473,-0.0312,0.0229,-0.1119,-1.741300722161764,0.0,2.188945770263672,-2.2941372394561768,-0.0,1.4835619926452637,5.519586074143209,0.0,0.29151734709739685,-1.5213258902179163,-0.0,-0.014361019246280193,0.9287596940994263,0.0,-0.009864836931228638,0.732389509677887,0.0,-0.007220406085252762
522.0,8190.0,-0.1807,-0.6718,9.6473,-0.0312,0.0229,-0.1119,-1.7413083515562953,0.0,2.1859214305877686,-2.294121503829956,-0.0,1.4811711311340332,5.519606458931722,0.0,0.28126245737075806,-1.5213497320758265,-0.0,-0.011389040388166904,0.92881178855896,1.7795818507693184e-07,-0.007310392335057259,0.7323774695396423,0.0,-0.03815677389502525
522.0,8190.0,-0.1807,-0.6718,9.6473,-0.0312,0.0229,-0.1119,-1.7412921390929164,0.0,2.156428813934326,-2.29414963722229,-0.0,1.4468605518341064,5.519618677883901,0.0,0.28070589900016785,-1.5213454405414026,-0.0,-0.01464113686233759,0.9288001656532288,7.586636319167894e-10,-0.01222019549459219,0.7323573231697083,0.0,-0.037899572402238846
522.0,8190.0,-0.1807,-0.6718,9.6473,-0.0312,0.0229,-0.1119,-1.7412964306273402,0.0,2.1807923316955566,-2.294116497039795,-0.0,1.461538314819336,5.519594299584188,0.0,0.2731335759162903,-1.521369759236471,-0.0,0.001276393886655569,0.928796112537384,2.1117681984605258e-13,-0.0033041476272046566,0.7323573231697083,0.0,0.0026642209850251675
522.0,8190.0,-0.1807,-0.6718,9.6473,-0.0312,0.0229,-0.1119,-1.7413369617857875,0.0,2.159863233566284,-2.2941372394561768,-0.0,1.465843677520752,5.519654798298635,0.0,0.2865646481513977,-1.521313492451803,-0.0,-0.025124836713075638,0.9287478923797607,5.87818498430721e-17,-0.00456669507548213,0.7323651313781738,0.0,0.014920501038432121
522.0,8190.0,-0.1807,-0.6718,9.6473,-0.0312,0.0229,-0.1119,-1.741312643090719,0.0,2.1955366134643555,-2.294097900390625,-0.0,1.4817051887512207,5.519598352700033,0.0,0.2849525511264801,-1.5213497320758265,-0.0,-0.010727028362452984,0.9288077354431152,2.50596227729318e-19,0.0005561909638345242,0.7323614358901978,0.0,0.038420170545578
522.0,8190.0,-0.1807,-0.6718,9.6473,-0.0312,0.0229,-0.1119,-1.7412682972350062,0.0,2.214228630065918,-2.2940895557403564,-0.0,1.5310964584350586,5.519610571652212,0.0,0.2833065688610077,-1.5213335196124476,-0.0,-0.008890029974281788,0.9287280440330505,6.975438183366931e-23,-0.005307051353156567,0.7323532104492188,0.0,-0.014565734192728996
522.0,8190.0,-0.1807,-0.6718,9.6473,-0.0312,0.0229,-0.1119,-1.7413083515562953,0.0,2.237534523010254,-2.294165849685669,-0.0,1.442537784576416,5.519586074143209,0.0,0.2726100981235504,-1.5213974157916468,-0.0,-0.01973392814397812,0.9287838935852051,1.9416387534600315e-26,0.009055253118276596,0.732349157333374,0.0,-0.04873357713222504
522.0,8190.0,-0.1807,-0.6718,9.6473,-0.0312,0.0229,-0.1119,-1.741312643090719,0.0,2.1879162788391113,-2.2940897941589355,-0.0,1.4525837898254395,5.519598412304678,0.0,0.28289732336997986,-1.521341625844137,-0.0,-0.018863946199417114,0.9288039207458496,5.404622850843452e-30,-0.005785725079476833,0.732312798500061,0.0,0.000609207374509424
522.0,8190.0,-0.1807,-0.6718,9.6473,-0.0312,0.0229,-0.1119,-1.7413326702513636,0.0,2.174527645111084,-2.294132947921753,-0.0,1.435086965560913,5.519634711533346,0.0,0.27191656827926636,-1.5213173071490687,-0.0,-0.011287886649370193,0.9287477731704712,2.304075309850433e-32,-0.005732918623834848,0.7323411703109741,0.0,-0.011415245942771435
522.0,8190.0,-0.1807,-0.6718,9.6473,-0.0312,0.0229,-0.1119,-1.7412964306273402,0.0,2.1897971630096436,-2.294149398803711,-0.0,1.4797813892364502,5.519631135254659,0.0,0.2840385437011719,-1.5213092009173792,-0.0,-0.020755097270011902,0.9288039207458496,6.413478237015318e-36,-0.003961519338190556,0.7323973774909973,0.0,-0.0006928178481757641
528.0,8190.0,-0.2913,-0.6981,9.6927,-0.0345,0.0202,-0.119,-1.7413245640196742,0.0,2.1842565536499023,-2.2941019535064697,-0.0,1.4881503582000732,5.519590604096212,0.0,0.28440871834754944,-1.5213335196124476,-0.0,-0.009539634920656681,0.9287917017936707,1.785215007192816e-39,-0.0006828796467743814,0.732349157333374,0.0,-0.0025715408846735954
528.0,8190.0,-0.2913,-0.6981,9.6927,-0.0345,0.0202,-0.119,-1.7412964306273402,0.0,2.2121779918670654,-2.294149398803711,-0.0,1.4089736938476562,5.5196589706237695,0.0,0.2872357666492462,-1.5213292280780237,-0.0,-0.0033937308471649885,0.9288158416748047,7.610451959748082e-42,-0.01222753431648016,0.7323733568191528,0.0,-0.01984204724431038
528.0,8190.0,-0.2913,-0.6981,9.6927,-0.0345,0.0202,-0.119,-1.7412921390929164,0.0,2.1845908164978027,-2.2941174507141113,-0.0,1.4426352977752686,5.519622790604391,0.0,0.2725311517715454,-1.5213497320758265,-0.0,-0.012143803760409355,0.9288240075111389,2.802596928649634e-45,-0.0021929729264229536,0.7323733568191528,0.0,-0.011190347373485565
528.0,8190.0,-0.2913,-0.6981,9.6927,-0.0345,0.0202,-0.119,-1.7412964306273402,0.0,2.1929636001586914,-2.29414963722229,-0.0,1.4758718013763428,5.519626962929525,0.0,0.28409525752067566,-1.5213292280780237,-0.0,-0.01335630938410759,0.9287998676300049,0.0,-0.006831994280219078,0.7324137687683105,0.0,-0.030891789123415947
528.0,8190.0,-0.2913,-0.6981,9.6927,-0.0345,0.0202,-0.119,-1.741312643090719,0.0,2.1971635818481445,-2.294165849685669,-0.0,1.4500889778137207,5.519598352700033,0.0,0.27949923276901245,-1.5213335196124476,-0.0,-0.018636981025338173,0.9288158416748047,0.0,-0.01117434911429882,0.7323573231697083,0.0,-0.015250195749104023
528.0,8190.0,-0.2913,-0.6981,9.6927,-0.0345,0.0202,-0.119,-1.7413083515562953,0.0,2.217465877532959,-2.294116497039795,-0.0,1.4585920572280884,5.519606458931722,0.0,0.29161062836647034,-1.5213654677020472,-0.0,-0.02579171024262905,0.9287919998168945,0.0,0.00687885656952858,0.7324055433273315,0.0,-0.0230549443513155
528.0,8190.0,-0.2913,-0.6981,9.6927,-0.0345,0.0202,-0.119,-1.7412764034666957,0.0,2.2304296493530273,-2.294128894805908,-0.0,1.4787044525146484,5.519610631256857,0.0,0.2867845296859741,-1.5213292280780237,-0.0,-0.02140740118920803,0.9288719892501831,0.0,0.0026877406053245068,0.7323692440986633,0.0,-0.028101308271288872
528.0,8190.0,-0.2913,-0.6981,9.6927,-0.0345,0.0202,-0.119,-1.7413202724852503,0.0,2.1951005458831787,-2.294128894805908,-0.0,1.5357670783996582,5.519626962929525,0.0,0.2838731110095978,-1.5213616530047815,-0.0,-0.014328337274491787,0.9287998676300049,0.0,-0.010695740580558777,0.7323853969573975,0.0,0.027743404731154442
528.0,8190.0,-0.2913,-0.6981,9.6927,-0.0345,0.0202,-0.119,-1.741300722161764,0.0,2.1623897552490234,-2.2941205501556396,-0.0,1.4672744274139404,5.519622790604391,0.0,0.28047245740890503,-1.5213335196124476,-0.0,-0.026230324059724808,0.9287518262863159,0.0,-0.003393057268112898,0.7324298620223999,0.0,0.011954991146922112
528.0,8190.0,-0.2913,-0.6981,9.6927,-0.0345,0.0202,-0.119,-1.7412764034666957,0.0,2.1900062561035156,-2.2941579818725586,-0.0,1.4551093578338623,5.519618677883901,0.0,0.27992212772369385,-1.5213378111468714,-0.0,-0.015462925657629967,0.9288080334663391,0.0,0.0023084674030542374,0.7323573231697083,0.0,0.018099868670105934
528.0,8190.0,-0.2913,-0.6981,9.6927,-0.0345,0.0202,-0.119,-1.7413283787169398,0.0,2.171522855758667,-2.294149398803711,-0.0,1.465836763381958,5.519622790604391,0.0,0.28284376859664917,-1.5213335196124476,-0.0,-0.018761176615953445,0.9287596940994263,0.0,0.006195264868438244,0.7323973178863525,0.0,0.05981381982564926
528.0,8190.0,-0.2913,-0.6981,9.6927,-0.0345,0.0202,-0.119,-1.7413245640196742,0.0,2.20698618888855,-2.294165849685669,-0.0,1.4921116828918457,5.519622790604391,0.0,0.2775695025920868,-1.5213454405414026,-0.0,-0.015257913619279861,0.9288199543952942,0.0,-0.017325488850474358,0.7323733568191528,0.0,0.004928944632411003
528.0,8190.0,-0.2913,-0.6981,9.6927,-0.0345,0.0202,-0.119,-1.741312643090719,0.0,2.2290000915527344,-2.294105291366577,-0.0,1.4610157012939453,5.519675004273214,0.0,0.28931736946105957,-1.5213454405414026,-0.0,-0.014342395588755608,0.9288161993026733,0.0,0.007297221105545759,0.7323853969573975,0.0,0.012010050937533379
528.0,8190.0,-0.2913,-0.6981,9.6927,-0.0345,0.0202,-0.119,-1.7412597141661585,0.0,2.146514654159546,-2.29414963722229,-0.0,1.4439659118652344,5.519618677883901,0.0,0.28105103969573975,-1.5213335196124476,-0.0,-0.015947844833135605,0.9287998676300049,0.0,-0.0023888712748885155,0.7324054837226868,0.0,0.023479431867599487
528.0,8190.0,-0.2913,-0.6981,9.6927,-0.0345,0.0202,-0.119,-1.7412921390929164,0.0,2.1780595779418945,-2.294109344482422,-0.0,1.4158333539962769,5.519630658417501,0.0,0.2800045311450958,-1.5213530699359339,-0.0,-0.012443305924534798,0.9287879467010498,0.0,0.014717929996550083,0.7323449850082397,0.0,-0.027348089963197708
528.0,8190.0,-0.2913,-0.6981,9.6927,-0.0345,0.0202,-0.119,-1.741312643090719,0.0,2.184054374694824,-2.294145345687866,-0.0,1.4742467403411865,5.519594299584188,0.0,0.28770050406455994,-1.5213411490069788,-0.0,-0.008845895528793335,0.9287400245666504,0.0,-0.011925077065825462,0.732381284236908,0.0,-0.018499519675970078
556.0,8190.0,-0.198,-0.7041,9.6257,-0.0341,0.022,-0.1165,-1.7412682972350062,0.0,2.1975574493408203,-2.294132947921753,-0.0,1.4595667123794556,5.519606458931722,0.0,0.2806353271007538,-1.521353546773092,-0.0,-0.003577649127691984,0.9288648366928101,0.0,0.005945873446762562,0.7323453426361084,0.0,-0.03773324936628342
556.0,8190.0,-0.198,-0.7041,9.6257,-0.0341,0.022,-0.1165,-1.7412964306273402,0.0,2.2159502506256104,-2.2941699028015137,-0.0,1.4320048093795776,5.519606458931722,0.0,0.2929469347000122,-1.521353546773092,-0.0,-0.028907719999551773,0.9288281202316284,0.0,0.003136849030852318,0.7324018478393555,0.0,0.02585478127002716
556.0,8190.0,-0.198,-0.7041,9.6257,-0.0341,0.022,-0.1165,-1.741328855554098,0.0,2.180509090423584,-2.2941412925720215,-0.0,1.4730005264282227,5.519626962929525,7.16044951332151e-07,0.276699960231781,-1.5213654677020472,-0.0,-0.01642451621592045,0.9288281202316284,0.0,-0.006391019560396671,0.7323651313781738,0.0,-0.04073435068130493
556.0,8190.0,-0.198,-0.7041,9.6257,-0.0341,0.022,-0.1165,-1.7413164577879847,0.0,2.1120522022247314,-2.2941019535064697,-0.0,1.4759775400161743,5.519658553391256,1.9931373218540216e-10,0.28919023275375366,-1.5213497320758265,-0.0,-0.01953325979411602,0.9287919998168945,0.0,0.0060951681807637215,0.7323733568191528,0.0,-0.01633569598197937
556.0,8190.0,-0.198,-0.7041,9.6257,-0.0341,0.022,-0.1165,-1.7413083515562953,0.0,2.1705615520477295,-2.2941412925720215,-0.0,1.4516716003417969,5.519670772343435,5.5479712756387536e-14,0.2790413498878479,-1.5213092009173792,-0.0,-0.015534937381744385,0.9287756681442261,0.0,0.006711062975227833,0.7324055433273315,0.0,0.012297961860895157
556.0,8190.0,-0.198,-0.7041,9.6257,-0.0341,0.022,-0.1165,-1.7413002453246058,0.0,2.1991238594055176,-2.2941620349884033,-0.0,1.487978219985962,5.519662606507101,2.365186774579332e-16,0.27764803171157837,-1.5213530699359339,-0.0,-0.013407492078840733,0.9287477135658264,0.0,0.004484464414417744,0.732389509677887,0.0,-0.004824981093406677
556.0,8190.0,-0.198,-0.7041,9.6257,-0.0341,0.022,-0.1165,-1.7413245640196742,0.0,2.2031736373901367,-2.2940938472747803,-0.0,1.4490432739257812,5.519650685578146,6.583584779037246e-20,0.2711837589740753,-1.5213454405414026,-0.0,-0.014086522161960602,0.9288076758384705,0.0,0.006163693033158779,0.732381284236908,0.0,0.027887733653187752
556.0,8190.0,-0.198,-0.7041,9.6257,-0.0341,0.022,-0.1165,-1.7413202724852503,0.0,2.175194501876831,-2.2940897941589355,-0.0,1.4623537063598633,5.519642936974325,1.832565219139844e-23,0.2772943377494812,-1.5214055220233362,-0.0,-0.016612756997346878,0.9288039207458496,0.0,-0.005274694412946701,0.7323692440986633,0.0,-0.014046325348317623
556.0,8190.0,-0.198,-0.7041,9.6257,-0.0341,0.022,-0.1165,-1.7412597141661585,0.0,2.154501438140869,-2.2941174507141113,-0.0,1.433725357055664,5.519622790604391,7.812512324545072e-26,0.2830321192741394,-1.5213773886310022,-0.0,-0.021542951464653015,0.9288158416748047,0.0,-0.007941823452711105,0.7324018478393555,0.0,-0.005845008417963982
556.0,8190.0,-0.198,-0.7041,9.6257,-0.0341,0.022,-0.1165,-1.741255899468893,0.0,2.209444761276245,-2.294116735458374,-0.0,1.4704257249832153,5.519586074143209,2.1746416786031423e-29,0.28146082162857056,-1.5213735739337366,-0.0,-0.019909532740712166,0.9287958145141602,0.0,0.0007566048298031092,0.7324093580245972,0.0,0.008047765120863914
556.0,8190.0,-0.198,-0.7041,9.6257,-0.0341,0.022,-0.1165,-1.7413207493224085,-1.7234702553992065e-08,2.1727454662323,-2.294097900390625,-0.0,1.463592290878296,5.519642936974325,6.053194935247923e-33,0.2846486568450928,-1.5213330427752894,-0.0,-0.007555786520242691,0.9287678599357605,0.0,-0.020719049498438835,0.7324013710021973,0.0,-0.01773768849670887
556.0,8190.0,-0.198,-0.7041,9.6257,-0.0341,0.022,-0.1165,-1.7412644825377406,-3.102185392248047e-12,2.1694788932800293,-2.294097900390625,-0.0,1.4368655681610107,5.519618737488546,2.5805719893069687e-35,0.2829192280769348,-1.521364990864889,-3.307191582280211e-05,-0.022192128002643585,0.9287958145141602,0.0,-0.0020933381747454405,0.7323610186576843,0.0,0.01726335473358631
556.0,8190.0,-0.198,-0.7041,9.6257,-0.0341,0.022,-0.1165,-1.7412644825377406,-7.491411675603861e-18,2.1857361793518066,-2.2941575050354004,-0.0,1.4343236684799194,5.519606458931722,7.183117585261443e-39,0.2832491099834442,-1.5213773886310022,-3.93202317354735e-05,0.0024772430770099163,0.928759753704071,0.0,-0.003914388362318277,0.7324373722076416,0.0,-0.00156217732001096
556.0,8190.0,-0.198,-0.7041,9.6257,-0.0341,0.022,-0.1165,-1.741345068017477,-1.8090879297395615e-23,2.1886954307556152,-2.294109344482422,-0.0,1.4678354263305664,5.519663142948904,1.999652908591514e-42,0.27700042724609375,-1.5213211218463343,0.00011889314919244498,-0.006218926515430212,0.928856611251831,0.0,-0.0025100205093622208,0.7323973178863525,0.0,-0.0016051894053816795
556.0,8190.0,-0.198,-0.7041,9.6257,-0.0341,0.022,-0.1165,-1.7412721119322718,-4.3687337450118266e-29,2.197230100631714,-2.294132947921753,-0.0,1.4787694215774536,5.519651222019949,0.0,0.27965110540390015,-1.5213292280780237,8.597667329013348e-05,-0.012062684632837772,0.9287998676300049,0.0,-0.0039582690224051476,0.732417106628418,0.0,-0.011040819808840752
556.0,8190.0,-0.198,-0.7041,9.6257,-0.0341,0.022,-0.1165,-1.7413164577879847,-7.863567172793604e-33,2.210813283920288,-2.2941060066223145,-0.0,1.4404339790344238,5.519618737488546,0.0,0.27855974435806274,-1.5213616530047815,7.217214442789555e-05,-0.01667121797800064,0.9288525581359863,0.0,0.005843264050781727,0.7324093580245972,-5.8518036638588455e-08,-0.02349770814180374
556.0,8190.0,-0.198,-0.7041,9.6257,-0.0341,0.022,-0.1165,-1.7413083515562953,-1.8989588239316006e-38,2.2066280841827393,-2.294097661972046,-0.0,1.446215271949768,5.51956598737792,0.0,0.2773691713809967,-1.5213330427752894,1.4667634218312742e-07,-0.00729408161714673,0.9288080334663391,0.0,-0.01008590217679739,0.732397735118866,-1.4131419287782138e-13,-0.009824183769524097
546.0,8190.0,-0.2937,-0.7137,9.8429,-0.0321,0.0231,-0.1242,-1.7413083515562953,-4.624284932271896e-44,2.192401170730591,-2.2941174507141113,6.168220778590694e-08,1.4499304294586182,5.5195984719093225,0.0,0.2845028042793274,-1.5213530699359339,4.082789661907782e-11,-0.019533567130565643,0.9287917017936707,0.0,-0.007819847203791142,0.7324216961860657,-3.4125713572029634e-19,0.03550133854150772
546.0,8190.0,-0.2937,-0.7137,9.8429,-0.0321,0.0231,-0.1242,-1.7413245640196742,-0.0,2.2193257808685303,-2.294132947921753,1.1102578925670237e-11,1.4760782718658447,5.519582497864523,-4.103687751921825e-05,0.2874227464199066,-1.5213092009173792,1.7405572968164085e-13,-0.01625748723745346,0.9287958145141602,0.0,0.010828239843249321,0.7323527932167053,-6.142508352536652e-23,-0.014275776222348213
546.0,8190.0,-0.2937,-0.7137,9.8429,-0.0321,0.0231,-0.1242,-1.741300722161764,0.0,2.2275125980377197,-2.294110059738159,0.0006633924786001444,1.439347743988037,5.519574630051412,-5.7923447457142174e-05,0.2970666289329529,-1.5213492552386683,4.844905042947205e-17,-0.00431868014857173,0.9288278222084045,0.0,-7.343734614551067e-05,0.7324175238609314,-1.483343659817893e-28,0.02090628817677498
546.0,8190.0,-0.2937,-0.7137,9.8429,-0.0321,0.0231,-0.1242,-1.7412921390929164,0.0,2.1573081016540527,-2.2941174507141113,0.001126773189753294,1.4955577850341797,5.519590663700857,-7.271952199516818e-05,0.29311007261276245,-1.5213735739337366,1.3485970620707398e-20,-0.01934235356748104,0.9288278222084045,0.0,0.009824302047491074,0.7324336171150208,-3.582100465650065e-34,-0.0358411967754364
546.0,8190.0,-0.2937,-0.7137,9.8429,-0.0321,0.0231,-0.1242,-1.7412883243956507,0.0,2.1826770305633545,-2.294093608856201,0.0013531054137274623,1.5155051946640015,5.519614743977346,-8.74880570336245e-05,0.2769545018672943,-1.5213530699359339,5.749280755034428e-23,-0.014649820514023304,0.9288475513458252,0.0,0.004025365691632032,0.7323689460754395,-6.447653933531963e-38,-0.023293038830161095
546.0,8190.0,-0.2937,-0.7137,9.8429,-0.0321,0.0231,-0.1242,-1.741312643090719,0.0,2.194072961807251,-2.294065475463867,0.002231017919257283,1.4556784629821777,5.519578802376547,-8.320061169797555e-05,0.2876843214035034,-1.5213530699359339,1.6003336146586897e-26,-0.01928439736366272,0.9288445711135864,0.0,0.004306702874600887,0.73245769739151,-1.555441295400547e-43,-0.0053369030356407166
546.0,8190.0,-0.2937,-0.7137,9.8429,-0.0321,0.0231,-0.1242,-1.7413002453246058,0.0,2.1935482025146484,-2.2940289974212646,0.0028532634023576975,1.4647243022918701,5.519546496659078,-0.0002934382646344602,0.28275811672210693,-1.5213330427752894,4.4545871880343024e-30,0.0035631994251161814,0.9287757277488708,0.0,0.007688277401030064,0.7324253916740417,0.00019454985158517957,0.035697199404239655
546.0,8190.0,-0.2937,-0.7137,9.8429,-0.0321,0.0231,-0.1242,-1.741312166253561,0.0,2.1928300857543945,-2.2940292358398438,0.003594266250729561,1.4796316623687744,5.519566583424368,-0.00024551356909796596,0.28522515296936035,-1.5214093367206019,1.2399509305106968e-33,-0.01881934329867363,0.9288035035133362,0.0,-0.003124646842479706,0.7324374318122864,0.00023997339303605258,-0.0012605013325810432
546.0,8190.0,-0.2937,-0.7137,9.8429,-0.0321,0.0231,-0.1242,-1.7413369617857875,0.0,2.171835422515869,-2.2939932346343994,0.004086650907993317,1.4723613262176514,5.5195262906844995,-0.0002640646416693926,0.29499804973602295,-1.5213773886310022,5.286104968715004e-36,-0.010860905051231384,0.9288278222084045,0.0,0.015457787550985813,0.7324011325836182,0.00025844931951723993,0.04330919682979584
546.0,8190.0,-0.2937,-0.7137,9.8429,-0.0321,0.0231,-0.1242,-1.7413002453246058,0.0,2.2085306644439697,-2.2939703464508057,0.004898822400718927,1.4685180187225342,5.519639181881704,-0.00026985377189703286,0.27010202407836914,-1.5214012304889124,1.471406827793452e-39,-0.01119520328938961,0.9287679195404053,0.0,0.011804904788732529,0.732433021068573,0.0006972309201955795,0.0329388827085495
546.0,8190.0,-0.2937,-0.7137,9.8429,-0.0321,0.0231,-0.1242,-1.7413488827147425,0.0,2.188871383666992,-2.293938159942627,0.006515699438750744,1.4829306602478027,5.519562530308523,-0.00023926199355628341,0.27728599309921265,-1.521364990864889,4.091791515828466e-43,-0.017793431878089905,0.9288199543952942,0.0,0.010165966115891933,0.732441246509552,0.001095613231882453,0.027650561183691025
546.0,8190.0,-0.2937,-0.7137,9.8429,-0.0321,0.0231,-0.1242,-1.7413331470885218,0.0,2.144092559814453,-2.293938398361206,0.006671653129160404,1.425061821937561,5.519570636540212,-0.00022236951917875558,0.27689218521118164,-1.521393124257223,1.401298464324817e-45,-0.012674206867814064,0.9288485050201416,0.0,0.01844758912920952,0.732441246509552,0.000958348042331636,-0.010119229555130005
546.0,8190.0,-0.2937,-0.7137,9.8429,-0.0321,0.0231,-0.1242,-1.7413526974120082,0.0,2.2036032676696777,-2.2938976287841797,0.00762143125757575,1.4863684177398682,5.51959108093337,-0.0002010749012697488,0.2665199041366577,-1.521421257649557,0.0,-0.0200506504625082,0.9288158416748047,0.0,0.009441029280424118,0.732408881187439,0.0009028924978338182,0.022881953045725822
546.0,8190.0,-0.2937,-0.7137,9.8429,-0.0321,0.0231,-0.1242,-1.7413083515562953,0.0,2.150038242340088,-2.293768882751465,0.009234119206666946,1.4842302799224854,5.519566464215078,-0.00013445869262795895,0.2814369201660156,-1.5213854948626917,0.0,-0.024308567866683006,0.9288077354431152,0.0,0.010526139289140701,0.7324777245521545,0.0007398835150524974,0.06979654729366302
546.0,8190.0,-0.2937,-0.7137,9.8429,-0.0321,0.0231,-0.1242,-1.741307874719137,0.0,2.1172189712524414,-2.2937703132629395,0.01024712435901165,1.4605810642242432,5.519610810070791,-7.682901923544705e-05,0.2723700702190399,-1.5213812033282679,0.0,-0.028528235852718353,0.9288719892501831,7.259589619934559e-05,0.033380914479494095,0.732505738735199,0.0007789168739691377,0.06542447209358215
546.0,8190.0,-0.2937,-0.7137,9.8429,-0.0321,0.0231,-0.1242,-1.7413283787169398,0.0,2.098231792449951,-2.2937071323394775,0.012144092470407486,1.552908182144165,5.519578802376547,-6.793669308535755e-05,0.2667258083820343,-1.521364990864889,0.0,-0.008764471858739853,0.9288361072540283,7.758492574794218e-05,0.003712151665240526,0.7324615120887756,0.0010277440305799246,0.0993078276515007
546.0,8190.0,-0.2937,-0.7137,9.8429,-0.0321,0.0231,-0.1242,-1.7413164577879847,0.0,2.1684844493865967,-2.293618679046631,0.0136345149949193,1.5555717945098877,5.5195501921470544,-9.100230090552941e-05,0.2615417242050171,-1.5213854948626917,0.0,-0.032471947371959686,0.9288755059242249,8.85091139934957e-05,0.015283091925084591,0.7324206829071045,0.001041178940795362,0.15357592701911926
497.0,1009.0,-0.2207,-0.883,9.7328,-0.0333,0.0195,-0.1072,-1.7413326702513636,0.0,2.149562120437622,-2.293574333190918,0.014525297097861767,1.5574345588684082,5.519582855492391,-8.572299702791497e-05,0.25023695826530457,-1.5213893095599573,0.0,-0.04243321344256401,0.9288280010223389,9.987741213990375e-05,0.017642520368099213,0.7325015664100647,0.0009155891602858901,0.13619056344032288
497.0,1009.0,-0.2207,-0.883,9.7328,-0.0333,0.0195,-0.1072,-1.7413646183409632,0.0,2.167703628540039,-2.2935283184051514,0.015751224011182785,1.5514262914657593,5.519542324333944,-9.107447840506211e-05,0.2603922188282013,-1.5213974157916468,0.0,-0.03057880327105522,0.9288035035133362,0.00010885943629546091,0.01897856593132019,0.7325217723846436,0.0010230120969936252,0.09579871594905853
497.0,1009.0,-0.2207,-0.883,9.7328,-0.0333,0.0195,-0.1072,-1.7412682972350062,0.0,2.1476757526397705,-2.2933993339538574,0.016326362267136574,1.5680221319198608,5.5195584175880334,-0.00015290858573280275,0.2422245591878891,-1.521364990864889,0.0,-0.025448027998209,0.9288403391838074,0.0003368607140146196,0.022822558879852295,0.7325255870819092,0.0015956588322296739,0.17601969838142395
497.0,1009.0,-0.2207,-0.883,9.7328,-0.0333,0.0195,-0.1072,-1.7413002453246058,0.0,2.1428985595703125,-2.293271541595459,0.018171600997447968,1.6153626441955566,5.519586550980367,-0.0008147379267029464,0.2429865598678589,-1.5213854948626917,0.0,-0.04201117157936096,0.928823709487915,0.00038305530324578285,0.017300136387348175,0.7325375080108643,0.0023396529722958803,0.14433132112026215
497.0,1009.0,-0.2207,-0.883,9.7328,-0.0333,0.0195,-0.1072,-1.7413202724852503,-9.718802903080359e-05,2.087815999984741,-2.2931907176971436,0.018483588472008705,1.592836618423462,5.519522774010458,-0.0009830459021031857,0.23927706480026245,-1.5214374701129358,0.0,-0.035252805799245834,0.9288034439086914,0.0006242363597266376,0.015356242656707764,0.7325375080108643,0.002701482502743602,0.15936672687530518
497.0,1009.0,-0.2207,-0.883,9.7328,-0.0333,0.0195,-0.1072,-1.741328855554098,-0.00014420041406992823,2.069187641143799,-2.293055534362793,0.019002195447683334,1.6178932189941406,5.5195186016853235,-0.0009806740563362837,0.2331293523311615,-1.5213854948626917,0.0,-0.03534258157014847,0.9288432002067566,0.0006925233756192029,0.015962740406394005,0.7325333952903748,0.003360020462423563,0.1371886134147644
497.0,1009.0,-0.2207,-0.883,9.7328,-0.0333,0.0195,-0.1072,-1.7413646183409632,-0.0009902440942823887,2.07719349861145,-2.2929389476776123,0.020710641518235207,1.6347516775131226,5.519522714405813,-0.0013563225511461496,0.2202315628528595,-1.5213692823993128,0.0,-0.038227371871471405,0.9288312196731567,0.0007561763050034642,0.030806247144937515,0.7325654029846191,0.0038398788310587406,0.18464499711990356
497.0,1009.0,-0.2207,-0.883,9.7328,-0.0333,0.0195,-0.1072,-1.7413932285704554,-0.0015572987031191587,2.0472216606140137,-2.2928967475891113,0.022869134321808815,1.6473822593688965,5.519506561547079,-0.0015146522782742977,0.2117556631565094,-1.5213692823993128,0.0,-0.04312145337462425,0.9288834929466248,0.0007134267361834645,0.02434336394071579,0.7325773239135742,0.00391049450263381,0.1860806792974472
497.0,1009.0,-0.2207,-0.883,9.7328,-0.0333,0.0195,-0.1072,-1.7413727245726527,-0.0022654447238892317,2.0245585441589355,-2.2927441596984863,0.02526237443089485,1.6407151222229004,5.519498753338613,-0.0015485694166272879,0.19991113245487213,-1.5213530699359339,0.0,-0.03180169686675072,0.9288713932037354,0.0006959959282539785,0.032122090458869934,0.7326053977012634,0.003583492711186409,0.24429522454738617
497.0,1009.0,-0.2207,-0.883,9.7328,-0.0333,0.0195,-0.1072,-1.741380353967184,-0.003111829748377204,2.0252251625061035,-2.2925565242767334,0.028931405395269394,1.671170949935913,5.519498574524679,-0.00239168549887836,0.19464093446731567,-1.5213893095599573,0.0,-0.03177541494369507,0.9288834929466248,0.0005779846687801182,0.02935604751110077,0.732609212398529,0.00316391303204,0.19781799614429474
497.0,1009.0,-0.2207,-0.883,9.7328,-0.0333,0.0195,-0.1072,-1.741397043267721,-0.004582321271300316,1.9961884021759033,-2.292379856109619,0.0330234095454216,1.711666464805603,5.519462215691366,-0.004000164568424225,0.18688584864139557,-1.5213893095599573,0.0,-0.021930381655693054,0.928891122341156,0.0005510995979420841,0.01738777756690979,0.7326496839523315,0.0027282314840704203,0.16527506709098816
497.0,1009.0,-0.2207,-0.883,9.7328,-0.0333,0.0195,-0.1072,-1.7414165935912074,-0.0057367440313100815,2.0135035514831543,-2.292200803756714,0.03962460160255432,1.6938202381134033,5.519511329918661,-0.007794547826051712,0.17124518752098083,-1.5213530699359339,-9.626233077142388e-05,-0.053795211017131805,0.9288271069526672,0.0005025792634114623,0.04698319360613823,0.7326169610023499,0.0023397833574563265,0.18309183418750763
497.0,1009.0,-0.2207,-0.883,9.7328,-0.0333,0.0195,-0.1072,-1.7414938412108363,-0.00629270588979125,1.98284912109375,-2.2919704914093018,0.04857686534523964,1.7724127769470215,5.519402491837301,-0.012216445989906788,0.17884540557861328,-1.5213854948626917,-9.059438161784783e-05,-0.04543568938970566,0.9288955926895142,0.00038838948239572346,0.035233981907367706,0.7326616644859314,0.001725961803458631,0.142049640417099
497.0,1009.0,-0.2207,-0.883,9.7328,-0.0333,0.0195,-0.1072,-1.7415090999998988,-0.006333571393042803,1.9802360534667969,-2.291635036468506,0.05884099751710892,1.752701759338379,5.519342469960012,-0.011479171924293041,0.1948530673980713,-1.5213292280780237,-8.543441799702123e-05,-0.02855902537703514,0.9288713932037354,0.0003658263012766838,0.028398551046848297,0.7326573133468628,0.001296886708587408,0.2343650758266449
497.0,1009.0,-0.2207,-0.883,9.7328,-0.0333,0.0195,-0.1072,-1.7415615520873011,-0.0065265255980193615,2.028261661529541,-2.2914111614227295,0.06563183665275574,1.7810862064361572,5.519294607430258,-0.009128605015575886,0.17861005663871765,-1.5213974157916468,-8.230901585193351e-05,-0.030649475753307343,0.9288952350616455,0.0003254831535741687,0.03535245731472969,0.7326452136039734,0.0010254803346469998,0.23991432785987854
497.0,1009.0,-0.2207,-0.883,9.7328,-0.0333,0.0195,-0.1072,-1.7415763340392054,-0.006866536568850279,1.9967515468597412,-2.290944814682007,0.07492709159851074,1.8114128112792969,5.519177901535787,-0.006042875349521637,0.1816388964653015,-1.5213812033282679,-7.802742038620636e-05,-0.05347751826047897,0.9288755059242249,0.000321518222335726,0.0277957022190094,0.7326734066009521,0.001163135631941259,0.19097840785980225
518.0,1060.0,-0.2447,-0.6455,9.5222,-0.0307,0.0257,-0.1064,-1.7416206798949183,-0.008724743500351906,1.9937366247177124,-2.2905213832855225,0.08603836596012115,1.8440135717391968,5.5191619274909876,-0.003941087517887354,0.16951611638069153,-1.5213854948626917,-8.893762424122542e-05,-0.04829559475183487,0.9288713932037354,0.00031860292074270546,0.04217070713639259,0.7326086759567261,0.001701042172499001,0.210025817155838
518.0,1060.0,-0.2447,-0.6455,9.5222,-0.0307,0.0257,-0.1064,-1.741636415521139,-0.009209993295371532,2.0010433197021484,-2.2901065349578857,0.09553172439336777,1.833776831626892,5.519178378372946,-0.0037012218963354826,0.17340689897537231,-1.5213492552386683,-8.616250852355734e-05,-0.05553799495100975,0.9288751482963562,0.0002881921536754817,0.03217827156186104,0.7327336668968201,0.0019203636329621077,0.2846478223800659
518.0,1060.0,-0.2447,-0.6455,9.5222,-0.0307,0.0257,-0.1064,-1.741713663140768,-0.009061900898814201,1.9965455532073975,-2.2894716262817383,0.10836461186408997,1.828266978263855,5.5191664574439905,-0.004443740472197533,0.16762560606002808,-1.5213974157916468,-8.222665201174095e-05,-0.035320110619068146,0.9288632273674011,0.00028997421031817794,0.04931892454624176,0.7326729893684387,0.002033759141340852,0.25296008586883545
518.0,1060.0,-0.2447,-0.6455,9.5222,-0.0307,0.0257,-0.1064,-1.7417813740172328,-0.008345076814293861,1.9967159032821655,-2.288818359375,0.11606305837631226,1.83760666847229,5.519090461521902,-0.005751329939812422,0.16341325640678406,-1.5213812033282679,-9.087187208933756e-05,-0.03740663081407547,0.9288754463195801,0.0003222936065867543,0.02515818364918232,0.7327092885971069,0.0020136975217610598,0.25485464930534363
518.0,1060.0,-0.2447,-0.6455,9.5222,-0.0307,0.0257,-0.1064,-1.7417975864806117,-0.00781787745654583,1.9563286304473877,-2.288334608078003,0.12057437747716904,1.901367425918579,5.51913087347106,-0.007173127494752407,0.1691983938217163,-1.5213854948626917,-8.914040517993271e-05,-0.049603164196014404,0.9289154410362244,0.00044371711555868387,0.023617137223482132,0.7327172160148621,0.0020783080253750086,0.21034112572669983
518.0,1060.0,-0.2447,-0.6455,9.5222,-0.0307,0.0257,-0.1064,-1.7418533764281214,-0.007270971313118935,1.9456367492675781,-2.2875492572784424,0.12575483322143555,1.8455321788787842,5.519042241364279,-0.008266928605735302,0.1545865833759308,-1.5214093367206019,-8.551403152523562e-05,-0.055490098893642426,0.928891122341156,0.0004477690381463617,0.034093767404556274,0.7327332496643066,0.0029593687504529953,0.3252559304237366
518.0,1060.0,-0.2447,-0.6455,9.5222,-0.0307,0.0257,-0.1064,-1.741824289361471,-0.005281920079141855,1.958090901374817,-2.286754608154297,0.13472668826580048,1.9101979732513428,5.5190263269241235,-0.009636074304580688,0.15279938280582428,-1.5213325659381312,-8.216807327698916e-05,-0.04207276552915573,0.9289034008979797,0.000584231223911047,0.03605189546942711,0.7327818274497986,0.003955821506679058,0.32638421654701233
518.0,1060.0,-0.2447,-0.6455,9.5222,-0.0307,0.0257,-0.1064,-1.741852422753805,-0.0038735754787921906,1.9137639999389648,-2.285912275314331,0.14562050998210907,1.9283456802368164,5.518914210587301,-0.011105078272521496,0.14928105473518372,-1.5213812033282679,-9.035774564836174e-05,-0.03855935111641884,0.9288432002067566,0.0007587538566440344,0.020909734070301056,0.7327209115028381,0.00395591463893652,0.29573702812194824
518.0,1060.0,-0.2447,-0.6455,9.5222,-0.0307,0.0257,-0.1064,-1.7419339619078578,-0.002964960178360343,1.9753940105438232,-2.2853143215179443,0.15241579711437225,1.972320556640625,5.518898296147146,-0.013795220293104649,0.15432405471801758,-1.5213812033282679,-8.815735054668039e-05,-0.0581999234855175,0.9288952350616455,0.0013690200867131352,0.041340421885252,0.7327851057052612,0.0033648512326180935,0.28694605827331543
518.0,1060.0,-0.2447,-0.6455,9.5222,-0.0307,0.0257,-0.1064,-1.741913457910055,-0.003318133531138301,1.9456603527069092,-2.284320592880249,0.16805711388587952,1.9640679359436035,5.518781947880544,-0.017245939001441002,0.14609986543655396,-1.521393124257223,-8.503395656589419e-05,-0.05077836290001869,0.9288705587387085,0.0035702104214578867,0.03088263049721718,0.7328134775161743,0.0035373240243643522,0.31272393465042114
518.0,1060.0,-0.2447,-0.6455,9.5222,-0.0307,0.0257,-0.1064,-1.7419496975340785,-0.004780267830938101,1.954885482788086,-2.283270835876465,0.17868083715438843,1.9646806716918945,5.518690395146169,-0.01775185391306877,0.12733210623264313,-1.5213812033282679,-9.29624802665785e-05,-0.059217579662799835,0.9289754033088684,0.00770488241687417,0.03598164767026901,0.7328414916992188,0.004105835221707821,0.30932217836380005
518.0,1060.0,-0.2447,-0.6455,9.5222,-0.0307,0.0257,-0.1064,-1.7419616184630335,-0.004547539632767439,1.928846001625061,-2.282524824142456,0.18512564897537231,2.015303134918213,5.518650281220236,-0.017158815637230873,0.13821828365325928,-1.5213974157916468,-9.970935207093135e-05,-0.060699865221977234,0.9289713501930237,0.010246824473142624,0.034396082162857056,0.7328131794929504,0.004296023398637772,0.3249375522136688
518.0,1060.0,-0.2447,-0.6455,9.5222,-0.0307,0.0257,-0.1064,-1.7420150242247523,-0.0036328707356005907,1.9351097345352173,-2.28135085105896,0.19279465079307556,1.9632198810577393,5.518526243954458,-0.014300107955932617,0.13966915011405945,-1.5213812033282679,-9.353711357107386e-05,-0.055653952062129974,0.9290112853050232,0.006244161166250706,0.029247425496578217,0.7328731417655945,0.0052281334064900875,0.3310436010360718
518.0,1060.0,-0.2447,-0.6455,9.5222,-0.0307,0.0257,-0.1064,-1.7420174084105433,-0.001746291876770556,1.9542021751403809,-2.280161142349243,0.20682233572006226,2.0331480503082275,5.518450248032369,-0.009467193856835365,0.13558518886566162,-1.5213730970965784,-0.00010565060802036896,-0.0739530399441719,0.9290074110031128,0.0011406297562643886,0.02062125876545906,0.7329255938529968,0.0060662515461444855,0.34267064929008484
518.0,1060.0,-0.2447,-0.6455,9.5222,-0.0307,0.0257,-0.1064,-1.7419854603209437,-0.001365615869872272,1.9834792613983154,-2.279282808303833,0.21745765209197998,2.108403205871582,5.518386411457815,-0.006287729367613792,0.15114475786685944,-1.5213974157916468,-0.00010167701111640781,-0.07444222271442413,0.9289827346801758,0.00021143820777069777,0.023887544870376587,0.7328972220420837,0.005773431621491909,0.30840611457824707
518.0,1060.0,-0.2447,-0.6455,9.5222,-0.0307,0.0257,-0.1064,-1.742025991479391,-0.0009270370937883854,1.9642300605773926,-2.277956247329712,0.2297571450471878,2.0570952892303467,5.518378066807546,-0.004014519974589348,0.15221428871154785,-1.521393124257223,-9.624051745049655e-05,-0.05858755111694336,0.9290547966957092,0.0001865756930783391,0.02941153198480606,0.7329734563827515,0.004925102926790714,0.2948080897331238
518.0,1060.0,-0.2447,-0.6455,9.5222,-0.0307,0.0257,-0.1064,-1.7420293293394984,-0.003648586105555296,1.9311190843582153,-2.2764899730682373,0.2330324351787567,2.078007936477661,5.518365967064657,-0.004013280384242535,0.12802571058273315,-1.5214174429522913,-9.135589061770588e-05,-0.06441780924797058,0.9290356636047363,8.700945909367874e-05,0.03231225535273552,0.7329570651054382,0.005017251707613468,0.37912222743034363
560.0,1079.0,-0.2824,-0.5982,10.0211,-0.0107,0.1452,-0.1162,-1.7420698604979457,-0.005343918688595295,1.940133810043335,-2.275531530380249,0.2422078251838684,2.1128957271575928,5.518342184811392,-0.0033967364579439163,0.13573019206523895,-1.5213730970965784,-8.836595225147903e-05,-0.06404612213373184,0.929070770740509,0.00014059225213713944,0.025227602571249008,0.7329972982406616,0.005817479453980923,0.3183742165565491
560.0,1079.0,-0.2824,-0.5982,10.0211,-0.0107,0.1452,-0.1162,-1.7420979938902796,-0.004668666515499353,1.8979613780975342,-2.2740108966827393,0.258925199508667,2.066347360610962,5.518349814205923,-0.0024026527535170317,0.1271873563528061,-1.5213854948626917,-8.42308800201863e-05,-0.057075947523117065,0.9290948510169983,0.00011725961667252705,0.040988754481077194,0.73305344581604,0.006521431729197502,0.30860650539398193
560.0,1079.0,-0.2824,-0.5982,10.0211,-0.0107,0.1452,-0.1162,-1.7421266041197718,-0.0028990868013352156,1.9104747772216797,-2.2724924087524414,0.27173349261283875,2.1959071159362793,5.518250274449148,-0.0031381912995129824,0.12463967502117157,-1.5213888327227991,-8.046551374718547e-05,-0.05770052224397659,0.9290871620178223,9.808279719436541e-05,0.0337195098400116,0.7330210208892822,0.006001914851367474,0.32992732524871826
560.0,1079.0,-0.2824,-0.5982,10.0211,-0.0107,0.1452,-0.1162,-1.7421180210509242,-0.0020711130928248167,1.9420239925384521,-2.270803213119507,0.28162890672683716,2.160964012145996,5.518234121590414,-0.0058517418801784515,0.1311185210943222,-1.521364990864889,-7.702238508500159e-05,-0.0607127770781517,0.9290426969528198,8.429789886577055e-05,0.02599826268851757,0.733105480670929,0.0047181653790175915,0.3080850839614868
560.0,1079.0,-0.2824,-0.5982,10.0211,-0.0107,0.1452,-0.1162,-1.7421418629088343,-0.0023478169459849596,1.9744389057159424,-2.269649028778076,0.28816577792167664,2.1612422466278076,5.518274175911703,-0.007074792869389057,0.12494578957557678,-1.5214131514178675,-7.488606206607074e-05,-0.06203456223011017,0.9290237426757812,7.707662734901533e-05,0.02025725319981575,0.7330970764160156,0.0039437152445316315,0.3108168840408325
560.0,1079.0,-0.2824,-0.5982,10.0211,-0.0107,0.1452,-0.1162,-1.7421661816039027,-0.004275381099432707,1.9395155906677246,-2.26786732673645,0.3041488230228424,2.21443510055542,5.518149959831991,-0.008767591789364815,0.1261296272277832,-1.5213568846331995,-7.18950541340746e-05,-0.043228015303611755,0.9290584921836853,6.830100028309971e-05,0.02788194827735424,0.7330970764160156,0.004506394267082214,0.3158235251903534
560.0,1079.0,-0.2824,-0.5982,10.0211,-0.0107,0.1452,-0.1162,-1.7421375713744105,-0.005863477475941181,1.9052464962005615,-2.2660064697265625,0.31781870126724243,2.134028196334839,5.518125879555502,-0.011398487724363804,0.1255849450826645,-1.5213936010943812,-6.913375545991585e-05,-0.05777004361152649,0.9290747046470642,6.13196607446298e-05,0.03452792018651962,0.7331573367118835,0.004778346978127956,0.2901369035243988
560.0,1079.0,-0.2824,-0.5982,10.0211,-0.0107,0.1452,-0.1162,-1.7422343693175257,-0.00642122607678175,1.909278154373169,-2.264728546142578,0.32747000455856323,2.1669230461120605,5.518038022309103,-0.013154158368706703,0.11314219236373901,-1.5214093367206019,-6.740773096680641e-05,-0.05472816154360771,0.9290224313735962,5.740764390793629e-05,0.020178377628326416,0.733153223991394,0.0043396977707743645,0.31718167662620544
560.0,1079.0,-0.2824,-0.5982,10.0211,-0.0107,0.1452,-0.1162,-1.7422458134093226,-0.007208298891782761,1.9000513553619385,-2.2626914978027344,0.3400787115097046,2.306950807571411,5.517973649292745,-0.01739649474620819,0.12116707861423492,-1.5214055220233362,-6.497454160125926e-05,-0.03759980946779251,0.9290233850479126,5.2394090744201094e-05,0.02575237862765789,0.7331486940383911,0.0028522165957838297,0.3287201523780823
560.0,1079.0,-0.2824,-0.5982,10.0211,-0.0107,0.1452,-0.1162,-1.7422534428038539,-0.007859247736632824,1.951383352279663,-2.260639190673828,0.35308966040611267,2.239482879638672,5.517838227539816,-0.018658127635717392,0.0892292708158493,-1.5213568846331995,-6.271090387599543e-05,-0.045634832233190536,0.9290193319320679,4.8185960622504354e-05,0.03913622722029686,0.7331771850585938,0.0030758667271584272,0.3339293599128723
560.0,1079.0,-0.2824,-0.5982,10.0211,-0.0107,0.1452,-0.1162,-1.742326398889059,-0.00754914665594697,1.8919987678527832,-2.259169578552246,0.3688771426677704,2.2400031089782715,5.517781781941213,-0.019978117197752,0.08698250353336334,-1.5213492552386683,-6.128746463218704e-05,-0.049752458930015564,0.9290547370910645,4.573714977595955e-05,0.03590283915400505,0.7332413792610168,0.003722813446074724,0.30689382553100586
560.0,1079.0,-0.2824,-0.5982,10.0211,-0.0107,0.1452,-0.1162,-1.7423535786070765,-0.007715610787272453,1.926560640335083,-2.2569921016693115,0.3836134970188141,2.305997371673584,5.517665612488546,-0.024534862488508224,0.10695372521877289,-1.5213730970965784,-1.5228367374220397e-05,-0.041090719401836395,0.9290152192115784,6.372147618094459e-05,0.04201727360486984,0.7332331538200378,0.0034138504415750504,0.27254313230514526
560.0,1079.0,-0.2824,-0.5982,10.0211,-0.0107,0.1452,-0.1162,-1.7424260578551234,-0.008856602013111115,1.9284865856170654,-2.2546448707580566,0.3855382204055786,2.30047607421875,5.517437982350149,-0.035925332456827164,0.09627086669206619,-1.5214174429522913,-4.238871920136944e-09,-0.06613881140947342,0.9291113018989563,5.9529465943342075e-05,0.0317591056227684,0.733269453048706,0.0032695848494768143,0.37368398904800415
560.0,1079.0,-0.2824,-0.5982,10.0211,-0.0107,0.1452,-0.1162,-1.742481370965475,-0.01157711073756218,1.912395715713501,-2.252211332321167,0.401140958070755,2.3075966835021973,5.5172897455985925,-0.050686150789260864,0.07755006104707718,-1.5213893095599573,-1.1799054571923207e-12,-0.04883711040019989,0.9290586709976196,5.583614620263688e-05,0.02842884324491024,0.7332649230957031,0.004147247411310673,0.30834805965423584
560.0,1079.0,-0.2824,-0.5982,10.0211,-0.0107,0.1452,-0.1162,-1.7425457439818324,-0.012962095439434052,1.9236793518066406,-2.250566005706787,0.4077945351600647,2.320620059967041,5.517049658089437,-0.06488581746816635,0.0701393410563469,-1.5214174429522913,-5.030122521445081e-15,-0.051159679889678955,0.9290946125984192,6.914775440236554e-05,0.03483978286385536,0.733313262462616,0.004490342922508717,0.31952595710754395
560.0,1079.0,-0.2824,-0.5982,10.0211,-0.0107,0.1452,-0.1162,-1.7425977192320765,-0.014004040509462357,1.8800902366638184,-2.2479822635650635,0.42208173871040344,2.265291213989258,5.516617643624105,-0.08807143568992615,0.05643186718225479,-1.5214126745807093,-1.4001529064368714e-18,-0.06115293875336647,0.9290111660957336,6.747077713953331e-05,0.033127158880233765,0.7333773374557495,0.005716596730053425,0.34830132126808167
560.0,1079.0,-0.2824,-0.5982,10.0211,-0.0107,0.1452,-0.1162,-1.7426701984801234,-0.012821201235055923,1.911402702331543,-2.2454466819763184,0.42931070923805237,2.3181591033935547,5.515965389996328,-0.11098212003707886,0.05903696268796921,-1.5214012304889124,-3.897377021010761e-22,-0.04001874849200249,0.9290986657142639,3.3598440495552495e-05,0.04082596302032471,0.7333811521530151,0.007453175261616707,0.35391151905059814
549.0,1055.0,-0.539,-0.4977,10.3244,0.0086,0.3257,-0.0907,-1.7427174053587855,-0.013140655122697353,1.926424264907837,-2.243664503097534,0.43000003695487976,2.3286314010620117,5.515453266888418,-0.12474454939365387,0.05924055725336075,-1.521405045186178,-1.661513038072789e-24,-0.055584538727998734,0.9290745258331299,3.9751583244651556e-05,0.0411904975771904,0.7334495186805725,0.008185694925487041,0.32923710346221924
549.0,1055.0,-0.539,-0.4977,10.3244,0.0086,0.3257,-0.0907,-1.7428342304625453,-0.014086923561990261,1.9589388370513916,-2.240952968597412,0.44144684076309204,2.356860637664795,5.514685022621908,-0.1319480538368225,0.0416514053940773,-1.5214174429522913,-4.624882427615329e-28,-0.053343333303928375,0.9290387630462646,4.542955866781995e-05,0.015299556776881218,0.7335051894187927,0.010590028949081898,0.3628356456756592
549.0,1055.0,-0.539,-0.4977,10.3244,0.0086,0.3257,-0.0907,-1.7429143391051234,-0.015144371427595615,1.903916835784912,-2.238393545150757,0.4561358094215393,2.4297080039978027,5.513920533448019,-0.1366787850856781,0.04567020386457443,-1.521405045186178,-2.6611709472490475e-05,-0.046536825597286224,0.9290585517883301,5.7648434449220076e-05,0.03526883199810982,0.7335693836212158,0.013932483270764351,0.36618679761886597
549.0,1055.0,-0.539,-0.4977,10.3244,0.0086,0.3257,-0.0907,-1.7430359325804652,-0.01555712427943945,1.878645658493042,-2.2365269660949707,0.46706122159957886,2.363631010055542,5.513300347119131,-0.16090567409992218,0.04319140315055847,-1.5214131514178675,-2.4983719413285144e-05,-0.055061012506484985,0.9290586709976196,6.982954073464498e-05,0.04088807478547096,0.7336335182189941,0.01661178097128868,0.3523649573326111
549.0,1055.0,-0.539,-0.4977,10.3244,0.0086,0.3257,-0.0907,-1.7431193790831507,-0.016403259709477425,1.925431489944458,-2.2337806224823,0.471387654542923,2.3933629989624023,5.512119519501486,-0.19641147553920746,0.01287128683179617,-1.5213812033282679,-2.3981394406291656e-05,-0.0546964555978775,0.9290580153465271,0.00037661613896489143,0.042003557085990906,0.7337533831596375,0.019764725118875504,0.3648318648338318
549.0,1055.0,-0.539,-0.4977,10.3244,0.0086,0.3257,-0.0907,-1.743206640283102,-0.015863841399550438,1.9361071586608887,-2.230863332748413,0.47970613837242126,2.398236036300659,5.5108083365257166,-0.20998257398605347,0.0067071556113660336,-1.5214374701129358,-2.3059708837536164e-05,-0.06322972476482391,0.9291107654571533,0.00041399506153538823,0.040997087955474854,0.7338655591011047,0.02212733030319214,0.4064476191997528
549.0,1055.0,-0.539,-0.4977,10.3244,0.0086,0.3257,-0.0907,-1.7433158359923304,-0.01622280292212963,1.9180107116699219,-2.2280142307281494,0.49494820833206177,2.4260873794555664,5.509576427727499,-0.23040412366390228,-0.007927090860903263,-1.521376911793844,-2.2206273570191115e-05,-0.05001148581504822,0.9290626645088196,0.0006041130400262773,0.05167538300156593,0.7340174913406372,0.025964774191379547,0.33613723516464233
549.0,1055.0,-0.539,-0.4977,10.3244,0.0086,0.3257,-0.0907,-1.7433716259398402,-0.016058560460805893,1.929347276687622,-2.2260653972625732,0.5082459449768066,2.4236741065979004,5.508630323200979,-0.24456165730953217,-0.005624259356409311,-1.5213974157916468,-2.1671563445124775e-05,-0.0573088712990284,0.9291148781776428,0.0006205652025528252,0.053708143532276154,0.7340810894966125,0.029382867738604546,0.38978591561317444
549.0,1055.0,-0.539,-0.4977,10.3244,0.0086,0.3257,-0.0907,-1.7434712849059046,-0.014884194359183311,1.922346591949463,-2.2230067253112793,0.5104050636291504,2.4190657138824463,5.5070581314857385,-0.2535879611968994,-0.0021508410573005676,-1.5213854948626917,-2.0916093490086496e-05,-0.050295572727918625,0.9290502071380615,0.0006355835357680917,0.04923824965953827,0.7343577742576599,0.035148754715919495,0.44896644353866577
549.0,1055.0,-0.539,-0.4977,10.3244,0.0086,0.3257,-0.0907,-1.743580003777975,-0.01409448217600584,1.955775260925293,-2.219895124435425,0.5138810873031616,2.393906354904175,5.505397307663717,-0.30067178606987,-0.03595513477921486,-1.5213850180255335,-2.0211520677548833e-05,-0.05349886789917946,0.9290781021118164,0.0006195086752995849,0.04471753165125847,0.7345091104507446,0.040388986468315125,0.4294583797454834
549.0,1055.0,-0.539,-0.4977,10.3244,0.0086,0.3257,-0.0907,-1.7436229191222132,-0.014771423302590847,1.977586030960083,-2.2177412509918213,0.5149422883987427,2.412395477294922,5.504168557911672,-0.31445449590682983,-0.04054746404290199,-1.521393124257223,-5.0789981287380215e-06,-0.05215727537870407,0.9290865063667297,0.0005581941804848611,0.04130493849515915,0.7347172498703003,0.04673505574464798,0.40333878993988037
549.0,1055.0,-0.539,-0.4977,10.3244,0.0086,0.3257,-0.0907,-1.7437073192992152,-0.014881669543683529,1.9173190593719482,-2.2145676612854004,0.5328190326690674,2.4116225242614746,5.50221614816741,-0.34183216094970703,-0.0674733966588974,-1.5213812033282679,-1.4137579995576743e-09,-0.061132870614528656,0.9291066527366638,0.0004778173170052469,0.057634785771369934,0.7350214719772339,0.0561194010078907,0.3760138750076294
549.0,1055.0,-0.539,-0.4977,10.3244,0.0086,0.3257,-0.0907,-1.7438322506346644,-0.015110231004655361,1.989088773727417,-2.211320400238037,0.5402979254722595,2.460692882537842,5.499937402993002,-0.3648630976676941,-0.048003293573856354,-1.5213411490069788,-3.935247310307699e-13,-0.04901118576526642,0.9290786385536194,0.00035646470496430993,0.04316378012299538,0.7353932857513428,0.06664876639842987,0.44662442803382874
549.0,1055.0,-0.539,-0.4977,10.3244,0.0086,0.3257,-0.0907,-1.743892332116598,-0.014041728340089321,1.9118905067443848,-2.209199905395508,0.5459346771240234,2.4181346893310547,5.498403417855062,-0.4002157151699066,-0.08378653228282928,-1.5214131514178675,-1.6776573840126272e-15,-0.04116278141736984,0.9290501475334167,0.0003072764666285366,0.05843832716345787,0.7356815338134766,0.0711214542388916,0.45039618015289307
549.0,1055.0,-0.539,-0.4977,10.3244,0.0086,0.3257,-0.0907,-1.7439810238280238,-0.012032663449645042,1.984680414199829,-2.2058777809143066,0.552111029624939,2.4240915775299072,5.495829748898306,-0.424106627702713,-0.07625141739845276,-1.5214055220233362,-4.66982126479821e-19,-0.04529319703578949,0.9291272759437561,0.0003041972522623837,0.051994096487760544,0.73610520362854,0.07696191966533661,0.41836827993392944
549.0,1055.0,-0.539,-0.4977,10.3244,0.0086,0.3257,-0.0907,-1.7439705334105433,-0.010460715740919113,2.015618085861206,-2.2025794982910156,0.560903787612915,2.39498233795166,5.493199217110433,-0.46640676259994507,-0.1057639867067337,-1.5213974157916468,-1.2998619017758784e-22,-0.04086947441101074,0.9290822148323059,0.0002615308330859989,0.05108272284269333,0.7366050481796265,0.07920584082603455,0.42419278621673584
676.0,1071.0,-1.6271,-0.8883,9.588,-0.0084,0.2731,-0.0861,-1.7440844974913539,-0.011438836343586445,2.0195059776306152,-2.200281858444214,0.5684648752212524,2.5306944847106934,5.4912147400672815,-0.5002955794334412,-0.13645970821380615,-1.5213692823993128,-5.541514652172502e-25,-0.04361327737569809,0.9290781021118164,0.00023842963855713606,0.0671735480427742,0.7369412183761597,0.07920121401548386,0.4166761040687561
676.0,1071.0,-1.6271,-0.8883,9.588,-0.0084,0.2731,-0.0861,-1.7441851101317347,-0.012896348722279072,1.999814510345459,-2.1969492435455322,0.5776748657226562,2.443498373031616,5.488010990410604,-0.5410246253013611,-0.11994268745183945,-1.521376911793844,-1.5425010054721775e-28,-0.04253634810447693,0.9290501475334167,0.00024324136029463261,0.04852188006043434,0.7374292016029358,0.0789317712187767,0.4032893776893616
676.0,1071.0,-1.6271,-0.8883,9.588,-0.0084,0.2731,-0.0861,-1.7442356548705042,-0.014265298843383789,2.025420904159546,-2.193434953689575,0.585231602191925,2.3928325176239014,5.484689402371206,-0.5801466107368469,-0.13245229423046112,-1.521393124257223,-4.2936074332040226e-32,-0.03926965594291687,0.9290745258331299,0.0002198999427491799,0.04018305614590645,0.7378730177879333,0.08088567107915878,0.41962793469429016
676.0,1071.0,-1.6271,-0.8883,9.588,-0.0084,0.2731,-0.0861,-1.7443448505797328,-0.015284198336303234,2.011507987976074,-2.189894199371338,0.590575098991394,2.452118158340454,5.480977880745687,-0.6260492205619812,-0.12126433104276657,-1.521405045186178,-1.1951414072815878e-35,-0.042793020606040955,0.9291191101074219,9.558290912536904e-05,0.05168130248785019,0.7383769154548645,0.08135644346475601,0.41727226972579956
676.0,1071.0,-1.6271,-0.8883,9.588,-0.0084,0.2731,-0.0861,-1.7444287739195765,-0.01643025502562523,1.989563226699829,-2.1874332427978516,0.5915235877037048,2.451122283935547,5.478452491551199,-0.6444835066795349,-0.142518550157547,-1.5214250723468226,-5.095075814214791e-38,-0.03920289874076843,0.9291308522224426,8.032909681787714e-05,0.05329660326242447,0.7386929392814636,0.07952055335044861,0.4371536374092102
676.0,1071.0,-1.6271,-0.8883,9.588,-0.0084,0.2731,-0.0861,-1.7445250950255335,-0.017497902736067772,2.0331497192382812,-2.183812379837036,0.6031954288482666,2.4433999061584473,5.474444973259725,-0.6781457662582397,-0.13237470388412476,-1.5213530699359339,-1.4182541757431474e-41,-0.042489051818847656,0.9291104078292847,7.08179795765318e-05,0.05975230410695076,0.739132285118103,0.07851174473762512,0.40817731618881226
676.0,1071.0,-1.6271,-0.8883,9.588,-0.0084,0.2731,-0.0861,-1.7446209392943324,-0.017480332404375076,2.0287203788757324,-2.1800994873046875,0.6068084239959717,2.4191734790802,5.4703096626098535,-0.7161939740180969,-0.13968807458877563,-1.521393124257223,-4.203895392974451e-45,-0.049143217504024506,0.9291267991065979,6.334049976430833e-05,0.0351029671728611,0.7396688461303711,0.08134888857603073,0.4217327833175659
676.0,1071.0,-1.6271,-0.8883,9.588,-0.0084,0.2731,-0.0861,-1.7446323833861292,-0.016311069950461388,2.0008742809295654,-2.177687883377075,0.6142911911010742,2.4074723720550537,5.46731578090743,-0.7339520454406738,-0.1258043348789215,-1.521376911793844,-0.0,-0.04702204465866089,0.9290544390678406,5.917530506849289e-05,0.03291938453912735,0.7399078607559204,0.08518419414758682,0.38744068145751953
676.0,1071.0,-1.6271,-0.8883,9.588,-0.0084,0.2731,-0.0861,-1.744749208489889,-0.014470837078988552,2.009695529937744,-2.1740262508392334,0.6246582865715027,2.4138245582580566,5.462799894600668,-0.7677861452102661,-0.13909409940242767,-1.521364990864889,-0.0,-0.041514620184898376,0.9290425181388855,5.3862546337768435e-05,0.047425154596567154,0.7404845952987671,0.09209304302930832,0.3970754146575928
676.0,1071.0,-1.6271,-0.8883,9.588,-0.0084,0.2731,-0.0861,-1.744868894616598,-0.01377397682517767,2.077672004699707,-2.1703293323516846,0.6312453150749207,2.4815711975097656,5.458063232689657,-0.7903108596801758,-0.11276055872440338,-1.521341625844137,-0.0,-0.02974037453532219,0.9290662407875061,4.942524174111895e-05,0.033652808517217636,0.7410401105880737,0.09932524710893631,0.41290032863616943
676.0,1071.0,-1.6271,-0.8883,9.588,-0.0084,0.2731,-0.0861,-1.7449423275389613,-0.014491859823465347,2.0988731384277344,-2.167839527130127,0.6299643516540527,2.437434434890747,5.4548582313354395,-0.8082075119018555,-0.08849364519119263,-1.5213411490069788,-0.0,-0.039025578647851944,0.929115355014801,4.685206658905372e-05,0.006289948709309101,0.7414242029190063,0.10172448307275772,0.38962894678115845
676.0,1071.0,-1.6271,-0.8883,9.588,-0.0084,0.2731,-0.0861,-1.745004793206686,-0.016453728079795837,2.073345184326172,-2.164020538330078,0.6406326293945312,2.461155652999878,5.4498634217079065,-0.8401399850845337,-0.1176905632019043,-1.5213330427752894,-0.0,-0.021219003945589066,0.9290305972099304,4.345835623098537e-05,0.017247095704078674,0.742072582244873,0.1039300486445427,0.35167431831359863
676.0,1071.0,-1.6271,-0.8883,9.588,-0.0084,0.2731,-0.0861,-1.7451344929137171,-0.019754871726036072,2.087635040283203,-2.160167694091797,0.6438908576965332,2.440505027770996,5.4447287795837305,-0.8599827885627747,-0.10558193922042847,-1.5213893095599573,-0.0,-0.026637360453605652,0.9290305972099304,2.043940912699327e-05,0.03080245852470398,0.7426478862762451,0.1051403358578682,0.35913610458374023
676.0,1071.0,-1.6271,-0.8883,9.588,-0.0084,0.2731,-0.0861,-1.7453223667540492,-0.024654608219861984,2.1065094470977783,-2.1563053131103516,0.6414048671722412,2.3951005935668945,5.43956999757842,-0.8900477290153503,-0.10792835056781769,-1.5213330427752894,-0.0,-0.0143149234354496,0.9291027784347534,1.8979651940753683e-05,0.035614125430583954,0.7432554960250854,0.0991082713007927,0.34326332807540894
676.0,1071.0,-1.6271,-0.8883,9.588,-0.0084,0.2731,-0.0861,-1.7453934154906214,-0.02787340246140957,2.0649912357330322,-2.1536455154418945,0.6436785459518433,2.3994510173797607,5.43588142374114,-0.9076208472251892,-0.1032593622803688,-1.5213735739337366,-0.0,-0.008479906246066093,0.9291232228279114,1.8211487258668058e-05,0.0209185928106308,0.7436357736587524,0.09469308704137802,0.3573552966117859
676.0,1071.0,-1.6271,-0.8883,9.588,-0.0084,0.2731,-0.0861,-1.7455746136107386,-0.0304685290902853,2.090566635131836,-2.14965558052063,0.6501650810241699,2.400491952896118,5.430325197964468,-0.9281817078590393,-0.10930860042572021,-1.5213454405414026,-0.0,-0.01414757501333952,0.9290425181388855,1.7169206330436282e-05,0.03143233805894852,0.7441954016685486,0.08570117503404617,0.3065015971660614
676.0,1071.0,-1.6271,-0.8883,9.588,-0.0084,0.2731,-0.0861,-1.745774885217184,-0.03128461912274361,2.0783040523529053,-2.145756483078003,0.6590688228607178,2.3824381828308105,5.42475705125884,-0.9505048990249634,-0.09870859980583191,-1.521325413380758,-0.0,-0.007207201328128576,0.9290342330932617,7.182474348610413e-08,0.008729014545679092,0.7446708083152771,0.08372313529253006,0.27161020040512085
906.0,1073.0,-2.2385,-0.9703,9.798,-0.0724,-0.0843,-0.0312,-1.745866437951559,-0.0304853618144989,2.1035103797912598,-2.143136978149414,0.6648567914962769,2.43681263923645,5.420839834004202,-0.964765727519989,-0.09145678579807281,-1.5213530699359339,-0.0,-0.004010956268757582,0.9290506839752197,3.0620014856985733e-10,0.021628301590681076,0.7450352311134338,0.08332129567861557,0.2675577998161316
906.0,1073.0,-2.2385,-0.9703,9.798,-0.0724,-0.0843,-0.0312,-1.7460714779295863,-0.03151864930987358,2.1086251735687256,-2.139186382293701,0.6705324053764343,2.4419775009155273,5.414971458702841,-0.9849664568901062,-0.10142871737480164,-1.5213893095599573,-0.0,-0.021905437111854553,0.9290745854377747,8.523194492847039e-14,0.020579710602760315,0.7455396056175232,0.08520016819238663,0.28318604826927185
906.0,1073.0,-2.2385,-0.9703,9.798,-0.0724,-0.0843,-0.0312,-1.746279855767721,-0.034636255353689194,2.1283388137817383,-2.1351304054260254,0.6693406701087952,2.394972324371338,5.409081029682913,-1.0006872415542603,-0.10424479842185974,-1.5213330427752894,-0.0,-0.026679664850234985,0.9290233850479126,2.372463019206818e-17,0.01680627278983593,0.7459710836410522,0.08521831780672073,0.23067325353622437
906.0,1073.0,-2.2385,-0.9703,9.798,-0.0724,-0.0843,-0.0312,-1.7464519939818324,-0.03863993659615517,2.142524480819702,-2.132476329803467,0.6756365895271301,2.4207851886749268,5.4049662230308435,-1.0136276483535767,-0.091074138879776,-1.5213654677020472,-0.0,-0.0015067912172526121,0.9290666580200195,1.0114181626460514e-19,0.01371058076620102,0.7463231086730957,0.08500025421380997,0.2670406103134155
906.0,1073.0,-2.2385,-0.9703,9.798,-0.0724,-0.0843,-0.0312,-1.746667047540182,-0.04571886733174324,2.131174087524414,-2.128465175628662,0.6792956590652466,2.3935694694519043,5.398731279164114,-1.0273443460464478,-0.0898309201002121,-1.521381680165426,-0.0,-0.006144902668893337,0.9290426969528198,2.815319615166404e-23,0.007976948283612728,0.7468230724334717,0.08570604771375656,0.23056884109973907
906.0,1073.0,-2.2385,-0.9703,9.798,-0.0724,-0.0843,-0.0312,-1.7469965420165003,-0.05514129623770714,2.134819984436035,-2.124354362487793,0.6765797138214111,2.39082407951355,5.3925912258918665,-1.0416563749313354,-0.07234011590480804,-1.5213454405414026,0.000255596823990345,-0.006250784732401371,0.9290627241134644,7.836546543581465e-27,0.008428452536463737,0.7473428845405579,0.08336246758699417,0.2339848279953003
906.0,1073.0,-2.2385,-0.9703,9.798,-0.0724,-0.0843,-0.0312,-1.7473613224425257,-0.06150863319635391,2.1141586303710938,-2.1202781200408936,0.6770342588424683,2.380258560180664,5.386236715107717,-1.0538910627365112,-0.06641595810651779,-1.5213497320758265,0.0002624264161568135,-0.008625943213701248,0.9290426969528198,2.1813313887418075e-30,0.008056145161390305,0.7478145956993103,0.08074018359184265,0.23618391156196594
906.0,1073.0,-2.2385,-0.9703,9.798,-0.0724,-0.0843,-0.0312,-1.747625013391012,-0.06368382275104523,2.1562280654907227,-2.1174774169921875,0.6781356334686279,2.4109299182891846,5.382202911167898,-1.0543889999389648,-0.08927526324987411,-1.5213173071490687,0.0002764124365057796,-0.0044680251739919186,0.9290273189544678,9.299357849874194e-33,0.0031016904395073652,0.7481385469436646,0.07814810425043106,0.1993837058544159
906.0,1073.0,-2.2385,-0.9703,9.798,-0.0724,-0.0843,-0.0312,-1.7480627499022425,-0.06383603066205978,2.1339008808135986,-2.1134393215179443,0.6865217685699463,2.380507469177246,5.375915992050924,-1.0547175407409668,-0.07191697508096695,-1.5213173071490687,0.000246380950557068,-0.008960447274148464,0.9290586709976196,2.5885100917526064e-36,0.007576663978397846,0.7486023902893066,0.07293283194303513,0.15427672863006592
906.0,1073.0,-2.2385,-0.9703,9.798,-0.0724,-0.0843,-0.0312,-1.7483979664244593,-0.06314313411712646,2.157815933227539,-2.109280586242676,0.6915003657341003,2.3713927268981934,5.369382011681356,-1.0560996532440186,-0.07447919249534607,-1.5213292280780237,0.00022050651023164392,0.009235071018338203,0.9290233850479126,7.205210456849988e-40,-0.0062064495868980885,0.7490382194519043,0.06643285602331161,0.1352469027042389
906.0,1073.0,-2.2385,-0.9703,9.798,-0.0724,-0.0843,-0.0312,-1.7487389049925746,-0.061807792633771896,2.145672559738159,-2.1066319942474365,0.6891880035400391,2.425328016281128,5.3651243326957605,-1.0625407695770264,-0.04856628179550171,-1.521341625844137,0.0002060783008346334,-0.009379114024341106,0.9290233850479126,3.071646233799999e-42,-0.0037163300439715385,0.7492943406105042,0.06020282581448555,0.17608436942100525
906.0,1073.0,-2.2385,-0.9703,9.798,-0.0724,-0.0843,-0.0312,-1.7491351566710414,-0.06296027451753616,2.1496310234069824,-2.1025550365448,0.6837013363838196,2.421961545944214,5.35868667343215,-1.0669963359832764,-0.04723498225212097,-1.5213292280780237,0.00018766106222756207,0.00457181129604578,0.9290667176246643,-0.00021442011347971857,0.011128845624625683,0.7496582865715027,0.05111067742109299,0.12841175496578217
906.0,1073.0,-2.2385,-0.9703,9.798,-0.0724,-0.0843,-0.0312,-1.7495843372740687,-0.06474030017852783,2.156475305557251,-2.0984654426574707,0.6827803254127502,2.3791511058807373,5.352384316712179,-1.0678128004074097,-0.08113382756710052,-1.5213573614703577,0.00019681875710375607,0.007556303404271603,0.9290237426757812,-0.00018990258104167879,0.0014720254112035036,0.7498858571052551,0.04451322928071022,0.12593260407447815
906.0,1073.0,-2.2385,-0.9703,9.798,-0.0724,-0.0843,-0.0312,-1.7498647175230921,-0.06566402316093445,2.18648624420166,-2.095757246017456,0.6791630983352661,2.3816604614257812,5.348198342114248,-1.0662425756454468,-0.03984130918979645,-1.5213497320758265,0.00018666547839529812,0.009018071927130222,0.929023802280426,-0.00020101577683817595,-0.007322147022932768,0.7501057386398315,0.04138820618391037,0.10094213485717773
906.0,1073.0,-2.2385,-0.9703,9.798,-0.0724,-0.0843,-0.0312,-1.7502647838988246,-0.06737815588712692,2.244580030441284,-2.0916247367858887,0.6685882210731506,2.408212184906006,5.341802227288046,-1.067652940750122,-0.05093361437320709,-1.5213616530047815,0.0001731944503262639,0.01092943362891674,0.9290112853050232,-0.00018816938973031938,-0.0027634422294795513,0.7503377795219421,0.038188446313142776,0.11945401132106781
906.0,1073.0,-2.2385,-0.9703,9.798,-0.0724,-0.0843,-0.0312,-1.7506457767882289,-0.06850694119930267,2.2081851959228516,-2.087545871734619,0.66242915391922,2.37408185005188,5.335453676968374,-1.0666412115097046,-0.06398384273052216,-1.5213335196124476,0.0001617014640942216,-0.0116264121606946,0.9290278553962708,-0.00019138155039399862,-0.004576296545565128,0.75051349401474,0.035268913954496384,0.0848216637969017
906.0,1073.0,-2.2385,-0.9703,9.798,-0.0724,-0.0843,-0.0312,-1.7509051762022914,-0.0677175521850586,2.2362923622131348,-2.084834337234497,0.6621677875518799,2.3872060775756836,5.331263589649954,-1.0569111108779907,-0.03454884886741638,-1.5213335196124476,0.00014451016613747925,0.007701497990638018,0.9290357232093811,-0.00018692448793444782,-0.0011657001450657845,0.7506210803985596,0.033466339111328125,0.06969867646694183
944.0,1046.0,-1.416,-1.1043,9.2524,-0.0617,-0.3998,-0.0593,-1.7512618503966273,-0.0664542093873024,2.237321376800537,-2.0808823108673096,0.6670677065849304,2.4105050563812256,5.324910032540121,-1.039617657661438,-0.04955895245075226,-1.5213335196124476,0.0001546605781186372,-0.00944773480296135,0.9290196895599365,-0.0001898421614896506,-0.00022926926612854004,0.7508010864257812,0.03102065995335579,0.06613347679376602
944.0,1046.0,-1.416,-1.1043,9.2524,-0.0617,-0.3998,-0.0593,-1.7516828976073207,-0.06379227340221405,2.247206211090088,-2.076960802078247,0.6691835522651672,2.441319227218628,5.318809079914846,-1.0165437459945679,-0.04720529168844223,-1.5213173071490687,0.0001453678560210392,0.006216099951416254,0.9289951920509338,-0.0001813665876397863,0.008276378735899925,0.7510215640068054,0.02839464694261551,0.06332694739103317
944.0,1046.0,-1.416,-1.1043,9.2524,-0.0617,-0.3998,-0.0593,-1.7521478138365687,-0.06708510220050812,2.3126144409179688,-2.0730032920837402,0.6587923765182495,2.3540031909942627,5.312799322396078,-1.0012335777282715,-0.04483404383063316,-1.5212934652911585,0.00017857040802482516,0.00585188576951623,0.9290030002593994,-0.0001903077500173822,0.0022268849425017834,0.7511332035064697,0.02322406880557537,0.05797355994582176
944.0,1046.0,-1.416,-1.1043,9.2524,-0.0617,-0.3998,-0.0593,-1.7524072132506312,-0.07066918164491653,2.290454387664795,-2.070380926132202,0.658949077129364,2.389658212661743,5.3088459251220605,-0.9902298450469971,-0.035471975803375244,-1.521357838307516,0.00034886031062342227,0.010680055245757103,0.9290153980255127,-0.00017699311138130724,-0.006356534082442522,0.7512651681900024,0.021908583119511604,0.0317915603518486
944.0,1046.0,-1.416,-1.1043,9.2524,-0.0617,-0.3998,-0.0593,-1.7528916798033656,-0.08066827803850174,2.348252296447754,-2.066453218460083,0.659047544002533,2.454585552215576,5.302916872292318,-0.9748156070709229,-0.011299739591777325,-1.5212653318988245,0.0003968805249314755,0.015141855925321579,0.9290438294410706,-0.0001583163975737989,-0.008686325512826443,0.7513409852981567,0.02007427252829075,0.03477839007973671
944.0,1046.0,-1.416,-1.1043,9.2524,-0.0617,-0.3998,-0.0593,-1.7533680401244105,-0.08813468366861343,2.3343396186828613,-2.0624887943267822,0.6531208157539368,2.417120933532715,5.297176885395803,-0.9569060206413269,-0.02532738260924816,-1.5213173071490687,0.0006952842231839895,0.01694868691265583,0.9289827942848206,-0.00014320062473416328,-0.009191198274493217,0.7514609098434448,0.017535341903567314,-0.024642478674650192
944.0,1046.0,-1.416,-1.1043,9.2524,-0.0617,-0.3998,-0.0593,-1.7537652454771937,-0.09200333803892136,2.337070941925049,-2.05983567237854,0.6535462737083435,2.3712449073791504,5.293413686543264,-0.9430406093597412,-0.02792738378047943,-1.5212934652911585,0.000741572817787528,0.0039351871237158775,0.9290071129798889,-0.00016143494576681405,-0.005467910319566727,0.751529335975647,0.01375898253172636,-0.022044965997338295
944.0,1046.0,-1.416,-1.1043,9.2524,-0.0617,-0.3998,-0.0593,-1.7542735538878382,-0.0909106582403183,2.3273608684539795,-2.055910110473633,0.6473893523216248,2.382152557373047,5.287813710957327,-0.9118105173110962,-0.015565773472189903,-1.5212772528277796,0.0009851718787103891,0.0038818023167550564,0.9289590716362,-0.0001725283364066854,-0.005758524872362614,0.751596987247467,0.008963830769062042,-0.04512223228812218
944.0,1046.0,-1.416,-1.1043,9.2524,-0.0617,-0.3998,-0.0593,-1.7548347912230433,-0.08267858624458313,2.3125386238098145,-2.051959276199341,0.6488754749298096,2.364560842514038,5.282477247505941,-0.8857877850532532,0.009004365652799606,-1.5212810675250452,0.0009260039078071713,0.008414954878389835,0.9290030002593994,-0.00015979628369677812,-0.009350603446364403,0.7516207695007324,0.005834394134581089,-0.04010170325636864
944.0,1046.0,-1.416,-1.1043,9.2524,-0.0617,-0.3998,-0.0593,-1.7551504574217738,-0.07640548050403595,2.362344264984131,-2.049467086791992,0.6534896492958069,2.358802318572998,5.278980242996969,-0.8588104844093323,0.010028492659330368,-1.5212810675250452,0.000846593698952347,0.006775212474167347,0.929039716720581,-0.00015208097465801984,-0.006969246547669172,0.7516607642173767,0.004578161984682083,-0.0755671039223671
944.0,1046.0,-1.416,-1.1043,9.2524,-0.0617,-0.3998,-0.0593,-1.7556640110411585,-0.07090926915407181,2.3553736209869385,-2.045579195022583,0.6531477570533752,2.426738977432251,5.27387826421813,-0.8377127051353455,-0.010837792418897152,-1.521285359059469,0.0006874420796521008,0.013830163516104221,0.9289590120315552,-0.0001620458933757618,-0.004037579521536827,0.7516529560089111,0.003054905915632844,-0.02957325428724289
944.0,1046.0,-1.416,-1.1043,9.2524,-0.0617,-0.3998,-0.0593,-1.7561122379698695,-0.06863625347614288,2.373582363128662,-2.0417466163635254,0.6400765776634216,2.369328022003174,5.269018697529592,-0.817826509475708,0.01576273888349533,-1.5212691465960901,0.0004960373626090586,0.022835111245512962,0.9290030002593994,-0.00015181663911789656,-0.014731384813785553,0.7516447305679321,0.0014082862762734294,-0.03665860742330551
944.0,1046.0,-1.416,-1.1043,9.2524,-0.0617,-0.3998,-0.0593,-1.756496091882223,-0.06931836903095245,2.3408315181732178,-2.037879228591919,0.6364744305610657,2.305218458175659,5.264222132950582,-0.7899525165557861,-0.015052237547934055,-1.5213058630572718,0.0004408819950185716,0.01611696183681488,0.9289631843566895,-0.00014278436719905585,-0.011540653184056282,0.7516689896583557,0.0007894863374531269,0.01452248077839613
944.0,1046.0,-1.416,-1.1043,9.2524,-0.0617,-0.3998,-0.0593,-1.756756444970602,-0.06903737038373947,2.3631558418273926,-2.0354013442993164,0.6358692646026611,2.4439210891723633,5.261142420559683,-0.7767669558525085,-0.01084289513528347,-1.5212615172015589,0.00044214288936927915,0.02150709182024002,0.928966760635376,-0.00013733732339460403,0.00035446113906800747,0.7516648769378662,0.0006107445224188268,-0.08574683964252472
944.0,1046.0,-1.416,-1.1043,9.2524,-0.0617,-0.3998,-0.0593,-1.7571131191649378,-0.06978829950094223,2.414576768875122,-2.0315089225769043,0.6288492679595947,2.435786247253418,5.256557750492849,-0.7524690628051758,-0.0027072441298514605,-1.521257225667135,0.0005678536253981292,0.024850765243172646,0.9290236830711365,-0.0001365241623716429,-0.028759676963090897,0.751612663269043,-0.00012815749505534768,-0.10193324089050293
944.0,1046.0,-1.416,-1.1043,9.2524,-0.0617,-0.3998,-0.0593,-1.7575580082335414,-0.0705094039440155,2.410301923751831,-2.02778959274292,0.6223489046096802,2.4315438270568848,5.252268302231588,-0.7316049933433533,0.004743832163512707,-1.5212371985064905,0.00124371109995991,0.02527843788266182,0.9289791584014893,-0.0001253860245924443,-0.012251799926161766,0.7516168355941772,-0.0020000787917524576,-0.1096983253955841
987.0,1005.0,0.9368,-0.7986,9.0526,-0.0942,-0.3679,-0.13,-1.7577487430968226,-0.06972534209489822,2.4164059162139893,-2.025230884552002,0.6198612451553345,2.414832592010498,5.249323773175039,-0.7151086926460266,-0.00475119985640049,-1.5211852232562464,0.0014267507940530777,0.02344348281621933,0.9290071129798889,-0.00011876687494805083,-0.009705125354230404,0.7515804767608643,-0.0018647576216608286,-0.07292452454566956
987.0,1005.0,0.9368,-0.7986,9.0526,-0.0942,-0.3679,-0.13,-1.7581540546812953,-0.06614618748426437,2.418017864227295,-2.021468162536621,0.6251735687255859,2.375215530395508,5.245134043484487,-0.6863083243370056,-0.0006534556159749627,-1.5212376753436487,0.0016506158281117678,0.018500998616218567,0.9289869666099548,-0.00011005269334418699,-0.01370876282453537,0.7516248822212219,-0.000993819092400372,-0.11874682456254959
987.0,1005.0,0.9368,-0.7986,9.0526,-0.0942,-0.3679,-0.13,-1.7585660419859828,-0.06349408626556396,2.4307971000671387,-2.017791271209717,0.6311788558959961,2.419060230255127,5.241076278477468,-0.660506546497345,0.02082064002752304,-1.5212577025042933,0.0018487449269741774,0.0296627227216959,0.9290193319320679,-0.00010252971696900204,0.0029517714865505695,0.75163733959198,-0.00047854380682110786,-0.05998164415359497
987.0,1005.0,0.9368,-0.7986,9.0526,-0.0942,-0.3679,-0.13,-1.758871694604391,-0.06131666153669357,2.4295198917388916,-2.015272378921509,0.6306617856025696,2.464686393737793,5.238447475224294,-0.6433008909225464,0.011338207870721817,-1.5212095419513147,0.0017033995827659965,0.007062243297696114,0.9290237426757812,-9.806102025322616e-05,-0.006365780718624592,0.7516089081764221,-0.00028335326351225376,-0.03956461697816849
987.0,1005.0,0.9368,-0.7986,9.0526,-0.0942,-0.3679,-0.13,-1.7592512569823207,-0.06534204632043839,2.4199252128601074,-2.0115387439727783,0.6205587387084961,2.403592586517334,5.234592664032736,-0.6273754239082336,0.0051404573023319244,-1.5211895147906702,0.0013036406598985195,0.024633601307868958,0.9289389848709106,-9.204367961501703e-05,-0.011332311667501926,0.7515964508056641,-0.00021538237342610955,-0.11164043843746185
987.0,1005.0,0.9368,-0.7986,9.0526,-0.0942,-0.3679,-0.13,-1.7596804104247035,-0.07144977152347565,2.4333064556121826,-2.007817268371582,0.6233874559402466,2.4022982120513916,5.231005894928732,-0.6082689166069031,0.016417086124420166,-1.521172825490133,0.00106604874599725,0.02443436160683632,0.9290033578872681,-8.672196418046951e-05,-0.025093156844377518,0.7516975998878479,0.0001987191935768351,-0.082900770008564
987.0,1005.0,0.9368,-0.7986,9.0526,-0.0942,-0.3679,-0.13,-1.7601129017271937,-0.07364880293607712,2.4647886753082275,-2.004026412963867,0.625505805015564,2.4201507568359375,5.227449822216787,-0.5849713087081909,0.020648399367928505,-1.5212138334857386,0.0010236587841063738,0.03955534100532532,0.9289910793304443,-8.198205614462495e-05,-0.015124646946787834,0.7516249418258667,0.001185162109322846,-0.1264573633670807
987.0,1005.0,0.9368,-0.7986,9.0526,-0.0942,-0.3679,-0.13,-1.7604299984373988,-0.0718209519982338,2.4854631423950195,-2.0016119480133057,0.6209036707878113,2.4467177391052246,5.225196826248922,-0.57541424036026,0.016419406980276108,-1.5212057272540491,0.0011496925726532936,0.028081387281417847,0.928970992565155,-7.909988926257938e-05,-0.02498762309551239,0.7516731023788452,0.0009805451845750213,-0.12071467936038971
987.0,1005.0,0.9368,-0.7986,9.0526,-0.0942,-0.3679,-0.13,-1.7608663044371546,-0.0700751394033432,2.406080722808838,-1.997762680053711,0.6132325530052185,2.4884142875671387,5.2218243954475305,-0.5699722766876221,0.006672993302345276,-1.5212581793414515,0.0013517645420506597,0.025472309440374374,0.9290233850479126,-7.513755554100499e-05,-0.013410545885562897,0.7516810297966003,0.00029807459213770926,-0.14000630378723145
987.0,1005.0,0.9368,-0.7986,9.0526,-0.0942,-0.3679,-0.13,-1.7612906895079554,-0.07056744396686554,2.4397361278533936,-1.9940215349197388,0.6070301532745361,2.450806140899658,5.218524443894186,-0.550283670425415,0.00830402784049511,-1.5212262312518519,0.0012303885305300355,0.03475433588027954,0.9290511608123779,-7.155336788855493e-05,-0.00043952115811407566,0.7516728639602661,0.0003936600696761161,-0.11060745269060135
987.0,1005.0,0.9368,-0.7986,9.0526,-0.0942,-0.3679,-0.13,-1.7615543804564417,-0.071030393242836,2.3682713508605957,-1.9914864301681519,0.6110501289367676,2.449808120727539,5.21635131815032,-0.5346262454986572,0.008352108299732208,-1.521193806325094,0.0009756815852597356,0.025104163214564323,0.9290278553962708,-6.934784323675558e-05,-0.024534620344638824,0.7517091035842896,0.0006808873731642962,-0.1134423166513443
987.0,1005.0,0.9368,-0.7986,9.0526,-0.0942,-0.3679,-0.13,-1.7619263134398402,-0.0706920400261879,2.4797661304473877,-1.9878934621810913,0.616180956363678,2.473773956298828,5.213098394661703,-0.524715006351471,0.013470395468175411,-1.5212014357196253,0.0007154748309403658,0.02494867518544197,0.9290747046470642,-6.628350092796609e-05,0.002572709694504738,0.751741349697113,0.0021952311508357525,-0.1398681402206421
987.0,1005.0,0.9368,-0.7986,9.0526,-0.0942,-0.3679,-0.13,-1.7623349628844203,-0.06878279894590378,2.4696199893951416,-1.9843043088912964,0.6141518950462341,2.49139404296875,5.2100239274795435,-0.5143890976905823,-0.009896845556795597,-1.5212057272540491,0.0005976349930278957,0.030769065022468567,0.928967297077179,-6.347840826492757e-05,-0.029724836349487305,0.7516968250274658,0.0017600618302822113,-0.11987482011318207
987.0,1005.0,0.9368,-0.7986,9.0526,-0.0942,-0.3679,-0.13,-1.762684007684225,-0.06906931102275848,2.4519295692443848,-1.9818662405014038,0.6076059937477112,2.434643268585205,5.207924383669653,-0.5144252777099609,-0.005560548044741154,-1.5211814085589808,0.0005733849247917533,0.03469669446349144,0.9290070533752441,-6.173662404762581e-05,-0.005107746925204992,0.7517168521881104,0.0014573091175407171,-0.09978686273097992
987.0,1005.0,0.9368,-0.7986,9.0526,-0.0942,-0.3679,-0.13,-1.763099809686178,-0.07362443953752518,2.4414353370666504,-1.9782639741897583,0.6070743799209595,2.466597080230713,5.204978662520208,-0.5001881122589111,0.00423863809555769,-1.5212295691119593,0.00039905603625811636,0.023823287338018417,0.9289427995681763,-5.9296136896591634e-05,-0.014286541379988194,0.7517492175102234,0.0016150756273418665,-0.1439947932958603
987.0,1005.0,0.9368,-0.7986,9.0526,-0.0942,-0.3679,-0.13,-1.7635327778258265,-0.07887730747461319,2.473741292953491,-1.9746308326721191,0.6122323274612427,2.4432568550109863,5.201952355891027,-0.4895397126674652,-0.0068988557904958725,-1.521181885396139,0.0003751813492272049,0.024612082168459892,0.9289951324462891,-5.7041248510358855e-05,-0.014936041086912155,0.7517165541648865,0.0022874183487147093,-0.1271723061800003
987.0,1005.0,0.9368,-0.7986,9.0526,-0.0942,-0.3679,-0.13,-1.7638937435545863,-0.08284538239240646,2.4309375286102295,-1.972300410270691,0.6160964965820312,2.52301287651062,5.199964898615637,-0.48498672246932983,0.017469387501478195,-1.5211613813983362,0.00035798660246655345,0.03659354895353317,0.9289751052856445,-5.56309605599381e-05,-0.019034428521990776,0.7517649531364441,0.002149209612980485,-0.105610691010952
980.0,996.0,1.0594,-1.5906,10.1139,-0.0495,-0.017,-0.1122,-1.7643538914122523,-0.08849360793828964,2.441439628601074,-1.9685865640640259,0.6027606129646301,2.470770835876465,5.197070526867666,-0.4764358699321747,-0.0013616640353575349,-1.5211814085589808,0.0003666176926344633,0.040297992527484894,0.9290111064910889,-5.3641513659385964e-05,-0.012510230764746666,0.7516962885856628,0.0015329972375184298,-0.13690245151519775
980.0,996.0,1.0594,-1.5906,10.1139,-0.0495,-0.017,-0.1122,-1.7648779354491175,-0.09183156490325928,2.47749400138855,-1.9648551940917969,0.5996749401092529,2.454965591430664,5.194320845394888,-0.4725662171840668,0.014836952090263367,-1.5211694876300257,0.0003227294946555048,0.036519818007946014,0.9290669560432434,-5.17894841323141e-05,-0.00600297749042511,0.7517324686050415,0.0012441952712833881,-0.09767784923315048
980.0,996.0,1.0594,-1.5906,10.1139,-0.0495,-0.017,-0.1122,-1.7654806576170863,-0.09465669840574265,2.4429080486297607,-1.9612361192703247,0.602955162525177,2.479346513748169,5.191552388459005,-0.4564305543899536,0.01534887496381998,-1.5211976210223597,0.00029143536812625825,0.042214617133140564,0.9289631843566895,-5.0061058573191985e-05,-0.006581701338291168,0.75174480676651,0.0012726965360343456,-0.09698950499296188
980.0,996.0,1.0594,-1.5906,10.1139,-0.0495,-0.017,-0.1122,-1.7658521137633265,-0.09656800329685211,2.4200615882873535,-1.9587658643722534,0.6055116653442383,2.465693235397339,5.189828681736746,-0.4485313892364502,0.018744299188256264,-1.5211733023272913,0.00025808269856497645,0.03792208805680275,0.9289750456809998,-8.305948426823306e-07,-0.01942947320640087,0.7517690658569336,0.001212553703226149,-0.07946579903364182
980.0,996.0,1.0594,-1.5906,10.1139,-0.0495,-0.017,-0.1122,-1.7663971386351527,-0.09915687888860703,2.4797449111938477,-1.9552123546600342,0.6052649617195129,2.480149269104004,5.187091040402212,-0.4406980276107788,0.024798085913062096,-1.5211737791644495,0.00026411464205011725,0.039445437490940094,0.9289507865905762,-2.3119911540803173e-10,-0.0024440274573862553,0.7517811059951782,0.001000083051621914,-0.1150217354297638
980.0,996.0,1.0594,-1.5906,10.1139,-0.0495,-0.017,-0.1122,-1.766996522943014,-0.09877773374319077,2.4517431259155273,-1.951697826385498,0.6024032831192017,2.5349512100219727,5.1845255372817896,-0.4288577437400818,0.020187217742204666,-1.5211694876300257,0.00023039348889142275,0.018817700445652008,0.9290319085121155,-6.435512387749365e-14,-0.02627725526690483,0.7518091797828674,0.0007067515980452299,-0.12033739686012268
980.0,996.0,1.0594,-1.5906,10.1139,-0.0495,-0.017,-0.1122,-1.767442365685934,-0.10106320679187775,2.460785150527954,-1.949312686920166,0.5934439897537231,2.420445442199707,5.182753342181005,-0.4263324439525604,0.016783395782113075,-1.5211852232562464,0.00024749155272729695,0.027033239603042603,0.9289471507072449,-2.74355956849138e-16,-0.012558316811919212,0.7517649531364441,0.0005907308659516275,-0.10305837541818619
980.0,996.0,1.0594,-1.5906,10.1139,-0.0495,-0.017,-0.1122,-1.7680636845030726,-0.10618291050195694,2.418836832046509,-1.9457255601882935,0.5994492173194885,2.4870011806488037,5.180335181742468,-0.4280746877193451,0.021313447505235672,-1.5212095419513147,0.00022152620658744127,0.0314197801053524,0.9289910793304443,-7.636798956318924e-20,-0.0027687393594533205,0.7517806887626648,0.00047402625204995275,-0.14887884259223938
980.0,996.0,1.0594,-1.5906,10.1139,-0.0495,-0.017,-0.1122,-1.768679758111471,-0.11204411089420319,2.4237594604492188,-1.9421323537826538,0.601672351360321,2.4901814460754395,5.177808749466696,-0.40513738989830017,0.030490493401885033,-1.5211895147906702,0.00020038500952068716,0.015628168359398842,0.9289507865905762,-2.125731017296758e-23,-0.008289718069136143,0.7518091797828674,0.0002941884158644825,-0.15946759283542633
980.0,996.0,1.0594,-1.5906,10.1139,-0.0495,-0.017,-0.1122,-1.769153734246725,-0.11626113206148148,2.432708740234375,-1.9397876262664795,0.5972145795822144,2.495576858520508,5.176161962538519,-0.3986949324607849,0.02625449374318123,-1.5211733023272913,0.0002135016256943345,0.028834864497184753,0.9289748072624207,-9.062323761911769e-26,-0.0037244316190481186,0.7517728805541992,0.00026015008916147053,-0.1275292932987213
980.0,996.0,1.0594,-1.5906,10.1139,-0.0495,-0.017,-0.1122,-1.7698050938048304,-0.12157723307609558,2.4790709018707275,-1.9361395835876465,0.5818849205970764,2.462808132171631,5.173887151270666,-0.39720070362091064,0.04298014938831329,-1.5211775938617151,0.00019758500275202096,0.03593664616346359,0.9289747476577759,-2.5225315827177e-29,-0.002207567449659109,0.7517608404159546,0.0001773825060809031,-0.1516588032245636
980.0,996.0,1.0594,-1.5906,10.1139,-0.0495,-0.017,-0.1122,-1.7705747089781703,-0.12195993214845657,2.4829039573669434,-1.9325071573257446,0.5790385007858276,2.487976312637329,5.171520727663793,-0.3786803185939789,0.05024515092372894,-1.5211580435382288,0.00017324772488791496,0.035169199109077454,0.9290070533752441,-7.02155983461563e-33,-0.02240106835961342,0.7517286539077759,0.00015451792569365352,-0.1725333333015442
980.0,996.0,1.0594,-1.5906,10.1139,-0.0495,-0.017,-0.1122,-1.771243234673971,-0.12023582309484482,2.495288133621216,-1.9290287494659424,0.5847634077072144,2.4055914878845215,5.16929047086791,-0.3658548891544342,0.0355309322476387,-1.52116567293276,0.000185775279533118,0.023870175704360008,0.928966760635376,-1.9544771088130213e-36,-0.011437786743044853,0.7517286539077759,0.00013689011393580586,-0.11454078555107117
980.0,996.0,1.0594,-1.5906,10.1139,-0.0495,-0.017,-0.1122,-1.7716957531371058,-0.12339466065168381,2.5201828479766846,-1.9267898797988892,0.5858601331710815,2.4876201152801514,5.167794185667791,-0.34921330213546753,0.058587413281202316,-1.5211613813983362,0.00020234010298736393,0.026421526446938515,0.9290111660957336,-8.332242581841759e-39,0.00016096833860501647,0.7517083883285522,0.00012721502571366727,-0.15481242537498474
980.0,996.0,1.0594,-1.5906,10.1139,-0.0495,-0.017,-0.1122,-1.7724515400328578,-0.13103526830673218,2.4314942359924316,-1.92335045337677,0.5808041095733643,2.4835400581359863,5.165814298182287,-0.3411177098751068,0.05735468491911888,-1.5211857000934046,0.00042859354289248586,0.024973656982183456,0.9289827346801758,-2.3191489584575723e-42,-0.012544333934783936,0.7517327666282654,8.666412759339437e-05,-0.13520047068595886
980.0,996.0,1.0594,-1.5906,10.1139,-0.0495,-0.017,-0.1122,-1.773294588128561,-0.13744550943374634,2.4161882400512695,-1.9198777675628662,0.575574517250061,2.533216953277588,5.163779514818945,-0.3242889642715454,0.07366928458213806,-1.5211461226092737,0.00042381463572382927,0.028710998594760895,0.928978681564331,-0.0,0.0010740007273852825,0.7517893314361572,7.87201352068223e-05,-0.11770529299974442
