ramyac6/ROB537/final_project/csv/all/bad_100.csv
tof_0,tof_1,accelx,accely,accelz,gyrox,gyroy,gyroz,shoulder_lift_joint_position,shoulder_lift_joint_velocity,shoulder_lift_joint_effort,elbow_joint_position,elbow_joint_velocity,elbow_joint_effort,wrist_1_joint_position,wrist_1_joint_velocity,wrist_1_joint_effort,wrist_2_joint_position,wrist_2_joint_velocity,wrist_2_joint_effort,wrist_3_joint_position,wrist_3_joint_velocity,wrist_3_joint_effort,shoulder_pan_joint_position,shoulder_pan_joint_velocity,shoulder_pan_joint_effort
975.0,913.0,-0.475,-0.2752,9.6132,-0.0356,0.0195,-0.1136,-1.6719886265196742,0.0,2.5471856594085693,-1.7394527196884155,-0.0,2.1020402908325195,4.955732184439459,0.0,0.2803209722042084,-1.5454466978656214,-0.0,-0.02488131821155548,0.7357582449913025,0.0,0.010446365922689438,0.8035498857498169,0.0,-0.016300063580274582
975.0,913.0,-0.475,-0.2752,9.6132,-0.0356,0.0195,-0.1136,-1.6719848118224085,0.0,2.5639872550964355,-1.7394486665725708,-0.0,2.0815372467041016,4.955752256303587,0.0,0.28104260563850403,-1.545450512562887,-0.0,0.0026328968815505505,0.735713541507721,0.0,0.004012475721538067,0.8035535216331482,0.0,0.0020670322701334953
975.0,913.0,-0.475,-0.2752,9.6132,-0.0356,0.0195,-0.1136,-1.6719523868956507,0.0,2.6030685901641846,-1.7394566535949707,-0.0,2.131178855895996,4.955760496645727,0.0,0.27409443259239197,-1.5454748312579554,-0.0,-0.009985590353608131,0.7357622385025024,0.0,-0.0016849092207849026,0.803570032119751,0.0,-0.039325617253780365
975.0,913.0,-0.475,-0.2752,9.6132,-0.0356,0.0195,-0.1136,-1.6719399891295375,0.0,2.5248143672943115,-1.7394928932189941,-0.0,2.102776288986206,4.955764490156927,0.0,0.2783735692501068,-1.5455029646502894,-0.0,-0.024654222652316093,0.7357258200645447,0.0,-0.006204546894878149,0.8035457730293274,0.0,-0.03249916434288025
975.0,913.0,-0.475,-0.2752,9.6132,-0.0356,0.0195,-0.1136,-1.6719604931273402,0.0,2.5752382278442383,-1.739516258239746,-0.0,2.148521661758423,4.95574817338542,0.0,0.2773897647857666,-1.5454791227923792,-0.0,-0.01087076123803854,0.7357258200645447,0.0,-0.003644198877736926,0.8036143779754639,0.0,-0.01846546307206154
975.0,913.0,-0.475,-0.2752,9.6132,-0.0356,0.0195,-0.1136,-1.6719123325743617,0.0,2.525599718093872,-1.7394561767578125,-0.0,2.1428747177124023,4.95574817338542,0.0,0.28144127130508423,-1.5454948584186,-0.0,-0.021045275032520294,0.7357339859008789,0.0,0.0005353203741833568,0.8036102056503296,0.0,-0.0016333567909896374
975.0,913.0,-0.475,-0.2752,9.6132,-0.0356,0.0195,-0.1136,-1.6719566784300746,0.0,2.5441842079162598,-1.7394928932189941,-0.0,2.1269636154174805,4.955796885281362,0.0,0.2674625515937805,-1.5454710165606897,-0.0,-0.01113235205411911,0.7357499599456787,0.0,0.002702513709664345,0.8036023378372192,0.0,0.030345343053340912
975.0,913.0,-0.475,-0.2752,9.6132,-0.0356,0.0195,-0.1136,-1.6719728908934535,0.0,2.535308361053467,-1.739492416381836,-0.0,2.1410083770751953,4.955768573075094,0.0,0.2743360996246338,-1.5454466978656214,-0.0,-0.015137752518057823,0.7357094883918762,0.0,0.01045001856982708,0.8035861849784851,0.0,0.030365390703082085
975.0,913.0,-0.475,-0.2752,9.6132,-0.0356,0.0195,-0.1136,-1.6719967327513636,0.0,2.576075315475464,-1.7394804954528809,-0.0,2.096834659576416,4.955796885281362,0.0,0.2764645516872406,-1.5454304854022425,-0.0,-0.011309830471873283,0.7357299327850342,0.0,0.0026976843364536762,0.8035539984703064,0.0,-0.008870407938957214
993.0,894.0,-0.4863,-0.2536,9.5797,-0.038,0.0244,-0.1176,-1.671948572198385,0.0,2.518146276473999,-1.7394845485687256,-0.0,2.125143527984619,4.955776813417234,0.0,0.2776944637298584,-1.5454791227923792,-0.0,-0.019679352641105652,0.735754132270813,0.0,0.012838626280426979,0.8035779595375061,0.0,-0.0095301428809762
993.0,894.0,-0.4863,-0.2536,9.5797,-0.038,0.0244,-0.1176,-1.6719805202879847,0.0,2.568636655807495,-1.7394765615463257,-0.0,2.104128837585449,4.955776813417234,0.0,0.28514671325683594,-1.545438591633932,-0.0,-0.0027491890359669924,0.735713541507721,0.0,0.009219978004693985,0.803561806678772,0.0,0.01840219646692276
993.0,894.0,-0.4863,-0.2536,9.5797,-0.038,0.0244,-0.1176,-1.671948572198385,0.0,2.5375704765319824,-1.7395166158676147,-0.0,2.088695764541626,4.95575641372756,0.0,0.271198570728302,-1.5454948584186,-0.0,-0.015055323019623756,0.7356699705123901,0.0,-0.0037162438966333866,0.8035740852355957,0.0,0.00775495357811451
993.0,894.0,-0.4863,-0.2536,9.5797,-0.038,0.0244,-0.1176,-1.6719361744322718,0.0,2.5733489990234375,-1.739437222480774,-0.0,2.1887431144714355,4.955699863820829,0.0,0.2848067283630371,-1.545462433491842,-0.0,-0.011118348687887192,0.7357861995697021,0.0,-0.0032296781428158283,0.8035576939582825,0.0,0.017179451882839203
993.0,894.0,-0.4863,-0.2536,9.5797,-0.038,0.0244,-0.1176,-1.6719805202879847,0.0,2.530590295791626,-1.7395122051239014,-0.0,2.128546714782715,4.955740409880438,0.0,0.2788868844509125,-1.5454872290240687,-0.0,-0.011625219136476517,0.7357499599456787,0.0,0.0016692131757736206,0.8035457730293274,0.0,-0.0424603596329689
993.0,894.0,-0.4863,-0.2536,9.5797,-0.038,0.0244,-0.1176,-1.6719609699644984,0.0,2.5304784774780273,-1.7394601106643677,-0.0,2.114488363265991,4.955723944097318,0.0,0.2828560769557953,-1.545462433491842,-0.0,-0.021260200068354607,0.7356494069099426,0.0,0.0031036757864058018,0.8035457730293274,0.0,-0.024323197081685066
993.0,894.0,-0.4863,-0.2536,9.5797,-0.038,0.0244,-0.1176,-1.671931882897848,0.0,2.5350072383880615,-1.7394293546676636,-0.0,2.0853614807128906,4.9557727603013895,0.0,0.28117313981056213,-1.5454710165606897,-0.0,0.007721335627138615,0.7358025908470154,0.0,-0.0006956331781111658,0.8035944104194641,0.0,0.010422083549201488
993.0,894.0,-0.4863,-0.2536,9.5797,-0.038,0.0244,-0.1176,-1.6719442806639613,0.0,2.580820083618164,-1.7395201921463013,-0.0,2.094048500061035,4.9557281015212915,0.0,0.29194897413253784,-1.5454228560077112,-0.0,-0.002746581332758069,0.7357984185218811,0.0,0.0050100903026759624,0.803570032119751,0.0,-0.01864541321992874
993.0,894.0,-0.4863,-0.2536,9.5797,-0.038,0.0244,-0.1176,-1.6719161472716273,0.0,2.571228504180908,-1.739500880241394,-0.0,2.140195369720459,4.95580472329215,0.0,0.2661277949810028,-1.5454428831683558,-0.0,-0.013290425762534142,0.7357500195503235,0.0,0.009046493098139763,0.8035941123962402,0.0,0.014688038267195225
993.0,894.0,-0.4863,-0.2536,9.5797,-0.038,0.0244,-0.1176,-1.6719967327513636,0.0,2.5792582035064697,-1.7394720315933228,-0.0,2.1451900005340576,4.95582481005744,0.0,0.2647264003753662,-1.545438591633932,-0.0,-0.011056290939450264,0.7357541918754578,0.0,0.006467224098742008,0.8035982251167297,0.0,-0.00683998130261898
993.0,894.0,-0.4863,-0.2536,9.5797,-0.038,0.0244,-0.1176,-1.6719361744322718,0.0,2.570915699005127,-1.739475965499878,-0.0,2.0838143825531006,4.955744492798605,0.0,0.27925655245780945,-1.545462433491842,-0.0,-0.008165990002453327,0.7357660531997681,0.0,0.01485405769199133,0.8036064505577087,0.0,-0.012511228211224079
993.0,894.0,-0.4863,-0.2536,9.5797,-0.038,0.0244,-0.1176,-1.6719242535033167,0.0,2.5631704330444336,-1.7394452095031738,-0.0,2.0785391330718994,4.95578050890521,0.0,0.27629345655441284,-1.5454748312579554,-0.0,-0.022180277854204178,0.7357660531997681,0.0,-0.004850764758884907,0.8035741448402405,0.0,-0.008010097779333591
993.0,894.0,-0.4863,-0.2536,9.5797,-0.038,0.0244,-0.1176,-1.6719399891295375,0.0,2.5292978286743164,-1.7394804954528809,-0.0,2.094115734100342,4.955752256303587,0.0,0.26742762327194214,-1.545462433491842,-0.0,-0.015842817723751068,0.7356934547424316,0.0,-0.0036770859733223915,0.8035576343536377,0.0,0.012507869862020016
993.0,894.0,-0.4863,-0.2536,9.5797,-0.038,0.0244,-0.1176,-1.6719685993590296,0.0,2.5196332931518555,-1.7394332885742188,-0.0,2.127387762069702,4.95574817338542,0.0,0.2857077121734619,-1.545438591633932,-0.0,-0.018092280253767967,0.7356859445571899,0.0,-0.002216076711192727,0.8035659193992615,0.0,0.011026057414710522
993.0,894.0,-0.4863,-0.2536,9.5797,-0.038,0.0244,-0.1176,-1.6719523868956507,0.0,2.523348808288574,-1.7394720315933228,-0.0,2.105574131011963,4.955784576922216,0.0,0.26258525252342224,-1.5454710165606897,-0.0,-0.015903763473033905,0.7357462048530579,0.0,-0.011190326884388924,0.8035820722579956,0.0,0.05283725634217262
993.0,894.0,-0.4863,-0.2536,9.5797,-0.038,0.0244,-0.1176,-1.671948572198385,0.0,2.5387122631073,-1.7394845485687256,-0.0,2.155365228652954,4.955740409880438,0.0,0.27914342284202576,-1.545483414326803,-0.0,-0.021525166928768158,0.7357381582260132,0.0,0.003849594620987773,0.8035498857498169,0.0,-0.041147977113723755
975.0,866.0,-0.4104,-0.2495,9.5049,-0.0315,0.0289,-0.1217,-1.6719280682005824,0.0,2.6200637817382812,-1.739475965499878,-0.0,2.105992078781128,4.955744492798605,0.0,0.2714918851852417,-1.5454958120929163,-0.0,-0.010729795321822166,0.7357298731803894,0.0,-0.004734399728477001,0.8035902976989746,0.0,0.008681817911565304
975.0,866.0,-0.4104,-0.2495,9.5049,-0.0315,0.0289,-0.1217,-1.6719886265196742,0.0,2.559183359146118,-1.739479899406433,-0.0,2.134444236755371,4.955800580769338,0.0,0.2705158591270447,-1.5454710165606897,-0.0,-0.020673170685768127,0.7357176542282104,0.0,-0.0035717524588108063,0.8036061525344849,0.0,0.032958969473838806
975.0,866.0,-0.4104,-0.2495,9.5049,-0.0315,0.0289,-0.1217,-1.6719728908934535,0.0,2.542971611022949,-1.7395167350769043,-0.0,2.122851848602295,4.955772730499067,0.0,0.2836078405380249,-1.5454748312579554,-0.0,6.840727292001247e-05,0.7357218265533447,0.0,0.008371472358703613,0.803537905216217,0.0,0.0036148112267255783
975.0,866.0,-0.4104,-0.2495,9.5049,-0.0315,0.0289,-0.1217,-1.6719886265196742,0.0,2.52591872215271,-1.7394447326660156,-0.0,2.079476833343506,4.955768573075094,0.0,0.29051074385643005,-1.545450512562887,-0.0,-0.018005061894655228,0.7357176542282104,0.0,-0.012577964924275875,0.8035820722579956,0.0,-0.010811141692101955
975.0,866.0,-0.4104,-0.2495,9.5049,-0.0315,0.0289,-0.1217,-1.6719566784300746,0.0,2.5621635913848877,-1.7394845485687256,-0.0,2.1456756591796875,4.9557522414024255,0.0,0.29022663831710815,-1.5454872290240687,-0.0,-0.01100076362490654,0.7357586026191711,0.0,-0.006337195634841919,0.8035779595375061,0.0,-0.008564316667616367
975.0,866.0,-0.4104,-0.2495,9.5049,-0.0315,0.0289,-0.1217,-1.6719728908934535,0.0,2.5436246395111084,-1.7395241260528564,-0.0,2.1354637145996094,4.9557284889514825,0.0,0.2842734456062317,-1.5454586187945765,-0.0,-0.01465105451643467,0.7357217073440552,0.0,-0.0013729383936151862,0.8036102652549744,0.0,0.00967974029481411
975.0,866.0,-0.4104,-0.2495,9.5049,-0.0315,0.0289,-0.1217,-1.6719523868956507,0.0,2.5444068908691406,-1.7394721508026123,-0.0,2.118828296661377,4.955752748041906,0.0,0.28189828991889954,-1.5454548040973108,-0.0,-0.015739919617772102,0.7356859445571899,0.0,-0.002836408093571663,0.8035820722579956,0.0,-0.05547531321644783
975.0,866.0,-0.4104,-0.2495,9.5049,-0.0315,0.0289,-0.1217,-1.6719242535033167,0.0,2.5384137630462646,-1.739479899406433,-0.0,2.1802163124084473,4.955824899464407,0.0,0.2651512026786804,-1.545490566884176,-0.0,-0.013951494358479977,0.7357541918754578,0.0,-0.010660883970558643,0.8035737872123718,0.0,0.036424968391656876
975.0,866.0,-0.4104,-0.2495,9.5049,-0.0315,0.0289,-0.1217,-1.6720205746092738,0.0,2.4862539768218994,-1.7395325899124146,-0.0,2.124882221221924,4.955748113780775,0.0,0.27798277139663696,-1.545483414326803,-0.0,-0.0037027557846158743,0.7357339859008789,0.0,0.003299337811768055,0.8036020398139954,0.0,-0.0220327191054821
975.0,866.0,-0.4104,-0.2495,9.5049,-0.0315,0.0289,-0.1217,-1.6719442806639613,0.0,2.5476765632629395,-1.739492416381836,-0.0,2.1662120819091797,4.955784576922216,0.0,0.27150392532348633,-1.5454791227923792,-0.0,-0.01189995463937521,0.7357663512229919,0.0,-0.004987433552742004,0.8035737872123718,0.0,-0.03531775623559952
975.0,866.0,-0.4104,-0.2495,9.5049,-0.0315,0.0289,-0.1217,-1.6719685993590296,0.0,2.5395822525024414,-1.7394968271255493,-0.0,2.115755081176758,4.95575641372756,0.0,0.279922753572464,-1.5454986731158655,-0.0,-0.0027225660160183907,0.7357299327850342,0.0,0.0034080238547176123,0.803602397441864,0.0,-0.005625609308481216
975.0,866.0,-0.4104,-0.2495,9.5049,-0.0315,0.0289,-0.1217,-1.6719566784300746,0.0,2.5666966438293457,-1.7394130229949951,-0.0,2.0948374271392822,4.955784576922216,0.0,0.2752688229084015,-1.5454748312579554,-0.0,-0.004509876947849989,0.7357298731803894,0.0,-0.0015960696619004011,0.8035700917243958,0.0,0.0018761050887405872
975.0,866.0,-0.4104,-0.2495,9.5049,-0.0315,0.0289,-0.1217,-1.6719685993590296,0.0,2.5417943000793457,-1.7394486665725708,-0.0,2.1341519355773926,4.955744492798605,0.0,0.2807685136795044,-1.5454948584186,-0.0,-0.008756238035857677,0.7357819676399231,0.0,-0.0066834003664553165,0.8036064505577087,0.0,-0.004023738205432892
975.0,866.0,-0.4104,-0.2495,9.5049,-0.0315,0.0289,-0.1217,-1.6719609699644984,0.0,2.5743765830993652,-1.7394332885742188,-0.0,2.1231753826141357,4.955752256303587,0.0,0.2708272635936737,-1.545438591633932,-0.0,-0.01853187009692192,0.7357620000839233,0.0,7.223873399198055e-05,0.8036225438117981,0.0,0.00550964055582881
975.0,866.0,-0.4104,-0.2495,9.5049,-0.0315,0.0289,-0.1217,-1.671992918054098,0.0,2.5614171028137207,-1.739504337310791,-0.0,2.1379520893096924,4.9556961981351755,0.0,0.27160704135894775,-1.5454710165606897,-0.0,-0.014982154592871666,0.7357054352760315,0.0,-0.011390183120965958,0.8035820722579956,0.0,-0.019915640354156494
975.0,866.0,-0.4104,-0.2495,9.5049,-0.0315,0.0289,-0.1217,-1.6719685993590296,0.0,2.5182597637176514,-1.7394720315933228,-0.0,2.1132824420928955,4.955712172179975,0.0,0.2764768898487091,-1.5454466978656214,-0.0,-0.005283321253955364,0.7357582449913025,0.0,-0.004176069982349873,0.8035617470741272,0.0,-0.00021712156012654305
978.0,917.0,-0.5121,-0.2794,9.5462,-0.0362,0.0276,-0.1274,-1.671976705590719,0.0,2.565585136413574,-1.7394804954528809,-0.0,2.0659074783325195,4.955768587976255,0.0,0.2685840129852295,-1.5454748312579554,-0.0,-0.028840284794569016,0.7357299327850342,0.0,0.005109043791890144,0.8036102652549744,0.0,-0.04389283433556557
978.0,917.0,-0.5121,-0.2794,9.5462,-0.0362,0.0276,-0.1274,-1.6719523868956507,0.0,2.504426956176758,-1.7395241260528564,-0.0,2.158752918243408,4.955736222654142,0.0,0.2634570300579071,-1.5454710165606897,-0.0,-0.022953474894165993,0.7357381582260132,0.0,-0.008029394783079624,0.8036023378372192,0.0,0.0022716012317687273
978.0,917.0,-0.5121,-0.2794,9.5462,-0.0362,0.0276,-0.1274,-1.6720010242857875,0.0,2.5655815601348877,-1.7394640445709229,-0.0,2.121114492416382,4.955764490156927,0.0,0.2773035168647766,-1.5454590956317347,-0.0,-0.017335601150989532,0.7357381582260132,0.0,0.002778327325358987,0.8035540580749512,0.0,-0.0020169997587800026
978.0,917.0,-0.5121,-0.2794,9.5462,-0.0362,0.0276,-0.1274,-1.6719361744322718,0.0,2.6151809692382812,-1.7394884824752808,-0.0,2.094512701034546,4.955776843219557,0.0,0.2824925482273102,-1.5454705397235315,-0.0,-0.013458868488669395,0.7357218265533447,0.0,-0.00635958556085825,0.8035982251167297,0.0,-0.011966907419264317
978.0,917.0,-0.5121,-0.2794,9.5462,-0.0362,0.0276,-0.1274,-1.671976705590719,0.0,2.5321474075317383,-1.739492416381836,-0.0,2.1412527561187744,4.955764490156927,0.0,0.28042522072792053,-1.545466725026266,-0.0,-0.00784242246299982,0.7357217073440552,0.0,-0.008892708458006382,0.8036102652549744,0.0,-0.05200417339801788
978.0,917.0,-0.5121,-0.2794,9.5462,-0.0362,0.0276,-0.1274,-1.6719566784300746,0.0,2.5213615894317627,-1.7394883632659912,-0.0,2.1003875732421875,4.955740469485082,0.0,0.26867997646331787,-1.5454986731158655,-0.0,-0.009279501624405384,0.735745906829834,0.0,0.004486283287405968,0.8035378456115723,0.0,-0.016458390280604362
978.0,917.0,-0.5121,-0.2794,9.5462,-0.0362,0.0276,-0.1274,-1.671964784661764,0.0,2.5284109115600586,-1.7394452095031738,-0.0,2.1568784713745117,4.955784547119894,0.0,0.2737290859222412,-1.5454185644732874,-0.0,-0.009519102051854134,0.735745906829834,0.0,-0.004075496923178434,0.8036267161369324,0.0,0.005668070632964373
978.0,917.0,-0.5121,-0.2794,9.5462,-0.0362,0.0276,-0.1274,-1.671964784661764,0.0,2.532646894454956,-1.7395048141479492,-0.0,2.1166718006134033,4.95575641372756,0.0,0.26675912737846375,-1.5454986731158655,-0.0,-0.024835333228111267,0.7356859445571899,0.0,-0.00404743617400527,0.8035498857498169,0.0,-0.028800256550312042
978.0,917.0,-0.5121,-0.2794,9.5462,-0.0362,0.0276,-0.1274,-1.6719690761961878,0.0,2.5707626342773438,-1.7394804954528809,-0.0,2.131422996520996,4.955768722086706,0.0,0.26693880558013916,-1.5454304854022425,-0.0,-0.006994221359491348,0.7357982993125916,0.0,0.001429760130122304,0.803537905216217,0.0,-0.0038288726937025785
978.0,917.0,-0.5121,-0.2794,9.5462,-0.0362,0.0276,-0.1274,-1.6719886265196742,0.0,2.520272731781006,-1.739475965499878,-0.0,2.1305484771728516,4.955796915083685,0.0,0.29051005840301514,-1.5455029646502894,-0.0,-0.01696678437292576,0.7357259392738342,0.0,0.007815539836883545,0.8035539984703064,0.0,-0.023086557164788246
978.0,917.0,-0.5121,-0.2794,9.5462,-0.0362,0.0276,-0.1274,-1.6719685993590296,0.0,2.577878475189209,-1.7395206689834595,-0.0,2.089364528656006,4.955768602877416,0.0,0.27667495608329773,-1.545490566884176,-0.0,-0.009399786591529846,0.7357659935951233,0.0,0.0017842263914644718,0.8036023378372192,0.0,0.009644783101975918
978.0,917.0,-0.5121,-0.2794,9.5462,-0.0362,0.0276,-0.1274,-1.6719566784300746,0.0,2.5854299068450928,-1.7394486665725708,-0.0,2.1498003005981445,4.95575230100707,0.0,0.27984651923179626,-1.545527760182516,-0.0,-0.02438979595899582,0.7356777787208557,0.0,-0.008403093554079533,0.8035659193992615,0.0,-0.007533092051744461
978.0,917.0,-0.5121,-0.2794,9.5462,-0.0362,0.0276,-0.1274,-1.6719728908934535,0.0,2.551609992980957,-1.7394720315933228,-0.0,2.148571491241455,4.955756339221754,0.0,0.27186328172683716,-1.545438591633932,-0.0,-0.013549301773309708,0.7357258200645447,0.0,-0.005351883824914694,0.8035820722579956,0.0,0.021784307435154915
978.0,917.0,-0.5121,-0.2794,9.5462,-0.0362,0.0276,-0.1274,-1.6718999348082484,0.0,2.571834087371826,-1.7394605875015259,-0.0,2.106994390487671,4.955780926137724,0.0,0.2817014455795288,-1.545466725026266,-0.0,-0.015059517696499825,0.7357903122901917,0.0,-0.0035649165511131287,0.8035659193992615,0.0,0.041760966181755066
978.0,917.0,-0.5121,-0.2794,9.5462,-0.0362,0.0276,-0.1274,-1.671976705590719,0.0,2.556828260421753,-1.7394412755966187,-0.0,2.093607187271118,4.955736237555303,0.0,0.2825199365615845,-1.5454424063311976,-0.0,-0.011012820526957512,0.7357378005981445,0.0,-0.006191274616867304,0.8035861849784851,0.0,-0.009340150281786919
978.0,917.0,-0.5121,-0.2794,9.5462,-0.0362,0.0276,-0.1274,-1.6719566784300746,0.0,2.5592589378356934,-1.7394928932189941,-0.0,2.1248650550842285,4.955768573075094,0.0,0.27141618728637695,-1.545506779347555,-0.0,-0.014876274392008781,0.7357339859008789,0.0,-0.013520561158657074,0.8035540580749512,0.0,0.02314104326069355
978.0,917.0,-0.5121,-0.2794,9.5462,-0.0362,0.0276,-0.1274,-1.6719404659666957,0.0,2.5149922370910645,-1.7394527196884155,-0.0,2.1109979152679443,4.955736312061109,0.0,0.280220091342926,-1.5454428831683558,-0.0,-0.00642946595326066,0.7357340455055237,0.0,-0.009969446808099747,0.8035941123962402,0.0,0.03699519857764244
970.0,911.0,-0.4995,-0.2291,9.5342,-0.0336,0.0226,-0.1156,-1.6719643078246058,0.0,2.5273964405059814,-1.7394838333129883,-0.0,2.1494150161743164,4.955784576922216,0.0,0.26518893241882324,-1.545450512562887,-0.0,-0.014048632234334946,0.7356657981872559,0.0,0.0070804813876748085,0.8035457730293274,0.0,0.015150226652622223
970.0,911.0,-0.4995,-0.2291,9.5342,-0.0336,0.0226,-0.1156,-1.672004838983053,0.0,2.6051764488220215,-1.7394373416900635,-0.0,2.1441917419433594,4.955784517317571,0.0,0.27322232723236084,-1.5454590956317347,-0.0,-0.016390487551689148,0.7357339859008789,0.0,-0.007142073940485716,0.8035899996757507,0.0,-0.006416468881070614
970.0,911.0,-0.4995,-0.2291,9.5342,-0.0336,0.0226,-0.1156,-1.6719399891295375,0.0,2.5723066329956055,-1.7394373416900635,-0.0,2.1090383529663086,4.9557362524564645,0.0,0.27624157071113586,-1.545450512562887,-0.0,-0.019184304401278496,0.7357298731803894,0.0,8.316943421959877e-06,0.8035861849784851,0.0,0.0214868001639843
970.0,911.0,-0.4995,-0.2291,9.5342,-0.0336,0.0226,-0.1156,-1.6719848118224085,0.0,2.5585150718688965,-1.7394605875015259,-0.0,2.1141672134399414,4.955768573075094,0.0,0.27387964725494385,-1.545450512562887,-0.0,-0.02179102599620819,0.7356577515602112,0.0,0.0006799458060413599,0.8035944104194641,0.0,-0.003605436533689499
970.0,911.0,-0.4995,-0.2291,9.5342,-0.0336,0.0226,-0.1156,-1.6719685993590296,0.0,2.5668911933898926,-1.739504337310791,-0.0,2.1135668754577637,4.955792802363195,0.0,0.28081417083740234,-1.545450512562887,-0.0,0.005308200605213642,0.7357340455055237,0.0,-0.0061706481501460075,0.8035539984703064,0.0,0.020114338025450706
970.0,911.0,-0.4995,-0.2291,9.5342,-0.0336,0.0226,-0.1156,-1.6719685993590296,0.0,2.564984083175659,-1.7394373416900635,-0.0,2.128345012664795,4.955716255098142,0.0,0.28347334265708923,-1.545462433491842,-0.0,-0.00911225751042366,0.7357422113418579,0.0,0.010320425033569336,0.8035779595375061,0.0,0.00019497622270137072
970.0,911.0,-0.4995,-0.2291,9.5342,-0.0336,0.0226,-0.1156,-1.6719361744322718,0.0,2.5630548000335693,-1.739500880241394,-0.0,2.069831609725952,4.955752256303587,0.0,0.26997485756874084,-1.5454424063311976,-0.0,-0.021158505231142044,0.7357381582260132,0.0,0.009894570335745811,0.8035779595375061,0.0,0.02541956678032875
970.0,911.0,-0.4995,-0.2291,9.5342,-0.0336,0.0226,-0.1156,-1.6719566784300746,0.0,2.5399537086486816,-1.7394804954528809,-0.0,2.1197121143341064,4.9557362524564645,0.0,0.281517893075943,-1.545506779347555,-0.0,-0.030028535053133965,0.735745906829834,0.0,-0.006171263754367828,0.8035820722579956,0.0,0.012895535677671432
970.0,911.0,-0.4995,-0.2291,9.5342,-0.0336,0.0226,-0.1156,-1.671948572198385,0.0,2.5430116653442383,-1.7394605875015259,-0.0,2.1212456226348877,4.955792802363195,0.0,0.2815120220184326,-1.5454428831683558,-0.0,-0.0043458580039441586,0.7356942296028137,0.0,0.001820689532905817,0.80357825756073,0.0,-0.014967861585319042
970.0,911.0,-0.4995,-0.2291,9.5342,-0.0336,0.0226,-0.1156,-1.6719728908934535,0.0,2.5185108184814453,-1.7394845485687256,-0.0,2.112194776535034,4.955764564662733,0.0,0.2700730264186859,-1.5454791227923792,-0.0,-0.01558082364499569,0.7357176542282104,0.0,0.00789816863834858,0.8035659193992615,0.0,-0.005021234974265099
970.0,911.0,-0.4995,-0.2291,9.5342,-0.0336,0.0226,-0.1156,-1.6719848118224085,0.0,2.524179458618164,-1.7394804954528809,-0.0,2.1085519790649414,4.955772730499067,0.0,0.2744620442390442,-1.5454466978656214,-0.0,-0.02267495170235634,0.735713541507721,0.0,-0.007231338880956173,0.803602397441864,0.0,0.005954275373369455
970.0,911.0,-0.4995,-0.2291,9.5342,-0.0336,0.0226,-0.1156,-1.6719523868956507,0.0,2.5836424827575684,-1.7394804954528809,-0.0,2.1183810234069824,4.955828907876768,0.0,0.27713051438331604,-1.5454028288470667,-0.0,-0.016280222684144974,0.7357618808746338,0.0,-0.014589976519346237,0.8035941123962402,0.0,-0.04195971041917801
970.0,911.0,-0.4995,-0.2291,9.5342,-0.0336,0.0226,-0.1156,-1.6719886265196742,0.0,2.5541820526123047,-1.7395009994506836,-0.0,2.1041221618652344,4.955720189004698,0.0,0.277023047208786,-1.545450512562887,-0.0,-0.016148878261446953,0.7357459664344788,0.0,0.0011886503780260682,0.8036185503005981,0.0,-0.028247252106666565
970.0,911.0,-0.4995,-0.2291,9.5342,-0.0336,0.0226,-0.1156,-1.6719604931273402,0.0,2.52390718460083,-1.739472508430481,-0.0,2.1090054512023926,4.955780494004049,0.0,0.2736224830150604,-1.5454872290240687,-0.0,-0.010197527706623077,0.7357500195503235,0.0,0.0117462994530797,0.8035941123962402,0.0,-0.029894504696130753
970.0,911.0,-0.4995,-0.2291,9.5342,-0.0336,0.0226,-0.1156,-1.6719442806639613,0.0,2.5762572288513184,-1.7394332885742188,-0.0,2.154204845428467,4.955744492798605,0.0,0.26202449202537537,-1.5454266707049769,-0.0,-0.012352325022220612,0.7357339859008789,0.0,0.004319801460951567,0.8036023378372192,0.0,-0.01974938064813614
970.0,911.0,-0.4995,-0.2291,9.5342,-0.0336,0.0226,-0.1156,-1.6719728908934535,0.0,2.544673442840576,-1.7394373416900635,-0.0,2.107574701309204,4.955764490156927,0.0,0.2804568409919739,-1.5454266707049769,-0.0,-0.007571612950414419,0.735713541507721,0.0,0.008321214467287064,0.8035617470741272,0.0,-0.03448253870010376
957.0,900.0,-0.5372,-0.2489,9.5492,-0.0254,0.0209,-0.1141,-1.671964784661764,0.0,2.5213782787323,-1.7394293546676636,-0.0,2.092458724975586,4.955752256303587,0.0,0.261745810508728,-1.545483414326803,-0.0,-0.007570287212729454,0.7357622385025024,0.0,-0.004716861993074417,0.8035779595375061,0.0,-0.03515281900763512
957.0,900.0,-0.5372,-0.2489,9.5492,-0.0254,0.0209,-0.1141,-1.671919961968893,0.0,2.5356290340423584,-1.7394963502883911,-0.0,2.143754482269287,4.955768573075094,0.0,0.28857019543647766,-1.545450512562887,-0.0,-0.01867670565843582,0.7357298731803894,0.0,0.0009350161999464035,0.8035576343536377,0.0,-0.020388295873999596
957.0,900.0,-0.5372,-0.2489,9.5492,-0.0254,0.0209,-0.1141,-1.6719523868956507,0.0,2.545384168624878,-1.7394253015518188,-0.0,2.096055030822754,4.955764505058088,0.0,0.2766101360321045,-1.545466725026266,-0.0,-0.012267358601093292,0.7357016205787659,0.0,-0.00043196830665692687,0.8035741448402405,0.0,-0.0023270631209015846
957.0,900.0,-0.5372,-0.2489,9.5492,-0.0254,0.0209,-0.1141,-1.6720291576781214,0.0,2.606388568878174,-1.7395122051239014,-0.0,2.0916006565093994,4.955796885281362,0.0,0.26843565702438354,-1.5454590956317347,-0.0,-0.019731715321540833,0.7357258200645447,0.0,0.0027070892974734306,0.8035457730293274,0.0,-0.007101725786924362
957.0,900.0,-0.5372,-0.2489,9.5492,-0.0254,0.0209,-0.1141,-1.6719685993590296,0.0,2.5424649715423584,-1.7394527196884155,-0.0,2.1059346199035645,4.955760496645727,0.0,0.2892942428588867,-1.5454347769366663,-0.0,-0.013445674441754818,0.7357138991355896,0.0,-0.004761115647852421,0.8035861849784851,0.0,0.037739381194114685
957.0,900.0,-0.5372,-0.2489,9.5492,-0.0254,0.0209,-0.1141,-1.6720129452147425,0.0,2.540961265563965,-1.7394968271255493,-0.0,2.122716188430786,4.955788734346189,0.0,0.2746809124946594,-1.545483414326803,-0.0,-0.004119901917874813,0.7357176542282104,0.0,-0.0035206931643188,0.8035779595375061,0.0,-0.034092117100954056
957.0,900.0,-0.5372,-0.2489,9.5492,-0.0254,0.0209,-0.1141,-1.671931882897848,0.0,2.548661231994629,-1.7394332885742188,-0.0,2.108999729156494,4.955764490156927,0.0,0.27151381969451904,-1.545466725026266,-0.0,-0.012122283689677715,0.7357581853866577,0.0,0.00774559797719121,0.803570032119751,0.0,-0.015120211988687515
957.0,900.0,-0.5372,-0.2489,9.5492,-0.0254,0.0209,-0.1141,-1.671931882897848,0.0,2.5453948974609375,-1.7395048141479492,-0.0,2.1293511390686035,4.955740409880438,0.0,0.27513784170150757,-1.5454471747027796,-0.0,-0.0241596307605505,0.7357016205787659,0.0,-0.00396003806963563,0.8036102652549744,0.0,-0.02279374562203884
957.0,900.0,-0.5372,-0.2489,9.5492,-0.0254,0.0209,-0.1141,-1.6719728908934535,0.0,2.576599597930908,-1.7394288778305054,-0.0,2.103787899017334,4.955756428628721,0.0,0.2789284884929657,-1.545450512562887,-0.0,-0.00990915484726429,0.7357422113418579,0.0,-0.009887676686048508,0.8035296201705933,0.0,-0.012848061509430408
957.0,900.0,-0.5372,-0.2489,9.5492,-0.0254,0.0209,-0.1141,-1.6719361744322718,0.0,2.539367437362671,-1.7394640445709229,-0.0,2.129748821258545,4.955764490156927,0.0,0.27351659536361694,-1.5454791227923792,-0.0,-0.022936873137950897,0.7357619404792786,0.0,-0.005172564648091793,0.803602397441864,0.0,-0.029040172696113586
957.0,900.0,-0.5372,-0.2489,9.5492,-0.0254,0.0209,-0.1141,-1.6719805202879847,0.0,2.534709930419922,-1.7394928932189941,-0.0,2.109520435333252,4.955772730499067,0.0,0.2818848490715027,-1.545462433491842,-0.0,-0.012465329840779305,0.7357136011123657,0.0,-0.005121561232954264,0.8035659193992615,0.0,-0.04844715818762779
957.0,900.0,-0.5372,-0.2489,9.5492,-0.0254,0.0209,-0.1141,-1.671992918054098,0.0,2.5638487339019775,-1.7394680976867676,-0.0,2.129220962524414,4.955776813417234,0.0,0.2770676612854004,-1.5454228560077112,-0.0,-0.008371731266379356,0.7357583045959473,0.0,-0.004468970000743866,0.803537905216217,0.0,0.004977753851562738
957.0,900.0,-0.5372,-0.2489,9.5492,-0.0254,0.0209,-0.1141,-1.671964784661764,0.0,2.5509815216064453,-1.7394804954528809,-0.0,2.1195735931396484,4.955780494004049,0.0,0.2787458002567291,-1.5454590956317347,-0.0,-0.02471541240811348,0.7357259392738342,0.0,0.002978377742692828,0.8035941123962402,0.0,-0.01443305891007185
957.0,900.0,-0.5372,-0.2489,9.5492,-0.0254,0.0209,-0.1141,-1.6719523868956507,0.0,2.5273597240448,-1.7394800186157227,-0.0,2.121467113494873,4.955776828318395,0.0,0.2844040095806122,-1.5454185644732874,-0.0,-0.009156105108559132,0.7356852293014526,0.0,-0.013328406028449535,0.8035982251167297,0.0,0.04523860663175583
957.0,900.0,-0.5372,-0.2489,9.5492,-0.0254,0.0209,-0.1141,-1.6720205746092738,0.0,2.544827461242676,-1.7394486665725708,-0.0,2.0940089225769043,4.955752256303587,0.0,0.26829397678375244,-1.5454266707049769,-0.0,-0.01350728515535593,0.7357982993125916,0.0,0.002828029915690422,0.8036023378372192,0.0,0.02767232060432434
957.0,900.0,-0.5372,-0.2489,9.5492,-0.0254,0.0209,-0.1141,-1.6719886265196742,0.0,2.5771536827087402,-1.7394412755966187,-0.0,2.1165127754211426,4.955748158484258,0.0,0.27886638045310974,-1.5454748312579554,-0.0,-0.016830017790198326,0.7357339859008789,0.0,-0.002862022491171956,0.8035581111907959,0.0,0.011920305900275707
957.0,900.0,-0.5372,-0.2489,9.5492,-0.0254,0.0209,-0.1141,-1.6719728908934535,0.0,2.558021068572998,-1.7394407987594604,-0.0,2.112908124923706,4.95574817338542,0.0,0.2836915850639343,-1.545462433491842,-0.0,-0.011539014987647533,0.7357217669487,0.0,-0.003678971203044057,0.803537905216217,0.0,0.04252975806593895
969.0,891.0,-0.533,-0.3685,9.6269,-0.0428,0.0243,-0.1211,-1.6719609699644984,0.0,2.52980375289917,-1.7394640445709229,-0.0,2.075489044189453,4.955784606724539,0.0,0.26573076844215393,-1.5454548040973108,-0.0,-0.003283711150288582,0.735754132270813,0.0,-0.00412826519459486,0.8035982251167297,0.0,-0.0032468459103256464
969.0,891.0,-0.533,-0.3685,9.6269,-0.0428,0.0243,-0.1211,-1.6719609699644984,0.0,2.525973081588745,-1.7394293546676636,-0.0,2.117035388946533,4.955772730499067,0.0,0.2793857455253601,-1.545466725026266,-0.0,-0.01679692044854164,0.7357422709465027,0.0,-0.0015121351461857557,0.8035944104194641,0.0,0.022406447678804398
969.0,891.0,-0.533,-0.3685,9.6269,-0.0428,0.0243,-0.1211,-1.671919961968893,0.0,2.573607921600342,-1.7394964694976807,-0.0,2.136414051055908,4.955720189004698,0.0,0.26997464895248413,-1.545483414326803,-0.0,0.0008879182860255241,0.7357659935951233,0.0,0.008216125890612602,0.8035858869552612,0.0,0.029545897617936134
969.0,891.0,-0.533,-0.3685,9.6269,-0.0428,0.0243,-0.1211,-1.6719523868956507,0.0,2.5187463760375977,-1.7394601106643677,-0.0,2.113084316253662,4.955788719445028,0.0,0.2652013897895813,-1.5454872290240687,-0.0,-0.005903408396989107,0.7357339859008789,0.0,0.0023398571647703648,0.8035696744918823,0.0,-0.00793027225881815
969.0,891.0,-0.533,-0.3685,9.6269,-0.0428,0.0243,-0.1211,-1.6719609699644984,0.0,2.5651464462280273,-1.7394765615463257,-0.0,2.1208572387695312,4.95580472329215,0.0,0.27251607179641724,-1.545483414326803,-0.0,-0.015649454668164253,0.7357422113418579,0.0,-0.0024121764581650496,0.8035738468170166,0.0,0.013634758070111275
969.0,891.0,-0.533,-0.3685,9.6269,-0.0428,0.0243,-0.1211,-1.6719967327513636,0.0,2.5818471908569336,-1.7394720315933228,-0.0,2.0865068435668945,4.955732184439459,0.0,0.27437475323677063,-1.545450512562887,-0.0,-0.012134766206145287,0.7356901168823242,0.0,-0.008057184517383575,0.8035944104194641,0.0,0.02876584604382515
969.0,891.0,-0.533,-0.3685,9.6269,-0.0428,0.0243,-0.1211,-1.6719566784300746,0.0,2.5230720043182373,-1.739484429359436,-0.0,2.097696304321289,4.955768587976255,0.0,0.27636635303497314,-1.5454147497760218,-0.0,-0.01461257878690958,0.7357016801834106,0.0,0.0064806630834937096,0.8035378456115723,0.0,0.05683133006095886
969.0,891.0,-0.533,-0.3685,9.6269,-0.0428,0.0243,-0.1211,-1.6719566784300746,0.0,2.538890838623047,-1.7394640445709229,-0.0,2.129321336746216,4.955752256303587,0.0,0.28153541684150696,-1.5454424063311976,-0.0,-0.007353230379521847,0.7357299327850342,0.0,0.00866943784058094,0.8035944104194641,0.0,-0.024545250460505486
969.0,891.0,-0.533,-0.3685,9.6269,-0.0428,0.0243,-0.1211,-1.6719685993590296,0.0,2.5290088653564453,-1.7394412755966187,-0.0,2.0944671630859375,4.95575641372756,0.0,0.27548748254776,-1.545483414326803,-0.0,-0.0031750723719596863,0.7357582449913025,0.0,-0.0008611052180640399,0.8035820722579956,0.0,0.001967797987163067
969.0,891.0,-0.533,-0.3685,9.6269,-0.0428,0.0243,-0.1211,-1.671980997125143,0.0,2.553915023803711,-1.7394680976867676,-0.0,2.1329689025878906,4.955760392337599,0.0,0.2742157578468323,-1.5455191771136683,-0.0,-0.005031848791986704,0.7357502579689026,0.0,-0.019824543967843056,0.8035416603088379,0.0,-0.010570637881755829
969.0,891.0,-0.533,-0.3685,9.6269,-0.0428,0.0243,-0.1211,-1.671931882897848,0.0,2.5773544311523438,-1.7394527196884155,-0.0,2.104912281036377,4.9557281015212915,0.0,0.273296058177948,-1.5454586187945765,-0.0,-0.004231365397572517,0.7357659935951233,0.0,-0.0028486584778875113,0.803570032119751,0.0,0.015454794280230999
969.0,891.0,-0.533,-0.3685,9.6269,-0.0428,0.0243,-0.1211,-1.6719323597350062,0.0,2.5124828815460205,-1.7394764423370361,-0.0,2.131401538848877,4.955784576922216,0.0,0.2697269916534424,-1.5454586187945765,-0.0,-0.008311163634061813,0.7357499599456787,0.0,0.002056586090475321,0.8035982251167297,0.0,0.003063179086893797
969.0,891.0,-0.533,-0.3685,9.6269,-0.0428,0.0243,-0.1211,-1.671992918054098,0.0,2.550586462020874,-1.7394765615463257,-0.0,2.076376438140869,4.955837133317747,0.0,0.27868956327438354,-1.5455272833453577,-0.0,-0.01100645586848259,0.7357339859008789,0.0,-0.002891404554247856,0.803570032119751,0.0,0.012502764351665974
969.0,891.0,-0.533,-0.3685,9.6269,-0.0428,0.0243,-0.1211,-1.6719609699644984,0.0,2.548524856567383,-1.7394293546676636,-0.0,2.1261203289031982,4.955776411085882,0.0,0.27152419090270996,-1.5454862753497522,-0.0,-0.015065360814332962,0.7357218265533447,0.0,-0.0011371865402907133,0.8035899996757507,0.0,0.024005481973290443
969.0,891.0,-0.533,-0.3685,9.6269,-0.0428,0.0243,-0.1211,-1.6719566784300746,0.0,2.540390968322754,-1.7394928932189941,-0.0,2.1180267333984375,4.955824780255117,0.0,0.2839546203613281,-1.545534912739889,-0.0,-0.020728562027215958,0.7357136011123657,0.0,-0.003781624138355255,0.8036506772041321,0.0,-0.0001623078715056181
969.0,891.0,-0.533,-0.3685,9.6269,-0.0428,0.0243,-0.1211,-1.6719566784300746,0.0,2.5151500701904297,-1.739429235458374,-0.0,2.124908447265625,4.955800565868177,0.0,0.27262377738952637,-1.5454824606524866,-0.0,-0.021430667489767075,0.7357298731803894,0.0,0.009312113747000694,0.8035659193992615,0.0,-0.0036351406015455723
979.0,889.0,-0.5157,-0.0706,9.7023,-0.0153,0.027,-0.1176,-1.6719690761961878,0.0,2.545772075653076,-1.7394765615463257,-0.0,2.1401495933532715,4.95582481005744,0.0,0.26238954067230225,-1.5455029646502894,-0.0,-0.0111357681453228,0.7357298731803894,0.0,-0.015065580606460571,0.8036185503005981,0.0,0.016710225492715836
979.0,889.0,-0.5157,-0.0706,9.7023,-0.0153,0.027,-0.1176,-1.6719323597350062,0.0,2.545314311981201,-1.7394293546676636,-0.0,2.1250970363616943,4.955776425987043,0.0,0.27459901571273804,-1.5455310980426233,-0.0,-0.012300657108426094,0.735745906829834,0.0,0.002090392168611288,0.8036061525344849,0.0,-0.0424698069691658
979.0,889.0,-0.5157,-0.0706,9.7023,-0.0153,0.027,-0.1176,-1.67193665126943,0.0,2.522920608520508,-1.7394452095031738,-0.0,2.115537166595459,4.955768513470449,0.0,0.2732558250427246,-1.5455105940448206,-0.0,-0.00806026253849268,0.7357339859008789,0.0,-0.004707596730440855,0.8035779595375061,0.0,-0.010238874703645706
979.0,889.0,-0.5157,-0.0706,9.7023,-0.0153,0.027,-0.1176,-1.6719242535033167,0.0,2.501343011856079,-1.7394640445709229,-0.0,2.1614396572113037,4.955784174590864,0.0,0.27258437871932983,-1.5455110708819788,-0.0,-0.0040105003863573074,0.7357500195503235,0.0,0.005739364307373762,0.80361407995224,0.0,-0.0008757784962654114
979.0,889.0,-0.5157,-0.0706,9.7023,-0.0153,0.027,-0.1176,-1.6719399891295375,0.0,2.5226242542266846,-1.7394332885742188,-0.0,2.039492130279541,4.955812486797132,0.0,0.2828752398490906,-1.5454824606524866,-0.0,-0.009782296605408192,0.7357339859008789,0.0,-0.011878039687871933,0.803622305393219,0.00044866788084618747,-0.028727877885103226
979.0,889.0,-0.5157,-0.0706,9.7023,-0.0153,0.027,-0.1176,-1.6719685993590296,0.0,2.532285690307617,-1.7394845485687256,-0.0,2.112598180770874,4.955792802363195,0.0,0.2721521258354187,-1.545490566884176,-0.0,-0.020482297986745834,0.7356975674629211,0.0,0.0036158994771540165,0.8036586046218872,0.00041446348768658936,-0.0026540085673332214
979.0,889.0,-0.5157,-0.0706,9.7023,-0.0153,0.027,-0.1176,-1.6719280682005824,0.0,2.5194883346557617,-1.7394640445709229,-0.0,2.120966672897339,4.9557522414024255,0.0,0.27335023880004883,-1.545539681111471,-0.0,-0.007590834051370621,0.7357422113418579,0.0,0.007580708712339401,0.80361407995224,0.00033687843824736774,-0.020590664818882942
979.0,889.0,-0.5157,-0.0706,9.7023,-0.0153,0.027,-0.1176,-1.6719404659666957,0.0,2.52533221244812,-1.7394845485687256,-0.0,2.1370487213134766,4.955776813417234,0.0,0.2625788450241089,-1.5454710165606897,-0.0,-0.008556079119443893,0.7357016801834106,0.0,-0.00851851049810648,0.8036102652549744,0.0002995035029016435,-0.011574750766158104
979.0,889.0,-0.5157,-0.0706,9.7023,-0.0153,0.027,-0.1176,-1.671948572198385,0.0,2.5560476779937744,-1.7394452095031738,-0.0,2.1839890480041504,4.9557805238063715,0.0,0.27713125944137573,-1.5454590956317347,-0.0,-0.007954750210046768,0.7356741428375244,0.0,-0.005652720108628273,0.8035737872123718,0.00021404972358141094,0.01039128191769123
979.0,889.0,-0.5157,-0.0706,9.7023,-0.0153,0.027,-0.1176,-1.6719161472716273,3.755468060262501e-05,2.5300397872924805,-1.7394884824752808,-0.0,2.0828425884246826,4.955736282258787,0.0,0.2707928717136383,-1.545450512562887,-0.0,-0.011804003268480301,0.7357099056243896,0.0,0.007167181000113487,0.8035779595375061,0.00018726270354818553,-0.012628361582756042
979.0,889.0,-0.5157,-0.0706,9.7023,-0.0153,0.027,-0.1176,-1.6720167599120082,1.797964250727091e-05,2.537440299987793,-1.7394765615463257,-0.0,2.152350664138794,4.955724361329832,0.0,0.28788691759109497,-1.5454428831683558,-0.0,-0.019227664917707443,0.7357259392738342,0.0,-0.004520240239799023,0.8036102652549744,0.0001664782321313396,-0.011568303219974041
979.0,889.0,-0.5157,-0.0706,9.7023,-0.0153,0.027,-0.1176,-1.6719685993590296,1.7211385056725703e-05,2.597349166870117,-1.7394765615463257,-0.0,2.116291046142578,4.9557605413492105,0.0,0.27371945977211,-1.5454672018634241,-0.0,-0.009062709286808968,0.7357381582260132,0.0,0.011073783971369267,0.8035899996757507,0.00012401278945617378,-0.007567632012069225
979.0,889.0,-0.5157,-0.0706,9.7023,-0.0153,0.027,-0.1176,-1.671992918054098,3.5543701315532417e-10,2.529742956161499,-1.7394686937332153,-0.0,2.121048927307129,4.95570025125102,0.0,0.282633513212204,-1.545455280934469,-0.0,-0.015534322708845139,0.7357381582260132,0.0,-0.0074188318103551865,0.8035858273506165,0.00011238991282880306,0.007493602577596903
979.0,889.0,-0.5157,-0.0706,9.7023,-0.0153,0.027,-0.1176,-1.671948572198385,8.583385606990995e-16,2.6075665950775146,-1.7395246028900146,-0.0,2.1305294036865234,4.955752762943067,0.0,0.26918286085128784,-1.5453985373126429,-0.0,-0.014563512988388538,0.735754132270813,0.0,0.01269197091460228,0.8035820722579956,0.0001027650068863295,-0.04345974326133728
979.0,889.0,-0.5157,-0.0706,9.7023,-0.0153,0.027,-0.1176,-1.6719924412169398,2.0727865797775264e-21,2.5056838989257812,-1.7395203113555908,-0.0,2.093374729156494,4.955680551915922,-0.0006105352658778429,0.27737119793891907,-1.5454352537738245,-0.0,-0.018933074548840523,0.7356860041618347,0.0,0.005953422747552395,0.8035576343536377,9.465979383094236e-05,-0.014637875370681286
979.0,889.0,-0.5157,-0.0706,9.7023,-0.0153,0.027,-0.1176,-1.672028204003805,-0.0007903060177341104,2.5541653633117676,-1.739472508430481,-0.00026464767870493233,2.1052417755126953,4.955664264946737,-0.0009638537303544581,0.2848992347717285,-1.5453994909869593,-0.0,-0.014352655038237572,0.7357099056243896,0.0,0.00300764013081789,0.8035944104194641,6.5815300331451e-05,-0.002158251591026783
988.0,894.0,-0.4887,-0.3918,9.5049,-0.0392,0.0104,-0.1193,-1.671988149682516,-0.0008258218877017498,2.529122829437256,-1.7395082712173462,-0.00028912705602124333,2.0892677307128906,4.955668332963743,-0.0010300208814442158,0.2779334485530853,-1.5453828016864222,-0.0,-0.007038839161396027,0.7356782555580139,0.0,-0.004692908842116594,0.8035861849784851,6.274555926211178e-05,0.02581072598695755
988.0,894.0,-0.4887,-0.3918,9.5049,-0.0392,0.0104,-0.1193,-1.6720363102354945,-0.0010171405738219619,2.5740761756896973,-1.7395206689834595,-0.00029566147713921964,2.12882661819458,4.955644863634863,-0.0009026782354339957,0.2780076861381531,-1.5453227202044886,-0.0,-0.001894704531878233,0.7357262372970581,0.0,-0.0032161041162908077,0.8036264777183533,5.865622733836062e-05,0.0105343759059906
988.0,894.0,-0.4887,-0.3918,9.5049,-0.0392,0.0104,-0.1193,-1.6720158062376917,-0.0011038469383493066,2.4944560527801514,-1.7395331859588623,-0.0002962154394481331,2.1264758110046387,4.955640780716696,-0.0009693374740891159,0.2732071876525879,-1.5453389326678675,0.000347904278896749,0.010436464101076126,0.7357381582260132,0.0,-0.0025530552957206964,0.8036185503005981,5.506672459887341e-05,-0.05932396650314331
988.0,894.0,-0.4887,-0.3918,9.5049,-0.0392,0.0104,-0.1193,-1.6720644436278285,-0.001377913518808782,2.5147995948791504,-1.739488959312439,-0.0003860761353280395,2.091630458831787,4.955612528115072,-0.0017019191291183233,0.2649149000644684,-1.5453150908099573,0.00034181075170636177,-0.004311677068471909,0.7357259392738342,0.0,0.0035649663768708706,0.8036061525344849,5.189163493923843e-05,-0.027333933860063553
988.0,894.0,-0.4887,-0.3918,9.5049,-0.0392,0.0104,-0.1193,-1.6720806560912074,-0.0015015136450529099,2.5082645416259766,-1.7395167350769043,-0.0003295268106739968,2.1241023540496826,4.955608802824774,-0.0017145740566775203,0.26162445545196533,-1.5453794638263147,0.00033006048761308193,0.0006127571687102318,0.7357422709465027,0.0,-0.0043934485875070095,0.803570032119751,4.997088763047941e-05,-0.07438777387142181
988.0,894.0,-0.4887,-0.3918,9.5049,-0.0392,0.0104,-0.1193,-1.6720930538573207,-0.00155764096416533,2.502431869506836,-1.7395291328430176,-0.00027016334934160113,2.167269468307495,4.955608832627096,-0.0020077091176062822,0.24835264682769775,-1.545342747365133,0.0003268027794547379,0.024860545992851257,0.7356699109077454,0.0,-0.003630570136010647,0.8035861849784851,4.734229514724575e-05,-0.056150950491428375
988.0,894.0,-0.4887,-0.3918,9.5049,-0.0392,0.0104,-0.1193,-1.6720520458617152,-0.0014520331751555204,2.4549498558044434,-1.7395331859588623,-0.00018858263501897454,2.1136770248413086,4.955596866994657,-0.002828889526426792,0.25099074840545654,-1.5453231970416468,0.0005515054799616337,0.024025069549679756,0.7357339859008789,0.0,0.004904862958937883,0.8036061525344849,4.497644476941787e-05,-0.12333472073078156
988.0,894.0,-0.4887,-0.3918,9.5049,-0.0392,0.0104,-0.1193,-1.6720596752562464,-0.0011001951061189175,2.4497148990631104,-1.7394849061965942,-0.00015888984489720315,2.146577835083008,4.955593216210165,-0.005413982085883617,0.24167290329933167,-1.545347038899557,0.001129689160734415,0.04355533421039581,0.7356894612312317,0.0,-0.003880710806697607,0.8036185503005981,4.283582165953703e-05,-0.1420854777097702
988.0,894.0,-0.4887,-0.3918,9.5049,-0.0392,0.0104,-0.1193,-1.6720520458617152,-0.0007466762908734381,2.354462146759033,-1.739504337310791,-0.0001403102942276746,2.106282949447632,4.95556494870738,-0.007275047712028027,0.22170013189315796,-1.5453155676471155,0.0013632253976538777,0.03138399124145508,0.7357738614082336,0.0,-0.00526916841045022,0.8036061525344849,4.088965943083167e-05,-0.12347161769866943
988.0,894.0,-0.4887,-0.3918,9.5049,-0.0392,0.0104,-0.1193,-1.6720601520934046,-0.0006035303231328726,2.4511446952819824,-1.7395645380020142,-0.0001301636511925608,2.1338672637939453,4.955517041474142,-0.008238201029598713,0.23209339380264282,-1.545318905507223,0.0019255701918154955,0.027474595233798027,0.7357742786407471,0.0,-0.006260707974433899,0.8035899996757507,3.9687602111371234e-05,-0.1140356957912445
988.0,894.0,-0.4887,-0.3918,9.5049,-0.0392,0.0104,-0.1193,-1.672124525109762,-0.0005125030875205994,2.367319345474243,-1.739537239074707,-8.807161066215485e-05,2.1465978622436523,4.955492961197653,-0.006032741162925959,0.22947131097316742,-1.5452874342547815,0.004820716567337513,0.038738854229450226,0.7357298731803894,0.0,-0.004906926304101944,0.8036342263221741,3.801142520387657e-05,-0.1746092438697815
988.0,894.0,-0.4887,-0.3918,9.5049,-0.0392,0.0104,-0.1193,-1.6720687351622523,-0.0003699710941873491,2.3131656646728516,-1.739504337310791,-8.021956455195323e-05,2.115931749343872,4.955437081843176,-0.00325226248241961,0.22487767040729523,-1.5452149550067347,0.011549203656613827,0.05893435329198837,0.7357496023178101,0.0,-0.00803647842258215,0.8036181926727295,3.6471097700996324e-05,-0.19418802857398987
988.0,894.0,-0.4887,-0.3918,9.5049,-0.0392,0.0104,-0.1193,-1.6720882854857386,-0.0010208053281530738,2.329568386077881,-1.739504337310791,-7.365438068518415e-05,2.124588966369629,4.955477240472593,-0.0015074791153892875,0.2276829183101654,-1.5451629797564905,0.013751587830483913,0.06680609285831451,0.7357138991355896,0.0,-0.006936649791896343,0.8035941123962402,4.672797513194382e-05,-0.24816733598709106
988.0,894.0,-0.4887,-0.3918,9.5049,-0.0392,0.0104,-0.1193,-1.6720882854857386,-0.002214438049122691,2.2941832542419434,-1.7395004034042358,-6.984380161156878e-05,2.1327719688415527,4.955449345498838,-0.0011889874003827572,0.19877445697784424,-1.5451238791095179,0.013767563737928867,0.0703805536031723,0.7357138991355896,0.0,-0.0008621059823781252,0.8036462664604187,4.55516783404164e-05,-0.2664003372192383
988.0,894.0,-0.4887,-0.3918,9.5049,-0.0392,0.0104,-0.1193,-1.6721488438048304,-0.0042343600653111935,2.2539708614349365,-1.7394599914550781,5.5700871598673984e-05,2.10597825050354,4.9554374543722055,-0.0014913839986547828,0.195602685213089,-1.5449875036822718,0.013809187337756157,0.09715220332145691,0.7357258200645447,0.0,0.014052837155759335,0.8036218881607056,1.2579248505062424e-05,-0.21517089009284973
988.0,894.0,-0.4887,-0.3918,9.5049,-0.0392,0.0104,-0.1193,-1.6721483669676722,-0.006524929776787758,2.261467456817627,-1.7394804954528809,9.905209299176931e-05,2.1438181400299072,4.955340745836057,-0.0035901127848774195,0.1992921084165573,-1.544959847127096,0.01064492017030716,0.08488164842128754,0.7357742190361023,0.0,0.004302733112126589,0.8036744594573975,1.167486061603995e-05,-0.33010998368263245
988.0,894.0,-0.4887,-0.3918,9.5049,-0.0392,0.0104,-0.1193,-1.6722165546812953,-0.008528012782335281,2.2290589809417725,-1.7394293546676636,9.405199671164155e-05,2.12115216255188,4.955369534879484,-0.005266883410513401,0.1886623203754425,-1.5449078718768519,0.004028475843369961,0.09462375938892365,0.7357136011123657,0.0,-0.0011819138890132308,0.8036745190620422,1.1237550097575877e-05,-0.3030446171760559
999.0,900.0,-0.6323,-0.1687,9.4654,-0.0454,0.0165,-0.1112,-1.672220369378561,-0.008436640724539757,2.254056930541992,-1.739472508430481,8.938157407101244e-05,2.1007468700408936,4.955313327699461,-0.007123463321477175,0.17879319190979004,-1.5449202696429651,0.0024262559600174427,0.11028246581554413,0.7357339859008789,0.0,0.008422058075666428,0.8036540746688843,1.0963759450532962e-05,-0.2774398922920227
999.0,900.0,-0.6323,-0.1687,9.4654,-0.0454,0.0165,-0.1112,-1.6723162136473597,-0.00922267884016037,2.2155094146728516,-1.7394804954528809,8.318557229358703e-05,2.094362497329712,4.955305593996801,-0.009895930998027325,0.1768912822008133,-1.5448678175555628,0.001468876376748085,0.10655125975608826,0.7357258796691895,0.0,0.007770364638417959,0.8036301136016846,1.0577212378848344e-05,-0.31379222869873047
999.0,900.0,-0.6323,-0.1687,9.4654,-0.0454,0.0165,-0.1112,-1.6723562679686488,-0.01098698005080223,2.1639888286590576,-1.7394765615463257,7.77929526520893e-05,2.0779001712799072,4.955201822310247,-0.010787014849483967,0.1650196611881256,-1.544880215321676,0.0012577096931636333,0.1189403086900711,0.7357218265533447,0.0,0.0008159708231687546,0.8036704063415527,1.0217001545242965e-05,-0.36802273988723755
999.0,900.0,-0.6323,-0.1687,9.4654,-0.0454,0.0165,-0.1112,-1.6724401913084925,-0.014010518789291382,2.134397268295288,-1.7394845485687256,7.30568717699498e-05,2.1119489669799805,4.955133798509397,-0.010586325079202652,0.1569547951221466,-1.5448601881610315,0.0022751069627702236,0.12242607772350311,0.735690176486969,0.0,0.0006684602703899145,0.8036704063415527,1.1507627277751453e-06,-0.35684269666671753
999.0,900.0,-0.6323,-0.1687,9.4654,-0.0454,0.0165,-0.1112,-1.6725121937193812,-0.01749279908835888,2.1353700160980225,-1.7394331693649292,6.886432674946263e-05,2.1232264041900635,4.955062034517088,-0.009759441018104553,0.14457406103610992,-1.5448277632342737,0.003935609012842178,0.1469573825597763,0.7357462048530579,0.0,-0.0030738136265426874,0.8036946058273315,2.778956752214068e-12,-0.4243437647819519
999.0,900.0,-0.6323,-0.1687,9.4654,-0.0454,0.0165,-0.1112,-1.672636171380514,-0.02063099853694439,2.106682538986206,-1.7394804954528809,6.632685835938901e-05,2.1203384399414062,4.95508665123538,-0.008149700239300728,0.13920077681541443,-1.5447843710528772,0.010187889449298382,0.14786814153194427,0.735754132270813,0.0,-0.0018886765465140343,0.8036218881607056,5.002023368090222e-16,-0.4358637034893036
999.0,900.0,-0.6323,-0.1687,9.4654,-0.0454,0.0165,-0.1112,-1.672767778436178,-0.024819815531373024,2.0718276500701904,-1.7394601106643677,6.56562770018354e-05,2.0918831825256348,4.955034124642172,-0.004705790430307388,0.14741402864456177,-1.544647518788473,0.016166580840945244,0.15330681204795837,0.7357578277587891,0.0,-0.006823072209954262,0.803682267665863,1.2079297684427514e-21,-0.4214365482330322
999.0,900.0,-0.6323,-0.1687,9.4654,-0.0454,0.0165,-0.1112,-1.6729475460448207,-0.03196169063448906,2.0643863677978516,-1.7394765615463257,6.04638407821767e-05,2.096662759780884,4.954982089787283,-0.0023175326641649008,0.14016732573509216,-1.5445802847491663,0.01586410403251648,0.15544629096984863,0.7357779145240784,0.0,-0.0050750793889164925,0.8036864399909973,2.9170082937580576e-27,-0.3989468812942505
999.0,900.0,-0.6323,-0.1687,9.4654,-0.0454,0.0165,-0.1112,-1.6731678448119105,-0.03623516857624054,2.0932369232177734,-1.7395203113555908,5.492835771292448e-05,2.0908422470092773,4.95497019866065,-0.002217415487393737,0.15181072056293488,-1.544548813496725,0.012256228365004063,0.14350777864456177,0.7357901930809021,0.0,0.0009126845980063081,0.8037423491477966,7.044232181907115e-33,-0.43220800161361694
999.0,900.0,-0.6323,-0.1687,9.4654,-0.0454,0.0165,-0.1112,-1.6732632122435511,-0.041344113647937775,2.051062822341919,-1.739500880241394,6.87798165017739e-05,2.0561933517456055,4.954962554364958,-0.00362704461440444,0.14859846234321594,-1.5445330778705042,0.007847027853131294,0.16012325882911682,0.7357618808746338,0.0,-0.005697245243936777,0.8037101626396179,0.00018384137365501374,-0.45264115929603577
999.0,900.0,-0.6323,-0.1687,9.4654,-0.0454,0.0165,-0.1112,-1.6735712490477503,-0.04530400410294533,2.036430597305298,-1.7394928932189941,7.14852285454981e-05,2.1032333374023438,4.954890432744779,-0.0077157034538686275,0.1496277004480362,-1.5444443861590784,0.0037903236225247383,0.14268410205841064,0.7357901334762573,0.0,-0.0006993647548370063,0.8037261962890625,0.0024679582566022873,-0.4163084924221039
999.0,900.0,-0.6323,-0.1687,9.4654,-0.0454,0.0165,-0.1112,-1.673842569390768,-0.049815643578767776,2.0240299701690674,-1.7394845485687256,0.00011295928561594337,2.063824415206909,4.954842749028959,-0.012534279376268387,0.13948136568069458,-1.544452969227926,0.0015652887523174286,0.15570369362831116,0.7357418537139893,0.0,-0.003393157385289669,0.8037501573562622,0.0032960979733616114,-0.4413732886314392
999.0,900.0,-0.6323,-0.1687,9.4654,-0.0454,0.0165,-0.1112,-1.6740943394102992,-0.05310795456171036,1.9807268381118774,-1.7394208908081055,0.00026071578031405807,2.120250701904297,4.954722749977865,-0.01640576496720314,0.13614331185817719,-1.5444324652301233,0.0008360457140952349,0.15565602481365204,0.7357659339904785,0.0,0.0032696828711777925,0.8037983179092407,0.004129074048250914,-0.46264567971229553
999.0,900.0,-0.6323,-0.1687,9.4654,-0.0454,0.0165,-0.1112,-1.6743189297118128,-0.054951272904872894,2.035597562789917,-1.7394566535949707,0.0011709079844877124,2.0954012870788574,4.954715001374044,-0.018336063250899315,0.13662078976631165,-1.5444167296039026,0.0008210811065509915,0.15767711400985718,0.7357336282730103,0.0,0.0005019698292016983,0.8038102388381958,0.004654145333915949,-0.405412495136261
999.0,900.0,-0.6323,-0.1687,9.4654,-0.0454,0.0165,-0.1112,-1.674633642236227,-0.05685069411993027,2.0323801040649414,-1.7394452095031738,0.0012739227386191487,2.101073980331421,4.954567390471258,-0.022097965702414513,0.1414901167154312,-1.5444172064410608,0.0005422224057838321,0.15971603989601135,0.7357819080352783,0.0,-0.004634924698621035,0.8037859797477722,0.003678039414808154,-0.4737977385520935
999.0,900.0,-0.6323,-0.1687,9.4654,-0.0454,0.0165,-0.1112,-1.6749898395934046,-0.0568648986518383,2.0052356719970703,-1.7394204139709473,0.001246609608642757,2.122530460357666,4.954439866333761,-0.027367129921913147,0.13609087467193604,-1.5444448629962366,0.0005216820281930268,0.15245871245861053,0.7357217669487,0.0,-0.006184093654155731,0.8038463592529297,0.0025216296780854464,-0.5060928463935852
978.0,895.0,-0.9787,0.1167,9.2614,-0.007,-0.0357,-0.1251,-1.675349851647848,-0.05983804911375046,2.093123197555542,-1.7394328117370605,0.0008974491502158344,2.0670714378356934,4.954204159765997,-0.03849451616406441,0.11821752041578293,-1.5444086233722132,0.0008815215551294386,0.1590382158756256,0.7357336282730103,0.0,0.0059755295515060425,0.8038582801818848,0.0016335101099684834,-0.4162003993988037
978.0,895.0,-0.9787,0.1167,9.2614,-0.007,-0.0357,-0.1251,-1.67572083095693,-0.0659259781241417,2.0089147090911865,-1.7394452095031738,0.0006530909449793398,2.111746311187744,4.953936609416761,-0.05971279740333557,0.12676624953746796,-1.5444052855121058,0.0010396562283858657,0.17559576034545898,0.7357537746429443,0.0,-0.0020638953428715467,0.8038538098335266,0.001253979979082942,-0.4528629183769226
978.0,895.0,-0.9787,0.1167,9.2614,-0.007,-0.0357,-0.1251,-1.6760288677611292,-0.06707707047462463,2.0436549186706543,-1.7394204139709473,0.0005527751054614782,2.106527328491211,4.953673395305433,-0.08096987754106522,0.11489281058311462,-1.544396702443258,0.0009831094648689032,0.17693032324314117,0.735802412033081,0.0,-0.003291195258498192,0.8039067983627319,0.0014050531899556518,-0.5044517517089844
978.0,895.0,-0.9787,0.1167,9.2614,-0.007,-0.0357,-0.1251,-1.676436563531393,-0.07164717465639114,2.049426794052124,-1.739475965499878,0.00044927443377673626,2.0710816383361816,4.952986421972074,-0.11919897794723511,0.10052497684955597,-1.5443528334247034,0.0022792366798967123,0.17122654616832733,0.7357982397079468,0.0,-0.01173720508813858,0.8038703203201294,0.002528119832277298,-0.49010539054870605
978.0,895.0,-0.9787,0.1167,9.2614,-0.007,-0.0357,-0.1251,-1.6768881283202113,-0.07281992584466934,2.034357786178589,-1.7394765615463257,0.0003784238360822201,2.1213951110839844,4.952132183104315,-0.13731326162815094,0.09481363743543625,-1.5443366209613245,0.004189473111182451,0.17494617402553558,0.7357697486877441,0.0,-0.0033740177750587463,0.8038703203201294,0.0018286583945155144,-0.47755682468414307
978.0,895.0,-0.9787,0.1167,9.2614,-0.007,-0.0357,-0.1251,-1.677279611627096,-0.07406950742006302,2.060587167739868,-1.7394452095031738,0.0003268785367254168,2.0645222663879395,4.951282563596525,-0.13802671432495117,0.08876189589500427,-1.5443289915667933,0.006214130204170942,0.18797531723976135,0.7357499599456787,0.0,0.006807476282119751,0.8039146065711975,0.0013031098060309887,-0.4448791742324829
978.0,895.0,-0.9787,0.1167,9.2614,-0.007,-0.0357,-0.1251,-1.6775828800597132,-0.07717077434062958,2.0336720943450928,-1.7394089698791504,0.0002996665134560317,2.1471335887908936,4.950739967613973,-0.1384774148464203,0.09269295632839203,-1.544305149708883,0.0077940295450389385,0.17407499253749847,0.7357618808746338,0.0,-0.013356345705688,0.8039307594299316,0.0009677805355750024,-0.46522796154022217
978.0,895.0,-0.9787,0.1167,9.2614,-0.007,-0.0357,-0.1251,-1.6780587635436,-0.08465071767568588,2.0279321670532227,-1.739492416381836,0.00026640211581252515,2.0656261444091797,4.949901762395658,-0.14937704801559448,0.08533848822116852,-1.5442569891559046,0.011399914510548115,0.18427345156669617,0.7357418537139893,0.0,-0.009425674565136433,0.8039385080337524,0.0005381047958508134,-0.4558464288711548
978.0,895.0,-0.9787,0.1167,9.2614,-0.007,-0.0357,-0.1251,-1.6785861454405726,-0.09416548162698746,1.976717472076416,-1.7393931150436401,0.00023978484387043864,2.087709665298462,4.9489327547843835,-0.16882237792015076,0.07373236119747162,-1.5441692511187952,0.017060229554772377,0.1861443668603897,0.7357900738716125,0.0,-0.007866538129746914,0.8038980960845947,0.0003924515622202307,-0.46314239501953125
978.0,895.0,-0.9787,0.1167,9.2614,-0.007,-0.0357,-0.1251,-1.6791898212828578,-0.10390249639749527,2.071848154067993,-1.7394124269485474,0.00014976908278185874,2.1347951889038086,4.94785492399291,-0.1704699844121933,0.06115773692727089,-1.5440290609942835,0.024023419246077538,0.20494350790977478,0.7357697486877441,0.0,-0.0011941215489059687,0.8038985729217529,0.0002489467151463032,-0.4952983260154724
978.0,895.0,-0.9787,0.1167,9.2614,-0.007,-0.0357,-0.1251,-1.6795851192870082,-0.10581079870462418,2.0443403720855713,-1.739424467086792,0.00021420815028250217,2.04464054107666,4.947212892561712,-0.1651666909456253,0.0840330645442009,-1.543901268635885,0.029516829177737236,0.1964416801929474,0.735693633556366,0.0,-0.011791014112532139,0.8038662075996399,0.00021861107961740345,-0.4417416453361511
978.0,895.0,-0.9787,0.1167,9.2614,-0.007,-0.0357,-0.1251,-1.6802040539183558,-0.10757903009653091,2.0261571407318115,-1.739424467086792,0.001133014797233045,2.084211826324463,4.9461550442274,-0.19208970665931702,0.07285287231206894,-1.5437386671649378,0.04475650191307068,0.20696231722831726,0.7357656359672546,0.0,0.005792989395558834,0.8039265871047974,7.736297266092151e-05,-0.48925864696502686
978.0,895.0,-0.9787,0.1167,9.2614,-0.007,-0.0357,-0.1251,-1.680904050866598,-0.10799358785152435,2.0153145790100098,-1.739341378211975,0.003624923527240753,2.118000030517578,4.944913568883695,-0.20516334474086761,0.0642002746462822,-1.5433581511126917,0.07380728423595428,0.21987920999526978,0.7357941269874573,0.0,-0.0007702051661908627,0.8039146065711975,0.00012146840163040906,-0.47934919595718384
978.0,895.0,-0.9787,0.1167,9.2614,-0.007,-0.0357,-0.1251,-1.6815749607481898,-0.10688426345586777,2.081700325012207,-1.7393970489501953,0.004952357616275549,2.094362735748291,4.943733575731077,-0.2007068246603012,0.069200798869133,-1.54271108308901,0.12325077503919601,0.23752939701080322,0.7357377409934998,0.0,-0.009798550978302956,0.8039626479148865,0.0005697800079360604,-0.4627954959869385
978.0,895.0,-0.9787,0.1167,9.2614,-0.007,-0.0357,-0.1251,-1.6822463474669398,-0.10773834586143494,2.043921947479248,-1.7393771409988403,0.003055582521483302,2.100273609161377,4.9424766329820535,-0.21596428751945496,0.06826455891132355,-1.5417564550982874,0.17800933122634888,0.2538333237171173,0.7357496619224548,0.0,0.007879847660660744,0.8038980960845947,0.0019188130972906947,-0.3991204500198364
978.0,895.0,-0.9787,0.1167,9.2614,-0.007,-0.0357,-0.1251,-1.682718416253561,-0.11105798929929733,2.088747978210449,-1.7393488883972168,0.0017273006960749626,2.0942044258117676,4.941562476545133,-0.22201818227767944,0.062125131487846375,-1.5409820715533655,0.19857776165008545,0.2692209780216217,0.7357578277587891,0.0,0.003444819478318095,0.8039543628692627,0.0029541202820837498,-0.461256742477417
978.0,895.0,-0.9787,0.1167,9.2614,-0.007,-0.0357,-0.1251,-1.683425088922018,-0.11956766247749329,2.1001460552215576,-1.7393324375152588,0.0002259254251839593,2.0676727294921875,4.940270188241758,-0.21577593684196472,0.06382214277982712,-1.5397675673114222,0.20504342019557953,0.2782139480113983,0.7357380986213684,0.0,-0.011860928498208523,0.8039300441741943,0.004105843137949705,-0.3938385844230652
978.0,823.0,-1.4118,0.317,9.67,-0.0313,-0.2417,-0.1316,-1.6841808758177699,-0.1290753185749054,2.0569939613342285,-1.7393285036087036,0.00010666083107935265,2.151275157928467,4.938910025149145,-0.2402283251285553,0.05516187101602554,-1.538286034260885,0.2571043372154236,0.2920321226119995,0.7357778549194336,0.0,-0.008307983167469501,0.8039904236793518,0.003982627298682928,-0.4096377193927765
978.0,823.0,-1.4118,0.317,9.67,-0.0313,-0.2417,-0.1316,-1.6849519215025843,-0.14013603329658508,2.0757663249969482,-1.7393444776535034,0.00030475991661660373,2.061490774154663,4.937479528575697,-0.23826584219932556,0.05995441973209381,-1.536621395741598,0.28049299120903015,0.2914945185184479,0.7357697486877441,0.0,-0.006387232802808285,0.8040144443511963,0.003382830647751689,-0.38884255290031433
978.0,823.0,-1.4118,0.317,9.67,-0.0313,-0.2417,-0.1316,-1.6854874096312464,-0.1447451114654541,2.0116333961486816,-1.7392693758010864,0.001773969386704266,2.0410706996917725,4.936599108367719,-0.23093532025814056,0.08088939636945724,-1.535483185444967,0.3154008090496063,0.31173786520957947,0.735733687877655,0.0,-0.0036503600422292948,0.8040264248847961,0.0033938277047127485,-0.400048166513443
978.0,823.0,-1.4118,0.317,9.67,-0.0313,-0.2417,-0.1316,-1.686350484887594,-0.1396738737821579,2.054744243621826,-1.739229679107666,0.0055966307409107685,2.1112401485443115,4.935152354627409,-0.2441764622926712,0.07248816639184952,-1.5334017912494105,0.35680046677589417,0.32572707533836365,0.7357659339904785,0.0,-0.0008518729591742158,0.8040181994438171,0.004186615347862244,-0.40188664197921753
978.0,823.0,-1.4118,0.317,9.67,-0.0313,-0.2417,-0.1316,-1.6871935329832972,-0.1303170919418335,2.12184476852417,-1.739229679107666,0.009085705503821373,2.1070189476013184,4.933689969569006,-0.23907992243766785,0.07683948427438736,-1.531125847493307,0.39940521121025085,0.3299735486507416,0.7357778549194336,0.0,0.006637492682784796,0.8041026592254639,0.006288029253482819,-0.4153057336807251
978.0,823.0,-1.4118,0.317,9.67,-0.0313,-0.2417,-0.1316,-1.6880322895445765,-0.12653250992298126,2.1710526943206787,-1.7392609119415283,0.008305259048938751,2.1479573249816895,4.9321754453475855,-0.25562867522239685,0.0763958990573883,-1.5286267439471644,0.4345870018005371,0.34439003467559814,0.7357456088066101,0.0,-0.013385477475821972,0.8041542768478394,0.008673116564750671,-0.38941556215286255
978.0,823.0,-1.4118,0.317,9.67,-0.0313,-0.2417,-0.1316,-1.688887735406393,-0.1334431916475296,2.170949697494507,-1.7391695976257324,0.004303280264139175,2.073038339614868,4.930541607528486,-0.26245367527008057,0.07710829377174377,-1.5258000532733362,0.47307541966438293,0.34171774983406067,0.7357697486877441,0.0,0.005338516552001238,0.8042431473731995,0.012622801586985588,-0.32394087314605713
978.0,823.0,-1.4118,0.317,9.67,-0.0313,-0.2417,-0.1316,-1.6894427738585414,-0.1445048451423645,2.1336934566497803,-1.7391736507415771,0.0015318841906264424,2.129934310913086,4.9295012829597376,-0.2569568455219269,0.0786106139421463,-1.5238669554339808,0.5095946788787842,0.37037193775177,0.7357218265533447,0.0,-0.0055414289236068726,0.8043030500411987,0.01522039994597435,-0.3303501307964325
978.0,823.0,-1.4118,0.317,9.67,-0.0313,-0.2417,-0.1316,-1.6903416119017542,-0.15977619588375092,2.085665464401245,-1.739133358001709,-0.001035597873851657,2.1023194789886475,4.927946525603094,-0.26371079683303833,0.07613556832075119,-1.520588223134176,0.554968535900116,0.3731762170791626,0.7357659339904785,0.0,0.012163059785962105,0.804366946220398,0.017964713275432587,-0.30840420722961426
978.0,823.0,-1.4118,0.317,9.67,-0.0313,-0.2417,-0.1316,-1.6912890873351039,-0.1659182608127594,2.172201156616211,-1.7391611337661743,-3.4282784326933324e-05,2.0573508739471436,4.92647639194087,-0.24620755016803741,0.08107905089855194,-1.5170987288104456,0.5893475413322449,0.3477627635002136,0.7357618808746338,0.0,-0.0013309777714312077,0.8044630289077759,0.01765196956694126,-0.25032979249954224
978.0,823.0,-1.4118,0.317,9.67,-0.0313,-0.2417,-0.1316,-1.692239900628561,-0.16138117015361786,2.2163734436035156,-1.739142656326294,0.0045127286575734615,2.1529104709625244,4.9250503210122965,-0.25457683205604553,0.08250099420547485,-1.5134604612933558,0.6308667659759521,0.37205320596694946,0.7357777953147888,0.0,-0.0006173767615109682,0.8045752048492432,0.01581471599638462,-0.28419044613838196
978.0,823.0,-1.4118,0.317,9.67,-0.0313,-0.2417,-0.1316,-1.6928311787047328,-0.14897814393043518,2.1828184127807617,-1.7390577793121338,0.008121759630739689,2.0999112129211426,4.923981416016378,-0.24369864165782928,0.1001012772321701,-1.5108941237079065,0.6455692052841187,0.331124484539032,0.735733687877655,0.0,0.006913682445883751,0.8046311140060425,0.015529239550232887,-0.2953759431838989
978.0,823.0,-1.4118,0.317,9.67,-0.0313,-0.2417,-0.1316,-1.6937900982298792,-0.13586430251598358,2.2573275566101074,-1.7390058040618896,0.012273576110601425,2.0732107162475586,4.922671171813764,-0.21884895861148834,0.10246813297271729,-1.506899658833639,0.6768770217895508,0.33982494473457336,0.7357618808746338,0.0,0.003259081859141588,0.8047229051589966,0.017748922109603882,-0.23707300424575806
978.0,823.0,-1.4118,0.317,9.67,-0.0313,-0.2417,-0.1316,-1.6946617565550746,-0.1402253657579422,2.268979072570801,-1.7389858961105347,0.010257947258651257,2.1521108150482178,4.921288269549169,-0.21337063610553741,0.12717434763908386,-1.5028446356402796,0.6960790753364563,0.31930649280548096,0.7358180284500122,0.0,0.006665180437266827,0.8049154281616211,0.02217688038945198,-0.18837475776672363
978.0,823.0,-1.4118,0.317,9.67,-0.0313,-0.2417,-0.1316,-1.6955882511534632,-0.15661950409412384,2.2495369911193848,-1.7389620542526245,0.005258939228951931,2.0673904418945312,4.920073511987486,-0.1900983601808548,0.13625386357307434,-1.4986022154437464,0.7147658467292786,0.28848838806152344,0.7357978820800781,0.0,0.013966120779514313,0.8050355911254883,0.027903638780117035,-0.16287696361541748
978.0,823.0,-1.4118,0.317,9.67,-0.0313,-0.2417,-0.1316,-1.6962195835509242,-0.1655326634645462,2.2956390380859375,-1.7388780117034912,0.0027055528480559587,2.0729775428771973,4.919375869422712,-0.17248603701591492,0.15887033939361572,-1.4957111517535608,0.7277194261550903,0.2976396083831787,0.735749363899231,0.0,0.0067057074047625065,0.8051518797874451,0.028542179614305496,-0.17416252195835114
779.0,536.0,-0.2225,0.539,9.7454,-0.6564,-0.423,-0.1234,-1.697174688378805,-0.17134156823158264,2.2911248207092285,-1.7388784885406494,0.001125324866734445,2.1170904636383057,4.918455678015508,-0.16696402430534363,0.1761014312505722,-1.491314713154928,0.7438257932662964,0.27555322647094727,0.7357819080352783,0.0,0.0021443164441734552,0.8052310347557068,0.028994791209697723,-0.0843476876616478
779.0,536.0,-0.2225,0.539,9.7454,-0.6564,-0.423,-0.1234,-1.6980892620482386,-0.15833553671836853,2.3775901794433594,-1.7388546466827393,0.0062163942493498325,2.0601165294647217,4.917563068657675,-0.13740186393260956,0.17727239429950714,-1.4866870085345667,0.7599684000015259,0.3025319576263428,0.7357938289642334,0.0,-0.00046197426854632795,0.8054034113883972,0.026643365621566772,-0.10640420019626617
779.0,536.0,-0.2225,0.539,9.7454,-0.6564,-0.423,-0.1234,-1.6990367374815882,-0.1412695199251175,2.3035848140716553,-1.7387179136276245,0.012364091351628304,2.078035354614258,4.916910025268354,-0.08712959289550781,0.2036181390285492,-1.4821003119098108,0.7729096412658691,0.2849668860435486,0.7357415556907654,0.0,0.0007800852181389928,0.8055756092071533,0.023313576355576515,-0.04393017664551735
779.0,536.0,-0.2225,0.539,9.7454,-0.6564,-0.423,-0.1234,-1.699883600274557,-0.13167428970336914,2.3549821376800537,-1.7386828660964966,0.01590309664607048,2.120378017425537,4.916651594429769,-0.03318491205573082,0.20084530115127563,-1.4774730841266077,0.7714940309524536,0.24758727848529816,0.7357978820800781,0.0,0.008450979366898537,0.8057723045349121,0.022862793877720833,-0.007142967544496059
779.0,536.0,-0.2225,0.539,9.7454,-0.6564,-0.423,-0.1234,-1.7004667721190394,-0.13366501033306122,2.408602476119995,-1.738654613494873,0.015269262716174126,2.140718936920166,4.91657235005454,-0.004935830365866423,0.2541152536869049,-1.4743512312518519,0.7722140550613403,0.24903275072574615,0.7357374429702759,0.0,0.007712431252002716,0.805855929851532,0.024366505444049835,-0.06683209538459778
779.0,536.0,-0.2225,0.539,9.7454,-0.6564,-0.423,-0.1234,-1.7013098202147425,-0.1392086148262024,2.4097750186920166,-1.7385348081588745,0.012382985092699528,2.10098934173584,4.916660207300939,0.02344697155058384,0.27822762727737427,-1.4697712103473108,0.7721490859985352,0.2606663703918457,0.7357456088066101,0.0,0.004307829774916172,0.8060043454170227,0.02659880742430687,-0.018379442393779755
779.0,536.0,-0.2225,0.539,9.7454,-0.6564,-0.423,-0.1234,-1.7021409473814906,-0.1502601057291031,2.4244251251220703,-1.738487720489502,0.011015829630196095,2.1363253593444824,4.916783708124914,0.03166424483060837,0.2698706388473511,-1.4650619665728968,0.7777904868125916,0.2678222358226776,0.7357860207557678,0.0,0.011897913180291653,0.8061927556991577,0.028165016323328018,0.02616087719798088
779.0,536.0,-0.2225,0.539,9.7454,-0.6564,-0.423,-0.1234,-1.703024526635641,-0.1472836285829544,2.3730626106262207,-1.7384235858917236,0.012332217767834663,2.1123745441436768,4.916938754707136,0.03262873366475105,0.27918556332588196,-1.4604981581317347,0.7689931392669678,0.23231711983680725,0.7357615828514099,0.0,0.010380838997662067,0.8063165545463562,0.028513122349977493,0.028985105454921722
779.0,536.0,-0.2225,0.539,9.7454,-0.6564,-0.423,-0.1234,-1.703531881371969,-0.13937729597091675,2.418224811553955,-1.7382915019989014,0.01568465866148472,2.0917811393737793,4.917038428574362,0.031009390950202942,0.2792818546295166,-1.4573920408831995,0.7708144783973694,0.22796738147735596,0.7357938289642334,0.0,0.010128646157681942,0.8064126372337341,0.02759815938770771,0.07387007772922516
779.0,536.0,-0.2225,0.539,9.7454,-0.6564,-0.423,-0.1234,-1.7042542896666468,-0.12519954144954681,2.4239344596862793,-1.7381314039230347,0.022481651976704597,2.0924134254455566,4.917229640274801,0.026128528639674187,0.2829930782318115,-1.452791992818014,0.7562206983566284,0.21886658668518066,0.7357900738716125,0.0,0.01403556764125824,0.806556224822998,0.02832278609275818,0.11910928040742874
779.0,536.0,-0.2225,0.539,9.7454,-0.6564,-0.423,-0.1234,-1.7049690685667933,-0.11477194726467133,2.445039749145508,-1.7380527257919312,0.02949095517396927,2.1442604064941406,4.917365687876501,0.016632262617349625,0.26100632548332214,-1.4483807722674769,0.7526078820228577,0.212179034948349,0.7358137965202332,0.0,0.011039476841688156,0.8067687749862671,0.02912069857120514,0.048584677278995514
779.0,536.0,-0.2225,0.539,9.7454,-0.6564,-0.423,-0.1234,-1.7056485615172328,-0.10656177252531052,2.4439659118652344,-1.737860918045044,0.03535071387887001,2.1714985370635986,4.917397248535909,0.00528997415676713,0.2689987123012543,-1.4438684622394007,0.7438730597496033,0.2178567498922348,0.7358263731002808,0.0,0.015336823649704456,0.8069731593132019,0.03542974591255188,0.06817903369665146
779.0,536.0,-0.2225,0.539,9.7454,-0.6564,-0.423,-0.1234,-1.7061001263060511,-0.10605151951313019,2.441758871078491,-1.7377647161483765,0.037432171404361725,2.11202335357666,4.917401808291235,0.0011170865036547184,0.26034674048423767,-1.4409974257098597,0.7337401509284973,0.21709394454956055,0.7358138561248779,0.0,0.013086551800370216,0.8071617484092712,0.040405113250017166,0.12205043435096741
779.0,536.0,-0.2225,0.539,9.7454,-0.6564,-0.423,-0.1234,-1.7068120441832484,-0.10625437647104263,2.424314022064209,-1.737522006034851,0.04037688672542572,2.1975810527801514,4.917377251177587,-0.0035446486435830593,0.263694703578949,-1.4366682211505335,0.7200294733047485,0.19323095679283142,0.7357616424560547,0.0,0.013610191643238068,0.8074093461036682,0.05135660991072655,0.14857247471809387
779.0,536.0,-0.2225,0.539,9.7454,-0.6564,-0.423,-0.1234,-1.707346578637594,-0.10811744630336761,2.4410464763641357,-1.7372536659240723,0.04352154955267906,2.183986186981201,4.917341562896528,-0.0013950642896816134,0.25786033272743225,-1.4324482123004358,0.6999647617340088,0.1848505139350891,0.7357978224754333,0.0,0.021003197878599167,0.8077584505081177,0.06247350573539734,0.20276430249214172
779.0,536.0,-0.2225,0.539,9.7454,-0.6564,-0.423,-0.1234,-1.7079664669432582,-0.10315700620412827,2.4606356620788574,-1.7369625568389893,0.04705152288079262,2.1596574783325195,4.91734932640151,-0.0006193006411194801,0.2608744502067566,-1.4282382170306605,0.6930652260780334,0.20004072785377502,0.7357981204986572,0.0,0.010532384738326073,0.8081344962120056,0.07266207784414291,0.23932664096355438
405.0,385.0,-0.4768,-2.1577,11.0788,-0.7498,-0.0721,-0.0808,-1.7085381946959437,-0.09251625090837479,2.4909234046936035,-1.7366799116134644,0.052290480583906174,2.178136110305786,4.917377638607778,-0.0004080199869349599,0.266686350107193,-1.4240348974811,0.6842864155769348,0.19591310620307922,0.735785722732544,8.762165089137852e-05,0.019516846165060997,0.8086153268814087,0.08128951489925385,0.19538594782352448
405.0,385.0,-0.4768,-2.1577,11.0788,-0.7498,-0.0721,-0.0808,-1.7088734112181605,-0.08879075944423676,2.497863292694092,-1.736444115638733,0.0557539165019989,2.19002366065979,4.917301031738081,-0.00033252479624934494,0.2658974528312683,-1.4213207403766077,0.667762815952301,0.19471392035484314,0.7358100414276123,9.635157039156184e-05,0.01593094877898693,0.8089718222618103,0.08641522377729416,0.23128552734851837
405.0,385.0,-0.4768,-2.1577,11.0788,-0.7498,-0.0721,-0.0808,-1.7094127140440882,-0.08636245131492615,2.4796791076660156,-1.7360775470733643,0.061056949198246,2.1755762100219727,4.917345243483343,-0.00026031973538920283,0.2659318745136261,-1.4173796812640589,0.6545672416687012,0.19233518838882446,0.7357738614082336,9.05851848074235e-05,0.016872070729732513,0.8094757795333862,0.09534253180027008,0.2510122060775757
405.0,385.0,-0.4768,-2.1577,11.0788,-0.7498,-0.0721,-0.0808,-1.7099157772459925,-0.08762450516223907,2.513597249984741,-1.7357269525527954,0.06565951555967331,2.1944503784179688,4.917349639325895,-0.00021389246103353798,0.2685655355453491,-1.4134662787066858,0.6393002867698669,0.18235322833061218,0.7357938289642334,8.54261452332139e-05,0.011635824106633663,0.8101122379302979,0.10450136661529541,0.2754715383052826
405.0,385.0,-0.4768,-2.1577,11.0788,-0.7498,-0.0721,-0.0808,-1.7104674778380335,-0.08964743465185165,2.516908645629883,-1.7353276014328003,0.07020056992769241,2.216317653656006,4.917341577797689,-0.00018152440316043794,0.26798945665359497,-1.4097488562213343,0.6282157301902771,0.18618416786193848,0.7358298301696777,9.698295616544783e-05,0.00529719702899456,0.8107243776321411,0.11275029927492142,0.3021678328514099
405.0,385.0,-0.4768,-2.1577,11.0788,-0.7498,-0.0721,-0.0808,-1.7107907734312953,-0.08807815611362457,2.500805139541626,-1.7349915504455566,0.07487597316503525,2.1917190551757812,4.917341577797689,-0.0001648907345952466,0.2586056590080261,-1.4073360602008265,0.6108368039131165,0.17306122183799744,0.735801637172699,9.362448327010497e-05,0.017890218645334244,0.8112577199935913,0.11414553225040436,0.30825960636138916
405.0,385.0,-0.4768,-2.1577,11.0788,-0.7498,-0.0721,-0.0808,-1.7113424740233363,-0.08648374676704407,2.4644789695739746,-1.7345407009124756,0.08149011433124542,2.258384943008423,4.917329329043188,-9.336287621408701e-05,0.26654064655303955,-1.4037464300738733,0.5992281436920166,0.17345570027828217,0.7358260750770569,8.899554086383432e-05,0.00672100018709898,0.8119945526123047,0.1162298247218132,0.3133508563041687
405.0,385.0,-0.4768,-2.1577,11.0788,-0.7498,-0.0721,-0.0808,-1.7118784389891566,-0.08501460403203964,2.4415979385375977,-1.7340424060821533,0.08413795381784439,2.2315492630004883,4.917313295393743,-6.502569158328697e-05,0.26740187406539917,-1.400280777608053,0.5798424482345581,0.1674516499042511,0.7358060479164124,9.708910511108115e-05,0.015201188623905182,0.8126707673072815,0.1214495450258255,0.305741548538208
405.0,385.0,-0.4768,-2.1577,11.0788,-0.7498,-0.0721,-0.0808,-1.712353845635885,-0.08341159671545029,2.5008721351623535,-1.7334926128387451,0.08407309651374817,2.2081234455108643,4.917301612883367,-0.00012062148016411811,0.25419172644615173,-1.3968971411334437,0.5621023774147034,0.16454505920410156,0.735785722732544,9.448450146010146e-05,0.014828203245997429,0.8133746385574341,0.13376057147979736,0.34283962845802307
405.0,385.0,-0.4768,-2.1577,11.0788,-0.7498,-0.0721,-0.0808,-1.7126618824400843,-0.07993704080581665,2.516465663909912,-1.7331560850143433,0.08491791784763336,2.2241432666778564,4.917341562896528,-0.00043812463991343975,0.2511545717716217,-1.3946784178363245,0.5435502529144287,0.14197859168052673,0.7358381748199463,9.17334109544754e-05,0.02910403534770012,0.8140162229537964,0.13851919770240784,0.37354475259780884
405.0,385.0,-0.4768,-2.1577,11.0788,-0.7498,-0.0721,-0.0808,-1.7131792507567347,-0.0739138126373291,2.5091283321380615,-1.7326149940490723,0.08719737082719803,2.231750965118408,4.917321550637045,-0.0005475558573380113,0.24721336364746094,-1.3914349714862269,0.5236353278160095,0.15205338597297668,0.7357778549194336,8.789402636466548e-05,0.0208083838224411,0.8148489594459534,0.14984379708766937,0.3905779719352722
405.0,385.0,-0.4768,-2.1577,11.0788,-0.7498,-0.0721,-0.0808,-1.7135993442931117,-0.06982376426458359,2.5419907569885254,-1.7321234941482544,0.09254179894924164,2.23323917388916,4.917281347304144,-0.0007926851394586265,0.24166268110275269,-1.388338867818014,0.5151143074035645,0.14816397428512573,0.7358137965202332,8.436310599790886e-05,0.024470672011375427,0.8157252073287964,0.1609385460615158,0.42875033617019653
405.0,385.0,-0.4768,-2.1577,11.0788,-0.7498,-0.0721,-0.0808,-1.714043756524557,-0.06974583864212036,2.516859769821167,-1.731535792350769,0.09726567566394806,2.2525875568389893,4.917249637633123,-0.0016557887429371476,0.25074610114097595,-1.3852923552142542,0.4935765862464905,0.13380342721939087,0.7357738614082336,8.110487397061661e-05,0.013040944933891296,0.8166818022727966,0.1693945825099945,0.4437652826309204
405.0,385.0,-0.4768,-2.1577,11.0788,-0.7498,-0.0721,-0.0808,-1.71449675182485,-0.07302189618349075,2.472913980484009,-1.7309424877166748,0.10077480226755142,2.260091781616211,4.91721365132884,-0.0025049159303307533,0.23559671640396118,-1.3823936621295374,0.48106148838996887,0.1302006095647812,0.7358138561248779,7.808898226357996e-05,0.02652440406382084,0.8177512884140015,0.17127646505832672,0.48403745889663696
405.0,385.0,-0.4768,-2.1577,11.0788,-0.7498,-0.0721,-0.0808,-1.7147847614684046,-0.07727547734975815,2.489734172821045,-1.7305402755737305,0.10328663140535355,2.2250332832336426,4.91722588518218,-0.0022712931968271732,0.2506853938102722,-1.3804848829852503,0.45543035864830017,0.11944475769996643,0.7357615828514099,7.620002725161612e-05,0.00768296280875802,0.8184716701507568,0.17496229708194733,0.49047863483428955
405.0,385.0,-0.4768,-2.1577,11.0788,-0.7498,-0.0721,-0.0808,-1.715269228021139,-0.08480040729045868,2.4637374877929688,-1.7298810482025146,0.11265616863965988,2.289013385772705,4.917217734247007,-0.0016153239412233233,0.2400817722082138,-1.3779013792621058,0.4356156289577484,0.11480990052223206,0.7357900738716125,7.353188266279176e-05,0.014510301873087883,0.8195278644561768,0.1796034276485443,0.476151704788208
405.0,385.0,-0.4768,-2.1577,11.0788,-0.7498,-0.0721,-0.0808,-1.715834756890768,-0.09405525773763657,2.4367992877960205,-1.7291659116744995,0.12146729975938797,2.2976789474487305,4.917225855379858,-0.0011549157788977027,0.24290913343429565,-1.3753812948810022,0.42964860796928406,0.11272351443767548,0.7358098030090332,7.104425458237529e-05,0.008060486055910587,0.8206527233123779,0.18645921349525452,0.4876447319984436
339.0,361.0,0.4582,-3.0449,9.8542,-0.5423,-0.0611,0.0124,-1.716375013391012,-0.1020166352391243,2.425950765609741,-1.728403091430664,0.12325018644332886,2.2635090351104736,4.917253765254774,-0.000855411752127111,0.2458529770374298,-1.3729594389544886,0.39891430735588074,0.10210488736629486,0.7358059883117676,2.2994406663201516e-06,0.010835417546331882,0.8217657804489136,0.19330808520317078,0.5263869166374207
339.0,361.0,0.4582,-3.0449,9.8542,-0.5423,-0.0611,0.0124,-1.7168117962279261,-0.10341189056634903,2.4567625522613525,-1.7279088497161865,0.12424882501363754,2.3455004692077637,4.917205366283216,-0.0006961291655898094,0.24441038072109222,-1.3713610808001917,0.3823418915271759,0.07535314559936523,0.7358260750770569,9.802875844400205e-09,0.010600847192108631,0.8225948810577393,0.19582372903823853,0.49655717611312866
339.0,361.0,0.4582,-3.0449,9.8542,-0.5423,-0.0611,0.0124,-1.7174083195128382,-0.10042883455753326,2.442247152328491,-1.7271794080734253,0.12932737171649933,2.26869797706604,4.917241561203756,-0.0005395062617026269,0.24549198150634766,-1.3691728750811976,0.3707970380783081,0.07665286213159561,0.735785722732544,2.7286666849646313e-12,0.008924144320189953,0.8238198161125183,0.20190668106079102,0.46702393889427185
339.0,361.0,0.4582,-3.0449,9.8542,-0.5423,-0.0611,0.0124,-1.7180568180479945,-0.09527676552534103,2.4713244438171387,-1.7263983488082886,0.13914011418819427,2.289442300796509,4.917225914984503,-0.00034997693728655577,0.24209782481193542,-1.3670271078692835,0.33265647292137146,0.0696369856595993,0.7358420491218567,7.595342849842535e-16,0.013532893732190132,0.8250408172607422,0.20451396703720093,0.5182069540023804
339.0,361.0,0.4582,-3.0449,9.8542,-0.5423,-0.0611,0.0124,-1.7186738453307093,-0.09074443578720093,2.506472110748291,-1.7255804538726807,0.14113351702690125,2.3005197048187256,4.917178305774488,-0.001427812036126852,0.23470434546470642,-1.3650992552386683,0.3171389102935791,0.06218807026743889,0.7358098030090332,2.114191573859137e-19,0.026401961222290993,0.826253354549408,0.20523850619792938,0.512588381767273
339.0,361.0,0.4582,-3.0449,9.8542,-0.5423,-0.0611,0.0124,-1.7193547687926234,-0.0996510311961174,2.4744410514831543,-1.7247703075408936,0.14333760738372803,2.302089214324951,4.917110207467832,-0.011743729934096336,0.22784239053726196,-1.3634303251849573,0.2767954170703888,0.045073091983795166,0.7358057498931885,5.884930120852612e-23,0.017387809231877327,0.8275022506713867,0.20925258100032806,0.5550722479820251
339.0,361.0,0.4582,-3.0449,9.8542,-0.5423,-0.0611,0.0124,-1.7197958431639613,-0.10720111429691315,2.4824013710021973,-1.7241296768188477,0.14534224569797516,2.318779706954956,4.917042511492529,-0.01754242181777954,0.23074114322662354,-1.3623397986041468,0.2776690423488617,0.04028792679309845,0.7358379364013672,2.5088380027015405e-25,-0.007011036388576031,0.8283871412277222,0.21747815608978271,0.5713208317756653
339.0,361.0,0.4582,-3.0449,9.8542,-0.5423,-0.0611,0.0124,-1.7204605541624964,-0.12281064689159393,2.4467227458953857,-1.723275899887085,0.1434645652770996,2.362586498260498,4.916898938804426,-0.01889430359005928,0.22994424402713776,-1.3607338110553187,0.23701909184455872,0.022744836285710335,0.7357776761054993,6.983442441353776e-29,0.015124605037271976,0.8297562003135681,0.23075343668460846,0.6476516127586365
339.0,361.0,0.4582,-3.0449,9.8542,-0.5423,-0.0611,0.0124,-1.72117342571401,-0.13274870812892914,2.47097110748291,-1.7224408388137817,0.13922971487045288,2.3224036693573,4.916850942164221,-0.011470798403024673,0.234767347574234,-1.359490219746725,0.2046516388654709,0.011183477938175201,0.735785722732544,1.943866959623227e-32,0.011433049105107784,0.8310810327529907,0.23071283102035522,0.6085208058357239
339.0,361.0,0.4582,-3.0449,9.8542,-0.5423,-0.0611,0.0124,-1.7218977413573207,-0.13559873402118683,2.4312219619750977,-1.7214875221252441,0.14584769308567047,2.3171792030334473,4.916843104153433,-0.0019256140803918242,0.23647654056549072,-1.3583505789386194,0.18115003407001495,-0.0024058392737060785,0.7358579635620117,5.4108254646105074e-36,0.013024628162384033,0.8324823975563049,0.22772164642810822,0.5921413898468018
339.0,361.0,0.4582,-3.0449,9.8542,-0.5423,-0.0611,0.0124,-1.7224270306029261,-0.1315881758928299,2.4231762886047363,-1.7209196090698242,0.152083158493042,2.3743269443511963,4.916855025082388,0.001257233670912683,0.23594318330287933,-1.3576543966876429,0.14263556897640228,-0.008354969322681427,0.7357657551765442,2.306719721338704e-38,0.031440068036317825,0.8333708643913269,0.23033511638641357,0.5958032011985779
339.0,361.0,0.4582,-3.0449,9.8542,-0.5423,-0.0611,0.0124,-1.7232357464232386,-0.12587092816829681,2.4553017616271973,-1.7200007438659668,0.16264145076274872,2.372183322906494,4.916879239469328,0.0012626569950953126,0.2238920032978058,-1.3570874373065394,0.08772395551204681,-0.032024383544921875,0.7358179092407227,6.420749563536312e-42,0.02789526805281639,0.8348239660263062,0.24066776037216187,0.629732608795166
339.0,361.0,0.4582,-3.0449,9.8542,-0.5423,-0.0611,0.0124,-1.7240969143309535,-0.12074499577283859,2.47456693649292,-1.718955159187317,0.17185473442077637,2.386176109313965,4.91686329522685,0.0007406263612210751,0.2425025850534439,-1.3566678206073206,0.05705079063773155,-0.046396687626838684,0.7358057498931885,1.401298464324817e-45,0.018983252346515656,0.8362411856651306,0.24589307606220245,0.6161723136901855
339.0,361.0,0.4582,-3.0449,9.8542,-0.5423,-0.0611,0.0124,-1.7248860798277796,-0.12426893413066864,2.4378762245178223,-1.7179131507873535,0.173338383436203,2.3569602966308594,4.916807445674696,4.536603228189051e-05,0.2368597388267517,-1.3564041296588343,0.04202454537153244,-0.06926719099283218,0.7358497977256775,5.291481647873297e-05,0.025339381769299507,0.8377063274383545,0.24464482069015503,0.6446560621261597
339.0,361.0,0.4582,-3.0449,9.8542,-0.5423,-0.0611,0.0124,-1.7254425487914027,-0.13217520713806152,2.519289255142212,-1.7172447443008423,0.17037934064865112,2.3945579528808594,4.916730704694547,-0.002675079507753253,0.23459076881408691,-1.3562443892108362,0.03688983619213104,-0.06001685559749603,0.7358139157295227,5.2529459935612977e-05,0.024741308763623238,0.8386988043785095,0.24744611978530884,0.5733952522277832
339.0,361.0,0.4582,-3.0449,9.8542,-0.5423,-0.0611,0.0124,-1.7262350521483363,-0.15148214995861053,2.454257011413574,-1.716251254081726,0.16702871024608612,2.3525969982147217,4.9167315540607355,-0.005433390848338604,0.23020341992378235,-1.3560484091388147,0.030603229999542236,-0.057526785880327225,0.7358097434043884,5.075562512502074e-05,0.01336988341063261,0.8402003049850464,0.25985339283943176,0.608652651309967
329.0,337.0,-0.6694,-4.3729,9.4098,-0.1145,-0.0035,0.1681,-1.727133413354391,-0.16862228512763977,2.369856834411621,-1.715228796005249,0.1650860607624054,2.333475351333618,4.916727515846052,-0.005400757770985365,0.22956158220767975,-1.35590106645693,0.02400439791381359,-0.05319524556398392,0.7357936501502991,1.92852735381166e-06,0.02198491431772709,0.8417016267776489,0.2663119435310364,0.6407450437545776
329.0,337.0,-0.6694,-4.3729,9.4098,-0.1145,-0.0035,0.1681,-1.72807039837026,-0.16995283961296082,2.3598852157592773,-1.714211106300354,0.17133180797100067,2.3476104736328125,4.916711839824476,-0.002616819692775607,0.2171812653541565,-1.3557723204242151,0.01651221700012684,-0.0540306493639946,0.7357895970344543,5.36812705398404e-10,0.024162570014595985,0.8432909250259399,0.25612592697143555,0.6166643500328064
329.0,337.0,-0.6694,-4.3729,9.4098,-0.1145,-0.0035,0.1681,-1.7290073833861292,-0.16099143028259277,2.3982229232788086,-1.7130290269851685,0.18371574580669403,2.364769220352173,4.916791933565893,-0.0011004998814314604,0.22523298859596252,-1.3557208220111292,0.007350192405283451,-0.042539604008197784,0.7357779145240784,1.494237947350513e-13,0.017523139715194702,0.8447956442832947,0.2539586126804352,0.6221742630004883
329.0,337.0,-0.6694,-4.3729,9.4098,-0.1145,-0.0035,0.1681,-1.7296520672240199,-0.1520605832338333,2.446537971496582,-1.7123126983642578,0.18944832682609558,2.3578898906707764,4.916771787195959,-0.0008111642091535032,0.2240869402885437,-1.355753246937887,0.003233290510252118,-0.06163877248764038,0.7358497381210327,6.3701705721322735e-16,0.023069079965353012,0.8458361029624939,0.25621458888053894,0.5937435030937195
329.0,337.0,-0.6694,-4.3729,9.4098,-0.1145,-0.0035,0.1681,-1.7306047878661097,-0.14692053198814392,2.4206018447875977,-1.7112089395523071,0.19635368883609772,2.4016923904418945,4.91674721518115,-0.00058482721215114,0.21942627429962158,-1.3557003180133265,9.51712172536645e-06,-0.06742874532938004,0.7358260750770569,1.7731602584460676e-19,0.022922776639461517,0.8473733067512512,0.2651382088661194,0.636750340461731
329.0,337.0,-0.6694,-4.3729,9.4098,-0.1145,-0.0035,0.1681,-1.7315741978087367,-0.15496833622455597,2.405172348022461,-1.710046410560608,0.19949035346508026,2.390611171722412,4.91668767014102,-0.0005220453604124486,0.23366142809391022,-1.3557208220111292,2.6491258076077884e-09,-0.06822298467159271,0.7357898354530334,4.935655928276718e-23,0.02455400675535202,0.8490073680877686,0.26493775844573975,0.6318861246109009
329.0,337.0,-0.6694,-4.3729,9.4098,-0.1145,-0.0035,0.1681,-1.7325917683043421,-0.1723496913909912,2.4046173095703125,-1.7089288234710693,0.19900792837142944,2.405665397644043,4.916651594429769,-0.0015002870932221413,0.20843923091888428,-1.3556283156024378,7.373940325537676e-13,-0.06045111268758774,0.735777735710144,1.3738581198943504e-26,0.025849614292383194,0.8506127595901489,0.26381200551986694,0.6103918552398682
329.0,337.0,-0.6694,-4.3729,9.4098,-0.1145,-0.0035,0.1681,-1.7332846126952113,-0.18576782941818237,2.39591383934021,-1.70806884765625,0.19944775104522705,2.36600923538208,4.916623729258337,-0.00399710051715374,0.21918323636054993,-1.3557089010821741,3.1436264114298278e-15,-0.06958179175853729,0.7357978820800781,5.856972637265866e-29,0.02495974488556385,0.8517173528671265,0.2656072676181793,0.5732002854347229
329.0,337.0,-0.6694,-4.3729,9.4098,-0.1145,-0.0035,0.1681,-1.7343698940672816,-0.19464163482189178,2.4546594619750977,-1.7068824768066406,0.19964493811130524,2.3895010948181152,4.916639762907781,-0.006195466034114361,0.22268809378147125,-1.3557093779193323,-0.00010237914830213413,-0.06780090928077698,0.7358057498931885,1.6303098659499298e-32,0.006902685854583979,0.8533222079277039,0.26623523235321045,0.600488543510437
329.0,337.0,-0.6694,-4.3729,9.4098,-0.1145,-0.0035,0.1681,-1.73545565227651,-0.19301839172840118,2.3573498725891113,-1.7056785821914673,0.2061607986688614,2.3528671264648438,4.916583898454466,-0.0057865893468260765,0.21525782346725464,-1.355624024068014,0.00018350068421568722,-0.04897388070821762,0.7357778549194336,4.5380270075758756e-36,0.013686943799257278,0.8549314737319946,0.26400232315063477,0.552388072013855
329.0,337.0,-0.6694,-4.3729,9.4098,-0.1145,-0.0035,0.1681,-1.736601015130514,-0.18936477601528168,2.3741490840911865,-1.704445242881775,0.21486178040504456,2.413196563720703,4.916588339000501,-0.004148748703300953,0.22023147344589233,-1.3556364218341272,0.00021029042545706034,-0.0614541694521904,0.7358419299125671,1.2631766785917128e-39,0.012939603999257088,0.8565285801887512,0.2552861273288727,0.5132839679718018
329.0,337.0,-0.6694,-4.3729,9.4098,-0.1145,-0.0035,0.1681,-1.7373377285399378,-0.18752700090408325,2.4141650199890137,-1.703505277633667,0.22018209099769592,2.389974355697632,4.916544157057562,-0.00258615636266768,0.22873085737228394,-1.3556650320636194,0.00023609690833836794,-0.06073924899101257,0.7358379364013672,5.385189998400272e-42,0.018966320902109146,0.8575453162193298,0.25026750564575195,0.4982006251811981
329.0,337.0,-0.6694,-4.3729,9.4098,-0.1145,-0.0035,0.1681,-1.7385112247862757,-0.19059589505195618,2.3983936309814453,-1.7022249698638916,0.22573597729206085,2.329934597015381,4.916548239975729,-0.0016992771998047829,0.22144538164138794,-1.3556683699237269,0.0002041521220235154,-0.054611507803201675,0.7357616424560547,1.401298464324817e-45,0.017206773161888123,0.8590702414512634,0.24904224276542664,0.48869583010673523
329.0,337.0,-0.6694,-4.3729,9.4098,-0.1145,-0.0035,0.1681,-1.7397052250304164,-0.1936454325914383,2.3820643424987793,-1.700850486755371,0.22674131393432617,2.3884377479553223,4.916532236128607,-0.001880133175291121,0.21154630184173584,-1.3556807676898401,0.00017969041073229164,-0.04773632064461708,0.7357940077781677,0.0,0.014790825545787811,0.8606196045875549,0.25780266523361206,0.535749614238739
329.0,337.0,-0.6694,-4.3729,9.4098,-0.1145,-0.0035,0.1681,-1.740918298760885,-0.2075629085302353,2.403870105743408,-1.6995140314102173,0.2332744002342224,2.357109308242798,4.916528481035986,-0.004127087537199259,0.22241860628128052,-1.3556278387652796,0.00016106355178635567,-0.04743679240345955,0.7357538342475891,0.0,0.014621776528656483,0.8621608018875122,0.2536202669143677,0.5344020128250122
329.0,337.0,-0.6694,-4.3729,9.4098,-0.1145,-0.0035,0.1681,-1.7421394787230433,-0.22477510571479797,2.3884148597717285,-1.6980983018875122,0.23791702091693878,2.4040396213531494,4.916468637972631,-0.008516390807926655,0.21753734350204468,-1.3556488196002405,0.00022525255917571485,-0.03920164331793785,0.7357819080352783,0.0,0.008830602280795574,0.8635854721069336,0.24297913908958435,0.5080379843711853
329.0,337.0,-0.6694,-4.3729,9.4098,-0.1145,-0.0035,0.1681,-1.7430488071837367,-0.2276322990655899,2.389678716659546,-1.6970731019973755,0.23903407156467438,2.4027392864227295,4.916456731944837,-0.009625811129808426,0.2029131054878235,-1.35565692583193,0.00024535207194276154,-0.054788850247859955,0.7357978224754333,0.0,0.01430338155478239,0.8645297884941101,0.2385910302400589,0.4460153579711914
321.0,349.0,-0.2877,-2.5202,9.6951,0.0421,0.0145,0.1588,-1.7444187603392542,-0.22621981799602509,2.4055850505828857,-1.6955649852752686,0.2452334463596344,2.4491541385650635,4.916428792267599,-0.0068008555099368095,0.20674502849578857,-1.3556650320636194,0.000288159295450896,-0.04368755593895912,0.7357298135757446,0.0,0.01653365232050419,0.8659594058990479,0.2424033135175705,0.4698796272277832
321.0,349.0,-0.2877,-2.5202,9.6951,0.0421,0.0145,0.1588,-1.7457925281920375,-0.2234172374010086,2.409677267074585,-1.694124460220337,0.2579933702945709,2.4198997020721436,4.916380765825071,-0.0026722238399088383,0.2230064868927002,-1.3556249777423304,0.0006087415968067944,-0.0320235975086689,0.7358218431472778,0.0,0.012170559726655483,0.8673399686813354,0.23562338948249817,0.4456704258918762
321.0,349.0,-0.2877,-2.5202,9.6951,0.0421,0.0145,0.1588,-1.7472101650633753,-0.23102357983589172,2.3877859115600586,-1.6925281286239624,0.26886481046676636,2.4288253784179688,4.916404950409689,-0.0009365142323076725,0.22384843230247498,-1.3556283156024378,0.0011844714172184467,-0.04279583692550659,0.7358097434043884,0.0,0.008730105124413967,0.8687694072723389,0.22169196605682373,0.38405555486679077
321.0,349.0,-0.2877,-2.5202,9.6951,0.0421,0.0145,0.1588,-1.7482272587218226,-0.24026891589164734,2.431952714920044,-1.6915526390075684,0.2677377760410309,2.4883668422698975,4.916360693960943,-0.0010345267364755273,0.22926773130893707,-1.3556163946734827,0.001452225842513144,-0.0325019508600235,0.7357938289642334,0.0,0.0157641489058733,0.8696054220199585,0.21562206745147705,0.3545498549938202
321.0,349.0,-0.2877,-2.5202,9.6951,0.0421,0.0145,0.1588,-1.749789377252096,-0.25266122817993164,2.352415084838867,-1.6898561716079712,0.2680928707122803,2.3929061889648438,4.916336643486776,-0.00230951770208776,0.22049516439437866,-1.3556526342975062,0.0010954035678878427,-0.03214380145072937,0.7357819080352783,0.0,0.013615823350846767,0.8709065914154053,0.21845154464244843,0.33703017234802246
321.0,349.0,-0.2877,-2.5202,9.6951,0.0421,0.0145,0.1588,-1.7513228855528773,-0.25733140110969543,2.3979296684265137,-1.6881961822509766,0.27507418394088745,2.407198429107666,4.9163730321224115,-0.0016646957956254482,0.21922482550144196,-1.3556249777423304,0.0008977250545285642,-0.03574703261256218,0.7357978224754333,0.0,-0.0023574000224471092,0.8721832633018494,0.2196924239397049,0.31925415992736816
321.0,349.0,-0.2877,-2.5202,9.6951,0.0421,0.0145,0.1588,-1.7529813251891078,-0.27042263746261597,2.418181896209717,-1.686476469039917,0.27960100769996643,2.4401659965515137,4.916344868927755,-0.0011342448415234685,0.21716704964637756,-1.3556249777423304,0.0008924311841838062,-0.03150540217757225,0.7357779145240784,0.0,0.006999662145972252,0.8734601736068726,0.21070687472820282,0.31151270866394043
321.0,349.0,-0.2877,-2.5202,9.6951,0.0421,0.0145,0.1588,-1.754651208917135,-0.28344276547431946,2.409700632095337,-1.6847519874572754,0.2775290608406067,2.4238643646240234,4.916328879981794,-0.002181330695748329,0.2189899981021881,-1.3555925528155726,0.002680528908967972,-0.029938634485006332,0.7357495427131653,0.0,-0.003629710990935564,0.8746528625488281,0.1964467167854309,0.29863300919532776
321.0,349.0,-0.2877,-2.5202,9.6951,0.0421,0.0145,0.1588,-1.7557970486082972,-0.28039440512657166,2.432471513748169,-1.6836812496185303,0.2832696735858917,2.4162206649780273,4.916357028275289,-0.0017491052858531475,0.228145033121109,-1.355584446583883,0.002935942728072405,-0.02504809945821762,0.7357978820800781,0.0,-0.0033337310887873173,0.8754538893699646,0.19264625012874603,0.3022352457046509
321.0,349.0,-0.2877,-2.5202,9.6951,0.0421,0.0145,0.1588,-1.757519384423727,-0.2772485315799713,2.4267072677612305,-1.6819164752960205,0.29459312558174133,2.437438488006592,4.916336911707678,-0.0009218126651830971,0.21651577949523926,-1.355588738118307,0.002760509727522731,-0.015415415167808533,0.7357538342475891,0.0,0.006066987290978432,0.8765701055526733,0.18877868354320526,0.28310394287109375
321.0,349.0,-0.2877,-2.5202,9.6951,0.0421,0.0145,0.1588,-1.759205003777975,-0.29086968302726746,2.4369308948516846,-1.6801879405975342,0.2947988510131836,2.414090633392334,4.916301297932424,-0.0012502213940024376,0.22554485499858856,-1.3555205504046839,0.0031722222920507193,-0.021468132734298706,0.7357577085494995,0.0,-0.004003949463367462,0.8776426315307617,0.18276461958885193,0.23683980107307434
321.0,349.0,-0.2877,-2.5202,9.6951,0.0421,0.0145,0.1588,-1.7609559498228968,-0.2968888580799103,2.4486968517303467,-1.6783241033554077,0.2975645065307617,2.465740919113159,4.9162930128868005,-0.0029239088762551546,0.23950937390327454,-1.3555486837970179,0.0032300553284585476,-0.007371937856078148,0.7357737421989441,0.0,-0.006120434962213039,0.878795862197876,0.1790349781513214,0.23573991656303406
321.0,349.0,-0.2877,-2.5202,9.6951,0.0421,0.0145,0.1588,-1.7621122799315394,-0.2998809516429901,2.47609806060791,-1.677112340927124,0.3023620545864105,2.4585766792297363,4.916297632246771,-0.0028779483400285244,0.23047500848770142,-1.3554962317096155,0.002957056276500225,-0.013049613684415817,0.7358378767967224,0.0,0.0007466028910130262,0.8795610666275024,0.1749943494796753,0.2428048551082611
321.0,349.0,-0.2877,-2.5202,9.6951,0.0421,0.0145,0.1588,-1.763890882531637,-0.3048572242259979,2.4066262245178223,-1.67532479763031,0.3071826994419098,2.4304964542388916,4.916341784387388,-0.002434398280456662,0.226633220911026,-1.3555124441729944,0.002225192729383707,-0.015029886737465858,0.7357577085494995,0.0,0.002797430846840143,0.8805529475212097,0.16907142102718353,0.21825309097766876
