ramyac6/ROB537/final_project/csv/all/bad_82.csv
tof_0,tof_1,accelx,accely,accelz,gyrox,gyroy,gyroz,shoulder_lift_joint_position,shoulder_lift_joint_velocity,shoulder_lift_joint_effort,elbow_joint_position,elbow_joint_velocity,elbow_joint_effort,wrist_1_joint_position,wrist_1_joint_velocity,wrist_1_joint_effort,wrist_2_joint_position,wrist_2_joint_velocity,wrist_2_joint_effort,wrist_3_joint_position,wrist_3_joint_velocity,wrist_3_joint_effort,shoulder_pan_joint_position,shoulder_pan_joint_velocity,shoulder_pan_joint_effort
1002.0,862.0,1.8622,0.0843,9.3488,-0.0431,0.0302,-0.1184,-1.5500089687160035,0.0,2.0848050117492676,-1.3510295152664185,-0.0,2.125669479370117,4.17446152746167,0.0,0.297830194234848,-1.5897734800921839,-0.0,-0.004420572426170111,0.7606313228607178,-0.0,0.003016140777617693,0.846746563911438,0.0,0.016028674319386482
1002.0,862.0,1.8622,0.0843,9.3488,-0.0431,0.0302,-0.1184,-1.5499850076488038,0.0,2.090636730194092,-1.3510253429412842,-0.0,2.165578603744507,4.174425287837646,0.0,0.30010512471199036,-1.5897415320025843,-0.0,0.006483740173280239,0.7606796622276306,-0.0,-0.006398381199687719,0.8467462658882141,0.0,-0.009124941192567348
1002.0,862.0,1.8622,0.0843,9.3488,-0.0431,0.0302,-0.1184,-1.5499809191427012,0.0,2.0495927333831787,-1.3510212898254395,-0.0,2.1682679653167725,4.17446152746167,0.0,0.2961881160736084,-1.5897534529315394,-0.0,9.045045590028167e-05,0.760671854019165,-0.0,-0.0013303910382092,0.8467545509338379,0.0,0.01632450334727764
1002.0,862.0,1.8622,0.0843,9.3488,-0.0431,0.0302,-0.1184,-1.5499850076488038,0.0,2.0475029945373535,-1.3510491847991943,-0.0,2.1409912109375,4.174485846156738,0.0,0.2928083539009094,-1.589785401021139,-0.0,0.004194984678179026,0.7606555223464966,-0.0,-0.004258768167346716,0.8467545509338379,0.0,0.01351535227149725
1002.0,862.0,1.8622,0.0843,9.3488,-0.0431,0.0302,-0.1184,-1.5500089687160035,0.0,2.072970151901245,-1.3509645462036133,-0.0,2.1472604274749756,4.174397631282471,0.0,0.30466005206108093,-1.5898063818561,-0.0,-0.017390476539731026,0.7607321739196777,-0.0,0.0018302060198038816,0.8467627167701721,0.0,-0.00556159857660532
1002.0,862.0,1.8622,0.0843,9.3488,-0.0431,0.0302,-0.1184,-1.550037059267499,0.0,2.0610005855560303,-1.351037621498108,-0.0,2.1831650733947754,4.17446152746167,0.0,0.300606369972229,-1.5898063818561,-0.0,-0.007067895028740168,0.7607485055923462,-0.0,-0.002228305907920003,0.8467748165130615,0.0,-0.034393440932035446
989.0,864.0,1.8503,0.0604,9.2566,-0.0447,0.0173,-0.1153,-1.550029107635357,0.0,2.049318790435791,-1.351013422012329,-0.0,2.1715610027313232,4.174457235927246,0.0,0.2913307249546051,-1.5897734800921839,-0.0,-0.016945544630289078,0.7606473565101624,-0.0,0.006974493153393269,0.8467383980751038,0.0,0.008814025670289993
989.0,864.0,1.8503,0.0604,9.2566,-0.0447,0.0173,-0.1153,-1.5500010170838614,0.0,2.0921545028686523,-1.3510257005691528,-0.0,2.1515161991119385,4.17445342122998,0.0,0.293094277381897,-1.589785401021139,-0.0,-0.006051881704479456,0.7606956958770752,-0.0,0.007958109490573406,0.84672611951828,0.0,0.016741955652832985
989.0,864.0,1.8503,0.0604,9.2566,-0.0447,0.0173,-0.1153,-1.550008976166584,0.0,2.0217204093933105,-1.3509970903396606,-0.0,2.1611781120300293,4.17442957937207,0.0,0.2986350357532501,-1.5897939840899866,-0.0,-0.013068465515971184,0.7607038617134094,-0.0,0.0023568468168377876,0.846770703792572,0.0,0.012715933844447136
989.0,864.0,1.8503,0.0604,9.2566,-0.0447,0.0173,-0.1153,-1.5499688380262633,0.0,2.0589582920074463,-1.3509933948516846,-0.0,2.1688356399536133,4.174409552211426,0.0,0.2829362452030182,-1.5897820631610315,-0.0,-0.004761319141834974,0.7606555223464966,-0.0,0.007745218463242054,0.8467627167701721,0.0,-0.00403865659609437
989.0,864.0,1.8503,0.0604,9.2566,-0.0447,0.0173,-0.1153,-1.54998502441261,0.0,1.9926223754882812,-1.3510016202926636,-0.0,2.1313600540161133,4.174489660854004,0.0,0.29943743348121643,-1.5897820631610315,-0.0,-0.0047157322987914085,0.7606154084205627,-0.0,0.002414468675851822,0.8467342853546143,0.0,0.022685224190354347
989.0,864.0,1.8503,0.0604,9.2566,-0.0447,0.0173,-0.1153,-1.5500010170838614,0.0,2.0508906841278076,-1.351029396057129,-0.0,2.139707565307617,4.174445314998291,0.0,0.28791600465774536,-1.5897734800921839,-0.0,-0.00843943003565073,0.7607038617134094,-0.0,-0.004954650066792965,0.8466984033584595,0.0,0.023220058530569077
989.0,864.0,1.8503,0.0604,9.2566,-0.0447,0.0173,-0.1153,-1.55002908342097,0.0,2.069200038909912,-1.350976824760437,-0.0,2.138662338256836,4.174489660854004,0.0,0.2933495044708252,-1.5897896925555628,-0.0,-0.009925326332449913,0.7607361674308777,-0.0,-0.0015873584197834134,0.846762478351593,0.0,0.04435437172651291
989.0,864.0,1.8503,0.0604,9.2566,-0.0447,0.0173,-0.1153,-1.549948615287878,0.0,2.0671944618225098,-1.3510175943374634,-0.0,2.1542868614196777,4.174441500301025,0.0,0.3040648102760315,-1.5897896925555628,-0.0,-0.012248164974153042,0.7606555223464966,-0.0,0.0044120680540800095,0.846746563911438,0.0,0.013304639607667923
989.0,864.0,1.8503,0.0604,9.2566,-0.0447,0.0173,-0.1153,-1.5499850076488038,0.0,2.0318918228149414,-1.3509933948516846,-0.0,2.132704257965088,4.174465818996094,0.0,0.28604692220687866,-1.5897896925555628,-0.0,-0.013236453756690025,0.7606637477874756,-0.0,-0.006455313414335251,0.8467383980751038,0.0,-0.009955182671546936
989.0,864.0,1.8503,0.0604,9.2566,-0.0447,0.0173,-0.1153,-1.550024978151061,0.0,2.0765140056610107,-1.3510053157806396,-0.0,2.16560697555542,4.17443768560376,0.0,0.3034439980983734,-1.5897939840899866,-0.0,-0.0022167519200593233,0.7606678605079651,-0.0,-0.011698026210069656,0.846714198589325,0.0,-0.0175043772906065
989.0,864.0,1.8503,0.0604,9.2566,-0.0447,0.0173,-0.1153,-1.5500092779150982,0.0,2.0631821155548096,-1.3510053157806396,-0.0,2.1383445262908936,4.174441500301025,0.0,0.30064743757247925,-1.5897734800921839,-0.0,-0.011888490058481693,0.7606960535049438,-0.0,-0.010076744481921196,0.8467545509338379,0.0,0.0016796309500932693
989.0,864.0,1.8503,0.0604,9.2566,-0.0447,0.0173,-0.1153,-1.5500372622958203,0.0,2.037571430206299,-1.3509413003921509,-0.0,2.130066394805908,4.17442957937207,0.0,0.29804903268814087,-1.5897896925555628,-0.0,-0.0016764686442911625,0.7606554627418518,-0.0,-0.0033160303719341755,0.8467383980751038,0.0,-0.004287391435354948
1012.0,924.0,1.8377,0.1149,9.2704,-0.0336,0.0237,-0.119,-1.5499969453415652,0.0,2.1024301052093506,-1.3510253429412842,-0.0,2.166348457336426,4.17446152746167,0.0,0.3084648847579956,-1.5897734800921839,-0.0,0.0029159728437662125,0.7607038617134094,-0.0,0.00144801358692348,0.8467788696289062,0.0,-0.007815315388143063
1012.0,924.0,1.8377,0.1149,9.2704,-0.0336,0.0237,-0.119,-1.549964740206935,0.0,2.0509979724884033,-1.351037859916687,-0.0,2.1592233180999756,4.174502058620117,0.0,0.2984052300453186,-1.589790169392721,-0.0,0.0016517022158950567,0.7606878876686096,-0.0,-0.017900370061397552,0.8467751145362854,0.0,0.0020914673805236816
1012.0,924.0,1.8377,0.1149,9.2704,-0.0336,0.0237,-0.119,-1.5500331197730084,0.0,2.070816993713379,-1.3510335683822632,-0.0,2.1535325050354004,4.174449129695557,0.0,0.2962993383407593,-1.5897615591632288,-0.0,-0.018618956208229065,0.7606436014175415,-0.0,-0.013894986361265182,0.846762478351593,0.0,-0.015669777989387512
1012.0,924.0,1.8377,0.1149,9.2704,-0.0336,0.0237,-0.119,-1.5500290685198088,0.0,2.083895683288574,-1.3510175943374634,-0.0,2.1494390964508057,4.174473448390625,0.0,0.2950458824634552,-1.5897939840899866,-0.0,-0.015812065452337265,0.7606554627418518,-0.0,-0.007714264560490847,0.8467305898666382,0.0,0.0017265286296606064
1012.0,924.0,1.8377,0.1149,9.2704,-0.0336,0.0237,-0.119,-1.549989166935422,0.0,2.0267703533172607,-1.351029634475708,-0.0,2.1296756267547607,4.1744653421589355,0.0,0.2817167341709137,-1.5897777716266077,-0.0,-0.005152066703885794,0.7607281804084778,-0.0,-0.016551930457353592,0.8467063307762146,0.0,0.014158987440168858
1012.0,924.0,1.8377,0.1149,9.2704,-0.0336,0.0237,-0.119,-1.5499850076488038,0.0,2.057934045791626,-1.351029634475708,-0.0,2.1317055225372314,4.1744653421589355,0.0,0.29626142978668213,-1.5897415320025843,-0.0,-0.009638365358114243,0.7606395483016968,-0.0,-0.007716895081102848,0.8467022180557251,0.0,0.08769471943378448
1012.0,924.0,1.8377,0.1149,9.2704,-0.0336,0.0237,-0.119,-1.5500213255039235,0.0,2.009753942489624,-1.3510255813598633,-0.0,2.1214375495910645,4.174481554622314,0.0,0.29019397497177124,-1.5897977987872522,-0.0,-0.021082445979118347,0.7606433033943176,-0.0,-0.0047648134641349316,0.8467265367507935,0.0,0.006791488733142614
1012.0,924.0,1.8377,0.1149,9.2704,-0.0336,0.0237,-0.119,-1.5499727439931412,0.0,2.0467710494995117,-1.3510175943374634,-0.0,2.112874984741211,4.174465818996094,0.0,0.29044556617736816,-1.5897820631610315,-0.0,-0.014819864183664322,0.7606878280639648,-0.0,-0.002927860477939248,0.8467909693717957,0.0,-0.031240995973348618
1012.0,924.0,1.8377,0.1149,9.2704,-0.0336,0.0237,-0.119,-1.5500048839351912,0.0,2.0078084468841553,-1.3509727716445923,-0.0,2.150156021118164,4.174425287837646,0.0,0.3003053069114685,-1.5897820631610315,-0.0,0.010135023854672909,0.7607240080833435,-0.0,-0.012807273305952549,0.8467748165130615,0.0,-0.016433006152510643
1012.0,924.0,1.8377,0.1149,9.2704,-0.0336,0.0237,-0.119,-1.549996904363372,0.0,2.026292324066162,-1.351029396057129,-0.0,2.138535976409912,4.174445314998291,0.0,0.2955317795276642,-1.5898101965533655,-0.0,-0.008591802790760994,0.7606679201126099,-0.0,-0.0022310037165880203,0.846714198589325,0.0,0.06012391299009323
1012.0,924.0,1.8377,0.1149,9.2704,-0.0336,0.0237,-0.119,-1.549984623943903,0.0,2.075197696685791,-1.3510336875915527,-0.0,2.1563265323638916,4.174473448390625,0.0,0.2964553236961365,-1.5898221174823206,-0.0,0.0015237152110785246,0.7606636881828308,-0.0,0.0006047729402780533,0.8467909097671509,0.0,-0.034270890057086945
1012.0,924.0,1.8377,0.1149,9.2704,-0.0336,0.0237,-0.119,-1.5500130739859124,0.0,2.0648465156555176,-1.351046085357666,-0.0,2.154735565185547,4.17446152746167,0.0,0.30348965525627136,-1.5897896925555628,-0.0,-0.0069068605080246925,0.7606961131095886,-0.0,0.0021414579823613167,0.8467425107955933,0.0,0.02587074413895607
1000.0,842.0,1.8503,0.0987,9.2399,-0.0344,0.0224,-0.1126,-1.549980930318572,0.0,2.0609288215637207,-1.3510055541992188,-0.0,2.1585848331451416,4.174465818996094,0.0,0.2761322259902954,-1.589745823537008,-0.0,-0.013179092667996883,0.7606194615364075,-0.0,-0.006663281004875898,0.8467586636543274,0.0,0.010423332452774048
1000.0,842.0,1.8503,0.0987,9.2399,-0.0344,0.0224,-0.1126,-1.5500048913857718,0.0,2.0662479400634766,-1.3510336875915527,-0.0,2.1477251052856445,4.17446152746167,0.0,0.2788159251213074,-1.5897777716266077,-0.0,-0.006928385701030493,0.7607038617134094,-0.0,0.0003223627572879195,0.846770703792572,0.0,0.0126974331215024
1000.0,842.0,1.8503,0.0987,9.2399,-0.0344,0.0224,-0.1126,-1.5499727123281737,0.0,2.071578025817871,-1.3509808778762817,-0.0,2.125030040740967,4.174473448390625,0.0,0.288097620010376,-1.5897577444659632,-0.0,-0.010559161193668842,0.760707676410675,-0.0,-0.014244770631194115,0.8467425107955933,0.0,0.047624871134757996
1000.0,842.0,1.8503,0.0987,9.2399,-0.0344,0.0224,-0.1126,-1.5499928102693339,0.0,2.0894532203674316,-1.3510093688964844,-0.0,2.132748603820801,4.17446152746167,0.0,0.2958275079727173,-1.5897615591632288,-0.0,-0.009639684110879898,0.760643720626831,-0.0,-0.010924061760306358,0.8467990756034851,0.0,-0.02076602727174759
1000.0,842.0,1.8503,0.0987,9.2399,-0.0344,0.0224,-0.1126,-1.5499729675105591,0.0,2.063001871109009,-1.3509889841079712,-0.0,2.148275136947632,4.174469633693359,0.0,0.2942747473716736,-1.5897896925555628,-0.0,-0.0027796265203505754,0.7606797814369202,-0.0,0.00019515515305101871,0.846746563911438,0.0,0.025534506887197495
1000.0,842.0,1.8503,0.0987,9.2399,-0.0344,0.0224,-0.1126,-1.5499768138727923,0.0,2.0497093200683594,-1.3509572744369507,-0.0,2.1388325691223145,4.174465818996094,0.0,0.29532840847969055,-1.5898144880877894,-0.0,-0.005065101198852062,0.7606677412986755,-0.0,0.00114346609916538,0.846746563911438,0.0,-0.03816951438784599
1000.0,842.0,1.8503,0.0987,9.2399,-0.0344,0.0224,-0.1126,-1.550017162492015,0.0,2.0484018325805664,-1.3509808778762817,-0.0,2.1638426780700684,4.174502058620117,0.0,0.2889479398727417,-1.5897696653949183,-0.0,-0.01613815315067768,0.7606636881828308,-0.0,-0.009741912595927715,0.8467545509338379,0.0,0.0033286053221672773
1000.0,842.0,1.8503,0.0987,9.2399,-0.0344,0.0224,-0.1126,-1.5500089687160035,0.0,2.0794460773468018,-1.3509974479675293,-0.0,2.123734951019287,4.174473448390625,0.0,0.3053213655948639,-1.5898101965533655,-0.0,-0.0025714077055454254,0.7606838345527649,-0.0,-0.012534214183688164,0.8467627167701721,0.0,-0.009794768877327442
1000.0,842.0,1.8503,0.0987,9.2399,-0.0344,0.0224,-0.1126,-1.5500249669751902,0.0,2.103362798690796,-1.3510212898254395,-0.0,2.1599299907684326,4.174477739925049,0.0,0.30309873819351196,-1.5897615591632288,-0.0,-0.00028716493397951126,0.7606837749481201,-0.0,0.0013792531099170446,0.846722424030304,0.0,-0.02864241972565651
1000.0,842.0,1.8503,0.0987,9.2399,-0.0344,0.0224,-0.1126,-1.5499767896584054,0.0,2.0765204429626465,-1.3510419130325317,-0.0,2.1549525260925293,4.174445314998291,0.0,0.29055026173591614,-1.589802090321676,-0.0,-0.011621706187725067,0.7607039213180542,-0.0,-0.007745878770947456,0.8467545509338379,0.0,0.005915829446166754
1000.0,842.0,1.8503,0.0987,9.2399,-0.0344,0.0224,-0.1126,-1.5500370480916281,0.0,2.048720598220825,-1.3510175943374634,-0.0,2.110095500946045,4.174449606532715,0.0,0.3005623519420624,-1.589818302785055,-0.0,-0.016826540231704712,0.7606597542762756,-0.0,-0.007026356644928455,0.8467747569084167,0.0,0.0336511954665184
997.0,857.0,1.8239,0.0616,9.2501,-0.0414,0.0218,-0.1158,-1.5499850076488038,0.0,2.0742428302764893,-1.3509933948516846,-0.0,2.1724610328674316,4.174417658443115,0.0,0.29085952043533325,-1.5898307005511683,-0.0,-0.006503268610686064,0.760680079460144,-0.0,-0.0003463958855718374,0.8467463254928589,0.0,-0.0027616373263299465
997.0,857.0,1.8239,0.0616,9.2501,-0.0414,0.0218,-0.1158,-1.5499850076488038,0.0,2.0282914638519287,-1.3509892225265503,-0.0,2.151033401489258,4.174433394069336,0.0,0.297055184841156,-1.5897820631610315,-0.0,-0.009887823835015297,0.7607038617134094,-0.0,0.000370777677744627,0.8467786908149719,0.0,0.0194805059581995
997.0,857.0,1.8239,0.0616,9.2501,-0.0414,0.0218,-0.1158,-1.5500571590713044,0.0,2.059776782989502,-1.3509684801101685,-0.0,2.125352382659912,4.17445342122998,0.0,0.2998245656490326,-1.5898144880877894,-0.0,-0.003404974937438965,0.760671854019165,-0.0,0.0007566398708149791,0.846770703792572,0.0,-0.009487622417509556
997.0,857.0,1.8239,0.0616,9.2501,-0.0414,0.0218,-0.1158,-1.5500010170838614,0.0,2.0845794677734375,-1.351037859916687,-0.0,2.1209216117858887,4.174433394069336,0.0,0.2959032952785492,-1.5897820631610315,-0.0,0.0029108780436217785,0.7607038617134094,-0.0,0.0029434808529913425,0.8467909097671509,0.0,-0.007240025792270899
997.0,857.0,1.8239,0.0616,9.2501,-0.0414,0.0218,-0.1158,-1.5499726992896576,0.0,2.033081531524658,-1.3509490489959717,-0.0,2.1392109394073486,4.174481554622314,0.0,0.3048625886440277,-1.5897734800921839,-0.0,-0.009437228552997112,0.7606555223464966,-0.0,-0.007793782278895378,0.8467627167701721,0.0,0.010886849835515022
997.0,857.0,1.8239,0.0616,9.2501,-0.0414,0.0218,-0.1158,-1.550004880209901,0.0,2.0894882678985596,-1.351013422012329,-0.0,2.1350581645965576,4.174493952388428,0.0,0.29690080881118774,-1.5897615591632288,-0.0,-0.013928849250078201,0.7606194615364075,-0.0,-0.005489947274327278,0.8467383980751038,0.0,0.004785272292792797
997.0,857.0,1.8239,0.0616,9.2501,-0.0414,0.0218,-0.1158,-1.5500331980041047,0.0,2.0399904251098633,-1.3509654998779297,-0.0,2.1405653953552246,4.174417658443115,0.0,0.2999265193939209,-1.5898101965533655,-0.0,-0.012332464568316936,0.7606797218322754,-0.0,0.0028988299891352654,0.8467383980751038,0.0,0.014880313538014889
997.0,857.0,1.8239,0.0616,9.2501,-0.0414,0.0218,-0.1158,-1.550004880209901,0.0,2.0246400833129883,-1.3509893417358398,-0.0,2.1766810417175293,4.174457235927246,0.0,0.2973049283027649,-1.5897977987872522,-0.0,-0.011991479434072971,0.7606920003890991,-0.0,-0.011827121488749981,0.8467425107955933,0.0,-0.0038783433847129345
997.0,857.0,1.8239,0.0616,9.2501,-0.0414,0.0218,-0.1158,-1.549992799093463,0.0,2.0430519580841064,-1.3509808778762817,-0.0,2.1589584350585938,4.174457235927246,0.0,0.2951505184173584,-1.5897734800921839,-0.0,-0.005570600274950266,0.7606841921806335,-0.0,-0.009693223983049393,0.8467909097671509,0.0,-0.026648055762052536
997.0,857.0,1.8239,0.0616,9.2501,-0.0414,0.0218,-0.1158,-1.5499809191427012,0.0,2.0880942344665527,-1.3510419130325317,-0.0,2.1493310928344727,4.1744372087666015,0.0,0.3032365143299103,-1.5897696653949183,-0.0,-0.020877523347735405,0.7606961131095886,-0.0,-0.003684834809973836,0.8467786312103271,0.0,-0.022884339094161987
997.0,857.0,1.8239,0.0616,9.2501,-0.0414,0.0218,-0.1158,-1.5500208896449585,0.0,2.079270362854004,-1.3510053157806396,-0.0,2.135709285736084,4.174457235927246,0.0,0.2945924997329712,-1.5897734800921839,-0.0,-0.003140438813716173,0.7606997489929199,-0.0,-0.010924837552011013,0.846762478351593,0.0,-0.028737617656588554
997.0,857.0,1.8239,0.0616,9.2501,-0.0414,0.0218,-0.1158,-1.5499767896584054,0.0,2.055983781814575,-1.3510416746139526,-0.0,2.1724376678466797,4.174453898067139,0.0,0.3029610812664032,-1.5897896925555628,-0.0,-0.0034743871074169874,0.7606074810028076,-0.0,0.005334670189768076,0.846770703792572,0.0,-0.0408533439040184
1010.0,867.0,1.8281,0.0843,9.2806,-0.0458,0.0159,-0.1142,-1.5499768138727923,0.0,2.054415464401245,-1.3510175943374634,-0.0,2.154611825942993,4.17446152746167,0.0,0.291380375623703,-1.5897777716266077,-0.0,-0.0077302721329033375,0.7606395483016968,-0.0,-0.013537555932998657,0.8467745780944824,0.0,0.002972504124045372
1010.0,867.0,1.8281,0.0843,9.2806,-0.0458,0.0159,-0.1142,-1.549992799093463,0.0,2.017977237701416,-1.3510053157806396,-0.0,2.140413999557495,4.174445314998291,0.0,0.30110281705856323,-1.5897658506976526,-0.0,-0.006400926969945431,0.7606678605079651,-0.0,0.0023160958662629128,0.846730649471283,0.0,-0.02119520492851734
1010.0,867.0,1.8281,0.0843,9.2806,-0.0458,0.0159,-0.1142,-1.5499809191427012,0.0,2.0347421169281006,-1.351029396057129,-0.0,2.126945972442627,4.17443768560376,0.0,0.2897011935710907,-1.5898264090167444,-0.0,-0.005477071739733219,0.7607038617134094,-0.0,-0.01369160320609808,0.846746563911438,0.0,-0.012242752127349377
1010.0,867.0,1.8281,0.0843,9.2806,-0.0458,0.0159,-0.1142,-1.5500010170838614,0.0,2.0242271423339844,-1.3510541915893555,-0.0,2.176663637161255,4.174465818996094,0.0,0.2981283962726593,-1.5898101965533655,-0.0,-0.004063053987920284,0.7606998085975647,-0.0,-0.016893895342946053,0.846722424030304,0.0,0.009694602340459824
1010.0,867.0,1.8281,0.0843,9.2806,-0.0458,0.0159,-0.1142,-1.5499524001828213,0.0,2.0804288387298584,-1.3510335683822632,-0.0,2.1654388904571533,4.174502058620117,0.0,0.2903490662574768,-1.589785401021139,-0.0,-0.011004578322172165,0.7606837749481201,-0.0,-0.007872337475419044,0.8467667698860168,0.0,0.015406889840960503
1010.0,867.0,1.8281,0.0843,9.2806,-0.0458,0.0159,-0.1142,-1.5499606181732197,0.0,2.0673153400421143,-1.3509970903396606,-0.0,2.142220973968506,4.174465818996094,0.0,0.2920157313346863,-1.5897777716266077,-0.0,-0.01620742306113243,0.760671854019165,-0.0,0.004912179429084063,0.8467142581939697,0.0,0.03427493944764137
1010.0,867.0,1.8281,0.0843,9.2806,-0.0458,0.0159,-0.1142,-1.550000750725605,0.0,2.0640668869018555,-1.351037859916687,-0.0,2.161731243133545,4.174449606532715,0.0,0.2875220477581024,-1.5897977987872522,-0.0,-0.00464797206223011,0.7606514692306519,-0.0,0.002309404779225588,0.8467909097671509,0.0,0.00020133377984166145
1010.0,867.0,1.8281,0.0843,9.2806,-0.0458,0.0159,-0.1142,-1.5499606181732197,0.0,2.0859830379486084,-1.3510212898254395,-0.0,2.1388421058654785,4.174449606532715,0.0,0.2969684302806854,-1.5897820631610315,-0.0,-0.0230865515768528,0.7606920003890991,-0.0,0.004468233324587345,0.8467347025871277,0.0,0.0027562982868403196
1010.0,867.0,1.8281,0.0843,9.2806,-0.0458,0.0159,-0.1142,-1.5500130982002993,0.0,2.058283567428589,-1.350968599319458,-0.0,2.1326828002929688,4.174453898067139,0.0,0.2847316861152649,-1.5897534529315394,-0.0,-0.0077687776647508144,0.760671854019165,-0.0,-0.011125747114419937,0.8467383980751038,0.0,0.01125621423125267
1010.0,867.0,1.8281,0.0843,9.2806,-0.0458,0.0159,-0.1142,-1.5499969285777588,0.0,1.9963922500610352,-1.3510574102401733,-0.0,2.1304163932800293,4.174453898067139,0.0,0.2931939959526062,-1.5897491613971155,-0.0,-0.006708548404276371,0.7606637477874756,-0.0,-0.0020167939364910126,0.8467305898666382,0.0,0.002545406110584736
1010.0,867.0,1.8281,0.0843,9.2806,-0.0458,0.0159,-0.1142,-1.5499969285777588,0.0,2.050295114517212,-1.3510093688964844,-0.0,2.1376678943634033,4.17446152746167,0.0,0.28845489025115967,-1.589785401021139,-0.0,-0.009743981994688511,0.7606837749481201,-0.0,0.003179154358804226,0.8466981053352356,0.0,0.020881999284029007
999.0,884.0,1.7827,0.0939,9.3224,-0.0292,0.0194,-0.1118,-1.550037059267499,0.0,2.0528035163879395,-1.350993037223816,-0.0,2.14756441116333,4.174513979549072,0.0,0.29014864563941956,-1.5897696653949183,-0.0,-0.008711302652955055,0.7607280611991882,-0.0,-0.007053283043205738,0.8467667698860168,0.0,0.04626200720667839
999.0,884.0,1.7827,0.0939,9.3224,-0.0292,0.0194,-0.1118,-1.550029107635357,0.0,2.027028799057007,-1.3510055541992188,-0.0,2.144474506378174,4.174477739925049,0.0,0.29557234048843384,-1.5897896925555628,-0.0,-0.013493461534380913,0.7606961131095886,-0.0,-0.0005471031181514263,0.846770703792572,0.0,0.03225256875157356
999.0,884.0,1.7827,0.0939,9.3224,-0.0292,0.0194,-0.1118,-1.5499850076488038,0.0,2.0839905738830566,-1.3510175943374634,-0.0,2.148667097091675,4.1744982439228515,0.0,0.30399489402770996,-1.5897977987872522,-0.0,-0.003035020548850298,0.7606157660484314,-0.0,-0.006709066219627857,0.8467425107955933,0.0,-0.00358568225055933
999.0,884.0,1.7827,0.0939,9.3224,-0.0292,0.0194,-0.1118,-1.5500493676266451,0.0,2.0759940147399902,-1.350976824760437,-0.0,2.1621322631835938,4.17446152746167,0.0,0.3130703866481781,-1.5897896925555628,-0.0,0.001064963056705892,0.7606313824653625,-0.0,0.005657411180436611,0.8467463850975037,0.0,-0.019353993237018585
999.0,884.0,1.7827,0.0939,9.3224,-0.0292,0.0194,-0.1118,-1.5500254475376387,0.0,2.086909532546997,-1.350985050201416,-0.0,2.1233386993408203,4.174482031459473,0.0,0.3019150495529175,-1.5897534529315394,-0.0,0.004580279346555471,0.7606997489929199,-0.0,-0.004145843908190727,0.8467103838920593,0.0,0.00551982969045639
999.0,884.0,1.7827,0.0939,9.3224,-0.0292,0.0194,-0.1118,-1.550024978151061,0.0,2.012749671936035,-1.3510253429412842,-0.0,2.185079336166382,4.17443768560376,0.0,0.2964620590209961,-1.5897734800921839,-0.0,-0.00038792891427874565,0.7607080340385437,-0.0,-0.004550846293568611,0.8467545509338379,0.0,0.03265717998147011
999.0,884.0,1.7827,0.0939,9.3224,-0.0292,0.0194,-0.1118,-1.5500089687160035,0.0,2.082366466522217,-1.3510212898254395,-0.0,2.127286672592163,4.174490137691162,0.0,0.29126957058906555,-1.5897815863238733,-0.0,-0.0003334281500428915,0.7606357932090759,-0.0,-0.009989182464778423,0.8467909097671509,0.0,-0.005835164338350296
999.0,884.0,1.7827,0.0939,9.3224,-0.0292,0.0194,-0.1118,-1.549992799093463,0.0,2.028801441192627,-1.3509888648986816,-0.0,2.167130947113037,4.174417658443115,0.0,0.29698625206947327,-1.589733902608053,-0.0,-0.002232265891507268,0.7606961131095886,-0.0,-0.003580702468752861,0.8468027710914612,0.0,0.028374772518873215
999.0,884.0,1.7827,0.0939,9.3224,-0.0292,0.0194,-0.1118,-1.5499688380262633,0.0,2.0767643451690674,-1.350993037223816,-0.0,2.1435928344726562,4.174485846156738,0.0,0.2783361077308655,-1.5897820631610315,-0.0,-0.00047055649338290095,0.7606636881828308,-0.0,-0.0013593523763120174,0.8467265367507935,0.0,0.008547491393983364
999.0,884.0,1.7827,0.0939,9.3224,-0.0292,0.0194,-0.1118,-1.5499685698053618,0.0,2.041856050491333,-1.3509644269943237,-0.0,2.132430076599121,4.174469633693359,0.0,0.290083110332489,-1.5897653738604944,-0.0,-0.018987897783517838,0.7606920599937439,-0.0,-0.006211981177330017,0.846794605255127,0.0,0.056291256099939346
999.0,884.0,1.7827,0.0939,9.3224,-0.0292,0.0194,-0.1118,-1.5499850076488038,0.0,2.0540761947631836,-1.3510053157806396,-0.0,2.116028308868408,4.174469633693359,0.0,0.29324042797088623,-1.5897658506976526,-0.0,-0.02305932715535164,0.7606596350669861,-0.0,-0.0045123472809791565,0.8467226028442383,0.0,0.0058152941055595875
999.0,884.0,1.7827,0.0939,9.3224,-0.0292,0.0194,-0.1118,-1.5499969285777588,0.0,2.0328428745269775,-1.3509933948516846,-0.0,2.1846747398376465,4.174469633693359,0.0,0.2883360683917999,-1.5897777716266077,-0.0,-0.008096741512417793,0.7605871558189392,-0.0,-0.005440550856292248,0.8467987179756165,0.0,-0.011721267364919186
1025.0,897.0,1.8395,0.128,9.3129,-0.0316,0.024,-0.1211,-1.5499729675105591,0.0,2.0918567180633545,-1.3509891033172607,-0.0,2.1504788398742676,4.174477739925049,0.0,0.3011132776737213,-1.5898144880877894,-0.0,-0.006817932240664959,0.7606678009033203,-0.0,-0.005621748976409435,0.8467747569084167,0.0,-0.03242892026901245
1025.0,897.0,1.8395,0.128,9.3129,-0.0316,0.024,-0.1211,-1.5500171867064019,0.0,2.020512819290161,-1.3509727716445923,-0.0,2.1654469966888428,4.174465818996094,0.0,0.29512542486190796,-1.5897777716266077,-0.0,0.005670859012752771,0.7606514096260071,-0.0,0.013870863243937492,0.8467383980751038,0.0,-0.004241379909217358
1025.0,897.0,1.8395,0.128,9.3129,-0.0316,0.024,-0.1211,-1.5499809191427012,0.0,2.083068609237671,-1.350976824760437,-0.0,2.153968334197998,4.1744372087666015,0.0,0.2828424274921417,-1.5897777716266077,-0.0,-0.006714582443237305,0.7606198191642761,-0.0,0.0020017907954752445,0.8467265367507935,0.0,-0.04219053313136101
1025.0,897.0,1.8395,0.128,9.3129,-0.0316,0.024,-0.1211,-1.5500089687160035,0.0,2.0593414306640625,-1.3510175943374634,-0.0,2.170773983001709,4.17446152746167,0.0,0.2943066954612732,-1.5897820631610315,-0.0,-0.009394655004143715,0.760671854019165,-0.0,-0.009214736521244049,0.846734344959259,0.0,0.006852560676634312
1025.0,897.0,1.8395,0.128,9.3129,-0.0316,0.024,-0.1211,-1.5500130870244284,0.0,2.03045916557312,-1.3510053157806396,-0.0,2.1179444789886475,4.174485846156738,0.0,0.29516786336898804,-1.5897615591632288,-0.0,0.0021911263465881348,0.7606514692306519,-0.0,-0.013208185322582722,0.8467545509338379,0.0,-0.002456684596836567
1025.0,897.0,1.8395,0.128,9.3129,-0.0316,0.024,-0.1211,-1.5500171867064019,0.0,2.06889271736145,-1.3510336875915527,-0.0,2.141603946685791,4.174413366908691,0.0,0.29100069403648376,-1.5897615591632288,-0.0,-0.017117703333497047,0.7606034874916077,-0.0,0.00473999185487628,0.846746563911438,0.0,0.027408041059970856
1025.0,897.0,1.8395,0.128,9.3129,-0.0316,0.024,-0.1211,-1.5499845550260325,0.0,2.1010727882385254,-1.3509931564331055,-0.0,2.1565117835998535,4.174477739925049,0.0,0.3032374978065491,-1.5897734800921839,-0.0,-0.01724681258201599,0.7606678605079651,-0.0,-0.006727407220751047,0.8467504382133484,0.0,-0.010087577626109123
1025.0,897.0,1.8395,0.128,9.3129,-0.0316,0.024,-0.1211,-1.5500130982002993,0.0,2.0216174125671387,-1.3510419130325317,-0.0,2.111685276031494,4.174453898067139,0.0,0.2943733334541321,-1.5897777716266077,-0.0,-0.009497597813606262,0.7607079744338989,-0.0,0.0011948046740144491,0.8467383980751038,0.0,-0.017786134034395218
1025.0,897.0,1.8395,0.128,9.3129,-0.0316,0.024,-0.1211,-1.5499969285777588,0.0,2.0210509300231934,-1.351029396057129,-0.0,2.169538736343384,4.174473448390625,0.0,0.30067509412765503,-1.589802090321676,-0.0,-0.005606124177575111,0.7606878280639648,-0.0,0.0049074431881308556,0.8467183709144592,0.0,-0.07715161144733429
1025.0,897.0,1.8395,0.128,9.3129,-0.0316,0.024,-0.1211,-1.550024978151061,0.0,2.054405927658081,-1.3510093688964844,-0.0,2.1096370220184326,4.17446152746167,0.0,0.284199059009552,-1.5898101965533655,-0.0,-0.008131594397127628,0.7606678009033203,-0.0,0.004716669674962759,0.8467183709144592,0.0,0.023179294541478157
1025.0,897.0,1.8395,0.128,9.3129,-0.0316,0.024,-0.1211,-1.5500089519521971,0.0,2.0332982540130615,-1.3510212898254395,-0.0,2.1721582412719727,4.174457235927246,0.0,0.2989521026611328,-1.5897820631610315,-0.0,-0.01530484203249216,0.7606997489929199,-0.0,0.004946739878505468,0.8467342853546143,0.0,0.001886292826384306
1025.0,897.0,1.8395,0.128,9.3129,-0.0316,0.024,-0.1211,-1.5499927823296566,0.0,2.047910213470459,-1.3509893417358398,-0.0,2.1867361068725586,4.17446152746167,0.0,0.30440136790275574,-1.5897896925555628,-0.0,-0.002283252775669098,0.7606920003890991,-0.0,0.003139277920126915,0.8467504382133484,0.0,0.046362634748220444
1003.0,884.0,1.7982,0.0897,9.3583,-0.0394,0.0243,-0.1144,-1.5500089519521971,0.0,2.068816900253296,-1.3510212898254395,-0.0,2.146495819091797,4.174433394069336,0.0,0.289644718170166,-1.5897777716266077,-0.0,-0.0083747748285532,0.7606276869773865,-0.0,-0.008364107459783554,0.8467747569084167,0.0,-0.00437083188444376
1003.0,884.0,1.7982,0.0897,9.3583,-0.0394,0.0243,-0.1144,-1.5500171792558213,0.0,2.056732654571533,-1.3509893417358398,-0.0,2.15462064743042,4.174457235927246,0.0,0.29833781719207764,-1.5897896925555628,-0.0,-0.02356897108256817,0.7607038617134094,-0.0,-0.00418676994740963,0.8467748165130615,0.0,-0.014776155352592468
1003.0,884.0,1.7982,0.0897,9.3583,-0.0394,0.0243,-0.1144,-1.5500130982002993,0.0,2.0722897052764893,-1.3510533571243286,-0.0,2.1146883964538574,4.174481554622314,0.0,0.29501959681510925,-1.5897820631610315,-0.0,0.004607142880558968,0.7606194019317627,-0.0,-0.017406750470399857,0.8467463254928589,0.0,0.022388549521565437
1003.0,884.0,1.7982,0.0897,9.3583,-0.0394,0.0243,-0.1144,-1.5499606274864455,0.0,2.066883087158203,-1.3510419130325317,-0.0,2.1395063400268555,4.174449606532715,0.0,0.28925129771232605,-1.5897777716266077,-0.0,-0.0035656774416565895,0.7607403993606567,-0.0,-0.008987868204712868,0.8467063307762146,0.0,0.019276220351457596
1003.0,884.0,1.7982,0.0897,9.3583,-0.0394,0.0243,-0.1144,-1.5499809228679915,0.0,2.082655668258667,-1.3509654998779297,-0.0,2.12689208984375,4.174449606532715,0.0,0.29014986753463745,-1.5897658506976526,-0.0,-0.02074826881289482,0.7606837749481201,-0.0,-0.0025062966160476208,0.8467827439308167,0.0,0.06030198186635971
1003.0,884.0,1.7982,0.0897,9.3583,-0.0394,0.0243,-0.1144,-1.5500372548452397,0.0,2.0822365283966064,-1.3510055541992188,-0.0,2.168248176574707,4.174473925227783,0.0,0.29788699746131897,-1.5897977987872522,-0.0,0.0014600037829950452,0.7607080936431885,-0.0,0.0003564581274986267,0.8467265367507935,0.0,0.00016896240413188934
1003.0,884.0,1.7982,0.0897,9.3583,-0.0394,0.0243,-0.1144,-1.5500010636499901,0.0,2.0753259658813477,-1.3510016202926636,-0.0,2.1730899810791016,4.174457235927246,0.0,0.28674620389938354,-1.5897939840899866,-0.0,-0.014944320544600487,0.7606395483016968,-0.0,-0.0016427540685981512,0.8467425107955933,0.0,-0.017589911818504333
1003.0,884.0,1.7982,0.0897,9.3583,-0.0394,0.0243,-0.1144,-1.5500009965947648,0.0,2.053725481033325,-1.351037621498108,-0.0,2.1254429817199707,4.174421473140381,0.0,0.30383554100990295,-1.5897820631610315,-0.0,-0.008544913493096828,0.7606842517852783,-0.0,-0.010095251724123955,0.8467545509338379,0.0,0.02209007926285267
1003.0,884.0,1.7982,0.0897,9.3583,-0.0394,0.0243,-0.1144,-1.5499686182341357,0.0,2.0580832958221436,-1.3510053157806396,-0.0,2.1312332153320312,4.17446152746167,0.0,0.28249019384384155,-1.5898063818561,-0.0,-0.015365861356258392,0.7606514096260071,-0.0,-0.003124013775959611,0.84672611951828,0.0,0.00859662052243948
1003.0,884.0,1.7982,0.0897,9.3583,-0.0394,0.0243,-0.1144,-1.5500171867064019,0.0,2.076249361038208,-1.351013422012329,-0.0,2.176133155822754,4.174449606532715,0.0,0.28257620334625244,-1.5897858778582972,-0.0,-0.009353959932923317,0.760671854019165,-0.0,0.004555309657007456,0.846722424030304,0.0,-0.03266051784157753
1003.0,884.0,1.7982,0.0897,9.3583,-0.0394,0.0243,-0.1144,-1.5499768045595665,0.0,2.0580782890319824,-1.3510212898254395,-0.0,2.1651642322540283,4.17445342122998,0.0,0.3058871328830719,-1.589785401021139,-0.0,0.0042472658678889275,0.7606719136238098,-0.0,-0.010278763249516487,0.8467586636543274,0.0,0.0014624828472733498
993.0,854.0,1.812,0.0975,9.2399,-0.0388,0.0234,-0.117,-1.5500130870244284,0.0,2.0883312225341797,-1.351037859916687,-0.0,2.1479079723358154,4.174465818996094,0.0,0.2995896339416504,-1.5898264090167444,-0.0,-0.002028433373197913,0.7607001662254333,-0.0,-0.0012363051064312458,0.846722424030304,0.0,-0.008718648925423622
993.0,854.0,1.812,0.0975,9.2399,-0.0388,0.0234,-0.117,-1.5500130777112027,0.0,2.0288498401641846,-1.3510574102401733,-0.0,2.15521240234375,4.174469633693359,0.0,0.29710209369659424,-1.5897939840899866,-0.0,-0.014705630950629711,0.760631799697876,-0.0,0.003860673401504755,0.8467748165130615,0.0,-0.036454081535339355
993.0,854.0,1.812,0.0975,9.2399,-0.0388,0.0234,-0.117,-1.5500007898411532,0.0,2.0613632202148438,-1.3509893417358398,-0.0,2.1273152828216553,4.174465818996094,0.0,0.29705387353897095,-1.5897415320025843,-0.0,0.011883730068802834,0.7607076168060303,-0.0,-0.004500687122344971,0.8467504382133484,0.0,0.004590183962136507
993.0,854.0,1.812,0.0975,9.2399,-0.0388,0.0234,-0.117,-1.5499928028187533,0.0,2.081997871398926,-1.351037621498108,-0.0,2.1758973598480225,4.1744372087666015,0.0,0.2897106409072876,-1.5897534529315394,-0.0,-0.01066768541932106,0.7606636881828308,-0.0,-0.006639302708208561,0.8467583656311035,0.0,0.03255758062005043
993.0,854.0,1.812,0.0975,9.2399,-0.0388,0.0234,-0.117,-1.5499887348017474,0.0,2.069850444793701,-1.3510212898254395,-0.0,2.178584337234497,4.174481554622314,0.0,0.29731738567352295,-1.5897939840899866,-0.0,-0.008669538423418999,0.7606837749481201,-0.0,-0.007467254064977169,0.846738338470459,0.0,0.03952529653906822
993.0,854.0,1.812,0.0975,9.2399,-0.0388,0.0234,-0.117,-1.5500048913857718,0.0,2.023444652557373,-1.351029396057129,-0.0,2.1384806632995605,4.174449606532715,0.0,0.28928011655807495,-1.5897615591632288,-0.0,-0.009966077283024788,0.760643720626831,-0.0,-0.00662764348089695,0.8467223644256592,0.0,-0.04916222393512726
993.0,854.0,1.812,0.0975,9.2399,-0.0388,0.0234,-0.117,-1.5500089687160035,0.0,2.0298731327056885,-1.3510212898254395,-0.0,2.172211170196533,4.174445314998291,0.0,0.294613242149353,-1.5897977987872522,-0.0,-0.0026502213440835476,0.7606555223464966,-0.0,0.013455381616950035,0.8467668294906616,0.0,0.011335263028740883
993.0,854.0,1.812,0.0975,9.2399,-0.0388,0.0234,-0.117,-1.5500208896449585,0.0,2.0566976070404053,-1.3510130643844604,-0.0,2.145963668823242,4.174441500301025,0.0,0.29671114683151245,-1.589745823537008,-0.0,-0.003948446828871965,0.7606678605079651,-0.0,0.0015235948376357555,0.8467504382133484,0.0,0.023640120401978493
993.0,854.0,1.812,0.0975,9.2399,-0.0388,0.0234,-0.117,-1.5500130870244284,0.0,2.078169345855713,-1.3510451316833496,-0.0,2.129974365234375,4.174445314998291,0.0,0.30000418424606323,-1.5897939840899866,-0.0,-0.019309742376208305,0.7606194615364075,-0.0,-0.010637319646775723,0.8467868566513062,0.0,0.0021673226729035378
993.0,854.0,1.812,0.0975,9.2399,-0.0388,0.0234,-0.117,-1.5500290685198088,0.0,2.0501859188079834,-1.3510130643844604,-0.0,2.1630895137786865,4.174477739925049,0.0,0.3002726435661316,-1.5897696653949183,-0.0,-0.014997372403740883,0.7607080340385437,-0.0,0.0006903959438204765,0.846722424030304,0.0,0.0011465325951576233
993.0,854.0,1.812,0.0975,9.2399,-0.0388,0.0234,-0.117,-1.5499768138727923,0.0,2.043652057647705,-1.3510253429412842,-0.0,2.1360793113708496,4.174473448390625,0.0,0.28175073862075806,-1.5897896925555628,-0.0,-0.009780654683709145,0.7606596946716309,-0.0,0.0008032708428800106,0.8467504978179932,0.0,-0.003260125871747732
993.0,854.0,1.812,0.0975,9.2399,-0.0388,0.0234,-0.117,-1.550037059267499,0.0,2.0664453506469727,-1.3510212898254395,-0.0,2.1963107585906982,4.174445314998291,0.0,0.2965070903301239,-1.5898063818561,-0.0,-0.014279472641646862,0.7606555223464966,-0.0,-0.0078072315081954,0.8467586636543274,0.0,0.006423917133361101
1023.0,914.0,1.8108,-0.07,9.201,-0.0467,0.0232,-0.1106,-1.5499966976097603,0.0,2.0616369247436523,-1.3510977029800415,-0.0,2.1466064453125,4.174445314998291,0.0,0.3024190068244934,-1.5897896925555628,-0.0,-0.0059236446395516396,0.760671854019165,-0.0,-0.010349306277930737,0.8467748165130615,0.0,0.006598770618438721
1023.0,914.0,1.8108,-0.07,9.201,-0.0467,0.0232,-0.1106,-1.5499768138727923,0.0,2.0331130027770996,-1.3510011434555054,-0.0,2.1289806365966797,4.174517794246338,0.0,0.2926205098628998,-1.5897577444659632,-0.0,0.00393883790820837,0.7606760263442993,-0.0,-0.0044045583344995975,0.8467868566513062,0.0,0.01613451912999153
1023.0,914.0,1.8108,-0.07,9.201,-0.0467,0.0232,-0.1106,-1.5500411235592146,0.0,2.0940051078796387,-1.351065754890442,-0.0,2.1204991340637207,4.174481554622314,0.0,0.2911662459373474,-1.5897658506976526,-0.0,-0.00262723071500659,0.7607117295265198,-0.0,0.009504508227109909,0.846762478351593,0.0,0.036849938333034515
1023.0,914.0,1.8108,-0.07,9.201,-0.0467,0.0232,-0.1106,-1.5500249576619645,0.0,2.05025315284729,-1.3510894775390625,-0.0,2.146170139312744,4.174465818996094,0.0,0.29221558570861816,-1.5897496382342737,-0.0,0.0004337794380262494,0.7606841921806335,-0.0,-0.011686408892273903,0.8467786908149719,0.0,-0.05731058120727539
1023.0,914.0,1.8108,-0.07,9.201,-0.0467,0.0232,-0.1106,-1.5500493676266451,0.0,2.075101613998413,-1.3510253429412842,-0.0,2.1676201820373535,4.174473448390625,0.0,0.2935415804386139,-1.5897734800921839,-0.0,-0.021817026659846306,0.7606797218322754,-0.0,-0.004826896823942661,0.8467301726341248,0.0,-0.03397940844297409
1023.0,914.0,1.8108,-0.07,9.201,-0.0467,0.0232,-0.1106,-1.5499809191427012,0.0,2.029402256011963,-1.3510533571243286,-0.0,2.1656460762023926,4.1744372087666015,0.0,0.29070794582366943,-1.5897734800921839,-0.0,-0.011139143258333206,0.7606960535049438,-0.0,-0.00242196349427104,0.846706211566925,0.0,0.01538823638111353
1023.0,914.0,1.8108,-0.07,9.201,-0.0467,0.0232,-0.1106,-1.55002908342097,0.0,2.082484722137451,-1.3509974479675293,-0.0,2.1093602180480957,4.174457235927246,0.0,0.2999419569969177,-1.5897615591632288,-5.39671631827332e-08,-0.017826298251748085,0.7607038617134094,-0.0,-0.002530013443902135,0.8467869162559509,0.0,0.0202773567289114
1023.0,914.0,1.8108,-0.07,9.201,-0.0467,0.0232,-0.1106,-1.5500089687160035,0.0,2.0721144676208496,-1.3510212898254395,-0.0,2.1368303298950195,4.174469156856201,0.0,0.2998238205909729,-1.5897610823260706,-1.782197389665896e-09,-0.008543429896235466,0.7606637477874756,-0.0,0.003546569962054491,0.8467425107955933,0.0,-0.03231297433376312
1023.0,914.0,1.8108,-0.07,9.201,-0.0467,0.0232,-0.1106,-1.5500452791205426,0.0,2.0295443534851074,-1.3509893417358398,-0.0,2.1531448364257812,4.174433394069336,0.0,0.2886890470981598,-1.5897734800921839,-3.239056023179518e-14,-0.006822858937084675,0.7606636881828308,-0.0,-0.013393133878707886,0.8467909693717957,0.0,0.026401851326227188
1023.0,914.0,1.8108,-0.07,9.201,-0.0467,0.0232,-0.1106,-1.5499809191427012,0.0,2.030360698699951,-1.3510212898254395,-0.0,2.1747941970825195,4.17442957937207,0.0,0.28431951999664307,-1.5897939840899866,-5.886825216677571e-19,-0.010007412172853947,0.7606235146522522,-0.0,-0.008176598697900772,0.8467020392417908,0.0,-0.03530207276344299
1023.0,914.0,1.8108,-0.07,9.201,-0.0467,0.0232,-0.1106,-1.5499850076488038,0.0,2.0324883460998535,-1.3510053157806396,-0.0,2.1383538246154785,4.174477739925049,0.0,0.28777438402175903,-1.5897896925555628,-1.0699013590620452e-23,-0.011458620429039001,0.7606841921806335,-0.0,-0.010551543906331062,0.8467992544174194,0.0,0.012408656068146229
1023.0,914.0,1.8108,-0.07,9.201,-0.0467,0.0232,-0.1106,-1.5500130982002993,0.0,2.0499026775360107,-1.3510011434555054,-0.0,2.174510955810547,4.174433394069336,0.0,0.2861323654651642,-1.589745823537008,-1.9444928997855907e-28,0.0018141199834644794,0.7606915831565857,-0.0,-0.0051032016053795815,0.8467301726341248,0.0,0.006730837747454643
997.0,891.0,1.8335,0.1938,9.3523,-0.027,0.0165,-0.1196,-1.5500089687160035,0.0,2.0509767532348633,-1.3510698080062866,-0.0,2.1727869510650635,4.174497767085693,0.0,0.3066328167915344,-1.5897615591632288,-3.5340198079655565e-33,-0.013188144192099571,0.7607079744338989,-0.0,-0.013362403959035873,0.8467347025871277,0.0,0.005943086463958025
997.0,891.0,1.8335,0.1938,9.3523,-0.027,0.0165,-0.1196,-1.5499767896584054,0.0,2.0811898708343506,-1.3510171175003052,-0.0,2.1307976245880127,4.174457235927246,0.0,0.2986418902873993,-1.5897777716266077,-6.422904760574443e-38,-0.0008171868976205587,0.7606313824653625,-0.0,-3.3786927815526724e-05,0.8467587232589722,0.0,-0.00015702471137046814
997.0,891.0,1.8335,0.1938,9.3523,-0.027,0.0165,-0.1196,-1.550037059267499,0.0,2.061190605163574,-1.3510130643844604,-0.0,2.152439594268799,4.17446152746167,0.0,0.2972269654273987,-1.5898101965533655,-1.1672816207825726e-42,0.004591801203787327,0.760635495185852,-0.0,-0.0011435679625719786,0.8468029499053955,0.0,0.009048995561897755
997.0,891.0,1.8335,0.1938,9.3523,-0.027,0.0165,-0.1196,-1.5499809191427012,0.0,2.0436272621154785,-1.351029396057129,-0.0,2.1467366218566895,4.174453898067139,0.0,0.2950538992881775,-1.5897615591632288,-0.0,-0.0033712496515363455,0.7606194615364075,-0.0,0.008163235150277615,0.8467868566513062,0.0,-0.015183993615210056
997.0,891.0,1.8335,0.1938,9.3523,-0.027,0.0165,-0.1196,-1.5500010170838614,0.0,2.034689426422119,-1.3510093688964844,-0.0,2.1114120483398438,4.174473448390625,0.0,0.3050437867641449,-1.5897820631610315,-0.0,-0.024606581777334213,0.7606473565101624,-0.0,-0.00431134132668376,0.8467545509338379,0.0,-0.04363786801695824
997.0,891.0,1.8335,0.1938,9.3523,-0.027,0.0165,-0.1196,-1.549992799093463,0.0,2.039384365081787,-1.3510093688964844,-0.0,2.1420764923095703,4.174449606532715,0.0,0.29205626249313354,-1.5897777716266077,-0.0,0.004732022061944008,0.7606997489929199,-0.0,-0.0002041473489953205,0.8467586636543274,0.0,-0.014164980500936508
997.0,891.0,1.8335,0.1938,9.3523,-0.027,0.0165,-0.1196,-1.550000750725605,0.0,2.0841479301452637,-1.351061463356018,-0.0,2.152827262878418,4.174465818996094,0.0,0.3007892370223999,-1.5897896925555628,-0.0,-0.008538344874978065,0.7606837749481201,-0.0,0.0032819940242916346,0.8467265367507935,0.0,0.05134843289852142
997.0,891.0,1.8335,0.1938,9.3523,-0.027,0.0165,-0.1196,-1.5500130982002993,0.0,2.1134228706359863,-1.351009726524353,-0.0,2.1768174171447754,4.174409552211426,0.0,0.2975597679615021,-1.5898101965533655,-0.0,0.0014549947809427977,0.760578989982605,-0.0,0.0012152561685070395,0.8467383980751038,0.0,0.030242841690778732
997.0,891.0,1.8335,0.1938,9.3523,-0.027,0.0165,-0.1196,-1.5499809191427012,0.0,2.105574607849121,-1.3510459661483765,-0.0,2.1316115856170654,4.174425287837646,0.0,0.2966247797012329,-1.5897496382342737,-0.0,-0.0006507618818432093,0.7607001066207886,-0.0,0.0022317608818411827,0.8467868566513062,0.0,0.004702805541455746
997.0,891.0,1.8335,0.1938,9.3523,-0.027,0.0165,-0.1196,-1.5500331980041047,0.0,2.041998863220215,-1.350985050201416,-0.0,2.161996364593506,4.174469156856201,0.0,0.3030334711074829,-1.5897777716266077,-0.0,-0.005001264624297619,0.7606514692306519,-0.0,-0.0005050301551818848,0.8467504382133484,0.0,0.030118882656097412
997.0,891.0,1.8335,0.1938,9.3523,-0.027,0.0165,-0.1196,-1.550004880209901,0.0,2.031893253326416,-1.3510900735855103,-0.0,2.158917188644409,4.174462004298828,0.0,0.2985800504684448,-1.589818302785055,-0.0,-0.008890294469892979,0.7606920003890991,-0.0,-0.004016415681689978,0.8467305898666382,0.0,-0.0003551600966602564
992.0,845.0,1.8012,0.1507,9.3141,-0.0292,0.0148,-0.1122,-1.5500373274884005,0.0,2.070070266723633,-1.3509933948516846,-0.0,2.154794692993164,4.174441500301025,0.0,0.2930249571800232,-1.5897777716266077,-0.0,-0.0020172682125121355,0.7606677412986755,-0.0,0.0025427215732634068,0.8467383980751038,0.0,0.03616815432906151
992.0,845.0,1.8012,0.1507,9.3141,-0.0292,0.0148,-0.1122,-1.5499809191427012,0.0,2.040088176727295,-1.3509933948516846,-0.0,2.1590967178344727,4.174461050624512,0.0,0.28974732756614685,-1.5897777716266077,-0.0,-0.019244905561208725,0.7606395483016968,-0.0,0.0009745324496179819,0.8467627167701721,0.0,-0.0025871824473142624
992.0,845.0,1.8012,0.1507,9.3141,-0.0292,0.0148,-0.1122,-1.5500171867064019,0.0,2.0822577476501465,-1.3509491682052612,-0.0,2.1207869052886963,4.174445314998291,0.0,0.2897418439388275,-1.5897939840899866,-0.0,-0.02115572616457939,0.7606154680252075,-0.0,-0.0033000586554408073,0.8467627167701721,0.0,-0.013784781098365784
992.0,845.0,1.8012,0.1507,9.3141,-0.0292,0.0148,-0.1122,-1.5499685623547812,0.0,2.0267410278320312,-1.3510053157806396,-0.0,2.1178181171417236,4.174453898067139,0.0,0.29898306727409363,-1.5897615591632288,-0.0,-0.008752068504691124,0.7607039213180542,-0.0,0.003409959841519594,0.8467383980751038,0.0,-0.00919799879193306
992.0,845.0,1.8012,0.1507,9.3141,-0.0292,0.0148,-0.1122,-1.5500007339617987,0.0,2.044022798538208,-1.3510093688964844,-0.0,2.139831781387329,4.174469633693359,0.0,0.2922150492668152,-1.5897939840899866,-0.0,-0.010636091232299805,0.7606555223464966,-0.0,0.010075470432639122,0.8467586636543274,0.0,-0.025763925164937973
992.0,845.0,1.8012,0.1507,9.3141,-0.0292,0.0148,-0.1122,-1.5499887105873604,0.0,2.052060127258301,-1.3509811162948608,-0.0,2.164973735809326,4.174441500301025,0.0,0.2982137203216553,-1.5898101965533655,-0.0,-0.015621775761246681,0.7606920003890991,-0.0,-0.0019774509128183126,0.8467909693717957,0.0,-0.02153238095343113
992.0,845.0,1.8012,0.1507,9.3141,-0.0292,0.0148,-0.1122,-1.5500331980041047,0.0,2.0470380783081055,-1.350976824760437,-0.0,2.16131591796875,4.174473448390625,0.0,0.28751373291015625,-1.5898144880877894,-0.0,-0.01594359055161476,0.7606837749481201,-0.0,-0.016787899658083916,0.8467627167701721,0.0,0.03688763454556465
992.0,845.0,1.8012,0.1507,9.3141,-0.0292,0.0148,-0.1122,-1.5500092779150982,0.0,2.0797369480133057,-1.3510212898254395,9.585132829670329e-07,2.120029926300049,4.174481554622314,0.0,0.28821635246276855,-1.5897777716266077,-0.0,-0.005230067763477564,0.7606313824653625,-0.0,-0.011384904384613037,0.8467909693717957,0.0,-0.012335225939750671
992.0,845.0,1.8012,0.1507,9.3141,-0.0292,0.0148,-0.1122,-1.549992799093463,0.0,2.03403377532959,-1.3509726524353027,3.105460631485854e-14,2.1538453102111816,4.174477739925049,0.0,0.2851283550262451,-1.5897734800921839,-0.0,-0.005759360734373331,0.7606596946716309,-0.0,-0.007764861918985844,0.8467950820922852,0.0,0.0026794131845235825
992.0,845.0,1.8012,0.1507,9.3141,-0.0292,0.0148,-0.1122,-1.5499445137432595,0.0,2.029994249343872,-1.3510419130325317,1.9267620245955186e-06,2.1467888355255127,4.174445314998291,0.0,0.29899951815605164,-1.5898307005511683,-0.0,-0.01137181930243969,0.7606997489929199,-0.0,-0.013575625605881214,0.8468070030212402,0.0,0.015293549746274948
992.0,845.0,1.8012,0.1507,9.3141,-0.0292,0.0148,-0.1122,-1.5499891464463253,0.0,2.0984768867492676,-1.3509891033172607,0.0005894054193049669,2.1472861766815186,4.1744372087666015,0.0,0.3040468990802765,-1.5897696653949183,-0.0,-0.00718141021206975,0.7606998085975647,-0.0,-0.019958948716521263,0.8468149304389954,0.0,0.058811165392398834
992.0,845.0,1.8012,0.1507,9.3141,-0.0292,0.0148,-0.1122,-1.5500253823450585,0.0,2.074932098388672,-1.3508930206298828,0.0004491085419431329,2.139122724533081,4.17442957937207,0.0,0.3063855469226837,-1.5898221174823206,-0.0,-0.006474451627582312,0.760711669921875,-0.0,-0.006750165484845638,0.8468190431594849,0.00046737492084503174,0.028943486511707306
993.0,858.0,1.9113,-0.2189,9.3709,-0.0599,0.0223,-0.1066,-1.5499969211271782,0.0,2.0660040378570557,-1.3509808778762817,0.0003712928155437112,2.099658966064453,4.174473925227783,0.0,0.2937799096107483,-1.5897734800921839,-0.0,-0.01565880887210369,0.760671854019165,-0.0,-0.005816949997097254,0.8467501401901245,0.0008635580888949335,0.009688377380371094
993.0,858.0,1.9113,-0.2189,9.3709,-0.0599,0.0223,-0.1066,-1.5500171867064019,0.0,2.0672523975372314,-1.3509615659713745,0.00033628480741754174,2.1796700954437256,4.174509688014648,0.0,0.2999252676963806,-1.5897815863238733,-0.0,-0.003749013412743807,0.7606555223464966,-0.0,0.008724622428417206,0.8468108177185059,0.0007890106062404811,-0.042103227227926254
993.0,858.0,1.9113,-0.2189,9.3709,-0.0599,0.0223,-0.1066,-1.5499727365425606,3.451803731735481e-09,2.0604934692382812,-1.3509891033172607,0.0003141527995467186,2.1308088302612305,4.174457235927246,2.5689155691566157e-08,0.3065418004989624,-1.5898221174823206,-0.0,-0.007999512366950512,0.7606878876686096,-0.0,-0.007003317587077618,0.8468348979949951,0.0006884470931254327,0.023939020931720734
993.0,858.0,1.9113,-0.2189,9.3709,-0.0599,0.0223,-0.1066,-1.5499647495201607,1.118340247237813e-16,2.0570743083953857,-1.350985050201416,0.00026191072538495064,2.177626132965088,4.17445342122998,4.668877047128706e-13,0.29217129945755005,-1.5898221174823206,-0.0,-0.019809715449810028,0.7606433033943176,-0.0,0.002189441816881299,0.8468390703201294,0.0005829050205647945,-0.013956647366285324
993.0,858.0,1.9113,-0.2189,9.3709,-0.0599,0.0223,-0.1066,-1.5500092779150982,2.700659881661106e-22,2.046292543411255,-1.3509416580200195,0.0002660782774910331,2.1883089542388916,4.174501581782959,1.2995990775520268e-16,0.2966773509979248,-1.5897534529315394,-0.0,-0.014899665489792824,0.7606878876686096,-0.0,0.009157130494713783,0.8467704653739929,0.0005867847357876599,-0.0373699776828289
993.0,858.0,1.9113,-0.2189,9.3709,-0.0599,0.0223,-0.1066,-1.5499006149223824,0.00036422922858037055,2.055166006088257,-1.350961685180664,0.00027476868126541376,2.14845871925354,4.174493952388428,2.3619568858019173e-21,0.2884729504585266,-1.589802090321676,-0.0,-0.015786943957209587,0.760635495185852,-0.0,-0.014967033639550209,0.8468307852745056,0.0007237918325699866,-0.0179499089717865
993.0,858.0,1.9113,-0.2189,9.3709,-0.0599,0.0223,-0.1066,-1.5499691695770998,0.000441827840404585,2.071605682373047,-1.350897192955017,0.00026686384808272123,2.1389424800872803,4.174449129695557,0.0002762198855634779,0.29666584730148315,-1.5897610823260706,-0.0,-0.006180514115840197,0.7606272101402283,-0.0,-0.012420311570167542,0.8468266725540161,0.0011871111346408725,-0.03339267894625664
993.0,858.0,1.9113,-0.2189,9.3709,-0.0599,0.0223,-0.1066,-1.549929154371359,0.0006858572014607489,2.0511221885681152,-1.350897192955017,0.00022820328013040125,2.1594746112823486,4.174497290248535,0.000266160728642717,0.30592119693756104,-1.5898421446429651,-0.0,0.0176081620156765,0.7607120871543884,-0.0,-0.0024568517692387104,0.8468832969665527,0.000986312865279615,-0.04281940311193466
993.0,858.0,1.9113,-0.2189,9.3709,-0.0599,0.0223,-0.1066,-1.5499410268715401,0.00047782182809896767,2.0953686237335205,-1.3509736061096191,0.00019932219584006816,2.1787667274475098,4.174505396480225,0.00022232830815482885,0.279401034116745,-1.5897815863238733,-0.0,-0.0208320003002882,0.7606920003890991,-0.0,-0.01223177183419466,0.8468588590621948,0.0008043807465583086,-0.018026040866971016
993.0,858.0,1.9113,-0.2189,9.3709,-0.0599,0.0223,-0.1066,-1.549997567465045,0.00017699429008644074,2.06257700920105,-1.3510175943374634,9.433096420252696e-05,2.1775081157684326,4.1744653421589355,0.0001908863487187773,0.309187650680542,-1.589802090321676,-0.0,-0.01295267790555954,0.7606998085975647,-0.0,-0.0105856042355299,0.8468870520591736,0.0006878498243167996,0.03424067795276642
993.0,858.0,1.9113,-0.2189,9.3709,-0.0599,0.0223,-0.1066,-1.550021256586053,2.3463862817152403e-06,2.0956170558929443,-1.3510016202926636,5.461692467179091e-07,2.1750693321228027,4.174425287837646,0.00016723650333005935,0.2848256230354309,-1.5898545424090784,-0.0,-0.0022538630291819572,0.7606317400932312,-0.0,-0.006324990652501583,0.846842348575592,0.000915675307624042,0.05254093185067177
989.0,853.0,1.8796,-0.1202,9.3715,-0.0713,0.0087,-0.1046,-1.5499849424562235,7.601992630225721e-14,2.042250871658325,-1.3509893417358398,1.769519250636835e-14,2.127169132232666,4.174457235927246,0.00012484895705711097,0.2939780354499817,-1.5897534529315394,-0.0,-0.009207693859934807,0.7606960535049438,-0.0,-0.006966710090637207,0.8468870520591736,0.000813885941170156,-0.0071983784437179565
989.0,853.0,1.8796,-0.1202,9.3715,-0.0713,0.0087,-0.1046,-1.5499850001982232,-0.0009323786362074316,2.0609018802642822,-1.351037621498108,5.733017472394646e-22,2.1791574954986572,4.174469633693359,9.513111581327394e-05,0.28640511631965637,-1.5897734800921839,-0.0,-0.011999204754829407,0.7606194019317627,-0.0,-0.001615246757864952,0.8468506336212158,0.0009874083334580064,0.03733230382204056
989.0,853.0,1.8796,-0.1202,9.3715,-0.0713,0.0087,-0.1046,-1.550000750725605,-0.0011117523536086082,2.0312886238098145,-1.3509891033172607,1.8574250676552126e-29,2.1947200298309326,4.174465818996094,6.363121792674065e-05,0.2920626997947693,-1.5897777716266077,-0.0,-0.006946424953639507,0.7606596946716309,-0.0,-0.0019235080108046532,0.8468912243843079,0.00033069003256969154,-0.008365726098418236
989.0,853.0,1.8796,-0.1202,9.3715,-0.0713,0.0087,-0.1046,-1.5500167601606627,-0.001383062917739153,2.0721473693847656,-1.3510093688964844,6.017820427312108e-37,2.1659317016601562,4.174425764674805,5.5912834795890376e-05,0.2889098823070526,-1.5897820631610315,-0.0,-0.0033892919309437275,0.7606719136238098,-0.0,-0.009051753208041191,0.8468184471130371,0.00018552181427367032,8.045393042266369e-05
989.0,853.0,1.8796,-0.1202,9.3715,-0.0713,0.0087,-0.1046,-1.5500728723457833,-0.0020126686431467533,2.038815975189209,-1.3509490489959717,1.4531465075048353e-42,2.153202533721924,4.174462004298828,-4.759083822136745e-05,0.3050879240036011,-1.5897701422320765,-0.0,-0.00745436642318964,0.7606515288352966,-0.0,-0.015030641108751297,0.8468708992004395,0.00014169266796670854,0.028745975345373154
989.0,853.0,1.8796,-0.1202,9.3715,-0.0713,0.0087,-0.1046,-1.5500808593681832,-0.0031873336993157864,2.1218416690826416,-1.3509726524353027,-0.0,2.1725029945373535,4.174450083369873,-6.459359428845346e-05,0.30304303765296936,-1.5898063818561,-0.0,-0.002656698925420642,0.7606472969055176,-0.0,-0.0045018852688372135,0.846818745136261,0.00010775597911560908,-0.0005434809718281031
989.0,853.0,1.8796,-0.1202,9.3715,-0.0713,0.0087,-0.1046,-1.550108515923359,-0.004054167307913303,2.0628514289855957,-1.3510175943374634,-0.0,2.156095504760742,4.17440573751416,-7.859297329559922e-05,0.2903020977973938,-1.5897777716266077,-0.0,-0.002656390191987157,0.7606154084205627,-0.0,-0.004802608862519264,0.8467861413955688,8.693586278241128e-05,-0.01947087235748768
989.0,853.0,1.8796,-0.1202,9.3715,-0.0713,0.0087,-0.1046,-1.5501563561013718,-0.0040818206034600735,2.0947678089141846,-1.3510053157806396,-0.0,2.141554594039917,4.174425764674805,-7.22910845070146e-05,0.29135459661483765,-1.589733902608053,-0.0,-0.010414729826152325,0.7606395483016968,-0.0,-0.0029463451355695724,0.8468506336212158,0.00010911345452768728,-0.0345490537583828
989.0,853.0,1.8796,-0.1202,9.3715,-0.0713,0.0087,-0.1046,-1.5501724009266873,-0.0039742253720760345,2.0160305500030518,-1.351037621498108,-0.0,2.1462371349334717,4.174381418819092,-6.691625458188355e-05,0.287718266248703,-1.5898101965533655,-0.0,-0.005805950611829758,0.760631799697876,-0.0,0.0024237646721303463,0.8468465209007263,0.00012171576236141846,-0.03566214069724083
989.0,853.0,1.8796,-0.1202,9.3715,-0.0713,0.0087,-0.1046,-1.5502527628890057,-0.0036694554146379232,2.071712017059326,-1.3509974479675293,-0.0,2.1700849533081055,4.174457712764404,-6.228518759598956e-05,0.3039707839488983,-1.5897615591632288,-0.0,-0.014921009540557861,0.7606841921806335,-0.0,-0.0071674310602247715,0.846858561038971,0.00012786693696398288,0.000835212878882885
989.0,853.0,1.8796,-0.1202,9.3715,-0.0713,0.0087,-0.1046,-1.5502888292870303,-0.004380000289529562,2.0525155067443848,-1.350976824760437,-5.921923730056733e-05,2.1179516315460205,4.174425764674805,-5.82535176363308e-05,0.30091819167137146,-1.589790169392721,-0.0,-0.006677104625850916,0.7606194615364075,-0.0,-0.0006568161770701408,0.8468706011772156,0.0010643299901857972,-0.04360636696219444
989.0,853.0,1.8796,-0.1202,9.3715,-0.0713,0.0087,-0.1046,-1.5503367514214297,-0.003549259854480624,2.036193609237671,-1.350976824760437,-4.1153656638925895e-05,2.1571266651153564,4.174465818996094,-6.79302029311657e-05,0.2851685881614685,-1.5897582213031214,-0.0,-0.013357773423194885,0.7607280015945435,-0.0,-0.005672353785485029,0.8468949794769287,0.001379198394715786,-0.0014002984389662743
983.0,879.0,1.7737,0.2788,9.2369,-0.0319,0.0365,-0.1252,-1.550344542866089,-0.0033520881552249193,2.0413758754730225,-1.350976824760437,-3.770545299630612e-05,2.139735221862793,4.174393816585205,-6.447111809393391e-05,0.28076857328414917,-1.5897539297686976,-0.0,-0.008927839808166027,0.7606313228607178,-0.0,0.002108220476657152,0.8468862771987915,0.001171638141386211,0.016977261751890182
983.0,879.0,1.7737,0.2788,9.2369,-0.0319,0.0365,-0.1252,-1.5504167855582018,-0.0026338715106248856,2.0486717224121094,-1.3509613275527954,-3.479040242382325e-05,2.1644344329833984,4.174393816585205,-6.09767266723793e-05,0.2940310835838318,-1.5897539297686976,-0.0,-0.0061808377504348755,0.7606837153434753,-0.0,-0.007309070322662592,0.8469631671905518,0.0009305308922193944,-0.050560154020786285
983.0,879.0,1.7737,0.2788,9.2369,-0.0319,0.0365,-0.1252,-1.5503764257631083,-0.001891454216092825,1.9917888641357422,-1.350985050201416,-3.229373032809235e-05,2.1536827087402344,4.174441500301025,-5.7841651141643524e-05,0.2904825806617737,-1.5897615591632288,-0.0,-0.012903634458780289,0.7606034874916077,-0.0,0.000630643917247653,0.8468904495239258,0.0006434358074329793,-0.00027716392651200294
983.0,879.0,1.7737,0.2788,9.2369,-0.0319,0.0365,-0.1252,-1.5503962871483346,-0.0011809173738583922,2.0003035068511963,-1.3509736061096191,-3.013143941643648e-05,2.1316587924957275,4.174385710353516,-0.00011294679279671982,0.2825312614440918,-1.589721981679098,-0.0,0.0013422442134469748,0.7606956958770752,-0.0,0.005092272534966469,0.8468987345695496,0.00045676474110223353,0.007424280047416687
983.0,879.0,1.7737,0.2788,9.2369,-0.0319,0.0365,-0.1252,-1.550376422037818,-0.0013630406465381384,1.9589555263519287,-1.3509808778762817,-2.8690627004834823e-05,2.063263416290283,4.174333735103271,-0.00014349448611028492,0.274627685546875,-1.5897257963763636,-0.0,0.010156108066439629,0.7606596946716309,-0.0,-0.005386870354413986,0.8469349145889282,0.00037515151780098677,-0.04186718910932541
983.0,879.0,1.7737,0.2788,9.2369,-0.0319,0.0365,-0.1252,-1.5504165452769776,-0.0021242275834083557,1.9474518299102783,-1.3510416746139526,-2.6971059924107976e-05,2.106574535369873,4.1743737894245605,-0.0007700049900449812,0.26978346705436707,-1.5897257963763636,-0.0,0.02041321061551571,0.7607440948486328,-0.0,-0.002793503925204277,0.8468867540359497,0.00012882656301371753,-0.1299448013305664
983.0,879.0,1.7737,0.2788,9.2369,-0.0319,0.0365,-0.1252,-1.5504405231079836,-0.0035356059670448303,1.885146141052246,-1.3509416580200195,-3.816893877228722e-05,2.0738749504089355,4.174321337337158,-0.001161573687568307,0.2730344235897064,-1.5897257963763636,-0.0,0.027553118765354156,0.7606837749481201,-0.0,0.0005372029263526201,0.8468382954597473,4.7748068027431145e-05,-0.11644312739372253
983.0,879.0,1.7737,0.2788,9.2369,-0.0319,0.0365,-0.1252,-1.550492677172162,-0.005881419871002436,1.8689982891082764,-1.3510335683822632,-4.405625077197328e-05,2.0444416999816895,4.174326582545898,-0.0014117347309365869,0.26100778579711914,-1.5896738211261194,0.0003996999002993107,0.03213081508874893,0.7606194615364075,-0.0,-0.013850348070263863,0.8468785881996155,1.4577306046703598e-06,-0.0951329916715622
983.0,879.0,1.7737,0.2788,9.2369,-0.0319,0.0365,-0.1252,-1.5505282518318673,-0.009053551591932774,1.832815408706665,-1.3509933948516846,-4.5721371861873195e-05,2.0161209106445312,4.17434994756665,-0.0012574362335726619,0.25126999616622925,-1.5897138754474085,0.0003979650791734457,0.02128973975777626,0.7607121467590332,-0.0,0.007755679544061422,0.846858561038971,4.722861912751647e-14,-0.0906662866473198
983.0,879.0,1.7737,0.2788,9.2369,-0.0319,0.0365,-0.1252,-1.5506124415299674,-0.012171175330877304,1.7581889629364014,-1.3510055541992188,-4.3510943214641884e-05,2.007242202758789,4.174298449153564,-0.0013187687145546079,0.2490883767604828,-1.5897100607501429,0.0003743094566743821,0.052342917770147324,0.7606636881828308,-0.0,-0.0008744916412979364,0.8468626737594604,1.530147111239308e-21,-0.1790945678949356
983.0,879.0,1.7737,0.2788,9.2369,-0.0319,0.0365,-0.1252,-1.5507567965290328,-0.015057993121445179,1.7465583086013794,-1.3509974479675293,-4.1504445107420906e-05,2.033018112182617,4.174330397243164,-0.001631421037018299,0.24423712491989136,-1.5897014776812952,0.00038039853097870946,0.052250511944293976,0.7606961131095886,-0.0,-0.00289562763646245,0.8468626737594604,-0.000498434528708458,-0.15330025553703308
983.0,879.0,1.7737,0.2788,9.2369,-0.0319,0.0365,-0.1252,-1.550856453632452,-0.018589168787002563,1.7178857326507568,-1.3509490489959717,-3.9674829167779535e-05,2.012455463409424,4.17430226385083,-0.003381895599886775,0.2400127798318863,-1.589705769215719,0.00034697793307714164,0.05973368138074875,0.760671854019165,-0.0,-0.015963762998580933,0.846842348575592,-0.0004145402053836733,-0.20884692668914795
8190.0,831.0,1.4764,0.052,9.1956,-0.0377,-0.0168,-0.1225,-1.5510445677540083,-0.022142866626381874,1.7127914428710938,-1.3509535789489746,-1.2854141579268785e-12,2.024536609649658,4.17427842199292,-0.004016769118607044,0.23648691177368164,-1.5896895567523401,0.00032497322536073625,0.06356579065322876,0.7606555223464966,-0.0,0.010190152563154697,0.8468465209007263,-0.0003699937369674444,-0.15921521186828613
8190.0,831.0,1.4764,0.052,9.1956,-0.0377,-0.0168,-0.1225,-1.5512762882611533,-0.02650052309036255,1.6917749643325806,-1.3509974479675293,-4.164579088156879e-20,2.024719715118408,4.174262209529541,-0.001616152934730053,0.2179659754037857,-1.5896619001971644,0.00028772547375410795,0.07573199272155762,0.7607038617134094,-0.0,-0.0024497932754456997,0.8468382358551025,-0.0003424018213991076,-0.20195263624191284
8190.0,831.0,1.4764,0.052,9.1956,-0.0377,-0.0168,-0.1225,-1.5514158339104434,-0.028212223201990128,1.6493793725967407,-1.3509808778762817,-2.840624983946327e-05,2.0304737091064453,4.174250765437744,-0.0007419476751238108,0.22944271564483643,-1.5896895567523401,0.00027349000447429717,0.08199913054704666,0.76069575548172,-0.0,0.010729502886533737,0.8468506336212158,-0.0002876778307836503,-0.24584881961345673
8190.0,831.0,1.4764,0.052,9.1956,-0.0377,-0.0168,-0.1225,-1.5516237703016778,-0.031631384044885635,1.670534372329712,-1.3509933948516846,-2.7123160180053674e-05,1.9249564409255981,4.174278898830078,-0.0005250649410299957,0.22667700052261353,-1.5896862188922327,0.00023862493981141597,0.08264219015836716,0.7607321739196777,-0.0,-0.0071062492206692696,0.8468543887138367,-0.00021693602320738137,-0.2861997187137604
8190.0,831.0,1.4764,0.052,9.1956,-0.0377,-0.0168,-0.1225,-1.551899818038084,-0.03352466598153114,1.6327707767486572,-1.350985050201416,-3.8197878893697634e-05,2.0057787895202637,4.17427031576123,-0.0004994770861230791,0.20866495370864868,-1.5896862188922327,0.00023656834673602134,0.06476704031229019,0.7607240080833435,-0.0,-0.005007500760257244,0.8468870520591736,-0.0001818621822167188,-0.22940178215503693
8190.0,831.0,1.4764,0.052,9.1956,-0.0377,-0.0168,-0.1225,-1.5521311660161992,-0.03619587793946266,1.5852813720703125,-1.3509695529937744,-4.8409870942123234e-05,1.9725260734558105,4.174218340510986,-0.0003215197066310793,0.22010742127895355,-1.5896499792682093,0.00023503774718847126,0.08209967613220215,0.7606878280639648,-0.0,-0.015060448087751865,0.8468181490898132,-0.00015655341849196702,-0.24099335074424744
8190.0,831.0,1.4764,0.052,9.1956,-0.0377,-0.0168,-0.1225,-1.5525153403035183,-0.03836285322904587,1.5320205688476562,-1.3510093688964844,-5.742429129895754e-05,1.9550114870071411,4.174182100886963,-0.00032554951030761003,0.21695448458194733,-1.5896742979632776,0.00021731466404162347,0.07861153036355972,0.7606956958770752,-0.0,-0.005168848671019077,0.8468345999717712,-0.00013742853479925543,-0.28444725275039673
8190.0,831.0,1.4764,0.052,9.1956,-0.0377,-0.0168,-0.1225,-1.552790754740574,-0.04233349859714508,1.5738422870635986,-1.3510212898254395,-0.00021353487682063133,1.9619868993759155,4.174214525813721,-0.00041719889850355685,0.2080165594816208,-1.5896623770343226,0.0001822342601371929,0.08252184092998505,0.7606235146522522,-0.0,-0.00424151960760355,0.84686678647995,-0.00012246773985680193,-0.31589609384536743
8190.0,831.0,1.4764,0.052,9.1956,-0.0377,-0.0168,-0.1225,-1.5531385292163868,-0.04903261363506317,1.5713825225830078,-1.3510011434555054,-0.0002155321853933856,1.9139761924743652,4.174202604884766,-0.00042757351184263825,0.21375712752342224,-1.5897181669818323,0.0001881179923657328,0.08825156092643738,0.7606717944145203,-0.0,0.004212288185954094,0.8468465209007263,-0.00013253370707388967,-0.23983432352542877
8190.0,831.0,1.4764,0.052,9.1956,-0.0377,-0.0168,-0.1225,-1.5535944395563384,-0.05848180130124092,1.516404151916504,-1.3510215282440186,-0.0001859023468568921,1.904188871383667,4.174194498653076,-0.0004759777511935681,0.19988448917865753,-1.5896819273578089,0.00017867045244202018,0.07565995305776596,0.7607120871543884,-0.0,-0.008860263973474503,0.8468747138977051,-0.0001206856468343176,-0.2802717685699463
8190.0,831.0,1.4764,0.052,9.1956,-0.0377,-0.0168,-0.1225,-1.5540861704251547,-0.06873813271522522,1.4904747009277344,-1.3510335683822632,-0.00013616736396215856,1.9146907329559326,4.174290819759033,-0.0004026723909191787,0.20840473473072052,-1.5896456877337855,0.00017168535850942135,0.1003524512052536,0.7607157230377197,-0.0,0.0073700821958482265,0.8468305468559265,-0.00012708481517620385,-0.2814676761627197
1013.0,810.0,1.1336,0.0455,9.3595,-0.0392,-0.1113,-0.1176,-1.55466569707308,-0.0780707597732544,1.512843370437622,-1.3510011434555054,-9.717277862364426e-05,1.9299085140228271,4.174250765437744,-0.000310131988953799,0.2170494794845581,-1.5896580854998987,0.00016567665443290025,0.09698286652565002,0.760671854019165,-0.0,9.003141894936562e-05,0.8468912243843079,-0.00013627427688334137,-0.29814255237579346
1013.0,810.0,1.1336,0.0455,9.3595,-0.0392,-0.1113,-0.1176,-1.5553052130020042,-0.08588171750307083,1.4811086654663086,-1.3509817123413086,-8.770303247729316e-05,1.9906377792358398,4.174262209529541,-0.00029418262420222163,0.1986670345067978,-1.589682404194967,0.00016109016723930836,0.09584368765354156,0.7606837749481201,-0.0,0.004557952284812927,0.8468911647796631,-0.00011797487968578935,-0.3052058517932892
1013.0,810.0,1.1336,0.0455,9.3595,-0.0392,-0.1113,-0.1176,-1.5560444800979276,-0.09034330397844315,1.4874008893966675,-1.350985050201416,-7.991546590346843e-05,1.9053341150283813,4.174218340510986,-0.00024789292365312576,0.19477534294128418,-1.58966571489443,0.00014785741223022342,0.08471855521202087,0.7606473565101624,-0.0,0.0026925578713417053,0.8468142747879028,-0.00012081065506208688,-0.2777248024940491
1013.0,810.0,1.1336,0.0455,9.3595,-0.0392,-0.1113,-0.1176,-1.5568641743487497,-0.09527351707220078,1.4981253147125244,-1.3510336875915527,-7.33982160454616e-05,1.9261267185211182,4.1741987901875,-0.0002141782024409622,0.20560118556022644,-1.5897019545184534,0.000134209607494995,0.0953788086771965,0.760680079460144,-0.0,-0.0015443068696185946,0.8468829989433289,-0.00011701603216351941,-0.3284796476364136
1013.0,810.0,1.1336,0.0455,9.3595,-0.0392,-0.1113,-0.1176,-1.557431506258883,-0.0941343605518341,1.5089097023010254,-1.351029396057129,-5.445990973385051e-05,1.9206063747406006,4.174266977901123,-0.0002218710578745231,0.1977265179157257,-1.5896623770343226,0.00012312109174672514,0.09292596578598022,0.7606638073921204,-0.0,-0.013071288354694843,0.8468304872512817,-0.00010987336281687021,-0.29948583245277405
1013.0,810.0,1.1336,0.0455,9.3595,-0.0392,-0.1113,-0.1176,-1.558234373373427,-0.10348236560821533,1.4490509033203125,-1.3509970903396606,-9.794568177312613e-05,1.8918421268463135,4.1741906839558105,-0.000737346475943923,0.19997364282608032,-1.5896413961993616,0.00011097501555923373,0.09457887709140778,0.7606841921806335,-0.0,0.007061665412038565,0.8468465209007263,-0.00010160414240090176,-0.2779339551925659
1013.0,810.0,1.1336,0.0455,9.3595,-0.0392,-0.1113,-0.1176,-1.5591784131577988,-0.11911240965127945,1.4939353466033936,-1.3510451316833496,-0.00036218090099282563,1.9030320644378662,4.174178763026855,-0.002649719128385186,0.18606626987457275,-1.5896742979632776,0.0001211224080179818,0.08606148511171341,0.7606554627418518,-0.0,-0.004519174806773663,0.8468506336212158,-0.00011024085688404739,-0.3109550476074219
1013.0,810.0,1.1336,0.0455,9.3595,-0.0392,-0.1113,-0.1176,-1.560105107990541,-0.13272809982299805,1.398494839668274,-1.3510698080062866,0.00029336995794437826,1.9176490306854248,4.174154921168945,-0.0019661677069962025,0.20785759389400482,-1.5896580854998987,0.00011122551950393245,0.10754294693470001,0.7606354355812073,-0.0,-0.008772353641688824,0.84686678647995,-0.00011716083827195689,-0.32446178793907166
1013.0,810.0,1.1336,0.0455,9.3595,-0.0392,-0.1113,-0.1176,-1.5612009635991235,-0.14031857252120972,1.4471280574798584,-1.3509695529937744,0.0007744128815829754,1.9237865209579468,4.174183054561279,-0.0008575848187319934,0.19225367903709412,-1.5896180311786097,0.00010275912791257724,0.09207096695899963,0.7606838345527649,-0.0,-0.00978794228285551,0.8467943668365479,-0.0001863877841969952,-0.32605987787246704
1013.0,810.0,1.1336,0.0455,9.3595,-0.0392,-0.1113,-0.1176,-1.5623351394063612,-0.1370818316936493,1.458463191986084,-1.3509817123413086,0.0010504293022677302,1.9080698490142822,4.1741987901875,-0.0005528603214770555,0.19577942788600922,-1.5896218458758753,9.549046808388084e-05,0.09882985055446625,0.7606916427612305,-0.0,0.003407175885513425,0.8468870520591736,-0.00016665596922393888,-0.3046310544013977
1013.0,810.0,1.1336,0.0455,9.3595,-0.0392,-0.1113,-0.1176,-1.5635021149976929,-0.13038529455661774,1.4882665872573853,-1.3510053157806396,-0.000392516958527267,1.9195466041564941,4.174186392421387,-0.0004091314331162721,0.20575448870658875,-1.5896943251239222,8.918217645259574e-05,0.10060493648052216,0.7606514692306519,-0.0,-0.006323962938040495,0.8468465209007263,-0.00012365913426037878,-0.3072274923324585
1013.0,810.0,1.1336,0.0455,9.3595,-0.0392,-0.1113,-0.1176,-1.5646688232994457,-0.14905855059623718,1.5214359760284424,-1.3510254621505737,-0.0023525585420429707,1.9316165447235107,4.174134894008301,-0.00037101624184288085,0.1956768035888672,-1.5896862188922327,8.365583926206455e-05,0.08363296091556549,0.7607321739196777,-0.0,0.001456786529161036,0.8468829989433289,-8.910418546292931e-05,-0.2784973382949829
988.0,750.0,1.0481,0.1741,9.3559,-0.0342,-0.1359,-0.1216,-1.5660207032090803,-0.17710177600383759,1.4310402870178223,-1.3510812520980835,-0.0009477839339524508,1.9543694257736206,4.17415110647168,-0.0010682945139706135,0.20152468979358673,-1.5896342436419886,5.555295865633525e-05,0.0782647356390953,0.760671854019165,-0.0,-0.004736653994768858,0.8468543887138367,-8.107719622785226e-05,-0.25744470953941345
988.0,750.0,1.0481,0.1741,9.3559,-0.0342,-0.1359,-0.1216,-1.5674516079346468,-0.192737877368927,1.4386343955993652,-1.3510417938232422,0.0006060856976546347,1.9084335565567017,4.174146814937256,-0.0012201601639389992,0.20062360167503357,-1.5896332899676722,4.514567626756616e-05,0.08803056925535202,0.7607117295265198,-0.0,-0.006674608215689659,0.8468506336212158,-7.43768978281878e-05,-0.2756687104701996
988.0,750.0,1.0481,0.1741,9.3559,-0.0342,-0.1359,-0.1216,-1.568914499166869,-0.17966100573539734,1.4938925504684448,-1.3509808778762817,0.0017902801046147943,1.9438097476959229,4.174154921168945,-0.0004312226374167949,0.19795218110084534,-1.5896499792682093,6.017300984240137e-05,0.09150665253400803,0.7606997489929199,-0.0,0.000714003574103117,0.846858561038971,-3.422148074605502e-05,-0.3255724012851715
988.0,750.0,1.0481,0.1741,9.3559,-0.0342,-0.1359,-0.1216,-1.5699450878058379,-0.17740091681480408,1.5056931972503662,-1.350985050201416,0.0009266582201234996,1.9372005462646484,4.1741987901875,-0.0003148072282783687,0.20618966221809387,-1.5896413961993616,5.7604054745752364e-05,0.08814671635627747,0.760643720626831,-0.0,-0.0017732236301526427,0.8468547463417053,-1.0543126336415298e-05,-0.31165823340415955
988.0,750.0,1.0481,0.1741,9.3559,-0.0342,-0.1359,-0.1216,-1.5714637241759242,-0.1893632411956787,1.5645028352737427,-1.3510093688964844,4.6233394890293766e-10,1.9453628063201904,4.174182100886963,-0.00023317860905081034,0.1994859129190445,-1.589637581502096,5.307488754624501e-05,0.08432754874229431,0.7606195211410522,-0.0,-0.007858028635382652,0.8468544483184814,-3.4158388465856115e-13,-0.29166358709335327
988.0,750.0,1.0481,0.1741,9.3559,-0.0342,-0.1359,-0.1216,-1.5730182133116664,-0.20855286717414856,1.5352487564086914,-1.3510212898254395,1.4979029900918554e-17,1.965041160583496,4.17417494832959,-0.00018517988792154938,0.20579062402248383,-1.5896623770343226,4.920581341139041e-05,0.09566564112901688,0.760671854019165,-0.0,-0.003057106863707304,0.846899151802063,-1.1066882534883202e-20,-0.25385499000549316
988.0,750.0,1.0481,0.1741,9.3559,-0.0342,-0.1359,-0.1216,-1.5746609173216761,-0.21114856004714966,1.4762589931488037,-1.3510335683822632,-1.7345628577913885e-07,1.9817988872528076,4.1741987901875,-0.00011591395013965666,0.20210136473178864,-1.5896862188922327,4.5862510887673125e-05,0.08427013456821442,0.760680079460144,-0.0,-0.008185036480426788,0.8468305468559265,-3.58552929603748e-28,-0.313426673412323
988.0,750.0,1.0481,0.1741,9.3559,-0.0342,-0.1359,-0.1216,-1.5762912235655726,-0.20922647416591644,1.566187858581543,-1.3510621786117554,-5.6197629083360075e-15,1.9613614082336426,4.174150629634521,0.0001732725213514641,0.22285279631614685,-1.5896623770343226,-3.264737824792974e-05,0.0681157261133194,0.7607240080833435,-0.0,-0.002612348413094878,0.8468626737594604,-1.1616657187629284e-35,-0.28413569927215576
988.0,750.0,1.0481,0.1741,9.3559,-0.0342,-0.1359,-0.1216,-1.5780064068236292,-0.20690470933914185,1.545711636543274,-1.3509891033172607,0.00023643295571673661,1.9681766033172607,4.1741987901875,0.0006735906354151666,0.22299952805042267,-1.5896499792682093,-2.8527359972940758e-05,0.07589136064052582,0.7607038021087646,-0.0,0.004777559079229832,0.846858561038971,-3.769492869033758e-43,-0.27182522416114807
988.0,750.0,1.0481,0.1741,9.3559,-0.0342,-0.1359,-0.1216,-1.579604288140768,-0.2082412987947464,1.630129337310791,-1.3509933948516846,0.00015496512060053647,1.9910550117492676,4.174230261439941,0.0005628539365716279,0.22059595584869385,-1.58966571489443,-2.531715654185973e-05,0.07213111966848373,0.7607001066207886,-0.0,0.005268340930342674,0.8468586206436157,0.0,-0.286221444606781
988.0,750.0,1.0481,0.1741,9.3559,-0.0342,-0.1359,-0.1216,-1.5813590488829554,-0.21504954993724823,1.6219054460525513,-1.3509893417358398,5.7631925301393494e-05,1.9789104461669922,4.174235029811523,0.0004508677520789206,0.22346164286136627,-1.5896661917315882,-2.2756425096304156e-05,0.06335369497537613,0.7606595754623413,-0.0,-0.007079488597810268,0.8468543887138367,0.0,-0.2755889892578125
988.0,750.0,1.0481,0.1741,9.3559,-0.0342,-0.1359,-0.1216,-1.583034177819723,-0.21551254391670227,1.6339282989501953,-1.3510257005691528,0.00013741165457759053,2.0274858474731445,4.174214525813721,0.00030840610270388424,0.2101682424545288,-1.589637581502096,-2.0666144337155856e-05,0.0674193874001503,0.760643720626831,-0.0,0.016113264486193657,0.8468706011772156,0.0,-0.2317337691783905
966.0,562.0,1.9908,-0.0443,8.8606,-0.0396,-0.1658,-0.1074,-1.5847522221007289,-0.21034768223762512,1.6750000715255737,-1.3509576320648193,0.00010125082917511463,2.0029425621032715,4.174186392421387,0.0003370816702954471,0.2294333130121231,-1.5896742979632776,-1.892758700705599e-05,0.049958307296037674,0.7606878876686096,-0.0,0.00124644348397851,0.8468382954597473,0.0004010463017039001,-0.1938578486442566
966.0,562.0,1.9908,-0.0443,8.8606,-0.0396,-0.1658,-0.1074,-1.586391111413473,-0.21208946406841278,1.7256830930709839,-1.3509494066238403,0.0001560547825647518,2.0148186683654785,4.174226446742676,0.00042547404882498085,0.23406562209129333,-1.5896623770343226,-1.7458876754972152e-05,0.0495302639901638,0.7606801390647888,-0.0,-0.014248935505747795,0.8468747138977051,0.00029564203578047454,-0.20707687735557556
966.0,562.0,1.9908,-0.0443,8.8606,-0.0396,-0.1658,-0.1074,-1.5881177387633265,-0.20778749883174896,1.7293684482574463,-1.3509376049041748,0.0005371464649215341,2.0217342376708984,4.17424647390332,0.0004037040926050395,0.23849627375602722,-1.5896499792682093,-1.620166949578561e-05,0.05537255480885506,0.7606719136238098,-0.0,-0.004448072984814644,0.8468583226203918,0.0002341100771445781,-0.2082166075706482
966.0,562.0,1.9908,-0.0443,8.8606,-0.0396,-0.1658,-0.1074,-1.5893365345396937,-0.1986660212278366,1.8047564029693604,-1.350961685180664,0.000605379871558398,2.0025546550750732,4.174290819759033,0.0004118890210520476,0.23786525428295135,-1.5896580854998987,-1.537151911179535e-05,0.0530167818069458,0.7607038617134094,-0.0,0.0022724440786987543,0.8468908667564392,0.0002025022404268384,-0.16961437463760376
966.0,562.0,1.9908,-0.0443,8.8606,-0.0396,-0.1658,-0.1074,-1.590971132318014,-0.20317566394805908,1.731758952140808,-1.3509736061096191,0.000413199100876227,2.0522003173828125,4.174274607295654,0.0003714063495863229,0.2328265905380249,-1.589653793965475,-1.4388509953278117e-05,0.07400360703468323,0.7606998085975647,-0.0,-0.008632810786366463,0.8468904495239258,0.00027050331118516624,-0.16694065928459167
966.0,562.0,1.9908,-0.0443,8.8606,-0.0396,-0.1658,-0.1074,-1.592733999291891,-0.2209627330303192,1.8490185737609863,-1.3509494066238403,6.78632483541719e-10,2.03933048248291,4.1742588716694335,0.00027917735860683024,0.24016571044921875,-1.5896580854998987,-2.7047110052080825e-05,0.05922503024339676,0.7607239484786987,-0.0,0.002172276843339205,0.8469308018684387,0.0002542466390877962,-0.19744063913822174
966.0,562.0,1.9908,-0.0443,8.8606,-0.0396,-0.1658,-0.1074,-1.5944849453368128,-0.21169467270374298,1.7926404476165771,-1.3509576320648193,2.1986826295490224e-17,2.045661449432373,4.174226446742676,0.00022365347831510007,0.235370934009552,-1.589653793965475,-2.551384204707574e-05,0.050474293529987335,0.760711669921875,-0.0,-0.0004124350962229073,0.8469027876853943,0.00025359183200635016,-0.16385433077812195
966.0,562.0,1.9908,-0.0443,8.8606,-0.0396,-0.1658,-0.1074,-1.5962192020811976,-0.20938415825366974,1.8288722038269043,-1.3509657382965088,0.0016605275450274348,2.093620777130127,4.174238844508789,0.00022384429757948965,0.24491263926029205,-1.5896700064288538,-2.4144892449839972e-05,0.053645458072423935,0.7606678009033203,-0.0,-0.004758836701512337,0.8469143509864807,0.0002155554248020053,-0.19251760840415955
966.0,562.0,1.9908,-0.0443,8.8606,-0.0396,-0.1658,-0.1074,-1.597990175286764,-0.22024530172348022,1.7876391410827637,-1.3509657382965088,0.0009331083274446428,2.032594919204712,4.1742870050617675,0.00019201972463633865,0.23974929749965668,-1.5896580854998987,-2.2915381123311818e-05,0.055209025740623474,0.7606641054153442,-0.0,-0.003851603716611862,0.846874475479126,0.0001791247632354498,-0.19758981466293335
966.0,562.0,1.9908,-0.0443,8.8606,-0.0396,-0.1658,-0.1074,-1.5996962986388148,-0.21611635386943817,1.8630282878875732,-1.3509576320648193,0.0005376164917834103,2.0051608085632324,4.174303217525146,0.0001681059948168695,0.23410961031913757,-1.5896580854998987,-2.1805026335641742e-05,0.04025522619485855,0.7606514096260071,-0.0,-0.009695034474134445,0.8469069004058838,-6.979605677770451e-05,-0.18026886880397797
966.0,562.0,1.9908,-0.0443,8.8606,-0.0396,-0.1658,-0.1074,-1.6014391384520472,-0.2092064619064331,1.838681697845459,-1.3510055541992188,2.3627575501450337e-05,2.055537700653076,4.174230261439941,0.0001494894822826609,0.24555522203445435,-1.58966571489443,-2.079727164527867e-05,0.05275827646255493,0.7606555223464966,-0.0,-0.004537083208560944,0.8469107151031494,-5.347972910385579e-05,-0.1722818911075592
914.0,484.0,2.269,0.2429,9.3027,-0.0206,-0.171,-0.1229,-1.6031300030150355,-0.22022685408592224,1.8497748374938965,-1.3509576320648193,7.655034917584957e-13,2.0992538928985596,4.174158259029053,0.00013458548346534371,0.252654492855072,-1.5896700064288538,-1.9878560124197975e-05,0.05210673436522484,0.7606514692306519,-0.0,-0.008900211192667484,0.8468867540359497,-4.3208412535022944e-05,-0.14240926504135132
914.0,484.0,2.269,0.2429,9.3027,-0.0206,-0.171,-0.1229,-1.6049124203123988,-0.22394153475761414,1.932175636291504,-1.3509931564331055,-0.00031900915200822055,2.0345702171325684,4.17424647390332,0.00012238408089615405,0.25342124700546265,-1.5896619001971644,-3.612829757582148e-10,0.027301456779241562,0.7606395483016968,-0.0,0.0022561403457075357,0.8469308018684387,-3.624715827754699e-05,-0.19545237720012665
914.0,484.0,2.269,0.2429,9.3027,-0.0206,-0.171,-0.1229,-1.6066228351988734,-0.2135009914636612,1.8846570253372192,-1.350949764251709,-3.356976641111231e-10,2.1138997077941895,4.174266501063965,0.0001307495404034853,0.24161072075366974,-1.5896332899676722,-6.566139267776081e-15,0.03921270743012428,0.7606076002120972,-0.0,0.0046415142714977264,0.8469110131263733,-6.243562529562041e-05,-0.15552851557731628
914.0,484.0,2.269,0.2429,9.3027,-0.0206,-0.171,-0.1229,-1.6078978977599085,-0.20905445516109467,1.885756254196167,-1.350957989692688,0.0015587708912789822,2.049952983856201,4.174230261439941,0.00012323078408371657,0.24688714742660522,-1.58966571489443,-1.8277091233805775e-18,0.04202639311552048,0.760639488697052,-0.0,-0.006974908523261547,0.8468706011772156,-5.6550783483544365e-05,-0.15828511118888855
914.0,484.0,2.269,0.2429,9.3027,-0.0206,-0.171,-0.1229,-1.60960116008901,-0.2126871794462204,1.8667107820510864,-1.3510054349899292,0.0003299602249171585,2.0765082836151123,4.17422263204541,0.000114288559416309,0.24655669927597046,-1.5896700064288538,-3.3217711562175525e-23,0.03860393911600113,0.760671854019165,-0.0,-0.008329049684107304,0.8468747138977051,-5.0237449613632634e-05,-0.16898831725120544
914.0,484.0,2.269,0.2429,9.3027,-0.0206,-0.171,-0.1229,-1.61126770595693,-0.2134566754102707,1.8816587924957275,-1.3509695529937744,3.0138902484821983e-10,2.0372257232666016,4.174218340510986,0.0001065563119482249,0.24984735250473022,-1.5897019545184534,-6.037154818772337e-28,0.048079438507556915,0.7606714367866516,-0.0,0.0002407236024737358,0.8468785285949707,-4.5192202378530055e-05,-0.16264377534389496
914.0,484.0,2.269,0.2429,9.3027,-0.0206,-0.171,-0.1229,-1.6129304371275843,-0.21473462879657745,1.923676609992981,-1.3509535789489746,9.764619804185338e-18,2.0799784660339355,4.174238844508789,3.294309135526419e-05,0.25299322605133057,-1.5896623770343226,-1.0972231043836255e-32,0.062018800526857376,0.7607038617134094,-0.0,-0.007175930775702,0.8468829393386841,-6.15979079157114e-05,-0.1677531599998474
914.0,484.0,2.269,0.2429,9.3027,-0.0206,-0.171,-0.1229,-1.6145888767638148,-0.2101699858903885,1.9270185232162476,-1.3509376049041748,-1.5060827536217403e-06,2.075202465057373,4.174226446742676,3.069156809942797e-05,0.24654614925384521,-1.589653793965475,-1.9941488324314004e-37,0.037396445870399475,0.7606796622276306,-0.0,-0.015924891456961632,0.8468424081802368,-7.451317651430145e-05,-0.1434462070465088
914.0,484.0,2.269,0.2429,9.3027,-0.0206,-0.171,-0.1229,-1.6162082157530726,-0.20318250358104706,1.9040477275848389,-1.3509176969528198,-4.879515912961825e-14,2.092574119567871,4.174234552974365,3.939744419767521e-05,0.25096961855888367,-1.5896332899676722,-3.623757828743977e-42,0.028824955224990845,0.7606555223464966,-0.0,-0.004687495529651642,0.8468465209007263,-0.00011100158735644072,-0.1522156000137329
914.0,484.0,2.269,0.2429,9.3027,-0.0206,-0.171,-0.1229,-1.6178633175291957,-0.20456066727638245,1.9957690238952637,-1.3509739637374878,-1.5809013868957202e-21,2.1032958030700684,4.174274607295654,4.051123687531799e-05,0.2530319392681122,-1.5897019545184534,-0.0,0.04296118766069412,0.7606477737426758,-0.0,0.00398419052362442,0.846906840801239,-0.00010108886635862291,-0.14702996611595154
914.0,484.0,2.269,0.2429,9.3027,-0.0206,-0.171,-0.1229,-1.6194898090758265,-0.2034400850534439,1.9224070310592651,-1.350961685180664,-5.121919205425495e-29,2.0310611724853516,4.17425458013501,3.821760037681088e-05,0.252350389957428,-1.5896289984332483,-0.0,0.03837481141090393,0.7606514692306519,-0.0,0.008430841378867626,0.846834659576416,-9.275437332689762e-05,-0.16124694049358368
914.0,484.0,2.269,0.2429,9.3027,-0.0206,-0.171,-0.1229,-1.6210843525328578,-0.19463708996772766,1.9608383178710938,-1.350913643836975,-1.659436743954114e-36,2.071385622024536,4.174230261439941,4.822542177862488e-05,0.2494225800037384,-1.5896742979632776,-0.0,0.05237666517496109,0.7606596946716309,-0.0,-0.0077394237741827965,0.8468747138977051,-0.000102827230875846,-0.18970057368278503
858.0,415.0,2.7254,-0.073,9.1549,-0.0428,-0.1845,-0.1164,-1.6227313480772914,-0.20141756534576416,2.0224497318267822,-1.3509653806686401,0.00018134598212782294,2.058506965637207,4.17424647390332,6.57694909023121e-05,0.24714738130569458,-1.5896580854998987,-0.0,0.043166596442461014,0.7606276869773865,-0.0,-0.008925501257181168,0.8468708992004395,-9.554959979141131e-05,-0.15047289431095123
858.0,415.0,2.7254,-0.073,9.1549,-0.0428,-0.1845,-0.1164,-1.6243497333922328,-0.20520824193954468,1.9825398921966553,-1.3509176969528198,0.00022966705728322268,2.1173691749572754,4.1742541032978515,8.594305836595595e-05,0.24344393610954285,-1.5896623770343226,-0.0,0.042864006012678146,0.7606924176216125,-0.0,-0.011157553642988205,0.8468307852745056,-0.00010351253149565309,-0.16118867695331573
858.0,415.0,2.7254,-0.073,9.1549,-0.0428,-0.1845,-0.1164,-1.6259366474547328,-0.18910381197929382,2.052854299545288,-1.3509382009506226,0.0018722063396126032,2.0489652156829834,4.174262209529541,0.0003475357370916754,0.25590386986732483,-1.5896623770343226,-0.0,0.03517736494541168,0.7606359124183655,-0.0,-0.008836304768919945,0.846802294254303,-0.00017620627477299422,-0.16143372654914856
858.0,415.0,2.7254,-0.073,9.1549,-0.0428,-0.1845,-0.1164,-1.6270958385863246,-0.18363551795482635,2.008302688598633,-1.350957989692688,0.0027038485277444124,2.104762315750122,4.1742541032978515,0.0003665087278932333,0.24860727787017822,-1.5897062460528772,-0.0,0.05995985120534897,0.7605717778205872,-0.0,-0.01675613597035408,0.84686678647995,-0.00018953329708892852,-0.2091042697429657
858.0,415.0,2.7254,-0.073,9.1549,-0.0428,-0.1845,-0.1164,-1.6285816631712855,-0.19309574365615845,2.023861885070801,-1.3509258031845093,0.0014115250669419765,2.0512702465057373,4.174266501063965,0.00028827739879488945,0.25583574175834656,-1.5896862188922327,-0.0,0.03957269713282585,0.7606477737426758,-0.0,-0.016168862581253052,0.8468829393386841,-0.00016619915550109,-0.14721840620040894
858.0,415.0,2.7254,-0.073,9.1549,-0.0428,-0.1845,-0.1164,-1.6302019558348597,-0.19528315961360931,2.0025415420532227,-1.3508782386779785,0.000691981753334403,2.081460475921631,4.174238367671631,0.00023753863933961838,0.25099843740463257,-1.589653793965475,-0.0,0.04151448607444763,0.7606555223464966,-0.0,-0.010294954292476177,0.8468506336212158,-0.00014798084157519042,-0.14861148595809937
858.0,415.0,2.7254,-0.073,9.1549,-0.0428,-0.1845,-0.1164,-1.6316563091673792,-0.17736540734767914,2.0599780082702637,-1.350906252861023,0.00039336076588369906,2.0169217586517334,4.174290819759033,0.00020199062419123948,0.2521613538265228,-1.5896700064288538,-0.0,0.03650961443781853,0.7606597542762756,-0.0,-0.0065903738141059875,0.8468225598335266,-0.00017781209317035973,-0.1495315432548523
858.0,415.0,2.7254,-0.073,9.1549,-0.0428,-0.1845,-0.1164,-1.6330224476256312,-0.17726518213748932,2.006779432296753,-1.3508939743041992,0.00017492521146778017,2.110274076461792,4.174165888423584,0.00014643327449448407,0.25587281584739685,-1.5896661917315882,-0.0,0.023612646386027336,0.7606440782546997,-0.0,-0.01988854445517063,0.8468266725540161,-0.00016182959370780736,-0.1859860122203827
858.0,415.0,2.7254,-0.073,9.1549,-0.0428,-0.1845,-0.1164,-1.6344334087767542,-0.18566882610321045,2.0705161094665527,-1.3509259223937988,-0.0003951677936129272,2.0736498832702637,4.17422263204541,0.00012955284910276532,0.2629825174808502,-1.5896499792682093,-0.0,0.033528298139572144,0.7606518268585205,-0.0,-0.01850256323814392,0.8468510508537292,-0.00018576769798528403,-0.16740655899047852
858.0,415.0,2.7254,-0.073,9.1549,-0.0428,-0.1845,-0.1164,-1.6358887157835902,-0.1801062822341919,2.1135566234588623,-1.3509094715118408,-1.5239812455547508e-05,2.0890371799468994,4.17422263204541,0.00011617367272265255,0.2530665397644043,-1.5896499792682093,-0.0,0.03840295225381851,0.7606395483016968,-0.0,-0.007544667925685644,0.8468547463417053,-0.00022316469403449446,-0.1676342934370041
858.0,415.0,2.7254,-0.073,9.1549,-0.0428,-0.1845,-0.1164,-1.6373077831664027,-0.16979455947875977,2.020583152770996,-1.3508659601211548,-4.937505482596749e-13,2.0932486057281494,4.17427842199292,0.00010529941209824756,0.24884140491485596,-1.5896742979632776,-0.0,0.02921108901500702,0.760643720626831,-0.0,-0.03021877072751522,0.846810519695282,-0.00043555733282119036,-0.19735309481620789
818.0,377.0,3.2327,0.0407,8.878,-0.0357,-0.1742,-0.1223,-1.6386267147459925,-0.16508236527442932,2.0787851810455322,-1.350853681564331,0.0004152556648477912,2.042853593826294,4.174290819759033,9.628666884964332e-05,0.24425816535949707,-1.5896261374102991,-0.0,0.04500150680541992,0.7607001662254333,-0.0,-0.020887579768896103,0.8468063473701477,-0.00037684995913878083,-0.17860455811023712
818.0,377.0,3.2327,0.0407,8.878,-0.0357,-0.1742,-0.1223,-1.6399136982359828,-0.16716425120830536,2.0321197509765625,-1.3509576320648193,2.3900572632129524e-09,2.096409320831299,4.174266977901123,7.996697240741923e-05,0.2466563880443573,-1.589653793965475,-9.373034686177562e-07,0.035573240369558334,0.7605994343757629,-0.0,-0.009545593522489071,0.8467823266983032,-0.00034369947388768196,-0.18173468112945557
818.0,377.0,3.2327,0.0407,8.878,-0.0357,-0.1742,-0.1223,-1.6412607632079066,-0.16471034288406372,2.0552773475646973,-1.350913643836975,7.743480574336738e-17,2.058948040008545,4.174266501063965,6.577081512659788e-05,0.23293480277061462,-1.5896623770343226,-1.703502616745567e-11,0.04589759558439255,0.7606639862060547,-0.0,-0.013588634319603443,0.8468390703201294,-0.00032243059831671417,-0.20691031217575073
818.0,377.0,3.2327,0.0407,8.878,-0.0357,-0.1742,-0.1223,-1.642163415948385,-0.1660154014825821,2.1070494651794434,-1.3509095907211304,-0.00023455425980500877,2.0984275341033936,4.174250765437744,6.235309410840273e-05,0.2414368987083435,-1.5896299521075647,-4.741762013013616e-15,0.05551477521657944,0.7606920003890991,-0.0,-0.013781082816421986,0.846818745136261,-0.00032198126427829266,-0.18249516189098358
818.0,377.0,3.2327,0.0407,8.878,-0.0357,-0.1742,-0.1223,-1.6435028515257777,-0.16338177025318146,2.0830955505371094,-1.3509416580200195,-0.00015412223001476377,2.0574324131011963,4.17427842199292,5.8313104091212153e-05,0.23840972781181335,-1.589637581502096,-8.617917234633217e-20,0.046877458691596985,0.760684072971344,-0.0,-0.021884098649024963,0.8467905521392822,-0.0010594866471365094,-0.1688956767320633
818.0,377.0,3.2327,0.0407,8.878,-0.0357,-0.1742,-0.1223,-1.6447416744627894,-0.15626399219036102,2.092970848083496,-1.3510023355484009,-5.740185588365421e-05,2.0550878047943115,4.174226446742676,5.476472870213911e-05,0.24258704483509064,-1.5896742979632776,-1.5662639016165279e-24,0.05592695623636246,0.76065593957901,-0.0,-0.028562773019075394,0.8467383980751038,-0.0033580029848963022,-0.16688042879104614
818.0,377.0,3.2327,0.0407,8.878,-0.0357,-0.1742,-0.1223,-1.6459609470763148,-0.15012851357460022,2.0697569847106934,-1.3509620428085327,-4.573031765175983e-05,2.0771195888519287,4.17422263204541,3.872135130222887e-05,0.23959383368492126,-1.5896943251239222,-2.8466075135331863e-29,0.04116715490818024,0.7606637477874756,-0.0,-0.01139477826654911,0.846746563911438,-0.006883664987981319,-0.2461945116519928
818.0,377.0,3.2327,0.0407,8.878,-0.0357,-0.1742,-0.1223,-1.6471721134581507,-0.14845684170722961,2.063002586364746,-1.350961685180664,-0.00011348313273629174,2.0677764415740967,4.17422263204541,3.661728260340169e-05,0.2422560453414917,-1.5896742979632776,-5.173568288094782e-34,0.03996821120381355,0.7606235146522522,-0.0,-0.027952808886766434,0.8466825485229492,-0.0040072305127978325,-0.23229092359542847
818.0,377.0,3.2327,0.0407,8.878,-0.0357,-0.1742,-0.1223,-1.6483751736082972,-0.1539514809846878,2.019604206085205,-1.3508857488632202,-8.234429697040468e-05,2.0665080547332764,4.174274607295654,-2.493657302693464e-05,0.2400568723678589,-1.589653793965475,-9.402702886530272e-39,0.056448329240083694,0.7606477737426758,-0.0,-0.008620775304734707,0.8466262817382812,-0.0013593058101832867,-0.17247429490089417
818.0,377.0,3.2327,0.0407,8.878,-0.0357,-0.1742,-0.1223,-1.649574419061178,-0.15512721240520477,2.009223222732544,-1.3509299755096436,-1.1975352208537515e-05,2.0206961631774902,4.17424647390332,-2.5482362616457976e-05,0.24285496771335602,-1.589609448109762,-1.7095841264762768e-43,0.06235665827989578,0.7606518864631653,-0.0,-0.018393393605947495,0.8466623425483704,-0.0007898656767793,-0.18915553390979767
818.0,377.0,3.2327,0.0407,8.878,-0.0357,-0.1742,-0.1223,-1.6507765255370082,-0.14283707737922668,2.0846893787384033,-1.3509382009506226,-3.8798621975789926e-13,2.084080696105957,4.174298925990723,-1.208537560160039e-05,0.23203131556510925,-1.5896499792682093,-0.0,0.06343154609203339,0.7606358528137207,-0.0,-0.011271294206380844,0.8466100692749023,-0.000596540339756757,-0.23503828048706055
818.0,377.0,3.2327,0.0407,8.878,-0.0357,-0.1742,-0.1223,-1.6519915066161097,-0.13536353409290314,2.0658035278320312,-1.3509135246276855,-1.2570259064391321e-20,2.0566647052764893,4.174250765437744,-1.1445002201071475e-05,0.2516314387321472,-1.5896742979632776,-0.0,0.0551639162003994,0.7606194615364075,-0.0,-0.02706812508404255,0.8466345071792603,-0.0010303492890670896,-0.22993186116218567
802.0,343.0,2.5753,0.2566,9.2357,-0.0275,-0.1272,-0.1283,-1.6531058750548304,-0.14461353421211243,2.0466182231903076,-1.350961685180664,-4.0726042012103035e-28,2.016427755355835,4.174250765437744,-5.216655699769035e-05,0.23564958572387695,-1.5896781126605433,-0.0,0.056866902858018875,0.7606518268585205,-0.0,-0.008215130306780338,0.8466746211051941,-0.0006295815110206604,-0.21899469196796417
802.0,343.0,2.5753,0.2566,9.2357,-0.0275,-0.1272,-0.1283,-1.6543532810606898,-0.1606118381023407,2.073981285095215,-1.3509891033172607,-0.0010153678013011813,2.070147752761841,4.174226923579834,-4.241153510520235e-05,0.22454378008842468,-1.5896781126605433,-0.0,0.06426461786031723,0.7606477737426758,-0.0,-0.01865859515964985,0.8466746211051941,-0.0004497396876104176,-0.1985611468553543
802.0,343.0,2.5753,0.2566,9.2357,-0.0275,-0.1272,-0.1283,-1.6556278667845667,-0.15713155269622803,2.1019694805145264,-1.3509093523025513,-4.0742280660310826e-09,2.018458366394043,4.174210234279297,-3.568377724150196e-05,0.23687708377838135,-1.5896623770343226,-0.0,0.05579078942537308,0.7606596946716309,-0.0,-0.0187914427369833,0.846610426902771,-0.0003189127310179174,-0.23494559526443481
802.0,343.0,2.5753,0.2566,9.2357,-0.0275,-0.1272,-0.1283,-1.6565948925414027,-0.1430334895849228,2.063171863555908,-1.3509422540664673,0.0022995800245553255,2.0556838512420654,4.17424647390332,-1.945493899313533e-08,0.2312336564064026,-1.589682404194967,-0.0,0.04895781725645065,0.760680079460144,-0.0,-0.0073295338079333305,0.8465778827667236,-0.00041787460213527083,-0.23248639702796936
802.0,343.0,2.5753,0.2566,9.2357,-0.0275,-0.1272,-0.1283,-1.657713075677389,-0.13596168160438538,2.1036808490753174,-1.350898027420044,-0.0008077644160948694,2.0487637519836426,4.174266977901123,-3.5358391561879365e-13,0.23873046040534973,-1.589682404194967,-0.0,0.06139051914215088,0.7606678009033203,-0.0,-0.008601165376603603,0.84665447473526,-0.0008240591268986464,-0.256735235452652
802.0,343.0,2.5753,0.2566,9.2357,-0.0275,-0.1272,-0.1283,-1.6589285335936488,-0.14998576045036316,2.1617393493652344,-1.3509931564331055,-0.003437293227761984,2.0312092304229736,4.1741625505634765,-6.426211909740231e-18,0.2286992371082306,-1.589653793965475,-0.0,0.050158485770225525,0.7606878876686096,-0.0,-0.016981955617666245,0.8466828465461731,-0.0005409301375038922,-0.20807474851608276
802.0,343.0,2.5753,0.2566,9.2357,-0.0275,-0.1272,-0.1283,-1.660182615319723,-0.16542638838291168,2.034252643585205,-1.350976824760437,-0.0018179381731897593,2.064164161682129,4.174226923579834,-1.167932299115737e-22,0.2337607592344284,-1.5896013418780726,-0.0,0.05172239616513252,0.7606637477874756,-0.0,-0.010269039310514927,0.8466303944587708,-0.00045984488679096103,-0.24479512870311737
802.0,343.0,2.5753,0.2566,9.2357,-0.0275,-0.1272,-0.1283,-1.6614896259703578,-0.16078919172286987,2.0705857276916504,-1.3509776592254639,-4.979328309673292e-07,2.0554769039154053,4.17425458013501,-2.1226594511605143e-27,0.23039044439792633,-1.5896747748004358,-0.0,0.06603884696960449,0.7606075406074524,-0.0,-0.0005335442256182432,0.8466183543205261,-0.00044402506318874657,-0.23549894988536835
802.0,343.0,2.5753,0.2566,9.2357,-0.0275,-0.1272,-0.1283,-1.6626917324461878,-0.14156340062618256,2.15209698677063,-1.3509535789489746,0.0025248266756534576,2.0584115982055664,4.174218340510986,-3.8578287552143596e-32,0.22245503962039948,-1.5896218458758753,-0.0,0.053873226046562195,0.76065593957901,-0.0,-0.009507520124316216,0.8466427326202393,-0.0017389616696164012,-0.24523720145225525
802.0,343.0,2.5753,0.2566,9.2357,-0.0275,-0.1272,-0.1283,-1.6638266048827113,-0.14291593432426453,2.167672634124756,-1.3510137796401978,-0.003709280164912343,2.0330679416656494,4.174290819759033,-7.011414130246303e-37,0.23091061413288116,-1.5896332899676722,-0.0,0.05397167056798935,0.7606076598167419,-0.0,-0.008693228475749493,0.846610426902771,-0.0011661631288006902,-0.21191632747650146
802.0,343.0,2.5753,0.2566,9.2357,-0.0275,-0.1272,-0.1283,-1.6650015316405238,-0.15576627850532532,2.084392547607422,-1.3510011434555054,-0.0040163928642869,2.0022945404052734,4.174203081721924,-1.2743408234569886e-41,0.23519042134284973,-1.5896623770343226,-0.0,0.06865520030260086,0.7606075406074524,-0.0,-0.0069595868699252605,0.8466026186943054,-0.0007320003351196647,-0.20540983974933624
802.0,343.0,2.5753,0.2566,9.2357,-0.0275,-0.1272,-0.1283,-1.6662517986693324,-0.16513772308826447,2.0572757720947266,-1.351009726524353,-0.002021549269556999,2.066715955734253,4.174214525813721,-0.0,0.24557989835739136,-1.5896499792682093,-0.0,0.06420104205608368,0.7606555223464966,-0.0,-0.011582219041883945,0.8465902805328369,-0.0004815055290237069,-0.26265043020248413
754.0,342.0,2.5842,0.207,9.326,-0.0298,-0.1151,-0.1217,-1.6674863300719203,-0.15811432898044586,2.1297171115875244,-1.350985050201416,0.0020913081243634224,2.0484156608581543,4.17425458013501,-0.0,0.23811067640781403,-1.589682404194967,-0.0,0.061215415596961975,0.7605912089347839,-0.0,-0.013744705356657505,0.8465947508811951,-0.0011259232414886355,-0.2443448007106781
754.0,342.0,2.5842,0.207,9.326,-0.0298,-0.1151,-0.1217,-1.6687575779356898,-0.14897415041923523,2.1315155029296875,-1.3509933948516846,0.0016197341028600931,2.0519847869873047,4.174234552974365,-5.3047173423692584e-05,0.22447627782821655,-1.5896623770343226,-0.0,0.06534667313098907,0.7606036067008972,-0.0,-0.0008327545365318656,0.8465785384178162,-0.0012058676220476627,-0.257480263710022
754.0,342.0,2.5842,0.207,9.326,-0.0298,-0.1151,-0.1217,-1.6696163616576136,-0.14745619893074036,2.1152148246765137,-1.350985050201416,-0.00029661806183867157,2.0244197845458984,4.1742541032978515,-4.87389370391611e-05,0.23135806620121002,-1.5896700064288538,-0.0,0.05750320851802826,0.760680079460144,-0.0,-0.0033823917619884014,0.8466269373893738,-0.000858534243889153,-0.2219211757183075
