ramyac6/ROB537/final_project/csv/all/bad_184.csv
tof_0,tof_1,accelx,accely,accelz,gyrox,gyroy,gyroz,shoulder_lift_joint_position,shoulder_lift_joint_velocity,shoulder_lift_joint_effort,elbow_joint_position,elbow_joint_velocity,elbow_joint_effort,wrist_1_joint_position,wrist_1_joint_velocity,wrist_1_joint_effort,wrist_2_joint_position,wrist_2_joint_velocity,wrist_2_joint_effort,wrist_3_joint_position,wrist_3_joint_velocity,wrist_3_joint_effort,shoulder_pan_joint_position,shoulder_pan_joint_velocity,shoulder_pan_joint_effort
213.0,221.0,0.7759,-4.6271,8.2134,-0.0389,0.0272,-0.128,-1.8003260097899378,0.0,3.024796962738037,-1.6302342414855957,-0.0,2.115480422973633,4.761890566885032,0.0,0.28850242495536804,-1.1203702131854456,0.0,-0.050751570612192154,0.8187867403030396,-0.0,-0.0036727788392454386,1.0798076391220093,0.0,0.017156703397631645
213.0,221.0,0.7759,-4.6271,8.2134,-0.0389,0.0272,-0.128,-1.8003260097899378,0.0,3.0954136848449707,-1.630202054977417,-0.0,2.116727828979492,4.76190688365654,0.0,0.2749210298061371,-1.1204183737384241,0.0,-0.05937579646706581,0.8187384605407715,-0.0,-0.002346239285543561,1.0798718929290771,0.0,0.006773611530661583
213.0,221.0,0.7759,-4.6271,8.2134,-0.0389,0.0272,-0.128,-1.8003789387144984,0.0,3.102267026901245,-1.6302423477172852,-0.0,2.1108174324035645,4.761930636107483,0.0,0.27801141142845154,-1.1204145590411585,0.0,-0.05071602016687393,0.8187665939331055,-0.0,0.008367359638214111,1.0798399448394775,0.0,0.01971786841750145
213.0,221.0,0.7759,-4.6271,8.2134,-0.0389,0.0272,-0.128,-1.8003102741637171,0.0,3.070483684539795,-1.6302262544631958,-0.0,2.113661050796509,4.761966790049829,0.0,0.29123443365097046,-1.120406452809469,0.0,-0.05375387892127037,0.8187384605407715,-0.0,-0.0048790364526212215,1.0798439979553223,0.0,-0.008885236456990242
213.0,221.0,0.7759,-4.6271,8.2134,-0.0389,0.0272,-0.128,-1.8003417454161585,0.0,3.0802178382873535,-1.630198359489441,-0.0,2.117638349533081,4.761946632504024,0.0,0.28614747524261475,-1.1203387419330042,0.0,-0.05707155168056488,0.8187306523323059,-0.0,0.0006147334352135658,1.079859972000122,0.0,-0.005240447819232941
213.0,221.0,0.7759,-4.6271,8.2134,-0.0389,0.0272,-0.128,-1.8003865681090296,0.0,3.0911002159118652,-1.63027822971344,-0.0,2.123694658279419,4.761922563403406,0.0,0.2919793725013733,-1.120354477559225,0.0,-0.06618671119213104,0.8188225030899048,-0.0,-0.00995691493153572,1.0798640251159668,0.0,-0.006771296262741089
213.0,221.0,0.7759,-4.6271,8.2134,-0.0389,0.0272,-0.128,-1.8003136120238246,0.0,3.0782294273376465,-1.6302177906036377,-0.0,2.08721661567688,4.761922563403406,0.0,0.28848323225975037,-1.1203864256488245,0.0,-0.060739122331142426,0.8187986016273499,-0.0,-0.0029256280977278948,1.0798239707946777,0.0,-0.030451279133558273
213.0,221.0,0.7759,-4.6271,8.2134,-0.0389,0.0272,-0.128,-1.8003260097899378,0.0,3.090829372406006,-1.6302144527435303,-0.0,2.1662967205047607,4.761930636107483,0.0,0.2869528830051422,-1.1203983465777796,0.0,-0.04952811822295189,0.8187142014503479,-0.0,-0.007576584350317717,1.0798439979553223,0.0,0.0013947992119938135
213.0,221.0,0.7759,-4.6271,8.2134,-0.0389,0.0272,-0.128,-1.8003059826292933,0.0,3.137953042984009,-1.630233883857727,-0.0,2.0929665565490723,4.761942635267534,0.0,0.29863452911376953,-1.1203582922564905,0.0,-0.04516089707612991,0.8187707662582397,-0.0,0.0015211316058412194,1.0798239707946777,0.0,-0.0017457352951169014
213.0,221.0,0.7759,-4.6271,8.2134,-0.0389,0.0272,-0.128,-1.8003422222533167,0.0,3.0865957736968994,-1.6301900148391724,-0.0,2.114508628845215,4.761898639589109,0.0,0.28766995668411255,-1.120354954396383,0.0,-0.054015953093767166,0.8187785148620605,-0.0,0.0010411434341222048,1.0798362493515015,0.0,0.04098396748304367
215.0,221.0,0.7125,-4.6271,8.2247,-0.0348,0.0308,-0.1309,-1.8003746471800746,0.0,3.0535969734191895,-1.6301859617233276,-0.0,2.1153664588928223,4.761950506805935,0.0,0.28755655884742737,-1.1204026381122034,0.0,-0.051066674292087555,0.818750262260437,-0.0,0.008133579045534134,1.0798476934432983,0.0,0.025624148547649384
215.0,221.0,0.7125,-4.6271,8.2247,-0.0348,0.0308,-0.1309,-1.8003622494139613,0.0,3.118335723876953,-1.6302098035812378,-0.0,2.134514331817627,4.7619466474051855,0.0,0.2819370627403259,-1.1203702131854456,0.0,-0.05461990460753441,0.818758487701416,-0.0,0.01424100436270237,1.0798640251159668,0.0,-0.008834870532155037
215.0,221.0,0.7125,-4.6271,8.2247,-0.0348,0.0308,-0.1309,-1.800382753411764,0.0,3.0765843391418457,-1.6302342414855957,-0.0,2.150026559829712,4.761930293380775,0.0,0.27741363644599915,-1.1204145590411585,0.0,-0.06031409651041031,0.8188061118125916,-0.0,0.0038454863242805004,1.0798320770263672,0.0,0.0094865458086133
215.0,221.0,0.7125,-4.6271,8.2247,-0.0348,0.0308,-0.1309,-1.800370832482809,0.0,3.1273372173309326,-1.6302462816238403,-0.0,2.150811195373535,4.761938574701109,0.0,0.2988170385360718,-1.1203582922564905,0.0,-0.06343946605920792,0.8187986016273499,-0.0,0.007378170266747475,1.0798476934432983,0.0,-0.018204905092716217
215.0,221.0,0.7125,-4.6271,8.2247,-0.0348,0.0308,-0.1309,-1.800337930718893,0.0,3.087765693664551,-1.630233883857727,-0.0,2.110218048095703,4.761906861304798,0.0,0.2973599433898926,-1.1203745047198694,0.0,-0.050379201769828796,0.818774402141571,-0.0,-0.0005646706558763981,1.0799165964126587,0.0,0.007838278077542782
215.0,221.0,0.7125,-4.6271,8.2247,-0.0348,0.0308,-0.1309,-1.8003136120238246,0.0,3.094778060913086,-1.6302342414855957,-0.0,2.079108715057373,4.761874585389652,0.0,0.2776062488555908,-1.1204341093646448,0.0,-0.06366266310214996,0.8187544345855713,-0.0,0.01121480017900467,1.079844355583191,0.0,0.009861283004283905
215.0,221.0,0.7125,-4.6271,8.2247,-0.0348,0.0308,-0.1309,-1.8003298244872035,0.0,3.1115164756774902,-1.630202293395996,-0.0,2.1452889442443848,4.76190688365654,0.0,0.2868800461292267,-1.1203902403460901,0.0,-0.054903626441955566,0.8187181949615479,-0.0,-0.014684006571769714,1.079856276512146,0.0,0.00021404738072305918
215.0,221.0,0.7125,-4.6271,8.2247,-0.0348,0.0308,-0.1309,-1.80035462001943,0.0,3.119631052017212,-1.6302701234817505,-0.0,2.088937997817993,4.761970876693287,0.0,0.28519418835639954,-1.1203582922564905,0.0,-0.04823567345738411,0.8187342882156372,-0.0,0.004427737090736628,1.0799041986465454,0.0,0.016640549525618553
215.0,221.0,0.7125,-4.6271,8.2247,-0.0348,0.0308,-0.1309,-1.8003021679320277,0.0,3.0760908126831055,-1.6302218437194824,-0.0,2.1269161701202393,4.761898665666141,0.0,0.28672900795936584,-1.12036639848818,0.0,-0.04850438982248306,0.8187625408172607,-0.0,0.009133654646575451,1.0798799991607666,0.0,0.01376311108469963
215.0,221.0,0.7125,-4.6271,8.2247,-0.0348,0.0308,-0.1309,-1.8003303013243617,0.0,3.0872697830200195,-1.6302298307418823,-0.0,2.133056879043579,4.761938552349367,0.0,0.2779535949230194,-1.1203582922564905,0.0,-0.04818820208311081,0.8187665939331055,-0.0,0.006744246929883957,1.0798158645629883,0.0,-0.004355733282864094
215.0,221.0,0.7125,-4.6271,8.2247,-0.0348,0.0308,-0.1309,-1.8003179035582484,0.0,3.072288990020752,-1.6302342414855957,-0.0,2.1099584102630615,4.761914289533653,0.0,0.3012225031852722,-1.1203349272357386,0.0,-0.055375657975673676,0.8188101649284363,-0.0,0.007065195124596357,1.0798718929290771,0.0,-0.06675203144550323
215.0,221.0,0.7125,-4.6271,8.2247,-0.0348,0.0308,-0.1309,-1.8003260097899378,0.0,3.0969371795654297,-1.6302183866500854,-0.0,2.1222169399261475,4.761922541051664,0.0,0.282953679561615,-1.1203702131854456,0.0,-0.04359724372625351,0.818750262260437,-0.0,-0.006160230375826359,1.079811692237854,0.0,-0.0008053830824792385
215.0,221.0,0.7125,-4.6271,8.2247,-0.0348,0.0308,-0.1309,-1.8003422222533167,0.0,3.114889144897461,-1.630198359489441,-0.0,2.1062681674957275,4.761958616762914,0.0,0.28977465629577637,-1.120406452809469,0.0,-0.06203979253768921,0.8187425136566162,-0.0,-0.005652543623000383,1.0798439979553223,0.0,0.02641342207789421
215.0,221.0,0.7125,-4.6271,8.2247,-0.0348,0.0308,-0.1309,-1.800366540948385,0.0,3.1036436557769775,-1.6302103996276855,-0.0,2.09816312789917,4.761906861304798,0.0,0.2789774537086487,-1.1203983465777796,0.0,-0.05901205539703369,0.8188108801841736,-0.0,-0.008500884287059307,1.0798718929290771,0.0,-0.00900542177259922
215.0,221.0,0.7125,-4.6271,8.2247,-0.0348,0.0308,-0.1309,-1.8003183803954066,0.0,3.107506275177002,-1.6302582025527954,-0.0,2.1028599739074707,4.7619548355932615,0.0,0.2956526577472687,-1.1203983465777796,0.0,-0.04247449338436127,0.8187381625175476,-0.0,0.00949725043028593,1.0798358917236328,0.0,-0.017544951289892197
215.0,221.0,0.7125,-4.6271,8.2247,-0.0348,0.0308,-0.1309,-1.8003303013243617,0.0,3.0729055404663086,-1.6302063465118408,-0.0,2.104522705078125,4.7619385597999475,0.0,0.29280757904052734,-1.120343033467428,0.0,-0.05615141987800598,0.818750262260437,-0.0,0.012113586068153381,1.0798439979553223,0.0,0.012599106878042221
215.0,221.0,0.7125,-4.6271,8.2247,-0.0348,0.0308,-0.1309,-1.8003422222533167,0.0,3.127033233642578,-1.6302661895751953,-0.0,2.099961757659912,4.761946654855766,0.0,0.294564813375473,-1.12036639848818,0.0,-0.05761763080954552,0.8187544345855713,-0.0,-0.0011285190703347325,1.079811692237854,0.0,-0.03992351144552231
215.0,221.0,0.7125,-4.6271,8.2247,-0.0348,0.0308,-0.1309,-1.8003541431822718,0.0,3.139862537384033,-1.6302063465118408,-0.0,2.1451807022094727,4.76190277093605,0.0,0.2818572521209717,-1.1203582922564905,0.0,-0.05322758108377457,0.818762481212616,-0.0,-0.0035015293397009373,1.0798439979553223,0.0,-0.013978785835206509
215.0,226.0,0.7705,-4.6798,8.1344,-0.0415,0.0267,-0.119,-1.8003622494139613,0.0,3.1288719177246094,-1.6302423477172852,-0.0,2.1165549755096436,4.761922574579277,0.0,0.2868019938468933,-1.1203349272357386,0.0,-0.05926940590143204,0.8187420964241028,-0.0,0.0033486916217952967,1.0799006223678589,0.0,0.045871127396821976
215.0,226.0,0.7705,-4.6798,8.1344,-0.0415,0.0267,-0.119,-1.8003951511778773,0.0,3.11155366897583,-1.6301939487457275,-0.0,2.0869898796081543,4.761910947948255,0.0,0.2814454734325409,-1.12036639848818,0.0,-0.04408387094736099,0.81878262758255,-0.0,0.008503876626491547,1.0798076391220093,0.0,0.014801586046814919
215.0,226.0,0.7705,-4.6798,8.1344,-0.0415,0.0267,-0.119,-1.800309797326559,0.0,3.1121840476989746,-1.6302103996276855,-0.0,2.1265475749969482,4.761922559678116,0.0,0.28790903091430664,-1.1204188505755823,0.0,-0.05170084908604622,0.8187785148620605,-0.0,-0.0028315428644418716,1.0797994136810303,0.0,0.041220638900995255
215.0,226.0,0.7705,-4.6798,8.1344,-0.0415,0.0267,-0.119,-1.800337930718893,0.0,3.105772018432617,-1.6302262544631958,-0.0,2.0901732444763184,4.761906861304798,0.0,0.2898457646369934,-1.1203983465777796,0.0,-0.055979207158088684,0.8186941742897034,-0.0,-0.014274539425969124,1.079868197441101,0.0,-0.007870994508266449
215.0,226.0,0.7705,-4.6798,8.1344,-0.0415,0.0267,-0.119,-1.8003541431822718,0.0,3.152827739715576,-1.6302258968353271,-0.0,2.101346254348755,4.7618544203932665,0.0,0.2918880581855774,-1.120354477559225,0.0,-0.04513051360845566,0.8187265396118164,-0.0,-0.008119631558656693,1.0797916650772095,0.0,0.0064831748604774475
215.0,226.0,0.7705,-4.6798,8.1344,-0.0415,0.0267,-0.119,-1.8003465137877406,0.0,3.101951837539673,-1.6302742958068848,-0.0,2.125171661376953,4.761962688505211,0.0,0.2943769693374634,-1.1203344503985804,0.0,-0.05470006540417671,0.8187785148620605,-0.0,0.002489630365744233,1.0798399448394775,0.0,0.019562702625989914
215.0,226.0,0.7705,-4.6798,8.1344,-0.0415,0.0267,-0.119,-1.8003303013243617,0.0,3.1103925704956055,-1.630198359489441,-0.0,2.127270221710205,4.761922548502245,0.0,0.28464776277542114,-1.120406452809469,0.0,-0.057539939880371094,0.8188101649284363,-0.0,0.0023158083204180002,1.0798358917236328,0.0,-0.04304696246981621
215.0,226.0,0.7705,-4.6798,8.1344,-0.0415,0.0267,-0.119,-1.8003503284850062,0.0,3.097097873687744,-1.6301900148391724,-0.0,2.1469075679779053,4.761910947948255,0.0,0.29219335317611694,-1.1203702131854456,0.0,-0.05495242774486542,0.8188265562057495,-0.0,0.004970779176801443,1.0798439979553223,0.0,0.04516652226448059
215.0,226.0,0.7705,-4.6798,8.1344,-0.0415,0.0267,-0.119,-1.8003465137877406,0.0,3.1375932693481445,-1.6302103996276855,-0.0,2.1290903091430664,4.761954608350553,0.0,0.29228702187538147,-1.12036639848818,0.0,-0.05680112540721893,0.818770706653595,-0.0,0.004657082725316286,1.0798640251159668,0.0,-0.046009402722120285
215.0,226.0,0.7705,-4.6798,8.1344,-0.0415,0.0267,-0.119,-1.800337930718893,0.0,3.0766210556030273,-1.630213737487793,-0.0,2.1170244216918945,4.761906842678346,0.0,0.2792772650718689,-1.120343033467428,0.0,-0.04712009057402611,0.8187421560287476,-0.0,0.0007631964981555939,1.079811692237854,0.0,-0.013921214267611504
215.0,226.0,0.7705,-4.6798,8.1344,-0.0415,0.0267,-0.119,-1.8003584347166957,0.0,3.102384328842163,-1.630213737487793,-0.0,2.1179728507995605,4.7619668012257,0.0,0.2829853594303131,-1.1203821341144007,0.0,-0.0494108572602272,0.8187342882156372,-0.0,-0.00023572880309075117,1.079819917678833,0.0,0.005367036908864975
215.0,226.0,0.7705,-4.6798,8.1344,-0.0415,0.0267,-0.119,-1.8003260097899378,0.0,3.106593370437622,-1.6302423477172852,-0.0,2.1313560009002686,4.761886442988672,0.0,0.27775686979293823,-1.1203702131854456,0.0,-0.057759299874305725,0.818758487701416,-0.0,0.011823014356195927,1.079848051071167,0.0,-0.012176407501101494
215.0,226.0,0.7705,-4.6798,8.1344,-0.0415,0.0267,-0.119,-1.800337930718893,0.0,3.090144395828247,-1.6302218437194824,-0.0,2.1134114265441895,4.761926638870992,0.0,0.2913269102573395,-1.120354477559225,0.0,-0.054619200527668,0.8186859488487244,-0.0,0.007431334815919399,1.0798399448394775,0.0,0.032873596996068954
215.0,226.0,0.7705,-4.6798,8.1344,-0.0415,0.0267,-0.119,-1.8003260097899378,0.0,3.099994659423828,-1.630202054977417,-0.0,2.1293160915374756,4.761894620000877,0.0,0.2869406044483185,-1.1203387419330042,0.0,-0.05136149376630783,0.818778932094574,-0.0,0.01071466039866209,1.0797793865203857,0.0,-0.03191141411662102
215.0,226.0,0.7705,-4.6798,8.1344,-0.0415,0.0267,-0.119,-1.8003422222533167,0.0,3.0982718467712402,-1.6302542686462402,-0.0,2.103595733642578,4.761958657741108,0.0,0.2834823429584503,-1.1202943960772913,0.0,-0.05814211070537567,0.8187986016273499,-0.0,0.00674264645203948,1.0798358917236328,0.0,-0.01884009689092636
215.0,226.0,0.7705,-4.6798,8.1344,-0.0415,0.0267,-0.119,-1.8003465137877406,0.0,3.0825037956237793,-1.6302622556686401,-0.0,2.074741840362549,4.761930300831356,0.0,0.28374773263931274,-1.120354477559225,0.0,-0.05924925208091736,0.8187665939331055,-0.0,0.0024436251260340214,1.0798076391220093,0.0,0.009953044354915619
215.0,226.0,0.7705,-4.6798,8.1344,-0.0415,0.0267,-0.119,-1.8003746471800746,0.0,3.0648505687713623,-1.6302382946014404,-0.0,2.1031782627105713,4.761942650168695,0.0,0.28518590331077576,-1.1203387419330042,0.0,-0.06633901596069336,0.8188021183013916,-0.0,-0.005585183389484882,1.079859972000122,0.0,0.016859861090779305
215.0,226.0,0.7705,-4.6798,8.1344,-0.0415,0.0267,-0.119,-1.800370832482809,0.0,3.0753374099731445,-1.6302582025527954,-0.0,2.1017580032348633,4.7618823302681825,0.0,0.289442241191864,-1.1203582922564905,0.0,-0.04256493225693703,0.818726122379303,-0.0,-0.0108334356918931,1.0798362493515015,0.0,-0.028254196047782898
218.0,212.0,0.7813,-4.6528,8.2433,-0.0396,0.0286,-0.1242,-1.8003746471800746,0.0,3.101505756378174,-1.6302103996276855,-0.0,2.0699193477630615,4.761902808188953,0.0,0.29185521602630615,-1.1203864256488245,0.0,-0.055928900837898254,0.8188027739524841,-0.0,0.0012875059619545937,1.0798239707946777,0.0,0.010555770248174667
218.0,212.0,0.7813,-4.6528,8.2433,-0.0396,0.0286,-0.1242,-1.8003221950926722,0.0,3.0797343254089355,-1.630298137664795,-0.0,2.105006694793701,4.761922563403406,0.0,0.2898671627044678,-1.1203902403460901,0.0,-0.060339976102113724,0.818790853023529,-0.0,0.008554551750421524,1.0798239707946777,0.0,0.0373259112238884
218.0,212.0,0.7813,-4.6528,8.2433,-0.0396,0.0286,-0.1242,-1.800370832482809,0.0,3.089376926422119,-1.6301900148391724,-0.0,2.1624765396118164,4.761930654733934,0.0,0.2888725697994232,-1.1203511396991175,0.0,-0.05903773009777069,0.8187907934188843,-0.0,0.0033288919366896152,1.0798157453536987,0.0,0.022483525797724724
218.0,212.0,0.7813,-4.6528,8.2433,-0.0396,0.0286,-0.1242,-1.8003584347166957,0.0,3.1016223430633545,-1.6302820444107056,-0.0,2.080583095550537,4.761902808188953,0.0,0.2998708486557007,-1.1204221884356897,0.0,-0.06103476136922836,0.818750262260437,-0.0,0.004467359744012356,1.0798317193984985,0.0,0.029125303030014038
218.0,212.0,0.7813,-4.6528,8.2433,-0.0396,0.0286,-0.1242,-1.8003422222533167,0.0,3.1151018142700195,-1.630202293395996,-0.0,2.1340060234069824,4.761962666153469,0.0,0.28802141547203064,-1.1204145590411585,0.0,-0.05358655005693436,0.8187785744667053,-0.0,-0.013420945964753628,1.079859972000122,0.0,-0.0116002531722188
218.0,212.0,0.7813,-4.6528,8.2433,-0.0396,0.0286,-0.1242,-1.8003584347166957,0.0,3.1012613773345947,-1.630213737487793,-0.0,2.1516075134277344,4.7619708990450285,0.0,0.2945999801158905,-1.1203745047198694,0.0,-0.05722227692604065,0.8188061118125916,-0.0,-0.0015777655644342303,1.0798559188842773,0.0,0.007540200836956501
218.0,212.0,0.7813,-4.6528,8.2433,-0.0396,0.0286,-0.1242,-1.800349851647848,0.0,3.1120448112487793,-1.630230188369751,-0.0,2.071014165878296,4.761954556196489,0.0,0.28901970386505127,-1.1204145590411585,0.0,-0.04868065565824509,0.8187785148620605,-0.0,0.014241671189665794,1.0798320770263672,0.0,0.020693209022283554
218.0,212.0,0.7813,-4.6528,8.2433,-0.0396,0.0286,-0.1242,-1.800370832482809,0.0,3.1629576683044434,-1.6302140951156616,-0.0,2.1023976802825928,4.761910951673546,0.0,0.2910371422767639,-1.1204145590411585,0.0,-0.06035032868385315,0.8188068270683289,-0.0,0.005287670996040106,1.0798882246017456,0.0,-0.002439140807837248
218.0,212.0,0.7813,-4.6528,8.2433,-0.0396,0.0286,-0.1242,-1.8003422222533167,0.0,3.0916547775268555,-1.6302545070648193,-0.0,2.1183552742004395,4.761934484332361,0.0,0.2913387715816498,-1.120354477559225,0.0,-0.05476752668619156,0.8187384605407715,-0.0,-0.011250639334321022,1.0798439979553223,0.0,0.002199556678533554
218.0,212.0,0.7813,-4.6528,8.2433,-0.0396,0.0286,-0.1242,-1.8003422222533167,0.0,3.063591718673706,-1.6301980018615723,-0.0,2.0993800163269043,4.761974952160873,0.0,0.2787485718727112,-1.1203983465777796,0.0,-0.06471801549196243,0.818750262260437,-0.0,-0.010283717885613441,1.0798439979553223,0.0,-0.024195045232772827
218.0,212.0,0.7813,-4.6528,8.2433,-0.0396,0.0286,-0.1242,-1.8003422222533167,0.0,3.1016969680786133,-1.630213737487793,-0.0,2.0756168365478516,4.76190688365654,0.0,0.28900855779647827,-1.12036639848818,0.0,-0.059359222650527954,0.8187990188598633,-0.0,0.0018434447702020407,1.079859972000122,0.0,4.090648144483566e-05
218.0,212.0,0.7813,-4.6528,8.2433,-0.0396,0.0286,-0.1242,-1.8003140888609828,0.0,3.083798408508301,-1.6302218437194824,-0.0,2.1439528465270996,4.761934484332361,0.0,0.28587567806243896,-1.120406452809469,0.0,-0.05108841508626938,0.8187420964241028,-0.0,0.003418823005631566,1.079868197441101,0.0,-0.0026046312414109707
218.0,212.0,0.7813,-4.6528,8.2433,-0.0396,0.0286,-0.1242,-1.800366540948385,0.0,3.1158981323242188,-1.6302701234817505,-0.0,2.1128361225128174,4.76193859332756,0.0,0.2869911789894104,-1.1203983465777796,0.0,-0.04685983434319496,0.8187421560287476,-0.0,0.0006535643478855491,1.0798759460449219,0.0,-0.029364515095949173
218.0,212.0,0.7813,-4.6528,8.2433,-0.0396,0.0286,-0.1242,-1.8003345928587855,0.0,3.1100547313690186,-1.6302144527435303,-0.0,2.1313066482543945,4.76194633075551,0.0,0.29179802536964417,-1.1203392187701624,0.0,-0.0529157817363739,0.818750262260437,-0.0,0.004247498698532581,1.079859972000122,0.0,-0.027811985462903976
218.0,212.0,0.7813,-4.6528,8.2433,-0.0396,0.0286,-0.1242,-1.800286432305807,0.0,3.1166586875915527,-1.6302622556686401,-0.0,2.149554967880249,4.761942624091663,0.0,0.28658217191696167,-1.1203387419330042,0.0,-0.06847978383302689,0.8187986016273499,-0.0,0.0009283185354433954,1.0798157453536987,0.0,0.0064826179295778275
218.0,212.0,0.7813,-4.6528,8.2433,-0.0396,0.0286,-0.1242,-1.8003541431822718,0.0,3.1252729892730713,-1.630230188369751,-0.0,2.1462769508361816,4.761958635389366,0.0,0.2798350751399994,-1.1203344503985804,0.0,-0.059934332966804504,0.8187665939331055,-0.0,-0.003954252693802118,1.0798076391220093,0.0,0.008351139724254608
218.0,212.0,0.7813,-4.6528,8.2433,-0.0396,0.0286,-0.1242,-1.8003260097899378,0.0,3.144515037536621,-1.63027822971344,-0.0,2.1065635681152344,4.761966834753313,0.0,0.282767653465271,-1.1203902403460901,0.0,-0.04797077924013138,0.8187748193740845,-0.0,-0.009315934032201767,1.0798317193984985,0.0,0.025298891589045525
218.0,212.0,0.7813,-4.6528,8.2433,-0.0396,0.0286,-0.1242,-1.8003303013243617,0.0,3.141960382461548,-1.6302177906036377,-0.0,2.1103227138519287,4.761958635389366,0.0,0.29034751653671265,-1.120406452809469,0.0,-0.06126254424452782,0.8187306523323059,-0.0,0.0030958447605371475,1.0798801183700562,0.0,0.01716746762394905
215.0,226.0,0.7842,-4.6606,8.2648,-0.0307,0.0237,-0.1229,-1.8003746471800746,0.0,3.0745153427124023,-1.6301980018615723,-0.0,2.1167094707489014,4.761958650290527,0.0,0.28130173683166504,-1.1204302946673792,0.0,-0.05280705541372299,0.8187986016273499,-0.0,0.007353474386036396,1.0798157453536987,0.0,-0.005354943219572306
215.0,226.0,0.7842,-4.6606,8.2648,-0.0307,0.0237,-0.1229,-1.8003221950926722,0.0,3.055354595184326,-1.6302298307418823,-0.0,2.120020866394043,4.761942635267534,0.0,0.2895498275756836,-1.120406452809469,0.0,-0.04985819011926651,0.8187748193740845,-0.0,-0.002229920122772455,1.0798358917236328,0.0,-0.021239232271909714
215.0,226.0,0.7842,-4.6606,8.2648,-0.0307,0.0237,-0.1229,-1.8003503284850062,0.0,3.0987424850463867,-1.630213737487793,-0.0,2.1062111854553223,4.761918484210529,0.0,0.2881406247615814,-1.120326344166891,0.0,-0.04949828237295151,0.8187342286109924,-0.0,-0.007334430702030659,1.0798841714859009,0.0,0.024105602875351906
215.0,226.0,0.7842,-4.6606,8.2648,-0.0307,0.0237,-0.1229,-1.8003584347166957,0.0,3.0897774696350098,-1.6302464008331299,-0.0,2.1785764694213867,4.761950480728903,0.0,0.28559496998786926,-1.1203506628619593,0.0,-0.0611802414059639,0.8187301754951477,-0.0,0.003048069542273879,1.0798399448394775,0.0,-0.004710499197244644
215.0,226.0,0.7842,-4.6606,8.2648,-0.0307,0.0237,-0.1229,-1.8003221950926722,0.0,3.074180841445923,-1.6302177906036377,-0.0,2.1281468868255615,4.761958635389366,0.0,0.28697681427001953,-1.12036639848818,0.0,-0.05407316982746124,0.8187101483345032,-0.0,0.0022477111779153347,1.079807996749878,0.0,-0.002462230622768402
215.0,226.0,0.7842,-4.6606,8.2648,-0.0307,0.0237,-0.1229,-1.8003422222533167,0.0,3.095020294189453,-1.6301538944244385,-0.0,2.0623855590820312,4.761922567128696,0.0,0.2919168472290039,-1.1203582922564905,0.0,-0.03651541471481323,0.8187945485115051,-0.0,0.0012973860139027238,1.0798559188842773,0.0,-0.0050992281176149845
215.0,226.0,0.7842,-4.6606,8.2648,-0.0307,0.0237,-0.1229,-1.8003584347166957,0.0,3.05714750289917,-1.6302502155303955,-0.0,2.1112658977508545,4.76190688365654,0.0,0.29200682044029236,-1.1203702131854456,0.0,-0.05975927412509918,0.8187301158905029,-0.0,-0.00646841200068593,1.0798439979553223,0.0,0.02900194376707077
215.0,226.0,0.7842,-4.6606,8.2648,-0.0307,0.0237,-0.1229,-1.8003303013243617,0.0,3.137873649597168,-1.6302464008331299,-0.0,2.1277973651885986,4.761962628900566,0.0,0.28797224164009094,-1.1203425566302698,0.0,-0.07236681878566742,0.818762481212616,-0.0,0.01676313392817974,1.0798362493515015,0.0,0.013282028026878834
215.0,226.0,0.7842,-4.6606,8.2648,-0.0307,0.0237,-0.1229,-1.8002859554686488,0.0,3.1039609909057617,-1.6302103996276855,-0.0,2.0701708793640137,4.761950480728903,0.0,0.2848798930644989,-1.1203702131854456,0.0,-0.04396069049835205,0.818750262260437,-0.0,0.004002029076218605,1.0798640251159668,0.0,-0.007984359748661518
215.0,226.0,0.7842,-4.6606,8.2648,-0.0307,0.0237,-0.1229,-1.8003746471800746,0.0,3.079927444458008,-1.6302622556686401,-0.0,2.143235921859741,4.761954556196489,0.0,0.28800931572914124,-1.1204302946673792,0.0,-0.04940300062298775,0.8187342882156372,-0.0,0.007004007697105408,1.0799005031585693,0.0,0.007569335401058197
215.0,226.0,0.7842,-4.6606,8.2648,-0.0307,0.0237,-0.1229,-1.8003541431822718,0.0,3.0640029907226562,-1.6302820444107056,-0.0,2.1165661811828613,4.76190688365654,0.0,0.2946939766407013,-1.1203864256488245,0.0,-0.04782537370920181,0.8187785148620605,-0.0,0.002298519015312195,1.079868197441101,0.0,0.022616498172283173
215.0,226.0,0.7842,-4.6606,8.2648,-0.0307,0.0237,-0.1229,-1.8003422222533167,0.0,3.0567469596862793,-1.6302218437194824,-0.0,2.067288637161255,4.761982797622242,0.0,0.2868086099624634,-1.1203702131854456,0.0,-0.05941252410411835,0.8187748193740845,-0.0,-0.0026788245886564255,1.0798640251159668,0.0,0.03688660264015198
215.0,226.0,0.7842,-4.6606,8.2648,-0.0307,0.0237,-0.1229,-1.8003059826292933,0.0,3.0961337089538574,-1.6302502155303955,-0.0,2.1159420013427734,4.761902756034889,0.0,0.28535836935043335,-1.1203864256488245,0.0,-0.042599327862262726,0.8187785744667053,-0.0,0.004849123302847147,1.079859972000122,0.0,0.0228605717420578
215.0,226.0,0.7842,-4.6606,8.2648,-0.0307,0.0237,-0.1229,-1.800337930718893,0.0,3.108165740966797,-1.6302382946014404,-0.0,2.0981132984161377,4.761910940497675,0.0,0.27169737219810486,-1.120354954396383,0.0,-0.057930245995521545,0.8187626004219055,-0.0,-0.0032273484393954277,1.0798476934432983,0.0,0.01655798964202404
215.0,226.0,0.7842,-4.6606,8.2648,-0.0307,0.0237,-0.1229,-1.8003422222533167,0.0,3.126487970352173,-1.6302942037582397,-0.0,2.1021862030029297,4.761934484332361,0.0,0.27847597002983093,-1.120350186024801,0.0,-0.06051178276538849,0.8188225030899048,-0.0,0.015752598643302917,1.0798640251159668,0.0,-0.009609730914235115
215.0,226.0,0.7842,-4.6606,8.2648,-0.0307,0.0237,-0.1229,-1.8003622494139613,0.0,3.084820032119751,-1.630222201347351,-0.0,2.1443824768066406,4.7619225708539865,0.0,0.2857503592967987,-1.1203582922564905,0.0,-0.054113343358039856,0.8187584280967712,-0.0,0.0018675983883440495,1.0798678398132324,0.0,-0.015093185007572174
215.0,226.0,0.7842,-4.6606,8.2648,-0.0307,0.0237,-0.1229,-1.8003584347166957,0.0,3.0850563049316406,-1.6302502155303955,-0.0,2.131059169769287,4.761938574701109,0.0,0.29058757424354553,-1.1203864256488245,0.0,-0.05469280481338501,0.8187142014503479,-0.0,-0.013062887825071812,1.0797755718231201,0.0,-0.016093868762254715
215.0,226.0,0.7842,-4.6606,8.2648,-0.0307,0.0237,-0.1229,-1.8003622494139613,0.0,3.090014934539795,-1.6301980018615723,-0.0,2.123953342437744,4.7619191882903955,0.0,0.2944035232067108,-1.12036639848818,0.0,-0.05375168099999428,0.8187748193740845,-0.0,0.0011747138341888785,1.0798239707946777,0.0,-0.029808558523654938
216.0,225.0,0.7819,-4.6816,8.217,-0.033,0.0319,-0.1295,-1.8003746471800746,0.0,3.093151569366455,-1.63027822971344,-0.0,2.102792501449585,4.761946632504024,0.0,0.2809029817581177,-1.1203902403460901,0.0,-0.05510656535625458,0.818758487701416,-0.0,-0.003314765403047204,1.0798399448394775,0.0,-0.0016323748277500272
216.0,225.0,0.7819,-4.6816,8.217,-0.033,0.0319,-0.1295,-1.8003460369505824,0.0,3.131842613220215,-1.6302262544631958,-0.0,2.094944477081299,4.761930617481031,0.0,0.2799418270587921,-1.1203864256488245,0.0,-0.052709318697452545,0.8187867403030396,-0.0,-0.0045961616560816765,1.0798399448394775,0.0,-0.025274036452174187
216.0,225.0,0.7819,-4.6816,8.217,-0.033,0.0319,-0.1295,-1.8003179035582484,0.0,3.0799670219421387,-1.6302342414855957,-0.0,2.1229288578033447,4.761958635389366,0.0,0.2828656733036041,-1.1203983465777796,0.0,-0.05521544814109802,0.818778932094574,-0.0,-0.005203583277761936,1.0798559188842773,0.0,-0.014921125955879688
216.0,225.0,0.7819,-4.6816,8.217,-0.033,0.0319,-0.1295,-1.8003584347166957,0.0,3.0956223011016846,-1.630202293395996,-0.0,2.0971434116363525,4.761918469309368,0.0,0.27339163422584534,-1.1203864256488245,0.0,-0.048990398645401,0.8187825679779053,-0.0,0.0074004833586514,1.079859972000122,0.0,-0.003128142561763525
216.0,225.0,0.7819,-4.6816,8.217,-0.033,0.0319,-0.1295,-1.8003908596434535,0.0,3.07865571975708,-1.6302144527435303,-0.0,2.081655979156494,4.761906909733572,0.0,0.2956966161727905,-1.1203506628619593,0.0,-0.05344146490097046,0.8188184499740601,-0.0,-0.01277603954076767,1.0798559188842773,0.0,0.019237695261836052
216.0,225.0,0.7819,-4.6816,8.217,-0.033,0.0319,-0.1295,-1.8003541431822718,0.0,3.063373327255249,-1.630213737487793,-0.0,2.1181840896606445,4.761942650168695,0.0,0.28701847791671753,-1.120417896901266,0.0,-0.05439741536974907,0.8187785148620605,-0.0,-0.005455690901726484,1.0798841714859009,0.0,-0.012406257912516594
216.0,225.0,0.7819,-4.6816,8.217,-0.033,0.0319,-0.1295,-1.8003341160216273,0.0,3.0925846099853516,-1.6302461624145508,-0.0,2.1156485080718994,4.761958665191688,0.0,0.28935495018959045,-1.120354954396383,0.0,-0.047571245580911636,0.8188021183013916,-0.0,0.0031817834824323654,1.0798559188842773,0.0,0.011863980442285538
216.0,225.0,0.7819,-4.6816,8.217,-0.033,0.0319,-0.1295,-1.800366540948385,0.0,3.10737943649292,-1.630213737487793,-0.0,2.114537239074707,4.76190277093605,0.0,0.2946019172668457,-1.1203582922564905,0.0,-0.04141172021627426,0.8187544345855713,-0.0,-0.0048402827233076096,1.0798439979553223,0.0,0.014347024261951447
216.0,225.0,0.7819,-4.6816,8.217,-0.033,0.0319,-0.1295,-1.8003541431822718,0.0,3.0888800621032715,-1.6302342414855957,-0.0,2.122260093688965,4.761942650168695,0.0,0.29354503750801086,-1.120406452809469,0.0,-0.06198452040553093,0.8187584280967712,-0.0,0.00017443508841097355,1.0798718929290771,0.0,-0.04513552784919739
216.0,225.0,0.7819,-4.6816,8.217,-0.033,0.0319,-0.1295,-1.8003622494139613,0.0,3.105076313018799,-1.630181908607483,-0.0,2.1395275592803955,4.76195457109765,0.0,0.2846342623233795,-1.1203511396991175,0.0,-0.05988849326968193,0.8187425136566162,-0.0,0.0013862285995855927,1.0798280239105225,0.0,0.027705363929271698
216.0,225.0,0.7819,-4.6816,8.217,-0.033,0.0319,-0.1295,-1.8003622494139613,0.0,3.083489418029785,-1.630213737487793,-0.0,2.0892906188964844,4.76190277093605,0.0,0.2940124273300171,-1.1203344503985804,0.0,-0.0601954385638237,0.8187867403030396,-0.0,-0.004034267272800207,1.0798197984695435,0.0,-0.004180822987109423
216.0,225.0,0.7819,-4.6816,8.217,-0.033,0.0319,-0.1295,-1.8003541431822718,0.0,3.0829110145568848,-1.630181908607483,-0.0,2.0839953422546387,4.761946654855766,0.0,0.2735443711280823,-1.120354954396383,0.0,-0.06041187047958374,0.818762481212616,-0.0,0.008456279523670673,1.0798157453536987,0.0,-0.0002833676990121603
216.0,225.0,0.7819,-4.6816,8.217,-0.033,0.0319,-0.1295,-1.8003260097899378,0.0,3.0576562881469727,-1.630185842514038,-0.0,2.147031307220459,4.761946680932798,0.0,0.304593026638031,-1.1204145590411585,0.0,-0.05176312476396561,0.8187867999076843,-0.0,0.0009781871922314167,1.0798518657684326,0.0,-0.012623235583305359
216.0,225.0,0.7819,-4.6816,8.217,-0.033,0.0319,-0.1295,-1.8003541431822718,0.0,3.0968403816223145,-1.6302660703659058,-0.0,2.1434712409973145,4.7619708990450285,0.0,0.29306530952453613,-1.12036639848818,0.0,-0.054110389202833176,0.8187584280967712,-0.0,-0.006209868006408215,1.0798559188842773,0.0,-0.022975465282797813
216.0,225.0,0.7819,-4.6816,8.217,-0.033,0.0319,-0.1295,-1.8003303013243617,0.0,3.1218109130859375,-1.6302741765975952,-0.0,2.1162426471710205,4.761910947948255,0.0,0.28777194023132324,-1.1203582922564905,0.0,-0.06231103837490082,0.818734347820282,-0.0,-0.004383991938084364,1.0798439979553223,0.0,-0.0013278452679514885
216.0,225.0,0.7819,-4.6816,8.217,-0.033,0.0319,-0.1295,-1.8003584347166957,0.0,3.1092238426208496,-1.6302382946014404,-0.0,2.1124844551086426,4.761910970299997,0.0,0.28801295161247253,-1.1204021612750452,0.0,-0.05804287642240524,0.8187830448150635,-0.0,0.0018797749653458595,1.0798280239105225,0.0,-0.0031465161591768265
216.0,225.0,0.7819,-4.6816,8.217,-0.033,0.0319,-0.1295,-1.8003183803954066,0.0,3.105776786804199,-1.6301982402801514,-0.0,2.145698070526123,4.7619708990450285,0.0,0.28022831678390503,-1.1204341093646448,0.0,-0.05661546438932419,0.8187224268913269,-0.0,-0.00875434186309576,1.0798239707946777,0.0,-0.030922986567020416
216.0,225.0,0.7819,-4.6816,8.217,-0.033,0.0319,-0.1295,-1.800349851647848,0.0,3.096081256866455,-1.6302103996276855,-0.0,2.1106464862823486,4.761902797013082,0.0,0.2958727777004242,-1.1203511396991175,0.0,-0.046750519424676895,0.8187626004219055,-0.0,-0.006549293641000986,1.0798399448394775,0.0,0.002370045520365238
218.0,218.0,0.8064,-4.6522,8.0417,-0.0402,0.0266,-0.1219,-1.8003460369505824,0.0,3.0612831115722656,-1.6301785707473755,-0.0,2.137734889984131,4.761958657741108,0.0,0.3000783920288086,-1.1203902403460901,0.0,-0.030765676870942116,0.8187544941902161,-0.0,-0.0037233431357890368,1.0798239707946777,0.0,0.014122230000793934
218.0,218.0,0.8064,-4.6522,8.0417,-0.0402,0.0266,-0.1219,-1.8004065952696742,0.0,3.1197197437286377,-1.6302103996276855,-0.0,2.145721197128296,4.761926638870992,0.0,0.2894664704799652,-1.1203582922564905,0.0,-0.04723294451832771,0.818790853023529,-0.0,-0.010757912881672382,1.0798399448394775,0.0,0.012003296986222267
218.0,218.0,0.8064,-4.6522,8.0417,-0.0402,0.0266,-0.1219,-1.8003422222533167,0.0,3.117339849472046,-1.6302464008331299,-0.0,2.099902391433716,4.761958657741108,0.0,0.290665864944458,-1.1203582922564905,0.0,-0.04201936721801758,0.818814218044281,-0.0,-0.0065750498324632645,1.0798035860061646,0.0,0.031719308346509933
218.0,218.0,0.8064,-4.6522,8.0417,-0.0402,0.0266,-0.1219,-1.8002859554686488,0.0,3.060417652130127,-1.6302144527435303,-0.0,2.1376380920410156,4.761922589480438,0.0,0.2741468846797943,-1.1203702131854456,0.0,-0.07177294045686722,0.8188068866729736,-0.0,-0.009988807141780853,1.0798280239105225,0.0,0.02295462042093277
218.0,218.0,0.8064,-4.6522,8.0417,-0.0402,0.0266,-0.1219,-1.8003303013243617,0.0,3.1181116104125977,-1.6302258968353271,-0.0,2.076138496398926,4.761942627816953,0.0,0.2924690246582031,-1.1203582922564905,0.0,-0.05516023933887482,0.8187544345855713,-0.0,0.004877348896116018,1.079868197441101,0.0,0.020976655185222626
218.0,218.0,0.8064,-4.6522,8.0417,-0.0402,0.0266,-0.1219,-1.8003789387144984,0.0,3.117342472076416,-1.6302298307418823,-0.0,2.1063809394836426,4.761942650168695,0.0,0.2797364294528961,-1.1203983465777796,0.0,-0.06518656760454178,0.8187544345855713,-0.0,-0.002339096274226904,1.0798039436340332,0.0,-0.005101703107357025
218.0,218.0,0.8064,-4.6522,8.0417,-0.0402,0.0266,-0.1219,-1.8003422222533167,0.0,3.097116231918335,-1.6301900148391724,-0.0,2.1485180854797363,4.761930647283354,0.0,0.2871111035346985,-1.120343033467428,0.0,-0.06009747087955475,0.8187867999076843,-0.0,-0.009146777912974358,1.079848051071167,0.0,0.0071656773798167706
218.0,218.0,0.8064,-4.6522,8.0417,-0.0402,0.0266,-0.1219,-1.8003260097899378,0.0,3.0552408695220947,-1.6301943063735962,-0.0,2.116589069366455,4.761942650168695,0.0,0.28911611437797546,-1.1203582922564905,0.0,-0.0651279091835022,0.818790853023529,-0.0,-0.006651219911873341,1.0798718929290771,0.0,-0.009460530243813992
218.0,218.0,0.8064,-4.6522,8.0417,-0.0402,0.0266,-0.1219,-1.8003703556456507,0.0,3.1153924465179443,-1.630230188369751,-0.0,2.11608624458313,4.761926638870992,0.0,0.2926211655139923,-1.1203506628619593,0.0,-0.05127381533384323,0.8187544345855713,-0.0,-0.00395555142313242,1.079799771308899,0.0,-0.02095346711575985
218.0,218.0,0.8064,-4.6522,8.0417,-0.0402,0.0266,-0.1219,-1.800370832482809,0.0,3.1571621894836426,-1.630213737487793,-0.0,2.1553750038146973,4.761918461858787,0.0,0.2784443497657776,-1.1204140822040003,0.0,-0.04882029816508293,0.8187543749809265,-0.0,-0.008200977928936481,1.079848051071167,0.0,-0.018382256850600243
218.0,218.0,0.8064,-4.6522,8.0417,-0.0402,0.0266,-0.1219,-1.8003260097899378,0.0,3.15352201461792,-1.630181908607483,-0.0,2.0798914432525635,4.7619385597999475,0.0,0.29663047194480896,-1.1203702131854456,0.0,-0.05553080141544342,0.8188068270683289,-0.0,-0.003206667024642229,1.079859972000122,0.0,-0.031180541962385178
218.0,218.0,0.8064,-4.6522,8.0417,-0.0402,0.0266,-0.1219,-1.800337930718893,0.0,3.100827932357788,-1.630233883857727,-0.0,2.087308168411255,4.761934495508232,0.0,0.29121625423431396,-1.1203902403460901,0.0,-0.048154138028621674,0.8187182545661926,-0.0,0.0005682564224116504,1.0797957181930542,0.0,0.0006627523107454181
218.0,218.0,0.8064,-4.6522,8.0417,-0.0402,0.0266,-0.1219,-1.800366540948385,0.0,3.090200901031494,-1.630202293395996,-0.0,2.1533775329589844,4.761954626977005,0.0,0.2891556918621063,-1.120406452809469,0.0,-0.05821496993303299,0.8188068270683289,-0.0,-0.0006919470615684986,1.0797957181930542,0.0,0.00170568423345685
218.0,218.0,0.8064,-4.6522,8.0417,-0.0402,0.0266,-0.1219,-1.8003789387144984,0.0,3.1036946773529053,-1.6302461624145508,-0.0,2.1390790939331055,4.761898665666141,0.0,0.28632739186286926,-1.120406452809469,0.0,-0.0514824204146862,0.8188142776489258,-0.0,-0.011195768602192402,1.0798358917236328,0.0,0.010428907349705696
218.0,218.0,0.8064,-4.6522,8.0417,-0.0402,0.0266,-0.1219,-1.8003140888609828,0.0,3.123528003692627,-1.6301982402801514,-0.0,2.0867316722869873,4.761930654733934,0.0,0.2924264371395111,-1.1203511396991175,0.0,-0.0614783875644207,0.8187707662582397,-0.0,-0.005991533398628235,1.0798439979553223,0.0,0.052654873579740524
218.0,218.0,0.8064,-4.6522,8.0417,-0.0402,0.0266,-0.1219,-1.8002978763976039,0.0,3.1153693199157715,-1.6302381753921509,-0.0,2.122629165649414,4.761962628900566,0.0,0.2834307849407196,-1.1204021612750452,0.0,-0.04713325947523117,0.8187265396118164,-0.0,0.0011032193433493376,1.0798518657684326,0.0,0.03344830870628357
218.0,218.0,0.8064,-4.6522,8.0417,-0.0402,0.0266,-0.1219,-1.8003303013243617,0.0,3.0776727199554443,-1.6302860975265503,-0.0,2.0905561447143555,4.761950480728903,0.0,0.2933749258518219,-1.1203702131854456,0.0,-0.04177175462245941,0.8187301158905029,-0.0,0.005331367254257202,1.0798399448394775,0.0,-0.020351389423012733
218.0,218.0,0.8064,-4.6522,8.0417,-0.0402,0.0266,-0.1219,-1.8003136120238246,0.0,3.1284101009368896,-1.6302103996276855,-0.0,2.0649681091308594,4.76190277093605,0.0,0.28612667322158813,-1.1203268210040491,0.0,-0.05563840642571449,0.8187665939331055,-0.0,-0.01213676854968071,1.0798320770263672,0.0,-0.02474513277411461
218.0,218.0,0.8064,-4.6522,8.0417,-0.0402,0.0266,-0.1219,-1.8003703556456507,0.0,3.146958351135254,-1.6302258968353271,-0.0,2.146091938018799,4.7619385597999475,0.0,0.29329293966293335,-1.120406452809469,0.0,-0.05613984912633896,0.8188027739524841,-0.0,0.0010008736280724406,1.0798399448394775,0.0,-0.018273519352078438
219.0,223.0,0.7304,-4.7659,8.2181,-0.0371,0.0296,-0.124,-1.8003422222533167,0.0,3.075456142425537,-1.6302298307418823,-0.0,2.0910379886627197,4.76197865137414,0.0,0.2803766131401062,-1.1203349272357386,0.0,-0.05097927898168564,0.8187707662582397,-0.0,0.007110151462256908,1.079859972000122,0.0,0.019810598343610764
219.0,223.0,0.7304,-4.7659,8.2181,-0.0371,0.0296,-0.124,-1.8003102741637171,0.0,3.0562853813171387,-1.6302262544631958,-0.0,2.0881857872009277,4.761954533844747,0.0,0.28713297843933105,-1.120406452809469,0.0,-0.04802628234028816,0.818778932094574,-0.0,0.0027194435242563486,1.0798399448394775,0.0,-0.011198973283171654
219.0,223.0,0.7304,-4.7659,8.2181,-0.0371,0.0296,-0.124,-1.8003221950926722,0.0,3.056403636932373,-1.6302342414855957,-0.0,2.1362478733062744,4.761966812401571,0.0,0.28736403584480286,-1.1204145590411585,0.0,-0.04600539058446884,0.8187665939331055,-0.0,-0.013526629656553268,1.0798358917236328,0.0,0.003738196101039648
219.0,223.0,0.7304,-4.7659,8.2181,-0.0371,0.0296,-0.124,-1.8003384075560511,0.0,3.1065216064453125,-1.6302502155303955,-0.0,2.120412826538086,4.761910959124126,0.0,0.2855530381202698,-1.1203988234149378,0.0,-0.049049295485019684,0.8187904357910156,-0.0,-0.010172763839364052,1.0798522233963013,0.0,0.03280431777238846
219.0,223.0,0.7304,-4.7659,8.2181,-0.0371,0.0296,-0.124,-1.8002940617003382,0.0,3.1019787788391113,-1.6302103996276855,-0.0,2.1365411281585693,4.762002984970369,0.0,0.28985854983329773,-1.120429817830221,0.0,-0.05397830158472061,0.818774402141571,-0.0,-0.004951432812958956,1.079859972000122,0.0,-0.021626463159918785
219.0,223.0,0.7304,-4.7659,8.2181,-0.0371,0.0296,-0.124,-1.8002740345396937,7.429024062588496e-11,3.1003360748291016,-1.6302177906036377,-0.0,2.1106181144714355,4.761934815883198,0.0,0.27368035912513733,-1.1203983465777796,0.0,-0.05764077603816986,0.8187867403030396,-0.0,-0.005611827597022057,1.0798722505569458,0.0,-0.02831573598086834
219.0,223.0,0.7304,-4.7659,8.2181,-0.0371,0.0296,-0.124,-1.8003422222533167,1.3371982083361551e-14,3.125113010406494,-1.6301980018615723,-0.0,2.104450225830078,4.761886487692156,0.0,0.27777099609375,-1.1203506628619593,0.0,-0.0643758624792099,0.818750262260437,-0.0,-0.009950806386768818,1.0798641443252563,0.0,-0.011883915401995182
219.0,223.0,0.7304,-4.7659,8.2181,-0.0371,0.0296,-0.124,-1.800298353234762,3.229175786500639e-20,3.0703721046447754,-1.6302103996276855,-0.0,2.098393440246582,4.7619149563606165,0.0,0.27999475598335266,-1.12036639848818,0.0,-0.059984587132930756,0.8187825679779053,-0.0,0.009893469512462616,1.079868197441101,0.0,0.002334202639758587
219.0,223.0,0.7304,-4.7659,8.2181,-0.0371,0.0296,-0.124,-1.8003703556456507,5.812403274745769e-24,3.092414617538452,-1.630202293395996,-0.0,2.1357038021087646,4.761950789927997,0.0,0.2920991778373718,-1.120406452809469,0.0,-0.06763682514429092,0.8187665939331055,-0.0,-0.0011751403799280524,1.0798238515853882,0.0,0.004574338905513287
219.0,223.0,0.7304,-4.7659,8.2181,-0.0371,0.0296,-0.124,-1.8003064594664515,1.4036267712660318e-29,3.09035587310791,-1.6301859617233276,-0.0,2.0941929817199707,4.761962632625856,3.591416231074618e-08,0.2776336669921875,-1.1203864256488245,0.0,-0.05229984223842621,0.8187707662582397,-0.0,0.0011505295988172293,1.0798439979553223,0.0,0.01420995406806469
219.0,223.0,0.7304,-4.7659,8.2181,-0.0371,0.0296,-0.124,-1.8003064594664515,2.5264784369498266e-33,3.125615119934082,-1.6302382946014404,-0.0,2.095588207244873,4.761930330633678,1.5310769319043516e-10,0.28731659054756165,-1.120354477559225,0.0,-0.0450388640165329,0.8188027739524841,-0.0,0.0006246012635529041,1.0798678398132324,0.0,-0.005641379859298468
219.0,223.0,0.7304,-4.7659,8.2181,-0.0371,0.0296,-0.124,-1.8003140888609828,6.101147014986965e-39,3.06289005279541,-1.630185842514038,-0.0,2.109950065612793,4.761890507280388,4.261809004660333e-14,0.2840624451637268,-1.1203983465777796,0.0,-0.0653536468744278,0.8187425136566162,-0.0,0.007317876443266869,1.079859972000122,0.0,-0.013324298895895481
219.0,223.0,0.7304,-4.7659,8.2181,-0.0371,0.0296,-0.124,-1.8003384075560511,1.0986179960306566e-42,3.1065375804901123,-1.6302258968353271,-0.0,2.0952370166778564,4.761926623969831,1.8168761427398176e-16,0.28777608275413513,-1.1203582922564905,0.0,-0.04303553327918053,0.8187183737754822,-0.0,0.0037987185642123222,1.0798841714859009,0.0,-0.012100091204047203
219.0,223.0,0.7304,-4.7659,8.2181,-0.0371,0.0296,-0.124,-1.8003303013243617,0.0,3.13034725189209,-1.630185842514038,-0.0,2.1595191955566406,4.761930636107483,5.0573409061185836e-20,0.29209253191947937,-1.1204021612750452,0.0,-0.04047393053770065,0.818790853023529,-0.0,-0.004463321063667536,1.0798522233963013,0.0,-0.003133415710180998
219.0,223.0,0.7304,-4.7659,8.2181,-0.0371,0.0296,-0.124,-1.8003384075560511,0.0,3.0928688049316406,-1.630157709121704,-0.0,2.1274185180664062,4.761910970299997,2.1560240018092777e-22,0.29061463475227356,-1.1203582922564905,0.0,-0.06464207172393799,0.8187544345855713,-0.0,-0.0070369550958275795,1.0798518657684326,0.0,0.019918018952012062
219.0,223.0,0.7304,-4.7659,8.2181,-0.0371,0.0296,-0.124,-1.8003584347166957,0.0,3.0815281867980957,-1.630185842514038,-0.0,2.0971620082855225,4.761886487692156,6.001372118926391e-26,0.2807472050189972,-1.1204221884356897,0.0,-0.059430740773677826,0.8187707662582397,-0.0,0.0063953399658203125,1.0798439979553223,0.0,-0.044618334621191025
219.0,223.0,0.7304,-4.7659,8.2181,-0.0371,0.0296,-0.124,-1.8003303013243617,0.0,3.109355926513672,-1.6302464008331299,-0.0,2.1129817962646484,4.761934484332361,2.55847924568562e-28,0.28550201654434204,-1.1203582922564905,0.0,-0.061783015727996826,0.8187986016273499,-0.0,0.009305187501013279,1.0798317193984985,0.0,-0.008246195502579212
219.0,223.0,0.7304,-4.7659,8.2181,-0.0371,0.0296,-0.124,-1.800366540948385,0.0,3.106232166290283,-1.6302063465118408,-0.0,2.063642978668213,4.76193034926013,7.12161967699915e-32,0.2923908829689026,-1.1203511396991175,0.0,-0.04155988246202469,0.8187585473060608,-0.0,-0.008599654771387577,1.0798922777175903,0.0,-0.04488935321569443
222.0,226.0,0.7561,-4.6427,8.1517,-0.0481,0.0211,-0.129,-1.800337930718893,0.0,3.0916824340820312,-1.630202293395996,-0.0,2.1109063625335693,4.7619149563606165,3.0360578553429288e-34,0.290646493434906,-1.12036639848818,0.0,-0.052685316652059555,0.818750262260437,-0.0,0.004354824312031269,1.0797755718231201,0.0,0.02292814664542675
222.0,226.0,0.7561,-4.6427,8.1517,-0.0481,0.0211,-0.129,-1.8003298244872035,0.0,3.1134450435638428,-1.6302623748779297,-0.0,2.185922861099243,4.761946632504024,8.450978804619393e-38,0.282632052898407,-1.1203392187701624,0.0,-0.0577237606048584,0.8187421560287476,-0.0,-0.0025983627419918776,1.0798439979553223,0.0,0.014726226218044758
222.0,226.0,0.7561,-4.6427,8.1517,-0.0481,0.0211,-0.129,-1.8003956280150355,2.3221414267027285e-06,3.0744409561157227,-1.6302144527435303,-0.0,2.1301472187042236,4.7619463233049295,3.6027803907330344e-40,0.27640601992607117,-1.1203702131854456,0.0,-0.06301265954971313,0.8186941742897034,-0.0,0.0030016538221389055,1.0798238515853882,0.0,-0.03904467076063156
222.0,226.0,0.7561,-4.6427,8.1517,-0.0481,0.0211,-0.129,-1.8003741703429164,-8.362621156265959e-05,3.0946085453033447,-1.630178451538086,-0.0,2.1046390533447266,4.7619463233049295,1.0089348943138683e-43,0.30076754093170166,-1.1204145590411585,0.0,-0.04510516673326492,0.818790853023529,-0.0,0.004927991423755884,1.0799243450164795,0.0,0.0029630851931869984
222.0,226.0,0.7561,-4.6427,8.1517,-0.0481,0.0211,-0.129,-1.8003865681090296,-0.0008060564287006855,3.0313162803649902,-1.630185842514038,-0.0,2.1141247749328613,4.761886521219768,0.0,0.2867041826248169,-1.1203745047198694,0.0,-0.050195373594760895,0.8187462091445923,-0.0,-0.0004348768852651119,1.0798718929290771,0.0,-0.02754080668091774
222.0,226.0,0.7561,-4.6427,8.1517,-0.0481,0.0211,-0.129,-1.8004266224303187,-0.0011458555236458778,3.12079119682312,-1.630157709121704,5.243391831832867e-10,2.107006549835205,4.761954500317135,0.0,0.2898118793964386,-1.1203225294696253,0.0,-0.05709042027592659,0.8187707662582397,-0.0,-0.011809141375124454,1.0798518657684326,0.0,-0.011985430493950844
222.0,226.0,0.7561,-4.6427,8.1517,-0.0481,0.0211,-0.129,-1.800439020196432,-0.0011435712222009897,3.0587964057922363,-1.6301898956298828,9.43792028036683e-14,2.1487505435943604,4.761938544898786,0.0,0.2891111969947815,-1.1203988234149378,0.0,-0.06461885571479797,0.8187141418457031,-0.0,-0.006202493328601122,1.0798959732055664,0.0,-0.03351188078522682
222.0,226.0,0.7561,-4.6427,8.1517,-0.0481,0.0211,-0.129,-1.8003984890379847,-0.0008439297671429813,3.101464033126831,-1.6301898956298828,2.2791467683917254e-19,2.138272285461426,4.76196679750041,0.0,0.2896605134010315,-1.1203745047198694,0.0,-0.051084067672491074,0.8187986016273499,-0.0,-0.006339722312986851,1.0799082517623901,-7.111457644981556e-09,-0.030784081667661667
222.0,226.0,0.7561,-4.6427,8.1517,-0.0481,0.0211,-0.129,-1.8004547558226527,-0.0007218456594273448,3.1008262634277344,-1.6302063465118408,4.1023840473579355e-23,2.065213680267334,4.761942635267534,0.0,0.2935647666454315,-1.1203821341144007,0.0,-0.06499762833118439,0.8188142776489258,-0.0,-0.00018122768960893154,1.0798476934432983,-1.2800373825130884e-12,-0.012189126573503017
222.0,226.0,0.7561,-4.6427,8.1517,-0.0481,0.0211,-0.129,-1.8004504642882289,-0.0005228563095442951,3.16172456741333,-1.630178451538086,2.918694917752873e-06,2.1104118824005127,4.761918484210529,0.0,0.29152822494506836,-1.1203582922564905,0.0,-0.0508500412106514,0.818750262260437,-0.0,-0.0006996350130066276,1.0798836946487427,-3.0911392075249372e-18,-0.010799882933497429
222.0,226.0,0.7561,-4.6427,8.1517,-0.0481,0.0211,-0.129,-1.800406118432516,-0.0003903474716935307,3.1094532012939453,-1.630149483680725,0.000492228486109525,2.0872347354888916,4.761970876693287,0.0,0.2826204299926758,-1.120354954396383,0.0,-0.05894272029399872,0.8187625408172607,-0.0,-0.0029143672436475754,1.0798436403274536,-5.563941230122989e-22,0.02689443528652191
222.0,226.0,0.7561,-4.6427,8.1517,-0.0481,0.0211,-0.129,-1.800439020196432,-0.00029355278820730746,3.102267026901245,-1.6301462650299072,0.001224213163368404,2.093872547149658,4.761958657741108,0.0,0.2914755642414093,-1.1204503218280237,0.0,-0.043937474489212036,0.8187867403030396,-0.0,-0.006036851089447737,1.0798677206039429,-1.3436263738527162e-27,0.016178451478481293
222.0,226.0,0.7561,-4.6427,8.1517,-0.0481,0.0211,-0.129,-1.8004147015013636,-0.00025966926477849483,3.089707851409912,-1.630150318145752,0.0010150622110813856,2.0852274894714355,4.761946345656671,0.0,0.2858702838420868,-1.1204341093646448,0.0,-0.05635230243206024,0.8187867403030396,-0.0,0.009139588102698326,1.0798919200897217,-2.4184797097970367e-31,0.0033105043694376945
222.0,226.0,0.7561,-4.6427,8.1517,-0.0481,0.0211,-0.129,-1.8004428348936976,-0.00017707758524920791,3.114501953125,-1.6301660537719727,0.0006317153456620872,2.13366436958313,4.761946308403768,0.0,0.27952730655670166,-1.1203582922564905,0.0,-0.05125659704208374,0.8187625408172607,-0.0,0.01131745707243681,1.0798959732055664,-5.840343846831704e-37,0.058766819536685944
222.0,226.0,0.7561,-4.6427,8.1517,-0.0481,0.0211,-0.129,-1.8003822765746058,-0.00016121580847539008,3.112156867980957,-1.6301543712615967,0.0004867762327194214,2.092672109603882,4.7619143826659105,0.0,0.29301753640174866,-1.12036639848818,0.0,-0.05744630843400955,0.8187425136566162,-0.0,0.013146528974175453,1.0798678398132324,9.741193935042247e-05,0.022803381085395813
222.0,226.0,0.7561,-4.6427,8.1517,-0.0481,0.0211,-0.129,-1.8004266224303187,-4.3317690142430365e-05,3.0789570808410645,-1.630150318145752,0.0003674697072710842,2.106780767440796,4.76198689916686,0.0,0.28682461380958557,-1.1203902403460901,0.0,-0.06099694222211838,0.8187425136566162,-0.0,-0.002286386676132679,1.0798596143722534,1.4608726814913098e-05,0.04614461585879326
222.0,226.0,0.7561,-4.6427,8.1517,-0.0481,0.0211,-0.129,-1.800450941125387,-7.838021701900288e-05,3.088465690612793,-1.6302028894424438,0.00031586861587129533,2.1393380165100098,4.761962640076437,0.0,0.28321653604507446,-1.1203983465777796,0.0,-0.06118243187665939,0.8187665939331055,-0.0,0.009644655510783195,1.079848051071167,2.629519713082118e-09,0.010597667656838894
222.0,226.0,0.7561,-4.6427,8.1517,-0.0481,0.0211,-0.129,-1.8004919491209925,-0.0006828667246736586,3.0876903533935547,-1.6301658153533936,0.00026091569452546537,2.14103364944458,4.761982838600435,0.0,0.2715884745121002,-1.1203582922564905,0.0,-0.05091897398233414,0.818750262260437,-0.0,0.005300555378198624,1.0798841714859009,6.34998069480152e-15,-0.007432221435010433
213.0,228.0,0.8034,-4.1797,8.0178,-0.009,0.0298,-0.1303,-1.8004423580565394,-0.0019204571144655347,3.124749183654785,-1.6301543712615967,0.00023379993217531592,2.126966714859009,4.761926642596283,0.0,0.28630906343460083,-1.1203983465777796,0.0,-0.04947035759687424,0.8187744617462158,-0.0,0.005833286792039871,1.0798882246017456,1.142974078790433e-18,0.04065680503845215
213.0,228.0,0.8034,-4.1797,8.0178,-0.009,0.0298,-0.1303,-1.8004538021483363,-0.0030263031367212534,3.1024718284606934,-1.6301298141479492,0.00020226961350999773,2.1564693450927734,4.761922161072054,6.275877240113914e-05,0.29041236639022827,-1.120354477559225,0.0,-0.05744859576225281,0.8188061118125916,-0.0,-0.0036313291639089584,1.0798678398132324,2.7601475906452876e-24,-0.0030904868617653847
213.0,228.0,0.8034,-4.1797,8.0178,-0.009,0.0298,-0.1303,-1.8004661999144496,-0.0031726777087897062,3.090939521789551,-1.6301380395889282,0.00018558480951469392,2.123774528503418,4.762026998191633,7.180975808296353e-05,0.28179168701171875,-1.1204021612750452,0.0,-0.05800478160381317,0.8187704682350159,-0.0,0.008038472384214401,1.0798518657684326,4.9681683661051735e-28,0.05584704130887985
213.0,228.0,0.8034,-4.1797,8.0178,-0.009,0.0298,-0.1303,-1.8004900417723597,-0.0021233370061963797,3.0270681381225586,-1.6301422119140625,0.0001651509664952755,2.170511484146118,4.761978621571817,8.218370203394443e-05,0.2968815565109253,-1.1204546133624476,0.0,-0.055564701557159424,0.818790853023529,-0.0,0.004962489940226078,1.0798399448394775,1.1997540746648633e-33,0.01684252917766571
213.0,228.0,0.8034,-4.1797,8.0178,-0.009,0.0298,-0.1303,-1.8004785976805628,-0.001221965765580535,3.0997202396392822,-1.630165696144104,0.00015385737060569227,2.1005191802978516,4.762006538897314,9.15961863938719e-05,0.29325270652770996,-1.12036639848818,0.0,-0.055284641683101654,0.8188306093215942,-0.0,-0.003958797547966242,1.0798476934432983,2.1595150552714777e-37,-0.01705373078584671
213.0,228.0,0.8034,-4.1797,8.0178,-0.009,0.0298,-0.1303,-1.8005105457701625,-0.0006726786377839744,3.0570197105407715,-1.6301944255828857,0.00016740693536121398,2.117314338684082,4.761986496835508,0.00037118158070370555,0.28720271587371826,-1.120417896901266,0.0,-0.03611185774207115,0.8187785148620605,-0.0,0.002534418599680066,1.0799082517623901,5.2128302872883195e-43,-0.010405533015727997
213.0,228.0,0.8034,-4.1797,8.0178,-0.009,0.0298,-0.1303,-1.8005105457701625,-0.0005177429993636906,3.028552532196045,-1.6301178932189941,0.00015767350851092488,2.1402835845947266,4.761970485537805,0.0003207261033821851,0.2883058786392212,-1.120378319417135,0.0,-0.04951231926679611,0.8188028335571289,-0.0,0.006252175662666559,1.0798559188842773,0.0,-0.007096892222762108
213.0,228.0,0.8034,-4.1797,8.0178,-0.009,0.0298,-0.1303,-1.8005029163756312,-0.00038484143442474306,3.123305559158325,-1.6301259994506836,0.00016351995873264968,2.1559062004089355,4.761974561005392,0.00031655695056542754,0.2862735986709595,-1.1204097906695765,8.702809028982017e-10,-0.058127742260694504,0.8187665939331055,-0.0,0.0001323046162724495,1.0798959732055664,0.0,0.0035953898914158344
213.0,228.0,0.8034,-4.1797,8.0178,-0.009,0.0298,-0.1303,-1.8005067310728968,-0.00026300910394638777,3.105555534362793,-1.6301100254058838,0.00021199577895458788,2.1438605785369873,4.761978509813108,0.0002837220672518015,0.28982093930244446,-1.1203740278827112,3.710144171054086e-12,-0.04445046931505203,0.8188101649284363,-0.0,0.00034627586137503386,1.0798759460449219,-5.729025724576786e-05,-0.02318170666694641
213.0,228.0,0.8034,-4.1797,8.0178,-0.009,0.0298,-0.1303,-1.8005105457701625,-8.172414527507499e-05,3.1015896797180176,-1.6301698684692383,0.0016412519617006183,2.1392555236816406,4.761994226812877,0.00024508126080036163,0.27652472257614136,-1.120417896901266,1.0327322154455969e-15,-0.050638504326343536,0.8187785148620605,-0.0,0.012128016911447048,1.0798959732055664,7.161900430219248e-05,-0.07185214757919312
213.0,228.0,0.8034,-4.1797,8.0178,-0.009,0.0298,-0.1303,-1.8005267582335414,-5.5697732022963464e-05,3.124675750732422,-1.6301140785217285,0.0016118448693305254,2.1435387134552,4.762035275786676,0.00022468206589110196,0.2734670639038086,-1.1203907171832483,4.402699415996154e-18,-0.042975109070539474,0.8188347220420837,-0.0,0.010687191039323807,1.0799078941345215,6.633996963500977e-05,-0.03337304666638374
213.0,228.0,0.8034,-4.1797,8.0178,-0.009,0.0298,-0.1303,-1.8004666767516078,-4.697287658927962e-05,3.0931732654571533,-1.630065679550171,0.001858310541138053,2.1362595558166504,4.762002448528566,0.00023288204101845622,0.29064738750457764,-1.1204503218280237,1.2255077603562867e-21,-0.050066567957401276,0.8187938928604126,-0.0,0.005103492643684149,1.0799119472503662,8.960181730799377e-05,-0.025365052744746208
213.0,228.0,0.8034,-4.1797,8.0178,-0.009,0.0298,-0.1303,-1.800546785394186,-4.253270526533015e-05,3.065476179122925,-1.6301381587982178,0.00220119277946651,2.1455888748168945,4.761958173453369,0.00021698034834116697,0.2941548824310303,-1.1204264799701136,5.22453190083104e-24,-0.06366567313671112,0.8187986016273499,-0.0,0.00454514566808939,1.0798513889312744,8.402550156461075e-05,-0.02176295965909958
213.0,228.0,0.8034,-4.1797,8.0178,-0.009,0.0298,-0.1303,-1.8005429706969203,-3.8859503547428176e-05,3.113175868988037,-1.630094289779663,0.00342753529548645,2.1383602619171143,4.761994230538168,0.00020299626339692622,0.28813380002975464,-1.1204097906695765,2.2272999243081372e-26,-0.06432804465293884,0.8187785148620605,-0.0,0.002938701305538416,1.0799078941345215,9.642986697144806e-05,-0.016892043873667717
213.0,228.0,0.8034,-4.1797,8.0178,-0.009,0.0298,-0.1303,-1.8005148373045863,-3.440302680246532e-05,3.0933966636657715,-1.630070447921753,0.006407845299690962,2.0772900581359863,4.7620105286832235,0.00018510165682528168,0.2937217056751251,-1.120446507130758,6.199771616406334e-30,-0.054130032658576965,0.8187707662582397,-0.0,0.01439535804092884,1.0798795223236084,9.694822801975533e-05,0.019683467224240303
213.0,228.0,0.8034,-4.1797,8.0178,-0.009,0.0298,-0.1303,-1.800546785394186,-3.1959523767000064e-05,3.0776638984680176,-1.6299622058868408,0.007823988795280457,2.1165661811828613,4.761986481934347,0.00017482746625319123,0.2907165288925171,-1.1204302946673792,2.6430599626367486e-32,-0.04103866219520569,0.8187544345855713,-0.0,-0.004363903775811195,1.0798759460449219,0.00011467522563179955,0.058208443224430084
213.0,228.0,0.8034,-4.1797,8.0178,-0.009,0.0298,-0.1303,-1.800547262231344,-8.548081677872688e-05,3.087177276611328,-1.630022644996643,0.007365234196186066,2.1308953762054443,4.7619745684559724,0.00016139073704835027,0.29911863803863525,-1.120417896901266,7.357054956657246e-36,-0.05407340079545975,0.818758487701416,-0.0,0.008551365695893764,1.0798954963684082,0.000225478142965585,-0.01667621172964573
213.0,228.0,0.8034,-4.1797,8.0178,-0.009,0.0298,-0.1303,-1.800530572930807,-0.00010843306517926976,3.078855276107788,-1.6299142837524414,0.005618430208414793,2.132028102874756,4.762002362846889,0.0001535245100967586,0.2899114489555359,-1.1204097906695765,3.1364277012863496e-38,-0.0593169629573822,0.8188544511795044,-0.0,-0.0004456456517800689,1.0799405574798584,0.0002459277748130262,0.014387154020369053
211.0,223.0,0.8489,-4.6056,8.4102,-0.0342,0.0333,-0.1213,-1.8005105457701625,-0.0002361872757319361,3.1491284370422363,-1.6299183368682861,0.003887791419401765,2.1652703285217285,4.762026998191633,0.00014306507364381105,0.29723602533340454,-1.1204097906695765,8.73008943274361e-42,-0.05032794177532196,0.8188184499740601,-0.0,0.005241062492132187,1.0799078941345215,0.00021638278849422932,0.014807479456067085
211.0,223.0,0.8489,-4.6056,8.4102,-0.0342,0.0333,-0.1213,-1.8005548916258753,-0.0002212096005678177,3.0989763736724854,-1.6298142671585083,0.0027977395802736282,2.0770249366760254,4.761986467033186,0.00013684952864423394,0.29434332251548767,-1.1204097906695765,3.783505853677006e-44,-0.05226775258779526,0.818790853023529,-0.0,0.009792263619601727,1.0798594951629639,0.00020032764587085694,0.01534408237785101
211.0,223.0,0.8489,-4.6056,8.4102,-0.0342,0.0333,-0.1213,-1.8005348644652308,-0.0001969991426449269,3.128326892852783,-1.6298820972442627,0.0012606193777173758,2.1117208003997803,4.761970470636644,0.00012847682228311896,0.2880514860153198,-1.1204145590411585,0.0,-0.0602581650018692,0.8187944889068604,-0.0,0.005617097485810518,1.0798959732055664,0.00018026454199571162,-0.043229758739471436
211.0,223.0,0.8489,-4.6056,8.4102,-0.0342,0.0333,-0.1213,-1.8005548916258753,-0.000183602562174201,3.0758209228515625,-1.6298539638519287,0.0009680846706032753,2.1790266036987305,4.762002347945728,0.00012344200513325632,0.2939533591270447,-1.1204264799701136,0.0,-0.05280086398124695,0.8187904357910156,-0.0,0.005942487623542547,1.0799078941345215,0.00016898241301532835,0.03736674785614014
211.0,223.0,0.8489,-4.6056,8.4102,-0.0342,0.0333,-0.1213,-1.800502439538473,-0.0001666076568653807,3.0947909355163574,-1.6298620700836182,0.0006292767939157784,2.1277894973754883,4.76199437954978,0.00011658855510177091,0.2831089496612549,-1.1204021612750452,0.0,-0.06506165862083435,0.8188185095787048,-0.0,0.002848261734470725,1.079871416091919,0.00018018443370237947,-0.045960620045661926
211.0,223.0,0.8489,-4.6056,8.4102,-0.0342,0.0333,-0.1213,-1.8004981480040492,-0.00015692431770730764,3.0762624740600586,-1.6298983097076416,0.0005917173693887889,2.097397804260254,4.761950357794323,0.00011242737673455849,0.2824249267578125,-1.1204503218280237,0.0,-0.06240558996796608,0.8187018632888794,-0.0,-0.0021287479903548956,1.0798795223236084,0.00017047261644620448,0.007195692043751478
211.0,223.0,0.8489,-4.6056,8.4102,-0.0342,0.0333,-0.1213,-1.8005510769286097,-0.00014434063632506877,3.0546813011169434,-1.6298742294311523,0.0005297227180562913,2.1211676597595215,4.761990427016773,0.0001067140547093004,0.28209030628204346,-1.1203907171832483,0.0,-0.060809426009655,0.8187581300735474,-0.0,0.0027022985741496086,1.0798914432525635,0.00019554310711100698,0.0034519322216510773
211.0,223.0,0.8489,-4.6056,8.4102,-0.0342,0.0333,-0.1213,-1.800486227075094,-0.00013701574061997235,3.150029182434082,-1.6298539638519287,0.00038115386269055307,2.1198058128356934,4.761986474483766,3.620716233854182e-05,0.27459830045700073,-1.1204264799701136,0.0,-0.04805152118206024,0.8188225030899048,-0.0,0.016665035858750343,1.0799199342727661,0.00021981957252137363,0.02956557087600231
211.0,223.0,0.8489,-4.6056,8.4102,-0.0342,0.0333,-0.1213,-1.8005510769286097,-0.00014853282482363284,3.052243709564209,-1.6298542022705078,0.0002749422565102577,2.136867046356201,4.761970615922966,3.36253251589369e-05,0.28184589743614197,-1.120422665272848,0.0,-0.06291480362415314,0.8187420964241028,-0.0,0.009456056170165539,1.0799565315246582,0.00022871076362207532,-0.025770947337150574
211.0,223.0,0.8489,-4.6056,8.4102,-0.0342,0.0333,-0.1213,-1.800530572930807,-0.0001621088304091245,3.085552930831909,-1.6298303604125977,0.00029375971644185483,2.130311965942383,4.761990427016773,3.2414136512670666e-05,0.279159277677536,-1.1204264799701136,0.0,-0.0586366206407547,0.8187866806983948,-0.0,0.009319666773080826,1.0799281597137451,0.0002166331250919029,0.054781995713710785
211.0,223.0,0.8489,-4.6056,8.4102,-0.0342,0.0333,-0.1213,-1.8005787334837855,-0.00019747189071495086,3.089932441711426,-1.6298344135284424,0.00025271816411986947,2.089900255203247,4.761986481934347,3.075272616115399e-05,0.2855575382709503,-1.1204097906695765,0.0,-0.057980410754680634,0.8188467025756836,-0.0,0.006627757102251053,1.0799200534820557,0.00019637569494079798,0.03208038583397865
211.0,223.0,0.8489,-4.6056,8.4102,-0.0342,0.0333,-0.1213,-1.800530572930807,-0.0002441667311359197,3.113382339477539,-1.629826307296753,0.0002695935545489192,2.1449577808380127,4.761994658946552,2.973662776639685e-05,0.28767964243888855,-1.120434586201803,0.0,-0.07728428393602371,0.8187741041183472,-0.0,0.011350365355610847,1.0798954963684082,0.00018485116015654057,0.0478079691529274
211.0,223.0,0.8489,-4.6056,8.4102,-0.0342,0.0333,-0.1213,-1.800530572930807,-0.0006879264255985618,3.0936472415924072,-1.6298179626464844,0.0002746616373769939,2.132523536682129,4.761978506087818,2.8332427973509766e-05,0.2837863564491272,-1.1204140822040003,0.0,-0.06922599673271179,0.8187622427940369,-0.0,0.005872772075235844,1.0799038410186768,0.00016989615687634796,0.08533459901809692
211.0,223.0,0.8489,-4.6056,8.4102,-0.0342,0.0333,-0.1213,-1.8005668125548304,-0.0006406941683962941,3.097416877746582,-1.6298418045043945,0.00035143786226399243,2.123666524887085,4.761994372099199,2.7467736799735576e-05,0.29134824872016907,-1.120434586201803,0.0,-0.06130027025938034,0.8187704682350159,-0.0,0.0103733129799366,1.0799483060836792,0.00016120164946187288,0.020101916044950485
211.0,223.0,0.8489,-4.6056,8.4102,-0.0342,0.0333,-0.1213,-1.8006073437132777,-0.0005611043306998909,3.0807714462280273,-1.6298620700836182,0.0013392455875873566,2.1401257514953613,4.761978506087818,2.626532113936264e-05,0.2792769968509674,-1.1204097906695765,0.0,-0.06397830694913864,0.8187986016273499,-0.0,0.004887023009359837,1.0798799991607666,0.00014970939082559198,0.03681056946516037
211.0,223.0,0.8489,-4.6056,8.4102,-0.0342,0.0333,-0.1213,-1.8005544147887171,-0.0004815906286239624,3.0681521892547607,-1.6298620700836182,0.00209092628210783,2.1314444541931152,4.7620102418358705,2.5520539566059597e-05,0.2885875999927521,-1.1204183737384241,0.0,-0.07610173523426056,0.8187707662582397,-0.0,-0.0005310620181262493,1.079916000366211,0.00014291724073700607,0.04307159036397934
211.0,223.0,0.8489,-4.6056,8.4102,-0.0342,0.0333,-0.1213,-1.8005348644652308,-0.0003646126133389771,3.058807134628296,-1.6297662258148193,0.0033383979462087154,2.1503243446350098,4.761970615922966,2.4479339117533527e-05,0.289654940366745,-1.1204307715045374,0.0,-0.06553225219249725,0.8187781572341919,-0.0,0.002000718377530575,1.079887866973877,0.00013381056487560272,0.018822070211172104
211.0,223.0,0.8489,-4.6056,8.4102,-0.0342,0.0333,-0.1213,-1.800546785394186,-0.0003137547173537314,3.056567668914795,-1.6298062801361084,0.004311579279601574,2.176623821258545,4.761954749911585,2.3831149519537576e-05,0.29549074172973633,-1.120422665272848,0.0,-0.06985754519701004,0.8188306093215942,-0.0,0.003964946139603853,1.0798795223236084,0.00012835802044719458,0.05046824365854263
215.0,223.0,0.7567,-4.858,8.1601,-0.0631,0.0289,-0.119,-1.8005830250182093,-0.00025947188260033727,3.101325750350952,-1.629770040512085,0.005245853215456009,2.152027130126953,4.76201847845272,2.292078897880856e-05,0.29022693634033203,-1.1203983465777796,0.0,-0.07218213379383087,0.8187665939331055,-0.0,-0.0033867182210087776,1.0798996686935425,0.00012096435239072889,0.03775791451334953
215.0,223.0,0.7567,-4.858,8.1601,-0.0631,0.0289,-0.119,-1.8006030521788539,-0.00023264058108907193,3.084462881088257,-1.6296855211257935,0.005930620711296797,2.1167407035827637,4.761946777790346,3.315263893455267e-05,0.2823745608329773,-1.1204703489886683,0.0,-0.06497443467378616,0.8187704086303711,-0.0,0.00494083808735013,1.0798754692077637,0.00011649095540633425,0.08641441911458969
215.0,223.0,0.7567,-4.858,8.1601,-0.0631,0.0289,-0.119,-1.8005949459471644,-0.00024168158415704966,3.0655245780944824,-1.6296459436416626,0.006348267197608948,2.1915206909179688,4.762006278126993,3.232312519685365e-05,0.2927187383174896,-1.1204059759723108,-5.627038990496658e-05,-0.06314703822135925,0.8188345432281494,-0.0,0.00681549496948719,1.0799360275268555,0.00012550584506243467,0.06238103657960892
215.0,223.0,0.7567,-4.858,8.1601,-0.0631,0.0289,-0.119,-1.80059876064443,-0.00022182503016665578,3.1049036979675293,-1.6296343803405762,0.007101663388311863,2.156079053878784,4.761982536851921,3.1567415135214105e-05,0.28832247853279114,-1.1204183737384241,-5.5352495110128075e-05,-0.06522344797849655,0.8188021183013916,-0.0,0.004546374548226595,1.0799281597137451,0.00012186562526039779,0.09323053061962128
215.0,223.0,0.7567,-4.858,8.1601,-0.0631,0.0289,-0.119,-1.8005544147887171,-0.00023038173094391823,3.0151166915893555,-1.6296226978302002,0.006736889947205782,2.1434946060180664,4.76201460415081,3.0497711122734472e-05,0.2842620313167572,-1.1204307715045374,-5.3384490456664935e-05,-0.08871795237064362,0.8187944889068604,-0.0,0.009713223204016685,1.079916000366211,0.00011597684351727366,0.09354358911514282
215.0,223.0,0.7567,-4.858,8.1601,-0.0631,0.0289,-0.119,-1.8005629978575648,-0.0002453658089507371,3.0405988693237305,-1.6295582056045532,0.006999156903475523,2.157228946685791,4.761998402863302,2.9823968361597508e-05,0.2874520719051361,-1.1204059759723108,-5.214723933022469e-05,-0.05496803671121597,0.8188505172729492,-0.0,6.054667755961418e-05,1.0798996686935425,0.00010641345579642802,0.09561706334352493
215.0,223.0,0.7567,-4.858,8.1601,-0.0631,0.0289,-0.119,-1.8006073437132777,-0.0003005142498295754,3.09022855758667,-1.6295299530029297,0.00649483036249876,2.1754283905029297,4.76196667084054,8.301610066041576e-09,0.28657543659210205,-1.120422665272848,-6.013693564455025e-05,-0.07245936989784241,0.81882244348526,-0.0,0.019711192697286606,1.0799400806427002,0.00011921799159608781,0.04555000364780426
215.0,223.0,0.7567,-4.858,8.1601,-0.0631,0.0289,-0.119,-1.8005992374815882,-0.001267321058548987,3.042712688446045,-1.629514217376709,0.005786273628473282,2.159728527069092,4.7619745684559724,-1.4967193237680476e-05,0.275380402803421,-1.1204422155963343,-7.70194128563162e-06,-0.07873333990573883,0.8188142776489258,-0.0,0.012290232814848423,1.0799118280410767,0.0001331872190348804,0.13332760334014893
215.0,223.0,0.7567,-4.858,8.1601,-0.0631,0.0289,-0.119,-1.8006068668761195,-0.0021108812652528286,3.0589451789855957,-1.6295183897018433,0.004939934704452753,2.1819963455200195,4.761942508607664,-1.8151116819353774e-05,0.2942354679107666,-1.1204384008990687,-2.1438633091008796e-09,-0.08067131042480469,0.8187782168388367,-0.0,0.009438704699277878,1.079944133758545,0.000141073003760539,0.12548935413360596
215.0,223.0,0.7567,-4.858,8.1601,-0.0631,0.0289,-0.119,-1.8006025753416957,-0.002445987891405821,3.0437355041503906,-1.6294820308685303,0.004686667583882809,2.1460676193237305,4.761974564730682,-1.744846667861566e-05,0.2856222093105316,-1.1204584280597132,-9.139624820853065e-12,-0.07949436455965042,0.8188061118125916,-0.0,0.014166789129376411,1.0799683332443237,0.00013769071665592492,0.12502625584602356
215.0,223.0,0.7567,-4.858,8.1601,-0.0631,0.0289,-0.119,-1.8006507358946742,-0.00252363714389503,3.046076774597168,-1.6294302940368652,0.0035161632113158703,2.143113136291504,4.7619706121976755,-1.6489409972564317e-05,0.2900252640247345,-1.1204384008990687,-2.5440479987270037e-15,-0.0652235746383667,0.818810224533081,-0.0,0.0017648502252995968,1.079907774925232,0.0003082681796513498,0.1425299048423767
215.0,223.0,0.7567,-4.858,8.1601,-0.0631,0.0289,-0.119,-1.8006750545897425,-0.002737214555963874,3.0610289573669434,-1.6294143199920654,0.0027567895594984293,2.1288363933563232,4.761978506087818,-1.5906520275166258e-05,0.2916426360607147,-1.1204422155963343,-1.0845672900078853e-17,-0.06667834520339966,0.8188667297363281,-1.083314202787733e-07,0.011840185150504112,1.0799524784088135,0.000271146884188056,0.1524091511964798
215.0,223.0,0.7567,-4.858,8.1601,-0.0631,0.0289,-0.119,-1.800727983514303,-0.0030514816753566265,3.027878999710083,-1.6294105052947998,0.0018427897011861205,2.1616361141204834,4.761990427016773,-1.5105598322406877e-05,0.28801050782203674,-1.1204384008990687,-3.018933172367047e-21,-0.07856075465679169,0.8188021183013916,-3.01544483827243e-11,-0.005669061094522476,1.0799118280410767,0.00027555832639336586,0.14113891124725342
215.0,223.0,0.7567,-4.858,8.1601,-0.0631,0.0289,-0.119,-1.8006540737547816,-0.0032576743979007006,3.0068674087524414,-1.6294265985488892,0.0014554500812664628,2.112828254699707,4.761962640076437,-1.4615003237850033e-05,0.2834957242012024,-1.1204541365252894,-1.2870185204868475e-23,-0.07754714041948318,0.81882244348526,-1.2855314686019415e-13,0.005431831814348698,1.0799281597137451,0.0002500378468539566,0.15550856292247772
215.0,223.0,0.7567,-4.858,8.1601,-0.0631,0.0289,-0.119,-1.8007151089110316,-0.0032412968575954437,3.069735527038574,-1.629398226737976,0.0007963163079693913,2.1419906616210938,4.761930550425806,-1.393608545185998e-05,0.29377153515815735,-1.1204183737384241,-3.5824627340835295e-27,-0.08547612279653549,0.8188101649284363,-3.578324103772539e-17,0.006269227713346481,1.0799683332443237,0.00025612214813008904,0.13871853053569794
215.0,223.0,0.7567,-4.858,8.1601,-0.0631,0.0289,-0.119,-1.8007027111449183,-0.003713632468134165,3.055270195007324,-1.6294143199920654,0.0005794767057523131,2.1717915534973145,4.761962625175276,-1.3517453226086218e-05,0.28657910227775574,-1.1204541365252894,-1.5272600384866475e-29,-0.06779664009809494,0.8188625574111938,-1.5254956622052141e-19,0.01040080189704895,1.0799560546875,0.00023686845088377595,0.1319216787815094
215.0,223.0,0.7567,-4.858,8.1601,-0.0631,0.0289,-0.119,-1.8007351360716761,-0.003361253999173641,3.060575008392334,-1.6294183731079102,0.0004179212264716625,2.180790901184082,4.761998399138012,-1.2934644473716617e-05,0.2810264229774475,-1.1204422155963343,-4.2511845032984186e-33,-0.07709310203790665,0.8187979459762573,-4.2462732231033343e-23,0.02690478414297104,1.0799806118011475,0.00024326036509592086,0.1301761269569397
215.0,223.0,0.7567,-4.858,8.1601,-0.0631,0.0289,-0.119,-1.8007551632323207,-0.0032487011048942804,3.0683631896972656,-1.6293704509735107,0.0003524355124682188,2.1664061546325684,4.761946468591251,-2.4313900212291628e-05,0.28366804122924805,-1.1204741636859339,-1.8123465400009602e-35,-0.08238158375024796,0.8187979459762573,-1.810252860359824e-25,0.019995609298348427,1.0799560546875,0.00023573858197778463,0.09903520345687866
215.0,223.0,0.7567,-4.858,8.1601,-0.0631,0.0289,-0.119,-1.800758501092428,-0.0035861064679920673,3.039022445678711,-1.629377841949463,0.00028537033358588815,2.1147208213806152,4.761978506087818,-2.413476431684103e-05,0.29356756806373596,-1.1204503218280237,-5.044733326104843e-39,-0.0835735872387886,0.8187979459762573,-5.038905907217883e-29,0.013962879776954651,1.0799360275268555,0.0002446126309223473,0.17589962482452393
217.0,222.0,0.6867,-4.6606,8.2193,-0.0396,0.0267,-0.1264,-1.800774713555807,-0.0036157588474452496,3.097517967224121,-1.6294183731079102,0.0002532449143473059,2.1720409393310547,4.761966663389959,-2.350467548239976e-05,0.28024163842201233,-1.1204264799701136,-2.1507128830457292e-41,-0.07609617710113525,0.8187979459762573,-2.1481646745740346e-31,0.01908770576119423,1.0799400806427002,0.0002611572854220867,0.15382346510887146
217.0,222.0,0.6867,-4.6606,8.2193,-0.0396,0.0267,-0.1264,-1.8008109531798304,-0.0033714263699948788,3.06626558303833,-1.6294625997543335,0.00021666214161086828,2.125436782836914,4.761942508607664,-2.2618616640102118e-05,0.28732505440711975,-1.1204946676837366,-9.218037303071469e-05,-0.07542996853590012,0.8188340663909912,-5.979495250624456e-35,0.011558237485587597,1.0799201726913452,0.0002659187593962997,0.16091451048851013
217.0,222.0,0.6867,-4.6606,8.2193,-0.0396,0.0267,-0.1264,-1.8009044132628382,-0.003649855963885784,3.0862581729888916,-1.6294827461242676,0.00019763023010455072,2.2306437492370605,4.7619424788053415,-2.2064097720431164e-05,0.2899543344974518,-1.1204622427569788,-9.274252079194412e-05,-0.08196181803941727,0.8187904357910156,-2.5491527074057447e-37,0.014677593484520912,1.0799520015716553,0.0002484429278410971,0.17605525255203247
217.0,222.0,0.6867,-4.6606,8.2193,-0.0396,0.0267,-0.1264,-1.8009168110289515,-0.0035488794092088938,3.017022132873535,-1.62943434715271,0.00017462186224292964,2.146678924560547,4.761994398176231,-2.1281504814396612e-05,0.2863911986351013,-1.1204741636859339,-0.00010366793139837682,-0.0796482264995575,0.8188306093215942,-7.095614903955144e-41,0.008749949745833874,1.079907774925232,0.0003783534630201757,0.16113823652267456
217.0,222.0,0.6867,-4.6606,8.2193,-0.0396,0.0267,-0.1264,-1.800915857354635,-0.0036934411618858576,3.0010838508605957,-1.629446268081665,0.00016204509302042425,2.126051425933838,4.761978506087818,-2.0789919290109538e-05,0.2838825583457947,-1.120446507130758,-0.00010090825526276603,-0.08590921759605408,0.8188184499740601,-3.026804682941605e-43,0.022145776078104973,1.0799281597137451,0.000337774254148826,0.1673048734664917
217.0,222.0,0.6867,-4.6606,8.2193,-0.0396,0.0267,-0.1264,-1.8008953533568324,-0.003416953608393669,3.034482955932617,-1.6294786930084229,0.0001462455838918686,2.196277141571045,4.761958709895172,-2.0093686543987133e-05,0.2768964469432831,-1.1204302946673792,-9.555600263411179e-05,-0.07507140189409256,0.8187662363052368,-0.0,0.0203658789396286,1.0799806118011475,0.000373558490537107,0.13460153341293335
217.0,222.0,0.6867,-4.6606,8.2193,-0.0396,0.0267,-0.1264,-1.800976892510885,-0.003750154282897711,3.0268332958221436,-1.6294100284576416,0.00013731999206356704,2.1415634155273438,4.761962640076437,-1.2974899163964437e-06,0.28910133242607117,-1.1204503218280237,-9.228976705344394e-05,-0.08516283333301544,0.8187621831893921,-0.0,0.02128838375210762,1.0799723863601685,0.0004354474076535553,0.20545005798339844
217.0,222.0,0.6867,-4.6606,8.2193,-0.0396,0.0267,-0.1264,-1.8008858166136683,-0.003807712346315384,3.0046093463897705,-1.6294384002685547,0.00012580268958117813,2.168941020965576,4.761934614717521,-3.6116110102568655e-10,0.2871294319629669,-1.120457951222555,-8.77885686350055e-05,-0.09897778928279877,0.8188101649284363,-0.0,0.016942007467150688,1.0800081491470337,0.0005289256223477423,0.16372054815292358
217.0,222.0,0.6867,-4.6606,8.2193,-0.0396,0.0267,-0.1264,-1.8008977375426234,-0.0041303010657429695,3.0118627548217773,-1.6294262409210205,0.00011914133210666478,2.1952950954437256,4.761958654015817,-1.5396862387481725e-12,0.29616835713386536,-1.1204822699176233,-9.734241757541895e-05,-0.10774944722652435,0.8188061118125916,-0.0,0.02599726803600788,1.0799765586853027,0.0009283730760216713,0.17735132575035095
217.0,222.0,0.6867,-4.6606,8.2193,-0.0396,0.0267,-0.1264,-1.8010369739928187,-0.004450338892638683,3.0078229904174805,-1.6294143199920654,0.0001103745453292504,2.1607837677001953,4.761970634549417,-4.285773101985374e-16,0.26610833406448364,-1.120434586201803,-9.472004603594542e-05,-0.09391293674707413,0.8188544511795044,-0.0,0.016366833820939064,1.079947829246521,0.0010904133087024093,0.20258328318595886
217.0,222.0,0.6867,-4.6606,8.2193,-0.0396,0.0267,-0.1264,-1.8009869060912074,-0.004248153418302536,3.033358097076416,-1.6294143199920654,0.00012625189265236259,2.148859977722168,4.761978498637237,-1.827092253438766e-18,0.284524142742157,-1.1204784552203577,-9.195541497319937e-05,-0.0853005200624466,0.8188060522079468,-0.0,0.03148995339870453,1.0799683332443237,0.0011504471767693758,0.2340487539768219
217.0,222.0,0.6867,-4.6606,8.2193,-0.0396,0.0267,-0.1264,-1.800957819024557,-0.0045976159162819386,3.0514066219329834,-1.6294665336608887,0.0001179804967250675,2.2029857635498047,4.761970601021805,-5.085779440201642e-22,0.2841250002384186,-1.1204541365252894,-8.809778228169307e-05,-0.09918763488531113,0.818810224533081,-0.0,0.029230106621980667,1.0799760818481445,0.0012687824200838804,0.17840173840522766
217.0,222.0,0.6867,-4.6606,8.2193,-0.0396,0.0267,-0.1264,-1.8010312519469203,-0.004738289397209883,3.0341811180114746,-1.6294102668762207,0.0001296756963711232,2.149636745452881,4.7619464499648,-2.168147515967858e-24,0.2855837047100067,-1.120434586201803,-8.570098725613207e-05,-0.08983945846557617,0.8187978267669678,-0.0,0.027645427733659744,1.0799720287322998,0.0012786935549229383,0.1931351125240326
217.0,222.0,0.6867,-4.6606,8.2193,-0.0396,0.0267,-0.1264,-1.8010546169676722,-0.00454011932015419,3.0420658588409424,-1.6294143199920654,0.0001240885176230222,2.1777470111846924,4.7619464499648,-6.035118629338633e-28,0.28774431347846985,-1.120434586201803,-8.234066626755521e-05,-0.09754753112792969,0.8188542127609253,-0.0,0.02790256217122078,1.0799678564071655,0.0011676709400489926,0.20392626523971558
217.0,222.0,0.6867,-4.6606,8.2193,-0.0396,0.0267,-0.1264,-1.801131387750143,-0.004734075162559748,3.0092201232910156,-1.62943434715271,0.00013060818309895694,2.17521595954895,4.761942557036438,-2.5728657994300796e-30,0.29281237721443176,-1.120434586201803,-8.024310227483511e-05,-0.09719179570674896,0.8188626766204834,-0.0,0.011687305755913258,1.0799916982650757,0.0010842098854482174,0.2097128927707672
217.0,222.0,0.6867,-4.6606,8.2193,-0.0396,0.0267,-0.1264,-1.8011518917479457,-0.005025847349315882,3.08328914642334,-1.629394292831421,0.0001294214598601684,2.1692466735839844,4.761938574701109,-7.161667189961131e-34,0.2937859296798706,-1.1204703489886683,-7.728982745902613e-05,-0.10356160998344421,0.8187979459762573,-0.0,0.02158830501139164,1.0799757242202759,0.0010382708860561252,0.1889210343360901
217.0,222.0,0.6867,-4.6606,8.2193,-0.0396,0.0267,-0.1264,-1.8011681042113246,-0.005180484615266323,3.052191734313965,-1.629366397857666,8.57060294947587e-05,2.1667380332946777,4.761990434467354,-3.0531309780843646e-36,0.285538911819458,-1.120434586201803,-7.543884566985071e-05,-0.09117835760116577,0.8188021183013916,-0.0,0.024653235450387,1.079967975616455,0.0010635454673320055,0.21066167950630188
217.0,222.0,0.6867,-4.6606,8.2193,-0.0396,0.0267,-0.1264,-1.8011914692320765,-0.0058905333280563354,3.071532964706421,-1.6294224262237549,0.0001132725301431492,2.1951045989990234,4.761974575906553,-8.498496835544648e-40,0.2858460545539856,-1.1204622427569788,-7.282285514520481e-05,-0.10177908837795258,0.8188384771347046,-0.0,0.033320117741823196,1.0799834728240967,0.001023866469040513,0.1938074380159378
217.0,219.0,0.7591,-4.6116,8.2415,-0.0345,0.0261,-0.1258,-1.801232477227682,-0.006040836218744516,3.0347909927368164,-1.629446268081665,0.000125123726320453,2.1668543815612793,4.761950480728903,-3.622356530279652e-42,0.2860560715198517,-1.1204541365252894,-8.067402086453512e-05,-0.090666264295578,0.8188464045524597,-0.0,0.029539719223976135,1.0800482034683228,0.0011374879395589232,0.2068278044462204
217.0,219.0,0.7591,-4.6116,8.2415,-0.0345,0.0261,-0.1258,-1.8012358150877894,-0.0062639289535582066,3.084383010864258,-1.6293621063232422,0.0006141965277493,2.1676595211029053,4.761962591647663,-1.401298464324817e-45,0.2908608019351959,-1.120457951222555,-5.193735432840185e-06,-0.09320640563964844,0.8187979459762573,-0.0,0.027766790241003036,1.0800034999847412,0.0014096011873334646,0.15633505582809448
217.0,219.0,0.7591,-4.6116,8.2415,-0.0345,0.0261,-0.1258,-1.801279684106344,-0.0067288740538060665,3.0327115058898926,-1.6294264793395996,0.0009231835720129311,2.1990880966186523,4.761970571219482,-0.0,0.28626400232315063,-1.1204584280597132,-2.2141708910794478e-08,-0.08522637188434601,0.8188384175300598,-0.0,0.026298297569155693,1.0800641775131226,0.0016415698919445276,0.20810534060001373
217.0,219.0,0.7591,-4.6116,8.2415,-0.0345,0.0261,-0.1258,-1.8013035259642542,-0.0066072093322873116,3.023893356323242,-1.6294186115264893,0.0011528308968991041,2.1546335220336914,4.761922712415018,-0.0,0.3010779619216919,-1.1204946676837366,-6.163225745731138e-12,-0.09901610016822815,0.8188381195068359,6.106074579292908e-05,0.021637268364429474,1.0800559520721436,0.0020274179987609386,0.2260442078113556
217.0,219.0,0.7591,-4.6116,8.2415,-0.0345,0.0261,-0.1258,-1.8013111553587855,-0.00733069097623229,3.0802972316741943,-1.629442811012268,0.0011402745731174946,2.1554312705993652,4.761954757362165,-0.0,0.2923680543899536,-1.1204784552203577,-2.6274796005370735e-14,-0.09946447610855103,0.8187662959098816,5.947976387687959e-05,0.038551267236471176,1.0801002979278564,0.002536146668717265,0.26391592621803284
217.0,219.0,0.7591,-4.6116,8.2415,-0.0345,0.0261,-0.1258,-1.8014246426024378,-0.0073621696792542934,3.037503719329834,-1.6294187307357788,0.0010400128085166216,2.142120122909546,4.761942508607664,-0.0,0.28028732538223267,-1.1204422155963343,-9.535963909002021e-05,-0.10223416984081268,0.8188142776489258,5.721122943214141e-05,0.03093026764690876,1.0801326036453247,0.002911597490310669,0.2237299382686615
217.0,219.0,0.7591,-4.6116,8.2415,-0.0345,0.0261,-0.1258,-1.8013955555357875,-0.007993756793439388,3.0098304748535156,-1.629350185394287,0.0010007478995248675,2.1534900665283203,4.761986545264282,-0.0,0.3006710410118103,-1.1204822699176233,-9.312340262113139e-05,-0.10947398096323013,0.8187741041183472,5.57926032342948e-05,0.025727752596139908,1.0800957679748535,0.0035195634700357914,0.24367517232894897
217.0,219.0,0.7591,-4.6116,8.2415,-0.0345,0.0261,-0.1258,-1.801455637017721,-0.0075790248811244965,3.006624221801758,-1.6293582916259766,0.0010347270872443914,2.1827094554901123,4.761982533126631,-0.0,0.3017595410346985,-1.120457951222555,-0.00010137465869775042,-0.11200713366270065,0.8188462853431702,5.379182766773738e-05,0.03776984661817551,1.080103874206543,0.004553183447569609,0.21991395950317383
217.0,219.0,0.7591,-4.6116,8.2415,-0.0345,0.0261,-0.1258,-1.8015042744078578,-0.007607589941471815,3.0204970836639404,-1.6293988227844238,0.0011068398598581553,2.1681623458862305,4.76195081973032,-0.0,0.3000926971435547,-1.1204541365252894,-0.00010001601913245395,-0.11405318975448608,0.8188421726226807,5.253582276054658e-05,0.024215251207351685,1.080123782157898,0.004105688538402319,0.27823686599731445
217.0,219.0,0.7591,-4.6116,8.2415,-0.0345,0.0261,-0.1258,-1.8015033207335414,-0.008410430513322353,2.964205026626587,-1.6293660402297974,0.0013785025803372264,2.2093167304992676,4.761994357198038,-0.0,0.2923336625099182,-1.1204541365252894,-0.000105604252894409,-0.1012866199016571,0.8188021183013916,6.090682654757984e-05,0.04426516592502594,1.0801560878753662,0.00396007439121604,0.24755585193634033
217.0,219.0,0.7591,-4.6116,8.2415,-0.0345,0.0261,-0.1258,-1.8016206226744593,-0.007742033340036869,3.0408873558044434,-1.6293542385101318,0.0017771671991795301,2.1749932765960693,4.76199837306098,-0.0,0.2966332733631134,-1.1204741636859339,-0.00010589119483483955,-0.12281125783920288,0.818850040435791,3.0192781196092255e-05,0.0318731963634491,1.080167531967163,0.0039476691745221615,0.2414509654045105
217.0,219.0,0.7591,-4.6116,8.2415,-0.0345,0.0261,-0.1258,-1.801641126672262,-0.007536643650382757,3.01129150390625,-1.6293542385101318,0.0025976274628192186,2.1874959468841553,4.761982533126631,-0.0,0.29505783319473267,-1.120514218007223,-0.00024325503909494728,-0.1073855608701706,0.8187815546989441,8.404271945039454e-09,0.03138012811541557,1.0802122354507446,0.0042480784468352795,0.26184237003326416
217.0,219.0,0.7591,-4.6116,8.2415,-0.0345,0.0261,-0.1258,-1.8016401729979457,-0.007751628756523132,3.001593589782715,-1.6293823719024658,0.0028489362448453903,2.263700008392334,4.761990412115612,-0.0,0.29616084694862366,-1.1204741636859339,-0.0002723269572015852,-0.12000994384288788,0.818810224533081,3.582872887264443e-11,0.03169403225183487,1.0802159309387207,0.004596797749400139,0.3142758905887604
217.0,219.0,0.7591,-4.6116,8.2415,-0.0345,0.0261,-0.1258,-1.801765581170553,-0.007618245668709278,3.086416721343994,-1.6292616128921509,0.0037754932418465614,2.1709964275360107,4.761978509813108,-0.0,0.30091795325279236,-1.120457951222555,-0.0002377786731813103,-0.11971689760684967,0.8188867568969727,9.97305909459633e-15,0.0306427963078022,1.0802319049835205,0.0052347625605762005,0.266083300113678
217.0,219.0,0.7591,-4.6116,8.2415,-0.0345,0.0261,-0.1258,-1.8017288647093714,-0.007703864481300116,3.02960205078125,-1.6292575597763062,0.0046416944824159145,2.24314546585083,4.7620023777480505,-0.0,0.2952654957771301,-1.1204741636859339,-0.00025247345911338925,-0.11867696791887283,0.8188540935516357,4.25167195257561e-17,0.03615908324718475,1.08027982711792,0.005195721052587032,0.353481650352478
217.0,219.0,0.7591,-4.6116,8.2415,-0.0345,0.0261,-0.1258,-1.801788946191305,-0.008193191140890121,3.0125491619110107,-1.6292665004730225,0.005801843944936991,2.2354729175567627,4.762002347945728,-0.0,0.2951374351978302,-1.120514218007223,-0.00025978434132412076,-0.1304500550031662,0.8187897801399231,1.1834684665710707e-20,0.037018969655036926,1.080303430557251,0.0057883127592504025,0.32438093423843384
217.0,219.0,0.7591,-4.6116,8.2415,-0.0345,0.0261,-0.1258,-1.8017965755858363,-0.008717932738363743,3.013892650604248,-1.629230260848999,0.006058289669454098,2.2269954681396484,4.761962640076437,-0.0,0.2817782461643219,-1.1204941908465784,-0.0002423312107566744,-0.12219685316085815,0.8187857270240784,5.0453113806347834e-23,0.035865671932697296,1.080328106880188,0.005666961893439293,0.2960754334926605
217.0,219.0,0.7591,-4.6116,8.2415,-0.0345,0.0261,-0.1258,-1.801868577996725,-0.010561615228652954,2.9634029865264893,-1.6291818618774414,0.00789426825940609,2.1701464653015137,4.761978520988979,-0.0,0.3043243885040283,-1.1204898993121546,-0.0002823906543198973,-0.1271107792854309,0.8188540935516357,1.404381028024977e-26,0.04212097078561783,1.080368161201477,0.0062944027595222,0.2966766357421875
219.0,224.0,0.7992,-4.7019,8.2134,-0.0351,0.0151,-0.1197,-1.8019010029234828,-0.010610840283334255,3.05085825920105,-1.6291661262512207,0.007685145363211632,2.2346549034118652,4.7619785135383985,-0.0,0.3054051101207733,-1.120474640523092,-0.00030118197901174426,-0.13203002512454987,0.8188540935516357,5.987096288399067e-29,0.04369107633829117,1.0803799629211426,0.006834112573415041,0.34104716777801514
219.0,224.0,0.7992,-4.7019,8.2134,-0.0351,0.0151,-0.1197,-1.8020135364928187,-0.011855946853756905,3.0095102787017822,-1.6291344165802002,0.009073355235159397,2.2120392322540283,4.762002344220438,-0.0,0.2980174124240875,-1.1204741636859339,-0.00025817600544542074,-0.11744580417871475,0.8188421726226807,1.666530373381817e-32,0.02671925723552704,1.0804319381713867,0.008193755522370338,0.3471579849720001
219.0,224.0,0.7992,-4.7019,8.2134,-0.0351,0.0151,-0.1197,-1.802054067651266,-0.01231045089662075,2.9910693168640137,-1.6290899515151978,0.01032875757664442,2.201340675354004,4.761982480972566,-0.0,0.30061593651771545,-1.1204827467547815,-0.0002745526726357639,-0.12430645525455475,0.8188020586967468,7.104679820763992e-35,0.03577996790409088,1.0804963111877441,0.008304609917104244,0.35210752487182617
219.0,224.0,0.7992,-4.7019,8.2134,-0.0351,0.0151,-0.1197,-1.8020850620665492,-0.014053727500140667,2.9959983825683594,-1.6289979219436646,0.012388166040182114,2.2563793659210205,4.761982577830114,-0.0,0.2952684462070465,-1.1204827467547815,-0.0002777978661470115,-0.12901699542999268,0.8188221454620361,1.977613566604306e-38,0.04829644411802292,1.0805360078811646,0.008922272361814976,0.3091807961463928
219.0,224.0,0.7992,-4.7019,8.2134,-0.0351,0.0151,-0.1197,-1.8021851978697718,-0.015651363879442215,3.0123372077941895,-1.6289423704147339,0.014098426327109337,2.2315430641174316,4.761978517263689,-0.0,0.3117692768573761,-1.1205018202411097,-0.0002905151923187077,-0.12299129366874695,0.8188098669052124,8.879329107003286e-05,0.03821909427642822,1.0805805921554565,0.009730177000164986,0.33690232038497925
219.0,224.0,0.7992,-4.7019,8.2134,-0.0351,0.0151,-0.1197,-1.8022052250304164,-0.017407478764653206,2.9915237426757812,-1.6288824081420898,0.015800146386027336,2.225313663482666,4.761990438192644,-0.0,0.2978470027446747,-1.1204784552203577,-0.0003388048498891294,-0.13225753605365753,0.8188582062721252,8.735011942917481e-05,0.033781565725803375,1.0806480646133423,0.0111948037520051,0.3537493646144867
219.0,224.0,0.7992,-4.7019,8.2134,-0.0351,0.0151,-0.1197,-1.8023339710631312,-0.019054589793086052,2.9957244396209717,-1.6288098096847534,0.019025985151529312,2.2500905990600586,4.761994372099199,-0.0,0.3044514060020447,-1.1204784552203577,-0.00033603276824578643,-0.1417483389377594,0.8188185095787048,8.255112334154546e-05,0.03659151867032051,1.0806355476379395,0.012299108318984509,0.35351839661598206
219.0,224.0,0.7992,-4.7019,8.2134,-0.0351,0.0151,-0.1197,-1.802417894402975,-0.021272217854857445,2.969513177871704,-1.628718614578247,0.021478263661265373,2.2825589179992676,4.761982533126631,-0.0,0.32139483094215393,-1.1205104033099573,-0.0003454996913205832,-0.12267308682203293,0.8188384771347046,7.962960808072239e-05,0.02990787848830223,1.0807442665100098,0.013349591754376888,0.32055535912513733
219.0,224.0,0.7992,-4.7019,8.2134,-0.0351,0.0151,-0.1197,-1.8025175533690394,-0.0249662846326828,2.98828125,-1.6285020112991333,0.0250474251806736,2.2267298698425293,4.761966644763508,-0.0,0.291631281375885,-1.1205185095416468,-0.0006013002130202949,-0.13895165920257568,0.8188905715942383,7.561532402178273e-05,0.04515615850687027,1.080819845199585,0.014338412322103977,0.3921600580215454
219.0,224.0,0.7992,-4.7019,8.2134,-0.0351,0.0151,-0.1197,-1.8026300869383753,-0.028213122859597206,2.9568889141082764,-1.628474235534668,0.02749629132449627,2.283560276031494,4.761994420527973,-0.0,0.29711830615997314,-1.1205104033099573,-0.0005926141166128218,-0.140453040599823,0.8188258409500122,7.315674156416208e-05,0.028589993715286255,1.0808759927749634,0.01524514053016901,0.3961130976676941
219.0,224.0,0.7992,-4.7019,8.2134,-0.0351,0.0151,-0.1197,-1.8028308353819789,-0.03386804461479187,2.9917421340942383,-1.6282423734664917,0.03290161117911339,2.2284677028656006,4.761994405626812,-0.0,0.2916596233844757,-1.120486084614889,-0.0006057975115254521,-0.13208317756652832,0.8188257813453674,6.975472206249833e-05,0.02754536271095276,1.080964207649231,0.016771387308835983,0.4119667708873749
219.0,224.0,0.7992,-4.7019,8.2134,-0.0351,0.0151,-0.1197,-1.802991052667135,-0.03722069412469864,2.915039539337158,-1.6281147003173828,0.03677329421043396,2.278993844985962,4.7619587173457525,-0.0,0.2907894253730774,-1.1205223242389124,-0.0007329605869017541,-0.15136122703552246,0.8188422322273254,6.765716534573585e-05,0.03371775895357132,1.081016182899475,0.017186079174280167,0.40886390209198
219.0,224.0,0.7992,-4.7019,8.2134,-0.0351,0.0151,-0.1197,-1.803195138970846,-0.042686499655246735,2.932311534881592,-1.6278785467147827,0.043262235820293427,2.2633349895477295,4.761974561005392,-0.0,0.30538851022720337,-1.1205185095416468,-0.000934862531721592,-0.13695232570171356,0.818793773651123,6.473719258792698e-05,0.030759494751691818,1.0810997486114502,0.018163645640015602,0.4299677014350891
219.0,224.0,0.7992,-4.7019,8.2134,-0.0351,0.0151,-0.1197,-1.8033715687193812,-0.04505776986479759,2.9234938621520996,-1.6276942491531372,0.048174310475587845,2.287729263305664,4.761994342296877,-0.0,0.28585678339004517,-1.1205146948443812,-0.0007636541267856956,-0.1421530544757843,0.8188138008117676,6.292664329521358e-05,0.030490268021821976,1.0811798572540283,0.018908264115452766,0.3882576823234558
219.0,224.0,0.7992,-4.7019,8.2134,-0.0351,0.0151,-0.1197,-1.8036233387389125,-0.04905077442526817,2.922262191772461,-1.6273502111434937,0.05564175918698311,2.3101329803466797,4.762010275363483,-0.0,0.286573588848114,-1.1205266157733362,-0.0008733844151720405,-0.15606895089149475,0.818850040435791,6.039311847416684e-05,0.0352349653840065,1.0812718868255615,0.019701369106769562,0.38057461380958557
219.0,224.0,0.7992,-4.7019,8.2134,-0.0351,0.0151,-0.1197,-1.8038855991759242,-0.05196547880768776,2.8909802436828613,-1.6271226406097412,0.060390520840883255,2.3074848651885986,4.761962584197082,-0.0,0.2930178642272949,-1.120538059865133,-0.0014052760088816285,-0.15304705500602722,0.8188462853431702,5.881445758859627e-05,0.032108794897794724,1.0813558101654053,0.02033405937254429,0.4225468039512634
219.0,224.0,0.7992,-4.7019,8.2134,-0.0351,0.0151,-0.1197,-1.804185529748434,-0.05671163275837898,2.88850998878479,-1.6266977787017822,0.06946944445371628,2.30985164642334,4.761994398176231,-0.0,0.29135364294052124,-1.1205299536334437,-0.00138627621345222,-0.1356591284275055,0.8189064860343933,5.659534872393124e-05,0.02853810228407383,1.0814998149871826,0.020864833146333694,0.41453129053115845
219.0,224.0,0.7992,-4.7019,8.2134,-0.0351,0.0151,-0.1197,-1.8044005833067835,-0.06042269617319107,2.9186134338378906,-1.6263540983200073,0.0761721134185791,2.3078014850616455,4.761978506087818,-0.0,0.31167784333229065,-1.1205180327044886,-0.0032835283782333136,-0.13663002848625183,0.8188462853431702,5.520671038539149e-05,0.04618527740240097,1.081587791442871,0.02182259038090706,0.41996830701828003
223.0,221.0,0.3176,-4.6319,8.0985,-0.0203,0.0194,-0.1034,-1.804817338983053,-0.06419575214385986,2.9280924797058105,-1.6258944272994995,0.08461041003465652,2.307713031768799,4.761954749911585,-0.0,0.2954822778701782,-1.1205828825580042,-0.007738953921943903,-0.1468418389558792,0.8188381195068359,5.324698577169329e-05,0.04659591242671013,1.0816999673843384,0.022931983694434166,0.383512407541275
223.0,221.0,0.3176,-4.6319,8.0985,-0.0203,0.0194,-0.1034,-1.8050953350462855,-0.0659608393907547,2.9231667518615723,-1.6255203485488892,0.09008415043354034,2.3668904304504395,4.761962647527017,-0.0,0.30137765407562256,-1.1206544081317347,-0.010802824050188065,-0.14220064878463745,0.8187898397445679,5.201603562454693e-05,0.047775790095329285,1.0818361043930054,0.023712025955319405,0.4300786852836609
223.0,221.0,0.3176,-4.6319,8.0985,-0.0203,0.0194,-0.1034,-1.8054944477477015,-0.0703248381614685,2.8878121376037598,-1.6249582767486572,0.09770062565803528,2.3424015045166016,4.761994398176231,-0.0,0.300530344247818,-1.1206820646869105,-0.010603652335703373,-0.14601832628250122,0.818810224533081,6.0321573982946575e-05,0.04439721256494522,1.081959843635559,0.025885723531246185,0.39284586906433105
223.0,221.0,0.3176,-4.6319,8.0985,-0.0203,0.0194,-0.1034,-1.8057834110655726,-0.07030279189348221,2.890589714050293,-1.6245665550231934,0.09986671805381775,2.3621585369110107,4.762006319105186,-0.0,0.29732611775398254,-1.1207144896136683,-0.007435892708599567,-0.15206697583198547,0.8188061118125916,3.895399004250066e-06,0.04316291585564613,1.0820800065994263,0.02758784405887127,0.40128564834594727
223.0,221.0,0.3176,-4.6319,8.0985,-0.0203,0.0194,-0.1034,-1.806183477441305,-0.06975089758634567,2.9336190223693848,-1.623874306678772,0.10120191425085068,2.316429376602173,4.762002347945728,-0.0,0.2996271252632141,-1.1206496397601526,-0.0017686400096863508,-0.1365373730659485,0.8188180923461914,1.0842986508663444e-09,0.03698105365037918,1.0822117328643799,0.030869634822010994,0.4344446659088135
223.0,221.0,0.3176,-4.6319,8.0985,-0.0203,0.0194,-0.1034,-1.8064929447569789,-0.06964512914419174,2.9486682415008545,-1.6234582662582397,0.10414738953113556,2.3962907791137695,4.761970615922966,-0.0,0.29189151525497437,-1.1206935087787073,-1.1959705261688214e-05,-0.1404876559972763,0.8188827633857727,4.622534993670158e-12,0.045818351209163666,1.0824083089828491,0.03372626379132271,0.40099620819091797
223.0,221.0,0.3176,-4.6319,8.0985,-0.0203,0.0194,-0.1034,-1.8068801365294398,-0.06917531788349152,2.9211859703063965,-1.6228623390197754,0.1080804318189621,2.3716609477996826,4.761994398176231,-0.0,0.3069971799850464,-1.1206896940814417,-3.3290281642450736e-09,-0.144636869430542,0.8188303112983704,1.286699480449393e-15,0.04578172788023949,1.0825879573822021,0.03763345256447792,0.3928799033164978
223.0,221.0,0.3176,-4.6319,8.0985,-0.0203,0.0194,-0.1034,-1.807140966454977,-0.07015983760356903,2.910478115081787,-1.6223467588424683,0.10870666056871414,2.3433356285095215,4.7620102418358705,-0.0,0.30077219009399414,-1.1207216421710413,-1.4192167406557044e-11,-0.14378197491168976,0.8188381195068359,5.485401496440794e-18,0.031076747924089432,1.082760214805603,0.04013694077730179,0.39070895314216614
223.0,221.0,0.3176,-4.6319,8.0985,-0.0203,0.0194,-0.1034,-1.8076335392394007,-0.07469877600669861,2.8909177780151367,-1.6216992139816284,0.1124599352478981,2.373472213745117,4.761990438192644,-0.0,0.312078058719635,-1.1206658522235315,-3.950441387315547e-15,-0.14964237809181213,0.8188340663909912,1.5268816057449274e-21,0.03415801376104355,1.0830204486846924,0.04322776198387146,0.4342626929283142
223.0,221.0,0.3176,-4.6319,8.0985,-0.0203,0.0194,-0.1034,-1.8079477749266566,-0.07756781578063965,2.925485134124756,-1.621225118637085,0.11705324053764343,2.35483980178833,4.762006319105186,-0.0,0.3028761148452759,-1.1206854025470179,-1.684135094946534e-17,-0.12450496852397919,0.8188138008117676,6.509335457668208e-24,0.04194549471139908,1.0831799507141113,0.045431602746248245,0.38596105575561523
223.0,221.0,0.3176,-4.6319,8.0985,-0.0203,0.0194,-0.1034,-1.8084045849242152,-0.08051913976669312,2.9657769203186035,-1.6205189228057861,0.12762092053890228,2.3693289756774902,4.761962640076437,-0.0,0.30822890996932983,-1.1206978003131312,-4.687851039497867e-21,-0.14281083643436432,0.8188298940658569,1.811897558310012e-27,0.039952874183654785,1.0834519863128662,0.04770052433013916,0.3723606467247009
223.0,221.0,0.3176,-4.6319,8.0985,-0.0203,0.0194,-0.1034,-1.808739801446432,-0.0836716815829277,2.965287685394287,-1.6199331283569336,0.13283444941043854,2.3724801540374756,4.761978506087818,-0.0,0.3184901773929596,-1.1207221190081995,-1.9985044771357995e-23,-0.12781210243701935,0.8188582062721252,7.724403211908724e-30,0.03487011045217514,1.083640217781067,0.04856095090508461,0.37176501750946045
