ramyac6/ROB537/final_project/csv/all/bad_74.csv
tof_0,tof_1,accelx,accely,accelz,gyrox,gyroy,gyroz,shoulder_lift_joint_position,shoulder_lift_joint_velocity,shoulder_lift_joint_effort,elbow_joint_position,elbow_joint_velocity,elbow_joint_effort,wrist_1_joint_position,wrist_1_joint_velocity,wrist_1_joint_effort,wrist_2_joint_position,wrist_2_joint_velocity,wrist_2_joint_effort,wrist_3_joint_position,wrist_3_joint_velocity,wrist_3_joint_effort,shoulder_pan_joint_position,shoulder_pan_joint_velocity,shoulder_pan_joint_effort
8190.0,224.0,-2.5986,-0.4881,9.4223,-0.0373,0.0212,-0.1138,-2.1636787853636683,0.0,4.31922721862793,-1.4749826192855835,-0.0,1.8825163841247559,5.38121788480834,-0.0,0.2388334423303604,-1.5145023504840296,0.0,-0.005810286849737167,0.7427095174789429,0.0,0.023669812828302383,1.4266679286956787,0.0,0.0112529955804348
8190.0,224.0,-2.5986,-0.4881,9.4223,-0.0373,0.0212,-0.1138,-2.1636344395079554,0.0,4.270780086517334,-1.4749661684036255,-0.0,1.9341375827789307,5.3812458393867395,-0.0,0.2555812895298004,-1.51447040239443,0.0,-0.0076087601482868195,0.7427819967269897,0.0,0.021686594933271408,1.4266400337219238,0.0,0.00757794501259923
8190.0,224.0,-2.5986,-0.4881,9.4223,-0.0373,0.0212,-0.1138,-2.1636468372740687,0.0,4.340139865875244,-1.4749740362167358,-0.0,1.9516165256500244,5.381177413254537,-0.0,0.24890929460525513,-1.514526669179098,0.0,-0.012019695714116096,0.7427014708518982,0.0,0.020015817135572433,1.4266679286956787,0.0,0.007999899797141552
8190.0,224.0,-2.5986,-0.4881,9.4223,-0.0373,0.0212,-0.1138,-2.163638254205221,0.0,4.317420959472656,-1.4750224351882935,-0.0,1.9550926685333252,5.381246256619253,-0.0,0.2518879175186157,-1.5145109335528772,0.0,-0.010050058364868164,0.7426854372024536,0.0,0.02502841129899025,1.426688313484192,0.0,0.022893954068422318
8190.0,224.0,-2.5986,-0.4881,9.4223,-0.0373,0.0212,-0.1138,-2.1636668644347132,0.0,4.3354644775390625,-1.475006103515625,-0.0,1.953474521636963,5.381273793965139,-0.0,0.2512625455856323,-1.5144947210894983,0.0,-0.012820121832191944,0.7427378296852112,0.0,0.021402914077043533,1.4266719818115234,0.0,0.06255924701690674
8190.0,224.0,-2.5986,-0.4881,9.4223,-0.0373,0.0212,-0.1138,-2.163610120812887,0.0,4.367595672607422,-1.4749865531921387,-0.0,1.9055557250976562,5.381237971573629,-0.0,0.2455931007862091,-1.5144785086261194,0.0,-0.005285731516778469,0.7427898645401001,0.0,0.023817745968699455,1.4266277551651,0.0,-0.00361546128988266
8190.0,224.0,-2.5986,-0.4881,9.4223,-0.0373,0.0212,-0.1138,-2.1636301479735316,0.0,4.322611331939697,-1.4749782085418701,-0.0,1.9201596975326538,5.381205665856161,-0.0,0.24672198295593262,-1.5145109335528772,0.0,-0.0016464600339531898,0.7426854372024536,0.0,0.012284405529499054,1.4266560077667236,0.0,0.04004126787185669
8190.0,224.0,-2.5986,-0.4881,9.4223,-0.0373,0.0212,-0.1138,-2.163658758203024,0.0,4.3450117111206055,-1.4749826192855835,-0.0,1.9309828281402588,5.381265926152029,-0.0,0.2432836890220642,-1.5145109335528772,0.0,-0.0014655902050435543,0.7427898645401001,0.0,0.022847279906272888,1.4266154766082764,0.0,-0.0032437639310956
8190.0,224.0,-2.5986,-0.4881,9.4223,-0.0373,0.0212,-0.1138,-2.163658758203024,0.0,4.334091663360596,-1.474998116493225,-0.0,1.944580078125,5.381233918457784,-0.0,0.2420855164527893,-1.5144746939288538,0.0,-0.006352163851261139,0.7427738308906555,0.0,0.019137907773256302,1.426651954650879,0.0,0.001203020103275776
8190.0,224.0,-2.5986,-0.4881,9.4223,-0.0373,0.0212,-0.1138,-2.1636020145811976,0.0,4.315822601318359,-1.4750264883041382,-0.0,1.941507339477539,5.381238031178274,-0.0,0.25450021028518677,-1.5144947210894983,0.0,-0.008437640964984894,0.7427657842636108,0.0,0.0032303836196660995,1.4266642332077026,0.0,0.01740444265305996
198.0,223.0,-2.5448,-0.5539,9.4283,-0.0334,0.0221,-0.1064,-2.1636468372740687,0.0,4.3358540534973145,-1.4749826192855835,-0.0,1.9089609384536743,5.381201553135671,-0.0,0.25164222717285156,-1.5144909063922327,0.0,0.00043332812492735684,0.7427300214767456,0.0,0.01895996555685997,1.4266923666000366,0.0,0.028574582189321518
198.0,223.0,-2.5448,-0.5539,9.4283,-0.0334,0.0221,-0.1064,-2.163622041741842,0.0,4.340665817260742,-1.4749741554260254,-0.0,1.937938928604126,5.3812458393867395,-0.0,0.2528369128704071,-1.5144785086261194,0.0,-0.00896980706602335,0.7427054047584534,0.0,0.018549244850873947,1.426672101020813,0.0,0.013690439984202385
198.0,223.0,-2.5448,-0.5539,9.4283,-0.0334,0.0221,-0.1064,-2.163642545739645,0.0,4.337174415588379,-1.4750101566314697,-0.0,1.9108760356903076,5.381249952107229,-0.0,0.24771855771541595,-1.5144622961627405,0.0,-0.013081131502985954,0.7426854372024536,0.0,0.010270311497151852,1.4265950918197632,0.0,0.02332601509988308
198.0,223.0,-2.5448,-0.5539,9.4283,-0.0334,0.0221,-0.1064,-2.163654943505758,0.0,4.364044666290283,-1.4750182628631592,-0.0,1.9746711254119873,5.3812458393867395,-0.0,0.24535226821899414,-1.514526669179098,0.0,-0.005151960067451,0.7427412867546082,0.0,0.015758583322167397,1.4266600608825684,0.0,0.03331995755434036
198.0,223.0,-2.5448,-0.5539,9.4283,-0.0334,0.0221,-0.1064,-2.163622041741842,0.0,4.289773941040039,-1.475017786026001,-0.0,1.9217655658721924,5.38122575262145,-0.0,0.23923668265342712,-1.5144622961627405,0.0,-0.006691610440611839,0.7427300214767456,0.0,0.034049734473228455,1.4266560077667236,0.0,0.033963728696107864
198.0,223.0,-2.5448,-0.5539,9.4283,-0.0334,0.0221,-0.1064,-2.163654943505758,0.0,4.294395446777344,-1.4749577045440674,-0.0,1.9187822341918945,5.381258117943563,-0.0,0.25601550936698914,-1.5144746939288538,0.0,-0.0102212680503726,0.7427657842636108,0.0,0.013342425227165222,1.4266884326934814,0.0,-0.0037401882000267506
198.0,223.0,-2.5448,-0.5539,9.4283,-0.0334,0.0221,-0.1064,-2.1636544666686,0.0,4.319187164306641,-1.4750183820724487,-0.0,1.9547690153121948,5.381237971573629,-0.0,0.24740204215049744,-1.5144828001605433,0.0,-0.009616006165742874,0.7427300214767456,0.0,0.01609933003783226,1.4266679286956787,0.0,-0.015152527950704098
198.0,223.0,-2.5448,-0.5539,9.4283,-0.0334,0.0221,-0.1064,-2.1636258564391078,0.0,4.326569080352783,-1.4749940633773804,-0.0,1.9291553497314453,5.38122986534194,-0.0,0.23679423332214355,-1.5144379774676722,0.0,0.005584166385233402,0.7427575588226318,0.0,0.014684656634926796,1.4266761541366577,0.0,0.0052738189697265625
198.0,223.0,-2.5448,-0.5539,9.4283,-0.0334,0.0221,-0.1064,-2.1636506519713343,0.0,4.344274044036865,-1.4749577045440674,-0.0,1.9186956882476807,5.38122986534194,-0.0,0.2612881064414978,-1.5144947210894983,0.0,-0.011104168370366096,0.7426894307136536,0.0,0.019333966076374054,1.4266319274902344,0.0,0.022336445748806
198.0,223.0,-2.5448,-0.5539,9.4283,-0.0334,0.0221,-0.1064,-2.1636668644347132,0.0,4.330419063568115,-1.4749979972839355,-0.0,1.9035178422927856,5.381249892502584,-0.0,0.24017322063446045,-1.5145147482501429,0.0,-0.02275201864540577,0.7427217960357666,0.0,0.01171935349702835,1.426651954650879,0.0,0.023877035826444626
198.0,223.0,-2.5448,-0.5539,9.4283,-0.0334,0.0221,-0.1064,-2.163610120812887,0.0,4.37114953994751,-1.4749906063079834,-0.0,1.945774793624878,5.3812699792678735,-0.0,0.23617497086524963,-1.5144785086261194,0.0,0.008833092637360096,0.7427697777748108,0.0,0.02759784273803234,1.4266440868377686,0.0,-0.031814295798540115
198.0,223.0,-2.5448,-0.5539,9.4283,-0.0334,0.0221,-0.1064,-2.1636787853636683,0.0,4.3160929679870605,-1.474926233291626,-0.0,1.9212806224822998,5.38122986534194,-0.0,0.259027361869812,-1.5145466963397425,0.0,-0.00544796884059906,0.7427534461021423,0.0,0.021528298035264015,1.4266761541366577,0.0,-0.011771118268370628
198.0,223.0,-2.5448,-0.5539,9.4283,-0.0334,0.0221,-0.1064,-2.1636668644347132,0.0,4.2925920486450195,-1.4749577045440674,-0.0,1.8961493968963623,5.381249952107229,-0.0,0.23522096872329712,-1.5144866148578089,0.0,-0.0009577679447829723,0.7427178025245667,0.0,0.016191894188523293,1.4266400337219238,0.0,-0.011959758587181568
198.0,223.0,-2.5448,-0.5539,9.4283,-0.0334,0.0221,-0.1064,-2.163723131219381,0.0,4.347805023193359,-1.4749826192855835,-0.0,1.9308000802993774,5.381258177548208,-0.0,0.2473863661289215,-1.5144990126239222,0.0,-0.008794579654932022,0.7427858114242554,0.0,0.022423341870307922,1.4266560077667236,0.0,0.028937634080648422
198.0,223.0,-2.5448,-0.5539,9.4283,-0.0334,0.0221,-0.1064,-2.1636344395079554,0.0,4.2984514236450195,-1.4749826192855835,-0.0,1.9449775218963623,5.381185579090872,-0.0,0.24334606528282166,-1.5145109335528772,0.0,-0.006673858501017094,0.7427452802658081,0.0,0.023356717079877853,1.4266923666000366,0.0,0.06534045934677124
198.0,223.0,-2.5448,-0.5539,9.4283,-0.0334,0.0221,-0.1064,-2.1636301479735316,0.0,4.285397529602051,-1.4749581813812256,-0.0,1.900520920753479,5.381270038872518,-0.0,0.240066796541214,-1.5144785086261194,0.0,-0.015180718153715134,0.7427616119384766,0.0,0.01710362732410431,1.4266477823257446,0.0,0.009429194033145905
198.0,223.0,-2.5448,-0.5539,9.4283,-0.0334,0.0221,-0.1064,-2.163658758203024,0.0,4.342523574829102,-1.4749621152877808,-0.0,1.920597791671753,5.381241786270895,-0.0,0.2552328109741211,-1.5144785086261194,0.0,-0.01373380422592163,0.7427452802658081,0.0,0.00892866961658001,1.4266760349273682,0.0,0.015265217050909996
198.0,223.0,-2.5448,-0.5539,9.4283,-0.0334,0.0221,-0.1064,-2.1636787853636683,0.0,4.311038970947266,-1.4749940633773804,-0.0,1.92411470413208,5.381193864136495,-0.0,0.23960304260253906,-1.5145228544818323,0.0,-0.019502120092511177,0.7426775097846985,0.0,0.020733654499053955,1.4266642332077026,0.0,0.003785395296290517
197.0,217.0,-2.5238,-0.5324,9.4295,-0.0415,0.0266,-0.1095,-2.1636258564391078,0.0,4.306459903717041,-1.4749701023101807,-0.0,1.9096430540084839,5.381274151593008,-0.0,0.24302560091018677,-1.514526669179098,0.0,-0.014211704954504967,0.7426616549491882,0.0,0.024761900305747986,1.4267044067382812,0.0,0.03727825731039047
197.0,217.0,-2.5238,-0.5324,9.4295,-0.0415,0.0266,-0.1095,-2.1636668644347132,0.0,4.292757987976074,-1.4749701023101807,-0.0,1.924994945526123,5.38122575262145,-0.0,0.25098133087158203,-1.5145028273211878,0.0,-0.00680589908733964,0.7427381873130798,0.0,0.010343709960579872,1.4266400337219238,0.0,0.02893991768360138
197.0,217.0,-2.5238,-0.5324,9.4295,-0.0415,0.0266,-0.1095,-2.1636668644347132,0.0,4.326476097106934,-1.4750337600708008,-0.0,1.9409794807434082,5.381254005223074,-0.0,0.22712492942810059,-1.5145028273211878,0.0,-0.009603071957826614,0.7427054643630981,0.0,0.012684140354394913,1.4266719818115234,0.0,0.02564604952931404
197.0,217.0,-2.5238,-0.5324,9.4295,-0.0415,0.0266,-0.1095,-2.1636301479735316,0.0,4.3355841636657715,-1.4749701023101807,-0.0,1.9190551042556763,5.38122575262145,-0.0,0.2418840229511261,-1.5144622961627405,0.0,-0.014869166538119316,0.742786169052124,0.0,0.011576768942177296,1.4266760349273682,0.0,0.04724791646003723
197.0,217.0,-2.5238,-0.5324,9.4295,-0.0415,0.0266,-0.1095,-2.1636744938292445,0.0,4.380841255187988,-1.4749865531921387,-0.0,1.9260503053665161,5.381222057133474,-0.0,0.2568970024585724,-1.5144904295550745,0.0,-0.014977598562836647,0.7427136898040771,0.0,0.02187322825193405,1.4266400337219238,0.0,-0.013684920966625214
197.0,217.0,-2.5238,-0.5324,9.4295,-0.0415,0.0266,-0.1095,-2.163642545739645,0.0,4.314955711364746,-1.474961757659912,-0.0,1.931443691253662,5.381249892502584,-0.0,0.24323047697544098,-1.514538590108053,0.0,0.0007468501571565866,0.7427657842636108,0.0,0.0194706991314888,1.4266237020492554,0.0,0.05240496248006821
197.0,217.0,-2.5238,-0.5324,9.4295,-0.0415,0.0266,-0.1095,-2.1636506519713343,0.0,4.3267974853515625,-1.4749906063079834,-0.0,1.9283792972564697,5.381213831692495,-0.0,0.24107730388641357,-1.5145185629474085,0.0,-0.01489533856511116,0.7427459955215454,0.0,0.004327950067818165,1.4266400337219238,0.0,0.006614314392209053
197.0,217.0,-2.5238,-0.5324,9.4295,-0.0415,0.0266,-0.1095,-2.1637069187560023,0.0,4.374400615692139,-1.4749701023101807,-0.0,1.9295427799224854,5.381242143898763,-0.0,0.2524957060813904,-1.514482323323385,0.0,-0.019614312797784805,0.7427337765693665,0.0,0.024068864062428474,1.4266440868377686,0.0,0.02452944964170456
197.0,217.0,-2.5238,-0.5324,9.4295,-0.0415,0.0266,-0.1095,-2.1636468372740687,0.0,4.315415382385254,-1.4749979972839355,-0.0,1.930440902709961,5.381209718972006,-0.0,0.24282410740852356,-1.5145185629474085,0.0,-0.010233842767775059,0.7427258491516113,0.0,0.02401309832930565,1.4266600608825684,0.0,0.009308354929089546
197.0,217.0,-2.5238,-0.5324,9.4295,-0.0415,0.0266,-0.1095,-2.1636506519713343,0.0,4.357059955596924,-1.474961757659912,-0.0,1.903383731842041,5.3812458393867395,-0.0,0.2430175244808197,-1.5145023504840296,0.0,-0.012857870198786259,0.7427575588226318,0.0,0.018514949828386307,1.4266115427017212,0.0,0.0048238062299788
197.0,217.0,-2.5238,-0.5324,9.4295,-0.0415,0.0266,-0.1095,-2.1636868915953578,0.0,4.3726115226745605,-1.4749741554260254,-0.0,1.9601422548294067,5.381285714894094,-0.0,0.24630123376846313,-1.5144904295550745,0.0,-0.019469385966658592,0.7427296042442322,0.0,0.028304362669587135,1.4266760349273682,0.0,-0.0053620245307683945
197.0,217.0,-2.5238,-0.5324,9.4295,-0.0415,0.0266,-0.1095,-2.1636744938292445,0.0,4.306795120239258,-1.4749865531921387,-0.0,1.9676806926727295,5.381221997528829,-0.0,0.24301376938819885,-1.5144622961627405,0.0,-0.009394248947501183,0.7427575588226318,0.0,0.019024701789021492,1.4266560077667236,0.0,-0.019094010815024376
197.0,217.0,-2.5238,-0.5324,9.4295,-0.0415,0.0266,-0.1095,-2.1636225185790003,0.0,4.326272010803223,-1.4749741554260254,-0.0,1.8679198026657104,5.381221997528829,-0.0,0.24390578269958496,-1.5144866148578089,0.0,-0.009052093140780926,0.742793619632721,0.0,0.02448859065771103,1.4266560077667236,0.0,-0.03824371472001076
197.0,217.0,-2.5238,-0.5324,9.4295,-0.0415,0.0266,-0.1095,-2.163658758203024,0.0,4.311346530914307,-1.4749865531921387,-0.0,1.9636013507843018,5.381246256619253,-0.0,0.25049108266830444,-1.51447040239443,0.0,-0.010047279298305511,0.7427054643630981,0.0,0.02239532582461834,1.4266560077667236,0.0,0.009492664597928524
197.0,217.0,-2.5238,-0.5324,9.4295,-0.0415,0.0266,-0.1095,-2.163650175134176,0.0,4.343080043792725,-1.4749701023101807,-0.0,1.9024994373321533,5.38122986534194,-0.0,0.2550063133239746,-1.5144904295550745,0.0,-0.011345237493515015,0.7427495121955872,0.0,0.028238320723176003,1.4266360998153687,0.0,-0.010182282887399197
197.0,217.0,-2.5238,-0.5324,9.4295,-0.0415,0.0266,-0.1095,-2.1636463604369105,0.0,4.349117755889893,-1.4749577045440674,-0.0,1.9512355327606201,5.381209718972006,-0.0,0.2622036933898926,-1.5145066420184534,0.0,-0.009757129475474358,0.7427616119384766,0.0,0.020244743674993515,1.4266719818115234,0.0,0.024445602670311928
197.0,217.0,-2.5238,-0.5324,9.4295,-0.0415,0.0266,-0.1095,-2.163622041741842,0.0,4.362685680389404,-1.4750019311904907,-0.0,1.9442466497421265,5.381233918457784,-0.0,0.25365689396858215,-1.5145023504840296,0.0,-0.011298121884465218,0.7427054643630981,0.0,0.019320175051689148,1.426668405532837,0.0,0.05486712232232094
197.0,217.0,-2.5238,-0.5324,9.4295,-0.0415,0.0266,-0.1095,-2.1636468372740687,0.0,4.307879447937012,-1.4749826192855835,-0.0,1.9089168310165405,5.3812458393867395,-0.0,0.24091973900794983,-1.514482323323385,0.0,-0.020655885338783264,0.7427217364311218,0.0,0.027689222246408463,1.4266400337219238,0.0,-0.004349378868937492
178.0,229.0,-2.4903,-0.4816,9.2865,-0.036,0.0258,-0.1153,-2.163650175134176,0.0,4.337542533874512,-1.4750019311904907,-0.0,1.900808334350586,5.381217944412985,-0.0,0.25198984146118164,-1.5145109335528772,0.0,-0.011417275294661522,0.7427418828010559,0.0,0.02910277433693409,1.4266923666000366,0.0,0.01710265502333641
178.0,229.0,-2.4903,-0.4816,9.2865,-0.036,0.0258,-0.1153,-2.1636744938292445,0.0,4.313696384429932,-1.4749656915664673,-0.0,1.9098782539367676,5.381278264313497,-0.0,0.24564625322818756,-1.5145228544818323,0.0,-0.007457521744072437,0.7427582144737244,0.0,0.024588339030742645,1.4266760349273682,0.0,0.021097227931022644
178.0,229.0,-2.4903,-0.4816,9.2865,-0.036,0.0258,-0.1153,-2.1636468372740687,0.0,4.3434224128723145,-1.4750304222106934,-0.0,1.9112787246704102,5.381277906685629,-0.0,0.24571314454078674,-1.5144828001605433,0.0,-0.0014754845760762691,0.7427014112472534,0.0,0.011969443410634995,1.4266477823257446,0.0,0.09113752841949463
178.0,229.0,-2.4903,-0.4816,9.2865,-0.036,0.0258,-0.1153,-2.163610120812887,0.0,4.3817267417907715,-1.4749906063079834,-0.0,1.9176559448242188,5.381222057133474,-0.0,0.24680039286613464,-1.5144904295550745,0.0,-0.008909369818866253,0.7427617311477661,0.0,0.02280360460281372,1.4266600608825684,0.0,0.053939517587423325
178.0,229.0,-2.4903,-0.4816,9.2865,-0.036,0.0258,-0.1153,-2.1636625729002894,0.0,4.338525772094727,-1.4749906063079834,-0.0,1.9037517309188843,5.381237971573629,-0.0,0.2397492229938507,-1.5144746939288538,0.0,-0.013137172907590866,0.7427500486373901,0.0,0.0217642430216074,1.4266560077667236,0.0,0.005317971110343933
178.0,229.0,-2.4903,-0.4816,9.2865,-0.036,0.0258,-0.1153,-2.1636301479735316,0.0,4.337067604064941,-1.4750101566314697,-0.0,1.894749641418457,5.381221997528829,-0.0,0.24117916822433472,-1.5145109335528772,0.0,-0.003079433925449848,0.7427738904953003,0.0,0.014312773011624813,1.4266237020492554,0.0,-0.048833321779966354
178.0,229.0,-2.4903,-0.4816,9.2865,-0.036,0.0258,-0.1153,-2.1636544666686,0.0,4.365455627441406,-1.4749906063079834,-0.0,1.946739673614502,5.381217944412985,-0.0,0.25179752707481384,-1.5145428816424769,0.0,-0.013486908748745918,0.7426894307136536,0.0,0.011058124713599682,1.4266842603683472,0.0,-0.005006939638406038
178.0,229.0,-2.4903,-0.4816,9.2865,-0.036,0.0258,-0.1153,-2.1636468372740687,0.0,4.3733930587768555,-1.4750101566314697,-0.0,1.934525489807129,5.381281959801473,-0.0,0.23911726474761963,-1.5145228544818323,0.0,-0.005456614773720503,0.7427337169647217,0.0,0.022855568677186966,1.4266760349273682,0.0,0.025625159963965416
178.0,229.0,-2.4903,-0.4816,9.2865,-0.036,0.0258,-0.1153,-2.163642545739645,0.0,4.351432800292969,-1.4749536514282227,-0.0,1.941429853439331,5.381297993450918,-0.0,0.24739518761634827,-1.5144746939288538,0.0,-0.027451766654849052,0.7426935434341431,0.0,0.014192262664437294,1.426591396331787,0.0,0.027367927134037018
178.0,229.0,-2.4903,-0.4816,9.2865,-0.036,0.0258,-0.1153,-2.1636625729002894,0.0,4.3351054191589355,-1.4750103950500488,-0.0,1.9767563343048096,5.3812699792678735,-0.0,0.254617840051651,-1.5144785086261194,0.0,-0.017069824039936066,0.7427178025245667,0.0,0.026376061141490936,1.4266400337219238,0.0,0.08115310221910477
178.0,229.0,-2.4903,-0.4816,9.2865,-0.036,0.0258,-0.1153,-2.1636744938292445,0.0,4.334803104400635,-1.4749621152877808,-0.0,1.9473429918289185,5.381221997528829,-0.0,0.2575388550758362,-1.514487091694967,0.0,-0.014881972223520279,0.7427340745925903,0.0,0.018383599817752838,1.4266600608825684,0.0,0.007304714526981115
178.0,229.0,-2.4903,-0.4816,9.2865,-0.036,0.0258,-0.1153,-2.163638254205221,0.0,4.326539039611816,-1.4749536514282227,-0.0,1.955435037612915,5.381197500019827,-0.0,0.24215543270111084,-1.5144947210894983,0.0,-0.0035277078859508038,0.7427095174789429,0.0,0.021801330149173737,1.4266719818115234,0.0,0.04371876269578934
178.0,229.0,-2.4903,-0.4816,9.2865,-0.036,0.0258,-0.1153,-2.163622041741842,0.0,4.374231815338135,-1.474938154220581,-0.0,1.901222825050354,5.381281959801473,-0.0,0.25080162286758423,-1.5144990126239222,0.0,-0.008619798347353935,0.7427217364311218,0.0,0.017652899026870728,1.4266400337219238,0.0,-0.006561592221260071
178.0,229.0,-2.4903,-0.4816,9.2865,-0.036,0.0258,-0.1153,-2.163622041741842,0.0,4.308726787567139,-1.474938154220581,-0.0,1.9587798118591309,5.381233918457784,-0.0,0.2491810917854309,-1.5145109335528772,0.0,-0.01838035136461258,0.7427095174789429,0.0,0.022244257852435112,1.4266760349273682,0.0,-0.034387439489364624
178.0,229.0,-2.4903,-0.4816,9.2865,-0.036,0.0258,-0.1153,-2.163666387597555,0.0,4.327006816864014,-1.4750304222106934,-0.0,1.9388949871063232,5.381229805737295,-0.0,0.24584919214248657,-1.5145147482501429,0.0,-0.01151256263256073,0.7427738308906555,0.0,0.02391998842358589,1.42670476436615,0.0,0.012332097627222538
178.0,229.0,-2.4903,-0.4816,9.2865,-0.036,0.0258,-0.1153,-2.1636258564391078,0.0,4.340195655822754,-1.4750019311904907,-0.0,1.955104112625122,5.381221997528829,-0.0,0.24266354739665985,-1.514538590108053,0.0,-0.0137160774320364,0.7427459955215454,0.0,0.021010102704167366,1.4266560077667236,0.0,0.0031748898327350616
178.0,229.0,-2.4903,-0.4816,9.2865,-0.036,0.0258,-0.1153,-2.1636787853636683,0.0,4.335019111633301,-1.4749661684036255,-0.0,1.937258005142212,5.381254005223074,-0.0,0.24082991480827332,-1.5145228544818323,0.0,-0.02218814566731453,0.7427534461021423,0.0,0.01818189024925232,1.4266237020492554,0.0,-0.035685863345861435
178.0,229.0,-2.4903,-0.4816,9.2865,-0.036,0.0258,-0.1153,-2.163650175134176,0.0,4.305931568145752,-1.4749741554260254,-0.0,1.963921308517456,5.381229805737295,-0.0,0.24763944745063782,-1.5144866148578089,0.0,-0.003133164718747139,0.7427258491516113,0.0,0.02068503573536873,1.4266440868377686,0.0,0.08244030177593231
205.0,222.0,-2.4975,-0.472,9.2333,-0.038,0.0221,-0.109,-2.163642545739645,0.0,4.303656578063965,-1.4749661684036255,-0.0,1.9331262111663818,5.381201553135671,-0.0,0.23721906542778015,-1.5144904295550745,0.0,-0.021644053980708122,0.7427738308906555,0.0,0.018691740930080414,1.4266196489334106,0.0,0.018473723903298378
205.0,222.0,-2.4975,-0.472,9.2333,-0.038,0.0221,-0.109,-2.163650175134176,0.0,4.339358806610107,-1.4750144481658936,-0.0,1.91895592212677,5.38124172666625,-0.0,0.2393452227115631,-1.5144947210894983,0.0,-0.0024252550210803747,0.7427299618721008,0.0,0.013720215298235416,1.426688313484192,0.0,0.0295486468821764
205.0,222.0,-2.4975,-0.472,9.2333,-0.038,0.0221,-0.109,-2.163658758203024,0.0,4.347567558288574,-1.4750378131866455,-0.0,1.9374537467956543,5.38121788480834,-0.0,0.25747185945510864,-1.514526669179098,0.0,-0.017063992097973824,0.7427452802658081,0.0,0.006527061574161053,1.4266560077667236,0.0,0.0063135987147688866
205.0,222.0,-2.4975,-0.472,9.2333,-0.038,0.0221,-0.109,-2.163642545739645,0.0,4.3281660079956055,-1.4749979972839355,-0.0,1.9626686573028564,5.381233918457784,-0.0,0.24925114214420319,-1.5145109335528772,0.0,0.003708562348037958,0.7426813244819641,0.0,0.013363288715481758,1.426635980606079,0.0,0.025085100904107094
205.0,222.0,-2.4975,-0.472,9.2333,-0.038,0.0221,-0.109,-2.163597723046774,0.0,4.3165435791015625,-1.4749536514282227,-0.0,1.923163652420044,5.381277847080984,-0.0,0.23627009987831116,-1.5145428816424769,0.0,-0.007414462044835091,0.742669403553009,0.0,0.016233138740062714,1.4266719818115234,0.0,0.05331486463546753
205.0,222.0,-2.4975,-0.472,9.2333,-0.038,0.0221,-0.109,-2.163666387597555,0.0,4.320086479187012,-1.475037932395935,-0.0,1.936847448348999,5.381221997528829,-0.0,0.24461542069911957,-1.5144828001605433,0.0,-0.0036847309675067663,0.7427616715431213,0.0,0.010209227912127972,1.4266440868377686,0.0,0.03238651156425476
205.0,222.0,-2.4975,-0.472,9.2333,-0.038,0.0221,-0.109,-2.163642545739645,0.0,4.3167619705200195,-1.4750183820724487,-0.0,1.923208236694336,5.381254005223074,-0.0,0.2563727796077728,-1.5144746939288538,0.0,-0.0027959777507930994,0.7427977919578552,0.0,0.011349968612194061,1.4266560077667236,0.0,0.014296825043857098
205.0,222.0,-2.4975,-0.472,9.2333,-0.038,0.0221,-0.109,-2.1636544666686,0.0,4.344972610473633,-1.4750224351882935,-0.0,1.9192681312561035,5.381249892502584,-0.0,0.24754369258880615,-1.5144379774676722,0.0,-0.018741769716143608,0.7427217960357666,0.0,0.014367546886205673,1.4266642332077026,0.0,0.014080394059419632
205.0,222.0,-2.4975,-0.472,9.2333,-0.038,0.0221,-0.109,-2.1636668644347132,0.0,4.380348205566406,-1.4750144481658936,-0.0,1.9015264511108398,5.381221639900961,-0.0,0.23608040809631348,-1.5145023504840296,0.0,-0.022332319989800453,0.7427858710289001,0.0,0.024303868412971497,1.4266319274902344,0.0,0.05006210133433342
205.0,222.0,-2.4975,-0.472,9.2333,-0.038,0.0221,-0.109,-2.1636058292784632,0.0,4.333697319030762,-1.474921703338623,-0.0,1.942053198814392,5.381285714894094,-0.0,0.2509128451347351,-1.5145066420184534,0.0,-0.019520115107297897,0.7427738904953003,0.0,0.027182932943105698,1.4266482591629028,0.0,0.008901076391339302
205.0,222.0,-2.4975,-0.472,9.2333,-0.038,0.0221,-0.109,-2.1636744938292445,0.0,4.333363056182861,-1.4750103950500488,-0.0,1.9006850719451904,5.381226169853964,-0.0,0.2598781883716583,-1.5144990126239222,0.0,0.0030329024884849787,0.7427300214767456,0.0,0.0190818402916193,1.4266679286956787,0.0,0.006832028739154339
205.0,222.0,-2.4975,-0.472,9.2333,-0.038,0.0221,-0.109,-2.1636468372740687,0.0,4.351621627807617,-1.4749865531921387,-0.0,1.9007244110107422,5.381237971573629,-0.0,0.24057617783546448,-1.5144947210894983,0.0,-0.009434614330530167,0.7427459955215454,0.0,0.014960396103560925,1.426635980606079,0.0,0.031316060572862625
205.0,222.0,-2.4975,-0.472,9.2333,-0.038,0.0221,-0.109,-2.1636544666686,0.0,4.336361408233643,-1.4749785661697388,-0.0,1.9748239517211914,5.381229805737295,-0.0,0.24952727556228638,-1.5144746939288538,0.0,-0.004999685101211071,0.7426697611808777,0.0,0.02072691172361374,1.4266724586486816,0.0,0.036687761545181274
205.0,222.0,-2.4975,-0.472,9.2333,-0.038,0.0221,-0.109,-2.1636177502074183,0.0,4.322725772857666,-1.475014328956604,-0.0,1.9279450178146362,5.381238031178274,-0.0,0.2306104600429535,-1.5145109335528772,0.0,-0.018276594579219818,0.7427858114242554,0.0,0.03228979557752609,1.4266679286956787,0.0,0.021524064242839813
205.0,222.0,-2.4975,-0.472,9.2333,-0.038,0.0221,-0.109,-2.163658758203024,0.0,4.345901966094971,-1.4749341011047363,-0.0,1.885819673538208,5.381233918457784,-0.0,0.2462083399295807,-1.5145147482501429,0.0,-0.00639744196087122,0.7427738308906555,0.0,0.02331520803272724,1.4266440868377686,0.0,0.003649734891951084
205.0,222.0,-2.4975,-0.472,9.2333,-0.038,0.0221,-0.109,-2.1636344395079554,0.0,4.312649726867676,-1.4749456644058228,-0.0,1.9145164489746094,5.381242203503408,-0.0,0.24728211760520935,-1.5145023504840296,0.0,-0.0028142917435616255,0.7427014708518982,0.0,0.020582303404808044,1.426651954650879,0.0,0.032447781413793564
205.0,222.0,-2.4975,-0.472,9.2333,-0.038,0.0221,-0.109,-2.1636506519713343,0.0,4.289918899536133,-1.4749939441680908,-0.0,1.9673992395401,5.381261873036184,-0.0,0.2492499202489853,-1.5144828001605433,0.0,-0.020374078303575516,0.7427177429199219,0.0,0.012636829167604446,1.4266637563705444,0.0,0.01033121906220913
205.0,222.0,-2.4975,-0.472,9.2333,-0.038,0.0221,-0.109,-2.163666387597555,0.0,4.325796604156494,-1.4749900102615356,-0.0,1.9638434648513794,5.381193387299337,-0.0,0.2507319748401642,-1.5144990126239222,0.0,-0.011678557842969894,0.7427534461021423,0.0,0.014141600579023361,1.4266642332077026,0.0,0.0009096749126911163
200.0,207.0,-2.5454,-0.5252,9.405,-0.0292,0.0272,-0.1135,-2.1636301479735316,0.0,4.356199264526367,-1.4750183820724487,-0.0,1.9498600959777832,5.381274151593008,-0.0,0.24062779545783997,-1.5144904295550745,0.0,-0.014812342822551727,0.7427014112472534,0.0,0.027634480968117714,1.4266642332077026,0.0,-0.005807462148368359
200.0,207.0,-2.5454,-0.5252,9.405,-0.0292,0.0272,-0.1135,-2.1636258564391078,0.0,4.293641090393066,-1.4750103950500488,-0.0,1.9385751485824585,5.38122986534194,-0.0,0.24386459589004517,-1.5144990126239222,0.0,-0.0068437508307397366,0.7427534461021423,0.0,0.02059430256485939,1.4266560077667236,0.0,0.06174362450838089
200.0,207.0,-2.5454,-0.5252,9.405,-0.0292,0.0272,-0.1135,-2.1636744938292445,0.0,4.332145690917969,-1.4749661684036255,-0.0,1.9152952432632446,5.38122575262145,-0.0,0.24644479155540466,-1.5145228544818323,0.0,-0.009940399788320065,0.742729663848877,0.0,0.020453758537769318,1.4266719818115234,0.0,0.0378156416118145
200.0,207.0,-2.5454,-0.5252,9.405,-0.0292,0.0272,-0.1135,-2.1636134586729945,0.0,4.281688213348389,-1.4750059843063354,-0.0,1.9414434432983398,5.381234276085653,-0.0,0.24715295433998108,-1.5144785086261194,0.0,-0.009149434044957161,0.7427452802658081,0.0,0.009647849015891552,1.4266560077667236,0.0,-0.009187538176774979
200.0,207.0,-2.5454,-0.5252,9.405,-0.0292,0.0272,-0.1135,-2.163642545739645,0.0,4.396636962890625,-1.4750101566314697,-0.0,1.913778305053711,5.3812458393867395,-0.0,0.2491438388824463,-1.5144785086261194,0.0,-0.006413773633539677,0.7426652312278748,0.0,0.03047994337975979,1.4266719818115234,0.0,0.0002751849824562669
200.0,207.0,-2.5454,-0.5252,9.405,-0.0292,0.0272,-0.1135,-2.163610120812887,0.0,4.334981441497803,-1.4749865531921387,-0.0,1.9444221258163452,5.3812458393867395,-0.0,0.25024843215942383,-1.5144746939288538,0.0,-0.0132423872128129,0.7426812052726746,0.0,0.04160486161708832,1.4266318082809448,0.0,0.04110729694366455
200.0,207.0,-2.5454,-0.5252,9.405,-0.0292,0.0272,-0.1135,-2.163638254205221,0.0,4.3157501220703125,-1.4750103950500488,-0.0,1.9575217962265015,5.381181525975027,-0.0,0.24498876929283142,-1.5144947210894983,0.0,-0.021420815959572792,0.7427616715431213,0.0,0.01364511251449585,1.4266884326934814,0.0,0.02515859156847
200.0,207.0,-2.5454,-0.5252,9.405,-0.0292,0.0272,-0.1135,-2.163650175134176,0.0,4.304638862609863,-1.4749342203140259,-0.0,1.9372880458831787,5.3812699792678735,-0.0,0.24957332015037537,-1.5144904295550745,0.0,-0.00790095329284668,0.7427899241447449,0.0,0.026042956858873367,1.4266400337219238,0.0,0.009172879159450531
200.0,207.0,-2.5454,-0.5252,9.405,-0.0292,0.0272,-0.1135,-2.1636301479735316,0.0,4.336894989013672,-1.4750064611434937,-0.0,1.9367427825927734,5.381249892502584,-0.0,0.25622880458831787,-1.5144942442523401,0.0,-0.010399581864476204,0.7427095174789429,0.0,0.016808293759822845,1.4266719818115234,0.0,-0.0230532418936491
200.0,207.0,-2.5454,-0.5252,9.405,-0.0292,0.0272,-0.1135,-2.1636544666686,0.0,4.3576860427856445,-1.4749138355255127,-0.0,1.8865646123886108,5.3812458393867395,-0.0,0.2364608347415924,-1.5145109335528772,0.0,-0.019612012431025505,0.7427054643630981,0.0,0.02061326801776886,1.4266923666000366,0.0,0.019943224266171455
200.0,207.0,-2.5454,-0.5252,9.405,-0.0292,0.0272,-0.1135,-2.1636258564391078,0.0,4.310080051422119,-1.4750462770462036,-0.0,1.933638334274292,5.381217586785116,-0.0,0.23093274235725403,-1.5145185629474085,0.0,-0.004920382983982563,0.7427418231964111,0.0,0.002342162188142538,1.4266600608825684,0.0,0.037211425602436066
200.0,207.0,-2.5454,-0.5252,9.405,-0.0292,0.0272,-0.1135,-2.1636177502074183,0.0,4.358473300933838,-1.4749536514282227,-0.0,1.9267656803131104,5.381246256619253,-0.0,0.2444743812084198,-1.5144866148578089,0.0,-0.02385394647717476,0.7427136301994324,0.0,0.017209235578775406,1.4266237020492554,0.0,0.04132399708032608
200.0,207.0,-2.5454,-0.5252,9.405,-0.0292,0.0272,-0.1135,-2.1636463604369105,0.0,4.320430755615234,-1.4749661684036255,-0.0,1.9327144622802734,5.381233918457784,-0.0,0.2469862848520279,-1.514498535786764,0.0,-0.00661518145352602,0.7427616715431213,0.0,0.019514722749590874,1.4266440868377686,0.0,0.049975987523794174
200.0,207.0,-2.5454,-0.5252,9.405,-0.0292,0.0272,-0.1135,-2.1636625729002894,0.0,4.320618629455566,-1.4749865531921387,-0.0,1.9502538442611694,5.381237971573629,-0.0,0.23567214608192444,-1.5145309607135218,0.0,0.004127994179725647,0.7427178025245667,0.0,0.03772643953561783,1.4266679286956787,0.0,0.03193692862987518
200.0,207.0,-2.5454,-0.5252,9.405,-0.0292,0.0272,-0.1135,-2.1636301479735316,0.0,4.341363906860352,-1.4749865531921387,-0.0,1.927271842956543,5.381189691811361,-0.0,0.25157859921455383,-1.5144909063922327,0.0,-0.01951812580227852,0.7426935434341431,0.0,0.0193162951618433,1.4266719818115234,0.0,0.019565729424357414
200.0,207.0,-2.5454,-0.5252,9.405,-0.0292,0.0272,-0.1135,-2.1636787853636683,0.0,4.3357367515563965,-1.4749987125396729,-0.0,1.9500049352645874,5.381265926152029,-0.0,0.2437274158000946,-1.5144622961627405,0.0,-0.003356794361025095,0.7427898645401001,0.0,0.01809501275420189,1.4267125129699707,0.0,-0.026694975793361664
200.0,207.0,-2.5454,-0.5252,9.405,-0.0292,0.0272,-0.1135,-2.163638254205221,0.0,4.35496187210083,-1.4749785661697388,-0.0,1.9711904525756836,5.381270038872518,-0.0,0.23822829127311707,-1.5145190397845667,0.0,-0.033308230340480804,0.7427534461021423,0.0,0.02182995155453682,1.4266642332077026,0.0,-0.004696432501077652
200.0,207.0,-2.5454,-0.5252,9.405,-0.0292,0.0272,-0.1135,-2.1636058292784632,0.0,4.299827575683594,-1.4749621152877808,-0.0,1.9080743789672852,5.381254005223074,-0.0,0.2623458504676819,-1.5144909063922327,0.0,-0.008728407323360443,0.7426976561546326,0.0,0.008397679775953293,1.426652431488037,0.0,0.0025954172015190125
200.0,207.0,-2.5454,-0.5252,9.405,-0.0292,0.0272,-0.1135,-2.1636744938292445,0.0,4.30360221862793,-1.4749826192855835,-0.0,1.9220768213272095,5.38124172666625,-0.0,0.24830833077430725,-1.5144746939288538,0.0,-0.018868783488869667,0.7427258491516113,0.0,0.013356545008718967,1.426635980606079,0.0,0.009722755290567875
177.0,212.0,-2.5795,-0.5378,9.3703,-0.0328,0.0199,-0.1069,-2.163694520989889,0.0,4.334561347961426,-1.475022554397583,-0.0,1.9446121454238892,5.381249892502584,-0.0,0.240299254655838,-1.5144828001605433,0.0,-0.008557936176657677,0.7427217960357666,0.0,0.029132258147001266,1.4266440868377686,0.0,0.04538152739405632
177.0,212.0,-2.5795,-0.5378,9.3703,-0.0328,0.0199,-0.1069,-2.1636301479735316,0.0,4.3483967781066895,-1.4749826192855835,-0.0,1.958897352218628,5.381274151593008,-0.0,0.24615654349327087,-1.5144746939288538,0.0,-0.019449759274721146,0.7427418828010559,0.0,0.013725283555686474,1.426635980606079,0.0,-0.0054327938705682755
177.0,212.0,-2.5795,-0.5378,9.3703,-0.0328,0.0199,-0.1069,-2.163658758203024,0.0,4.327105522155762,-1.4749577045440674,-0.0,1.9713289737701416,5.381237971573629,-0.0,0.256730318069458,-1.5144947210894983,0.0,-0.007212820928543806,0.7426894307136536,0.0,0.018140273168683052,1.4266560077667236,0.0,0.011380605399608612
177.0,212.0,-2.5795,-0.5378,9.3703,-0.0328,0.0199,-0.1069,-2.1636544666686,0.0,4.336584568023682,-1.4750059843063354,-0.0,1.9176818132400513,5.381265926152029,-0.0,0.2434423863887787,-1.5144746939288538,0.0,-0.004296282771974802,0.7427418828010559,0.0,0.013122126460075378,1.4266761541366577,0.0,0.03964979574084282
177.0,212.0,-2.5795,-0.5378,9.3703,-0.0328,0.0199,-0.1069,-2.1636301479735316,0.0,4.32912540435791,-1.4750298261642456,-0.0,1.8853778839111328,5.381258177548208,-0.0,0.24608658254146576,-1.5145023504840296,0.0,-0.0030060766730457544,0.7427418828010559,0.0,0.006584972608834505,1.4266196489334106,0.0,0.014118839986622334
177.0,212.0,-2.5795,-0.5378,9.3703,-0.0328,0.0199,-0.1069,-2.1637026272215785,0.0,4.335962295532227,-1.4750019311904907,-0.0,1.898745059967041,5.38122575262145,-0.0,0.25685620307922363,-1.5145066420184534,0.0,-0.009829780086874962,0.7427178025245667,0.0,0.012442479841411114,1.4266679286956787,0.0,0.01775110885500908
177.0,212.0,-2.5795,-0.5378,9.3703,-0.0328,0.0199,-0.1069,-2.1636301479735316,0.0,4.318907260894775,-1.474949598312378,-0.0,1.936593770980835,5.381233918457784,-0.0,0.24162468314170837,-1.5144904295550745,0.0,-0.023090124130249023,0.7427857518196106,0.0,0.014515461400151253,1.4266642332077026,0.0,0.013731935992836952
177.0,212.0,-2.5795,-0.5378,9.3703,-0.0328,0.0199,-0.1069,-2.1636544666686,0.0,4.28998327255249,-1.4749865531921387,-0.0,1.935293197631836,5.381265926152029,-0.0,0.26077884435653687,-1.514482323323385,0.0,-0.02078026533126831,0.7427177429199219,0.0,0.010423082858324051,1.4266719818115234,0.0,-0.0063096024096012115
177.0,212.0,-2.5795,-0.5378,9.3703,-0.0328,0.0199,-0.1069,-2.163638254205221,0.0,4.306368350982666,-1.4749785661697388,-0.0,1.9115886688232422,5.381254005223074,-0.0,0.250409871339798,-1.5145023504840296,0.0,-0.026297327131032944,0.7427422404289246,0.0,0.00949861854314804,1.4266560077667236,0.0,-0.013659914955496788
177.0,212.0,-2.5795,-0.5378,9.3703,-0.0328,0.0199,-0.1069,-2.1636744938292445,0.0,4.340025901794434,-1.4749946594238281,-0.0,1.9303019046783447,5.381286012917318,-0.0,0.25507962703704834,-1.5144866148578089,0.0,-0.0027369472663849592,0.7427501082420349,0.0,0.017503447830677032,1.4266600608825684,0.0,-0.04460804909467697
177.0,212.0,-2.5795,-0.5378,9.3703,-0.0328,0.0199,-0.1069,-2.163642545739645,0.0,4.3706955909729,-1.4749701023101807,-0.0,1.951216459274292,5.381241786270895,-0.0,0.24281755089759827,-1.5145023504840296,0.0,-0.024599775671958923,0.7427452802658081,0.0,0.012690525501966476,1.426688313484192,0.0,0.02687586098909378
177.0,212.0,-2.5795,-0.5378,9.3703,-0.0328,0.0199,-0.1069,-2.1636506519713343,0.0,4.3707122802734375,-1.4749782085418701,-0.0,1.88692045211792,5.381261813431539,-0.0,0.2584947347640991,-1.5144990126239222,0.0,-0.015254397876560688,0.7427337765693665,0.0,0.019375622272491455,1.4266277551651,0.0,-0.010756435804069042
177.0,212.0,-2.5795,-0.5378,9.3703,-0.0328,0.0199,-0.1069,-2.163598199883932,0.0,4.355090618133545,-1.475006103515625,-0.0,1.9195289611816406,5.381249952107229,-0.0,0.24427831172943115,-1.5144947210894983,0.0,-0.005297446623444557,0.7427300214767456,0.0,0.007684207521378994,1.4265872240066528,0.0,-0.0265766941010952
177.0,212.0,-2.5795,-0.5378,9.3703,-0.0328,0.0199,-0.1069,-2.163642545739645,0.0,4.350929260253906,-1.4750337600708008,-0.0,1.9128882884979248,5.381258117943563,-0.0,0.26212555170059204,-1.514526669179098,0.0,-0.010736380703747272,0.7427136898040771,0.0,0.0012953628320246935,1.4266277551651,0.0,0.007657602895051241
177.0,212.0,-2.5795,-0.5378,9.3703,-0.0328,0.0199,-0.1069,-2.1636344395079554,0.0,4.3355793952941895,-1.475006103515625,-0.0,1.9374005794525146,5.38122986534194,-0.0,0.24998050928115845,-1.5144866148578089,0.0,-0.011826368048787117,0.7427217960357666,0.0,0.017880292609333992,1.4266318082809448,0.0,0.06554929912090302
177.0,212.0,-2.5795,-0.5378,9.3703,-0.0328,0.0199,-0.1069,-2.163622041741842,0.0,4.323525428771973,-1.4750224351882935,-0.0,1.9044716358184814,5.38126968124465,-0.0,0.2452104091644287,-1.5145023504840296,0.0,-0.005775620229542255,0.7427501082420349,5.293121319027705e-08,0.004652735311537981,1.4266802072525024,0.0,0.05695750564336777
177.0,212.0,-2.5795,-0.5378,9.3703,-0.0328,0.0199,-0.1069,-2.1636139355101527,0.0,4.393091678619385,-1.4749900102615356,-0.0,1.9517126083374023,5.381254005223074,-0.0,0.2551266551017761,-1.5144904295550745,0.0,-0.012201542034745216,0.7426935434341431,1.473359802217633e-11,0.008604517206549644,1.4266318082809448,0.0,0.001480807550251484
177.0,212.0,-2.5795,-0.5378,9.3703,-0.0328,0.0199,-0.1069,-2.163642545739645,0.0,4.360879898071289,-1.475006103515625,-0.0,1.918092966079712,5.381249892502584,-0.0,0.24538861215114594,-1.5145023504840296,0.0,-0.010807243175804615,0.7427494525909424,6.281163333595255e-14,0.004121724050492048,1.4266760349273682,0.0,-0.009746680967509747
198.0,226.0,-2.6997,-0.7029,8.6698,-0.0699,-0.0841,-0.3012,-2.1636177502074183,0.0,4.2946882247924805,-1.4749698638916016,-0.0,1.912924885749817,5.381270038872518,-0.0,0.24358931183815002,-1.5145066420184534,0.0,-0.012748774141073227,0.7427258491516113,1.7483850255376104e-17,0.013570104725658894,1.4266560077667236,0.0,-0.014099438674747944
198.0,226.0,-2.6997,-0.7029,8.6698,-0.0699,-0.0841,-0.3012,-2.1636344395079554,0.0,4.37504768371582,-1.4749979972839355,-0.0,1.9249016046524048,5.381221997528829,-0.0,0.2513306736946106,-1.5144746939288538,0.0,-0.023951992392539978,0.7427418231964111,7.453639842949516e-20,3.59582481905818e-05,1.4266843795776367,0.0,-0.03155326470732689
198.0,226.0,-2.6997,-0.7029,8.6698,-0.0699,-0.0841,-0.3012,-2.1636544666686,0.0,4.3299970626831055,-1.4749906063079834,-0.0,1.9150164127349854,5.38122986534194,-0.0,0.2528455853462219,-1.5144947210894983,0.0,-0.007828676141798496,0.7427377700805664,2.0747483569419534e-23,0.00558815710246563,1.426696538925171,0.0,0.022196922451257706
198.0,226.0,-2.6997,-0.7029,8.6698,-0.0699,-0.0841,-0.3012,-2.163622041741842,0.0,4.3642683029174805,-1.4750144481658936,-0.0,1.957350492477417,5.3812699792678735,-0.0,0.24805039167404175,-1.514498535786764,0.0,-0.01789669133722782,0.7426977157592773,8.844977175083825e-26,0.022928278893232346,1.4266600608825684,0.0,0.001662961207330227
198.0,226.0,-2.6997,-0.7029,8.6698,-0.0699,-0.0841,-0.3012,-2.1636468372740687,0.0,4.343122959136963,-1.4750298261642456,-0.0,1.9519752264022827,5.381246256619253,-0.0,0.25495025515556335,-1.5145185629474085,0.0,-0.02083820477128029,0.7427697777748108,2.4620319541701437e-29,0.008681336417794228,1.4266597032546997,0.0,0.031686991453170776
198.0,226.0,-2.6997,-0.7029,8.6698,-0.0699,-0.0841,-0.3012,-2.163622041741842,0.0,4.342193603515625,-1.4749785661697388,-0.0,1.9338698387145996,5.381205665856161,-0.0,0.24841910600662231,-1.5145109335528772,0.0,-0.023879755288362503,0.7426694631576538,1.0496029025300133e-31,0.011598795652389526,1.4266400337219238,0.0,0.029689505696296692
198.0,226.0,-2.6997,-0.7029,8.6698,-0.0699,-0.0841,-0.3012,-2.1636301479735316,0.0,4.338605880737305,-1.4750103950500488,-0.0,1.9502698183059692,5.381213831692495,-0.0,0.2471000999212265,-1.5144904295550745,0.0,-0.011023703962564468,0.7427418231964111,2.9216079830504024e-35,0.011572876945137978,1.4266440868377686,0.0,0.011033720336854458
198.0,226.0,-2.6997,-0.7029,8.6698,-0.0699,-0.0841,-0.3012,-2.1636544666686,0.0,4.336544036865234,-1.4749865531921387,-0.0,1.9309306144714355,5.38122575262145,-0.0,0.25145959854125977,-1.514454189931051,0.0,-0.005129912402480841,0.7427340745925903,1.2455273244335418e-37,0.01853959821164608,1.426688313484192,0.0,0.02467207796871662
198.0,226.0,-2.6997,-0.7029,8.6698,-0.0699,-0.0841,-0.3012,-2.1636506519713343,0.0,4.32956600189209,-1.4749946594238281,-0.0,1.9081530570983887,5.381217944412985,-0.0,0.23911471664905548,-1.5145023504840296,0.0,-0.000756505411118269,0.7427495121955872,3.46695253058603e-41,0.002281682100147009,1.4266114234924316,0.0,-0.003344370052218437
198.0,226.0,-2.6997,-0.7029,8.6698,-0.0699,-0.0841,-0.3012,-2.163642545739645,0.0,4.312277793884277,-1.4749621152877808,-0.0,1.954033613204956,5.38122986534194,-0.0,0.24046747386455536,-1.5145109335528772,0.0,-0.008104690350592136,0.7426973581314087,1.471363387541058e-43,0.007383785210549831,1.426688313484192,0.0,-0.012737340293824673
198.0,226.0,-2.6997,-0.7029,8.6698,-0.0699,-0.0841,-0.3012,-2.163658758203024,0.0,4.318998336791992,-1.474961757659912,-0.0,1.9228848218917847,5.3812540648277185,-0.0,0.26123058795928955,-1.5145066420184534,0.0,-0.02045014128088951,0.7427296042442322,0.0,-0.0006264527328312397,1.4266679286956787,0.0,-0.010491978377103806
198.0,226.0,-2.6997,-0.7029,8.6698,-0.0699,-0.0841,-0.3012,-2.1636787853636683,0.0,4.323233604431152,-1.47494637966156,-0.0,1.9332915544509888,5.381249892502584,-0.0,0.24951569736003876,-1.5145185629474085,0.0,-0.018161892890930176,0.7427459955215454,0.0,0.009866254404187202,1.4266400337219238,0.0,-0.04023032635450363
198.0,226.0,-2.6997,-0.7029,8.6698,-0.0699,-0.0841,-0.3012,-2.1636301479735316,0.0,4.368486404418945,-1.4749536514282227,-0.0,1.9304544925689697,5.381254005223074,-0.0,0.24873802065849304,-1.514510456715719,0.0,-0.01279530394822359,0.7427459955215454,0.0,0.00915953516960144,1.4266563653945923,0.0,-0.014270229265093803
198.0,226.0,-2.6997,-0.7029,8.6698,-0.0699,-0.0841,-0.3012,-2.163622041741842,0.0,4.3166399002075195,-1.4750020503997803,-0.0,1.9416084289550781,5.3812458393867395,-0.0,0.2547059953212738,-1.514526669179098,0.0,-0.01033792458474636,0.7427296042442322,0.0,0.010974840261042118,1.426651954650879,0.0,0.030571002513170242
198.0,226.0,-2.6997,-0.7029,8.6698,-0.0699,-0.0841,-0.3012,-2.1636258564391078,0.0,4.345554351806641,-1.4749900102615356,-0.0,1.919370412826538,5.381254005223074,-0.0,0.2441597580909729,-1.5145228544818323,0.0,-0.02792404219508171,0.7427258491516113,0.0,0.0008195673581212759,1.4266277551651,0.0,0.03918968886137009
198.0,226.0,-2.6997,-0.7029,8.6698,-0.0699,-0.0841,-0.3012,-2.1636258564391078,0.0,4.3721747398376465,-1.4749939441680908,-0.0,1.9008334875106812,5.381274091988363,-0.0,0.24550393223762512,-1.5145228544818323,0.0,-0.010519642382860184,0.7427136898040771,0.0,0.02020379714667797,1.4266477823257446,0.0,0.0265534445643425
198.0,226.0,-2.6997,-0.7029,8.6698,-0.0699,-0.0841,-0.3012,-2.163642545739645,0.0,4.298006534576416,-1.4750503301620483,-0.0,1.9740606546401978,5.381153273373403,-0.0,0.25361600518226624,-1.5144746939288538,0.0,-0.012467619962990284,0.7427418231964111,0.0,-0.0022960184141993523,1.4266440868377686,0.0,0.01803596317768097
198.0,226.0,-2.6997,-0.7029,8.6698,-0.0699,-0.0841,-0.3012,-2.163622041741842,0.0,4.327065944671631,-1.4749701023101807,-0.0,1.8960697650909424,5.381233918457784,-0.0,0.25445765256881714,-1.514538590108053,0.0,-0.007576430216431618,0.7427776455879211,0.0,0.021347926929593086,1.4266600608825684,0.0,-0.03357638046145439
196.0,216.0,-2.5077,-0.7304,9.4935,-0.0176,0.0605,-0.1237,-2.163638254205221,0.0,4.317861557006836,-1.4750020503997803,-0.0,1.9471185207366943,5.381197500019827,-0.0,0.25147128105163574,-1.5144866148578089,0.0,-0.012578167021274567,0.7426816821098328,0.0,0.004151228815317154,1.4266477823257446,0.0,-0.016478639096021652
196.0,216.0,-2.5077,-0.7304,9.4935,-0.0176,0.0605,-0.1237,-2.163658758203024,0.0,4.341325759887695,-1.4749741554260254,-0.0,1.9256093502044678,5.38122986534194,-0.0,0.2360886186361313,-1.5144904295550745,0.0,-0.00952722318470478,0.7427421808242798,0.0,0.008413364179432392,1.426635980606079,0.0,-0.0496702715754509
196.0,216.0,-2.5077,-0.7304,9.4935,-0.0176,0.0605,-0.1237,-2.1636468372740687,0.0,4.338821887969971,-1.4749946594238281,-0.0,1.9501502513885498,5.381249892502584,-0.0,0.2455480545759201,-1.5145309607135218,0.0,-0.003536087926477194,0.7427898645401001,0.0,0.00951817911118269,1.4266600608825684,0.0,0.003440672066062689
196.0,216.0,-2.5077,-0.7304,9.4935,-0.0176,0.0605,-0.1237,-2.163658758203024,0.0,4.359193801879883,-1.4750019311904907,-0.0,1.9042928218841553,5.381293821125784,-0.0,0.2515483498573303,-1.5144947210894983,0.0,-0.015989767387509346,0.7428219318389893,0.0,0.008719196543097496,1.4266802072525024,0.0,-0.006589438766241074
196.0,216.0,-2.5077,-0.7304,9.4935,-0.0176,0.0605,-0.1237,-2.1636177502074183,0.0,4.310688018798828,-1.4749577045440674,-0.0,1.9127446413040161,5.381217944412985,-0.0,0.25518399477005005,-1.5144661108600062,0.0,-0.0010887484531849623,0.7427574992179871,0.0,0.01175442710518837,1.4266358613967896,0.0,0.012422241270542145
196.0,216.0,-2.5077,-0.7304,9.4935,-0.0176,0.0605,-0.1237,-2.163622041741842,0.0,4.330896377563477,-1.4750019311904907,-0.0,1.9077610969543457,5.381217944412985,-0.0,0.23826998472213745,-1.5145066420184534,0.0,-0.005419673398137093,0.7427300214767456,0.0,0.024007059633731842,1.4266560077667236,0.0,-0.005493890028446913
196.0,216.0,-2.5077,-0.7304,9.4935,-0.0176,0.0605,-0.1237,-2.1636468372740687,0.0,4.303738594055176,-1.4750019311904907,-0.0,1.9109787940979004,5.381254005223074,-0.0,0.2526475787162781,-1.5144866148578089,0.0,-0.01714882254600525,0.7426935434341431,0.0,0.014846347272396088,1.4266600608825684,0.0,0.04884491488337517
196.0,216.0,-2.5077,-0.7304,9.4935,-0.0176,0.0605,-0.1237,-2.163642545739645,0.0,4.331920146942139,-1.474982500076294,-0.0,1.9132311344146729,5.381265926152029,-0.0,0.26510798931121826,-1.51447040239443,0.0,-0.005664418451488018,0.7426773309707642,0.0,0.009707193821668625,1.4266400337219238,0.0,0.005432909354567528
196.0,216.0,-2.5077,-0.7304,9.4935,-0.0176,0.0605,-0.1237,-2.1636301479735316,0.0,4.368520736694336,-1.475006103515625,-0.0,1.943762183189392,5.381265926152029,-0.0,0.2441278100013733,-1.5144746939288538,0.0,-0.0023928445298224688,0.7427178025245667,0.0,0.009412622079253197,1.4266318082809448,0.0,-0.023307356983423233
196.0,216.0,-2.5077,-0.7304,9.4935,-0.0176,0.0605,-0.1237,-2.163642545739645,0.0,4.329362392425537,-1.4749741554260254,-0.0,1.931838035583496,5.381197500019827,-0.0,0.2502748370170593,-1.514458481465475,0.0,-0.005814152769744396,0.7427738308906555,0.0,0.006133187562227249,1.4266482591629028,0.0,-0.016723239794373512
196.0,216.0,-2.5077,-0.7304,9.4935,-0.0176,0.0605,-0.1237,-2.163638254205221,0.0,4.321392059326172,-1.4749983549118042,-0.0,1.8818402290344238,5.3812458393867395,-0.0,0.26307541131973267,-1.5145066420184534,0.0,-0.020264022052288055,0.7426934838294983,0.0,0.009459877386689186,1.426708459854126,0.0,0.02055954746901989
196.0,216.0,-2.5077,-0.7304,9.4935,-0.0176,0.0605,-0.1237,-2.1636744938292445,0.0,4.333520889282227,-1.4749865531921387,-0.0,1.9125707149505615,5.38120977857665,-0.0,0.2544805705547333,-1.5144746939288538,0.0,-0.006219557952135801,0.7427738308906555,0.0,0.012392454780638218,1.426651954650879,0.0,-0.004250413738191128
196.0,216.0,-2.5077,-0.7304,9.4935,-0.0176,0.0605,-0.1237,-2.163622041741842,0.0,4.333942413330078,-1.4749906063079834,-0.0,1.948519229888916,5.381265926152029,-0.0,0.23697781562805176,-1.5145466963397425,0.0,-0.027588553726673126,0.7427300214767456,0.0,0.01790880411863327,1.4266440868377686,0.0,-0.04035859927535057
196.0,216.0,-2.5077,-0.7304,9.4935,-0.0176,0.0605,-0.1237,-2.1636301479735316,0.0,4.3555192947387695,-1.4749621152877808,-0.0,1.9326612949371338,5.38121788480834,-0.0,0.23994940519332886,-1.5145147482501429,0.0,-0.012261684983968735,0.7427418828010559,0.0,0.0136799905449152,1.426651954650879,0.0,0.042022548615932465
196.0,216.0,-2.5077,-0.7304,9.4935,-0.0176,0.0605,-0.1237,-2.163658758203024,0.0,4.314082145690918,-1.474941611289978,-0.0,1.9668669700622559,5.3812140105064294,-0.0,0.25425606966018677,-1.5144947210894983,0.0,-0.0170163381844759,0.7427136898040771,0.0,0.019947702065110207,1.4266318082809448,0.0,0.013012019917368889
196.0,216.0,-2.5077,-0.7304,9.4935,-0.0176,0.0605,-0.1237,-2.1636907062926234,0.0,4.313601016998291,-1.4749906063079834,-0.0,1.9768681526184082,5.38122986534194,-0.0,0.2459409385919571,-1.5144990126239222,0.0,-0.015220684930682182,0.7427775859832764,0.0,0.012445887550711632,1.4266642332077026,0.0,-0.016075637191534042
196.0,216.0,-2.5077,-0.7304,9.4935,-0.0176,0.0605,-0.1237,-2.163642545739645,0.0,4.353302955627441,-1.4749500751495361,-0.0,1.9059078693389893,5.381237971573629,-0.0,0.24108567833900452,-1.5144947210894983,0.0,-0.013222696259617805,0.7426976561546326,0.0,0.014680642634630203,1.4266440868377686,0.0,-0.02033599466085434
196.0,216.0,-2.5077,-0.7304,9.4935,-0.0176,0.0605,-0.1237,-2.1636544666686,0.0,4.400851249694824,-1.4749900102615356,-0.0,1.9421056509017944,5.381205665856161,-0.0,0.2506445646286011,-1.5145309607135218,0.0,-0.01951746828854084,0.7426697015762329,0.0,0.013823181390762329,1.4266440868377686,0.0,0.03246143460273743
207.0,233.0,-2.7894,-0.7256,9.533,-0.047,0.027,-0.1074,-2.163658758203024,0.0,4.292457580566406,-1.4749746322631836,-0.0,1.9468570947647095,5.38123385885314,-0.0,0.24999499320983887,-1.5144990126239222,0.0,-0.011999525129795074,0.7427940368652344,0.0,0.008673676289618015,1.4266560077667236,0.0,-0.035515639930963516
207.0,233.0,-2.7894,-0.7256,9.533,-0.047,0.027,-0.1074,-2.163662096063131,0.0,4.306772232055664,-1.474938154220581,-0.0,1.924034833908081,5.381229805737295,-0.0,0.2535569667816162,-1.5144990126239222,0.0,-0.0022890823893249035,0.7427381873130798,0.0,0.006822754628956318,1.4266560077667236,0.0,0.007948479615151882
207.0,233.0,-2.7894,-0.7256,9.533,-0.047,0.027,-0.1074,-2.1636301479735316,0.0,4.3704938888549805,-1.4749782085418701,-0.0,1.9261082410812378,5.381229805737295,-0.0,0.26371458172798157,-1.51447040239443,0.0,-0.02511592209339142,0.7427178025245667,0.0,0.012991730123758316,1.426651954650879,0.0,-0.010706733912229538
207.0,233.0,-2.7894,-0.7256,9.533,-0.047,0.027,-0.1074,-2.163638254205221,0.0,4.326539039611816,-1.4749979972839355,-0.0,1.9532535076141357,5.381265866547384,-0.0,0.2484489530324936,-1.514526669179098,0.0,-0.005245212931185961,0.7427738904953003,0.0,0.021062321960926056,1.4265872240066528,0.0,-0.014088131487369537
207.0,233.0,-2.7894,-0.7256,9.533,-0.047,0.027,-0.1074,-2.1636744938292445,0.0,4.379973411560059,-1.474941611289978,-0.0,1.916738748550415,5.381241786270895,-0.0,0.2501552104949951,-1.5145147482501429,0.0,-0.019464360550045967,0.7427574992179871,0.0,0.009193642064929008,1.4266319274902344,0.0,0.03475676476955414
207.0,233.0,-2.7894,-0.7256,9.533,-0.047,0.027,-0.1074,-2.163650175134176,0.0,4.333634376525879,-1.4750298261642456,-0.0,1.9224803447723389,5.381205665856161,-0.0,0.23731863498687744,-1.5144746939288538,0.0,-0.01430598646402359,0.7427054047584534,0.0,0.006314621306955814,1.4266400337219238,0.0,0.04480893909931183
207.0,233.0,-2.7894,-0.7256,9.533,-0.047,0.027,-0.1074,-2.1636177502074183,0.0,4.304567337036133,-1.4749979972839355,-0.0,1.940528392791748,5.381249952107229,-0.0,0.24120807647705078,-1.5144498983966272,0.0,-0.014405734837055206,0.7427616119384766,0.0,0.018919318914413452,1.426696538925171,0.0,0.04067356139421463
207.0,233.0,-2.7894,-0.7256,9.533,-0.047,0.027,-0.1074,-2.1636468372740687,0.0,4.35850191116333,-1.4749939441680908,-0.0,1.907371997833252,5.381270038872518,-0.0,0.2569980323314667,-1.5144904295550745,0.0,-0.015663038939237595,0.7427574992179871,0.0,0.01911693625152111,1.4266719818115234,0.0,0.023177679628133774
207.0,233.0,-2.7894,-0.7256,9.533,-0.047,0.027,-0.1074,-2.1636787853636683,0.0,4.346121788024902,-1.475030541419983,-0.0,1.9497787952423096,5.381197500019827,-0.0,0.23769164085388184,-1.5144746939288538,0.0,-0.013795406557619572,0.7427418231964111,0.0,0.00473308190703392,1.4266358613967896,0.0,-0.0024245702661573887
207.0,233.0,-2.7894,-0.7256,9.533,-0.047,0.027,-0.1074,-2.1636058292784632,0.0,4.341386318206787,-1.4749215841293335,-0.0,1.8971052169799805,5.381229805737295,-0.0,0.25093433260917664,-1.5144904295550745,0.0,-0.023403417319059372,0.7427819967269897,0.0,0.009426011703908443,1.4266277551651,0.0,0.020263314247131348
207.0,233.0,-2.7894,-0.7256,9.533,-0.047,0.027,-0.1074,-2.163638254205221,0.0,4.317142963409424,-1.4750103950500488,-0.0,1.9733641147613525,5.381281900196829,-0.0,0.2449394315481186,-1.5145023504840296,0.0,-0.02670365571975708,0.7427816987037659,0.0,0.010482195764780045,1.4266560077667236,0.0,0.031643275171518326
207.0,233.0,-2.7894,-0.7256,9.533,-0.047,0.027,-0.1074,-2.1636668644347132,0.0,4.370408058166504,-1.475006103515625,-0.0,1.9681012630462646,5.381238031178274,-0.0,0.24035334587097168,-1.5144904295550745,0.0,-0.02488631010055542,0.7427299618721008,0.0,0.013559852726757526,1.4266400337219238,0.0,0.018420998007059097
207.0,233.0,-2.7894,-0.7256,9.533,-0.047,0.027,-0.1074,-2.1636258564391078,0.0,4.319014072418213,-1.475002408027649,-0.0,1.9496357440948486,5.381233918457784,-0.0,0.2434491217136383,-1.5144866148578089,0.0,-0.01807364448904991,0.7427095770835876,0.0,0.02483179233968258,1.4266923666000366,0.0,0.0030456418171525
207.0,233.0,-2.7894,-0.7256,9.533,-0.047,0.027,-0.1074,-2.163642545739645,0.0,4.343936920166016,-1.4749577045440674,-0.0,1.9340919256210327,5.38125370719985,-0.0,0.2543327212333679,-1.5145109335528772,0.0,-0.0290953628718853,0.7427499890327454,0.0,0.02083079144358635,1.4266400337219238,0.0,0.02563650906085968
207.0,233.0,-2.7894,-0.7256,9.533,-0.047,0.027,-0.1074,-2.163622041741842,0.0,4.296642780303955,-1.4750064611434937,-0.0,1.9543870687484741,5.381221997528829,-0.0,0.2578985095024109,-1.5144990126239222,0.0,-0.01282601896673441,0.7427095770835876,0.0,0.011905428022146225,1.426651954650879,0.0,0.015237849205732346
207.0,233.0,-2.7894,-0.7256,9.533,-0.047,0.027,-0.1074,-2.1636668644347132,0.0,4.332222938537598,-1.4750144481658936,-0.0,1.9366891384124756,5.381265926152029,-0.0,0.24389341473579407,-1.5144947210894983,0.0,-0.021004389971494675,0.7427300214767456,0.0,0.025431953370571136,1.4266719818115234,0.0,-0.015361275523900986
207.0,233.0,-2.7894,-0.7256,9.533,-0.047,0.027,-0.1074,-2.1636058292784632,0.0,4.3721923828125,-1.4749906063079834,-0.0,1.949554681777954,5.381213831692495,-0.0,0.24815282225608826,-1.5144828001605433,0.0,9.028101339936256e-05,0.7427215576171875,0.0,0.017794854938983917,1.4266072511672974,0.0,-0.046045027673244476
207.0,233.0,-2.7894,-0.7256,9.533,-0.047,0.027,-0.1074,-2.163650175134176,0.0,4.341615676879883,-1.4750337600708008,-0.0,1.9451454877853394,5.381221639900961,-0.0,0.25048840045928955,-1.5144785086261194,0.0,-0.012211170047521591,0.7427136301994324,0.0,0.023160232231020927,1.4266400337219238,0.0,0.01310785673558712
203.0,211.0,-2.5956,0.5958,9.3817,-0.042,0.0553,-0.091,-2.1636258564391078,0.0,4.3658905029296875,-1.4750144481658936,-0.0,1.961742877960205,5.381233918457784,-0.0,0.24820172786712646,-1.514482323323385,0.0,-0.006453406531363726,0.7426854968070984,0.0,0.020556142553687096,1.4266319274902344,0.0,0.019594458863139153
203.0,211.0,-2.5956,0.5958,9.3817,-0.042,0.0553,-0.091,-2.1636544666686,0.0,4.374153137207031,-1.4749822616577148,-0.0,1.9190747737884521,5.381233918457784,-0.0,0.2533421218395233,-1.514526669179098,0.0,-0.02328595519065857,0.7426973581314087,0.0,0.016194099560379982,1.4266923666000366,0.0,0.002240977482870221
203.0,211.0,-2.5956,0.5958,9.3817,-0.042,0.0553,-0.091,-2.1636625729002894,0.0,4.3648576736450195,-1.4749987125396729,-0.0,1.9483587741851807,5.381237971573629,-0.0,0.24463683366775513,-1.514482323323385,0.0,-0.00678538903594017,0.7427452802658081,0.0,-0.0024989908561110497,1.4266277551651,0.0,-0.02550707384943962
203.0,211.0,-2.5956,0.5958,9.3817,-0.042,0.0553,-0.091,-2.1636258564391078,0.0,4.421305179595947,-1.4750460386276245,-0.0,1.9432504177093506,5.381249952107229,-0.0,0.24578964710235596,-1.5144866148578089,0.0,-0.020314624533057213,0.742729663848877,0.0,0.0016327332705259323,1.4266600608825684,0.0,0.007721617352217436
203.0,211.0,-2.5956,0.5958,9.3817,-0.042,0.0553,-0.091,-2.1636258564391078,0.0,4.312169075012207,-1.4749782085418701,-0.0,1.9320054054260254,5.38122986534194,-0.0,0.25671523809432983,-1.5144580046283167,0.0,-0.020063823089003563,0.7427017092704773,0.0,0.02657761611044407,1.4266319274902344,0.0,-0.007962212897837162
203.0,211.0,-2.5956,0.5958,9.3817,-0.042,0.0553,-0.091,-2.163622041741842,0.0,4.392719745635986,-1.4750183820724487,-0.0,1.90895414352417,5.381213831692495,-0.0,0.24790161848068237,-1.5145147482501429,0.0,-0.012704376131296158,0.7427780032157898,0.0,0.015584073960781097,1.4266642332077026,0.0,0.04289153218269348
203.0,211.0,-2.5956,0.5958,9.3817,-0.042,0.0553,-0.091,-2.163658758203024,0.0,4.338721752166748,-1.474949598312378,-0.0,1.951789379119873,5.381270038872518,-0.0,0.2443617731332779,-1.5144866148578089,0.0,-0.007487938739359379,0.7426576018333435,0.0,0.022378742694854736,1.4266560077667236,0.0,0.019910689443349838
203.0,211.0,-2.5956,0.5958,9.3817,-0.042,0.0553,-0.091,-2.1636344395079554,0.0,4.315723419189453,-1.4749699831008911,-0.0,1.9467334747314453,5.381237971573629,-0.0,0.253195196390152,-1.5144904295550745,0.0,-0.01938171684741974,0.7427418231964111,0.0,0.008571146056056023,1.4266277551651,0.0,0.04213033616542816
203.0,211.0,-2.5956,0.5958,9.3817,-0.042,0.0553,-0.091,-2.1636258564391078,0.0,4.3485612869262695,-1.474962592124939,-0.0,1.9358673095703125,5.381242143898763,-0.0,0.2578461170196533,-1.5144498983966272,0.0,-0.01403328962624073,0.7426695227622986,0.0,0.01347882580012083,1.4266642332077026,0.0,-0.006688951980322599
203.0,211.0,-2.5956,0.5958,9.3817,-0.042,0.0553,-0.091,-2.163694997827047,0.0,4.337202548980713,-1.4749940633773804,-0.0,1.8907370567321777,5.381270038872518,-0.0,0.24698640406131744,-1.5145185629474085,0.0,-0.011354543268680573,0.742777943611145,0.0,0.018936915323138237,1.4266560077667236,0.0,-0.03897734358906746
203.0,211.0,-2.5956,0.5958,9.3817,-0.042,0.0553,-0.091,-2.1636544666686,0.0,4.329949378967285,-1.475006103515625,-0.0,1.9494889974594116,5.381197500019827,-0.0,0.2523884177207947,-1.5144990126239222,0.0,-0.009752778336405754,0.7427377700805664,0.0,0.016548970714211464,1.4266760349273682,0.0,0.024885406717658043
203.0,211.0,-2.5956,0.5958,9.3817,-0.042,0.0553,-0.091,-2.1636301479735316,0.0,4.364517688751221,-1.4750142097473145,-0.0,1.943458080291748,5.381249892502584,-0.0,0.2525661289691925,-1.5144909063922327,0.0,-0.020610280334949493,0.7427500486373901,0.0,0.02182694524526596,1.4266196489334106,0.0,-0.038671594113111496
203.0,211.0,-2.5956,0.5958,9.3817,-0.042,0.0553,-0.091,-2.1636301479735316,0.0,4.278631210327148,-1.4749900102615356,-0.0,1.9459059238433838,5.381193446903982,-0.0,0.24503660202026367,-1.5145023504840296,0.0,-0.03172926604747772,0.7427178025245667,0.0,0.012137481942772865,1.4266440868377686,0.0,0.0053554316982626915
203.0,211.0,-2.5956,0.5958,9.3817,-0.042,0.0553,-0.091,-2.1636544666686,0.0,4.331287860870361,-1.4749822616577148,-0.0,1.924032211303711,5.381262230664053,-0.0,0.23987190425395966,-1.5145185629474085,0.0,-0.006096989847719669,0.7427136898040771,0.0,0.022477230057120323,1.4266600608825684,0.0,-0.017995087429881096
203.0,211.0,-2.5956,0.5958,9.3817,-0.042,0.0553,-0.091,-2.1636544666686,0.0,4.323736190795898,-1.4749455451965332,-0.0,1.9144599437713623,5.381273793965139,-0.0,0.26378270983695984,-1.5144866148578089,0.0,-0.011706710793077946,0.7427657246589661,0.0,0.011886222288012505,1.4266276359558105,0.0,-0.014804961159825325
203.0,211.0,-2.5956,0.5958,9.3817,-0.042,0.0553,-0.091,-2.163658758203024,0.0,4.318218231201172,-1.4749979972839355,-0.0,1.9441413879394531,5.381213950901785,-0.0,0.2442435920238495,-1.514487091694967,0.0,-0.01787406951189041,0.7427575588226318,0.0,0.025982309132814407,1.426652431488037,0.0,0.0486505962908268
203.0,211.0,-2.5956,0.5958,9.3817,-0.042,0.0553,-0.091,-2.163666387597555,0.0,4.342185974121094,-1.4750338792800903,-0.0,1.9364376068115234,5.381249952107229,-0.0,0.24026289582252502,-1.5145147482501429,0.0,-0.020188283175230026,0.7427580952644348,0.0,0.03497087210416794,1.4266440868377686,0.0,0.04934027045965195
203.0,211.0,-2.5956,0.5958,9.3817,-0.042,0.0553,-0.091,-2.163642545739645,0.0,4.345584869384766,-1.4749701023101807,-0.0,1.8988127708435059,5.381193387299337,-0.0,0.2514282763004303,-1.5144947210894983,0.0,-0.017842397093772888,0.7427897453308105,0.0,0.01406442653387785,1.4266319274902344,0.0,-0.011800545267760754
207.0,216.0,-2.8445,0.0999,9.5426,-0.0182,0.0267,-0.146,-2.1636301479735316,0.0,4.332714080810547,-1.4749741554260254,-0.0,1.922090768814087,5.3811614392097376,-2.0760496681759832e-06,0.2503676414489746,-1.5145304838763636,0.0,-0.01323092170059681,0.7426932454109192,0.0,0.008307061158120632,1.4266400337219238,0.0,0.0656830295920372
207.0,216.0,-2.8445,0.0999,9.5426,-0.0182,0.0267,-0.146,-2.163658758203024,0.0,4.368984222412109,-1.4749785661697388,-0.0,1.925130844116211,5.381233918457784,-8.850525645698326e-09,0.2459654062986374,-1.514526669179098,0.0,0.0032479625660926104,0.7427616715431213,0.0,0.01746630109846592,1.426688313484192,0.0,-0.037235077470541
207.0,216.0,-2.8445,0.0999,9.5426,-0.0182,0.0267,-0.146,-2.163658758203024,0.0,4.328911781311035,-1.4749785661697388,-0.0,1.9409793615341187,5.381205725460806,-2.463576001185408e-12,0.2393423318862915,-1.514538590108053,0.0,0.0003632539010141045,0.7427258491516113,0.0,0.020630359649658203,1.4266761541366577,0.0,0.015450989827513695
207.0,216.0,-2.8445,0.0999,9.5426,-0.0182,0.0267,-0.146,-2.1636177502074183,0.0,4.324525833129883,-1.475006341934204,-0.0,1.9049270153045654,5.381189691811361,-1.0502610540692563e-14,0.25408515334129333,-1.5145023504840296,0.0,-0.005304794758558273,0.7427697777748108,0.0,0.015710126608610153,1.4266597032546997,0.0,-0.02763214521110058
207.0,216.0,-2.8445,0.0999,9.5426,-0.0182,0.0267,-0.146,-2.163670679131979,0.0,4.285676956176758,-1.4750258922576904,-0.0,1.9177672863006592,5.381218004017629,-2.9234399188583866e-18,0.24214908480644226,-1.514498535786764,0.0,-0.008591683581471443,0.7427014708518982,0.0,0.017454903572797775,1.426651954650879,0.0,0.023121539503335953
207.0,216.0,-2.8445,0.0999,9.5426,-0.0182,0.0267,-0.146,-2.1637193165221156,0.0,4.336626052856445,-1.475006341934204,-0.0,1.9566307067871094,5.381157386093893,-1.2463081821722451e-20,0.24659426510334015,-1.514554802571432,0.0,-0.003780763130635023,0.7426694631576538,0.0,0.02789183147251606,1.4266560077667236,0.0,0.02227279730141163
207.0,216.0,-2.8445,0.0999,9.5426,-0.0182,0.0267,-0.146,-2.16367830852651,-9.323437577535287e-10,4.355032920837402,-1.4749865531921387,-0.0,1.9195060729980469,5.381153273373403,-3.469144809467403e-24,0.2458992302417755,-1.5145190397845667,0.0,0.00014510704204440117,0.7427452802658081,0.0,0.0039672767743468285,1.4266878366470337,0.000379863049602136,-0.0241799745708704
207.0,216.0,-2.8445,0.0999,9.5426,-0.0182,0.0267,-0.146,-2.1636463604369105,-1.678185720813477e-13,4.37327766418457,-1.4749741554260254,-0.0,1.9053308963775635,5.381209718972006,-1.478950878430113e-26,0.24358585476875305,-1.5145185629474085,0.0,-0.012018032371997833,0.7427095770835876,0.0,0.012533744797110558,1.4266879558563232,0.00038851582212373614,0.000729832798242569
207.0,216.0,-2.8445,0.0999,9.5426,-0.0182,0.0267,-0.146,-2.1636344395079554,-4.052620967729651e-19,4.3418707847595215,-1.4749906063079834,-0.0,1.9387032985687256,5.381230222969808,-4.116714376579712e-30,0.25533658266067505,-1.5144866148578089,0.0,-0.007920128293335438,0.7427337765693665,0.0,0.006282353773713112,1.4266879558563232,0.00037692487239837646,-0.02219264954328537
207.0,216.0,-2.8445,0.0999,9.5426,-0.0182,0.0267,-0.146,-2.163694520989889,-7.294574071384626e-23,4.333591461181641,-1.4749900102615356,-0.0,1.942699670791626,5.381193864136495,-1.7550198248701925e-32,0.24792608618736267,-1.5145023504840296,0.0,-0.011294910684227943,0.7426854968070984,0.0,0.026076337322592735,1.4266514778137207,0.0005284048966132104,0.004861702211201191
207.0,216.0,-2.8445,0.0999,9.5426,-0.0182,0.0267,-0.146,-2.163694520989889,-1.7615538699343512e-28,4.316166877746582,-1.475006341934204,-0.0,1.8580267429351807,5.381242143898763,-4.885161595729014e-36,0.24064096808433533,-1.5145309607135218,0.0,-0.012103423476219177,0.7427337765693665,0.0,0.01906532607972622,1.4267079830169678,0.0004277271800674498,0.05936506763100624
207.0,216.0,-2.8445,0.0999,9.5426,-0.0182,0.0267,-0.146,-2.1636983356871546,-4.253944619135447e-34,4.365447521209717,-1.4750183820724487,-0.0,1.9275187253952026,5.381242143898763,-1.3598032141992306e-39,0.24857251346111298,-1.5145304838763636,2.35556953498417e-07,-0.0038138949312269688,0.7427136898040771,0.0,0.0172670129686594,1.4267079830169678,0.00040318426908925176,0.002071546856313944
207.0,216.0,-2.8445,0.0999,9.5426,-0.0182,0.0267,-0.146,-2.1636177502074183,-7.656949845391308e-38,4.37488317489624,-1.4749865531921387,-0.0,1.9323837757110596,5.38118605592803,-5.797171746911768e-42,0.23958800733089447,-1.514526669179098,1.004216154676385e-09,-0.002275823149830103,0.7427698969841003,0.0,0.006153151858597994,1.4266514778137207,0.0003574289148673415,0.028233256191015244
207.0,216.0,-2.8445,0.0999,9.5426,-0.0182,0.0267,-0.146,-2.163638254205221,-1.8497139729087585e-43,4.3386454582214355,-1.4750183820724487,-0.0,1.9258424043655396,5.381177890091696,-1.401298464324817e-45,0.24895857274532318,-1.5145304838763636,-0.00014766422100365162,-0.011988302692770958,0.7427217364311218,0.0,0.004159007221460342,1.426680088043213,0.0003054359694942832,0.04885406047105789
207.0,216.0,-2.8445,0.0999,9.5426,-0.0182,0.0267,-0.146,-2.1636544666686,-0.0,4.359890937805176,-1.474961757659912,-0.0,1.9393336772918701,5.38121389129714,-0.0,0.24972185492515564,-1.5145185629474085,-0.00011811890726676211,-0.004792316816747189,0.7427460551261902,0.0,0.018945565447211266,1.4266960620880127,0.00012197898468002677,-0.00258465763181448
207.0,216.0,-2.8445,0.0999,9.5426,-0.0182,0.0267,-0.146,-2.163638254205221,0.0,4.321664810180664,-1.4749979972839355,-0.0,1.9332060813903809,5.381246197014608,-0.0,0.2501404285430908,-1.5145142714129847,-2.317089524694893e-07,-0.026470499113202095,0.7427494525909424,0.0,0.013353947550058365,1.4266879558563232,9.98522446025163e-05,-0.00834711268544197
207.0,216.0,-2.8445,0.0999,9.5426,-0.0182,0.0267,-0.146,-2.163682600060934,0.0,4.326836585998535,-1.4749906063079834,-0.0,1.9780378341674805,5.381238031178274,-0.0,0.2430172711610794,-1.514538590108053,-9.878114992645237e-10,-0.0048355832695961,0.7427135705947876,0.0,-0.001266223844140768,1.4267199039459229,8.987922774394974e-05,0.02312931790947914
207.0,216.0,-2.8445,0.0999,9.5426,-0.0182,0.0267,-0.146,-2.163682600060934,0.0,4.359061241149902,-1.4749778509140015,-0.0,1.946608066558838,5.381197500019827,-0.0,0.250684916973114,-1.5145347754107874,-2.749609350968796e-13,-0.02456400915980339,0.7427136898040771,0.0,0.01009104773402214,1.4266678094863892,7.816858851583675e-05,0.023707017302513123
207.0,216.0,-2.8445,0.0999,9.5426,-0.0182,0.0267,-0.146,-2.1636420689024867,0.0,4.393762111663818,-1.4750183820724487,-0.0,1.9315087795257568,5.381230222969808,-0.0,0.24773532152175903,-1.5145185629474085,-1.1722015900460562e-15,-0.021336358040571213,0.7426652908325195,0.0,-0.009943218901753426,1.4267158508300781,7.192159682745114e-05,-0.038346435874700546
203.0,199.0,-2.4473,-0.3033,9.472,-0.0293,0.0432,-0.1147,-2.163642545739645,0.0,4.312797546386719,-1.474982500076294,-0.0,1.9262340068817139,5.381209838181295,-0.0,0.23892420530319214,-1.5145023504840296,-3.262866141991585e-19,-0.014964988455176353,0.7427459955215454,0.0,0.0023065984714776278,1.4266879558563232,6.42228769720532e-05,0.004038789309561253
203.0,199.0,-2.4473,-0.3033,9.472,-0.0293,0.0432,-0.1147,-2.163682600060934,0.0,4.351789951324463,-1.4749865531921387,-0.0,1.8955153226852417,5.381270038872518,-0.0,0.23962968587875366,-1.5145185629474085,-1.3910110307071447e-21,-0.006271242164075375,0.7426977157592773,0.0,-0.00518686231225729,1.4266998767852783,5.9945101384073496e-05,0.01485475990921259
203.0,199.0,-2.4473,-0.3033,9.472,-0.0293,0.0432,-0.1147,-2.1636983356871546,0.0,4.302984237670898,-1.4750101566314697,-0.0,1.9171452522277832,5.381209718972006,-0.0,0.23792649805545807,-1.5144866148578089,-3.8719299893174915e-25,-0.015057144686579704,0.7427494525909424,0.0,0.0030086361803114414,1.426680088043213,8.065089059527963e-05,-0.011488914489746094
203.0,199.0,-2.4473,-0.3033,9.472,-0.0293,0.0432,-0.1147,-2.1636907062926234,0.0,4.319535255432129,-1.4750103950500488,-0.0,1.951778769493103,5.381221997528829,-0.0,0.2563331723213196,-1.5145066420184534,-1.6506644811557458e-27,-0.0073646921664476395,0.7427616715431213,0.0,-0.0011045774444937706,1.4266760349273682,7.708202610956505e-05,0.002040316816419363
203.0,199.0,-2.4473,-0.3033,9.472,-0.0293,0.0432,-0.1147,-2.163682600060934,0.0,4.384378433227539,-1.474974513053894,-0.0,1.934617042541504,5.381149637490072,-7.267675391631201e-05,0.2449001669883728,-1.5145066420184534,-4.594684861714456e-31,-0.014995543286204338,0.7426935434341431,0.0,0.0037752832286059856,1.4267443418502808,7.100113725755364e-05,-0.018554795533418655
203.0,199.0,-2.4473,-0.3033,9.472,-0.0293,0.0432,-0.1147,-2.1637193165221156,0.0,4.377627372741699,-1.4750218391418457,-0.0,1.9302595853805542,5.381242143898763,-8.814374450594187e-05,0.24363258481025696,-1.5144947210894983,-1.9587861135186727e-33,-0.021982349455356598,0.7427337765693665,0.0,0.007186470087617636,1.426655650138855,6.74534312565811e-05,-0.001047186553478241
203.0,199.0,-2.4473,-0.3033,9.472,-0.0293,0.0432,-0.1147,-2.1636740169920863,0.0,4.332333564758301,-1.4750020503997803,-0.0,1.9293420314788818,5.38119791725234,-9.989247337216511e-05,0.23935994505882263,-1.514526669179098,-5.452353673275975e-37,0.0023103158455342054,0.7426935434341431,0.0,-0.004537596832960844,1.4267281293869019,6.275044870562851e-05,-0.005053102970123291
203.0,199.0,-2.4473,-0.3033,9.472,-0.0293,0.0432,-0.1147,-2.1636787853636683,0.0,4.348456382751465,-1.4749782085418701,-0.0,1.941436767578125,5.381201970368185,-0.00010910416312981397,0.24988356232643127,-1.5145228544818323,-2.324423445877291e-39,-0.005431646481156349,0.7427698373794556,0.0,-0.000778555404394865,1.4267281293869019,5.9963240346405655e-05,-0.01913134567439556
203.0,199.0,-2.4473,-0.3033,9.472,-0.0293,0.0432,-0.1147,-2.16367830852651,0.0,4.338468074798584,-1.4749656915664673,0.0015300695085898042,1.9379932880401611,5.38119791725234,-0.00010601678513921797,0.24885648488998413,-1.5144947210894983,-6.473998905180655e-43,-0.009772660210728645,0.7427738308906555,0.0,0.0076998015865683556,1.4267240762710571,7.276351971086115e-05,0.03790275752544403
203.0,199.0,-2.4473,-0.3033,9.472,-0.0293,0.0432,-0.1147,-2.1636344395079554,-3.1771673093317077e-05,4.3322014808654785,-1.4749863147735596,0.001656358945183456,1.939440131187439,5.381234335690298,-0.0003444793983362615,0.24841077625751495,-1.5145309607135218,-2.802596928649634e-45,-0.026733966544270515,0.7427296042442322,0.0,0.006445020437240601,1.426703929901123,5.271479312796146e-05,0.02522040531039238
203.0,199.0,-2.4473,-0.3033,9.472,-0.0293,0.0432,-0.1147,-2.1636020145811976,-1.685712231846992e-05,4.346435546875,-1.4748820066452026,0.002486021025106311,1.9125566482543945,5.381234335690298,-0.00028175246552564204,0.23125815391540527,-1.5145347754107874,-0.0,-0.012203033082187176,0.7426731586456299,0.0,0.004303356632590294,1.4267481565475464,0.000833636149764061,8.481740951538086e-05
203.0,199.0,-2.4473,-0.3033,9.472,-0.0293,0.0432,-0.1147,-2.163642545739645,-1.4604494936065748e-05,4.35118293762207,-1.4748942852020264,0.004144829232245684,1.9280149936676025,5.381209838181295,-0.0002503845316823572,0.24911202490329742,-1.5144746939288538,-0.0,-0.006368717644363642,0.7427617311477661,0.0,-0.010651585645973682,1.4267964363098145,0.0021387836895883083,0.01358584500849247
203.0,199.0,-2.4473,-0.3033,9.472,-0.0293,0.0432,-0.1147,-2.1636744938292445,-1.3926255633123219e-05,4.2954792976379395,-1.4748420715332031,0.0077430917881429195,1.9367116689682007,5.38120202997283,-0.00021455790556501597,0.24438470602035522,-1.5144909063922327,-0.0,-0.013861092738807201,0.7426939010620117,0.0,0.011198664084076881,1.4267477989196777,0.004198936279863119,-0.008155605755746365
203.0,199.0,-2.4473,-0.3033,9.472,-0.0293,0.0432,-0.1147,-2.163694520989889,-2.647784276632592e-05,4.309959411621094,-1.4748623371124268,0.009797158651053905,1.9017572402954102,5.381213950901785,-0.00019587484712246805,0.2534762918949127,-1.5145309607135218,-0.0,-0.00962509773671627,0.7427494525909424,0.0,0.006688384804874659,1.4268157482147217,0.0049998643808066845,0.030311545357108116
203.0,199.0,-2.4473,-0.3033,9.472,-0.0293,0.0432,-0.1147,-2.163723131219381,-3.87184954888653e-05,4.328807830810547,-1.474730134010315,0.011524905450642109,1.9737848043441772,5.381193804531851,-0.00017324720101896673,0.24053817987442017,-1.5144909063922327,-0.0,-0.010354680940508842,0.7427857518196106,0.0,0.01207459345459938,1.4267594814300537,0.005245261825621128,0.04476184397935867
203.0,199.0,-2.4473,-0.3033,9.472,-0.0293,0.0432,-0.1147,-2.163710733453268,-5.025145219406113e-05,4.352503776550293,-1.474658489227295,0.011487427167594433,1.9212028980255127,5.381169724255361,-0.00019191970932297409,0.25155869126319885,-1.5144746939288538,-0.0,-0.02266630157828331,0.7427095174789429,0.0,-0.0036700270138680935,1.4268476963043213,0.005021325312554836,-0.028679799288511276
203.0,199.0,-2.4473,-0.3033,9.472,-0.0293,0.0432,-0.1147,-2.1637307606139125,-0.00022607082792092115,4.323824405670166,-1.4746462106704712,0.010326875373721123,1.946709156036377,5.381166028767385,-0.00026359903858974576,0.257121205329895,-1.5144947210894983,-0.0,-0.005898023955523968,0.7427377700805664,0.0,0.01443287543952465,1.4268677234649658,0.003551911097019911,-0.024108488112688065
203.0,199.0,-2.4473,-0.3033,9.472,-0.0293,0.0432,-0.1147,-2.1637145481505335,-0.001500879181548953,4.342818737030029,-1.474658489227295,0.00823395885527134,1.945401668548584,5.381129908352651,-0.0013296788092702627,0.23966678977012634,-1.5144947210894983,-0.0,-0.014667983166873455,0.7427337765693665,0.0,-0.0009551153052598238,1.4268956184387207,0.002771778032183647,-0.022342443466186523
189.0,226.0,-2.6728,-0.5665,9.3105,-0.0392,0.0286,-0.11,-2.163746496240133,-0.0022414561826735735,4.330507278442383,-1.474602460861206,0.005524522624909878,1.9578527212142944,5.381129908352651,-0.0021188161335885525,0.24452178180217743,-1.5144947210894983,-0.0,-0.016175488010048866,0.7427460551261902,0.0,0.012538700364530087,1.4269200563430786,0.0016215190989896655,0.011683156713843346
189.0,226.0,-2.6728,-0.5665,9.3105,-0.0392,0.0286,-0.11,-2.1637264690794886,-0.0020945738069713116,4.3157782554626465,-1.474606990814209,0.004081474617123604,1.95572829246521,5.381113874703207,-0.0019305823370814323,0.25152286887168884,-1.5144947210894983,-0.0,-0.015321703627705574,0.7427418828010559,0.0,-0.0075729466043412685,1.4268800020217896,0.0012235799804329872,0.059490714222192764
189.0,226.0,-2.6728,-0.5665,9.3105,-0.0392,0.0286,-0.11,-2.1637584171690882,-0.0012931041419506073,4.3128204345703125,-1.4745261669158936,0.0025492014829069376,1.9281182289123535,5.381130206375875,-0.0010920289205387235,0.2611455023288727,-1.5145109335528772,-0.0,0.0008988686604425311,0.7426775097846985,0.0,0.001924617332406342,1.4268635511398315,0.0007091958541423082,0.019445497542619705
189.0,226.0,-2.6728,-0.5665,9.3105,-0.0392,0.0286,-0.11,-2.1637546024718226,-0.0009699294460006058,4.356426239013672,-1.4745666980743408,0.0019346667686477304,1.9212210178375244,5.381094145565786,-0.0009032247471623123,0.24659046530723572,-1.5144866148578089,-0.0,-0.007172670215368271,0.7427574992179871,0.0,0.010007595643401146,1.4268959760665894,0.0001107863281504251,-0.010887779295444489
189.0,226.0,-2.6728,-0.5665,9.3105,-0.0392,0.0286,-0.11,-2.163750787774557,-0.0002403057151241228,4.325348377227783,-1.474542260169983,0.0010452658170834184,1.9311059713363647,5.381078290730276,-0.0007232701755128801,0.234148770570755,-1.5145066420184534,-0.0,0.0028612706810235977,0.7427296042442322,0.0,0.024524930864572525,1.4268476963043213,1.97634086873677e-09,-0.0652545839548111
189.0,226.0,-2.6728,-0.5665,9.3105,-0.0392,0.0286,-0.11,-2.163722177545065,-0.00018963309412356466,4.304662704467773,-1.4744700193405151,0.0008551886421628296,1.9353097677230835,5.381110119610586,-0.0004976057098247111,0.24761323630809784,-1.5144828001605433,-0.0,-0.0010055145248770714,0.7426534295082092,0.0,0.0002759967464953661,1.4268836975097656,-0.0012102605542168021,-0.03636917471885681
189.0,226.0,-2.6728,-0.5665,9.3105,-0.0392,0.0286,-0.11,-2.1637140713133753,-0.00014407731941901147,4.35233211517334,-1.4744584560394287,0.0006762247066944838,1.9648957252502441,5.381078171520986,-0.0005610206280834973,0.24930211901664734,-1.514482323323385,-0.0,0.011165414936840534,0.7427418231964111,0.0,0.01347084529697895,1.4268275499343872,-0.001205930602736771,-0.021318277344107628
189.0,226.0,-2.6728,-0.5665,9.3105,-0.0392,0.0286,-0.11,-2.1637546024718226,-0.00018627342069521546,4.373957633972168,-1.4745182991027832,0.0005566665204241872,1.9538624286651611,5.381069946080007,-0.0012735237833112478,0.24676164984703064,-1.5144990126239222,-0.0,0.009811261668801308,0.7427217960357666,0.0,0.013163931667804718,1.4268075227737427,-0.0009476126870140433,-0.010089537128806114
189.0,226.0,-2.6728,-0.5665,9.3105,-0.0392,0.0286,-0.11,-2.1637383900084437,-0.0002065580483758822,4.314654350280762,-1.4745665788650513,0.0004399954341351986,1.9786953926086426,5.381082343846121,-0.0054385485127568245,0.23984792828559875,-1.5144460836993616,-0.0,-0.0024711829610168934,0.7427178025245667,0.0,-0.0003768105525523424,1.42684805393219,-0.0008229775121435523,0.012931418605148792
189.0,226.0,-2.6728,-0.5665,9.3105,-0.0392,0.0286,-0.11,-2.1637383900084437,-0.00021792473853565753,4.300127983093262,-1.4744740724563599,0.00038606076850555837,1.9917749166488647,5.381022441178121,-0.009977064095437527,0.2349572777748108,-1.5144785086261194,-0.0,0.016524668782949448,0.7426972985267639,0.0,-0.0006704572006128728,1.4267997741699219,-0.0006780258263461292,-0.01936914771795273
189.0,226.0,-2.6728,-0.5665,9.3105,-0.0392,0.0286,-0.11,-2.1637665234007777,-0.0010829293169081211,4.305910110473633,-1.4745142459869385,0.0003726846189238131,2.0356292724609375,5.380886304169454,-0.01626870594918728,0.21475979685783386,-1.5144828001605433,-0.0,0.015491209924221039,0.7427217960357666,0.0,0.0006122064660303295,1.4268238544464111,-0.0007357447757385671,-0.037433069199323654
189.0,226.0,-2.6728,-0.5665,9.3105,-0.0392,0.0286,-0.11,-2.163718362847799,-0.0010491078719496727,4.312605381011963,-1.474534273147583,0.0003377229440957308,1.941321611404419,5.380851018219747,-0.01582849770784378,0.234566330909729,-1.5144746939288538,-0.0,0.012448564171791077,0.742769718170166,0.0,0.012896187603473663,1.426747441291809,-0.0009444669703952968,-0.05673641711473465
189.0,226.0,-2.6728,-0.5665,9.3105,-0.0392,0.0286,-0.11,-2.1637302837767542,-0.000975781527813524,4.31425142288208,-1.474522352218628,0.0002854224876500666,2.006911039352417,5.380779254227438,-0.012127937749028206,0.22844815254211426,-1.5144384543048304,-0.0,0.023425811901688576,0.7427574992179871,0.0,0.003290740307420492,1.4267797470092773,-0.0011696952860802412,-0.059306684881448746
189.0,226.0,-2.6728,-0.5665,9.3105,-0.0392,0.0286,-0.11,-2.1637546024718226,-0.0008507687598466873,4.274924278259277,-1.474470615386963,0.0007499275961890817,2.0380818843841553,5.380759167462148,-0.008735612966120243,0.2124950885772705,-1.5144785086261194,-0.0,0.01697254739701748,0.7427418231964111,0.0,0.0057426500134170055,1.4267637729644775,-0.0011254139244556427,-0.012100640684366226
189.0,226.0,-2.6728,-0.5665,9.3105,-0.0392,0.0286,-0.11,-2.163746019402975,-0.0006305415881797671,4.273781776428223,-1.4744541645050049,0.0020941083785146475,1.9662282466888428,5.380675482540884,-0.004896650556474924,0.23225069046020508,-1.5144746939288538,0.00048087385948747396,0.022903764620423317,0.7427738308906555,0.0,0.015809470787644386,1.4267759323120117,-0.001082776696421206,-0.11222673952579498
189.0,226.0,-2.6728,-0.5665,9.3105,-0.0392,0.0286,-0.11,-2.1637822590269984,-0.0005365359829738736,4.266263961791992,-1.4745062589645386,0.003603183664381504,1.9961915016174316,5.38066320398406,-0.0036643806379288435,0.2256155163049698,-1.514442269002096,0.00048094597877934575,0.03799532353878021,0.7427452802658081,0.0,0.02670338936150074,1.4267477989196777,-0.0010319356806576252,-0.10043925791978836
189.0,226.0,-2.6728,-0.5665,9.3105,-0.0392,0.0286,-0.11,-2.1637660465636195,-0.0003452447126619518,4.270382881164551,-1.4743937253952026,0.005175335798412561,2.0320725440979004,5.380703854351797,-0.002189426915720105,0.222893625497818,-1.5144951979266565,0.000582120381295681,0.018718987703323364,0.7426809668540955,0.0,0.005789070390164852,1.4268078804016113,-0.0009460981818847358,-0.1219797283411026
189.0,226.0,-2.6728,-0.5665,9.3105,-0.0392,0.0286,-0.11,-2.1637784443297328,-0.00029919922235421836,4.306258678436279,-1.4743461608886719,0.006378368474543095,1.9699561595916748,5.380635309010305,-0.001828142674639821,0.21103359758853912,-1.5144384543048304,0.0005515526863746345,0.03245452046394348,0.7427257895469666,0.0,0.01014050841331482,1.4268202781677246,-0.0008029380696825683,-0.13628721237182617
198.0,215.0,-2.5017,-0.6933,9.4995,-0.0536,0.0449,-0.1145,-2.1637259922423304,-0.0002972717920783907,4.2544379234313965,-1.4743671417236328,0.009297376498579979,2.0248260498046875,5.380607116013326,-0.002300024963915348,0.22824326157569885,-1.5144951979266565,0.00042977725388482213,0.027619920670986176,0.7427218556404114,0.0,0.0209101103246212,1.4267477989196777,-0.0006343562272377312,-0.10620948672294617
198.0,215.0,-2.5017,-0.6933,9.4995,-0.0536,0.0449,-0.1145,-2.1637302837767542,-0.00026944890851154923,4.2797651290893555,-1.4743553400039673,0.011170580983161926,2.06978702545166,5.38061939457015,-0.0028105631936341524,0.2206396907567978,-1.5144661108600062,0.00043220684165135026,0.042128488421440125,0.7427217364311218,0.0,0.019123775884509087,1.4267678260803223,-0.0005139836575835943,-0.13444888591766357
198.0,215.0,-2.5017,-0.6933,9.4995,-0.0536,0.0449,-0.1145,-2.163762231866354,-0.00031229545129463077,4.22786283493042,-1.4741896390914917,0.013408493250608444,2.0533759593963623,5.380591857224264,-0.0045029292814433575,0.22249889373779297,-1.514442269002096,0.0004137679061386734,0.030898410826921463,0.7427495121955872,0.0,0.004543664399534464,1.4267477989196777,-0.00039978750282898545,-0.16132305562496185
198.0,215.0,-2.5017,-0.6933,9.4995,-0.0536,0.0449,-0.1145,-2.1637784443297328,-0.0003800658159889281,4.276772499084473,-1.4741586446762085,0.014692787081003189,2.0361380577087402,5.38056759813384,-0.005725445691496134,0.21465283632278442,-1.5144627729998987,0.0004179717507213354,0.031192420050501823,0.7427857518196106,0.0,0.003552627982571721,1.426759958267212,-0.00040596359758637846,-0.11979997158050537
198.0,215.0,-2.5017,-0.6933,9.4995,-0.0536,0.0449,-0.1145,-2.1637660465636195,-0.0003837498661596328,4.249055862426758,-1.4740456342697144,0.016822190955281258,2.0421671867370605,5.380531596928396,-0.005698394030332565,0.20559024810791016,-1.5144384543048304,0.0004504347452893853,0.029257820919156075,0.7427337169647217,0.0,0.016762083396315575,1.426771879196167,-0.00034039202728308737,-0.18722325563430786
198.0,215.0,-2.5017,-0.6933,9.4995,-0.0536,0.0449,-0.1145,-2.163786550561422,-0.00038582144770771265,4.257094383239746,-1.4739900827407837,0.018980545923113823,2.0854382514953613,5.3805479286010645,-0.005314667709171772,0.20772293210029602,-1.5144665876971644,0.0006678141071461141,0.04004501551389694,0.7427697777748108,0.0,0.01597316563129425,1.4267276525497437,-0.00013972842134535313,-0.1735512614250183
198.0,215.0,-2.5017,-0.6933,9.4995,-0.0536,0.0449,-0.1145,-2.1638065777220667,-0.00047203287249431014,4.233753681182861,-1.473914384841919,0.020758207887411118,2.055189609527588,5.38051192739562,-0.003696176689118147,0.2068413496017456,-1.5144465605365198,0.0013431718107312918,0.04551052302122116,0.7427377700805664,0.0,0.019785970449447632,1.4267960786819458,-9.799489635042846e-05,-0.1623053103685379
198.0,215.0,-2.5017,-0.6933,9.4995,-0.0536,0.0449,-0.1145,-2.163790842095846,-0.00046994994045235217,4.274351596832275,-1.4737461805343628,0.021570347249507904,2.0901639461517334,5.380512285023489,-0.0026309536769986153,0.2091979682445526,-1.5144909063922327,0.002096738899126649,0.0422995463013649,0.7427697777748108,0.0,0.026934849098324776,1.4268120527267456,-8.837155473884195e-05,-0.14673972129821777
198.0,215.0,-2.5017,-0.6933,9.4995,-0.0536,0.0449,-0.1145,-2.1638270817198695,-0.0004968538996763527,4.252115726470947,-1.473650574684143,0.02479293942451477,2.064116954803467,5.380532848625936,-0.002152883680537343,0.19992700219154358,-1.5144627729998987,0.008585736155509949,0.039698466658592224,0.7427371144294739,0.0,0.020254194736480713,1.4267878532409668,-3.851331348414533e-05,-0.13172034919261932
198.0,215.0,-2.5017,-0.6933,9.4995,-0.0536,0.0449,-0.1145,-2.1637984714903773,-0.0007372053805738688,4.24504280090332,-1.4735058546066284,0.028221650049090385,2.0921669006347656,5.380468356400289,-0.002919767051935196,0.20713815093040466,-1.5143707434283655,0.013297650031745434,0.042309172451496124,0.7427377700805664,0.0,0.02036483958363533,1.4267797470092773,-4.954967494086304e-07,-0.12493239343166351
198.0,215.0,-2.5017,-0.6933,9.4995,-0.0536,0.0449,-0.1145,-2.1637984714903773,-0.0011017007054761052,4.240041732788086,-1.47339928150177,0.030440928414463997,2.1100404262542725,5.380440103798666,-0.00625724857673049,0.2042698711156845,-1.5143025557147425,0.011669347994029522,0.03310506418347359,0.742721438407898,0.0,0.020338866859674454,1.4267878532409668,-1.1965663919769054e-12,-0.17252802848815918
198.0,215.0,-2.5017,-0.6933,9.4995,-0.0536,0.0449,-0.1145,-2.163786550561422,-0.001515680574811995,4.273932933807373,-1.4732791185379028,0.033260591328144073,2.0973763465881348,5.380380320339956,-0.011003073304891586,0.19196654856204987,-1.5142911116229456,0.007067503407597542,0.025903716683387756,0.742793619632721,0.0,0.01693093776702881,1.4267878532409668,-2.1537771447631112e-16,-0.0847051590681076
198.0,215.0,-2.5017,-0.6933,9.4995,-0.0536,0.0449,-0.1145,-2.163814683953756,-0.0016729976050555706,4.277536869049072,-1.4730188846588135,0.03793756291270256,2.1178269386291504,5.380300748139181,-0.0140452291816473,0.18706738948822021,-1.5142744223224085,0.0016889770049601793,0.02543109655380249,0.7427978515625,0.0,0.010845990851521492,1.426771879196167,-5.201117720303175e-22,-0.12126734852790833
198.0,215.0,-2.5017,-0.6933,9.4995,-0.0536,0.0449,-0.1145,-2.1638266048827113,-0.0018497941782698035,4.235629081726074,-1.4728864431381226,0.041027333587408066,2.1037039756774902,5.380260574608602,-0.014451331458985806,0.18421876430511475,-1.5142505804644983,0.0007567607099190354,0.022176362574100494,0.7427534461021423,0.0,0.019339798018336296,1.4268157482147217,-9.36182713053057e-26,-0.14190110564231873
198.0,215.0,-2.5017,-0.6933,9.4995,-0.0536,0.0449,-0.1145,-2.1638504467406214,-0.0017861847300082445,4.253678798675537,-1.4725703001022339,0.04618116095662117,2.1856086254119873,5.380160856037893,-0.013140810653567314,0.1926317811012268,-1.5142954031573694,0.00046261370880529284,0.03312375769019127,0.7427534461021423,0.0,0.01881714165210724,1.4268161058425903,-2.2607706857133153e-31,-0.1684924066066742
198.0,215.0,-2.5017,-0.6933,9.4995,-0.0536,0.0449,-0.1145,-2.1638947925963343,-0.0018343462143093348,4.273732662200928,-1.4723942279815674,0.04988864064216614,2.1435928344726562,5.380077171116628,-0.011594521813094616,0.19755151867866516,-1.5142830053912562,0.0003678725042846054,0.03627572953701019,0.7427616119384766,0.0,0.02231602929532528,1.4267878532409668,-4.0693080339745484e-35,-0.15970328450202942
198.0,215.0,-2.5017,-0.6933,9.4995,-0.0536,0.0449,-0.1145,-2.163841863671774,-0.0021300124935805798,4.250173568725586,-1.472066879272461,0.05741963908076286,2.1769943237304688,5.380073535233297,-0.008312881924211979,0.20084989070892334,-1.5142629782306116,0.00028148075216449797,0.03953251615166664,0.7427575588226318,0.0,0.024088632315397263,1.4267637729644775,-9.826885740770645e-41,-0.189899280667305
198.0,215.0,-2.5017,-0.6933,9.4995,-0.0536,0.0449,-0.1145,-2.163882394830221,-0.0021882224828004837,4.258796691894531,-1.4718669652938843,0.06173134222626686,2.1552212238311768,5.379985022335806,-0.006123886443674564,0.18700583279132843,-1.5142386595355433,0.00024339203082490712,0.017431173473596573,0.7427657842636108,0.0,0.027174003422260284,1.4267559051513672,-0.0009581500780768692,-0.17768129706382751
207.0,204.0,-2.7362,-0.0179,9.6024,-0.0151,0.0487,-0.111,-2.163841863671774,-0.0023897222708910704,4.2280168533325195,-1.471410870552063,0.07045042514801025,2.186269521713257,5.379961597710409,-0.0033786161802709103,0.19086262583732605,-1.5143035093890589,0.00020233183749951422,0.022225666791200638,0.7428141236305237,0.0,0.025063924491405487,1.4267518520355225,-0.0016515939496457577,-0.2330075204372406
207.0,204.0,-2.7362,-0.0179,9.6024,-0.0151,0.0487,-0.111,-2.163906236688131,-0.0025225470308214426,4.261682987213135,-1.4710876941680908,0.07757575809955597,2.1631367206573486,5.379997241287985,-0.002240478992462158,0.20039869844913483,-1.5142672697650355,0.0001818801392801106,0.02643914520740509,0.742805540561676,0.0,0.03720847889780998,1.4267719984054565,-0.001993947196751833,-0.2366887331008911
207.0,204.0,-2.7362,-0.0179,9.6024,-0.0151,0.0487,-0.111,-2.163938661614889,-0.00367532204836607,4.222131729125977,-1.470579743385315,0.0882372260093689,2.170858383178711,5.380029666214742,-0.0015470635844394565,0.1967751383781433,-1.5143073240863245,0.00010100304643856362,0.037035565823316574,0.7427412271499634,0.0,0.04092986136674881,1.4267481565475464,-0.00321490247733891,-0.20334430038928986
207.0,204.0,-2.7362,-0.0179,9.6024,-0.0151,0.0487,-0.111,-2.1639706097044886,-0.004628750495612621,4.267519950866699,-1.4701544046401978,0.09574413299560547,2.168935537338257,5.37998132684783,-0.001553183188661933,0.17871937155723572,-1.5142911116229456,3.8179940020199865e-05,0.02792803756892681,0.7427337765693665,0.0,0.021086852997541428,1.426743984222412,-0.004948655609041452,-0.20194017887115479
207.0,204.0,-2.7362,-0.0179,9.6024,-0.0151,0.0487,-0.111,-2.164006372491354,-0.005780194886028767,4.217752933502197,-1.469558835029602,0.10571859031915665,2.1967077255249023,5.37990956285552,-0.0022157279308885336,0.1835291087627411,-1.5142305533038538,3.366876990185119e-05,0.03671259433031082,0.7427776455879211,0.0,0.023299891501665115,1.4266597032546997,-0.005952047184109688,-0.26758211851119995
207.0,204.0,-2.7362,-0.0179,9.6024,-0.0151,0.0487,-0.111,-2.1640101871886195,-0.006123011000454426,4.222081184387207,-1.4691554307937622,0.11037925630807877,2.243986129760742,5.379957961827078,-0.0032709878869354725,0.20202921330928802,-1.514275375996725,3.132463825750165e-05,0.03285904601216316,0.7427535057067871,0.0,0.0448661744594574,1.426688313484192,-0.005018506199121475,-0.17158226668834686
207.0,204.0,-2.7362,-0.0179,9.6024,-0.0151,0.0487,-0.111,-2.164018293420309,-0.006195184774696827,4.238955974578857,-1.4684209823608398,0.1146976426243782,2.2362492084503174,5.379938292294302,-0.004545274190604687,0.20250901579856873,-1.5142715612994593,2.836277417372912e-05,0.026256641373038292,0.7426891922950745,0.0,0.046281322836875916,1.4266318082809448,-0.003192297648638487,-0.24857988953590393
207.0,204.0,-2.7362,-0.0179,9.6024,-0.0151,0.0487,-0.111,-2.164058347741598,-0.005983390379697084,4.216805458068848,-1.4679638147354126,0.11854878067970276,2.2542271614074707,5.37988572099761,-0.00450796727091074,0.18933777511119843,-1.5143116156207483,2.668092020030599e-05,0.034317392855882645,0.7427453398704529,0.0,0.028539370745420456,1.4266033172607422,-0.0027810889296233654,-0.24640440940856934
207.0,204.0,-2.7362,-0.0179,9.6024,-0.0151,0.0487,-0.111,-2.1641227207579554,-0.004985939245671034,4.264616012573242,-1.4671388864517212,0.12716887891292572,2.251166820526123,5.379889893322744,-0.005055079236626625,0.18659022450447083,-1.5142386595355433,2.4501679945387878e-05,0.03490728512406349,0.7427535057067871,0.0,0.010996513068675995,1.4265673160552979,-0.002586366143077612,-0.21709918975830078
207.0,204.0,-2.7362,-0.0179,9.6024,-0.0151,0.0487,-0.111,-2.1641422710814417,-0.0035262247547507286,4.220203876495361,-1.466619849205017,0.1312841773033142,2.2765791416168213,5.379826235562124,-0.006734011694788933,0.1811363846063614,-1.5142505804644983,2.3236429115058854e-05,0.041326962411403656,0.7427932620048523,0.0,0.01716366782784462,1.42659592628479,-0.002627947134897113,-0.25539064407348633
207.0,204.0,-2.7362,-0.0179,9.6024,-0.0151,0.0487,-0.111,-2.1641341648497523,-0.0030373656190931797,4.228271007537842,-1.4658238887786865,0.1404537558555603,2.2536115646362305,5.379798400193014,-0.008495667949318886,0.1900016963481903,-1.514275375996725,2.1565963834291324e-05,0.04613674059510231,0.7427775859832764,0.0,0.02068554423749447,1.4265518188476562,-0.0018590334802865982,-0.24238631129264832
207.0,204.0,-2.7362,-0.0179,9.6024,-0.0151,0.0487,-0.111,-2.1641584835448207,-0.0026207761839032173,4.250072479248047,-1.4652620553970337,0.1459903120994568,2.2535531520843506,5.379790651589193,-0.010273000225424767,0.17587843537330627,-1.5142830053912562,2.057961501122918e-05,0.035159822553396225,0.7428014874458313,0.0,0.03756837919354439,1.4266119003295898,-0.0013141095405444503,-0.24165862798690796
207.0,204.0,-2.7362,-0.0179,9.6024,-0.0151,0.0487,-0.111,-2.164150377313131,-0.003103523049503565,4.177778244018555,-1.4643412828445435,0.15592528879642487,2.281796455383301,5.379658508091726,-0.013348236680030823,0.18266460299491882,-1.514259163533346,3.786383967963047e-05,0.0293734073638916,0.7428017854690552,0.0,0.02010239101946354,1.4266000986099243,-0.0007003672071732581,-0.27881482243537903
207.0,204.0,-2.7362,-0.0179,9.6024,-0.0151,0.0487,-0.111,-2.164206644097799,-0.0036962139420211315,4.208522319793701,-1.4636586904525757,0.16075296700000763,2.3028008937835693,5.379590499192037,-0.015768637880682945,0.17110547423362732,-1.514275375996725,3.6933353840140626e-05,0.030952759087085724,0.7427452802658081,0.0,0.04343376308679581,1.42659592628479,-0.0005339844501577318,-0.21775615215301514
207.0,204.0,-2.7362,-0.0179,9.6024,-0.0151,0.0487,-0.111,-2.164218088189596,-0.0038043963722884655,4.1925859451293945,-1.4626288414001465,0.16937504708766937,2.256007194519043,5.379519152432241,-0.021040812134742737,0.1878351867198944,-1.5142744223224085,1.7695992937660776e-05,0.028642740100622177,0.7427657246589661,0.0,0.03425147384405136,1.4265996217727661,-0.00031501040211878717,-0.22545252740383148
207.0,204.0,-2.7362,-0.0179,9.6024,-0.0151,0.0487,-0.111,-2.164201875726217,-0.0036987937055528164,4.179879188537598,-1.461977243423462,0.17499759793281555,2.3379359245300293,5.379391300469198,-0.025438407436013222,0.16114924848079681,-1.5142715612994593,1.675079511187505e-05,0.037496570497751236,0.7428578734397888,0.0,0.033816058188676834,1.4266160726547241,-0.00026806702953763306,-0.26152750849723816
207.0,204.0,-2.7362,-0.0179,9.6024,-0.0151,0.0487,-0.111,-2.1642667255797328,-0.003934284206479788,4.215151309967041,-1.4608453512191772,0.1833406537771225,2.345038652420044,5.379235791950979,-0.031168602406978607,0.16962486505508423,-1.5142548719989222,1.5863792214076966e-05,0.03237012401223183,0.7427612543106079,0.0,0.03403628617525101,1.4266160726547241,-0.000219109482713975,-0.260463148355484
207.0,204.0,-2.7362,-0.0179,9.6024,-0.0151,0.0487,-0.111,-2.164213319818014,-0.003571130568161607,4.240032196044922,-1.460027813911438,0.18995621800422668,2.3435447216033936,5.379104184895315,-0.03854741156101227,0.1601487696170807,-1.5142548719989222,1.5323586922022514e-05,0.031460970640182495,0.7427735328674316,0.0,0.04006025195121765,1.426607370376587,-0.00014650709636043757,-0.20180988311767578
218.0,214.0,-2.6459,-0.725,9.6467,-0.0451,0.1335,-0.1235,-2.1642824612059535,-0.00313445832580328,4.182062149047852,-1.4589260816574097,0.20298661291599274,2.391773223876953,5.3787691471870325,-0.05513181909918785,0.14978940784931183,-1.5142672697650355,1.4578901755157858e-05,0.04151490330696106,0.7428013682365417,0.0,0.03631218150258064,1.4266360998153687,9.720808156998828e-05,-0.18373972177505493
218.0,214.0,-2.6459,-0.725,9.6467,-0.0451,0.1335,-0.1235,-2.164273878137106,-0.00303514557890594,4.221434593200684,-1.4580575227737427,0.20435163378715515,2.365206718444824,5.378546106606283,-0.06971871107816696,0.13569889962673187,-1.5142467657672327,1.4121402273303829e-05,0.028919212520122528,0.7427616119384766,0.0,0.04092578589916229,1.426615595817566,0.00012985608191229403,-0.21957062184810638
218.0,214.0,-2.6459,-0.725,9.6467,-0.0451,0.1335,-0.1235,-2.1643220386900843,-0.0040179044008255005,4.170627593994141,-1.4568432569503784,0.21410758793354034,2.408024787902832,5.378095435887136,-0.09783067554235458,0.1293647587299347,-1.5142629782306116,1.348657224298222e-05,0.01587119698524475,0.74283367395401,0.0,0.024793460965156555,1.4266319274902344,0.00011485004506539553,-0.2274695336818695
218.0,214.0,-2.6459,-0.725,9.6467,-0.0451,0.1335,-0.1235,-2.164342542687887,-0.003971964120864868,4.190971851348877,-1.4559097290039062,0.2234792411327362,2.4005684852600098,5.377600121289053,-0.11379857361316681,0.10731351375579834,-1.5142629782306116,1.3094137102598324e-05,0.03196641057729721,0.7427735328674316,0.0,0.029404181987047195,1.4266114234924316,0.00012900079309474677,-0.19188453257083893
218.0,214.0,-2.6459,-0.725,9.6467,-0.0451,0.1335,-0.1235,-2.1643578014769496,-0.004204184282571077,4.231037139892578,-1.4545868635177612,0.23552854359149933,2.3962676525115967,5.376798438816824,-0.1320817619562149,0.1049228087067604,-1.5142548719989222,1.2546514881250914e-05,0.02685486525297165,0.7427694797515869,0.0,0.04042045772075653,1.4266482591629028,0.0001262751902686432,-0.14933019876480103
218.0,214.0,-2.6459,-0.725,9.6467,-0.0451,0.1335,-0.1235,-2.1643740139403285,-0.004969857167452574,4.226003170013428,-1.453628420829773,0.241455078125,2.4230799674987793,5.376220214157858,-0.1335800141096115,0.09339141100645065,-1.5142954031573694,1.2206206520204432e-05,0.0129936458542943,0.7427493929862976,0.0,0.039703112095594406,1.4266037940979004,0.00011799695494119078,-0.15464285016059875
218.0,214.0,-2.6459,-0.725,9.6467,-0.0451,0.1335,-0.1235,-2.1644302807249964,-0.006917293649166822,4.197517395019531,-1.4521244764328003,0.24569770693778992,2.466217517852783,5.37544726112441,-0.149804949760437,0.08938413858413696,-1.5142305533038538,1.1728970093827229e-05,0.01888022944331169,0.742781400680542,0.0,0.023910965770483017,1.4266161918640137,0.00010743288294179365,-0.16698883473873138
