ramyac6/ROB537/final_project/csv/all/bad_161.csv
tof_0,tof_1,accelx,accely,accelz,gyrox,gyroy,gyroz,shoulder_lift_joint_position,shoulder_lift_joint_velocity,shoulder_lift_joint_effort,elbow_joint_position,elbow_joint_velocity,elbow_joint_effort,wrist_1_joint_position,wrist_1_joint_velocity,wrist_1_joint_effort,wrist_2_joint_position,wrist_2_joint_velocity,wrist_2_joint_effort,wrist_3_joint_position,wrist_3_joint_velocity,wrist_3_joint_effort,shoulder_pan_joint_position,shoulder_pan_joint_velocity,shoulder_pan_joint_effort
426.0,810.0,-1.7276,-0.5713,9.3709,-0.0402,0.0255,-0.1287,-1.8532806835570277,0.0,2.7862138748168945,-2.0576012134552,-0.0,1.650714635848999,5.578075098782339,0.0,0.2604285180568695,-1.5211141745196741,0.0,-0.01218614261597395,0.7051901817321777,0.0,0.0032832184806466103,0.7843752503395081,0.0,-0.033601753413677216
426.0,810.0,-1.7276,-0.5713,9.3709,-0.0402,0.0255,-0.1287,-1.8533131084837855,0.0,2.8389132022857666,-2.0576093196868896,-0.0,1.6326767206192017,5.578107464104452,0.0,0.2627685070037842,-1.5210736433612269,0.0,-0.01092906016856432,0.705177903175354,0.0,-0.004318377003073692,0.7843995690345764,0.0,-0.0014291747938841581
426.0,810.0,-1.7276,-0.5713,9.3709,-0.0402,0.0255,-0.1287,-1.8533011875548304,0.0,2.8070292472839355,-2.0575971603393555,-0.0,1.6437387466430664,5.578054713993826,0.0,0.26739054918289185,-1.5210941473590296,0.0,0.0017881253734230995,0.7051339149475098,0.0,0.004260258283466101,0.7844077348709106,0.0,0.04252560809254646
426.0,810.0,-1.7276,-0.5713,9.3709,-0.0402,0.0255,-0.1287,-1.8532973728575648,0.0,2.869232177734375,-2.0576331615448,-0.0,1.6578413248062134,5.5781234977538965,0.0,0.26016467809677124,-1.5210779348956507,0.0,-0.006768522318452597,0.7052065134048462,0.0,0.0041143279522657394,0.784314751625061,0.0,0.009182486683130264
426.0,810.0,-1.7276,-0.5713,9.3709,-0.0402,0.0255,-0.1287,-1.8532806835570277,0.0,2.8314151763916016,-2.0575928688049316,-0.0,1.660040020942688,5.578103410988607,0.0,0.27015382051467896,-1.5211017767535608,0.0,-0.013120412826538086,0.7052024602890015,0.0,-0.0019050806295126677,0.7843390107154846,0.0,0.023894354701042175
426.0,810.0,-1.7276,-0.5713,9.3709,-0.0402,0.0255,-0.1287,-1.8532926044859828,0.0,2.824896812438965,-2.0576744079589844,-0.0,1.5954434871673584,5.578099238663473,0.0,0.26133519411087036,-1.5210655371295374,0.0,-0.024434451013803482,0.7052348852157593,0.0,0.00609411159530282,0.7843551635742188,0.0,-0.01526783686131239
426.0,810.0,-1.7276,-0.5713,9.3709,-0.0402,0.0255,-0.1287,-1.8532520733275355,0.0,2.8474960327148438,-2.0576300621032715,-0.0,1.6387698650360107,5.578151392727651,0.0,0.25860416889190674,-1.5210660139666956,0.0,-0.016510237008333206,0.7052426338195801,0.0,0.007959047332406044,0.7843834161758423,0.0,0.03940790891647339
426.0,810.0,-1.7276,-0.5713,9.3709,-0.0402,0.0255,-0.1287,-1.8533011875548304,0.0,2.7876243591308594,-2.057621717453003,-0.0,1.6154154539108276,5.578103410988607,0.0,0.2746546268463135,-1.52106219926943,0.0,-0.011342160403728485,0.7051578164100647,0.0,0.0017543204594403505,0.7843592762947083,0.0,0.039596881717443466
426.0,810.0,-1.7276,-0.5713,9.3709,-0.0402,0.0255,-0.1287,-1.8532725773253382,0.0,2.8004636764526367,-2.057537078857422,-0.0,1.6742743253707886,5.578107464104452,0.0,0.2537390887737274,-1.5210779348956507,0.0,-0.02294335514307022,0.7052228450775146,0.0,0.006658586673438549,0.7843670845031738,0.0,0.035158392041921616
426.0,810.0,-1.7276,-0.5713,9.3709,-0.0402,0.0255,-0.1287,-1.8532973728575648,0.0,2.831728219985962,-2.0576093196868896,-0.0,1.6397976875305176,5.578103410988607,0.0,0.26220428943634033,-1.521045986806051,0.0,-0.011617332696914673,0.7052143216133118,0.0,0.004411896225064993,0.7843390107154846,0.0,-0.01084953360259533
426.0,880.0,-1.8072,-0.5803,9.484,-0.0296,0.0205,-0.12,-1.8532763920226039,0.0,2.806184768676758,-2.0575690269470215,-0.0,1.6102994680404663,5.5780829069908044,0.0,0.2560238540172577,-1.5211017767535608,0.0,-0.016886379569768906,0.7051982879638672,0.0,0.014536314643919468,0.784314751625061,0.0,0.04433465376496315
426.0,880.0,-1.8072,-0.5803,9.484,-0.0296,0.0205,-0.12,-1.853293081323141,0.0,2.8367245197296143,-2.057645559310913,-0.0,1.6124905347824097,5.578071105271139,0.0,0.26892000436782837,-1.5210774580584925,0.0,-0.006830210797488689,0.7051098942756653,0.0,-0.00036523828748613596,0.7843271493911743,0.0,0.022752631455659866
426.0,880.0,-1.8072,-0.5803,9.484,-0.0296,0.0205,-0.12,-1.8533007107176722,0.0,2.8118042945861816,-2.057617664337158,-0.0,1.6108123064041138,5.578087079315939,0.0,0.2667204439640045,-1.521045986806051,0.0,-0.012530338950455189,0.7051819562911987,0.0,-0.005903179757297039,0.7843995690345764,0.0,-0.03347238898277283
426.0,880.0,-1.8072,-0.5803,9.484,-0.0296,0.0205,-0.12,-1.8532763920226039,0.0,2.839463710784912,-2.057560920715332,-0.0,1.6177129745483398,5.578079211502828,0.0,0.26297324895858765,-1.5210498015033167,0.0,-0.013074222952127457,0.7051824331283569,0.0,0.0061742509715259075,0.7843793034553528,0.0,-0.010666931979358196
426.0,880.0,-1.8072,-0.5803,9.484,-0.0296,0.0205,-0.12,-1.8532725773253382,0.0,2.8531417846679688,-2.057621717453003,-0.0,1.6132328510284424,5.57807474115447,0.0,0.2714760899543762,-1.5210936705218714,0.0,-0.018280550837516785,0.7052024602890015,0.0,-0.00868417602032423,0.7843793034553528,0.0,0.03653939813375473
426.0,880.0,-1.8072,-0.5803,9.484,-0.0296,0.0205,-0.12,-1.853220125237936,0.0,2.8167667388916016,-2.0575814247131348,-0.0,1.6078386306762695,5.57805876710967,0.0,0.2536429166793823,-1.5210416952716272,0.0,-0.015142376534640789,0.7051581740379333,0.0,0.0054959263652563095,0.7843953967094421,0.0,0.023985549807548523
426.0,880.0,-1.8072,-0.5803,9.484,-0.0296,0.0205,-0.12,-1.8532763920226039,0.0,2.839613914489746,-2.057617664337158,-0.0,1.622891902923584,5.578119444638052,0.0,0.27203360199928284,-1.5210498015033167,0.0,-0.017167670652270317,0.7052024006843567,0.0,0.0073083797469735146,0.784351110458374,0.0,-0.008387640118598938
426.0,880.0,-1.8072,-0.5803,9.484,-0.0296,0.0205,-0.12,-1.8532763920226039,0.0,2.8453307151794434,-2.0575928688049316,-0.0,1.6457571983337402,5.578075158386984,0.0,0.2730041742324829,-1.5210536162005823,0.0,-0.021163497120141983,0.7051701545715332,0.0,-0.0028999638743698597,0.7843428254127502,0.0,0.026748308911919594
426.0,880.0,-1.8072,-0.5803,9.484,-0.0296,0.0205,-0.12,-1.8533054790892542,0.0,2.835554361343384,-2.0575690269470215,-0.0,1.6111966371536255,5.578127133637228,0.0,0.2620070278644562,-1.5211017767535608,0.0,-0.01793089509010315,0.7051941752433777,0.0,0.002591008087620139,0.784351110458374,0.0,-0.004745070822536945
426.0,880.0,-1.8072,-0.5803,9.484,-0.0296,0.0205,-0.12,-1.8532644710936488,0.0,2.8236842155456543,-2.057573080062866,-0.0,1.6076630353927612,5.5781234977538965,0.0,0.27287840843200684,-1.521017853413717,0.0,-0.028421347960829735,0.7051540613174438,0.0,0.0008610559743829072,0.78435879945755,0.0,0.015439380891621113
426.0,880.0,-1.8072,-0.5803,9.484,-0.0296,0.0205,-0.12,-1.8532806835570277,0.0,2.829075336456299,-2.0575690269470215,-0.0,1.6381661891937256,5.5780911324317834,0.0,0.266994833946228,-1.5211098829852503,0.0,-0.017570875585079193,0.7051819562911987,0.0,0.004431483801454306,0.784379243850708,0.0,-0.010997818782925606
426.0,880.0,-1.8072,-0.5803,9.484,-0.0296,0.0205,-0.12,-1.8532849750914515,0.0,2.8520991802215576,-2.0575969219207764,-0.0,1.633394718170166,5.5780829069908044,0.0,0.24843698740005493,-1.521085564290182,0.0,-0.014132332056760788,0.7051059007644653,0.0,0.005106119439005852,0.7843551635742188,0.0,0.030832838267087936
426.0,880.0,-1.8072,-0.5803,9.484,-0.0296,0.0205,-0.12,-1.8532973728575648,0.0,2.8359665870666504,-2.057600975036621,-0.0,1.628258466720581,5.57806276062087,0.0,0.2718821167945862,-1.5211260954486292,0.0,-0.017547067254781723,0.7051659822463989,0.0,0.01490849256515503,0.7843307852745056,0.0,0.031366705894470215
426.0,880.0,-1.8072,-0.5803,9.484,-0.0296,0.0205,-0.12,-1.8532887897887171,0.0,2.8495702743530273,-2.057584524154663,-0.0,1.6321351528167725,5.578111517220297,0.0,0.2648838758468628,-1.5210736433612269,0.0,-0.01696915552020073,0.7051422595977783,0.0,-0.0060769421979784966,0.7843711972236633,0.0,0.0021922248415648937
426.0,880.0,-1.8072,-0.5803,9.484,-0.0296,0.0205,-0.12,-1.8533250294127406,0.0,2.8201305866241455,-2.0575814247131348,-0.0,1.6335036754608154,5.578103410988607,0.0,0.2693776488304138,-1.5210979620562952,0.0,-0.011008423753082752,0.7051094770431519,0.0,-0.0013208567397668958,0.7843629121780396,0.0,0.02001969888806343
426.0,880.0,-1.8072,-0.5803,9.484,-0.0296,0.0205,-0.12,-1.8532644710936488,0.0,2.825324058532715,-2.0575814247131348,-0.0,1.660271406173706,5.578099238663473,0.0,0.2535059154033661,-1.5210655371295374,0.0,-0.013094604015350342,0.7051782608032227,0.0,0.00034151063300669193,0.7843592762947083,0.0,0.027954109013080597
426.0,880.0,-1.8072,-0.5803,9.484,-0.0296,0.0205,-0.12,-1.8532606563963832,0.0,2.842895030975342,-2.0576257705688477,-0.0,1.600275993347168,5.578091192036428,0.0,0.2643815875053406,-1.5210817495929163,0.0,-0.015151437371969223,0.7051541209220886,0.0,0.006986415013670921,0.784387469291687,0.0,-0.01232924871146679
426.0,880.0,-1.8072,-0.5803,9.484,-0.0296,0.0205,-0.12,-1.853345056573385,0.0,2.8174080848693848,-2.0576331615448,-0.0,1.5961425304412842,5.578103410988607,0.0,0.2656453847885132,-1.5211017767535608,0.0,-0.025255529209971428,0.7051742076873779,0.0,-0.0005917241796851158,0.7844037413597107,0.0,0.02443111501634121
417.0,824.0,-1.7773,-0.6114,9.463,-0.0396,0.0235,-0.1225,-1.8532763920226039,0.0,2.7682113647460938,-2.0576012134552,-0.0,1.6456016302108765,5.578099238663473,0.0,0.2577584981918335,-1.5211017767535608,0.0,-0.0058875735849142075,0.7051783204078674,0.0,0.004023146815598011,0.7843189239501953,0.0,-0.0033716284669935703
417.0,824.0,-1.7773,-0.6114,9.463,-0.0396,0.0235,-0.1225,-1.853293081323141,0.0,2.8215389251708984,-2.057617664337158,-0.0,1.6342661380767822,5.5781070468719385,0.0,0.2629876732826233,-1.5210898558246058,0.0,-0.01846923679113388,0.7052749395370483,0.0,-0.007236872334033251,0.784387469291687,0.0,-0.012354308739304543
417.0,824.0,-1.7773,-0.6114,9.463,-0.0396,0.0235,-0.1225,-1.8532682857909144,0.0,2.8519046306610107,-2.0576260089874268,-0.0,1.6362816095352173,5.57805089929656,0.0,0.2652912139892578,-1.5211017767535608,0.0,-0.008203570730984211,0.7052024602890015,0.0,0.011212046258151531,0.7843307852745056,0.0,0.03362947329878807
417.0,824.0,-1.7773,-0.6114,9.463,-0.0396,0.0235,-0.1225,-1.8533092937865199,0.0,2.822857618331909,-2.0576093196868896,-0.0,1.604419469833374,5.578066932946005,0.0,0.25828754901885986,-1.5210936705218714,0.0,-0.019674450159072876,0.705186128616333,0.0,0.00643582921475172,0.7843144536018372,0.0,-0.011073497124016285
417.0,824.0,-1.7773,-0.6114,9.463,-0.0396,0.0235,-0.1225,-1.8532525501646937,0.0,2.8099493980407715,-2.057662010192871,-0.0,1.6200077533721924,5.578103351383962,0.0,0.24615180492401123,-1.5210655371295374,0.0,-0.015785541385412216,0.7051701545715332,0.0,0.011068269610404968,0.7843387722969055,0.0,0.027168648317456245
417.0,824.0,-1.7773,-0.6114,9.463,-0.0396,0.0235,-0.1225,-1.8532563648619593,0.0,2.785078763961792,-2.0575969219207764,-0.0,1.6885091066360474,5.5780911324317834,0.0,0.260237455368042,-1.5210860411273401,0.0,-0.01544155552983284,0.7052146792411804,0.0,0.002961214166134596,0.7843875288963318,0.0,0.05248406529426575
417.0,824.0,-1.7773,-0.6114,9.463,-0.0396,0.0235,-0.1225,-1.8533131084837855,0.0,2.8668458461761475,-2.0575928688049316,-0.0,1.6224055290222168,5.578078794270315,0.0,0.25844043493270874,-1.5210416952716272,0.0,-0.01281064935028553,0.7051901817321777,0.0,0.007903549820184708,0.7843915820121765,0.0,0.011317579075694084
417.0,824.0,-1.7773,-0.6114,9.463,-0.0396,0.0235,-0.1225,-1.8532973728575648,0.0,2.8081493377685547,-2.057572364807129,-0.0,1.6501078605651855,5.578095125942983,0.0,0.25717049837112427,-1.521045986806051,0.0,-0.018127601593732834,0.7052306532859802,0.0,0.00523034855723381,0.7843106389045715,0.0,0.0010410710237920284
417.0,824.0,-1.7773,-0.6114,9.463,-0.0396,0.0235,-0.1225,-1.853321214715475,0.0,2.8486905097961426,-2.0576095581054688,-0.0,1.6516025066375732,5.578103410988607,0.0,0.25639134645462036,-1.5210655371295374,0.0,-0.011241413652896881,0.7051701545715332,0.0,0.00574262673035264,0.784351110458374,0.0,-0.028426434844732285
417.0,824.0,-1.7773,-0.6114,9.463,-0.0396,0.0235,-0.1225,-1.8532887897887171,0.0,2.821359872817993,-2.057573080062866,-0.0,1.6074652671813965,5.578075158386984,0.0,0.26690882444381714,-1.5211098829852503,0.0,-0.015555273741483688,0.7051696181297302,0.0,-0.006260863970965147,0.7843188643455505,0.0,-0.04224807396531105
417.0,824.0,-1.7773,-0.6114,9.463,-0.0396,0.0235,-0.1225,-1.8533174000182093,0.0,2.8631396293640137,-2.0576095581054688,-0.0,1.6317158937454224,5.5781152723129175,0.0,0.25929009914398193,-1.5210698286639612,0.0,-0.002838942687958479,0.7052065134048462,0.0,-0.0019072673749178648,0.7843349575996399,0.0,0.03432467579841614
417.0,824.0,-1.7773,-0.6114,9.463,-0.0396,0.0235,-0.1225,-1.8532763920226039,0.0,2.798917293548584,-2.057537078857422,-0.0,1.604383111000061,5.5781234977538965,0.0,0.26170384883880615,-1.5210617224322718,0.0,-0.012896143831312656,0.7051462531089783,0.0,0.001657689455896616,0.7843471765518188,0.0,-0.006709512788802385
417.0,824.0,-1.7773,-0.6114,9.463,-0.0396,0.0235,-0.1225,-1.8533007107176722,0.0,2.8164310455322266,-2.057638168334961,-0.0,1.5946533679962158,5.5780829069908044,0.0,0.2669934034347534,-1.5210936705218714,0.0,-0.02827797830104828,0.7051819562911987,0.0,-0.0005468178424052894,0.7843431234359741,0.0,-0.02332282066345215
417.0,824.0,-1.7773,-0.6114,9.463,-0.0396,0.0235,-0.1225,-1.8532525501646937,0.0,2.8060319423675537,-2.057605266571045,-0.0,1.6237483024597168,5.578103351383962,0.0,0.26655784249305725,-1.5210936705218714,0.0,-0.003352004336193204,0.7051421999931335,0.0,0.009707179851830006,0.7843348383903503,0.0,0.015011565759778023
417.0,824.0,-1.7773,-0.6114,9.463,-0.0396,0.0235,-0.1225,-1.8533092937865199,0.0,2.803551435470581,-2.0575928688049316,-0.0,1.6559858322143555,5.5781553266342065,0.0,0.2691505551338196,-1.5210536162005823,0.0,-0.011021237820386887,0.7051902413368225,0.0,-0.009668505750596523,0.7843670845031738,0.0,-0.00789748877286911
417.0,824.0,-1.7773,-0.6114,9.463,-0.0396,0.0235,-0.1225,-1.8533216915526332,0.0,2.7897462844848633,-2.0576095581054688,-0.0,1.6382765769958496,5.578107106476583,0.0,0.25745564699172974,-1.5211141745196741,0.0,-0.014844955876469612,0.7052225470542908,0.0,0.01023819763213396,0.7844196557998657,0.0,-0.009167768992483616
417.0,824.0,-1.7773,-0.6114,9.463,-0.0396,0.0235,-0.1225,-1.8532687626280726,0.0,2.791621685028076,-2.0576372146606445,-0.0,1.6099581718444824,5.5781471011932275,0.0,0.2539759576320648,-1.5211060682879847,0.0,-0.010208508931100368,0.705198347568512,0.0,-0.004831411875784397,0.7843990325927734,5.758493681895516e-09,-0.00030624103965237737
417.0,824.0,-1.7773,-0.6114,9.463,-0.0396,0.0235,-0.1225,-1.8532444439330042,0.0,2.800804853439331,-2.057621717453003,-0.0,1.6332666873931885,5.578151392727651,0.0,0.26119494438171387,-1.5211222807513636,0.0,-0.0018315333873033524,0.7052106261253357,0.0,-0.0014591841027140617,0.7844073176383972,0.0008909790776669979,0.019083574414253235
417.0,824.0,-1.7773,-0.6114,9.463,-0.0396,0.0235,-0.1225,-1.8532687626280726,0.0,2.7744545936584473,-2.0576300621032715,-0.0,1.610247015953064,5.578050541668691,0.0,0.2658250331878662,-1.5210979620562952,0.0,-0.02233036607503891,0.7051737904548645,0.0,0.004272975027561188,0.7843387722969055,0.0009822612628340721,0.03488195315003395
417.0,864.0,-2.0213,0.0778,9.5563,-0.0412,0.016,-0.1263,-1.853248735467428,0.0,2.8144431114196777,-2.057617664337158,-0.0,1.6619511842727661,5.57807486036376,0.0,0.26768797636032104,-1.521085564290182,0.0,-0.014422513544559479,0.7051701545715332,0.0,0.01038847491145134,0.784371018409729,0.000803280679974705,-0.013400164432823658
417.0,864.0,-2.0213,0.0778,9.5563,-0.0412,0.016,-0.1263,-1.8532806835570277,0.0,2.806269645690918,-2.057537078857422,-0.0,1.5430195331573486,5.578095185547628,0.0,0.2501320242881775,-1.5210941473590296,0.0,-0.01820247247815132,0.7052024602890015,0.0,0.005758832208812237,0.7843834161758423,0.0005925270961597562,-0.011020446196198463
417.0,864.0,-2.0213,0.0778,9.5563,-0.0412,0.016,-0.1263,-1.8532849750914515,0.0,2.866548538208008,-2.057621717453003,-0.0,1.6217169761657715,5.578111159592428,0.0,0.26665085554122925,-1.5210498015033167,0.0,-0.03241115063428879,0.7051339149475098,0.0,0.0011268308153375983,0.784371018409729,0.00042466804734431207,0.01035032793879509
417.0,864.0,-2.0213,0.0778,9.5563,-0.0412,0.016,-0.1263,-1.8533131084837855,0.0,2.8003990650177,-2.0576095581054688,-0.0,1.6157793998718262,5.578095185547628,0.0,0.26776817440986633,-1.52114183107485,0.0,-0.012348050251603127,0.705186128616333,0.0,-0.008363085798919201,0.7844031453132629,0.00035721895983442664,0.014917675405740738
417.0,864.0,-2.0213,0.0778,9.5563,-0.0412,0.016,-0.1263,-1.8532887897887171,0.0,2.853280544281006,-2.057584524154663,-0.0,1.5807266235351562,5.578107523709097,6.252238381421193e-05,0.2520211935043335,-1.5211380163775843,0.0,-0.024535082280635834,0.7051619291305542,0.0,-0.014385508373379707,0.7843872308731079,0.00032624031882733107,-0.017324872314929962
417.0,864.0,-2.0213,0.0778,9.5563,-0.0412,0.016,-0.1263,-1.8532806835570277,0.0,2.8022031784057617,-2.0576095581054688,-0.0,1.6333881616592407,5.578099238663473,5.8706886193249375e-05,0.2774593234062195,-1.52114183107485,0.0,-0.016604576259851456,0.7051300406455994,0.0,0.008630653843283653,0.7843990921974182,0.0003518867597449571,0.009488692507147789
417.0,864.0,-2.0213,0.0778,9.5563,-0.0412,0.016,-0.1263,-1.8533131084837855,0.0,2.793804168701172,-2.0575690269470215,-0.0,1.6134295463562012,5.578099298268118,5.511271592695266e-05,0.25380295515060425,-1.5211380163775843,0.0,-0.023792201653122902,0.7051819562911987,0.0,0.005008809734135866,0.7844193577766418,0.00033971629454754293,-0.010522570461034775
417.0,864.0,-2.0213,0.0778,9.5563,-0.0412,0.016,-0.1263,-1.8532763920226039,0.0,2.8420767784118652,-2.0575928688049316,-0.0,1.6069025993347168,5.578103410988607,5.047590093454346e-05,0.2668823301792145,-1.521181885396139,0.0,-0.009525833651423454,0.7051901817321777,0.0,0.0075134034268558025,0.7844353318214417,0.003168554976582527,-0.008719714358448982
417.0,864.0,-2.0213,0.0778,9.5563,-0.0412,0.016,-0.1263,-1.8532682857909144,0.0,2.7891650199890137,-2.0575814247131348,-0.0,1.5816444158554077,5.578095245152273,4.779505979968235e-05,0.26103395223617554,-1.5211499373065394,0.0,-0.02188437432050705,0.7051819562911987,0.0,-0.009352204389870167,0.7844954133033752,0.005246170796453953,-0.003937564790248871
417.0,864.0,-2.0213,0.0778,9.5563,-0.0412,0.016,-0.1263,-1.8532644710936488,0.0,2.8558125495910645,-2.0576372146606445,-0.0,1.6393404006958008,5.578095185547628,4.4268501369515434e-05,0.2750321626663208,-1.52116567293276,0.0,-0.02160242386162281,0.7051901817321777,0.0,-0.003941619303077459,0.7845154404640198,0.007785188499838114,0.05708058178424835
417.0,864.0,-2.0213,0.0778,9.5563,-0.0412,0.016,-0.1263,-1.8532973728575648,0.0,2.816842555999756,-2.05755352973938,-0.0,1.6419970989227295,5.578062820225515,4.219309994368814e-05,0.2597354054450989,-1.52116567293276,0.0,-0.02053259313106537,0.7052106261253357,0.0,-0.001743208384141326,0.7845394015312195,0.008697861805558205,0.02195417508482933
417.0,864.0,-2.0213,0.0778,9.5563,-0.0412,0.016,-0.1263,-1.853293081323141,0.0,2.8407087326049805,-2.057649612426758,-0.0,1.5903542041778564,5.578099238663473,3.942082548746839e-05,0.26997998356819153,-1.52114183107485,0.0,-0.010671940632164478,0.7051663398742676,0.0,-0.00815185159444809,0.7845792174339294,0.009798682294785976,0.025688789784908295
417.0,864.0,-2.0213,0.0778,9.5563,-0.0412,0.016,-0.1263,-1.8533255062498988,0.0,2.8546619415283203,-2.0575764179229736,-0.0,1.6406431198120117,5.578123080521383,3.776660014409572e-05,0.26251429319381714,-1.5211098829852503,0.0,-0.016984397545456886,0.7051902413368225,0.0,-0.01284096296876669,0.7846194505691528,0.009433100931346416,-0.00018589099636301398
417.0,864.0,-2.0213,0.0778,9.5563,-0.0412,0.016,-0.1263,-1.8532525501646937,0.0,2.828413963317871,-2.057645559310913,-0.0,1.6354961395263672,5.578095185547628,3.553006536094472e-05,0.2474745213985443,-1.5211461226092737,0.0,-0.021898359060287476,0.7052065134048462,0.0,-0.009321365505456924,0.7846674919128418,0.008188504725694656,0.02075071632862091
417.0,864.0,-2.0213,0.0778,9.5563,-0.0412,0.016,-0.1263,-1.8533250294127406,0.0,2.8084263801574707,-2.0576331615448,-0.0,1.5979933738708496,5.578091072827139,3.418069172766991e-05,0.2530467212200165,-1.52114183107485,0.0,-0.01688964292407036,0.7051742076873779,0.0,-0.0032871682196855545,0.7847559452056885,0.0068811532109975815,0.017345959320664406
417.0,864.0,-2.0213,0.0778,9.5563,-0.0412,0.016,-0.1263,-1.8533412418761195,0.0,2.836998462677002,-2.057617664337158,-0.0,1.5891075134277344,5.5780829069908044,3.233843017369509e-05,0.2697940468788147,-1.5211017767535608,0.0,-0.011664152145385742,0.7051701545715332,0.0,0.02814004197716713,0.7847394943237305,0.004707144573330879,0.03601682186126709
417.0,864.0,-2.0213,0.0778,9.5563,-0.0412,0.016,-0.1263,-1.8532644710936488,0.0,2.819843053817749,-2.057649612426758,9.043637305694574e-08,1.5882132053375244,5.578131246357717,3.121674672001973e-05,0.2532573342323303,-1.5211017767535608,0.0,-0.020823456346988678,0.7051500082015991,0.0,-0.007507273927330971,0.7847394943237305,0.0032511737663298845,-0.037532463669776917
417.0,864.0,-2.0213,0.0778,9.5563,-0.0412,0.016,-0.1263,-1.853349348107809,0.0,2.84334659576416,-2.0575931072235107,1.627822529548517e-11,1.6152105331420898,5.578103410988607,3.017027847818099e-05,0.2661397159099579,-1.5211580435382288,0.0,-0.006347133778035641,0.7051701545715332,0.0,-0.005278927739709616,0.7847757935523987,0.001778884674422443,0.033702295273542404
438.0,799.0,-1.7755,-0.3882,9.3643,-0.0391,0.0272,-0.1208,-1.8532725773253382,0.0,2.8108701705932617,-2.057621717453003,3.930999506251668e-17,1.5851589441299438,5.578135418682852,1.4608416677219793e-05,0.27092719078063965,-1.521085564290182,0.0,-0.010966742411255836,0.7051581740379333,0.0,0.003175566205754876,0.784751832485199,0.0008946266025304794,0.02146551012992859
438.0,799.0,-1.7755,-0.3882,9.3643,-0.0391,0.0272,-0.1208,-1.8533131084837855,0.0,2.8348536491394043,-2.0576136112213135,7.07566014671955e-21,1.5928682088851929,5.578059184342184,1.3919706361775752e-05,0.2468649446964264,-1.5210936705218714,0.0,-0.013601362705230713,0.7051902413368225,0.0,0.010574260726571083,0.7847274541854858,0.0005598454154096544,0.02412191405892372
438.0,799.0,-1.7755,-0.3882,9.3643,-0.0391,0.0272,-0.1208,-1.8532725773253382,0.0,2.802766799926758,-2.057588815689087,1.7086885903714533e-26,1.5880284309387207,5.5780911324317834,7.634942456036242e-09,0.25013259053230286,-1.5211060682879847,0.0,-0.021511059254407883,0.7052102088928223,0.0,0.01217050850391388,0.7847394943237305,0.0004076046752743423,-0.018111739307641983
438.0,799.0,-1.7755,-0.3882,9.3643,-0.0391,0.0272,-0.1208,-1.8533293209471644,0.0,2.845193862915039,-2.05757212638855,3.075579030056412e-30,1.5654284954071045,5.578079211502828,3.254895658555412e-11,0.26853805780410767,-1.5211222807513636,0.0,-0.011764958500862122,0.705218493938446,0.0,0.004899926017969847,0.7847477197647095,0.0002789424906950444,0.0035772109404206276
438.0,799.0,-1.7755,-0.3882,9.3643,-0.0391,0.0272,-0.1208,-1.8533169231810511,0.0,2.8069448471069336,-2.057629108428955,7.427160596001666e-36,1.611337661743164,5.578091192036428,9.060120207782067e-15,0.2672466039657593,-1.5210979620562952,0.0,-0.014065755531191826,0.7051738500595093,0.0,-0.006265377625823021,0.7847154140472412,0.00022441816690843552,0.018625564873218536
438.0,799.0,-1.7755,-0.3882,9.3643,-0.0391,0.0272,-0.1208,-1.8533092937865199,0.0,2.8443946838378906,-2.057649612426758,1.336862557039769e-39,1.6361589431762695,5.5780513165290735,3.8624715629685896e-17,0.24514278769493103,-1.5211299101458948,0.0,-0.02903229370713234,0.705214262008667,0.0,0.00035447138361632824,0.7846951484680176,0.00019953737501055002,0.019470062106847763
438.0,799.0,-1.7755,-0.3882,9.3643,-0.0391,0.0272,-0.1208,-1.853293081323141,0.0,2.823915719985962,-2.0576012134552,2.802596928649634e-45,1.6133978366851807,5.5780513165290735,1.0751330902652695e-20,0.26700183749198914,-1.5210979620562952,0.0,-0.012838801369071007,0.7051982879638672,0.0,0.010815752670168877,0.784763753414154,0.00017108613974414766,-0.008448734879493713
438.0,799.0,-1.7755,-0.3882,9.3643,-0.0391,0.0272,-0.1208,-1.8533574543394984,0.0,2.8310492038726807,-2.0576095581054688,-0.0,1.654365062713623,5.578055488854208,4.583461088531745e-23,0.269414484500885,-1.5211461226092737,0.0,-0.021284647285938263,0.7051982879638672,0.0,-0.004989943001419306,0.7847154140472412,4.2112184019060805e-05,-0.020749296993017197
438.0,799.0,-1.7755,-0.3882,9.3643,-0.0391,0.0272,-0.1208,-1.8533092937865199,0.0,2.796565294265747,-2.0576372146606445,-0.0,1.6332584619522095,5.578063237458029,1.9540015596995256e-25,0.2510764002799988,-1.5210936705218714,0.0,-0.017186570912599564,0.7052143216133118,0.0,-0.0006092386320233345,0.7847757935523987,7.616070797666907e-05,0.010574286803603172
438.0,799.0,-1.7755,-0.3882,9.3643,-0.0391,0.0272,-0.1208,-1.853293081323141,0.0,2.8047263622283936,-2.057629108428955,-0.0,1.629146695137024,5.578071462899008,5.439035005977899e-29,0.25680088996887207,-1.5211141745196741,0.0,-0.01950850524008274,0.7051982879638672,0.0,0.010796169750392437,0.7847595810890198,0.00010200024553341791,0.009948876686394215
438.0,799.0,-1.7755,-0.3882,9.3643,-0.0391,0.0272,-0.1208,-1.8533092937865199,0.0,2.8375473022460938,-2.057584524154663,-0.0,1.6235156059265137,5.578059184342184,2.3187458319970003e-31,0.24297402799129486,-1.5210979620562952,0.0,-0.013069008477032185,0.7051859498023987,0.0,0.01247142069041729,0.7847313284873962,0.00012644751404877752,0.007412546314299107
438.0,799.0,-1.7755,-0.3882,9.3643,-0.0391,0.0272,-0.1208,-1.8532806835570277,0.0,2.8329014778137207,-2.0575575828552246,-0.0,1.6286425590515137,5.578030991345205,6.454314612297522e-35,0.26442211866378784,-1.5210774580584925,0.0,-0.011902444995939732,0.705294668674469,0.0,0.015123343095183372,0.7846989631652832,0.0003935387940146029,-0.019470592960715294
438.0,799.0,-1.7755,-0.3882,9.3643,-0.0391,0.0272,-0.1208,-1.8532725773253382,0.0,2.822444438934326,-2.0575740337371826,5.1956951210740954e-05,1.6547892093658447,5.57805501201705,2.7515755394596904e-37,0.25271162390708923,-1.5210941473590296,0.0,-0.021657932549715042,0.7051738500595093,0.0,0.010766907595098019,0.7847716808319092,0.0004019664484076202,0.019267747178673744
438.0,799.0,-1.7755,-0.3882,9.3643,-0.0391,0.0272,-0.1208,-1.853321214715475,0.0,2.8515353202819824,-2.0575618743896484,7.175547943916172e-05,1.6162571907043457,5.578047263413229,7.659077016460153e-41,0.2561972737312317,-1.5210936705218714,0.0,-0.010254534892737865,0.7052544355392456,0.0,0.01168124284595251,0.7847757935523987,0.0003833486116491258,0.029749613255262375
438.0,799.0,-1.7755,-0.3882,9.3643,-0.0391,0.0272,-0.1208,-1.853305002252096,0.0,2.8288803100585938,-2.0575854778289795,9.0743851615116e-05,1.6299195289611816,5.578087496548452,3.2650254218768238e-43,0.26323404908180237,-1.5211222807513636,0.0,-0.011470630764961243,0.7051819562911987,0.0,0.026797182857990265,0.784763514995575,0.0003417532134335488,-0.04410672187805176
438.0,799.0,-1.7755,-0.3882,9.3643,-0.0391,0.0272,-0.1208,-1.8533169231810511,0.0,2.814807176589966,-2.0575971603393555,8.445666753686965e-05,1.7002184391021729,5.578026819020071,0.0,0.26008591055870056,-1.5210860411273401,0.0,-0.018842943012714386,0.705193817615509,5.054602425502708e-08,0.02861602231860161,0.784747302532196,0.00020013650646433234,0.04926670342683792
438.0,799.0,-1.7755,-0.3882,9.3643,-0.0391,0.0272,-0.1208,-1.8532763920226039,0.0,2.855405330657959,-2.057605028152466,0.00010083561210194603,1.5969295501708984,5.578039157181539,-0.00010288678458891809,0.26364612579345703,-1.5211618582354944,0.0,-0.00803612731397152,0.7052261829376221,2.154856293401508e-10,0.03035448119044304,0.784755527973175,0.00012968337978236377,0.04891394078731537
438.0,799.0,-1.7755,-0.3882,9.3643,-0.0391,0.0272,-0.1208,-1.853321214715475,0.0,2.832111358642578,-2.0575854778289795,9.448753553442657e-05,1.6396608352661133,5.578055488854208,-0.00014516453666146845,0.25919103622436523,-1.521085564290182,0.0,-0.008829745464026928,0.7052302360534668,5.998122192072547e-14,0.027649302035570145,0.7847315669059753,0.00010662593558663502,-0.01718720979988575
438.0,799.0,-1.7755,-0.3882,9.3643,-0.0391,0.0272,-0.1208,-1.8532887897887171,0.0,2.890810489654541,-2.057593584060669,9.067953214980662e-05,1.6501481533050537,5.578034984856405,-0.00016181924729608,0.24861061573028564,-1.5210536162005823,0.0,-0.0189913809299469,0.7052261233329773,0.0005181231535971165,0.02984526939690113,0.7847354412078857,9.53302878770046e-05,0.018078282475471497
422.0,875.0,-1.6666,-0.8824,9.4062,-0.029,0.0188,-0.1103,-1.8532644710936488,0.0,2.852776288986206,-2.0575814247131348,0.00023871302255429327,1.6320595741271973,5.578023123532095,-0.0001542944082757458,0.2659948468208313,-1.5211179892169397,0.0,-0.020181257277727127,0.7052700519561768,0.0006201608339324594,0.029955409467220306,0.7847394943237305,0.00012753612827509642,-0.0030445049051195383
422.0,875.0,-1.6666,-0.8824,9.4062,-0.029,0.0188,-0.1103,-1.8532887897887171,0.0,2.8359861373901367,-2.0575616359710693,0.0002471365442033857,1.6705130338668823,5.578067707806387,-0.00016539348871447146,0.2546805739402771,-1.5211380163775843,0.0,-0.023865390568971634,0.7052863836288452,0.0009972646366804838,0.03173359856009483,0.7847192287445068,0.00013777949789073318,0.028741661459207535
422.0,875.0,-1.6666,-0.8824,9.4062,-0.029,0.0188,-0.1103,-1.8533126316466273,0.0,2.830841064453125,-2.057549476623535,0.00028895417926833034,1.615472674369812,5.578063654690542,-0.00015751173486933112,0.2708852291107178,-1.5211260954486292,0.0,-0.005144480615854263,0.7053101062774658,0.0011226915521547198,0.04485366493463516,0.7847394943237305,0.00013908874825574458,0.04685666412115097
422.0,875.0,-1.6666,-0.8824,9.4062,-0.029,0.0188,-0.1103,-1.8532973728575648,0.0,2.7955164909362793,-2.0576257705688477,0.0006308579468168318,1.684725284576416,5.578007149487295,-0.00014652272511739284,0.25918126106262207,-1.5210979620562952,0.0,-0.010098082013428211,0.705302357673645,0.0015154392458498478,0.0415538027882576,0.7847877740859985,0.00020366643730085343,0.017407426610589027
422.0,875.0,-1.6666,-0.8824,9.4062,-0.029,0.0188,-0.1103,-1.8533293209471644,0.0,2.806368589401245,-2.05755352973938,0.0010763965547084808,1.6295130252838135,5.578007149487295,-0.00014001005911268294,0.26351648569107056,-1.521085564290182,0.0,-0.03113451972603798,0.7053261399269104,0.00236072507686913,0.04631759226322174,0.784783661365509,0.0010469791013747454,0.03997378051280975
422.0,875.0,-1.6666,-0.8824,9.4062,-0.029,0.0188,-0.1103,-1.8532763920226039,0.0,2.784322738647461,-2.057537078857422,0.0011850036680698395,1.6718497276306152,5.57801120260314,-0.00015000408166088164,0.26777946949005127,-1.5210979620562952,0.0,-0.00788196176290512,0.7053138017654419,0.007056004833430052,0.053159646689891815,0.7848078608512878,0.001692493329755962,0.0784158855676651
422.0,875.0,-1.6666,-0.8824,9.4062,-0.029,0.0188,-0.1103,-1.853293081323141,0.0,2.805953025817871,-2.0575411319732666,0.0012858061818405986,1.6352274417877197,5.578007149487295,-0.0001440087507944554,0.2745131850242615,-1.5211222807513636,0.0,-0.016845490783452988,0.7054710984230042,0.018237944692373276,0.06813160330057144,0.7847995758056641,0.0021701885852962732,0.08012086898088455
422.0,875.0,-1.6666,-0.8824,9.4062,-0.029,0.0188,-0.1103,-1.853305002252096,0.0,2.843597173690796,-2.057553291320801,0.0021504689939320087,1.6458008289337158,5.5780513165290735,-0.00017825955001171678,0.25798603892326355,-1.5211179892169397,0.0,-0.02594320848584175,0.705558180809021,0.022759510204195976,0.09174060821533203,0.7847875356674194,0.002290802076458931,0.07655884325504303
422.0,875.0,-1.6666,-0.8824,9.4062,-0.029,0.0188,-0.1103,-1.8532763920226039,0.0,2.822655439376831,-2.057530641555786,0.0026271000970155,1.5846121311187744,5.578015374928274,-0.00016536290058866143,0.2616693377494812,-1.5210736433612269,0.0,-0.0265753623098135,0.7055982351303101,0.020176807418465614,0.08691664040088654,0.7848435044288635,0.00236120424233377,0.05043228715658188
422.0,875.0,-1.6666,-0.8824,9.4062,-0.029,0.0188,-0.1103,-1.8532644710936488,0.0,2.8621344566345215,-2.0574612617492676,0.003945386502891779,1.6323704719543457,5.5780231831367395,-0.00019332622468937188,0.24870693683624268,-1.5210736433612269,0.0,-0.010574167594313622,0.7057380676269531,0.013672149740159512,0.0869266539812088,0.7848276495933533,0.0025521055795252323,0.08348522335290909
422.0,875.0,-1.6666,-0.8824,9.4062,-0.029,0.0188,-0.1103,-1.8532806835570277,0.0,2.8379359245300293,-2.057473659515381,0.00444656889885664,1.6525180339813232,5.577991175442495,-0.00021619285689666867,0.25994378328323364,-1.5211098829852503,0.0,-0.012130358256399632,0.705758273601532,0.007535250391811132,0.07521859556436539,0.7848235368728638,0.0027752809692174196,0.0983954668045044
422.0,875.0,-1.6666,-0.8824,9.4062,-0.029,0.0188,-0.1103,-1.853293081323141,0.0,2.8123300075531006,-2.057486057281494,0.004815029911696911,1.6533279418945312,5.57799522855834,-0.00035994459176436067,0.2633492350578308,-1.5210898558246058,0.0,-0.022404033690690994,0.7057902216911316,0.0027998164296150208,0.08962403237819672,0.7848153114318848,0.002612955868244171,0.08775588870048523
422.0,875.0,-1.6666,-0.8824,9.4062,-0.029,0.0188,-0.1103,-1.8532763920226039,0.0,2.8555808067321777,-2.057434320449829,0.004923859611153603,1.6055927276611328,5.578035461693563,-0.00039092384395189583,0.2676630914211273,-1.5211179892169397,0.0,-0.017976220697164536,0.7057578563690186,0.0009686172124929726,0.08649195730686188,0.7848957180976868,0.001820579869672656,0.1009838730096817
422.0,875.0,-1.6666,-0.8824,9.4062,-0.029,0.0188,-0.1103,-1.8533174000182093,0.0,2.811250686645508,-2.057389736175537,0.005128288641571999,1.6744186878204346,5.578019428044119,-0.0003986563824582845,0.2551845610141754,-1.5210774580584925,0.0,-0.02038094401359558,0.7057660222053528,0.0006758637027814984,0.09906918555498123,0.7848396897315979,0.0014378578634932637,0.1121768206357956
422.0,875.0,-1.6666,-0.8824,9.4062,-0.029,0.0188,-0.1103,-1.8532973728575648,0.0,2.824965476989746,-2.057422637939453,0.005266644526273012,1.7090353965759277,5.578003394394674,-0.0003822481376118958,0.25445741415023804,-1.5210860411273401,0.0,-0.03312939405441284,0.7058061957359314,0.000545638904441148,0.09688980877399445,0.7848396897315979,0.0009247625130228698,0.15192386507987976
422.0,875.0,-1.6666,-0.8824,9.4062,-0.029,0.0188,-0.1103,-1.853293081323141,0.0,2.8314528465270996,-2.0573627948760986,0.00517291110008955,1.6764888763427734,5.578007566719808,-0.00047828213428147137,0.23698484897613525,-1.5210817495929163,0.0,-0.01633293367922306,0.7057573795318604,0.0005343587254174054,0.10126519203186035,0.784855842590332,0.0007356576388701797,0.13622736930847168
422.0,875.0,-1.6666,-0.8824,9.4062,-0.029,0.0188,-0.1103,-1.8532606563963832,0.0,2.800511598587036,-2.0573222637176514,0.005494929384440184,1.6294143199920654,5.577975201397695,-0.0004691747890319675,0.2410120666027069,-1.521034065877096,0.0,-0.021864933893084526,0.7058061361312866,0.0004470149287953973,0.11605416983366013,0.7847872376441956,0.0005630106315948069,0.0792340487241745
422.0,875.0,-1.6666,-0.8824,9.4062,-0.029,0.0188,-0.1103,-1.8532973728575648,0.0,2.7973506450653076,-2.057314157485962,0.005558345466852188,1.6558947563171387,5.5779470084007166,-0.0004696854157373309,0.23498743772506714,-1.5210579077350062,0.0,-0.008896838873624802,0.7058302760124207,0.001647143973968923,0.10147089511156082,0.7848635911941528,0.00048685306683182716,0.12165002524852753
416.0,830.0,-1.7288,-0.6449,9.4086,-0.0473,0.0379,-0.1223,-1.8532682857909144,0.0,2.8146910667419434,-2.057258129119873,0.006355323828756809,1.6650097370147705,5.577962922840872,-0.0004624437424354255,0.24979005753993988,-1.5211055914508265,0.0,-0.017192425206303596,0.7057772874832153,0.002513178391382098,0.11648015677928925,0.78481125831604,0.0003541738842613995,0.13852176070213318
416.0,830.0,-1.7288,-0.6449,9.4086,-0.0473,0.0379,-0.1223,-1.8533092937865199,0.0,2.819262981414795,-2.057210683822632,0.006261921022087336,1.7053096294403076,5.577983426838674,-0.0004607233277056366,0.24230337142944336,-1.5210736433612269,0.0,-0.018056992441415787,0.7058543562889099,0.0028130023274570704,0.1270756870508194,0.7848718166351318,0.0003619637282099575,0.11429773271083832
416.0,830.0,-1.7288,-0.6449,9.4086,-0.0473,0.0379,-0.1223,-1.8533250294127406,0.0,2.7979519367218018,-2.0571742057800293,0.007894421927630901,1.6820147037506104,5.577946829586782,-0.00042390712769702077,0.23505082726478577,-1.5210579077350062,0.0,-0.016794241964817047,0.7058579921722412,0.0036058358382433653,0.13225728273391724,0.7848071455955505,0.000315929704811424,0.1331160068511963
416.0,830.0,-1.7288,-0.6449,9.4086,-0.0473,0.0379,-0.1223,-1.8533293209471644,0.0,2.7628233432769775,-2.0571060180664062,0.008612598292529583,1.7282246351242065,5.577975201397695,-0.0003769093891605735,0.23963719606399536,-1.5210378805743616,0.0,-0.01419348455965519,0.7059021592140198,0.00419310899451375,0.13232305645942688,0.784847617149353,0.0002904394641518593,0.1122920960187912
416.0,830.0,-1.7288,-0.6449,9.4086,-0.0473,0.0379,-0.1223,-1.853321214715475,0.0,2.7489914894104004,-2.057110071182251,0.009387310594320297,1.6724216938018799,5.578003394394674,-0.0003366301825735718,0.24201320111751556,-1.5210378805743616,0.0,-0.010789204388856888,0.7058861255645752,0.005169443786144257,0.1333770751953125,0.7848435640335083,0.00026875606272369623,0.11750566214323044
416.0,830.0,-1.7288,-0.6449,9.4086,-0.0473,0.0379,-0.1223,-1.85333313564443,0.0,2.7767586708068848,-2.0570220947265625,0.010594816878437996,1.725356101989746,5.578015732556143,-0.0003315290086902678,0.23587214946746826,-1.5210817495929163,0.0,-0.019720757380127907,0.7059496641159058,0.0058553265407681465,0.14575673639774323,0.784823477268219,0.000241690271650441,0.12965357303619385
416.0,830.0,-1.7288,-0.6449,9.4086,-0.0473,0.0379,-0.1223,-1.853349348107809,0.0,2.767895221710205,-2.057006359100342,0.012527956627309322,1.6992745399475098,5.57799123504714,-0.0003035876725334674,0.22527965903282166,-1.5210779348956507,0.0,-0.006651840638369322,0.7060385942459106,0.006466303952038288,0.14096689224243164,0.7848276495933533,0.00022648404410574585,0.14502540230751038
416.0,830.0,-1.7288,-0.6449,9.4086,-0.0473,0.0379,-0.1223,-1.8533369503416957,0.0,2.798341751098633,-2.05690598487854,0.01403112430125475,1.7586842775344849,5.577999281674185,-0.0002665869251359254,0.23176980018615723,-1.5210774580584925,0.0,-0.014586169272661209,0.7059696912765503,0.007396858651190996,0.13921380043029785,0.7848677039146423,0.00013754246174357831,0.11043056845664978
416.0,830.0,-1.7288,-0.6449,9.4086,-0.0473,0.0379,-0.1223,-1.8532644710936488,0.0,2.7789318561553955,-2.056842803955078,0.014666479080915451,1.7391276359558105,5.577979314118185,-0.0002843627007678151,0.2261388897895813,-1.5210779348956507,0.0,-0.002681903075426817,0.7060741782188416,0.0078352689743042,0.1455458104610443,0.7847955226898193,0.00012932550453115255,0.10262520611286163
416.0,830.0,-1.7288,-0.6449,9.4086,-0.0473,0.0379,-0.1223,-1.8533092937865199,0.0,2.809889316558838,-2.056795835494995,0.016730114817619324,1.744123935699463,5.5779833672340295,-0.00030090470681898296,0.21780794858932495,-1.5210817495929163,0.0,-0.007167652249336243,0.7061182260513306,0.008833678439259529,0.15031564235687256,0.784879744052887,0.00011906035069841892,0.13537345826625824
416.0,830.0,-1.7288,-0.6449,9.4086,-0.0473,0.0379,-0.1223,-1.853305002252096,0.0,2.7460384368896484,-2.0567307472229004,0.0175235103815794,1.7011423110961914,5.57796739318923,-0.00044804258504882455,0.23340758681297302,-1.521005932484762,0.0,-0.004232383333146572,0.706174373626709,0.009590310975909233,0.161895751953125,0.7848073840141296,0.00011307666136417538,0.14118748903274536
416.0,830.0,-1.7288,-0.6449,9.4086,-0.0473,0.0379,-0.1223,-1.8533131084837855,0.0,2.7496166229248047,-2.0566322803497314,0.020397426560521126,1.7535085678100586,5.577946948796072,-0.0004240199050400406,0.2093442976474762,-1.5210579077350062,7.633022323716432e-05,-0.004662725143134594,0.7061820030212402,0.0112296212464571,0.14730550348758698,0.7847872376441956,0.00010515008762013167,0.1514066755771637
416.0,830.0,-1.7288,-0.6449,9.4086,-0.0473,0.0379,-0.1223,-1.8533412418761195,0.0,2.7640256881713867,-2.056475877761841,0.022305727005004883,1.745308518409729,5.5779433129127405,-0.00042645458597689867,0.21732881665229797,-1.52106219926943,8.739073382457718e-05,-0.020693814381957054,0.7063066363334656,0.013569499365985394,0.1679179072380066,0.784831702709198,0.00010045529052149504,0.1441155970096588
416.0,830.0,-1.7288,-0.6449,9.4086,-0.0473,0.0379,-0.1223,-1.8532763920226039,0.0,2.7462377548217773,-2.05643630027771,0.022766415029764175,1.7870721817016602,5.577987599163809,-0.0005341465584933758,0.21995466947555542,-1.5210297743426722,0.00010072816075989977,-0.021514926105737686,0.7062938809394836,0.016828197985887527,0.16274897754192352,0.7848517298698425,9.616211900720373e-05,0.14813587069511414
416.0,830.0,-1.7288,-0.6449,9.4086,-0.0473,0.0379,-0.1223,-1.8532606563963832,0.0,2.718111276626587,-2.0562520027160645,0.02619725465774536,1.7517108917236328,5.577939200192251,-0.0005727059906348586,0.2006022036075592,-1.5210259596454065,0.00011105283920187503,-0.0019991102162748575,0.706429660320282,0.024980224668979645,0.1706305295228958,0.7848153114318848,9.036878327606246e-05,0.1249585747718811
416.0,830.0,-1.7288,-0.6449,9.4086,-0.0473,0.0379,-0.1223,-1.8532606563963832,0.0,2.764827013015747,-2.0561442375183105,0.028294546529650688,1.8156243562698364,5.577979314118185,-0.000553675286937505,0.20623144507408142,-1.521017853413717,0.0001077707638614811,-0.008582361042499542,0.7065497040748596,0.03396230563521385,0.17782622575759888,0.7847751975059509,8.687935769557953e-05,0.13938674330711365
416.0,830.0,-1.7288,-0.6449,9.4086,-0.0473,0.0379,-0.1223,-1.8532887897887171,0.0,2.6990132331848145,-2.0559558868408203,0.030172074213624,1.7376708984375,5.57796328046874,-0.0006323956768028438,0.20803681015968323,-1.5210021177874964,0.0001170920004369691,-0.005109366495162249,0.7068947553634644,0.05317630246281624,0.1846356987953186,0.7848276495933533,8.212287502828985e-05,0.07907384634017944
416.0,830.0,-1.7288,-0.6449,9.4086,-0.0473,0.0379,-0.1223,-1.8532973728575648,0.0,2.719972610473633,-2.055856466293335,0.031454119831323624,1.8201582431793213,5.577935027867117,-0.0012667522532865405,0.2076014280319214,-1.521022144948141,0.0003078411682508886,-0.01780245639383793,0.70714271068573,0.07372627407312393,0.19053608179092407,0.7848677039146423,7.923108933027834e-05,0.09934689104557037
416.0,830.0,-1.7288,-0.6449,9.4086,-0.0473,0.0379,-0.1223,-1.8532887897887171,0.0,2.7130188941955566,-2.0556654930114746,0.03207274153828621,1.7783615589141846,5.577955233841696,-0.002025673631578684,0.193961501121521,-1.521022144948141,0.000312698888592422,0.00474219024181366,0.707698404788971,0.11777430027723312,0.21700038015842438,0.7848435044288635,7.525603723479435e-05,0.0920591652393341
422.0,811.0,-2.0812,0.0568,9.2088,-0.0267,0.0626,-0.0559,-1.8532887897887171,0.0,2.7085537910461426,-2.0555217266082764,0.03302410617470741,1.7745754718780518,5.577967512398519,-0.0036259801127016544,0.2152157425880432,-1.5210498015033167,0.00028024634229950607,0.0002486117882654071,0.7082265615463257,0.14117752015590668,0.2282855361700058,0.7848317623138428,7.282044680323452e-05,0.0848241075873375
422.0,811.0,-2.0812,0.0568,9.2088,-0.0267,0.0626,-0.0559,-1.8533007107176722,0.0,2.750652551651001,-2.0553133487701416,0.03399099037051201,1.8471298217773438,5.577895390778341,-0.011318766511976719,0.19952994585037231,-1.5210383574115198,0.00028217301587574184,0.01168217696249485,0.7091180682182312,0.14896440505981445,0.22570498287677765,0.7848032712936401,8.333613368449733e-05,0.11078868806362152
422.0,811.0,-2.0812,0.0568,9.2088,-0.0267,0.0626,-0.0559,-1.8532606563963832,0.0,2.74845027923584,-2.055210590362549,0.03490684553980827,1.8402528762817383,5.577790844231405,-0.019038600847125053,0.17406097054481506,-1.5210421721087855,0.0002953672083094716,0.0008417570497840643,0.709750235080719,0.1466788947582245,0.22684723138809204,0.7848277688026428,9.43100021686405e-05,0.05974741280078888
422.0,811.0,-2.0812,0.0568,9.2088,-0.0267,0.0626,-0.0559,-1.8533007107176722,0.0,2.706803321838379,-2.054974317550659,0.0345829539000988,1.8006559610366821,5.577748226910391,-0.020359709858894348,0.1783164143562317,-1.5210259596454065,0.00036637362791225314,-0.004232260398566723,0.7107142806053162,0.17168788611888885,0.2367093861103058,0.7848554253578186,0.00010264433512929827,0.04204709082841873
422.0,811.0,-2.0812,0.0568,9.2088,-0.0267,0.0626,-0.0559,-1.853321214715475,0.0,2.6901638507843018,-2.054734230041504,0.034602075815200806,1.8224772214889526,5.577619600086965,-0.01992066390812397,0.17909520864486694,-1.5210383574115198,0.00033571181120350957,0.012645523995161057,0.7115463614463806,0.21297499537467957,0.25217700004577637,0.7848875522613525,0.00011147219629492611,0.08598172664642334
422.0,811.0,-2.0812,0.0568,9.2088,-0.0267,0.0626,-0.0559,-1.8532926044859828,0.0,2.683487892150879,-2.054683208465576,0.0351470522582531,1.8278628587722778,5.577568042069235,-0.018398256972432137,0.17830169200897217,-1.5210259596454065,0.00029862835071980953,-0.005093897692859173,0.7124660015106201,0.2531527280807495,0.2926045358181,0.784867525100708,0.00017008217400871217,0.05002328008413315
422.0,811.0,-2.0812,0.0568,9.2088,-0.0267,0.0626,-0.0559,-1.8533007107176722,-7.616283603795182e-09,2.667726755142212,-2.054471731185913,0.036932170391082764,1.8462566137313843,5.577452170639791,-0.014069694094359875,0.17488321661949158,-1.5210259596454065,0.00029879569774493575,0.00061393016949296,0.714169979095459,0.2697332203388214,0.2661668062210083,0.7848915457725525,0.002337120473384857,0.144474595785141
422.0,811.0,-2.0812,0.0568,9.2088,-0.0267,0.0626,-0.0559,-1.8533169231810511,-1.3709043665890985e-12,2.689929962158203,-2.0542988777160645,0.03706851601600647,1.852757215499878,5.577400076180258,-0.009956118650734425,0.16754963994026184,-1.521005932484762,0.00031154585303738713,-0.0031013810075819492,0.7153548002243042,0.2993942201137543,0.2855493426322937,0.7848592400550842,0.0030952461529523134,0.10860845446586609
422.0,811.0,-2.0812,0.0568,9.2088,-0.0267,0.0626,-0.0559,-1.8533488712706507,-3.3105726464472387e-18,2.6839914321899414,-2.0541164875030518,0.04002876207232475,1.8674076795578003,5.5773963806922815,-0.004646813031286001,0.174952432513237,-1.5210097471820276,0.000319623330142349,0.02072717808187008,0.7171412706375122,0.3066449761390686,0.3041056990623474,0.7849237322807312,0.0020807289984077215,0.10978023707866669
422.0,811.0,-2.0812,0.0568,9.2088,-0.0267,0.0626,-0.0559,-1.85333313564443,-0.0007239835103973746,2.6553940773010254,-2.0539486408233643,0.040671102702617645,1.823547124862671,5.577404665737905,-0.003050275146961212,0.16188794374465942,-1.520994011555807,0.0003353164065629244,-0.002537838649004698,0.7183932065963745,0.33789321780204773,0.30438894033432007,0.78485107421875,0.001740404637530446,0.10748849809169769
422.0,811.0,-2.0812,0.0568,9.2088,-0.0267,0.0626,-0.0559,-1.8533364735045375,-0.001103640184737742,2.646808624267578,-2.053628444671631,0.045688677579164505,1.8647480010986328,5.577328491001882,-0.0033849270548671484,0.15353643894195557,-1.520965878163473,0.0006988562527112663,0.01862041838467121,0.7206412553787231,0.38671427965164185,0.3167803883552551,0.78485107421875,0.0011698026210069656,0.06380242109298706
422.0,811.0,-2.0812,0.0568,9.2088,-0.0267,0.0626,-0.0559,-1.8533088169493617,-0.0010726607870310545,2.6255040168762207,-2.0534937381744385,0.04782630503177643,1.8917417526245117,5.577320325165548,-0.004041764419525862,0.1701250672340393,-1.5209620634662073,0.0015878721605986357,0.019594259560108185,0.7222241163253784,0.41877517104148865,0.3379570245742798,0.7849034667015076,0.000978529336862266,0.07989875972270966
422.0,811.0,-2.0812,0.0568,9.2088,-0.0267,0.0626,-0.0559,-1.8533693752684535,-0.0009971687104552984,2.6598870754241943,-2.0532066822052,0.054002512246370316,1.8796820640563965,5.577264117985525,-0.005576100200414658,0.15146468579769135,-1.5209901968585413,0.00347786583006382,0.023715775460004807,0.7248716950416565,0.43936634063720703,0.347756952047348,0.784895658493042,0.0006096904980950058,0.06988700479269028
422.0,811.0,-2.0812,0.0568,9.2088,-0.0267,0.0626,-0.0559,-1.853361269036764,-0.000760913360863924,2.632192373275757,-2.0529818534851074,0.05814864858984947,1.932008981704712,5.5773088214691064,-0.005930530373007059,0.13600659370422363,-1.5209501425372522,0.005909736733883619,0.01759153977036476,0.7268555164337158,0.4862922430038452,0.36825674772262573,0.7849116325378418,0.00019132753368467093,0.018757157027721405
422.0,811.0,-2.0812,0.0568,9.2088,-0.0267,0.0626,-0.0559,-1.8533326588072718,-0.0006382297724485397,2.6237235069274902,-2.052558422088623,0.06282840669155121,1.9912132024765015,5.577216672688284,-0.005595521070063114,0.1583416908979416,-1.5208423773394983,0.01608309894800186,0.03573208302259445,0.7299354076385498,0.5289148688316345,0.37109190225601196,0.7849319577217102,1.2570129115374584e-07,0.03498050197958946
422.0,811.0,-2.0812,0.0568,9.2088,-0.0267,0.0626,-0.0559,-1.8533693752684535,-0.0005420945235528052,2.616210699081421,-2.052356004714966,0.06985324621200562,1.9993864297866821,5.577192473202505,-0.0055671436712145805,0.1560308188199997,-1.5208304564105433,0.016581391915678978,0.04419822245836258,0.732098400592804,0.5471251606941223,0.36185401678085327,0.7848592400550842,2.2625788395624902e-11,0.04565662518143654
422.0,811.0,-2.0812,0.0568,9.2088,-0.0267,0.0626,-0.0559,-1.8533364735045375,-0.00047113289474509656,2.6255085468292236,-2.0520524978637695,0.07297177612781525,1.940359115600586,5.577148842602529,-0.005578204058110714,0.14962556958198547,-1.5208151976214808,0.010203471407294273,0.031813785433769226,0.7344421744346619,0.589005172252655,0.37843990325927734,0.784895658493042,4.072561938969462e-15,0.02883113920688629
422.0,811.0,-2.0812,0.0568,9.2088,-0.0267,0.0626,-0.0559,-1.8533407650389613,-0.0003938129812013358,2.618328094482422,-2.0515449047088623,0.08233506977558136,1.9533703327178955,5.577056276589193,-0.0055663371458649635,0.1355668008327484,-1.520806614552633,0.002485979348421097,0.043759286403656006,0.7380340099334717,0.6159069538116455,0.35867857933044434,0.7848715782165527,9.834759046187821e-21,0.04365844279527664
439.0,754.0,-1.8688,-0.0383,9.6287,-0.0825,0.0958,0.5256,-1.8533326588072718,-0.0003106792864855379,2.621126174926758,-2.0512144565582275,0.08843874931335449,1.9395427703857422,5.57710092046813,-0.005658919457346201,0.12436079233884811,-1.5207904020892542,9.498496365267783e-05,0.04280081018805504,0.7405607104301453,0.6549323201179504,0.38612988591194153,0.784839391708374,-0.00036669912515208125,0.06799159944057465
439.0,754.0,-1.8688,-0.0383,9.6287,-0.0825,0.0958,0.5256,-1.8533574543394984,-0.0002705803490243852,2.615476608276367,-2.050621509552002,0.09671590477228165,2.0683698654174805,5.57705711105422,-0.006813103798776865,0.1348804235458374,-1.52073842683901,2.6439412437184728e-08,0.04134833440184593,0.7447047233581543,0.6827452778816223,0.34205472469329834,0.7848559021949768,-0.0015584833454340696,0.0049721719697117805
439.0,754.0,-1.8688,-0.0383,9.6287,-0.0825,0.0958,0.5256,-1.85333313564443,-0.00024917564587667584,2.579618453979492,-2.0502278804779053,0.10220002382993698,2.0072216987609863,5.577033030777731,-0.008001232519745827,0.1262766718864441,-1.520726505910055,1.1271534400281169e-10,0.03660087659955025,0.747477650642395,0.7123125791549683,0.3836359977722168,0.7848073840141296,-0.0022973038721829653,-0.029762325808405876
439.0,754.0,-1.8688,-0.0383,9.6287,-0.0825,0.0958,0.5256,-1.8533412418761195,-0.0002227447839686647,2.580700397491455,-2.0496444702148438,0.11106812208890915,2.016127586364746,5.576997029572286,-0.009358181618154049,0.1116238683462143,-1.5207107702838343,3.137473055881204e-14,0.04093679040670395,0.7518281936645508,0.7374211549758911,0.3371417820453644,0.7848317623138428,-0.001815767609514296,-0.017887191846966743
439.0,754.0,-1.8688,-0.0383,9.6287,-0.0825,0.0958,0.5256,-1.8533488712706507,-0.0002080339181702584,2.6006851196289062,-2.0491461753845215,0.11385074257850647,2.0404834747314453,5.576933133393087,-0.0106044951826334,0.12068934738636017,-1.5207503477679651,1.337553962174002e-16,0.05559064447879791,0.7548208832740784,0.7692235112190247,0.37109482288360596,0.784831702709198,-0.0013115413021296263,0.03196286782622337
439.0,754.0,-1.8688,-0.0383,9.6287,-0.0825,0.0958,0.5256,-1.8533245525755824,-0.00018928226199932396,2.6004786491394043,-2.048478841781616,0.1251276433467865,2.033900499343872,5.576885151654043,-0.012116892263293266,0.10491107404232025,-1.5207307974444788,3.723130566695801e-20,0.05816921219229698,0.7596105933189392,0.7886207699775696,0.3565385341644287,0.7847793102264404,-0.0012547132791951299,-0.02127165161073208
439.0,754.0,-1.8688,-0.0383,9.6287,-0.0825,0.0958,0.5256,-1.8533531628050746,-0.00017855300393421203,2.6226611137390137,-2.0479204654693604,0.13135181367397308,2.057356834411621,5.576829421311178,-0.014294413849711418,0.10739144682884216,-1.5207021872149866,1.5872289096362576e-22,0.03901716321706772,0.7629112005233765,0.8192138671875,0.3526175022125244,0.7847390174865723,-0.002053918782621622,-0.09312576055526733
439.0,754.0,-1.8688,-0.0383,9.6287,-0.0825,0.0958,0.5256,-1.8533207378783167,-0.0001689749478828162,2.6124088764190674,-2.0473320484161377,0.13842780888080597,2.061556816101074,5.5767414448554895,-0.017822861671447754,0.12636931240558624,-1.5207346121417444,6.766606270257484e-25,0.07106097787618637,0.766126811504364,0.831900417804718,0.3270738124847412,0.7847431302070618,-0.003400590270757675,-0.061307620257139206
439.0,754.0,-1.8688,-0.0383,9.6287,-0.0825,0.0958,0.5256,-1.8532844982542933,-0.0001563907862873748,2.6141719818115234,-2.0464866161346436,0.14991390705108643,2.0607545375823975,5.576545524388113,-0.02574438601732254,0.09574808925390244,-1.520686451588766,0.0006985893123783171,0.05915466696023941,0.771188497543335,0.866695761680603,0.35817885398864746,0.7847596406936646,-0.005390944890677929,-0.04838024452328682
439.0,754.0,-1.8688,-0.0383,9.6287,-0.0825,0.0958,0.5256,-1.8533531628050746,-0.0001489936257712543,2.605404853820801,-2.0458357334136963,0.16023258864879608,2.1229166984558105,5.576413619309225,-0.034678272902965546,0.10628636181354523,-1.5207145849811,0.0007203883724287152,0.07551334798336029,0.7746437191963196,0.8782430291175842,0.36781901121139526,0.7847273945808411,-0.006913790479302406,-0.09111113846302032
439.0,754.0,-1.8688,-0.0383,9.6287,-0.0825,0.0958,0.5256,-1.8533326588072718,-0.00013912291615270078,2.5871219635009766,-2.044877290725708,0.16973187029361725,2.1290078163146973,5.576189982682028,-0.05770185589790344,0.08433479815721512,-1.5207226912127894,0.0007531977607868612,0.08500923961400986,0.7800072431564331,0.8867947459220886,0.32475852966308594,0.7846428751945496,-0.0077477204613387585,-0.0965292900800705
439.0,754.0,-1.8688,-0.0383,9.6287,-0.0825,0.0958,0.5256,-1.8533045254149378,-0.00013323844177648425,2.5449767112731934,-2.0442276000976562,0.17416927218437195,2.154818534851074,5.5758858797843835,-0.08055810630321503,0.08198462426662445,-1.520726505910055,0.0006830748170614243,0.07836031913757324,0.7836355566978455,0.9071100950241089,0.33400505781173706,0.7846798300743103,-0.008430932648479939,-0.07132547348737717
439.0,754.0,-1.8688,-0.0383,9.6287,-0.0825,0.0958,0.5256,-1.853321214715475,-4.841840927838348e-05,2.57957124710083,-2.043057680130005,0.18491488695144653,2.139819622039795,5.575242924481191,-0.12443910539150238,0.047625452280044556,-1.5206988493548792,0.0006599337793886662,0.07006928324699402,0.7891781330108643,0.925987720489502,0.3453766703605652,0.7845953702926636,-0.008010719902813435,-0.16747798025608063
439.0,754.0,-1.8688,-0.0383,9.6287,-0.0825,0.0958,0.5256,-1.8532849750914515,-6.35893866274273e-06,2.5751023292541504,-2.04233455657959,0.1977745145559311,2.1081736087799072,5.574663150101461,-0.14399409294128418,0.02373208850622177,-1.520682160054342,0.0006731568719260395,0.07785152643918991,0.7929257750511169,0.9348129630088806,0.30085650086402893,0.784599781036377,-0.008298144675791264,-0.13843271136283875
439.0,754.0,-1.8688,-0.0383,9.6287,-0.0825,0.0958,0.5256,-1.853305002252096,-1.5356087929019324e-11,2.6129069328308105,-2.041093111038208,0.21685262024402618,2.1523139476776123,5.57376508691863,-0.15485121309757233,0.050548259168863297,-1.5206950346576136,0.0006675802869722247,0.09048528969287872,0.7985225915908813,0.9448021054267883,0.3213014006614685,0.7844669222831726,-0.00782304909080267,-0.16736382246017456
439.0,754.0,-1.8688,-0.0383,9.6287,-0.0825,0.0958,0.5256,-1.8533207378783167,-2.7640417251284955e-15,2.5711584091186523,-2.040238618850708,0.22669759392738342,2.143332004547119,5.573121952801504,-0.1556406170129776,0.04013819992542267,-1.5207069555865687,0.0009676623740233481,0.09526113420724869,0.8022822141647339,0.9475709795951843,0.34856146574020386,0.7845319509506226,-0.007990390062332153,-0.15046650171279907
439.0,754.0,-1.8688,-0.0383,9.6287,-0.0825,0.0958,0.5256,-1.8533531628050746,0.00017096148803830147,2.5819358825683594,-2.0388176441192627,0.23557297885417938,2.1516451835632324,5.572127628117361,-0.16940553486347198,0.033837005496025085,-1.5206902662860315,0.0019563985988497734,0.09299264848232269,0.8079885244369507,0.9451500177383423,0.3038756251335144,0.7844147682189941,-0.006954698357731104,-0.16867505013942719
439.0,754.0,-1.8688,-0.0383,9.6287,-0.0825,0.0958,0.5256,-1.8533407650389613,-0.00041636821697466075,2.593386650085449,-2.0378031730651855,0.24326014518737793,2.178530216217041,5.5714489100273035,-0.18567591905593872,0.014884740114212036,-1.5206506888019007,0.0028786025941371918,0.08964072912931442,0.8117067217826843,0.9517695307731628,0.31079715490341187,0.7844434976577759,-0.006177933420985937,-0.16747507452964783
439.0,754.0,-1.8688,-0.0383,9.6287,-0.0825,0.0958,0.5256,-1.853389402429098,-0.001233917661011219,2.620206832885742,-2.0367774963378906,0.25512632727622986,2.188782215118408,5.570626544743337,-0.19849471747875214,0.011099221184849739,-1.5206344763385218,0.004731921479105949,0.08306185901165009,0.8155829310417175,0.9511260986328125,0.30188417434692383,0.7844193577766418,-0.00440704170614481,-0.18140754103660583
516.0,513.0,-2.3671,-0.7017,9.7615,-0.0854,0.0214,0.8326,-1.8533364735045375,-0.0010263981530442834,2.6148271560668945,-2.0352768898010254,0.27199041843414307,2.2525808811187744,5.5693644163902185,-0.20271191000938416,0.02303154766559601,-1.5205982367144983,0.007119045592844486,0.08852073550224304,0.8213539719581604,0.9527004957199097,0.26962870359420776,0.7843711376190186,-0.0034086122177541256,-0.1791689395904541
516.0,513.0,-2.3671,-0.7017,9.7615,-0.0854,0.0214,0.8326,-1.8533607921996058,-0.00103734340518713,2.609363555908203,-2.034158229827881,0.278491735458374,2.2256414890289307,5.568533050804891,-0.22917893528938293,-0.0014331480488181114,-1.5205662886248987,0.00556931970641017,0.10302217304706573,0.8252311944961548,0.9605720639228821,0.2943284809589386,0.7843510508537292,-0.004191823303699493,-0.26982635259628296
516.0,513.0,-2.3671,-0.7017,9.7615,-0.0854,0.0214,0.8326,-1.8533693752684535,-0.0014792627189308405,2.5683648586273193,-2.0324370861053467,0.2810012996196747,2.1823480129241943,5.567004072457113,-0.26736536622047424,-0.004473167471587658,-1.520590607319967,0.0023736373987048864,0.10153977572917938,0.8309521675109863,0.962568998336792,0.2787612974643707,0.7843637466430664,-0.006427305284887552,-0.19354240596294403
516.0,513.0,-2.3671,-0.7017,9.7615,-0.0854,0.0214,0.8326,-1.8533650837340296,-0.0014411576557904482,2.5591015815734863,-2.031229019165039,0.294281005859375,2.2314467430114746,5.565930056362905,-0.2793813943862915,-0.014125959947705269,-1.5205586592303675,0.0013602314284071326,0.10324366390705109,0.8346900939941406,0.9515109062194824,0.22683334350585938,0.784347653388977,-0.007236310746520758,-0.2578933835029602
516.0,513.0,-2.3671,-0.7017,9.7615,-0.0854,0.0214,0.8326,-1.8533531628050746,-0.0005815172917209566,2.6236743927001953,-2.0294182300567627,0.31856295466423035,2.238795757293701,5.564084517746725,-0.31003591418266296,-0.027126390486955643,-1.5205510298358362,0.000823912734631449,0.0830567330121994,0.8404505252838135,0.9453375935554504,0.25973770022392273,0.7842186689376831,-0.007517852820456028,-0.26731041073799133
516.0,513.0,-2.3671,-0.7017,9.7615,-0.0854,0.0214,0.8326,-1.853389402429098,-0.00031328730983659625,2.5874171257019043,-2.0281472206115723,0.3268001675605774,2.285961627960205,5.562746751099386,-0.3244015872478485,-0.03510682284832001,-1.520538632069723,0.0006528011872433126,0.11636964976787567,0.8441168069839478,0.9386264085769653,0.28278693556785583,0.7842031121253967,-0.007842355407774448,-0.28812330961227417
516.0,513.0,-2.3671,-0.7017,9.7615,-0.0854,0.0214,0.8326,-1.8533326588072718,-0.0003054212429560721,2.603400230407715,-2.0261526107788086,0.3351607620716095,2.2690632343292236,5.560671555786886,-0.3623446822166443,-0.06034595146775246,-1.5205548445331019,0.0004978523938916624,0.10693363100290298,0.8497148752212524,0.9160070419311523,0.2464209645986557,0.784179151058197,-0.009184540249407291,-0.25628259778022766
516.0,513.0,-2.3671,-0.7017,9.7615,-0.0854,0.0214,0.8326,-1.853373189965719,-7.919924973975867e-05,2.623095989227295,-2.0247411727905273,0.3463060259819031,2.2564806938171387,5.559098708420553,-0.3772938847541809,-0.06937320530414581,-1.5205863157855433,0.0004298626445233822,0.10952791571617126,0.8533962965011597,0.9143247008323669,0.23998478055000305,0.7841108441352844,-0.00917447917163372,-0.21711711585521698
516.0,513.0,-2.3671,-0.7017,9.7615,-0.0854,0.0214,0.8326,-1.8534051380553187,-0.000124130179756321,2.631564140319824,-2.022566556930542,0.3629920482635498,2.3521454334259033,5.55676298120574,-0.4161263704299927,-0.07943882048130035,-1.520590607319967,0.0003943546616937965,0.11191020160913467,0.8587843179702759,0.9046809077262878,0.23216122388839722,0.7840825915336609,-0.010067594237625599,-0.2904174327850342
516.0,513.0,-2.3671,-0.7017,9.7615,-0.0854,0.0214,0.8326,-1.8533851108946742,-0.00014479327364824712,2.634495735168457,-2.0211386680603027,0.3768239915370941,2.2902579307556152,5.5550699708755396,-0.43444639444351196,-0.08051343262195587,-1.5205944220172327,0.0003662023809738457,0.09306089580059052,0.8623654246330261,0.8837122321128845,0.19446277618408203,0.7840467691421509,-0.009455384686589241,-0.29418522119522095
516.0,513.0,-2.3671,-0.7017,9.7615,-0.0854,0.0214,0.8326,-1.8534051380553187,-0.0001925920369103551,2.645958423614502,-2.019641160964966,0.38641390204429626,2.3858420848846436,5.553135502129354,-0.4727962911128998,-0.10252383351325989,-1.5205548445331019,0.00033242831705138087,0.095284603536129,0.8658313155174255,0.8768070340156555,0.21368733048439026,0.7839867472648621,-0.011469148099422455,-0.28697484731674194
516.0,513.0,-2.3671,-0.7017,9.7615,-0.0854,0.0214,0.8326,-1.8534008465208949,-0.0005532450159080327,2.612553119659424,-2.017197608947754,0.3958495557308197,2.344172477722168,5.550174820214071,-0.5148547291755676,-0.1299024373292923,-1.5205467383014124,0.00019813103426713496,0.08984336256980896,0.8709551095962524,0.8484615683555603,0.23032748699188232,0.7838983535766602,-0.013009114190936089,-0.28823602199554443
516.0,513.0,-2.3671,-0.7017,9.7615,-0.0854,0.0214,0.8326,-1.8534208736815394,-0.0011949270265176892,2.635913133621216,-2.0156137943267822,0.4044785797595978,2.3467462062835693,5.547996866493978,-0.5372201204299927,-0.1207256019115448,-1.5205591360675257,0.00017625404871068895,0.1019296795129776,0.8744137287139893,0.8400416374206543,0.22048546373844147,0.7838666439056396,-0.015073242597281933,-0.318601131439209
516.0,513.0,-2.3671,-0.7017,9.7615,-0.0854,0.0214,0.8326,-1.853396554986471,-0.0013207037700340152,2.6468210220336914,-2.013059616088867,0.4219132959842682,2.3639516830444336,5.544495272427358,-0.5905687808990479,-0.11917988955974579,-1.5205987135516565,0.00018919643480330706,0.11362549662590027,0.8793062567710876,0.823746919631958,0.2159898281097412,0.7837865948677063,-0.01721675880253315,-0.3241206407546997
516.0,513.0,-2.3671,-0.7017,9.7615,-0.0854,0.0214,0.8326,-1.8533889255919398,-0.0011480302782729268,2.657728433609009,-2.01143217086792,0.4288235008716583,2.351901054382324,5.542038488179006,-0.6224443912506104,-0.14110016822814941,-1.5205629507647913,0.000206047625397332,0.09535303711891174,0.8825719356536865,0.8055092096328735,0.19195985794067383,0.7837066650390625,-0.017596490681171417,-0.31196242570877075
516.0,513.0,-2.3671,-0.7017,9.7615,-0.0854,0.0214,0.8326,-1.8533927402892054,-0.0007441679481416941,2.6604437828063965,-2.0088181495666504,0.4523746073246002,2.4900283813476562,5.538195419102468,-0.6616866588592529,-0.11341902613639832,-1.5205705801593226,0.00018785403517540544,0.0926487147808075,0.8872901797294617,0.7870193123817444,0.20744448900222778,0.7835862040519714,-0.01914265565574169,-0.353720486164093
516.0,513.0,-2.3671,-0.7017,9.7615,-0.0854,0.0214,0.8326,-1.8534537754454554,-0.0005590689834207296,2.6055006980895996,-2.0069823265075684,0.4583539366722107,2.425741672515869,5.535486149578848,-0.6906688213348389,-0.14927266538143158,-1.5205467383014124,0.00020238211436662823,0.0991327092051506,0.8904640674591064,0.7660627365112305,0.18699707090854645,0.7835303544998169,-0.019627194851636887,-0.3240627348423004
516.0,513.0,-2.3671,-0.7017,9.7615,-0.0854,0.0214,0.8326,-1.8534289799132289,-0.0006492182146757841,2.638385772705078,-2.004204273223877,0.4720701575279236,2.4509501457214355,5.531123685627737,-0.7380791902542114,-0.11679047346115112,-1.5205705801593226,0.00018683324742596596,0.08834363520145416,0.8949210047721863,0.7539802193641663,0.20422905683517456,0.7834342122077942,-0.02154967375099659,-0.32448166608810425
468.0,440.0,-4.2802,-0.4845,10.3346,-0.0799,-0.2399,0.5689,-1.8534451923766078,-0.0017664876068010926,2.6187000274658203,-2.0022218227386475,0.4815905690193176,2.4403438568115234,5.528087782650747,-0.762978196144104,-0.12296553701162338,-1.5205467383014124,0.00017761471099220216,0.10835270583629608,0.897857129573822,0.729230523109436,0.19497863948345184,0.7832860350608826,-0.022980444133281708,-0.3061429262161255
468.0,440.0,-4.2802,-0.4845,10.3346,-0.0799,-0.2399,0.5689,-1.8534933529295863,-0.004562623333185911,2.655992031097412,-1.9992554187774658,0.49557751417160034,2.4573287963867188,5.523352730065145,-0.8073692917823792,-0.1187702864408493,-1.520538632069723,0.00016537551709916443,0.10022762417793274,0.9021366834640503,0.715709924697876,0.1908690184354782,0.7831737399101257,-0.024694830179214478,-0.37305235862731934
468.0,440.0,-4.2802,-0.4845,10.3346,-0.0799,-0.2399,0.5689,-1.8534685573973597,-0.005751576274633408,2.594928741455078,-1.997176170349121,0.5081146359443665,2.4869656562805176,5.520094322949209,-0.8317939043045044,-0.1276969462633133,-1.5205429236041468,0.00015845667803660035,0.11476067453622818,0.9049359560012817,0.6885578632354736,0.19998686015605927,0.7830938696861267,-0.02544436603784561,-0.33349502086639404
468.0,440.0,-4.2802,-0.4845,10.3346,-0.0799,-0.2399,0.5689,-1.8534728489317835,-0.006472805980592966,2.6607584953308105,-1.9951211214065552,0.5173265337944031,2.5020229816436768,5.516601133137502,-0.8562608361244202,-0.12970317900180817,-1.5205310026751917,0.00018002874276135117,0.09802581369876862,0.9077345728874207,0.6820605993270874,0.18757185339927673,0.7829498052597046,-0.026587652042508125,-0.34556108713150024
468.0,440.0,-4.2802,-0.4845,10.3346,-0.0799,-0.2399,0.5689,-1.8534923992552699,-0.003951923456043005,2.6610054969787598,-1.9919719696044922,0.5287385582923889,2.4830470085144043,5.511281895428457,-0.9052518606185913,-0.1314254105091095,-1.520527187977926,0.00016086148389149457,0.09816313534975052,0.911686897277832,0.6519486904144287,0.20073767006397247,0.7828338146209717,-0.02859591320157051,-0.35002902150154114
468.0,440.0,-4.2802,-0.4845,10.3346,-0.0799,-0.2399,0.5689,-1.8535129032530726,-0.002886019181460142,2.6638150215148926,-1.9898213148117065,0.5372034907341003,2.4649291038513184,5.50765614488677,-0.9290726184844971,-0.13121196627616882,-1.5205467383014124,0.00015012694348115474,0.09529578685760498,0.9143248200416565,0.6480283141136169,0.18026818335056305,0.7827012538909912,-0.029867572709918022,-0.3092108368873596
468.0,440.0,-4.2802,-0.4845,10.3346,-0.0799,-0.2399,0.5689,-1.8535524807372035,-0.0017236918210983276,2.6978049278259277,-1.9865113496780396,0.554034411907196,2.472256660461426,5.502034055977621,-0.9652870297431946,-0.1424083411693573,-1.5205310026751917,0.00013646719162352383,0.10089858621358871,0.9180576205253601,0.6205099821090698,0.1847219169139862,0.7825335264205933,-0.03051692619919777,-0.30584827065467834
468.0,440.0,-4.2802,-0.4845,10.3346,-0.0799,-0.2399,0.5689,-1.8535930118956507,-0.0015797390369698405,2.6535000801086426,-1.9842674732208252,0.5637115836143494,2.518860340118408,5.498006033688345,-0.9896573424339294,-0.14730004966259003,-1.520527187977926,0.00015394671936519444,0.11641621589660645,0.92059725522995,0.6197201013565063,0.19564467668533325,0.7823973298072815,-0.030841488391160965,-0.30363044142723083
468.0,440.0,-4.2802,-0.4845,10.3346,-0.0799,-0.2399,0.5689,-1.8535644016661585,-0.0019146680133417249,2.6890857219696045,-1.9808619022369385,0.5736167430877686,2.4873249530792236,5.491847085743704,-1.0309611558914185,-0.1547444760799408,-1.5205109755145472,0.00014219729928299785,0.10211582481861115,0.9242314100265503,0.5846147537231445,0.16634628176689148,0.7822290658950806,-0.03269720450043678,-0.31847283244132996
468.0,440.0,-4.2802,-0.4845,10.3346,-0.0799,-0.2399,0.5689,-1.8535849056639613,-0.0019690534099936485,2.657303810119629,-1.9786285161972046,0.5823748707771301,2.47489070892334,5.487699496537008,-1.0592594146728516,-0.14690130949020386,-1.520578686391012,0.00013508275151252747,0.1063091978430748,0.9264793992042542,0.5814752578735352,0.19213178753852844,0.7820730805397034,-0.03393060714006424,-0.33674150705337524
468.0,440.0,-4.2802,-0.4845,10.3346,-0.0799,-0.2399,0.5689,-1.853600641290182,-0.0015489131910726428,2.6827871799468994,-1.9750728607177734,0.5981122851371765,2.454012870788574,5.4810940501983545,-1.0929843187332153,-0.13473421335220337,-1.520527187977926,0.0001256525720236823,0.09942714869976044,0.9298651814460754,0.563316822052002,0.19731271266937256,0.7818891406059265,-0.034397851675748825,-0.2786577641963959
468.0,440.0,-4.2802,-0.4845,10.3346,-0.0799,-0.2399,0.5689,-1.8535925350584925,-0.0011495030485093594,2.677311658859253,-1.9727675914764404,0.6063845157623291,2.5145273208618164,5.476695167809286,-1.1213017702102661,-0.14359638094902039,-1.5205228964435022,0.00012006479664705694,0.09437604248523712,0.9320500493049622,0.5311140418052673,0.1766088604927063,0.7817288041114807,-0.03578765317797661,-0.3417911231517792
468.0,440.0,-4.2802,-0.4845,10.3346,-0.0799,-0.2399,0.5689,-1.8535925350584925,-0.0009614956798031926,2.6786255836486816,-1.9702976942062378,0.6088528633117676,2.4898228645324707,5.472263145237722,-1.144295573234558,-0.1280403882265091,-1.520527187977926,0.00011495282524265349,0.0911765769124031,0.9342359900474548,0.533735990524292,0.20180396735668182,0.7815561890602112,-0.03884085267782211,-0.32349491119384766
468.0,440.0,-4.2802,-0.4845,10.3346,-0.0799,-0.2399,0.5689,-1.853628774682516,-0.001684832968749106,2.655754327774048,-1.9665647745132446,0.6157183647155762,2.5184452533721924,5.465149986534872,-1.176804542541504,-0.11082471907138824,-1.5205634276019495,0.00010805205238284543,0.10167281329631805,0.9372636675834656,0.5102846026420593,0.1891123652458191,0.7813363075256348,-0.041491877287626266,-0.3634384870529175
468.0,440.0,-4.2802,-0.4845,10.3346,-0.0799,-0.2399,0.5689,-1.85365690807485,-0.0021077319979667664,2.674985885620117,-1.9640313386917114,0.6214082837104797,2.5506293773651123,5.46042816618041,-1.20037043094635,-0.148006409406662,-1.5205591360675257,0.00010389421368017793,0.09822994470596313,0.939264714717865,0.4906230866909027,0.1916029304265976,0.7811603546142578,-0.044114623218774796,-0.34696823358535767
468.0,440.0,-4.2802,-0.4845,10.3346,-0.0799,-0.2399,0.5689,-1.8536449871458949,-0.0014642167370766401,2.7181239128112793,-1.9602797031402588,0.6331104636192322,2.5194339752197266,5.453143465309896,-1.2247862815856934,-0.13902878761291504,-1.5205429236041468,0.00011404261022107676,0.09619756042957306,0.942328929901123,0.48257407546043396,0.17783161997795105,0.780936062335968,-0.04714275524020195,-0.38294392824172974
468.0,440.0,-4.2802,-0.4845,10.3346,-0.0799,-0.2399,0.5689,-1.8536411724486292,-0.0009503417531959713,2.67703914642334,-1.9577226638793945,0.6381605267524719,2.468884229660034,5.448030936508932,-1.2474911212921143,-0.13649830222129822,-1.5205629507647913,0.00011057047231588513,0.11463252454996109,0.9442085027694702,0.4711533784866333,0.17739999294281006,0.7807843089103699,-0.05000428855419159,-0.35641855001449585
468.0,440.0,-4.2802,-0.4845,10.3346,-0.0799,-0.2399,0.5689,-1.8536726437010707,-0.0006217239424586296,2.6921184062957764,-1.9539546966552734,0.6489270925521851,2.5011913776397705,5.440636265068807,-1.2780959606170654,-0.12704674899578094,-1.520538632069723,0.00010504197416594252,0.0934082567691803,0.9469183087348938,0.4554523527622223,0.18138346076011658,0.7804477214813232,-0.054377179592847824,-0.3611993193626404
468.0,440.0,-4.2802,-0.4845,10.3346,-0.0799,-0.2399,0.5689,-1.8536163769164027,-0.0005053041386418045,2.6592979431152344,-1.9513661861419678,0.652994692325592,2.521181583404541,5.435435640602865,-1.290757417678833,-0.1551036536693573,-1.5205228964435022,0.00010165216372115538,0.10193704813718796,0.9487439393997192,0.4483851194381714,0.16175323724746704,0.7802273035049438,-0.05874589830636978,-0.33146440982818604
425.0,472.0,-2.3833,-0.195,9.0377,-0.1345,-0.6396,0.232,-1.8536449871458949,-0.00039451610064134,2.7081398963928223,-1.9474103450775146,0.6585608124732971,2.5147805213928223,5.427504408150472,-1.3263144493103027,-0.12591901421546936,-1.5205429236041468,9.69587781582959e-05,0.09549513459205627,0.951333224773407,0.430006206035614,0.1577884554862976,0.7798471450805664,-0.06094319745898247,-0.3651004731655121
425.0,472.0,-2.3833,-0.195,9.0377,-0.1345,-0.6396,0.232,-1.853640695611471,-0.00039920402923598886,2.666431427001953,-1.9447603225708008,0.6647833585739136,2.463636636734009,5.422318029194631,-1.3378435373306274,-0.15062232315540314,-1.5205109755145472,9.406347089679912e-05,0.09848403930664062,0.9530193209648132,0.4104797840118408,0.16046985983848572,0.7796352505683899,-0.05843108892440796,-0.36737024784088135
425.0,472.0,-2.3833,-0.195,9.0377,-0.1345,-0.6396,0.232,-1.8536087475218714,-0.0003371045459061861,2.689340591430664,-1.94076669216156,0.6773220896720886,2.5335283279418945,5.413943874626913,-1.3642116785049438,-0.13482354581356049,-1.5205629507647913,9.003077138913795e-05,0.09494514763355255,0.955493688583374,0.40653154253959656,0.15848278999328613,0.7792421579360962,-0.05499913543462753,-0.33604177832603455
425.0,472.0,-2.3833,-0.195,9.0377,-0.1345,-0.6396,0.232,-1.8536888561644496,-0.0003479425504337996,2.693429470062256,-1.9380853176116943,0.6732940077781677,2.459930658340454,5.408618736058035,-1.3857990503311157,-0.14848066866397858,-1.5205548445331019,8.752911526244134e-05,0.09763089567422867,0.9571232795715332,0.4008900821208954,0.1631614863872528,0.7790988087654114,-0.052963465452194214,-0.3414594233036041
425.0,472.0,-2.3833,-0.195,9.0377,-0.1345,-0.6396,0.232,-1.8537007770934046,-0.0003482180763967335,2.654987335205078,-1.935264229774475,0.6727204322814941,2.527947187423706,5.4028732655342,-1.4011791944503784,-0.12326259911060333,-1.520527187977926,9.652352309785783e-05,0.08349219709634781,0.958637535572052,0.3754011392593384,0.11961294710636139,0.7788344025611877,-0.05144296959042549,-0.39515602588653564
425.0,472.0,-2.3833,-0.195,9.0377,-0.1345,-0.6396,0.232,-1.8536888561644496,-0.0031848859507590532,2.6974315643310547,-1.931183934211731,0.6760908365249634,2.5307130813598633,5.394372808724203,-1.4247363805770874,-0.1593720018863678,-1.5205190817462366,8.471177716273814e-05,0.10202963650226593,0.9607968926429749,0.37215128540992737,0.13964003324508667,0.7785503268241882,-0.0490734726190567,-0.31391942501068115
425.0,472.0,-2.3833,-0.195,9.0377,-0.1345,-0.6396,0.232,-1.8536602459349574,-0.0026682696770876646,2.7199764251708984,-1.9285109043121338,0.6817858219146729,2.489809274673462,5.388764250069418,-1.4354864358901978,-0.1422661542892456,-1.5205190817462366,9.598896576790139e-05,0.11014726758003235,0.9621991515159607,0.35901951789855957,0.13522249460220337,0.7782933712005615,-0.04753204435110092,-0.35454297065734863
425.0,472.0,-2.3833,-0.195,9.0377,-0.1345,-0.6396,0.232,-1.8536602459349574,-0.001448432682082057,2.7123451232910156,-1.9243552684783936,0.6901570558547974,2.539780616760254,5.380053031235494,-1.4483269453048706,-0.14866632223129272,-1.5205591360675257,0.00012111985415685922,0.09323521703481674,0.9643060564994812,0.3405454158782959,0.1275661587715149,0.7780821919441223,-0.04577144235372543,-0.3615851402282715
425.0,472.0,-2.3833,-0.195,9.0377,-0.1345,-0.6396,0.232,-1.8536764583983363,-0.00037949118996039033,2.7137832641601562,-1.921675443649292,0.691853940486908,2.549360990524292,5.37436209896163,-1.4630815982818604,-0.1705327033996582,-1.5205109755145472,0.00045539753045886755,0.09072867035865784,0.9655939340591431,0.30624938011169434,0.12125696986913681,0.7778698801994324,-0.04554314166307449,-0.34595245122909546
425.0,472.0,-2.3833,-0.195,9.0377,-0.1345,-0.6396,0.232,-1.8536564312376917,-0.00023216100817080587,2.696845531463623,-1.9174422025680542,0.6914644837379456,2.5362517833709717,5.365253793984213,-1.4759836196899414,-0.11983239650726318,-1.5204866568194788,0.0005043502314947546,0.09440715610980988,0.9673541188240051,0.30141496658325195,0.10237918794155121,0.7775894403457642,-0.04531464725732803,-0.3399350047111511
425.0,472.0,-2.3833,-0.195,9.0377,-0.1345,-0.6396,0.232,-1.853741308251852,-0.0001845279330154881,2.709254741668701,-1.914731502532959,0.6999127268791199,2.524573564529419,5.359402644425192,-1.4889849424362183,-0.1334666609764099,-1.5205190817462366,0.0004955727490596473,0.10011650621891022,0.9685583710670471,0.2997221350669861,0.10932619869709015,0.7774254083633423,-0.046130210161209106,-0.39455389976501465
425.0,472.0,-2.3833,-0.195,9.0377,-0.1345,-0.6396,0.232,-1.8536645374693812,-0.00014111159543972462,2.671926736831665,-1.910567283630371,0.7093961834907532,2.6030850410461426,5.350487339287557,-1.4939647912979126,-0.1348561942577362,-1.5205109755145472,0.00040113451541401446,0.08914779126644135,0.9701951146125793,0.2766036093235016,0.1090841144323349,0.7771487832069397,-0.04370173066854477,-0.34050261974334717
425.0,472.0,-2.3833,-0.195,9.0377,-0.1345,-0.6396,0.232,-1.853652139703268,-0.00012198132753837854,2.734809398651123,-1.9077624082565308,0.7076199054718018,2.486121892929077,5.344609010010519,-1.5058434009552002,-0.11229047179222107,-1.5205071608172815,0.0003558027383405715,0.08963519334793091,0.9713550209999084,0.262324720621109,0.10452316701412201,0.7770009636878967,-0.04318311810493469,-0.32387298345565796
425.0,472.0,-2.3833,-0.195,9.0377,-0.1345,-0.6396,0.232,-1.8537007770934046,-0.00019666689331643283,2.7307775020599365,-1.90338134765625,0.7031095027923584,2.4960579872131348,5.335524487286367,-1.506894588470459,-0.11959786713123322,-1.5204866568194788,0.0003042378812097013,0.10028569400310516,0.9726932644844055,0.21183530986309052,0.07171653211116791,0.7767371535301208,-0.0422532819211483,-0.3249410390853882
425.0,472.0,-2.3833,-0.195,9.0377,-0.1345,-0.6396,0.232,-1.8537045917906703,-0.00011012618051609024,2.6593921184539795,-1.9005346298217773,0.7016278505325317,2.4904890060424805,5.329445707588949,-1.5110514163970947,-0.13626466691493988,-1.5204866568194788,0.000311773968860507,0.09551271796226501,0.9734740853309631,0.2016429752111435,0.09017067402601242,0.7765768766403198,-0.04188902676105499,-0.32020103931427
425.0,472.0,-2.3833,-0.195,9.0377,-0.1345,-0.6396,0.232,-1.85368074993276,-9.569267422193661e-05,2.7234771251678467,-1.8977243900299072,0.7052710652351379,2.519805669784546,5.323491024761953,-1.5112041234970093,-0.10453879833221436,-1.520499054585592,0.0002551196375861764,0.08958946168422699,0.9743426442146301,0.21275386214256287,0.07411158084869385,0.7764289379119873,-0.04150031879544258,-0.3391311764717102
425.0,472.0,-2.3833,-0.195,9.0377,-0.1345,-0.6396,0.232,-1.8536721668639125,-8.272793638752773e-05,2.6967735290527344,-1.8934208154678345,0.7117382884025574,2.50938081741333,5.314404296665945,-1.5069485902786255,-0.11612167954444885,-1.5204747358905237,0.00022736311075277627,0.08683359622955322,0.9756500720977783,0.20147478580474854,0.07817713916301727,0.7761644721031189,-0.041665107011795044,-0.3476564288139343
425.0,472.0,-2.3833,-0.195,9.0377,-0.1345,-0.6396,0.232,-1.8536721668639125,-3.781965278903954e-05,2.7463760375976562,-1.8906400203704834,0.7120904922485352,2.474689483642578,5.3084431169326685,-1.5052151679992676,-0.1108454167842865,-1.5205629507647913,0.00021205517987255007,0.09561803936958313,0.9763984084129333,0.18128593266010284,0.06177967041730881,0.7760206460952759,-0.040965039283037186,-0.29392051696777344
442.0,539.0,-0.6658,-0.6455,9.3858,-0.1306,-0.7639,-0.0476,-1.85368074993276,-5.525650692561612e-08,2.715081214904785,-1.8864060640335083,0.7096883654594421,2.5357561111450195,5.2993273613746545,-1.5052969455718994,-0.09186344593763351,-1.5205228964435022,0.00019260411499999464,0.08864106237888336,0.9774582982063293,0.18082821369171143,0.07758266478776932,0.7757362723350525,-0.04632939398288727,-0.2806340754032135
442.0,539.0,-0.6658,-0.6455,9.3858,-0.1306,-0.7639,-0.0476,-1.8536964855589808,-9.945977201553102e-12,2.741617202758789,-1.8836477994918823,0.713283360004425,2.5267715454101562,5.293357896595754,-1.507204532623291,-0.12302210927009583,-1.5205429236041468,0.00018150510732084513,0.08330002427101135,0.9782275557518005,0.1698511689901352,0.08847388625144958,0.7755557894706726,-0.046759556978940964,-0.3119300305843353
442.0,539.0,-0.6658,-0.6455,9.3858,-0.1306,-0.7639,-0.0476,-1.8536888561644496,-2.4018363681946984e-17,2.7566404342651367,-1.8793877363204956,0.7175778150558472,2.5525455474853516,5.284281718521871,-1.4978554248809814,-0.12957285344600677,-1.5205267111407679,0.0001675305684329942,0.09070073068141937,0.9791362285614014,0.12829415500164032,0.06998396664857864,0.7752957344055176,-0.04951261356472969,-0.31527528166770935
442.0,539.0,-0.6658,-0.6455,9.3858,-0.1306,-0.7639,-0.0476,-1.853696962396139,-4.323219889623619e-21,2.726334810256958,-1.8765820264816284,0.7175340056419373,2.515214681625366,5.278334545880117,-1.4912550449371338,-0.09735718369483948,-1.520499054585592,5.599980795523152e-05,0.08081240952014923,0.9796101450920105,0.10400587320327759,0.06304298341274261,0.775123655796051,-0.051139190793037415,-0.27189335227012634
442.0,539.0,-0.6658,-0.6455,9.3858,-0.1306,-0.7639,-0.0476,-1.8537289104857386,-1.0440068716582684e-26,2.8311095237731934,-1.8721615076065063,0.712054431438446,2.5164778232574463,5.269372629910269,-1.4811733961105347,-0.09613169729709625,-1.520510498677389,3.200375795131549e-05,0.0747675895690918,0.9801635146141052,0.09129709005355835,0.07758498936891556,0.7748032808303833,-0.05226970836520195,-0.2725672721862793
442.0,539.0,-0.6658,-0.6455,9.3858,-0.1306,-0.7639,-0.0476,-1.8537365398802699,-0.0010292690712958574,2.767491102218628,-1.869316816329956,0.7082180380821228,2.491342544555664,5.263538646488943,-1.4762035608291626,-0.13165725767612457,-1.5205352942096155,2.4085398763418198e-05,0.073950856924057,0.9805217385292053,0.1010078489780426,0.06204497814178467,0.7746071219444275,-0.0512922927737236,-0.27022117376327515
442.0,539.0,-0.6658,-0.6455,9.3858,-0.1306,-0.7639,-0.0476,-1.853720327416891,-0.001086133997887373,2.8287031650543213,-1.8663673400878906,0.7079192996025085,2.4804978370666504,5.257678079396047,-1.4625250101089478,-0.09204483032226562,-1.5205510298358362,2.2836487914901227e-05,0.07205948978662491,0.980992317199707,0.11958058923482895,0.07538744807243347,0.7743868231773376,-0.04909564554691315,-0.2507752776145935
442.0,539.0,-0.6658,-0.6455,9.3858,-0.1306,-0.7639,-0.0476,-1.8537565670409144,-0.0009330261964350939,2.8160736560821533,-1.8621845245361328,0.7101126909255981,2.5022294521331787,5.249089526921072,-1.4481732845306396,-0.10037733614444733,-1.5205867926227015,2.1220932467258535e-05,0.07076224684715271,0.981869637966156,0.14290829002857208,0.08976919203996658,0.7741068601608276,-0.044194575399160385,-0.23030808568000793
442.0,539.0,-0.6658,-0.6455,9.3858,-0.1306,-0.7639,-0.0476,-1.8536926708617152,-0.0004765047924593091,2.8214778900146484,-1.859398365020752,0.7141265869140625,2.545757293701172,5.2431800840194605,-1.4311269521713257,-0.11100707948207855,-1.5205071608172815,9.046815563351629e-08,0.0593327134847641,0.9823711514472961,0.1416940689086914,0.10938280820846558,0.7739466428756714,-0.040819328278303146,-0.22572317719459534
442.0,539.0,-0.6658,-0.6455,9.3858,-0.1306,-0.7639,-0.0476,-1.8537050686278285,0.00033166105276905,2.8690743446350098,-1.855163335800171,0.7118038535118103,2.487194776535034,5.234641837864675,-1.4199953079223633,-0.07775505632162094,-1.5205310026751917,2.5182144564039888e-11,0.059372678399086,0.9832317233085632,0.11468056589365005,0.09503418207168579,0.7737266421318054,-0.03951079770922661,-0.21397113800048828
442.0,539.0,-0.6658,-0.6455,9.3858,-0.1306,-0.7639,-0.0476,-1.8537174663939417,0.0003571569104678929,2.877232074737549,-1.8523151874542236,0.7110487222671509,2.5786314010620117,5.229072916298666,-1.4057366847991943,-0.08403199911117554,-1.5205548445331019,1.0735542907121601e-13,0.07311467826366425,0.9835453629493713,0.10716689378023148,0.08438381552696228,0.7736271023750305,-0.036830075085163116,-0.2291838526725769
442.0,539.0,-0.6658,-0.6455,9.3858,-0.1306,-0.7639,-0.0476,-1.8537007770934046,0.0002752259315457195,2.886986255645752,-1.8480448722839355,0.7154561877250671,2.556915283203125,5.220898139267721,-1.3899236917495728,-0.061124831438064575,-1.5205586592303675,2.988278636609478e-17,0.04992929473519325,0.9841994047164917,0.11578069627285004,0.09998880326747894,0.7733665704727173,-0.03251850605010986,-0.22061365842819214
442.0,539.0,-0.6658,-0.6455,9.3858,-0.1306,-0.7639,-0.0476,-1.853708406487936,0.00024118786677718163,2.8579185009002686,-1.8451554775238037,0.7140489220619202,2.5017151832580566,5.215400385647573,-1.3669835329055786,-0.08668806403875351,-1.5205429236041468,1.2739499086808677e-19,0.04835066944360733,0.984734058380127,0.12008599191904068,0.10021543502807617,0.77325040102005,-0.029911300167441368,-0.16996298730373383
442.0,539.0,-0.6658,-0.6455,9.3858,-0.1306,-0.7639,-0.0476,-1.853708406487936,2.7204476282349788e-05,2.9254934787750244,-1.8408914804458618,0.7119172215461731,2.5060338973999023,5.207153159170904,-1.3506827354431152,-0.054981082677841187,-1.5205548445331019,3.54608564788332e-23,0.05655115842819214,0.9853506684303284,0.09802950173616409,0.1054629385471344,0.7730700969696045,-0.02410852536559105,-0.1751570999622345
442.0,539.0,-0.6658,-0.6455,9.3858,-0.1306,-0.7639,-0.0476,-1.8537446461119593,4.896709704382829e-09,2.897554397583008,-1.8379955291748047,0.7058327794075012,2.539146900177002,5.201861965447225,-1.3334640264511108,-0.08078152686357498,-1.5205310026751917,1.5117519613882356e-25,0.0618441142141819,0.9857417941093445,0.07772661745548248,0.09227186441421509,0.7729617357254028,-0.02222352661192417,-0.168033629655838
442.0,539.0,-0.6658,-0.6455,9.3858,-0.1306,-0.7639,-0.0476,-1.8537165127196253,-0.0005186925991438329,2.9302263259887695,-1.8337275981903076,0.7020956873893738,2.548898935317993,5.1937967715557,-1.311129093170166,-0.051715947687625885,-1.520527187977926,4.208017298565142e-29,0.04275484010577202,0.9860152006149292,0.045113250613212585,0.09783318638801575,0.7728660106658936,-0.018055509775877,-0.15021848678588867
442.0,539.0,-0.6658,-0.6455,9.3858,-0.1306,-0.7639,-0.0476,-1.8537289104857386,-0.00034033122938126326,2.9858343601226807,-1.8309000730514526,0.702540934085846,2.516771078109741,5.188769864826956,-1.3010706901550293,-0.04435424506664276,-1.520527187977926,1.7939436754353832e-31,0.04657663404941559,0.9860783815383911,0.025076860561966896,0.0927489846944809,0.77280193567276,-0.015240902081131935,-0.1228577196598053
442.0,539.0,-0.6658,-0.6455,9.3858,-0.1306,-0.7639,-0.0476,-1.8537126980223597,-0.00013877340825274587,2.941014051437378,-1.8281171321868896,0.7052785754203796,2.6123666763305664,5.183517592936315,-1.2792448997497559,-0.02747311443090439,-1.5205228964435022,7.647862673720768e-34,0.05261314660310745,0.9861578941345215,0.010760094039142132,0.07219444960355759,0.7727380394935608,-0.012710963375866413,-0.12676288187503815
442.0,539.0,-0.6658,-0.6455,9.3858,-0.1306,-0.7639,-0.0476,-1.8536964855589808,-6.889496528827976e-09,2.925477981567383,-1.8239212036132812,0.7024099230766296,2.481701135635376,5.17596788981513,-1.2674221992492676,-0.05813712626695633,-1.5205629507647913,2.1288107001522095e-37,0.033750250935554504,0.9862464070320129,0.0001409516844432801,0.09066905081272125,0.7726820707321167,-0.009702280163764954,-0.16827097535133362
508.0,587.0,0.4205,-1.8407,9.3852,-0.1338,-0.5457,-0.1605,-1.8537126980223597,-1.240085182978301e-12,2.9261019229888916,-1.821106195449829,0.7009774446487427,2.51762318611145,5.170915502100744,-1.2530522346496582,-0.04890522360801697,-1.520527187977926,9.075453452261105e-40,0.05384536460042,0.9861942529678345,-0.0027148493099957705,0.08699323236942291,0.7726984620094299,-0.008507617749273777,-0.11406464874744415
508.0,587.0,0.4205,-1.8407,9.3852,-0.1338,-0.5457,-0.1605,-1.8537007770934046,-2.994659756008896e-18,2.9262356758117676,-1.8169736862182617,0.703552782535553,2.540494680404663,5.163382965117254,-1.2328026294708252,-0.04264168068766594,-1.5205548445331019,2.5223372357846707e-43,0.039899569004774094,0.9862062335014343,-4.576672654366121e-05,0.10021987557411194,0.7726060152053833,-0.004653197713196278,-0.10244147479534149
508.0,587.0,0.4205,-1.8407,9.3852,-0.1338,-0.5457,-0.1605,-1.8537126980223597,-5.390282273971849e-22,2.927539110183716,-1.814095377922058,0.7017292976379395,2.513817548751831,5.158562648087301,-1.2230485677719116,-0.04889945685863495,-1.520566765462057,1.401298464324817e-45,0.0545906201004982,0.9862464070320129,-1.9511075777245424e-07,0.10665500164031982,0.7726137638092041,-0.0020056655630469322,-0.0762660801410675
508.0,587.0,0.4205,-1.8407,9.3852,-0.1338,-0.5457,-0.1605,-1.853708406487936,-1.3016895382031758e-27,2.9192728996276855,-1.8099068403244019,0.6978357434272766,2.552217960357666,5.151194470911779,-1.201003074645996,-0.030174989253282547,-1.5205310026751917,0.0,0.0473223552107811,0.9862821698188782,-5.430980318243961e-11,0.1122320294380188,0.7726460695266724,0.0003248790744692087,-0.08118131756782532
508.0,587.0,0.4205,-1.8407,9.3852,-0.1338,-0.5457,-0.1605,-1.853732248345846,-6.301782559603453e-05,2.948434352874756,-1.8070793151855469,0.6960229277610779,2.5211405754089355,5.146519410401144,-1.1860133409500122,-0.052010633051395416,-1.520538632069723,0.0,0.04839453846216202,0.9861980676651001,-2.315312113039536e-13,0.12444202601909637,0.7725898623466492,0.0005987120675854385,-0.11868266761302948
508.0,587.0,0.4205,-1.8407,9.3852,-0.1338,-0.5457,-0.1605,-1.8537284336485804,-0.0002318387560080737,2.9060983657836914,-1.802878737449646,0.6937190890312195,2.5478920936584473,5.139481413155355,-1.1604626178741455,-0.058685943484306335,-1.520578686391012,0.0,0.03883427381515503,0.9863220453262329,0.0012164481449872255,0.12357396632432938,0.7726464867591858,0.0008160145953297615,-0.10914555937051773
508.0,587.0,0.4205,-1.8407,9.3852,-0.1338,-0.5457,-0.1605,-1.853748460809225,-0.00020728749223053455,2.936126470565796,-1.8002173900604248,0.6943196058273315,2.5213115215301514,5.134886550694265,-1.1532351970672607,-0.03439294546842575,-1.5205429236041468,0.0,0.04742282256484032,0.9863220453262329,0.002341157989576459,0.14889177680015564,0.7726622223854065,0.0008447919972240925,-0.08017997443675995
508.0,587.0,0.4205,-1.8407,9.3852,-0.1338,-0.5457,-0.1605,-1.8537684879698695,-0.00022102962248027325,2.9318864345550537,-1.7960047721862793,0.6937928795814514,2.5355732440948486,5.128043371229925,-1.1332591772079468,-0.0335874930024147,-1.5205548445331019,0.0,0.03609221801161766,0.9862784147262573,0.004412006586790085,0.1419471949338913,0.7726457715034485,0.0007645483128726482,-0.05472176522016525
508.0,587.0,0.4205,-1.8407,9.3852,-0.1338,-0.5457,-0.1605,-1.853732248345846,-0.00017743093485478312,2.938002824783325,-1.793285608291626,0.6899793148040771,2.515874147415161,5.123456406384268,-1.123740792274475,-0.010329516604542732,-1.5205748716937464,0.0,0.060568638145923615,0.9863496422767639,0.006886004004627466,0.14826570451259613,0.7725898027420044,0.0004990522866137326,-0.10988293588161469
508.0,587.0,0.4205,-1.8407,9.3852,-0.1338,-0.5457,-0.1605,-1.8537289104857386,-7.411703700199723e-05,2.9631261825561523,-1.7905337810516357,0.6902642846107483,2.5813913345336914,5.1189521727855585,-1.111954927444458,-0.03127210959792137,-1.520538632069723,0.0,0.04073719680309296,0.9863823056221008,0.009168100543320179,0.15573012828826904,0.7726419568061829,0.00027552194660529494,-0.04901471734046936
508.0,587.0,0.4205,-1.8407,9.3852,-0.1338,-0.5457,-0.1605,-1.8537003002562464,-5.150832538269867e-10,2.899397611618042,-1.7863849401474,0.6901131868362427,2.5645413398742676,5.112352448492803,-1.0971918106079102,-0.032842304557561874,-1.5205629507647913,0.0,0.0468430332839489,0.9864338636398315,0.01514772605150938,0.15195418894290924,0.7726501822471619,0.0002558525593485683,-0.12080813944339752
508.0,587.0,0.4205,-1.8407,9.3852,-0.1338,-0.5457,-0.1605,-1.853732248345846,-9.271317031158202e-14,2.895190715789795,-1.7836908102035522,0.6901319026947021,2.563497304916382,5.107930707722463,-1.0870823860168457,-0.05694248154759407,-1.5205429236041468,0.0,0.04277317225933075,0.9865170121192932,0.020828062668442726,0.16863736510276794,0.7726622223854065,9.945835336111486e-05,-0.05563816800713539
508.0,587.0,0.4205,-1.8407,9.3852,-0.1338,-0.5457,-0.1605,-1.8537408314146937,-2.2389142543607946e-19,2.9569530487060547,-1.7795387506484985,0.6850329637527466,2.5580496788024902,5.101527112513342,-1.079203724861145,-0.03624926880002022,-1.5205591360675257,0.0,0.04198644310235977,0.9866407513618469,0.03348413482308388,0.17214694619178772,0.7726219892501831,7.115905464161187e-05,-0.05901413410902023
508.0,587.0,0.4205,-1.8407,9.3852,-0.1338,-0.5457,-0.1605,-1.8537522755064906,-4.0299669318030087e-23,2.9242329597473145,-1.7767294645309448,0.6773435473442078,2.5068068504333496,5.097350764065542,-1.0788792371749878,-0.03054339438676834,-1.5205591360675257,0.0,0.049302391707897186,0.9868721961975098,0.04809609800577164,0.1757972091436386,0.7726700305938721,3.689531880013419e-08,-0.10779504477977753
508.0,587.0,0.4205,-1.8407,9.3852,-0.1338,-0.5457,-0.1605,-1.8538252315916957,-0.0007139200461097062,2.8875973224639893,-1.772675633430481,0.6744610071182251,2.5224292278289795,5.090878176480093,-1.0660927295684814,-0.04690727964043617,-1.5205429236041468,0.0,0.039243750274181366,0.9872505068778992,0.08425041288137436,0.19017207622528076,0.7726662755012512,8.909786428611122e-14,-0.08168978989124298
508.0,587.0,0.4205,-1.8407,9.3852,-0.1338,-0.5457,-0.1605,-1.8537646732726039,-0.001554782735183835,2.9466986656188965,-1.7700021266937256,0.6762519478797913,2.6226248741149902,5.086576896696844,-1.0647140741348267,-0.04965297132730484,-1.5205629507647913,0.0,0.057073548436164856,0.9876894354820251,0.12298788130283356,0.18563133478164673,0.7726460695266724,1.603729996120052e-17,-0.022505689412355423
508.0,587.0,0.4205,-1.8407,9.3852,-0.1338,-0.5457,-0.1605,-1.8537847004332484,-0.0008911943295970559,2.9643654823303223,-1.7659635543823242,0.6772056221961975,2.5702714920043945,5.080170827894964,-1.0519760847091675,-0.035206470638513565,-1.5205467383014124,0.0,0.036758989095687866,0.988710880279541,0.18935026228427887,0.2337178885936737,0.7726055383682251,3.8728195285957414e-23,-0.08605539053678513
508.0,587.0,0.4205,-1.8407,9.3852,-0.1338,-0.5457,-0.1605,-1.8537970981993617,-0.0005554431118071079,2.9729361534118652,-1.7633360624313354,0.6712451577186584,2.5523133277893066,5.075848954706945,-1.0515059232711792,-0.04868220537900925,-1.520527187977926,0.0,0.05548780784010887,0.9895706176757812,0.21267707645893097,0.23512709140777588,0.7726622223854065,6.970938100448599e-27,-0.07160770893096924
508.0,587.0,0.4205,-1.8407,9.3852,-0.1338,-0.5457,-0.1605,-1.8537441692748011,-0.00039760643267072737,2.89980411529541,-1.7606557607650757,0.6671538949012756,2.595735549926758,5.0716707585151575,-1.0483921766281128,-0.017571352422237396,-1.5205429236041468,0.0,0.06280042231082916,0.9904035925865173,0.22444814443588257,0.24743016064167023,0.7726137638092041,1.2547442051242168e-30,-0.0715184435248375
434.0,409.0,0.3541,-0.1759,8.9976,-0.1252,-0.3499,0.1148,-1.8538409672179164,-9.219420462613925e-05,2.9329495429992676,-1.7567052841186523,0.664704442024231,2.5941076278686523,5.065550493984976,-1.0453839302062988,-0.047808222472667694,-1.5205548445331019,0.0,0.05211405083537102,0.9919661283493042,0.26940467953681946,0.26731398701667786,0.7726499438285828,3.0300598208015174e-36,-0.058347027748823166
434.0,409.0,0.3541,-0.1759,8.9976,-0.1252,-0.3499,0.1148,-1.8537851772704066,-7.651070336578414e-05,2.9265027046203613,-1.7540746927261353,0.6700702905654907,2.5790598392486572,5.061413126974859,-1.0420548915863037,-0.024805407971143723,-1.5205310026751917,0.0,0.05511235445737839,0.9930378198623657,0.2743958532810211,0.27843040227890015,0.772658109664917,5.4539937529986205e-40,-0.04815883934497833
434.0,409.0,0.3541,-0.1759,8.9976,-0.1252,-0.3499,0.1148,-1.8537928066649378,-0.00012188252003397793,2.966510772705078,-1.7500251531600952,0.66416335105896,2.5859813690185547,5.05504851320342,-1.0461543798446655,-0.05596408247947693,-1.520538632069723,0.0,0.052121639251708984,0.99482262134552,0.30761751532554626,0.2842128872871399,0.7726820707321167,1.401298464324817e-45,-0.04756835103034973
434.0,409.0,0.3541,-0.1759,8.9976,-0.1252,-0.3499,0.1148,-1.85376038173818,-0.0004941981751471758,2.9599223136901855,-1.7473945617675781,0.6568857431411743,2.5480315685272217,5.050884145289221,-1.0464168787002563,-0.028838643804192543,-1.5204909483539026,0.0,0.053613513708114624,0.9961978793144226,0.35043537616729736,0.29736483097076416,0.7726219892501831,0.0,-0.061272993683815
434.0,409.0,0.3541,-0.1759,8.9976,-0.1252,-0.3499,0.1148,-1.8538080654540003,-0.0047795516438782215,2.9253716468811035,-1.7433305978775024,0.6505217552185059,2.608456611633301,5.044493037253179,-1.0499441623687744,-0.060426387935876846,-1.5205429236041468,0.0,0.04939931631088257,0.9984099268913269,0.38752609491348267,0.3020817041397095,0.7726622223854065,0.0,-0.08649255335330963
434.0,409.0,0.3541,-0.1759,8.9976,-0.1252,-0.3499,0.1148,-1.8538443050780238,-0.006061676889657974,2.9204189777374268,-1.740709662437439,0.6493982672691345,2.5981388092041016,5.040298926621237,-1.0497008562088013,-0.016185499727725983,-1.5205028692828577,0.0,0.050919707864522934,1.0000234842300415,0.406355082988739,0.3228629231452942,0.7726499438285828,0.00040666788117960095,-0.09087030589580536
