ramyac6/ROB537/final_project/csv/all/bad_53.csv
tof_0,tof_1,accelx,accely,accelz,gyrox,gyroy,gyroz,shoulder_lift_joint_position,shoulder_lift_joint_velocity,shoulder_lift_joint_effort,elbow_joint_position,elbow_joint_velocity,elbow_joint_effort,wrist_1_joint_position,wrist_1_joint_velocity,wrist_1_joint_effort,wrist_2_joint_position,wrist_2_joint_velocity,wrist_2_joint_effort,wrist_3_joint_position,wrist_3_joint_velocity,wrist_3_joint_effort,shoulder_pan_joint_position,shoulder_pan_joint_velocity,shoulder_pan_joint_effort
223.0,249.0,0.1735,0.9021,9.5839,-0.0367,0.0279,-0.1184,-1.9321814976134242,0.0,3.518155336380005,-1.637308955192566,-0.0,1.981798529624939,5.0111050484474084,0.0,0.28240859508514404,-1.5456741491900843,-0.0,-0.009451275691390038,0.021140100434422493,0.0,-0.0006711401510983706,1.0358977317810059,0.0,-0.012357722967863083
223.0,249.0,0.1735,0.9021,9.5839,-0.0367,0.0279,-0.1184,-1.9322215519347132,0.0,3.5621347427368164,-1.6373287439346313,-0.0,2.0216424465179443,5.011101025133886,0.0,0.2895481288433075,-1.5456741491900843,-0.0,-0.018597029149532318,0.021019885316491127,0.0,-0.011580316349864006,1.03590989112854,0.0,-0.016432028263807297
223.0,249.0,0.1735,0.9021,9.5839,-0.0367,0.0279,-0.1184,-1.9321814976134242,0.0,3.486922264099121,-1.637300968170166,-0.0,2.00752854347229,5.011101025133886,0.0,0.2712402045726776,-1.5456627050982874,-0.0,-0.004653528332710266,0.021100012585520744,0.0,-0.002252214588224888,1.0358694791793823,0.0,-0.005148406606167555
223.0,249.0,0.1735,0.9021,9.5839,-0.0367,0.0279,-0.1184,-1.932265420953268,0.0,3.5508227348327637,-1.6372885704040527,-0.0,2.0260066986083984,5.011113244086065,0.0,0.2608107030391693,-1.5456660429583948,-0.0,-0.0016891676932573318,0.021064067259430885,0.0,-0.005208452697843313,1.0359137058258057,0.0,-0.05712370574474335
223.0,249.0,0.1735,0.9021,9.5839,-0.0367,0.0279,-0.1184,-1.9321814976134242,0.0,3.5348002910614014,-1.6372686624526978,-0.0,2.018310070037842,5.011093127518453,0.0,0.2743057608604431,-1.545666519795553,-0.0,-0.008134128525853157,0.021091938018798828,0.0,-0.004677363205701113,1.0359582901000977,0.0,0.005319585092365742
223.0,249.0,0.1735,0.9021,9.5839,-0.0367,0.0279,-0.1184,-1.9322172604002894,0.0,3.5416769981384277,-1.6372369527816772,-0.0,2.011782169342041,5.0111489472682855,0.0,0.27400216460227966,-1.545694653187887,-0.0,-0.0213322676718235,0.021116018295288086,0.0,-0.0018914365209639072,1.0359059572219849,0.0,0.0282207690179348
223.0,249.0,0.1735,0.9021,9.5839,-0.0367,0.0279,-0.1184,-1.9322134457030238,0.0,3.5832138061523438,-1.6372807025909424,-0.0,2.041715383529663,5.011129128723898,0.0,0.28256601095199585,-1.5456302801715296,-0.0,-0.01770423725247383,0.021104056388139725,0.0,0.0028712181374430656,1.0359259843826294,0.0,0.005071388557553291
223.0,249.0,0.1735,0.9021,9.5839,-0.0367,0.0279,-0.1184,-1.9322334728636683,0.0,3.53493332862854,-1.637312889099121,-0.0,2.018526554107666,5.011133092432775,0.0,0.27593302726745605,-1.5456140677081507,-0.0,-0.00432718638330698,0.021124158054590225,0.0,0.017879469320178032,1.0359059572219849,0.0,-0.0047080498188734055
223.0,249.0,0.1735,0.9021,9.5839,-0.0367,0.0279,-0.1184,-1.932185789147848,0.0,3.563032627105713,-1.6372970342636108,-0.0,1.980269193649292,5.011097091227331,0.0,0.27416548132896423,-1.5456541220294397,-0.0,-0.011309705674648285,0.021084045991301537,0.0,0.01194516010582447,1.0358895063400269,0.0,0.051629211753606796
222.0,234.0,0.2512,0.8883,9.5067,-0.0385,0.022,-0.1132,-1.9321814976134242,0.0,3.53159236907959,-1.637312412261963,-0.0,2.0218515396118164,5.011097091227331,0.0,0.2871387004852295,-1.5456422011004847,-0.0,-0.010256287641823292,0.021068112924695015,0.0,-0.012453914619982243,1.0359059572219849,0.0,-0.05507080629467964
222.0,234.0,0.2512,0.8883,9.5067,-0.0385,0.022,-0.1132,-1.9322215519347132,0.0,3.5652780532836914,-1.6373322010040283,-0.0,1.981581687927246,5.0111050484474084,0.0,0.2845538258552551,-1.5456741491900843,-0.0,-0.02387750893831253,0.021064087748527527,0.0,-0.006422455422580242,1.0358654260635376,0.0,0.0026736464351415634
222.0,234.0,0.2512,0.8883,9.5067,-0.0385,0.022,-0.1132,-1.932197710076803,0.0,3.518864631652832,-1.637300968170166,-0.0,2.0311789512634277,5.011097150831976,0.0,0.27672335505485535,-1.5456584135638636,-0.0,-0.027140432968735695,0.021031973883509636,0.0,0.005036219023168087,1.0359017848968506,0.0,-0.010896679945290089
222.0,234.0,0.2512,0.8883,9.5067,-0.0385,0.022,-0.1132,-1.9322215519347132,0.0,3.5290274620056152,-1.6372931003570557,-0.0,2.042189121246338,5.011137085943975,0.0,0.2794745862483978,-1.5457070509540003,-0.0,-0.00756865693256259,0.021100040525197983,0.0,-0.0028693503700196743,1.0359296798706055,0.0,-0.027620695531368256
222.0,234.0,0.2512,0.8883,9.5067,-0.0385,0.022,-0.1132,-1.9322253666319789,0.0,3.5079233646392822,-1.6372766494750977,-0.0,2.0244221687316895,5.011141049652853,0.0,0.27037546038627625,-1.545654598866598,-0.0,-0.026460953056812286,0.021091938018798828,0.0,0.008972161449491978,1.0359214544296265,0.0,-0.03792620822787285
222.0,234.0,0.2512,0.8883,9.5067,-0.0385,0.022,-0.1132,-1.932169099847311,0.0,3.575366973876953,-1.6373287439346313,-0.0,1.9984910488128662,5.01110931017951,0.0,0.27320170402526855,-1.5456541220294397,-0.0,-0.01443706825375557,0.02104414813220501,0.0,-0.0061836931854486465,1.0359177589416504,0.0,0.00556102953851223
222.0,234.0,0.2512,0.8883,9.5067,-0.0385,0.022,-0.1132,-1.9321896038451136,0.0,3.5904719829559326,-1.6372970342636108,-0.0,2.0412795543670654,5.011073010950842,0.0,0.27737268805503845,-1.5456584135638636,-0.0,-0.013828031718730927,0.021087829023599625,0.0,-0.02098878100514412,1.0358893871307373,0.0,-0.06148651987314224
222.0,234.0,0.2512,0.8883,9.5067,-0.0385,0.022,-0.1132,-1.9322411022581996,0.0,3.5118021965026855,-1.637340784072876,-0.0,2.0137827396392822,5.011141049652853,0.0,0.28213757276535034,-1.5456464926349085,-0.0,-0.011607600376009941,0.021152231842279434,0.0,0.010858838446438313,1.0359177589416504,0.0,-0.00652241799980402
222.0,234.0,0.2512,0.8883,9.5067,-0.0385,0.022,-0.1132,-1.9321814976134242,0.0,3.504349708557129,-1.6373366117477417,-0.0,2.044734001159668,5.011105376272955,0.0,0.26169562339782715,-1.5456503073321741,-0.0,-0.012706782668828964,0.021104006096720695,0.0,-0.006976401433348656,1.0358977317810059,0.0,-0.005964287091046572
222.0,234.0,0.2512,0.8883,9.5067,-0.0385,0.022,-0.1132,-1.9321896038451136,0.0,3.555492401123047,-1.6373049020767212,-0.0,1.9884538650512695,5.011137085943975,0.0,0.2775513231754303,-1.5456822554217737,-0.0,-0.023106688633561134,0.021067896857857704,0.0,-0.009910216554999352,1.0358936786651611,0.0,-0.0099601149559021
222.0,234.0,0.2512,0.8883,9.5067,-0.0385,0.022,-0.1132,-1.9322015247740687,0.0,3.6020405292510986,-1.637308955192566,-0.0,2.022825241088867,5.011113005667486,0.0,0.27072855830192566,-1.5456865469561976,-0.0,-0.00881213042885065,0.021108120679855347,0.0,0.003830252680927515,1.0359054803848267,0.0,0.01689193770289421
222.0,234.0,0.2512,0.8883,9.5067,-0.0385,0.022,-0.1132,-1.9322053394713343,0.0,3.5148987770080566,-1.637324333190918,-0.0,2.040292263031006,5.011093127518453,0.0,0.288541704416275,-1.545682732258932,-0.0,-0.019326036795973778,0.02110406570136547,0.0,0.006772207096219063,1.0358936786651611,0.0,0.011148057878017426
222.0,234.0,0.2512,0.8883,9.5067,-0.0385,0.022,-0.1132,-1.9321934185423792,0.0,3.5734786987304688,-1.6372885704040527,-0.0,1.968336820602417,5.011113005667486,0.0,0.280299574136734,-1.5456507841693323,-0.0,-0.0018856616225093603,0.02110006846487522,0.0,-0.0006880552973598242,1.0359379053115845,0.0,-0.007833322510123253
222.0,234.0,0.2512,0.8883,9.5067,-0.0385,0.022,-0.1132,-1.9322334728636683,0.0,3.5350775718688965,-1.6372807025909424,-0.0,1.994767427444458,5.011152970581808,0.0,0.2740457057952881,-1.5456903616534632,-0.0,-0.017515892162919044,0.021104097366333008,0.0,-0.0020077519584447145,1.0359214544296265,0.0,-0.012936212122440338
222.0,234.0,0.2512,0.8883,9.5067,-0.0385,0.022,-0.1132,-1.932237287560934,0.0,3.5877485275268555,-1.637312889099121,-0.0,1.958404302597046,5.011121231108465,0.0,0.2718390226364136,-1.54567796388735,-0.0,-0.02395869791507721,0.02109994925558567,0.0,-0.005237441975623369,1.0359256267547607,0.0,-0.01970372535288334
222.0,234.0,0.2512,0.8883,9.5067,-0.0385,0.022,-0.1132,-1.9322096310057582,0.0,3.5251576900482178,-1.637300968170166,-0.0,2.00250244140625,5.011108982353964,0.0,0.27096831798553467,-1.5456746260272425,-0.0,-0.010940573178231716,0.021015817299485207,0.0,-0.005502868443727493,1.035909652709961,0.0,0.03341994807124138
222.0,234.0,0.2512,0.8883,9.5067,-0.0385,0.022,-0.1132,-1.9322053394713343,0.0,3.550734281539917,-1.6373287439346313,-0.0,1.9611952304840088,5.011133062630453,0.0,0.27980974316596985,-1.5456541220294397,-0.0,-0.00926008727401495,0.021095942705869675,0.0,0.0012936790008097887,1.0358977317810059,0.0,0.041502419859170914
233.0,232.0,0.1836,0.8722,9.545,-0.0379,0.0203,-0.1139,-1.9322291813292445,0.0,3.5098063945770264,-1.637340784072876,-0.0,1.9951801300048828,5.011101025133886,7.808309732126872e-08,0.2632204592227936,-1.545694653187887,-0.0,-0.008646087720990181,0.02107599936425686,0.0,0.001878762966953218,1.0359545946121216,0.0,-0.02389342524111271
233.0,232.0,0.1836,0.8722,9.545,-0.0379,0.0203,-0.1139,-1.932197710076803,0.0,3.5489439964294434,-1.6372931003570557,-0.0,2.0122063159942627,5.011141049652853,3.328804731861368e-10,0.27758920192718506,-1.545678440724508,-0.0,0.004871365614235401,0.021064134314656258,0.0,0.009924804791808128,1.0359742641448975,0.0,0.000924588181078434
233.0,232.0,0.1836,0.8722,9.545,-0.0379,0.0203,-0.1139,-1.9322453937926234,0.0,3.5303027629852295,-1.6372885704040527,-0.0,1.9763710498809814,5.011093127518453,9.265848586450728e-14,0.2771856188774109,-1.5456584135638636,-0.0,-0.004630930256098509,0.021084006875753403,0.0,0.0033407299779355526,1.035966396331787,0.0,-0.014389678835868835
233.0,232.0,0.1836,0.8722,9.545,-0.0379,0.0203,-0.1139,-1.9322172604002894,0.0,3.516930103302002,-1.6372965574264526,-0.0,2.009730815887451,5.011156904488363,2.5791832297815775e-17,0.2661789655685425,-1.5456703344928187,-0.0,0.0008884421549737453,0.021088052541017532,0.0,0.0069431825540959835,1.0358773469924927,0.0,-0.031868841499090195
233.0,232.0,0.1836,0.8722,9.545,-0.0379,0.0203,-0.1139,-1.932197710076803,0.0,3.542113780975342,-1.6373287439346313,-0.0,2.0064563751220703,5.011133092432775,7.179252401538313e-21,0.28526824712753296,-1.5456746260272425,-0.0,-0.010287906974554062,0.021095959469676018,0.0,0.0017265297938138247,1.035909652709961,0.0,-0.02394978702068329
233.0,232.0,0.1836,0.8722,9.545,-0.0379,0.0203,-0.1139,-1.9321896038451136,0.0,3.5603437423706055,-1.6372607946395874,-0.0,2.0272769927978516,5.0111132738883875,3.060627904330637e-23,0.27032527327537537,-1.5456584135638636,-0.0,-0.00586166325956583,0.021048180758953094,0.0,0.0005606804043054581,1.0358977317810059,0.0,-0.011242700740695
233.0,232.0,0.1836,0.8722,9.545,-0.0379,0.0203,-0.1139,-1.9322253666319789,0.0,3.542482852935791,-1.6372970342636108,-0.0,2.0124568939208984,5.011093127518453,8.519369597924404e-27,0.2643861472606659,-1.5456984678851526,-0.0,-0.02096027135848999,0.021064091473817825,0.0,0.006371296476572752,1.0359337329864502,0.0,0.023612909018993378
233.0,232.0,0.1836,0.8722,9.545,-0.0379,0.0203,-0.1139,-1.9321571789183558,0.0,3.5355687141418457,-1.6373326778411865,-0.0,2.0205001831054688,5.0111132738883875,2.3713977286030996e-30,0.2824840545654297,-1.545638386403219,-0.0,-0.02269701287150383,0.021015945822000504,0.0,-0.010392067022621632,1.0359100103378296,0.0,0.0032149218022823334
233.0,232.0,0.1836,0.8722,9.545,-0.0379,0.0203,-0.1139,-1.932249208489889,0.0,3.484609842300415,-1.6372885704040527,-0.0,2.017739772796631,5.011152970581808,6.600871436784954e-34,0.2858184278011322,-1.5456622282611292,-0.0,-0.014047032222151756,0.021120214834809303,0.0,-0.005835982039570808,1.0358773469924927,0.0,-0.030440887436270714
233.0,232.0,0.1836,0.8722,9.545,-0.0379,0.0203,-0.1139,-1.932185789147848,0.0,3.529971122741699,-1.637316346168518,-0.0,2.0434224605560303,5.011137085943975,2.8140550210911744e-36,0.28354138135910034,-1.5456903616534632,-0.0,-0.007814979180693626,0.021112188696861267,0.0,-0.014746894128620625,1.0358936786651611,0.0,-0.020566778257489204
233.0,232.0,0.1836,0.8722,9.545,-0.0379,0.0203,-0.1139,-1.9322334728636683,0.0,3.5576772689819336,-1.6372846364974976,-0.0,1.9881389141082764,5.011133062630453,7.833020194836792e-40,0.2793657183647156,-1.545666519795553,-0.0,-0.01988855190575123,0.021099988371133804,0.0,-0.004011586308479309,1.0359585285186768,0.0,-0.0388474315404892
233.0,232.0,0.1836,0.8722,9.545,-0.0379,0.0203,-0.1139,-1.932197710076803,0.0,3.5156044960021973,-1.637300968170166,-0.0,1.9820044040679932,5.011152970581808,2.1860256043467146e-43,0.27971151471138,-1.5456746260272425,-0.0,-0.02452150732278824,0.021088004112243652,0.0,0.005046343430876732,1.0359337329864502,0.0,-0.02202066406607628
233.0,232.0,0.1836,0.8722,9.545,-0.0379,0.0203,-0.1139,-1.932249208489889,0.0,3.5362958908081055,-1.6372846364974976,-0.0,2.025773048400879,5.011144983559408,1.401298464324817e-45,0.27544301748275757,-1.5456541220294397,-0.0,-0.018181733787059784,0.021056000143289566,0.0,-0.0036623559426516294,1.0359504222869873,0.0,0.021688370034098625
233.0,232.0,0.1836,0.8722,9.545,-0.0379,0.0203,-0.1139,-1.9322096310057582,0.0,3.566627025604248,-1.6372766494750977,-0.0,2.003770351409912,5.011145043164053,0.0,0.26680105924606323,-1.5456422011004847,-0.0,-0.015939980745315552,0.021088028326630592,0.0,0.005080137401819229,1.0358977317810059,0.0,0.0021008141338825226
233.0,232.0,0.1836,0.8722,9.545,-0.0379,0.0203,-0.1139,-1.9321733913817347,0.0,3.5377469062805176,-1.6373287439346313,-0.0,2.029329776763916,5.011137085943975,0.0,0.2748878300189972,-1.5456984678851526,-0.0,-0.026735760271549225,0.02109593152999878,0.0,-0.0018957399297505617,1.0358936786651611,0.0,0.0306636244058609
233.0,232.0,0.1836,0.8722,9.545,-0.0379,0.0203,-0.1139,-1.9322096310057582,0.0,3.5862464904785156,-1.6373049020767212,-0.0,2.030702590942383,5.011085170298376,0.0,0.28267014026641846,-1.5456584135638636,-0.0,-0.025683103129267693,0.02108786441385746,0.0,-0.011207382194697857,1.0359337329864502,0.0,-0.006749290972948074
220.0,215.0,0.2183,0.853,9.4863,-0.0418,0.0209,-0.1145,-1.932169576684469,0.0,3.5547101497650146,-1.6372970342636108,-0.0,1.9903638362884521,5.0111132738883875,0.0,0.28288447856903076,-1.5456221739398401,-0.0,-0.010375885292887688,0.021071918308734894,0.0,-0.02205069549381733,1.0359256267547607,0.0,-0.004531250800937414
220.0,215.0,0.2183,0.853,9.4863,-0.0418,0.0209,-0.1145,-1.9321814976134242,0.0,3.5754919052124023,-1.637308955192566,-0.0,1.9801502227783203,5.011093127518453,0.0,0.2698110044002533,-1.545694653187887,-0.0,-0.01361917145550251,0.021076012402772903,0.0,-0.007147888652980328,1.0359337329864502,0.0,0.01842712238430977
220.0,215.0,0.2183,0.853,9.4863,-0.0418,0.0209,-0.1145,-1.932261129418844,0.0,3.5202627182006836,-1.6372686624526978,-0.0,2.030060291290283,5.011133062630453,0.0,0.26853060722351074,-1.545694653187887,-0.0,-0.013431655243039131,0.02109994925558567,0.0,0.018953995779156685,1.0359337329864502,0.0,-0.02262379787862301
220.0,215.0,0.2183,0.853,9.4863,-0.0418,0.0209,-0.1145,-1.9322291813292445,0.0,3.5253469944000244,-1.6373203992843628,-0.0,1.975541591644287,5.011100995331564,0.0,0.2820255160331726,-1.5456746260272425,-0.0,-0.01001615822315216,0.02104419469833374,0.0,-0.0013950202846899629,1.0359137058258057,0.0,-0.008681360632181168
220.0,215.0,0.2183,0.853,9.4863,-0.0418,0.0209,-0.1145,-1.9321814976134242,0.0,3.5465898513793945,-1.637312412261963,-0.0,2.0293312072753906,5.0111251948173425,0.0,0.2844386398792267,-1.5456302801715296,-0.0,-0.009297104552388191,0.021103953942656517,0.0,-0.006355066318064928,1.0359054803848267,0.0,-0.008444257080554962
220.0,215.0,0.2183,0.853,9.4863,-0.0418,0.0209,-0.1145,-1.9322134457030238,0.0,3.530362129211426,-1.6373525857925415,-0.0,2.0281453132629395,5.011133092432775,0.0,0.2799299955368042,-1.5456503073321741,-0.0,-0.01594306156039238,0.0210560355335474,0.0,-0.0012694902252405882,1.0358977317810059,0.0,-0.010327656753361225
220.0,215.0,0.2183,0.853,9.4863,-0.0418,0.0209,-0.1145,-1.9322096310057582,0.0,3.5653247833251953,-1.637308955192566,-0.0,2.0092248916625977,5.011152970581808,0.0,0.28111782670021057,-1.5456865469561976,-0.0,-0.013412336818873882,0.02104818820953369,0.0,-0.0009190067066811025,1.0358854532241821,0.0,0.007515328004956245
220.0,215.0,0.2183,0.853,9.4863,-0.0418,0.0209,-0.1145,-1.9322453937926234,0.0,3.5432305335998535,-1.6373283863067627,-0.0,2.0107178688049316,5.011085170298376,0.0,0.26745471358299255,-1.5456984678851526,-0.0,-0.020894905552268028,0.02104818820953369,0.0,-0.012593306601047516,1.0358895063400269,0.0,0.02072848379611969
220.0,215.0,0.2183,0.853,9.4863,-0.0418,0.0209,-0.1145,-1.9322334728636683,0.0,3.5458717346191406,-1.6372926235198975,-0.0,2.0014705657958984,5.0111251948173425,0.0,0.27534765005111694,-1.5456302801715296,-0.0,-0.019841471686959267,0.02108001708984375,0.0,-0.013176560401916504,1.0358654260635376,0.0,0.024646874517202377
220.0,215.0,0.2183,0.853,9.4863,-0.0418,0.0209,-0.1145,-1.9322334728636683,0.0,3.5821545124053955,-1.6372807025909424,-0.0,2.0229263305664062,5.011113005667486,0.0,0.284071683883667,-1.5456503073321741,-0.0,-0.005803885404020548,0.021091938018798828,0.0,-0.0018872746732085943,1.0358694791793823,0.0,0.024761930108070374
220.0,215.0,0.2183,0.853,9.4863,-0.0418,0.0209,-0.1145,-1.9322134457030238,0.0,3.5700488090515137,-1.6373326778411865,-0.0,1.9816670417785645,5.011093097716131,0.0,0.2774065136909485,-1.5456422011004847,-0.0,-0.008101384155452251,0.02106010913848877,0.0,-0.004812943749129772,1.0358773469924927,0.0,-0.024105874821543694
220.0,215.0,0.2183,0.853,9.4863,-0.0418,0.0209,-0.1145,-1.9322053394713343,0.0,3.5185317993164062,-1.6372970342636108,-0.0,2.0022971630096436,5.01113714554862,0.0,0.2688436210155487,-1.5456503073321741,-0.0,-0.015157348476350307,0.021124284714460373,0.0,0.0002034609206020832,1.0359177589416504,0.0,-0.020717427134513855
220.0,215.0,0.2183,0.853,9.4863,-0.0418,0.0209,-0.1145,-1.9322134457030238,0.0,3.5369229316711426,-1.6372931003570557,-0.0,2.0416512489318848,5.011117237597265,0.0,0.2672852873802185,-1.5456422011004847,-0.0,-0.020555546507239342,0.021027985960245132,0.0,0.002061384031549096,1.0358773469924927,0.0,0.005334383808076382
220.0,215.0,0.2183,0.853,9.4863,-0.0418,0.0209,-0.1145,-1.9321934185423792,0.0,3.5441765785217285,-1.6373287439346313,-0.0,1.9707804918289185,5.011113244086065,0.0,0.2694534659385681,-1.5456703344928187,-0.0,-0.01502587366849184,0.021099917590618134,0.0,0.00531625933945179,1.0358654260635376,0.0,0.0014205193147063255
220.0,215.0,0.2183,0.853,9.4863,-0.0418,0.0209,-0.1145,-1.9322053394713343,0.0,3.5338103771209717,-1.6372647285461426,-0.0,2.0656661987304688,5.01111330369071,0.0,0.2735927104949951,-1.5456989447223108,-0.0,-0.0075603509321808815,0.021116193383932114,0.0,-0.0012688738061115146,1.0359296798706055,0.0,-0.04492391273379326
220.0,215.0,0.2183,0.853,9.4863,-0.0418,0.0209,-0.1145,-1.9322253666319789,0.0,3.5271129608154297,-1.6372686624526978,-0.0,2.003981113433838,5.0111050484474084,0.0,0.2681594491004944,-1.545626465474264,-0.0,-0.01665196567773819,0.021004216745495796,0.0,-0.0069934045895934105,1.0358977317810059,0.0,-0.02065161243081093
220.0,215.0,0.2183,0.853,9.4863,-0.0418,0.0209,-0.1145,-1.9322134457030238,0.0,3.5352895259857178,-1.6372727155685425,-0.0,2.0317249298095703,5.0111132738883875,0.0,0.28179192543029785,-1.5456584135638636,-0.0,-0.01335335336625576,0.021095938980579376,0.0,-0.004081303253769875,1.0359423160552979,0.0,0.021196894347667694
223.0,236.0,0.3129,0.8746,9.3362,-0.0371,0.0281,-0.1141,-1.9322053394713343,0.0,3.550428867340088,-1.6373202800750732,-0.0,2.0244839191436768,5.0111132738883875,0.0,0.2848843038082123,-1.5456584135638636,-0.0,-0.012932590208947659,0.021084042266011238,0.0,-0.0036739036440849304,1.0359177589416504,0.0,-0.021733196452260017
223.0,236.0,0.3129,0.8746,9.3362,-0.0371,0.0281,-0.1141,-1.9322053394713343,0.0,3.506129264831543,-1.637272596359253,-0.0,2.021696090698242,5.011093097716131,0.0,0.26891106367111206,-1.5456584135638636,-0.0,-0.018430594354867935,0.021076034754514694,0.0,0.014447364956140518,1.0359137058258057,0.0,0.04281870648264885
223.0,236.0,0.3129,0.8746,9.3362,-0.0371,0.0281,-0.1141,-1.932197710076803,0.0,3.541848659515381,-1.6373049020767212,-0.0,1.987060546875,5.0111050484474084,0.0,0.27134987711906433,-1.545666519795553,-0.0,-0.019653771072626114,0.02104799821972847,0.0,-0.005736480932682753,1.0358814001083374,0.0,0.0002914443612098694
223.0,236.0,0.3129,0.8746,9.3362,-0.0371,0.0281,-0.1141,-1.9322291813292445,0.0,3.493251085281372,-1.6373323202133179,-0.0,2.0180790424346924,5.0111132738883875,0.0,0.27533507347106934,-1.5456422011004847,-0.0,-0.005644281394779682,0.021087877452373505,0.0,-0.001976190134882927,1.035909652709961,0.0,0.027106301859021187
223.0,236.0,0.3129,0.8746,9.3362,-0.0371,0.0281,-0.1141,-1.932237287560934,0.0,3.490623950958252,-1.6373406648635864,-0.0,2.0146570205688477,5.01112516501502,0.0,0.2778877019882202,-1.5456541220294397,-0.0,-0.01257902942597866,0.021095970645546913,0.0,-0.011047830805182457,1.0359419584274292,0.0,0.025157051160931587
223.0,236.0,0.3129,0.8746,9.3362,-0.0371,0.0281,-0.1141,-1.9322334728636683,0.0,3.5215675830841064,-1.6372970342636108,-0.0,2.047241687774658,5.0111132738883875,0.0,0.2723100483417511,-1.5456503073321741,-0.0,-0.012377146631479263,0.021064113825559616,0.0,0.0019302135333418846,1.0359177589416504,0.0,-0.035792745649814606
223.0,236.0,0.3129,0.8746,9.3362,-0.0371,0.0281,-0.1141,-1.9322453937926234,0.0,3.519721031188965,-1.6373049020767212,-0.0,2.0258240699768066,5.011125224619665,0.0,0.2807821035385132,-1.5456064383136194,-0.0,-0.00011772545985877514,0.02108786441385746,0.0,0.007005565334111452,1.0359503030776978,0.0,0.0009107645601034164
223.0,236.0,0.3129,0.8746,9.3362,-0.0371,0.0281,-0.1141,-1.9321609936156214,0.0,3.524308443069458,-1.6372885704040527,-0.0,2.0184617042541504,5.0110970614250085,0.0,0.26842087507247925,-1.5456464926349085,-0.0,-0.018331075087189674,0.02108389511704445,0.0,-0.00433379365131259,1.0358854532241821,0.0,0.004736565984785557
223.0,236.0,0.3129,0.8746,9.3362,-0.0371,0.0281,-0.1141,-1.9322015247740687,0.0,3.538102626800537,-1.6372970342636108,-0.0,2.0069949626922607,5.011172878533163,0.0,0.2756515145301819,-1.5456746260272425,-0.0,-0.008726641535758972,0.021028168499469757,0.0,-0.004749087151139975,1.0359137058258057,0.0,-0.027469228953123093
223.0,236.0,0.3129,0.8746,9.3362,-0.0371,0.0281,-0.1141,-1.9322411022581996,0.0,3.5019657611846924,-1.6372250318527222,-0.0,2.0021188259124756,5.011176872044363,0.0,0.2905627489089966,-1.5456703344928187,-0.0,-0.010661589913070202,0.0211161058396101,0.0,0.007891764864325523,1.035946249961853,0.0,0.040118198841810226
223.0,236.0,0.3129,0.8746,9.3362,-0.0371,0.0281,-0.1141,-1.9322535000243128,0.0,3.5398969650268555,-1.637312412261963,-0.0,2.0229177474975586,5.0110851404960535,0.0,0.2815152704715729,-1.5456541220294397,-0.0,-0.008341444656252861,0.02114001102745533,0.0,0.008639770559966564,1.0359017848968506,0.0,-0.024730153381824493
223.0,236.0,0.3129,0.8746,9.3362,-0.0371,0.0281,-0.1141,-1.932197710076803,0.0,3.5357842445373535,-1.637304425239563,-0.0,2.012087821960449,5.01114501336173,0.0,0.2900593876838684,-1.5456507841693323,-0.0,-0.010818200185894966,0.021052034571766853,0.0,-0.011961673386394978,1.0359017848968506,0.0,-0.013019710779190063
223.0,236.0,0.3129,0.8746,9.3362,-0.0371,0.0281,-0.1141,-1.9322053394713343,0.0,3.5593419075012207,-1.637316346168518,-0.0,1.9883278608322144,5.011125224619665,0.0,0.2845277786254883,-1.5457313696490687,-0.0,-0.011714737862348557,0.02106023207306862,0.0,0.004878233186900616,1.035958170890808,0.0,-0.00441021891310811
223.0,236.0,0.3129,0.8746,9.3362,-0.0371,0.0281,-0.1141,-1.9322134457030238,0.0,3.514652729034424,-1.6372846364974976,-0.0,1.9709134101867676,5.011121231108465,0.0,0.272662490606308,-1.545710865651266,-0.0,-0.012983350083231926,0.021084070205688477,0.0,-0.004237471614032984,1.0359017848968506,0.0,-0.04101067781448364
223.0,236.0,0.3129,0.8746,9.3362,-0.0371,0.0281,-0.1141,-1.9322215519347132,0.0,3.5371665954589844,-1.6373049020767212,-0.0,2.010728597640991,5.011061030417242,0.0,0.27450674772262573,-1.5456503073321741,-0.0,-0.021700900048017502,0.021083999425172806,0.0,-0.008798971772193909,1.0359256267547607,0.0,0.020037205889821053
223.0,236.0,0.3129,0.8746,9.3362,-0.0371,0.0281,-0.1141,-1.9322096310057582,0.0,3.5653982162475586,-1.6372766494750977,-0.0,2.02169132232666,5.01112516501502,0.0,0.2859579920768738,-1.5456865469561976,-0.0,-0.014789462089538574,0.021076155826449394,0.0,0.00658248970285058,1.0359379053115845,0.0,0.011026035994291306
223.0,236.0,0.3129,0.8746,9.3362,-0.0371,0.0281,-0.1141,-1.932237287560934,0.0,3.5528972148895264,-1.6372686624526978,-0.0,2.018099308013916,5.011117207794943,0.0,0.2745307683944702,-1.5457027594195765,-0.0,0.008903316222131252,0.02109590731561184,0.0,-0.013507219031453133,1.0359296798706055,0.0,0.0014378596097230911
223.0,227.0,0.2441,0.8279,9.5145,-0.0354,0.0228,-0.1167,-1.9322291813292445,0.0,3.5676188468933105,-1.6372846364974976,-0.0,1.982561469078064,5.011121231108465,0.0,0.27843573689460754,-1.5456627050982874,-0.0,-0.012125203385949135,0.021060124039649963,0.0,-0.0007531492155976593,1.0359017848968506,0.0,-0.019357947632670403
223.0,227.0,0.2441,0.8279,9.5145,-0.0354,0.0228,-0.1167,-1.9322215519347132,0.0,3.540693521499634,-1.6372926235198975,-0.0,2.0051050186157227,5.011129128723898,0.0,0.273997962474823,-1.5456584135638636,-0.0,-0.006777876988053322,0.021116085350513458,0.0,-0.003474573837593198,1.0359781980514526,0.0,-0.002626031171530485
223.0,227.0,0.2441,0.8279,9.5145,-0.0354,0.0228,-0.1167,-1.932237287560934,0.0,3.5118627548217773,-1.637308955192566,-0.0,1.9914685487747192,5.011117207794943,0.0,0.2683001160621643,-1.545610253010885,-0.0,0.0005113673396408558,0.02109990082681179,0.0,-0.00968520250171423,1.0359296798706055,0.0,0.03260721266269684
223.0,227.0,0.2441,0.8279,9.5145,-0.0354,0.0228,-0.1167,-1.9322334728636683,0.0,3.520190715789795,-1.6372970342636108,-0.0,2.01904559135437,5.01110132315711,0.0,0.28043609857559204,-1.5456464926349085,-0.0,-0.02787214145064354,0.021087877452373505,0.0,-0.0026954389177262783,1.0359214544296265,0.0,0.012292392551898956
223.0,227.0,0.2441,0.8279,9.5145,-0.0354,0.0228,-0.1167,-1.9322096310057582,0.0,3.491274833679199,-1.6372885704040527,-0.0,2.0022358894348145,5.011117207794943,0.0,0.278098464012146,-1.545610253010885,-0.0,-0.017920665442943573,0.021068096160888672,0.0,-0.007840342819690704,1.0358731746673584,0.0,0.022525165230035782
223.0,227.0,0.2441,0.8279,9.5145,-0.0354,0.0228,-0.1167,-1.9322291813292445,0.0,3.5568578243255615,-1.6372931003570557,-0.0,1.9907621145248413,5.011113244086065,0.0,0.2812444269657135,-1.545678440724508,-0.0,-0.005333594046533108,0.02107604779303074,0.0,-0.0031934825237840414,1.0359059572219849,0.0,0.001080164685845375
223.0,227.0,0.2441,0.8279,9.5145,-0.0354,0.0228,-0.1167,-1.9322134457030238,0.0,3.5179824829101562,-1.6373367309570312,-0.0,2.014589786529541,5.011113035469808,0.0,0.28521502017974854,-1.5456422011004847,-0.0,-0.008375097066164017,0.021095924079418182,0.0,-0.00426387507468462,1.0359174013137817,0.0,-0.0006692046299576759
223.0,227.0,0.2441,0.8279,9.5145,-0.0354,0.0228,-0.1167,-1.9322096310057582,0.0,3.558603048324585,-1.637324333190918,-0.0,1.9963377714157104,5.011137085943975,0.0,0.271354615688324,-1.5456503073321741,-0.0,-0.014140389859676361,0.021116085350513458,0.0,0.0006118384189903736,1.0358896255493164,0.0,0.00573295634239912
223.0,227.0,0.2441,0.8279,9.5145,-0.0354,0.0228,-0.1167,-1.9322053394713343,0.0,3.5504255294799805,-1.6373447179794312,-0.0,2.054738998413086,5.011148977070608,0.0,0.28284430503845215,-1.545626465474264,-0.0,-0.020960386842489243,0.021064074710011482,0.0,-0.008846419863402843,1.0359137058258057,0.0,-0.03353374823927879
223.0,227.0,0.2441,0.8279,9.5145,-0.0354,0.0228,-0.1167,-1.932197710076803,0.0,3.547107219696045,-1.637324333190918,-0.0,2.029435396194458,5.0111092803771875,0.0,0.27255794405937195,-1.545638386403219,-0.0,-0.02280821092426777,0.021016184240579605,0.0,-0.010659003630280495,1.035946249961853,0.0,-0.026238856837153435
223.0,227.0,0.2441,0.8279,9.5145,-0.0354,0.0228,-0.1167,-1.9322134457030238,0.0,3.483713150024414,-1.637324333190918,-0.0,2.0379021167755127,5.011133092432775,0.0,0.2706100046634674,-1.5456584135638636,-0.0,-0.018888302147388458,0.021112123504281044,0.0,-0.0076460568234324455,1.0358814001083374,0.0,0.05153970792889595
223.0,227.0,0.2441,0.8279,9.5145,-0.0354,0.0228,-0.1167,-1.9322096310057582,0.0,3.5462770462036133,-1.637316346168518,-0.0,2.0489253997802734,5.011113244086065,0.0,0.2794729173183441,-1.5456903616534632,-0.0,-0.016119474545121193,0.021087877452373505,0.0,-0.007429223507642746,1.0359177589416504,0.0,-0.014675415121018887
223.0,227.0,0.2441,0.8279,9.5145,-0.0354,0.0228,-0.1167,-1.9322096310057582,0.0,3.475419044494629,-1.6372766494750977,-0.0,1.9818503856658936,5.0111251948173425,0.0,0.28461241722106934,-1.5456584135638636,-0.0,-0.008279474452137947,0.021083982661366463,0.0,-0.01859685219824314,1.0358936786651611,0.0,-0.021292390301823616
223.0,227.0,0.2441,0.8279,9.5145,-0.0354,0.0228,-0.1167,-1.9322096310057582,0.0,3.523500919342041,-1.637308955192566,-0.0,2.020170211791992,5.01112516501502,0.0,0.27109724283218384,-1.545678440724508,-0.0,-0.025764990597963333,0.021119987592101097,0.0,0.0033340035006403923,1.0359177589416504,0.0,-0.008208468556404114
223.0,227.0,0.2441,0.8279,9.5145,-0.0354,0.0228,-0.1167,-1.9322096310057582,0.0,3.5132482051849365,-1.6373486518859863,-0.0,2.0391154289245605,5.011141079455175,0.0,0.27816787362098694,-1.545610253010885,-0.0,-0.013034189119935036,0.02106013335287571,0.0,0.007983670569956303,1.0358936786651611,0.0,0.03472529724240303
223.0,227.0,0.2441,0.8279,9.5145,-0.0354,0.0228,-0.1167,-1.9322172604002894,0.0,3.541867256164551,-1.6372846364974976,-0.0,1.9843356609344482,5.011129128723898,0.0,0.2776969075202942,-1.5456422011004847,-0.0,-0.015702607110142708,0.02107604779303074,0.0,0.005833438131958246,1.0359017848968506,0.0,0.04661336541175842
232.0,235.0,0.2459,0.8501,9.5617,-0.0376,0.0243,-0.1109,-1.932197710076803,0.0,3.542245388031006,-1.6373486518859863,-0.0,1.9832193851470947,5.011164891510763,0.0,0.28548121452331543,-1.545626465474264,-0.0,-0.015430163592100143,0.021064113825559616,0.0,-0.009764725342392921,1.0359137058258057,0.0,-0.015355182811617851
232.0,235.0,0.2459,0.8501,9.5617,-0.0376,0.0243,-0.1109,-1.9322096310057582,0.0,3.5169501304626465,-1.6373049020767212,-0.0,2.0020079612731934,5.011113214283743,0.0,0.28764408826828003,-1.5456345717059534,-0.0,-0.014783274382352829,0.021112067624926567,0.0,0.00710335373878479,1.0358375310897827,0.0,-0.016492776572704315
232.0,235.0,0.2459,0.8501,9.5617,-0.0376,0.0243,-0.1109,-1.9322735271849574,0.0,3.538835048675537,-1.6373326778411865,-0.0,1.9867594242095947,5.01110931017951,0.0,0.2740965783596039,-1.5456221739398401,-0.0,-0.014809530228376389,0.02114386484026909,0.0,-0.013518186286091805,1.0359177589416504,0.0,0.005920347757637501
232.0,235.0,0.2459,0.8501,9.5617,-0.0376,0.0243,-0.1109,-1.9322253666319789,0.0,3.5728814601898193,-1.6373084783554077,-0.0,2.0117716789245605,5.0111050484474084,0.0,0.2780194878578186,-1.5456584135638636,-0.0,-0.011414198204874992,0.021099861711263657,0.0,-0.006780457682907581,1.0358977317810059,0.0,-0.022825999185442924
232.0,235.0,0.2459,0.8501,9.5617,-0.0376,0.0243,-0.1109,-1.932261129418844,0.0,3.4974422454833984,-1.6372528076171875,-0.0,2.0149383544921875,5.011109250574865,0.0,0.27559512853622437,-1.545666519795553,-0.0,-0.010181618854403496,0.021036308258771896,0.0,-0.0027661521453410387,1.035954475402832,0.0,-0.0020527576562017202
232.0,235.0,0.2459,0.8501,9.5617,-0.0376,0.0243,-0.1109,-1.9322253666319789,0.0,3.5305652618408203,-1.6373406648635864,-0.0,2.0503780841827393,5.011137115746298,0.0,0.2843893766403198,-1.5456627050982874,-0.0,0.0013876832090318203,0.021052205935120583,0.0,-0.00921874213963747,1.0359017848968506,0.0,-0.05265040695667267
232.0,235.0,0.2459,0.8501,9.5617,-0.0376,0.0243,-0.1109,-1.9322172604002894,0.0,3.574096202850342,-1.6372686624526978,-0.0,1.9749174118041992,5.011113244086065,0.0,0.27773356437683105,-1.5456541220294397,-0.0,-0.007574161980301142,0.021104097366333008,0.0,0.0017520806286484003,1.0358654260635376,0.0,-0.034785524010658264
232.0,235.0,0.2459,0.8501,9.5617,-0.0376,0.0243,-0.1109,-1.9322573147215785,0.0,3.568258762359619,-1.6372970342636108,-0.0,2.0122902393341064,5.011105018645086,0.0,0.28510257601737976,-1.5456584135638636,-0.0,0.0029271775856614113,0.02106812782585621,0.0,-0.0042073908261954784,1.0359586477279663,0.0,0.010749949142336845
232.0,235.0,0.2459,0.8501,9.5617,-0.0376,0.0243,-0.1109,-1.9322172604002894,0.0,3.5569028854370117,-1.6372607946395874,6.879414260474448e-10,2.034292221069336,5.011157053499975,0.0,0.27108630537986755,-1.5456584135638636,-0.0,-0.011307716369628906,0.021044302731752396,0.0,-0.011229484342038631,1.0359017848968506,0.0,-0.03739349544048309
232.0,235.0,0.2459,0.8501,9.5617,-0.0376,0.0243,-0.1109,-1.9321896038451136,0.0,3.5610573291778564,-1.6373367309570312,1.6612974720320024e-15,2.0100088119506836,5.01114900687293,0.0,0.27659398317337036,-1.5456422011004847,-0.0,-0.010114673525094986,0.021087901666760445,0.0,-0.009354328736662865,1.0358654260635376,0.0,-0.0040204282850027084
232.0,235.0,0.2459,0.8501,9.5617,-0.0376,0.0243,-0.1109,-1.9322096310057582,0.0,3.5639870166778564,-1.637316346168518,4.0118380877856884e-21,2.020354747772217,5.011160897999563,0.0,0.2776933014392853,-1.5456903616534632,-0.0,-0.006592811085283756,0.021068096160888672,0.0,-0.011280717328190804,1.0359421968460083,0.0,0.008887196891009808
232.0,235.0,0.2459,0.8501,9.5617,-0.0376,0.0243,-0.1109,-1.9322573147215785,0.0,3.568598508834839,-1.6372805833816528,7.221167152330396e-25,1.9711954593658447,5.011121260910787,0.0,0.28439831733703613,-1.5456340948687952,-0.0,-0.002761551644653082,0.0211199764162302,0.0,0.00031784712336957455,1.0359017848968506,0.0,-0.006063717883080244
232.0,235.0,0.2459,0.8501,9.5617,-0.0376,0.0243,-0.1109,-1.9321652851500453,0.0,3.4885129928588867,-1.6372969150543213,1.7438272496143465e-30,1.9923388957977295,5.011121201306143,0.0,0.28101852536201477,-1.5456627050982874,-0.0,-0.010202666744589806,0.021104080602526665,0.0,-0.008931148797273636,1.035865068435669,0.0,-0.03820078447461128
232.0,235.0,0.2459,0.8501,9.5617,-0.0376,0.0243,-0.1109,-1.9322530231871546,0.0,3.525641918182373,-1.6373287439346313,4.211137482804285e-36,2.045483350753784,5.01112516501502,0.0,0.277689129114151,-1.5456703344928187,-0.0,-0.019567163661122322,0.02106013335287571,0.0,-0.0006533589912578464,1.0358814001083374,0.0,-0.015682494267821312
232.0,235.0,0.2459,0.8501,9.5617,-0.0376,0.0243,-0.1109,-1.9322253666319789,0.0,3.5677154064178467,-1.6372486352920532,1.0169222955605197e-41,2.0261356830596924,5.01119692900733,0.0,0.27733880281448364,-1.5456865469561976,-0.0,-0.014193310402333736,0.021068096160888672,0.0,0.006925749592483044,1.0359177589416504,0.0,-0.06415771692991257
232.0,235.0,0.2459,0.8501,9.5617,-0.0376,0.0243,-0.1109,-1.932237287560934,0.0,3.572263717651367,-1.637332797050476,1.401298464324817e-45,2.0129830837249756,5.011133092432775,0.0,0.27077245712280273,-1.5456541220294397,-0.0,-0.015290303155779839,0.021064145490527153,0.0,-0.0018811947666108608,1.0358936786651611,0.0,-0.02096639573574066
232.0,235.0,0.2459,0.8501,9.5617,-0.0376,0.0243,-0.1109,-1.9321776829161585,0.0,3.505817413330078,-1.6372766494750977,-0.0,2.006885051727295,5.0111092803771875,0.0,0.2712087035179138,-1.5456345717059534,-0.0,-0.00992822740226984,0.021024076268076897,0.0,-0.0008183853351511061,1.0359296798706055,0.0,-0.011821023188531399
214.0,220.0,0.262,0.8818,9.4253,-0.0334,0.0139,-0.1171,-1.932237287560934,0.0,3.5733442306518555,-1.6373049020767212,-0.0,2.0048999786376953,5.011160927801885,0.0,0.280992716550827,-1.545666519795553,-0.0,-0.016092536970973015,0.021116042509675026,0.0,-0.007670977618545294,1.0358736515045166,0.0,-0.0042757210321724415
214.0,220.0,0.262,0.8818,9.4253,-0.0334,0.0139,-0.1171,-1.9322215519347132,0.0,3.5002975463867188,-1.637292504310608,-0.0,2.0022807121276855,5.011129098921575,0.0,0.2649974822998047,-1.5456464926349085,-0.0,-0.013401673175394535,0.021112091839313507,0.0,0.005469546187669039,1.0359137058258057,0.0,0.02232794463634491
214.0,220.0,0.262,0.8818,9.4253,-0.0334,0.0139,-0.1171,-1.932237287560934,0.0,3.585815906524658,-1.6372846364974976,-0.0,2.02022647857666,5.011137085943975,0.0,0.28135183453559875,-1.5456584135638636,-0.0,-0.015581466257572174,0.021112043410539627,0.0,-0.0030603196937590837,1.035909652709961,0.0,-0.02086600475013256
214.0,220.0,0.262,0.8818,9.4253,-0.0334,0.0139,-0.1171,-1.9322172604002894,0.0,3.5171642303466797,-1.637308955192566,-0.0,1.9881644248962402,5.011137085943975,0.0,0.27931439876556396,-1.545638386403219,-0.0,-0.023458240553736687,0.021139878779649734,0.0,0.014612846076488495,1.0358777046203613,0.0,0.002114175818860531
214.0,220.0,0.262,0.8818,9.4253,-0.0334,0.0139,-0.1171,-1.9322453937926234,0.0,3.5510528087615967,-1.6372926235198975,-0.0,2.0238733291625977,5.011117148190298,0.0,0.26963210105895996,-1.545626465474264,-0.0,-0.021969851106405258,0.02107204683125019,0.0,-0.003566281171515584,1.0359137058258057,0.0,-0.0019110357388854027
214.0,220.0,0.262,0.8818,9.4253,-0.0334,0.0139,-0.1171,-1.9321733913817347,0.0,3.5770103931427,-1.637284517288208,-0.0,1.9894202947616577,5.011113244086065,0.0,0.274753212928772,-1.5456221739398401,-0.0,0.009133236482739449,0.021064138039946556,0.0,0.005492506083101034,1.0359172821044922,0.0,-0.046724241226911545
214.0,220.0,0.262,0.8818,9.4253,-0.0334,0.0139,-0.1171,-1.9321571789183558,0.0,3.5417206287384033,-1.637300968170166,-0.0,2.0455942153930664,5.01114501336173,0.0,0.2745843529701233,-1.5456541220294397,-0.0,-0.0026134708896279335,0.021099844947457314,0.0,-0.0048458632081747055,1.035946011543274,0.0,-0.014069827273488045
214.0,220.0,0.262,0.8818,9.4253,-0.0334,0.0139,-0.1171,-1.9321972332396449,0.0,3.555919647216797,-1.637264609336853,-0.0,2.011873722076416,5.011153030186453,0.0,0.2733026146888733,-1.5456422011004847,-0.0,-0.013128149323165417,0.02106017991900444,0.0,-0.0021335454657673836,1.0358730554580688,0.0,-0.019154826179146767
214.0,220.0,0.262,0.8818,9.4253,-0.0334,0.0139,-0.1171,-1.9322453937926234,0.0,3.526198387145996,-1.6372686624526978,-0.0,1.9919272661209106,5.011148977070608,0.0,0.2778186798095703,-1.545678440724508,-0.0,-0.015834776684641838,0.021048299968242645,0.0,-0.0007860081968829036,1.0359545946121216,0.0,-0.029585782438516617
214.0,220.0,0.262,0.8818,9.4253,-0.0334,0.0139,-0.1171,-1.9322334728636683,0.0,3.5433850288391113,-1.6373130083084106,-0.0,2.0115389823913574,5.011085110693731,0.0,0.2759969234466553,-1.5456340948687952,-0.0,-0.008046269416809082,0.021056143566966057,0.0,-0.005997419357299805,1.0359296798706055,0.0,-0.0025990712456405163
214.0,220.0,0.262,0.8818,9.4253,-0.0334,0.0139,-0.1171,-1.9322172604002894,0.0,3.5519256591796875,-1.6372846364974976,-0.0,2.010529041290283,5.011153059988775,0.0,0.2718762457370758,-1.5456541220294397,-0.0,-0.019243044778704643,0.021147746592760086,0.0,0.009492913261055946,1.0359177589416504,0.0,-0.0068356492556631565
214.0,220.0,0.262,0.8818,9.4253,-0.0334,0.0139,-0.1171,-1.9322334728636683,0.0,3.5212724208831787,-1.6373244524002075,-0.0,2.031911849975586,5.01114501336173,0.0,0.2897452414035797,-1.545678440724508,-0.0,-0.017364298924803734,0.021119967103004456,0.0,-0.006464212667196989,1.0359137058258057,0.0,0.02590404637157917
214.0,220.0,0.262,0.8818,9.4253,-0.0334,0.0139,-0.1171,-1.932185789147848,0.0,3.5715179443359375,-1.6372647285461426,-0.0,2.0199153423309326,5.011097031622686,0.0,0.282709002494812,-1.5456302801715296,-0.0,-0.011883477680385113,0.021108122542500496,0.0,0.013488342985510826,1.0358814001083374,0.0,0.017058581113815308
214.0,220.0,0.262,0.8818,9.4253,-0.0334,0.0139,-0.1171,-1.9322334728636683,0.0,3.5325980186462402,-1.6372846364974976,-0.0,1.9830520153045654,5.011113244086065,0.0,0.2741782069206238,-1.545666519795553,-0.0,-0.019779682159423828,0.021095896139740944,0.0,-0.006218250375241041,1.035921335220337,0.0,0.006743861362338066
214.0,220.0,0.262,0.8818,9.4253,-0.0334,0.0139,-0.1171,-1.9322215519347132,0.0,3.5488805770874023,-1.637324333190918,-0.0,1.9600480794906616,5.011129128723898,0.0,0.2778473496437073,-1.5456340948687952,-0.0,-0.02024548314511776,0.021052256226539612,0.0,0.0006953373085707426,1.0359054803848267,0.0,0.021473566070199013
214.0,220.0,0.262,0.8818,9.4253,-0.0334,0.0139,-0.1171,-1.9321853123106898,0.0,3.539271116256714,-1.6372885704040527,-0.0,2.0125784873962402,5.011156934290685,0.0,0.2737386226654053,-1.5456627050982874,-0.0,-0.022841429337859154,0.021048283204436302,0.0,-0.0016384278424084187,1.0359177589416504,0.0,0.00306223938241601
214.0,220.0,0.262,0.8818,9.4253,-0.0334,0.0139,-0.1171,-1.9322253666319789,0.0,3.5492184162139893,-1.6372970342636108,-0.0,2.0716745853424072,5.01112516501502,0.0,0.27221202850341797,-1.5456345717059534,-0.0,-0.02059048041701317,0.02109193429350853,0.0,-0.005550129804760218,1.0359379053115845,0.0,0.03286774456501007
227.0,236.0,0.1699,0.8806,9.4804,-0.0394,0.0183,-0.1167,-1.932249208489889,0.0,3.5484538078308105,-1.6372805833816528,-0.0,2.0559208393096924,5.011133092432775,0.0,0.2824153006076813,-1.5456302801715296,-0.0,-0.019265353679656982,0.021156039088964462,0.0,0.018923994153738022,1.0359219312667847,0.0,0.017323240637779236
227.0,236.0,0.1699,0.8806,9.4804,-0.0394,0.0183,-0.1167,-1.9322291813292445,0.0,3.600386142730713,-1.6372567415237427,-0.0,1.986074686050415,5.011148977070608,0.0,0.28483375906944275,-1.5456503073321741,-0.0,-0.0011818124912679195,0.021083958446979523,0.0,0.011505169793963432,1.0359256267547607,0.0,-0.014627021737396717
227.0,236.0,0.1699,0.8806,9.4804,-0.0394,0.0183,-0.1167,-1.9322053394713343,0.0,3.5460565090179443,-1.6373207569122314,-0.0,1.9778265953063965,5.011148977070608,0.0,0.2756735682487488,-1.5456903616534632,-0.0,-0.011020300909876823,0.021112091839313507,0.0,-0.007582363672554493,1.0358854532241821,0.0,-0.01064140535891056
227.0,236.0,0.1699,0.8806,9.4804,-0.0394,0.0183,-0.1167,-1.9322253666319789,0.0,3.547839641571045,-1.637340784072876,-0.0,2.050719976425171,5.011129128723898,0.0,0.27017953991889954,-1.5456464926349085,-0.0,-0.011941519565880299,0.021095871925354004,0.0,-0.004323053173720837,1.0359662771224976,0.0,0.013746966607868671
227.0,236.0,0.1699,0.8806,9.4804,-0.0394,0.0183,-0.1167,-1.9322096310057582,0.0,3.5620880126953125,-1.6372766494750977,-0.0,2.0319764614105225,5.011100995331564,0.0,0.28114578127861023,-1.5456584135638636,-0.0,-0.0070801544934511185,0.021044408902525902,0.0,-0.009169818833470345,1.0359137058258057,0.0,-0.01568332314491272
227.0,236.0,0.1699,0.8806,9.4804,-0.0394,0.0183,-0.1167,-1.9322134457030238,0.0,3.5454320907592773,-1.6372766494750977,-0.0,2.0231292247772217,5.01113714554862,0.0,0.29566794633865356,-1.5456865469561976,-0.0,-0.009385359473526478,0.02108001708984375,0.0,0.0005956467357464135,1.0358854532241821,0.0,-0.0346483550965786
227.0,236.0,0.1699,0.8806,9.4804,-0.0394,0.0183,-0.1167,-1.9322530231871546,0.0,3.5722784996032715,-1.6373567581176758,-0.0,1.9883605241775513,5.011133092432775,0.0,0.2766530513763428,-1.545666519795553,-0.0,-0.0057511418126523495,0.021044377237558365,0.0,-0.004552109632641077,1.0358731746673584,0.0,-0.013584611006081104
227.0,236.0,0.1699,0.8806,9.4804,-0.0394,0.0183,-0.1167,-1.9322291813292445,0.0,3.5351834297180176,-1.637332797050476,-0.0,1.993762493133545,5.011113244086065,0.0,0.27763333916664124,-1.5456422011004847,-0.0,-0.010713627561926842,0.0210641510784626,0.0,-0.012037470936775208,1.0358694791793823,0.0,0.00537359993904829
227.0,236.0,0.1699,0.8806,9.4804,-0.0394,0.0183,-0.1167,-1.932197710076803,0.0,3.5244088172912598,-1.6372606754302979,-0.0,2.050055503845215,5.011117207794943,0.0,0.28272774815559387,-1.545638386403219,-0.0,-0.014195529744029045,0.021116018295288086,0.0,0.0021276476327329874,1.0359296798706055,0.0,-0.00047293934039771557
227.0,236.0,0.1699,0.8806,9.4804,-0.0394,0.0183,-0.1167,-1.9322253666319789,0.0,3.522725820541382,-1.637300968170166,-0.0,2.0210914611816406,5.011117207794943,0.0,0.27174270153045654,-1.545654598866598,-0.0,-0.02205253392457962,0.02106020413339138,0.0,0.008781700395047665,1.0359419584274292,0.0,0.019501956179738045
227.0,236.0,0.1699,0.8806,9.4804,-0.0394,0.0183,-0.1167,-1.9322215519347132,0.0,3.5225026607513428,-1.637264609336853,-0.0,2.023144006729126,5.0111092803771875,0.0,0.2854280173778534,-1.5456627050982874,-0.0,-0.017276274040341377,0.021131880581378937,0.0,-0.015217967331409454,1.0359177589416504,0.0,0.00923067145049572
227.0,236.0,0.1699,0.8806,9.4804,-0.0394,0.0183,-0.1167,-1.932237287560934,0.0,3.540792942047119,-1.6373248100280762,-0.0,1.9952874183654785,5.011100995331564,0.0,0.2718438506126404,-1.545626465474264,-0.0,-0.014064501971006393,0.02109590731561184,0.0,-0.01333540678024292,1.035909652709961,0.0,0.012033545412123203
227.0,236.0,0.1699,0.8806,9.4804,-0.0394,0.0183,-0.1167,-1.9321934185423792,0.0,3.5237855911254883,-1.6372407674789429,-0.0,2.012679100036621,5.011156934290685,0.0,0.2676650583744049,-1.5456741491900843,-0.0,-0.02124135009944439,0.021076083183288574,0.0,0.0033027352765202522,1.0359545946121216,0.0,0.02006225474178791
227.0,236.0,0.1699,0.8806,9.4804,-0.0394,0.0183,-0.1167,-1.9321934185423792,0.0,3.509673595428467,-1.637316346168518,-0.0,2.0640649795532227,5.011109012156286,0.0,0.2677973806858063,-1.545626465474264,-0.0,-0.012311496771872044,0.021139878779649734,0.0,-0.005530244205147028,1.0358977317810059,0.0,0.04253043979406357
227.0,236.0,0.1699,0.8806,9.4804,-0.0394,0.0183,-0.1167,-1.9322172604002894,0.0,3.5136475563049316,-1.6372885704040527,-0.0,2.017458438873291,5.011077183275976,0.0,0.27896231412887573,-1.545610253010885,-0.0,-0.01089323777705431,0.02108790911734104,0.0,-0.0009787854505702853,1.0358977317810059,0.0,0.00802474282681942
227.0,236.0,0.1699,0.8806,9.4804,-0.0394,0.0183,-0.1167,-1.9322096310057582,0.0,3.5537893772125244,-1.637308955192566,-0.0,2.003821611404419,5.01112516501502,0.0,0.2668101191520691,-1.5456340948687952,-0.0,-0.012472214177250862,0.02108396217226982,0.0,-0.005862621124833822,1.0359379053115845,0.0,0.0212327279150486
231.0,218.0,0.2267,0.8746,9.6287,-0.0293,0.0249,-0.1127,-1.9322215519347132,0.0,3.511590003967285,-1.6373367309570312,-0.0,2.0201284885406494,5.0111092803771875,0.0,0.2780572772026062,-1.545666519795553,-0.0,0.0003469809889793396,0.021104097366333008,0.0,0.005726327653974295,1.0359100103378296,0.0,-0.017308657988905907
231.0,218.0,0.2267,0.8746,9.6287,-0.0293,0.0249,-0.1127,-1.932249208489889,0.0,3.5744218826293945,-1.637316346168518,-0.0,1.9798572063446045,5.011113244086065,0.0,0.2942221164703369,-1.5456422011004847,-0.0,-0.011883408762514591,0.02109983004629612,0.0,-0.0035704963374882936,1.0358854532241821,0.0,0.02643362432718277
231.0,218.0,0.2267,0.8746,9.6287,-0.0293,0.0249,-0.1127,-1.9321934185423792,0.0,3.557255744934082,-1.6372889280319214,-0.0,2.0167174339294434,5.011121201306143,0.0,0.27006494998931885,-1.5456422011004847,-0.0,-0.011594315990805626,0.021063949912786484,0.0,0.013332296162843704,1.0359137058258057,0.0,0.04167626053094864
231.0,218.0,0.2267,0.8746,9.6287,-0.0293,0.0249,-0.1127,-1.932261129418844,0.0,3.5554871559143066,-1.637300968170166,-0.0,2.0213067531585693,5.011141049652853,3.627239664183435e-08,0.27253279089927673,-1.5456584135638636,-0.0,-0.01617509499192238,0.021123988553881645,0.0,0.003300827695056796,1.0359177589416504,0.0,0.03237767890095711
231.0,218.0,0.2267,0.8746,9.6287,-0.0293,0.0249,-0.1127,-1.932237287560934,0.0,3.5431318283081055,-1.6373248100280762,-0.0,2.0140483379364014,5.0111092803771875,1.0096553801353103e-11,0.26915937662124634,-1.5456464926349085,-0.0,-0.0162102859467268,0.02109983004629612,0.0,0.0017123182769864798,1.0359337329864502,0.0,0.035712845623493195
231.0,218.0,0.2267,0.8746,9.6287,-0.0293,0.0249,-0.1127,-1.932237287560934,0.0,3.531507968902588,-1.637312412261963,-0.0,2.026123523712158,5.01112516501502,2.810412967342406e-15,0.2843066453933716,-1.545638386403219,-0.0,-0.01284128986299038,0.02105615846812725,0.0,-0.0032367128878831863,1.035962700843811,0.0,-0.010266262106597424
231.0,218.0,0.2267,0.8746,9.6287,-0.0293,0.0249,-0.1127,-1.9322291813292445,0.0,3.531907320022583,-1.637316346168518,-0.0,2.0235214233398438,5.0111050484474084,1.1981231408075325e-17,0.2781432569026947,-1.5456422011004847,-0.0,-0.016406267881393433,0.02107219770550728,0.0,-0.00702776201069355,1.0359140634536743,0.0,0.0201356690376997
231.0,218.0,0.2267,0.8746,9.6287,-0.0293,0.0249,-0.1127,-1.9322134457030238,0.0,3.5496840476989746,-1.6373287439346313,-0.0,2.03044056892395,5.011117207794943,3.3350195639388728e-21,0.27213236689567566,-1.5456340948687952,-0.0,-0.012807806953787804,0.02107217349112034,0.0,0.0003186332178302109,1.0358977317810059,0.0,-0.023418642580509186
231.0,218.0,0.2267,0.8746,9.6287,-0.0293,0.0249,-0.1127,-1.9322453937926234,0.0,3.5069289207458496,-1.6373084783554077,-0.0,1.9926841259002686,5.011064934521475,9.28314947185077e-25,0.275959312915802,-1.5456584135638636,-0.0,-0.015005439519882202,0.02110009267926216,0.0,-0.001499854726716876,1.0358854532241821,0.0,-0.016964687034487724
231.0,218.0,0.2267,0.8746,9.6287,-0.0293,0.0249,-0.1127,-1.9321896038451136,0.0,3.5183558464050293,-1.637360692024231,-0.0,2.0681567192077637,5.011100995331564,2.583998780413723e-28,0.26035675406455994,-1.5456460157977503,-0.0,-0.018150337040424347,0.021087778732180595,0.0,-0.006618635728955269,1.0359379053115845,0.0,0.016546260565519333
231.0,218.0,0.2267,0.8746,9.6287,-0.0293,0.0249,-0.1127,-1.9322096310057582,0.0,3.5274157524108887,-1.6372846364974976,-0.0,2.058474063873291,5.011148977070608,1.10159929646632e-30,0.27222099900245667,-1.5456627050982874,-0.0,-0.01354479044675827,0.021120095625519753,0.0,0.0006626623217016459,1.035921335220337,0.0,-0.02855522185564041
231.0,218.0,0.2267,0.8746,9.6287,-0.0293,0.0249,-0.1127,-1.932249208489889,0.0,3.5816702842712402,-1.6372686624526978,-0.0,2.0070202350616455,5.0111052868659876,3.0663419877334687e-34,0.2748224437236786,-1.5456140677081507,-0.0,-0.008693274110555649,0.021071782335639,0.0,-0.007002942264080048,1.0359539985656738,0.0,0.02211967669427395
231.0,218.0,0.2267,0.8746,9.6287,-0.0293,0.0249,-0.1127,-1.9321853123106898,0.0,3.5622377395629883,-1.6373447179794312,-0.0,2.0180342197418213,5.011093067913809,8.535275315039317e-38,0.28647297620773315,-1.5456903616534632,-0.0,-0.01445876806974411,0.021056175231933594,0.0,0.004831224679946899,1.0359379053115845,0.0,-0.0021029850468039513
231.0,218.0,0.2267,0.8746,9.6287,-0.0293,0.0249,-0.1127,-1.9322253666319789,0.0,3.555936098098755,-1.6373487710952759,-0.0,1.9846434593200684,5.011129128723898,2.375761416416295e-41,0.27061161398887634,-1.5456302801715296,-0.0,-0.025419581681489944,0.02105994150042534,0.0,0.009018764831125736,1.0359296798706055,0.0,-0.002263696864247322
231.0,218.0,0.2267,0.8746,9.6287,-0.0293,0.0249,-0.1127,-1.9322134457030238,0.0,3.5240139961242676,-1.6373287439346313,-0.0,2.0113253593444824,5.011141049652853,1.0089348943138683e-43,0.2646636664867401,-1.545678440724508,-0.0,-0.00995449535548687,0.021068096160888672,0.0,-0.013440500013530254,1.0359379053115845,0.0,-0.05735627934336662
231.0,218.0,0.2267,0.8746,9.6287,-0.0293,0.0249,-0.1127,-1.9322334728636683,0.0,3.5719807147979736,-1.6373487710952759,-0.0,2.0635948181152344,5.011121141701498,0.0,0.28542381525039673,-1.5456422011004847,-0.0,-0.020393604412674904,0.02115248329937458,0.0,-0.013366606086492538,1.0358895063400269,0.0,-0.020644469186663628
231.0,218.0,0.2267,0.8746,9.6287,-0.0293,0.0249,-0.1127,-1.9322096310057582,0.0,3.5250182151794434,-1.637316346168518,-0.0,2.018828868865967,5.011149036675253,0.0,0.2763347625732422,-1.5456541220294397,-0.0,0.002138422103598714,0.02109602652490139,0.0,-0.0020605186000466347,1.0358893871307373,0.0,-0.024846620857715607
228.0,232.0,0.2632,0.8321,9.6479,-0.0385,0.0296,-0.1135,-1.9322253666319789,0.0,3.5400550365448,-1.6373447179794312,-0.0,2.009558916091919,5.011093067913809,0.0,0.2825593054294586,-1.545678440724508,-0.0,-0.023994646966457367,0.02105209045112133,0.0,-0.013409046456217766,1.0358814001083374,0.0,0.0043510328978300095
228.0,232.0,0.2632,0.8321,9.6479,-0.0385,0.0296,-0.1135,-1.9322215519347132,0.0,3.5549447536468506,-1.637332797050476,-0.0,2.087355136871338,5.011113065272131,0.0,0.26522114872932434,-1.545694653187887,-0.0,-0.008917166851460934,0.021100115031003952,0.0,0.002715367591008544,1.0358893871307373,0.0,-0.017222413793206215
228.0,232.0,0.2632,0.8321,9.6479,-0.0385,0.0296,-0.1135,-1.9322134457030238,0.0,3.5118253231048584,-1.6372805833816528,-0.0,2.02738094329834,5.011100995331564,0.0,0.27949777245521545,-1.5456541220294397,-0.0,-0.00967575516551733,0.02113618329167366,0.0,-0.003335575107485056,1.0358854532241821,0.0,-0.052590467035770416
228.0,232.0,0.2632,0.8321,9.6479,-0.0385,0.0296,-0.1135,-1.932237287560934,0.0,3.533608913421631,-1.6373049020767212,-0.0,2.0116453170776367,5.011153089791097,0.0,0.2879110276699066,-1.5456221739398401,-0.0,-0.0006735222414135933,0.02101559191942215,0.0,0.008915946818888187,1.0359423160552979,0.0,0.017855938524007797
228.0,232.0,0.2632,0.8321,9.6479,-0.0385,0.0296,-0.1135,-1.9322134457030238,0.0,3.5153486728668213,-1.6372885704040527,-0.0,1.993110179901123,5.011077123671331,0.0,0.27498626708984375,-1.5456460157977503,-0.0,-0.02059454657137394,0.021088194102048874,0.0,0.003914806060492992,1.0358896255493164,0.0,0.018972303718328476
228.0,232.0,0.2632,0.8321,9.6479,-0.0385,0.0296,-0.1135,-1.9322215519347132,0.0,3.552947998046875,-1.6373367309570312,-0.0,2.0133423805236816,5.011105018645086,0.0,0.2660301625728607,-1.5456178824054163,-0.0,-0.014982251450419426,0.021108267828822136,0.0,0.0026908032596111298,1.0359379053115845,0.0,0.04114305227994919
228.0,232.0,0.2632,0.8321,9.6479,-0.0385,0.0296,-0.1135,-1.9322215519347132,0.0,3.5548667907714844,-1.6372926235198975,-0.0,1.9818074703216553,5.01115699389533,0.0,0.2778956890106201,-1.5456340948687952,-0.0,-0.011771904304623604,0.021059926599264145,0.0,-0.0015171747654676437,1.0359177589416504,0.0,-0.04651641845703125
228.0,232.0,0.2632,0.8321,9.6479,-0.0385,0.0296,-0.1135,-1.932197710076803,0.0,3.5404815673828125,-1.6372805833816528,2.632771556321245e-09,1.974041223526001,5.011153089791097,0.0,0.2747250199317932,-1.5456422011004847,-0.0,-0.007264972198754549,0.02106766775250435,0.0,-0.0006964809726923704,1.0358935594558716,0.0,0.014156749472022057
228.0,232.0,0.2632,0.8321,9.6479,-0.0385,0.0296,-0.1135,-1.9321814976134242,0.0,3.525585412979126,-1.6372686624526978,4.738895907629992e-13,1.9962084293365479,5.011097031622686,0.0,0.2726700007915497,-1.5456507841693323,-0.0,-0.00040727132000029087,0.021112356334924698,0.0,0.01393162552267313,1.0358936786651611,0.0,0.005129271186888218
228.0,232.0,0.2632,0.8321,9.6479,-0.0385,0.0296,-0.1135,-1.932197710076803,0.0,3.5617692470550537,-1.6373244524002075,1.144387523662133e-18,2.015807628631592,5.01112516501502,0.0,0.28014305233955383,-1.5456989447223108,-0.0,-0.015266922302544117,0.021052062511444092,0.0,0.0025692288763821125,1.0358893871307373,0.0,0.025802787393331528
228.0,232.0,0.2632,0.8321,9.6479,-0.0385,0.0296,-0.1135,-1.932237287560934,0.0,3.5262928009033203,-1.6372487545013428,2.763560991782179e-24,2.0443551540374756,5.011089104204931,0.0,0.2801056206226349,-1.5456422011004847,-0.0,-0.018315132707357407,0.021112332120537758,0.0,-0.007834600284695625,1.0359256267547607,0.0,-0.0015922978054732084
228.0,232.0,0.2632,0.8321,9.6479,-0.0385,0.0296,-0.1135,-1.9321896038451136,0.0,3.517063856124878,-1.6372966766357422,0.00035424932138994336,1.9915857315063477,5.011141079455175,0.0,0.2794567942619324,-1.5456541220294397,-0.0,-0.011787901632487774,0.021063627675175667,0.0,0.009152447804808617,1.0358654260635376,0.0,-0.005731438286602497
228.0,232.0,0.2632,0.8321,9.6479,-0.0385,0.0296,-0.1135,-1.9322134457030238,0.0,3.5210328102111816,-1.6372805833816528,0.00030731226433999836,2.0114667415618896,5.011141049652853,0.0,0.2786022126674652,-1.5456503073321741,-0.0,-0.013326894491910934,0.021112332120537758,0.0,0.003927120938897133,1.0359296798706055,0.0,0.007400514557957649
228.0,232.0,0.2632,0.8321,9.6479,-0.0385,0.0296,-0.1135,-1.9322334728636683,0.0,3.5118536949157715,-1.6372567415237427,0.0003058089641854167,2.0405619144439697,5.011137085943975,4.445668764674338e-06,0.2687380611896515,-1.5456460157977503,-0.0,-0.022389521822333336,0.021080033853650093,0.0,0.013238995335996151,1.0359742641448975,7.266872853506356e-05,0.010529584251344204
228.0,232.0,0.2632,0.8321,9.6479,-0.0385,0.0296,-0.1135,-1.9322096310057582,0.0,3.5323851108551025,-1.6372528076171875,0.0003051011881325394,2.0032958984375,5.011160927801885,3.139123145956546e-05,0.2814050018787384,-1.5456627050982874,-0.0,-0.011864682659506798,0.021068096160888672,0.0,-0.0027810349129140377,1.035965919494629,0.00010842144547495991,-0.009690824896097183
228.0,232.0,0.2632,0.8321,9.6479,-0.0385,0.0296,-0.1135,-1.9321652851500453,0.0,3.572260856628418,-1.6372566223144531,0.00041944754775613546,2.016540288925171,5.011125016003408,5.210716699366458e-05,0.2720940113067627,-1.5456989447223108,-0.0,-0.007694627158343792,0.021136509254574776,0.0,0.0027961647137999535,1.035949945449829,0.0009198625339195132,0.031565383076667786
228.0,232.0,0.2632,0.8321,9.6479,-0.0385,0.0296,-0.1135,-1.9322096310057582,0.0,3.5405116081237793,-1.6372528076171875,0.0004453487053979188,2.0022647380828857,5.011193054705419,0.0006516125868074596,0.27784621715545654,-1.5456903616534632,-0.0,-0.00980617105960846,0.021108247339725494,0.0,-0.015538837760686874,1.0359578132629395,0.0010005671065300703,-0.023626862093806267
233.0,239.0,-0.341,1.0193,9.6054,-0.0399,0.0464,-0.1122,-1.932197710076803,0.0,3.5200514793395996,-1.6372408866882324,0.00042059109546244144,1.9945926666259766,5.011181014567175,0.0006629662238992751,0.2714148759841919,-1.545734707509176,-1.409515988370913e-07,-0.00600790698081255,0.02105994150042534,0.0,0.002043444663286209,1.0359737873077393,0.0007663742289878428,0.027759140357375145
233.0,239.0,-0.341,1.0193,9.6054,-0.0399,0.0464,-0.1122,-1.9322053394713343,0.0,3.5383646488189697,-1.6372727155685425,0.0007593222544528544,2.0098800659179688,5.011196869402685,0.000755804474465549,0.278942346572876,-1.545722786580221,-3.9234396981280284e-11,-0.0031484048813581467,0.021140610799193382,0.0,-0.005404624156653881,1.0360298156738281,0.0007187856826931238,-0.00587019557133317
233.0,239.0,-0.341,1.0193,9.6054,-0.0399,0.0464,-0.1122,-1.9322053394713343,0.0,3.552122116088867,-1.6371846199035645,0.002498607151210308,1.9915313720703125,5.011208849936285,0.0007046596147119999,0.28259411454200745,-1.545706574116842,-1.0921037193339662e-14,-0.00860058143734932,0.021060345694422722,0.0,0.011373735964298248,1.035977840423584,0.0012561132898554206,0.007746950723230839
233.0,239.0,-0.341,1.0193,9.6054,-0.0399,0.0464,-0.1122,-1.9321495495238246,0.0004484285309445113,3.529933452606201,-1.6372284889221191,0.003498321631923318,2.0292458534240723,5.011208849936285,0.0005937094101682305,0.28279417753219604,-1.545734707509176,-4.655809569684113e-17,-0.027429431676864624,0.0210754182189703,0.0,-0.008718892000615597,1.0360057353973389,0.0011679442832246423,-0.01497796829789877
233.0,239.0,-0.341,1.0193,9.6054,-0.0399,0.0464,-0.1122,-1.932197710076803,0.0003464831388555467,3.5501370429992676,-1.6371517181396484,0.004348529037088156,2.031768798828125,5.01119692900733,0.00047591107431799173,0.27154093980789185,-1.545710865651266,-1.2959617987040147e-20,-0.019951578229665756,0.02111642062664032,0.0,-0.003322968492284417,1.0360138416290283,0.0008609368815086782,0.026912031695246696
233.0,239.0,-0.341,1.0193,9.6054,-0.0399,0.0464,-0.1122,-1.9321571789183558,0.00028145473334006965,3.5256540775299072,-1.6371325254440308,0.004647346213459969,2.0258846282958984,5.011177050858297,0.0003971245023421943,0.27702686190605164,-1.5456822554217737,-3.607357578797103e-24,-0.01409298088401556,0.021112356334924698,0.0,0.0018158520106226206,1.0359532833099365,0.0005544372252188623,-0.0012073710095137358
233.0,239.0,-0.341,1.0193,9.6054,-0.0399,0.0464,-0.1122,-1.9322015247740687,0.00020218394638504833,3.586700677871704,-1.6371684074401855,0.0038213953375816345,1.9938620328903198,5.011132913618841,0.00035765598295256495,0.27808159589767456,-1.545734707509176,-1.5378730872974873e-26,-0.027124935761094093,0.021104097366333008,0.0,0.013452560640871525,1.0359901189804077,0.0004713972157333046,-0.0025061853229999542
233.0,239.0,-0.341,1.0193,9.6054,-0.0399,0.0464,-0.1122,-1.9322172604002894,0.00017151885549537838,3.550424575805664,-1.6371690034866333,0.0024984702467918396,2.027055501937866,5.011133003025808,0.0003112590638920665,0.27362120151519775,-1.5457184950457972,-4.2807264954120906e-30,-0.010620608925819397,0.021112365648150444,0.0,0.012018281035125256,1.035969614982605,0.0003849640488624573,-0.01745743863284588
233.0,239.0,-0.341,1.0193,9.6054,-0.0399,0.0464,-0.1122,-1.9321934185423792,0.00011255333083681762,3.5320465564727783,-1.6371086835861206,0.0010864590294659138,2.0646843910217285,5.0111330328281305,0.0002755194145720452,0.27824634313583374,-1.5457504431353968,-1.1915559199228394e-33,-0.007696919143199921,0.021128423511981964,0.0,0.0012531504034996033,1.0359818935394287,0.00032531979377381504,-0.011855082586407661
233.0,239.0,-0.341,1.0193,9.6054,-0.0399,0.0464,-0.1122,-1.9321733913817347,0.00010003957140725106,3.5297393798828125,-1.637204647064209,0.0005056009977124631,2.0148706436157227,5.011185067683019,0.00024714312166906893,0.2708485722541809,-1.5457747618304651,-0.00013061634672340006,-0.008649131283164024,0.021084129810333252,0.0,0.003261545207351446,1.0359978675842285,0.0003219112695660442,0.035464562475681305
233.0,239.0,-0.341,1.0193,9.6054,-0.0399,0.0464,-0.1122,-1.9322172604002894,9.313754708273336e-05,3.529129981994629,-1.6371086835861206,0.0003934546548407525,2.019953966140747,5.011137056141653,0.00020261477038729936,0.29132741689682007,-1.5457428137408655,-0.00016304341261275113,-0.026148438453674316,0.021108264103531837,0.0,-0.009774241596460342,1.0360420942306519,0.0002488774189259857,0.0352361798286438
233.0,239.0,-0.341,1.0193,9.6054,-0.0399,0.0464,-0.1122,-1.9321733913817347,8.440268720733002e-05,3.5712170600891113,-1.6371405124664307,0.00029627009644173086,1.9931464195251465,5.011125135212698,0.00018456972611602396,0.2785991132259369,-1.545678440724508,-0.00014721430488862097,-0.010712212882936,0.021063555032014847,0.0,0.010344866663217545,1.0360175371170044,0.0012651887955144048,0.06591993570327759
233.0,239.0,-0.341,1.0193,9.6054,-0.0399,0.0464,-0.1122,-1.9321772060790003,0.00010288764315191656,3.5308194160461426,-1.6371650695800781,6.991676491452381e-05,1.9852900505065918,5.011165129929342,0.00016965721442829818,0.2749278247356415,-1.5456903616534632,-0.00013405631761997938,-0.016631266102194786,0.021007414907217026,0.0,0.0039882417768239975,1.0360093116760254,0.0017153649823740125,0.005163495894521475
233.0,239.0,-0.341,1.0193,9.6054,-0.0399,0.0464,-0.1122,-1.9322296581664027,9.476286504650488e-05,3.536954402923584,-1.6371644735336304,5.6509667047066614e-05,1.9733904600143433,5.011137056141653,0.00015697453636676073,0.28679192066192627,-1.545734707509176,-0.00012305767450015992,-0.02137761190533638,0.021104097366333008,0.0,1.9685830920934677e-06,1.0360097885131836,0.0014930228935554624,0.004325997084379196
233.0,239.0,-0.341,1.0193,9.6054,-0.0399,0.0464,-0.1122,-1.9321853123106898,6.752998888259754e-05,3.5136165618896484,-1.6371489763259888,2.0654529180319514e-06,2.0350561141967773,5.011152970581808,0.0001495230826549232,0.2907692492008209,-1.5456865469561976,-0.00011667579383356497,9.935442358255386e-05,0.021116409450769424,0.0,0.01293918862938881,1.036054015159607,0.0009128871606662869,-0.021189743652939796
233.0,239.0,-0.341,1.0193,9.6054,-0.0399,0.0464,-0.1122,-1.9322053394713343,-3.8904687244212255e-05,3.5365777015686035,-1.6371723413467407,4.987825690666581e-12,2.005523204803467,5.011133003025808,0.00013958397903479636,0.28314077854156494,-1.5457142035113733,-9.761387627804652e-05,-0.010017492808401585,0.021071782335639,0.0,0.0012666013790294528,1.0360380411148071,0.0005671911058016121,-0.02662593498826027
223.0,222.0,-0.0873,0.8782,10.9484,-0.0518,-0.0417,-0.144,-1.9322692356505335,-0.00011957139940932393,3.559974431991577,-1.6371086835861206,1.2045011996386839e-17,2.012355327606201,5.011137056141653,4.1450733988313004e-05,0.27513280510902405,-1.5456941763507288,-8.0777273979038e-05,-0.01949441432952881,0.021003393456339836,0.0,-0.011240965686738491,1.0359736680984497,0.00025038779131136835,0.025125406682491302
223.0,222.0,-0.0873,0.8782,10.9484,-0.0518,-0.0417,-0.144,-1.9322535000243128,-0.0018182406201958656,3.5190021991729736,-1.6371771097183228,0.0016448196256533265,1.994969367980957,5.011181044369497,4.8084635636769235e-05,0.2691504955291748,-1.545706574116842,-7.5679796282202e-05,-0.010714973323047161,0.021156640723347664,0.0,0.016948195174336433,1.0359736680984497,-0.00029122730484232306,0.06716220825910568
223.0,222.0,-0.0873,0.8782,10.9484,-0.0518,-0.0417,-0.144,-1.93229403118276,-0.0031128053087741137,3.554330348968506,-1.6370567083358765,0.007454592268913984,2.017976760864258,5.0111571727092645,7.154574268497527e-05,0.2728330194950104,-1.545722786580221,-7.262620056280866e-05,-0.027190139517188072,0.021064018830657005,0.0,-0.004067911300808191,1.0360019207000732,-0.001137086539529264,0.016152283176779747
223.0,222.0,-0.0873,0.8782,10.9484,-0.0518,-0.0417,-0.144,-1.9323655567564906,-0.00832242053002119,3.506227493286133,-1.637040615081787,0.011571640148758888,2.047654151916504,5.011169183045187,0.0001880740892374888,0.2745645344257355,-1.5456865469561976,-5.1436963985906914e-05,-0.015362028032541275,0.021091938018798828,0.0,0.013010961934924126,1.0359458923339844,-0.0035656436812132597,0.01050478219985962
223.0,222.0,-0.0873,0.8782,10.9484,-0.0518,-0.0417,-0.144,-1.9324733219542445,-0.013384823687374592,3.4964919090270996,-1.6370209455490112,0.006656949874013662,2.0775346755981445,5.011129128723898,2.0511004095169483e-07,0.27512145042419434,-1.5456541220294397,5.22308619110845e-05,-0.016718490049242973,0.021116409450769424,0.0,-0.012225368991494179,1.0358935594558716,-0.005258917808532715,0.03840460255742073
223.0,222.0,-0.0873,0.8782,10.9484,-0.0518,-0.0417,-0.144,-1.9324728451170863,-0.015139412134885788,3.4954566955566406,-1.6369725465774536,0.002985643222928047,1.9595677852630615,5.011121260910787,-0.0017574821831658483,0.2718668282032013,-1.545682732258932,5.5760578106855974e-05,-0.011205743998289108,0.02110825665295124,0.0,0.0075483121909201145,1.035926103591919,-0.004095883574336767,-0.00033785682171583176
223.0,222.0,-0.0873,0.8782,10.9484,-0.0518,-0.0417,-0.144,-1.9325610599913539,-0.013358420692384243,3.477490186691284,-1.637008547782898,0.0010952615411952138,2.0012896060943604,5.01116110661582,-0.0007090781000442803,0.281277596950531,-1.5456627050982874,7.64513824833557e-05,-0.00712805800139904,0.02106359601020813,0.0,0.009219581261277199,1.0359017848968506,-0.002339711179956794,0.020499538630247116
223.0,222.0,-0.0873,0.8782,10.9484,-0.0518,-0.0417,-0.144,-1.9325891933836878,-0.006499584298580885,3.4863338470458984,-1.6369284391403198,0.0054646753706038,2.0710325241088867,5.011121260910787,-0.0002083109284285456,0.26771050691604614,-1.5456865469561976,7.056316826492548e-05,-0.015367783606052399,0.02106405235826969,0.0,-0.01269996166229248,1.0358936786651611,-0.0009764502174220979,-0.03860238566994667
223.0,222.0,-0.0873,0.8782,10.9484,-0.0518,-0.0417,-0.144,-1.9326092205443324,-0.0009238321799784899,3.5332679748535156,-1.636960506439209,0.006828217767179012,2.0085654258728027,5.011085080891409,-0.00017118427786044776,0.2797967195510864,-1.5456064383136194,8.723718929104507e-05,-0.006944725289940834,0.021079592406749725,0.0,-0.01572820171713829,1.0358657836914062,-0.0005910369800403714,0.009738881140947342
223.0,222.0,-0.0873,0.8782,10.9484,-0.0518,-0.0417,-0.144,-1.9326092205443324,0.0007745391922071576,3.553499698638916,-1.6369125843048096,0.006290513090789318,2.048379898071289,5.011085080891409,-0.00020583151490427554,0.2846245765686035,-1.5456345717059534,8.321048517245799e-05,-0.015469743870198727,0.021120106801390648,0.0,-0.00250528403557837,1.035881757736206,-0.0005501724663190544,0.014506736770272255
223.0,222.0,-0.0873,0.8782,10.9484,-0.0518,-0.0417,-0.144,-1.932641168633932,2.3066479570843512e-06,3.5708727836608887,-1.6368850469589233,0.0057932245545089245,2.0158233642578125,5.011121260910787,-0.00017397887131664902,0.28984448313713074,-1.5456226507769983,7.781441672705114e-05,-0.010355068370699883,0.02108001708984375,0.0,0.00365648977458477,1.035874366760254,-0.0005675709107890725,0.011787988245487213
223.0,222.0,-0.0873,0.8782,10.9484,-0.0518,-0.0417,-0.144,-1.932653089562887,5.5702829501735884e-12,3.5702528953552246,-1.6368532180786133,0.008239878341555595,2.0326154232025146,5.011160927801885,6.355926598189399e-05,0.2740113437175751,-1.5456345717059534,7.3075651016552e-05,-0.021123114973306656,0.021112365648150444,0.0,-0.004770131781697273,1.035793662071228,-0.004502104129642248,0.026774011552333832
223.0,222.0,-0.0873,0.8782,10.9484,-0.0518,-0.0417,-0.144,-1.9326282940306605,-0.0024606771767139435,3.549382448196411,-1.6367567777633667,0.00960597675293684,2.0503792762756348,5.011129128723898,5.2624691306846216e-05,0.2735292315483093,-1.5456345717059534,8.165834151441231e-05,-0.005771109368652105,0.02110411413013935,0.0,0.011474411003291607,1.0357739925384521,-0.008891438134014606,0.013547595590353012
223.0,222.0,-0.0873,0.8782,10.9484,-0.0518,-0.0417,-0.144,-1.932676454583639,-0.004023612942546606,3.5546164512634277,-1.6366446018218994,0.008805789984762669,2.03088641166687,5.011113095074453,4.711309156846255e-05,0.27529874444007874,-1.5456064383136194,8.290865662274882e-05,-0.006715185008943081,0.021140074357390404,0.0,0.005214592441916466,1.0357377529144287,-0.011424797587096691,0.006822492927312851
223.0,222.0,-0.0873,0.8782,10.9484,-0.0518,-0.0417,-0.144,-1.9327331982054652,-0.005830877926200628,3.522362232208252,-1.6366806030273438,0.006119135767221451,1.9795104265213013,5.0111050484474084,4.071677176398225e-05,0.28596603870391846,-1.5456226507769983,7.858317258069292e-05,-0.013705180957913399,0.021091938018798828,0.0,-0.005201071035116911,1.0356699228286743,-0.013150162063539028,0.003703426569700241
223.0,222.0,-0.0873,0.8782,10.9484,-0.0518,-0.0417,-0.144,-1.932749410668844,-0.0054282741621136665,3.488407611846924,-1.6366769075393677,0.005391968414187431,2.025698184967041,5.011133122235098,3.5850000131176785e-05,0.27490559220314026,-1.5456388632403772,7.467116665793583e-05,-0.015254056081175804,0.021116018295288086,0.0,0.0032091555185616016,1.0355780124664307,-0.01336132176220417,-0.02135353535413742
223.0,222.0,-0.0873,0.8782,10.9484,-0.0518,-0.0417,-0.144,-1.9327565632262171,-0.003333308966830373,3.5020549297332764,-1.6365888118743896,0.007206018082797527,2.015475273132324,5.011113214283743,3.2022693631006405e-05,0.27658534049987793,-1.5456183592425745,5.6935972679639235e-05,-0.009723288007080555,0.021067705005407333,0.0,-0.007455295883119106,1.0354938507080078,-0.012512651272118092,0.021794253960251808
231.0,217.0,0.6036,0.9039,9.4786,-0.0467,0.0102,-0.1475,-1.9327689609923304,-0.00214910926297307,3.52093505859375,-1.636601209640503,0.007636487949639559,2.006056308746338,5.011100995331564,2.9895016268710606e-05,0.2706858217716217,-1.5456708113299769,5.516042801900767e-05,-0.02109319530427456,0.02110825665295124,0.0,-0.0007781533058732748,1.0354419946670532,-0.01191005576401949,-0.04107414558529854
231.0,217.0,0.6036,0.9039,9.4786,-0.0467,0.0102,-0.1475,-1.9327527485289515,-0.001000677002593875,3.4955801963806152,-1.6365084648132324,0.008321796543896198,2.0515596866607666,5.011137175350942,2.7185675207874738e-05,0.27957236766815186,-1.5456302801715296,5.273617716738954e-05,-0.011734339408576488,0.02107962593436241,0.0,0.007929661311209202,1.0353498458862305,-0.011909167282283306,0.016734277829527855
231.0,217.0,0.6036,0.9039,9.4786,-0.0467,0.0102,-0.1475,-1.932788988152975,-0.0007738827262073755,3.5489158630371094,-1.6363929510116577,0.010297263041138649,2.047536849975586,5.011145043164053,2.492666862963233e-05,0.26278969645500183,-1.5456507841693323,5.0516147894086316e-05,-0.015869099646806717,0.02107546664774418,0.0,-0.004926035180687904,1.035253643989563,-0.012348242104053497,-0.03583492338657379
231.0,217.0,0.6036,0.9039,9.4786,-0.0467,0.0102,-0.1475,-1.9327651462950648,-0.0004247272154316306,3.5055441856384277,-1.636409044265747,0.011312678456306458,2.0252296924591064,5.011137175350942,2.301428139617201e-05,0.2639113962650299,-1.5456226507769983,4.847549644182436e-05,-0.019921284168958664,0.021035708487033844,0.0,-0.005409488454461098,1.0352057218551636,-0.012295817025005817,0.019295141100883484
231.0,217.0,0.6036,0.9039,9.4786,-0.0467,0.0102,-0.1475,-1.9327570400633753,-0.0003415050741750747,3.493198871612549,-1.6363325119018555,0.01202032808214426,2.022435426712036,5.011109041958608,1.9285947416847193e-07,0.26404109597206116,-1.5456226507769983,5.860933742951602e-05,-0.014766622334718704,0.02106400765478611,0.0,0.015342522412538528,1.0351535081863403,-0.012894736602902412,-0.005268537905067205
231.0,217.0,0.6036,0.9039,9.4786,-0.0467,0.0102,-0.1475,-1.9327246151366175,-0.0003337902599014342,3.4693591594696045,-1.6362371444702148,0.011882212944328785,2.034600257873535,5.011085080891409,5.368313779618994e-11,0.2662868797779083,-1.5455859343158167,5.677198714693077e-05,-0.02428932674229145,0.02110411413013935,0.0,-0.00435844948515296,1.0350896120071411,-0.013067064806818962,-0.016242079436779022
231.0,217.0,0.6036,0.9039,9.4786,-0.0467,0.0102,-0.1475,-1.9327370129027308,-0.0003284946142230183,3.4707448482513428,-1.636169195175171,0.012071684934198856,2.0174930095672607,5.011113065272131,1.4942899551734744e-14,0.27213650941848755,-1.5456269423114222,5.47017298231367e-05,-0.004583712667226791,0.021116388961672783,0.0,0.004602585453540087,1.035005807876587,-0.015149607323110104,-0.0016605602577328682
231.0,217.0,0.6036,0.9039,9.4786,-0.0467,0.0102,-0.1475,-1.932744642297262,-0.0003382316790521145,3.4907655715942383,-1.6361448764801025,0.012547091580927372,2.0259299278259277,5.011052924185552,6.370392521234234e-17,0.2466033399105072,-1.5455902258502405,5.34034006705042e-05,-0.020150568336248398,0.021168457344174385,0.0,-0.0018623145297169685,1.0349215269088745,-0.015737060457468033,0.055361345410346985
231.0,217.0,0.6036,0.9039,9.4786,-0.0467,0.0102,-0.1475,-1.9327651462950648,-0.0002977839903905988,3.4313464164733887,-1.63607656955719,0.013818788342177868,2.053769111633301,5.011004942446508,1.7732222323685237e-20,0.25188106298446655,-1.545553986226217,7.78388130129315e-05,-0.007771564181894064,0.02113201655447483,0.0,0.0091920280829072,1.0348011255264282,-0.015400384552776814,0.09176421910524368
231.0,217.0,0.6036,0.9039,9.4786,-0.0467,0.0102,-0.1475,-1.9327527485289515,-0.0002737550821620971,3.4824106693267822,-1.6360090970993042,0.013341525569558144,2.009018898010254,5.011065053730764,-0.0005627538776025176,0.2625845968723297,-1.5455787817584437,7.402652408927679e-05,-0.007780787069350481,0.021087659522891045,0.0,0.008768795989453793,1.0347415208816528,-0.01719646342098713,0.0048287701793015
231.0,217.0,0.6036,0.9039,9.4786,-0.0467,0.0102,-0.1475,-1.932744642297262,-0.00031859526643529534,3.4529311656951904,-1.6359375715255737,0.013269273564219475,2.0592782497406006,5.011061000614919,-0.0008269480313174427,0.25416311621665955,-1.5456269423114222,8.459199307253584e-05,-0.016651369631290436,0.021104097366333008,0.0,0.0034266358707100153,1.0346338748931885,-0.018634038046002388,-0.012691403739154339
231.0,217.0,0.6036,0.9039,9.4786,-0.0467,0.0102,-0.1475,-1.9327570400633753,-0.0003361372509971261,3.4467477798461914,-1.6359055042266846,0.013026352971792221,2.0528717041015625,5.0110690770442865,-0.0009973571868613362,0.2520298361778259,-1.54559833208193,8.208032522816211e-05,-0.023912372067570686,0.021127955988049507,0.0,0.009677773341536522,1.0345532894134521,-0.019931146875023842,-0.0453660674393177
231.0,217.0,0.6036,0.9039,9.4786,-0.0467,0.0102,-0.1475,-1.9327846966185511,-0.0016171280294656754,3.431431293487549,-1.6357370615005493,0.013475365936756134,2.0604050159454346,5.011020588665762,-0.0011457448126748204,0.2468738555908203,-1.54559833208193,8.987580076791346e-05,-0.014755021780729294,0.021120090037584305,0.0,0.0054084062576293945,1.0344661474227905,-0.020030852407217026,0.027903329581022263
231.0,217.0,0.6036,0.9039,9.4786,-0.0467,0.0102,-0.1475,-1.9327770672240199,-0.003078087465837598,3.392059326171875,-1.635693073272705,0.012296590022742748,2.0442962646484375,5.010989028006353,-0.0013738545821979642,0.23327942192554474,-1.545591179524557,8.775672904448584e-05,-0.012604698538780212,0.021116018295288086,0.0,0.004144236911088228,1.0342774391174316,-0.02057190239429474,-0.014446642249822617
231.0,217.0,0.6036,0.9039,9.4786,-0.0467,0.0102,-0.1475,-1.9327885113158167,-0.0043292660266160965,3.380751609802246,-1.6356210708618164,0.009760579094290733,2.0197670459747314,5.010977196484365,-0.0012128158705309033,0.2404809296131134,-1.5455787817584437,9.586691885488108e-05,-0.02244381234049797,0.021107757464051247,0.0,0.020687157288193703,1.034213662147522,-0.021297546103596687,0.02781086415052414
231.0,217.0,0.6036,0.9039,9.4786,-0.0467,0.0102,-0.1475,-1.932840486566061,-0.005745626520365477,3.377906560897827,-1.635604739189148,0.009068341925740242,2.0641236305236816,5.011045056372442,-0.0009859740966930985,0.24019698798656464,-1.5456226507769983,9.376155503559858e-05,-0.01224660873413086,0.021160654723644257,0.0,0.0017905310960486531,1.0341256856918335,-0.020783722400665283,-0.010266655124723911
231.0,217.0,0.6036,0.9039,9.4786,-0.0467,0.0102,-0.1475,-1.9328772030272425,-0.007735786028206348,3.4296278953552246,-1.635533094406128,0.008090121671557426,2.0307869911193848,5.011028843909063,-0.0007663838914595544,0.2342713326215744,-1.5456231276141565,9.023798338603228e-05,-0.014509923756122589,0.02110002003610134,0.0,-0.001730344956740737,1.034009575843811,-0.01985846646130085,-0.005643895827233791
230.0,221.0,0.2375,0.4893,9.3063,-0.035,0.0331,-0.128,-1.9329735241331996,-0.009673496708273888,3.356093406677246,-1.635477066040039,0.00657352339476347,2.051220655441284,5.0110089657600305,-0.000580866530071944,0.24104741215705872,-1.5455949942218226,8.696805161889642e-05,-0.005907456390559673,0.02114025130867958,0.0,0.009503425098955631,1.0338656902313232,-0.018207356333732605,0.047850146889686584
230.0,221.0,0.2375,0.4893,9.3063,-0.035,0.0331,-0.128,-1.932932039300436,-0.010054433718323708,3.338873863220215,-1.6354128122329712,0.005472517106682062,2.052730083465576,5.010985034495153,-0.00046760914847254753,0.2320842295885086,-1.5456026236163538,8.392686140723526e-05,-0.007921069860458374,0.02110370621085167,0.0,0.025987248867750168,1.0337779521942139,-0.016695620492100716,0.05683393031358719
230.0,221.0,0.2375,0.4893,9.3063,-0.035,0.0331,-0.128,-1.932995935479635,-0.011479559354484081,3.3425145149230957,-1.6354647874832153,0.004204537253826857,2.0255627632141113,5.011016833573141,-0.0004138279764447361,0.23726928234100342,-1.545570198689596,8.201487798942253e-05,-0.00611644284799695,0.021148333325982094,0.0,-0.003961017355322838,1.0337178707122803,-0.01592808961868286,0.027107523754239082
230.0,221.0,0.2375,0.4893,9.3063,-0.035,0.0331,-0.128,-1.933096548120016,-0.011107117868959904,3.2981019020080566,-1.63543701171875,0.0035387377720326185,2.0583977699279785,5.011028843909063,-0.0003529478854034096,0.22927826642990112,-1.5456064383136194,0.000125281629152596,-0.010663090273737907,0.02114025130867958,0.0,0.009173029102385044,1.0336015224456787,-0.015007508918642998,0.059957630932331085
230.0,221.0,0.2375,0.4893,9.3063,-0.035,0.0331,-0.128,-1.9331847629942835,-0.011627246625721455,3.3448925018310547,-1.63544499874115,0.002071230672299862,2.0900683403015137,5.010993081122198,-0.00030768688884563744,0.21934325993061066,-1.545591179524557,0.000117060961201787,-0.0201713889837265,0.021140288561582565,0.0,0.009619363583624363,1.0335336923599243,-0.013357165269553661,0.029000014066696167
230.0,221.0,0.2375,0.4893,9.3063,-0.035,0.0331,-0.128,-1.933261056939596,-0.012653046287596226,3.3110852241516113,-1.6354409456253052,0.0012965364148840308,2.0551440715789795,5.0110047338302515,-0.00027271732687950134,0.2301519513130188,-1.5456307570086878,0.00010858692257897928,-0.01527889259159565,0.021083703264594078,0.0,0.011857887730002403,1.0334097146987915,-0.012120517902076244,0.020319445058703423
230.0,221.0,0.2375,0.4893,9.3063,-0.035,0.0331,-0.128,-1.9332882366576136,-0.013270697556436062,3.2979040145874023,-1.6354329586029053,0.0009529507951810956,2.0192511081695557,5.010985004692831,-0.0002535096718929708,0.23335151374340057,-1.5455744902240198,0.00010358741565141827,-0.018526211380958557,0.021075939759612083,0.0,0.013184413313865662,1.0334101915359497,-0.01265820674598217,0.017428657039999962
230.0,221.0,0.2375,0.4893,9.3063,-0.035,0.0331,-0.128,-1.93339266399526,-0.016101563349366188,3.274348735809326,-1.6354368925094604,0.0006819811533205211,1.9853458404541016,5.0110328672225855,-0.00015836367674637586,0.23497052490711212,-1.5456064383136194,9.689557191450149e-05,-0.012796949595212936,0.0210877675563097,0.0,0.013564704917371273,1.0333179235458374,-0.011527382768690586,0.06157281994819641
230.0,221.0,0.2375,0.4893,9.3063,-0.035,0.0331,-0.128,-1.9334966144957484,-0.016614532098174095,3.354588031768799,-1.6354050636291504,0.0005310332635417581,2.033759117126465,5.0109892068202875,-0.0001431064010830596,0.2367340326309204,-1.545586887990133,9.10160451894626e-05,-0.014961396344006062,0.021172627806663513,0.0,0.007453085854649544,1.0332458019256592,-0.011639428324997425,0.013079768046736717
230.0,221.0,0.2375,0.4893,9.3063,-0.035,0.0331,-0.128,-1.9335280857481898,-0.017761051654815674,3.3045401573181152,-1.6354368925094604,0.00046275689965114,2.0251898765563965,5.011028903513708,-0.0001477517798775807,0.22354567050933838,-1.545558277760641,8.747733954805881e-05,-0.0025670549366623163,0.02110404707491398,0.0,0.00019321893341839314,1.033173680305481,-0.011333073489367962,-0.0003493395633995533
230.0,221.0,0.2375,0.4893,9.3063,-0.035,0.0331,-0.128,-1.9336768589415492,-0.019956031814217567,3.320401191711426,-1.6354050636291504,0.00031793341622687876,2.0586533546447754,5.011028843909063,-0.00014816230395808816,0.23540331423282623,-1.5456231276141565,8.265690121334046e-05,-0.010943932458758354,0.021120116114616394,0.0,0.010220343247056007,1.033113718032837,-0.0121567128226161,-0.01372107770293951
230.0,221.0,0.2375,0.4893,9.3063,-0.035,0.0331,-0.128,-1.9338041744627894,-0.021725796163082123,3.32063627243042,-1.6353410482406616,0.00078275689156726,2.033428192138672,5.010985034495153,-0.0001368968078168109,0.22684285044670105,-1.545570198689596,7.833988638594747e-05,-0.01071103848516941,0.021120082587003708,0.0,0.005800341255962849,1.0330256223678589,-0.012778690084815025,-0.02518167346715927
230.0,221.0,0.2375,0.4893,9.3063,-0.035,0.0331,-0.128,-1.9339286289610804,-0.022140292450785637,3.265760660171509,-1.6354211568832397,0.0014705066569149494,2.035654306411743,5.011045115977087,-0.00012722056999336928,0.2347855269908905,-1.5455825964557093,7.445152004947886e-05,-0.013177910819649696,0.021111933514475822,0.0,0.004635056480765343,1.0329655408859253,-0.012821612879633904,0.009351451881229877
230.0,221.0,0.2375,0.4893,9.3063,-0.035,0.0331,-0.128,-1.9340082607665003,-0.022489288821816444,3.3161158561706543,-1.6353613138198853,0.0018417790997773409,2.075241804122925,5.011016922980108,-0.00012149569374741986,0.22739966213703156,-1.5455825964557093,7.206683949334547e-05,-0.023365739732980728,0.021144257858395576,0.0,0.017469068989157677,1.0328935384750366,-0.012243769131600857,0.03327326849102974
230.0,221.0,0.2375,0.4893,9.3063,-0.035,0.0331,-0.128,-1.9341241321959437,-0.022772274911403656,3.257268190383911,-1.635368824005127,0.002043292159214616,2.073887825012207,5.011020886688986,-0.00013213911734055728,0.21840566396713257,-1.5455825964557093,6.876312545500696e-05,-0.020053448155522346,0.021119680255651474,0.0,0.00040237861685454845,1.0328378677368164,-0.0118549270555377,-0.009564618580043316
230.0,221.0,0.2375,0.4893,9.3063,-0.035,0.0331,-0.128,-1.9342762432494105,-0.022258611395955086,3.2713522911071777,-1.635329008102417,0.002272340701892972,2.062925338745117,5.011032837420263,-0.0001248852931894362,0.23066890239715576,-1.545570198689596,6.574901635758579e-05,-0.01016687136143446,0.021136093884706497,0.0,0.014251576736569405,1.0328059196472168,-0.01152524258941412,-0.052594467997550964
225.0,244.0,0.2213,0.7932,9.524,-0.0205,-0.0082,-0.1225,-1.9343840084471644,-0.02212945558130741,3.239516258239746,-1.63535737991333,0.0018309549195691943,2.0411124229431152,5.011001008539953,-0.00011787539551733062,0.22830049693584442,-1.5455949942218226,6.298804510151967e-05,-0.0025385734625160694,0.021132024005055428,0.0,0.002338408026844263,1.0327093601226807,-0.011235907673835754,0.011214444413781166
225.0,244.0,0.2213,0.7932,9.524,-0.0205,-0.0082,-0.1225,-1.9344798527159632,-0.02214534766972065,3.267587661743164,-1.6353172063827515,0.0014362786896526814,2.0102524757385254,5.011004942446508,-0.0001136233622673899,0.23183295130729675,-1.5455825964557093,7.311587251024321e-05,-0.009008769877254963,0.02116018906235695,1.0429714620840969e-06,0.03624667227268219,1.0326460599899292,-0.011956633999943733,-0.001885717734694481
225.0,244.0,0.2213,0.7932,9.524,-0.0205,-0.0082,-0.1225,-1.9346639118590296,-0.02356201782822609,3.278777837753296,-1.635325312614441,0.0009659370989538729,1.9955601692199707,5.010981189995565,-0.00010779120202641934,0.2332814633846283,-1.5455825964557093,6.040374864824116e-05,-0.019763216376304626,0.021152019500732422,2.9031496651121813e-10,0.012357812374830246,1.03261399269104,-0.011460392735898495,-0.007668292615562677
225.0,244.0,0.2213,0.7932,9.524,-0.0205,-0.0082,-0.1225,-1.9348484478392542,-0.02390548586845398,3.257228374481201,-1.6353291273117065,0.0007622121484018862,2.044440984725952,5.011032897024908,-0.0001025283636408858,0.23462024331092834,-1.545615021382467,5.6645465519977733e-05,-0.01194267813116312,0.021127939224243164,8.081024998468633e-14,0.01825975440442562,1.0325576066970825,-0.011451734229922295,0.024879837408661842
225.0,244.0,0.2213,0.7932,9.524,-0.0205,-0.0082,-0.1225,-1.9349600277342738,-0.024879975244402885,3.2450923919677734,-1.6353015899658203,0.0006936104036867619,2.0480780601501465,5.010997044831075,-0.00010989562724716961,0.2239679992198944,-1.5456064383136194,5.45837938261684e-05,-0.02097638137638569,0.021104104816913605,2.2493831762703576e-17,0.018617406487464905,1.0325018167495728,-0.010912127792835236,0.010113527998328209
225.0,244.0,0.2213,0.7932,9.524,-0.0205,-0.0082,-0.1225,-1.9350477657713832,-0.02558712661266327,3.2433505058288574,-1.6353211402893066,0.0006738718366250396,2.0319175720214844,5.011008935957708,-0.00010835021384991705,0.229854553937912,-1.5456188360797327,5.329097984940745e-05,-0.014717550948262215,0.021099979057908058,9.589473822054279e-20,0.018914641812443733,1.032462239265442,-0.011041623540222645,-0.01751176081597805
225.0,244.0,0.2213,0.7932,9.524,-0.0205,-0.0082,-0.1225,-1.9352156124510707,-0.025231193751096725,3.271684408187866,-1.6353052854537964,0.0009942069882526994,2.0422377586364746,5.0109930513198755,-0.00010367706272518262,0.23084893822669983,-1.5455463568316858,5.14626590302214e-05,-0.013307052664458752,0.021128302440047264,2.6692651740083547e-23,0.016147317364811897,1.0324018001556396,-0.010887601412832737,0.05100153386592865
225.0,244.0,0.2213,0.7932,9.524,-0.0205,-0.0082,-0.1225,-1.9353591404356898,-0.024116119369864464,3.2379937171936035,-1.6352849006652832,0.0014731470728293061,2.0168678760528564,5.010992961912908,-9.938386938301846e-05,0.22348162531852722,-1.5456026236163538,4.975564661435783e-05,-0.024494819343090057,0.021164262667298317,7.429998139760874e-27,0.018294133245944977,1.032281756401062,-0.011431986466050148,0.046580467373132706
225.0,244.0,0.2213,0.7932,9.524,-0.0205,-0.0082,-0.1225,-1.9354554615416468,-0.023038094863295555,3.2480149269104004,-1.6352767944335938,0.001772034098394215,2.0507359504699707,5.0109890578086755,-9.67138257692568e-05,0.23399436473846436,-1.5455787817584437,2.1211612022398185e-07,-0.002892446704208851,0.021188100799918175,3.1675252201664314e-29,0.010443584993481636,1.0322375297546387,-0.0116390660405159,0.046644654124975204
225.0,244.0,0.2213,0.7932,9.524,-0.0205,-0.0082,-0.1225,-1.9356075725951136,-0.021528173238039017,3.239392042160034,-1.6352888345718384,0.0023871834855526686,2.0574896335601807,5.01098113039092,-9.296751522924751e-05,0.2212485373020172,-1.5456350485431116,5.904329802852715e-11,-0.029590953141450882,0.02110377512872219,8.81692247866925e-33,0.029940366744995117,1.032209873199463,-0.012334133498370647,0.006536560598760843
225.0,244.0,0.2213,0.7932,9.524,-0.0205,-0.0082,-0.1225,-1.9357191524901332,-0.02042115479707718,3.279181480407715,-1.635261058807373,0.002285593654960394,2.045496940612793,5.010997044831075,-8.950063784141093e-05,0.22629716992378235,-1.5455949942218226,1.6434917595137093e-14,-0.028353404253721237,0.021132024005055428,2.45422292003077e-36,0.01953751966357231,1.0321018695831299,-0.013659182004630566,0.04431341215968132
225.0,244.0,0.2213,0.7932,9.524,-0.0205,-0.0082,-0.1225,-1.935826917687887,-0.01910540834069252,3.2737741470336914,-1.6353213787078857,0.0018149921670556068,2.0363731384277344,5.0110129592712305,-8.62829911056906e-05,0.22698575258255005,-1.545558277760641,4.574720309772988e-18,-0.02741587534546852,0.02114836685359478,6.831414091491343e-40,0.02110915258526802,1.0320537090301514,-0.01441116537898779,-0.0022931061685085297
225.0,244.0,0.2213,0.7932,9.524,-0.0205,-0.0082,-0.1225,-1.9358626804747523,-0.018058830872178078,3.262131929397583,-1.6352849006652832,0.0014678307343274355,2.0196542739868164,5.011001038342275,-8.426343265455216e-05,0.22895389795303345,-1.545558277760641,1.9502745879305307e-20,-0.016181614249944687,0.02111196517944336,2.91189820886697e-42,0.02168254181742668,1.0319701433181763,-0.015190623700618744,-0.006515313871204853
225.0,244.0,0.2213,0.7932,9.524,-0.0205,-0.0082,-0.1225,-1.9360505543150843,-0.016061244532465935,3.27469539642334,-1.6352248191833496,0.0009717204957269132,2.01782488822937,5.010997074633398,-8.140531281242147e-05,0.22767257690429688,-1.54559833208193,5.4286618874010076e-24,-0.024576295167207718,0.021071365103125572,1.401298464324817e-45,0.008316771127283573,1.0318738222122192,-0.017221638932824135,0.01173570565879345
225.0,244.0,0.2213,0.7932,9.524,-0.0205,-0.0082,-0.1225,-1.936110635797018,-0.012242451310157776,3.2501590251922607,-1.6352450847625732,0.0008176132687367499,2.03208589553833,5.0110008893306635,-5.197654900257476e-06,0.22058570384979248,-1.545586887990133,1.5110878121506335e-27,-0.012958519160747528,0.021131888031959534,0.0,0.011702632531523705,1.0317418575286865,-0.018046796321868896,0.013529214076697826
225.0,244.0,0.2213,0.7932,9.524,-0.0205,-0.0082,-0.1225,-1.9361993275084437,-0.009030439890921116,3.2667737007141113,-1.6352649927139282,0.0007695247186347842,2.0172858238220215,5.0110370991523645,-1.446786246361853e-09,0.2193814069032669,-1.5456064383136194,4.206168462242259e-31,-0.015859227627515793,0.021119680255651474,0.0,0.013704071752727032,1.0316294431686401,-0.019187863916158676,0.012156950309872627
225.0,244.0,0.2213,0.7932,9.524,-0.0205,-0.0082,-0.1225,-1.9361783466734828,-0.007377599366009235,3.261594772338867,-1.6352094411849976,0.0007319848518818617,2.0910592079162598,5.011008846550741,-6.167876973051101e-12,0.2149215191602707,-1.545615021382467,1.7931554697389584e-33,-0.01768837869167328,0.021140098571777344,0.00010521526564843953,0.01916142925620079,1.031610131263733,-0.019820144400000572,-0.00819455087184906
230.0,237.0,0.1902,1.1342,9.5952,-0.0397,0.0273,-0.1515,-1.9361897907652796,-0.004700418096035719,3.2920968532562256,-1.6352248191833496,0.0008779873605817556,2.0956974029541016,5.011008995562353,-1.7168510807897414e-15,0.22932633757591248,-1.5456026236163538,4.99131392287887e-37,-0.03367861360311508,0.021136051043868065,0.00010108430433319882,0.021473946049809456,1.031449317932129,-0.020686673000454903,0.029927130788564682
230.0,237.0,0.1902,1.1342,9.5952,-0.0397,0.0273,-0.1515,-1.9362908802428187,-0.0029927599243819714,3.2330613136291504,-1.6352174282073975,0.0010580916423350573,2.0184929370880127,5.011045115977087,-4.778917598799946e-19,0.22999487817287445,-1.5456188360797327,1.3893453884241264e-40,-0.028781482949852943,0.02114003337919712,9.470294025959447e-05,0.02390555664896965,1.0312973260879517,-0.022145012393593788,0.012287238612771034
230.0,237.0,0.1902,1.1342,9.5952,-0.0397,0.0273,-0.1515,-1.9362546406187953,-0.0017888437723740935,3.307021141052246,-1.6351929903030396,0.0014035501517355442,2.0676424503326416,5.010985034495153,-1.3302292600945423e-22,0.23205257952213287,-1.5455544630633753,3.923635700109488e-44,-0.035908643156290054,0.02113194391131401,0.00010681519052013755,0.027954867109656334,1.0311776399612427,-0.02426902763545513,-0.0016995854675769806
230.0,237.0,0.1902,1.1342,9.5952,-0.0397,0.0273,-0.1515,-1.9362665615477503,-0.0013076957548037171,3.2894248962402344,-1.6352089643478394,0.0017416373593732715,2.0565834045410156,5.0109930513198755,-5.670975108366388e-25,0.2262386530637741,-1.5455949942218226,0.0,-0.025966286659240723,0.021160254254937172,0.0001028230763040483,0.02237640507519245,1.031093716621399,-0.025337237864732742,0.007333820685744286
230.0,237.0,0.1902,1.1342,9.5952,-0.0397,0.0273,-0.1515,-1.9362665615477503,-0.0008465216960757971,3.2848031520843506,-1.6351771354675293,0.0026235426776111126,2.0711870193481445,5.011012989073553,-1.5785367195497425e-28,0.22830495238304138,-1.5455382505999964,0.0,-0.03140035271644592,0.021103668957948685,9.726612188387662e-05,0.017056670039892197,1.0309338569641113,-0.02668970264494419,0.00701979361474514
230.0,237.0,0.1902,1.1342,9.5952,-0.0397,0.0273,-0.1515,-1.9362427196898402,-0.0006257074419409037,3.2357420921325684,-1.6351771354675293,0.0035609030164778233,2.095707416534424,5.0110008893306635,-4.39391471714839e-32,0.2280704826116562,-1.54559833208193,0.0,-0.022883635014295578,0.021152019500732422,0.00010752563684945926,0.015496982261538506,1.0307537317276,-0.02914920262992382,-0.05254875496029854
230.0,237.0,0.1902,1.1342,9.5952,-0.0397,0.0273,-0.1515,-1.9362508259215296,-0.0004962834063917398,3.3332505226135254,-1.6351490020751953,0.005012433510273695,2.0974607467651367,5.011045115977087,-1.223062267972872e-35,0.21602863073349,-1.545586887990133,0.0,-0.03094574436545372,0.021152019500732422,0.0001024090452119708,0.026551930233836174,1.0306100845336914,-0.029524005949497223,0.005643416196107864
230.0,237.0,0.1902,1.1342,9.5952,-0.0397,0.0273,-0.1515,-1.9362946949400843,-0.00043614572496153414,3.2790932655334473,-1.635113000869751,0.005972230341285467,2.071408987045288,5.011016833573141,-5.214106029410241e-38,0.21569374203681946,-1.5455940405475062,0.0,-0.03586244210600853,0.021151995286345482,9.918439900502563e-05,0.02752731367945671,1.030421495437622,-0.03047635219991207,0.018037665635347366
230.0,237.0,0.1902,1.1342,9.5952,-0.0397,0.0273,-0.1515,-1.9362665615477503,-0.0003690671583171934,3.265949010848999,-1.6350773572921753,0.007289370521903038,2.0338926315307617,5.011080938368597,-1.451324819501213e-41,0.22499653697013855,-1.5455940405475062,0.0,-0.0330888032913208,0.021208543330430984,9.471111843595281e-05,0.03609157353639603,1.0302735567092896,-0.033241190016269684,0.03231586888432503
230.0,237.0,0.1902,1.1342,9.5952,-0.0397,0.0273,-0.1515,-1.9362508259215296,-0.0003198737103957683,3.222776174545288,-1.6350009441375732,0.0076432423666119576,2.0781702995300293,5.011045115977087,-4.203895392974451e-45,0.22021308541297913,-1.5455787817584437,0.0,-0.03624214231967926,0.021119680255651474,9.062379103852436e-05,0.018521254882216454,1.0301462411880493,-0.034252747893333435,0.018509499728679657
230.0,237.0,0.1902,1.1342,9.5952,-0.0397,0.0273,-0.1515,-1.9362184009947718,-0.0002937692333944142,3.249941349029541,-1.63498854637146,0.008164217695593834,2.128765106201172,5.011037128954687,-0.0,0.22327330708503723,-1.54559833208193,0.0,-0.02693966031074524,0.021119680255651474,0.00010061859939014539,0.03416500240564346,1.0299134254455566,-0.03643422946333885,0.0498240627348423
230.0,237.0,0.1902,1.1342,9.5952,-0.0397,0.0273,-0.1515,-1.9362465343871058,-0.0001971589372260496,3.2308595180511475,-1.6349486112594604,0.00811791978776455,2.109914779663086,5.010988849192419,-0.0,0.2223263382911682,-1.5455501715289515,0.0,-0.03640391305088997,0.021087652072310448,9.662068623583764e-05,0.029327701777219772,1.0297132730484009,-0.03958404064178467,0.024856574833393097
230.0,237.0,0.1902,1.1342,9.5952,-0.0397,0.0273,-0.1515,-1.9362946949400843,-0.00025079440092667937,3.2350013256073,-1.634880781173706,0.007497317623347044,2.061790704727173,5.011089163809576,-0.0,0.21998780965805054,-1.54559833208193,0.0,-0.044130802154541016,0.02120029181241989,9.288144792662933e-05,0.023953856900334358,1.0294331312179565,-0.04270540550351143,0.04249480739235878
230.0,237.0,0.1902,1.1342,9.5952,-0.0397,0.0273,-0.1515,-1.936310430566305,-0.0012580971233546734,3.2114076614379883,-1.6348402500152588,0.007203150074928999,2.1002774238586426,5.0110288737113855,-0.0,0.22066551446914673,-1.545586887990133,0.0,-0.032465796917676926,0.02113192155957222,8.942077693063766e-05,0.03096020594239235,1.0292295217514038,-0.0462137833237648,0.05757777765393257
230.0,237.0,0.1902,1.1342,9.5952,-0.0397,0.0273,-0.1515,-1.9363061390318812,-0.0013967488193884492,3.239865303039551,-1.6348330974578857,0.006570728030055761,2.03193998336792,5.0109890578086755,-0.0,0.23368844389915466,-1.54559833208193,0.0,-0.04069462791085243,0.021140098571777344,8.725345105631277e-05,0.02779918536543846,1.0290576219558716,-0.04866093769669533,0.05146398767828941
230.0,237.0,0.1902,1.1342,9.5952,-0.0397,0.0273,-0.1515,-1.9362741909422816,-0.0015232344157993793,3.263768196105957,-1.634784460067749,0.006261015776544809,2.016117811203003,5.011016863375463,-0.0,0.22096100449562073,-1.5455859343158167,0.0,-0.03645583987236023,0.021100008860230446,9.931583190336823e-05,0.02420392446219921,1.0287256240844727,-0.04877372831106186,0.061674654483795166
230.0,237.0,0.1902,1.1342,9.5952,-0.0397,0.0273,-0.1515,-1.9362942181029261,-0.0013420451432466507,3.242053985595703,-1.6347410678863525,0.005978847853839397,2.0933337211608887,5.010988849192419,-0.0,0.2256481945514679,-1.54559833208193,0.0,-0.04079569876194,0.02113603800535202,9.340092219645157e-05,0.030549190938472748,1.0284335613250732,-0.047507740557193756,0.06144051253795624
231.0,249.0,0.612,0.5647,9.469,-0.0438,0.0049,-0.1607,-1.9362617931761683,-0.0011642866302281618,3.2325215339660645,-1.6347700357437134,0.0051410566084086895,2.060220241546631,5.0110168037708185,-0.0,0.22242270410060883,-1.5455744902240198,0.0,-0.04807169735431671,0.02115609683096409,8.792598237050697e-05,0.028062008321285248,1.0281493663787842,-0.04499395191669464,0.043761204928159714
231.0,249.0,0.612,0.5647,9.469,-0.0438,0.0049,-0.1607,-1.9362942181029261,-0.0011418156791478395,3.2449357509613037,-1.6347452402114868,0.005220755469053984,2.0923595428466797,5.011037128954687,-0.0,0.22939473390579224,-1.5455825964557093,0.0,-0.03944021463394165,0.021107390522956848,8.461908146273345e-05,0.03504028543829918,1.027941346168518,-0.04194382578134537,0.07806426286697388
