ramyac6/ROB537/final_project/csv/all/bad_60.csv
tof_0,tof_1,accelx,accely,accelz,gyrox,gyroy,gyroz,shoulder_lift_joint_position,shoulder_lift_joint_velocity,shoulder_lift_joint_effort,elbow_joint_position,elbow_joint_velocity,elbow_joint_effort,wrist_1_joint_position,wrist_1_joint_velocity,wrist_1_joint_effort,wrist_2_joint_position,wrist_2_joint_velocity,wrist_2_joint_effort,wrist_3_joint_position,wrist_3_joint_velocity,wrist_3_joint_effort,shoulder_pan_joint_position,shoulder_pan_joint_velocity,shoulder_pan_joint_effort
484.0,187.0,-1.6427,-4.0696,8.5466,-0.0324,0.0254,-0.1167,-1.9639126263060511,0.0,3.673745632171631,-1.5951052904129028,-0.0,2.0356411933898926,4.997137892037191,0.0,0.30248406529426575,-1.1474559942828577,-0.0,-0.061976198107004166,1.2896075248718262,-0.0,0.012025823816657066,0.8911488056182861,0.0,-0.003068570513278246
484.0,187.0,-1.6427,-4.0696,8.5466,-0.0324,0.0254,-0.1167,-1.963940759698385,0.0,3.654294490814209,-1.5950732231140137,-0.0,2.027383327484131,4.9971298454101465,0.0,0.29364490509033203,-1.1474645773517054,-0.0,-0.0484047569334507,1.2896077632904053,-0.0,0.014562519267201424,0.8911328315734863,0.0,0.035847730934619904
484.0,187.0,-1.6427,-4.0696,8.5466,-0.0324,0.0254,-0.1167,-1.9639245472350062,0.0,3.708388090133667,-1.5950530767440796,-0.0,2.0132803916931152,4.997178423195638,0.0,0.2897372245788574,-1.1474645773517054,-0.0,-0.038815248757600784,1.2895915508270264,-0.0,0.022326499223709106,0.8911209106445312,0.0,0.01572766713798046
484.0,187.0,-1.6427,-4.0696,8.5466,-0.0324,0.0254,-0.1167,-1.9639045200743617,0.0,3.670931816101074,-1.5950978994369507,-0.0,2.007462978363037,4.997218119889059,0.0,0.287722647190094,-1.147468392048971,-0.0,-0.04409373179078102,1.289583683013916,-0.0,0.025408916175365448,0.8911569118499756,0.0,0.036586787551641464
484.0,187.0,-1.6427,-4.0696,8.5466,-0.0324,0.0254,-0.1167,-1.9639088116087855,0.0,3.67808198928833,-1.5950692892074585,-0.0,2.05117130279541,4.997113811760702,0.0,0.3071615993976593,-1.1474888960467737,-0.0,-0.045746542513370514,1.2895796298980713,-0.0,0.008555913344025612,0.8911328315734863,0.0,-0.0016552116721868515
484.0,187.0,-1.6427,-4.0696,8.5466,-0.0324,0.0254,-0.1167,-1.963916917840475,0.0,3.6498029232025146,-1.5950814485549927,-0.0,2.060880661010742,4.9972101030643366,0.0,0.29780247807502747,-1.1474726835833948,-0.0,-0.04737219214439392,1.2895996570587158,-0.0,0.02120424434542656,0.8911569118499756,0.0,0.015377568081021309
484.0,187.0,-1.6427,-4.0696,8.5466,-0.0324,0.0254,-0.1167,-1.9639331303038539,0.0,3.701551914215088,-1.5951011180877686,-0.0,2.0488088130950928,4.997177797346868,0.0,0.29215046763420105,-1.1474602858172815,-0.0,-0.04450574517250061,1.2896196842193604,-0.0,0.017541373148560524,0.8911447525024414,0.0,0.0270803552120924
484.0,187.0,-1.6427,-4.0696,8.5466,-0.0324,0.0254,-0.1167,-1.9639650783934535,0.0,3.6786489486694336,-1.595109462738037,-0.0,2.043445348739624,4.997193890600958,0.0,0.27955445647239685,-1.1474602858172815,-0.0,-0.054690033197402954,1.2896194458007812,-0.0,0.01654374599456787,0.891136884689331,0.0,0.04583631828427315
484.0,187.0,-1.6427,-4.0696,8.5466,-0.0324,0.0254,-0.1167,-1.9639088116087855,0.0,3.6649396419525146,-1.5950733423233032,-0.0,1.9925463199615479,4.997205960541525,0.0,0.2920572757720947,-1.1474807898150843,-0.0,-0.0595032274723053,1.2895874977111816,-0.0,0.02140914462506771,0.8911488056182861,0.0,0.010659686289727688
497.0,195.0,-1.6223,-4.0247,8.5705,-0.0426,0.0199,-0.1168,-1.9639207325377406,0.0,3.696918487548828,-1.5950928926467896,-0.0,2.07326602935791,4.997137862234869,0.0,0.29170843958854675,-1.1474888960467737,-0.0,-0.048261918127536774,1.2896034717559814,-0.0,0.016202863305807114,0.8911728858947754,0.0,-0.0003067696816287935
497.0,195.0,-1.6223,-4.0247,8.5705,-0.0426,0.0199,-0.1168,-1.963916917840475,0.0,3.7488765716552734,-1.5950692892074585,-0.0,2.064852237701416,4.997185873776235,0.0,0.2937007248401642,-1.1474888960467737,-0.0,-0.04113379865884781,1.2896156311035156,-0.0,0.007568277884274721,0.8911692500114441,0.0,0.04961702600121498
497.0,195.0,-1.6223,-4.0247,8.5705,-0.0426,0.0199,-0.1168,-1.9639212093748988,0.0,3.6990747451782227,-1.5950970649719238,-0.0,2.0382537841796875,4.997181880265035,0.0,0.2901066839694977,-1.1474645773517054,-0.0,-0.040329959243535995,1.2896158695220947,-0.0,0.027728669345378876,0.891136884689331,0.0,-0.0016774211544543505
497.0,195.0,-1.6223,-4.0247,8.5705,-0.0426,0.0199,-0.1168,-1.963956972161764,0.0,3.6784911155700684,-1.5950815677642822,-0.0,2.036188840866089,4.997178423195638,0.0,0.29186126589775085,-1.147452179585592,-0.0,-0.061483126133680344,1.2895996570587158,-0.0,0.010569272562861443,0.8911246061325073,0.0,0.0059353625401854515
497.0,195.0,-1.6223,-4.0247,8.5705,-0.0426,0.0199,-0.1168,-1.963900705377096,0.0,3.6954736709594727,-1.5950970649719238,-0.0,2.0888519287109375,4.9971742806728265,0.0,0.2942926287651062,-1.1475046316729944,-0.0,-0.05438309162855148,1.28965163230896,-0.0,0.008944514207541943,0.8911770582199097,0.0,0.04633042961359024
497.0,195.0,-1.6223,-4.0247,8.5705,-0.0426,0.0199,-0.1168,-1.9639483890929164,0.0,3.6694633960723877,-1.5950775146484375,-0.0,2.04160737991333,4.9971899566944025,0.0,0.29179835319519043,-1.147452179585592,-0.0,-0.04691581800580025,1.2895915508270264,-0.0,0.018427882343530655,0.8911811709403992,0.0,-0.03073938935995102
497.0,195.0,-1.6223,-4.0247,8.5705,-0.0426,0.0199,-0.1168,-1.9639164410033167,0.0,3.7057013511657715,-1.5951213836669922,-0.0,2.0327110290527344,4.997177797346868,0.0,0.28336554765701294,-1.1474364439593714,-0.0,-0.04883451387286186,1.2896275520324707,-0.0,0.023748308420181274,0.8911287784576416,0.0,-0.000554526224732399
497.0,195.0,-1.6223,-4.0247,8.5705,-0.0426,0.0199,-0.1168,-1.9639650783934535,0.0,3.7216339111328125,-1.595085620880127,-0.0,2.0358943939208984,4.9971899566944025,0.0,0.3032350540161133,-1.1475046316729944,-0.0,-0.046411387622356415,1.2896034717559814,-0.0,0.018687574192881584,0.8911287784576416,0.0,0.022073108702898026
497.0,195.0,-1.6223,-4.0247,8.5705,-0.0426,0.0199,-0.1168,-1.9639364681639613,0.0,3.6492085456848145,-1.5951255559921265,-0.0,2.017348289489746,4.9971662042434595,0.0,0.27951177954673767,-1.1474888960467737,-0.0,-0.05576442554593086,1.2895915508270264,-0.0,0.011764084920287132,0.8911328315734863,0.0,0.03333549201488495
497.0,195.0,-1.6223,-4.0247,8.5705,-0.0426,0.0199,-0.1168,-1.9639526806273402,0.0,3.7054519653320312,-1.5950692892074585,-0.0,2.0574843883514404,4.997141945153036,0.0,0.30120140314102173,-1.1474764982806605,-0.0,-0.05543109402060509,1.289595603942871,-0.0,0.021047476679086685,0.8911529183387756,0.0,-0.030150940641760826
497.0,195.0,-1.6223,-4.0247,8.5705,-0.0426,0.0199,-0.1168,-1.96392883876943,0.0,3.6504921913146973,-1.595085620880127,-0.0,2.0514392852783203,4.997185873776235,0.0,0.29828333854675293,-1.147496525441305,-0.0,-0.053400762379169464,1.289583683013916,-0.0,0.017749374732375145,0.8911405801773071,0.0,0.0013378122821450233
497.0,195.0,-1.6223,-4.0247,8.5705,-0.0426,0.0199,-0.1168,-1.963956972161764,0.0,3.701749563217163,-1.5951296091079712,-0.0,2.0737061500549316,4.9972018776233575,0.0,0.2954515814781189,-1.1475046316729944,-0.0,-0.04784940183162689,1.2896316051483154,-0.0,0.013634644448757172,0.8911405801773071,0.0,0.051253434270620346
497.0,195.0,-1.6223,-4.0247,8.5705,-0.0426,0.0199,-0.1168,-1.9639331303038539,0.0,3.667428970336914,-1.595145583152771,-0.0,2.083552837371826,4.997150200396337,0.0,0.29332348704338074,-1.147480312977926,-0.0,-0.04656487703323364,1.289595603942871,-0.0,0.0140141062438488,0.8911287784576416,0.0,0.029463568702340126
497.0,195.0,-1.6223,-4.0247,8.5705,-0.0426,0.0199,-0.1168,-1.9639331303038539,0.0,3.6434574127197266,-1.5951457023620605,-0.0,2.0351028442382812,4.997158276825704,0.0,0.2847883105278015,-1.1474769751178187,-0.0,-0.048114292323589325,1.2896037101745605,-0.0,0.023005109280347824,0.8911328315734863,0.0,0.03009140118956566
497.0,195.0,-1.6223,-4.0247,8.5705,-0.0426,0.0199,-0.1168,-1.9639326534666957,0.0,3.6292190551757812,-1.5950815677642822,-0.0,2.0155177116394043,4.9971938011939905,0.0,0.2921748757362366,-1.1474726835833948,-0.0,-0.060695864260196686,1.289623498916626,-0.0,0.012501556426286697,0.8911651372909546,0.0,-0.024662118405103683
497.0,195.0,-1.6223,-4.0247,8.5705,-0.0426,0.0199,-0.1168,-1.96392883876943,0.0,3.774853467941284,-1.5951457023620605,-0.0,2.0560085773468018,4.99715422370986,0.0,0.2921663522720337,-1.147452179585592,-0.0,-0.04111011326313019,1.2895796298980713,-0.0,0.023400817066431046,0.8910925984382629,0.0,0.0632987767457962
497.0,195.0,-1.6223,-4.0247,8.5705,-0.0426,0.0199,-0.1168,-1.9639326534666957,0.0,3.7120227813720703,-1.595109462738037,-0.0,2.0437514781951904,4.997178452997961,0.0,0.2988569140434265,-1.1474602858172815,-0.0,-0.03889891505241394,1.289583444595337,-0.0,0.007932698354125023,0.8910925984382629,0.0,0.002300506690517068
497.0,195.0,-1.6223,-4.0247,8.5705,-0.0426,0.0199,-0.1168,-1.9638968906798304,0.0,3.632587432861328,-1.5950970649719238,-0.0,2.0518970489501953,4.997105884342947,0.0,0.2959238588809967,-1.1474726835833948,-0.0,-0.0576668456196785,1.2896595001220703,-0.0,0.00788488332182169,0.8911447525024414,0.0,0.01038842462003231
517.0,192.0,-1.6397,-4.0786,8.5316,-0.037,0.0283,-0.1162,-1.9639131031432093,0.0,3.726404905319214,-1.5951213836669922,-0.0,2.017793655395508,4.99714611747817,0.0,0.3058236539363861,-1.147468392048971,-0.0,-0.048802655190229416,1.2896475791931152,-0.0,0.0006145854131318629,0.8911008238792419,0.0,0.009360924363136292
517.0,192.0,-1.6397,-4.0786,8.5316,-0.037,0.0283,-0.1162,-1.9639488659300746,0.0,3.7176365852355957,-1.5950970649719238,-0.0,2.01377272605896,4.997177797346868,0.0,0.3020209074020386,-1.1475008169757288,-0.0,-0.05496352165937424,1.2896316051483154,-0.0,0.01798415742814541,0.8911246061325073,0.0,0.0605037659406662
517.0,192.0,-1.6397,-4.0786,8.5316,-0.037,0.0283,-0.1162,-1.9639488659300746,0.0,3.6837844848632812,-1.5951052904129028,-0.0,1.9655039310455322,4.9972018776233575,0.0,0.2911791205406189,-1.1474769751178187,-0.0,-0.05206720530986786,1.2896153926849365,-0.0,0.022421997040510178,0.8911204934120178,0.0,0.045700803399086
517.0,192.0,-1.6397,-4.0786,8.5316,-0.037,0.0283,-0.1162,-1.963945051232809,0.0,3.697483777999878,-1.5951135158538818,-0.0,2.0605576038360596,4.997178423195638,0.0,0.28652650117874146,-1.14748460451235,-0.0,-0.04090156406164169,1.2896316051483154,-0.0,0.016726387664675713,0.8911168575286865,0.0,0.04323270916938782
517.0,192.0,-1.6397,-4.0786,8.5316,-0.037,0.0283,-0.1162,-1.963940759698385,0.0,3.6614632606506348,-1.5950970649719238,-0.0,2.0601348876953125,4.997121888190069,0.0,0.29072025418281555,-1.14748460451235,-0.0,-0.04685768485069275,1.289623498916626,-0.0,0.021239295601844788,0.8911728858947754,0.0,0.00030576298013329506
517.0,192.0,-1.6397,-4.0786,8.5316,-0.037,0.0283,-0.1162,-1.96392883876943,0.0,3.670771598815918,-1.5950566530227661,-0.0,2.0469613075256348,4.997205960541525,0.0,0.2822456955909729,-1.1474559942828577,-0.0,-0.04710832238197327,1.2896275520324707,-0.0,0.00772864231839776,0.8911488056182861,0.0,0.015008066780865192
517.0,192.0,-1.6397,-4.0786,8.5316,-0.037,0.0283,-0.1162,-1.963940759698385,0.0,3.7148590087890625,-1.5950815677642822,-0.0,2.048444986343384,4.997150200396337,0.0,0.296856164932251,-1.1474726835833948,-0.0,-0.04079078137874603,1.289595603942871,-0.0,0.012708225287497044,0.8911529183387756,0.0,-0.009275196120142937
517.0,192.0,-1.6397,-4.0786,8.5316,-0.037,0.0283,-0.1162,-1.9639045200743617,0.0,3.6705446243286133,-1.5950888395309448,-0.0,2.0535192489624023,4.9971899566944025,0.0,0.2969527840614319,-1.147468392048971,-0.0,-0.051923103630542755,1.289595603942871,-0.0,0.020365379750728607,0.891112744808197,0.0,0.05669103562831879
517.0,192.0,-1.6397,-4.0786,8.5316,-0.037,0.0283,-0.1162,-1.963945051232809,0.0,3.6782169342041016,-1.5950888395309448,-0.0,2.0056354999542236,4.997194129019537,0.0,0.307143896818161,-1.147468392048971,-0.0,-0.052783843129873276,1.2895677089691162,-0.0,0.004327922128140926,0.8911447525024414,0.0,-0.02525421977043152
517.0,192.0,-1.6397,-4.0786,8.5316,-0.037,0.0283,-0.1162,-1.9638968906798304,0.0,3.699479103088379,-1.5951011180877686,-0.0,2.0269722938537598,4.997121888190069,0.0,0.29170966148376465,-1.1475127379046839,-0.0,-0.0485113263130188,1.2896475791931152,-0.0,0.018800023943185806,0.8911168575286865,0.0,-0.03553202003240585
517.0,192.0,-1.6397,-4.0786,8.5316,-0.037,0.0283,-0.1162,-1.9639045200743617,0.0,3.6981868743896484,-1.595149278640747,-0.0,2.0122838020324707,4.99720590093688,0.0,0.29748448729515076,-1.1474559942828577,-0.0,-0.05256880819797516,1.2895557880401611,-0.0,0.007486458867788315,0.8911008238792419,0.0,0.01944977603852749
517.0,192.0,-1.6397,-4.0786,8.5316,-0.037,0.0283,-0.1162,-1.963940759698385,0.0,3.7067253589630127,-1.5951052904129028,-0.0,2.044822931289673,4.997154193907537,0.0,0.2867957651615143,-1.1474407354937952,-0.0,-0.05185992270708084,1.2895994186401367,-0.0,0.019230719655752182,0.8911651372909546,0.0,-0.052118171006441116
517.0,192.0,-1.6397,-4.0786,8.5316,-0.037,0.0283,-0.1162,-1.963945051232809,0.0,3.6676244735717773,-1.595093011856079,-0.0,1.9951627254486084,4.997170227556982,0.0,0.2798374891281128,-1.1475046316729944,-0.0,-0.048499494791030884,1.289595603942871,-0.0,0.017866186797618866,0.8911085724830627,0.0,0.05322645604610443
517.0,192.0,-1.6397,-4.0786,8.5316,-0.037,0.0283,-0.1162,-1.9639088116087855,0.0,3.7073709964752197,-1.5951255559921265,-0.0,2.067401647567749,4.997170197754659,0.0,0.2930103838443756,-1.1474364439593714,-0.0,-0.043462157249450684,1.2895996570587158,-0.0,0.020570743829011917,0.8911246061325073,0.0,-0.030244000256061554
517.0,192.0,-1.6397,-4.0786,8.5316,-0.037,0.0283,-0.1162,-1.9639445743956507,0.0,3.6850852966308594,-1.5951173305511475,-0.0,2.0206146240234375,4.997146147280493,0.0,0.2904259264469147,-1.14748460451235,-0.0,-0.05467737466096878,1.289583683013916,-0.0,0.01855737715959549,0.891112744808197,0.0,0.0163983516395092
517.0,192.0,-1.6397,-4.0786,8.5316,-0.037,0.0283,-0.1162,-1.9639207325377406,0.0,3.672342538833618,-1.5950692892074585,-0.0,2.0413548946380615,4.997141974955358,0.0,0.2953040599822998,-1.1474559942828577,-0.0,-0.056951478123664856,1.2896596193313599,-0.0,0.01512780413031578,0.8910967707633972,0.0,0.0021970877423882484
517.0,192.0,-1.6397,-4.0786,8.5316,-0.037,0.0283,-0.1162,-1.9639245472350062,0.0,3.662227153778076,-1.595173954963684,-0.0,2.0576610565185547,4.997137892037191,0.0,0.2944859564304352,-1.1474645773517054,-0.0,-0.04413433000445366,1.2896316051483154,-0.0,0.011103826574981213,0.8911610841751099,0.0,-0.015080878511071205
517.0,192.0,-1.6397,-4.0786,8.5316,-0.037,0.0283,-0.1162,-1.9639364681639613,0.0,3.662761688232422,-1.595109462738037,-0.0,2.05578875541687,4.997194069414892,0.0,0.3129624128341675,-1.1474927107440394,-0.0,-0.049143947660923004,1.289583683013916,-0.0,0.0211106576025486,0.8911930918693542,0.0,0.019684504717588425
505.0,185.0,-1.5978,-4.0457,8.5508,-0.0338,0.0286,-0.1248,-1.9639655552306117,0.0,3.7052483558654785,-1.59506094455719,-0.0,2.0702366828918457,4.997170167952337,0.0,0.28977125883102417,-1.1475008169757288,-0.0,-0.05871975049376488,1.2896034717559814,-0.0,0.027619466185569763,0.8911409974098206,0.0,-0.026981938630342484
505.0,185.0,-1.5978,-4.0457,8.5508,-0.0338,0.0286,-0.1248,-1.963997026483053,0.0,3.6650400161743164,-1.5950970649719238,-0.0,2.0353167057037354,4.997137892037191,0.0,0.28952109813690186,-1.1474888960467737,-0.0,-0.058531831949949265,1.289583683013916,-0.0,0.015546366572380066,0.891136884689331,0.0,0.03789747133851051
505.0,185.0,-1.5978,-4.0457,8.5508,-0.0338,0.0286,-0.1248,-1.96392883876943,0.0,3.6945929527282715,-1.5950288772583008,-0.0,2.0115749835968018,4.9971662042434595,0.0,0.2856002151966095,-1.1475208441363733,-0.0,-0.04277794435620308,1.289563536643982,-0.0,0.019560275599360466,0.8911488056182861,0.0,0.015146755613386631
505.0,185.0,-1.5978,-4.0457,8.5508,-0.0338,0.0286,-0.1248,-1.963940759698385,0.0,3.6734509468078613,-1.5951011180877686,-0.0,2.0489494800567627,4.997170197754659,0.0,0.29719632863998413,-1.1474807898150843,-0.0,-0.05649850517511368,1.289583683013916,-0.0,0.009771772660315037,0.891112744808197,0.0,0.011915553361177444
505.0,185.0,-1.5978,-4.0457,8.5508,-0.0338,0.0286,-0.1248,-1.9639488659300746,0.0,3.705399990081787,-1.5950651168823242,-0.0,2.0073435306549072,4.997154193907537,0.0,0.28001126646995544,-1.1474888960467737,-0.0,-0.05804828554391861,1.289595603942871,-0.0,0.013042527250945568,0.8911168575286865,0.0,0.049476079642772675
505.0,185.0,-1.5978,-4.0457,8.5508,-0.0338,0.0286,-0.1248,-1.9639727077879847,0.0,3.6685872077941895,-1.5951213836669922,-0.0,2.0064210891723633,4.997170197754659,0.0,0.29829126596450806,-1.1474970022784632,-0.0,-0.05573863536119461,1.2896394729614258,-0.0,0.007040529511868954,0.8911328315734863,0.0,0.038267362862825394
505.0,185.0,-1.5978,-4.0457,8.5508,-0.0338,0.0286,-0.1248,-1.963916917840475,0.0,3.7058162689208984,-1.595133662223816,-0.0,2.0111160278320312,4.997166502266683,0.0,0.2878967523574829,-1.147468392048971,-0.0,-0.04463755339384079,1.2896037101745605,-0.0,0.02542072907090187,0.8911770582199097,0.0,0.03541502356529236
505.0,185.0,-1.5978,-4.0457,8.5508,-0.0338,0.0286,-0.1248,-1.963916917840475,0.0,3.7034752368927,-1.5951296091079712,-0.0,2.0409128665924072,4.9971899566944025,0.0,0.2954762876033783,-1.1474364439593714,-0.0,-0.05790489539504051,1.2895915508270264,-0.0,0.019527796655893326,0.8911692500114441,0.0,0.0477307066321373
505.0,185.0,-1.5978,-4.0457,8.5508,-0.0338,0.0286,-0.1248,-1.9639126263060511,0.0,3.673896312713623,-1.595041275024414,-0.0,2.003912925720215,4.997154193907537,0.0,0.2955482602119446,-1.147480312977926,-0.0,-0.044287823140621185,1.289563536643982,-0.0,0.019201137125492096,0.8911569714546204,0.0,0.01792086660861969
505.0,185.0,-1.5978,-4.0457,8.5508,-0.0338,0.0286,-0.1248,-1.9639808140196742,0.0,3.676025152206421,-1.5951496362686157,-0.0,2.009242534637451,4.9971899566944025,0.0,0.2914040684700012,-1.1474559942828577,-0.0,-0.05067098140716553,1.2895915508270264,-0.0,0.011659055948257446,0.8910762667655945,0.0,-0.03321452811360359
505.0,185.0,-1.5978,-4.0457,8.5508,-0.0338,0.0286,-0.1248,-1.9639126263060511,0.0,3.6555423736572266,-1.595085620880127,-0.0,2.0369627475738525,4.9971742806728265,0.0,0.29878073930740356,-1.1475165526019495,-0.0,-0.049257561564445496,1.2896034717559814,-0.0,0.01764851063489914,0.8911328315734863,0.0,-0.008013932965695858
505.0,185.0,-1.5978,-4.0457,8.5508,-0.0338,0.0286,-0.1248,-1.9639045200743617,0.0,3.704498767852783,-1.5950847864151,-0.0,2.0367846488952637,4.9971899566944025,0.0,0.29518741369247437,-1.147452179585592,-0.0,-0.042247213423252106,1.289571762084961,-0.0,0.011087329126894474,0.8911328315734863,0.0,0.050587862730026245
505.0,185.0,-1.5978,-4.0457,8.5508,-0.0338,0.0286,-0.1248,-1.9639088116087855,0.0,3.678417205810547,-1.5951378345489502,-0.0,2.010007858276367,4.997178423195638,0.0,0.282413512468338,-1.147468392048971,-0.0,-0.04338808357715607,1.2895876169204712,-0.0,0.029792288318276405,0.891096830368042,0.0,-0.024628378450870514
505.0,185.0,-1.5978,-4.0457,8.5508,-0.0338,0.0286,-0.1248,-1.9639126263060511,0.0,3.651646375656128,-1.5951135158538818,-0.0,2.07785701751709,4.9971742806728265,0.0,0.29897961020469666,-1.14748460451235,-0.0,-0.036073971539735794,1.289611577987671,-0.0,-0.004792877472937107,0.8911085724830627,0.0,0.02821260876953602
505.0,185.0,-1.5978,-4.0457,8.5508,-0.0338,0.0286,-0.1248,-1.9639331303038539,0.0,3.672494888305664,-1.5950897932052612,-0.0,2.004840612411499,4.997162121325292,0.0,0.2936106026172638,-1.1474602858172815,-0.0,-0.052964188158512115,1.2896034717559814,-0.0,0.021104581654071808,0.8911409974098206,0.0,0.02794978767633438
505.0,185.0,-1.5978,-4.0457,8.5508,-0.0338,0.0286,-0.1248,-1.963945051232809,0.0,3.7093358039855957,-1.5950897932052612,-0.0,1.9724011421203613,4.9971662042434595,0.0,0.2836126685142517,-1.147524658833639,-0.0,-0.05922570824623108,1.2895996570587158,-0.0,0.010301505215466022,0.8911168575286865,0.0,-0.006297096610069275
505.0,185.0,-1.5978,-4.0457,8.5508,-0.0338,0.0286,-0.1248,-1.963945051232809,0.0,3.6769680976867676,-1.5951176881790161,-0.0,2.025989294052124,4.9971825061138055,0.0,0.29430991411209106,-1.1474602858172815,-0.0,-0.04867666959762573,1.289583683013916,-0.0,-0.00026738038286566734,0.891124963760376,0.0,-0.03373558819293976
505.0,185.0,-1.5978,-4.0457,8.5508,-0.0338,0.0286,-0.1248,-1.963916917840475,0.0,3.6785573959350586,-1.5950847864151,-0.0,2.021986484527588,4.997154193907537,0.0,0.29369446635246277,-1.1474440733539026,-0.0,-0.05775037407875061,1.2896075248718262,-0.0,0.013879711739718914,0.8911008238792419,0.0,0.00013758335262537003
502.0,198.0,-1.6253,-4.0463,8.6387,-0.0342,0.0231,-0.115,-1.963916917840475,0.0,3.7168970108032227,-1.5951255559921265,-0.0,1.9656765460968018,4.997181880265035,0.0,0.29624393582344055,-1.1474726835833948,-0.0,-0.0463433563709259,1.2896034717559814,-0.0,0.005583757534623146,0.8911089897155762,0.0,0.026656176894903183
502.0,198.0,-1.6253,-4.0463,8.6387,-0.0342,0.0231,-0.115,-1.9639808140196742,0.0,3.713303565979004,-1.5951175689697266,-0.0,2.0209548473358154,4.997185873776235,0.0,0.276432067155838,-1.1474559942828577,-0.0,-0.059399038553237915,1.2896037101745605,-0.0,0.011157453991472721,0.8911447525024414,0.0,-0.031039679422974586
502.0,198.0,-1.6253,-4.0463,8.6387,-0.0342,0.0231,-0.115,-1.9639650783934535,0.0,3.6663246154785156,-1.5950775146484375,-0.0,2.0106964111328125,4.997185873776235,0.0,0.2981373369693756,-1.147468392048971,-0.0,-0.05813455581665039,1.2895796298980713,-0.0,0.010460508055984974,0.891124963760376,0.0,0.007353237830102444
502.0,198.0,-1.6253,-4.0463,8.6387,-0.0342,0.0231,-0.115,-1.9639927349486292,0.0,3.7049596309661865,-1.5950732231140137,-0.0,2.019688606262207,4.99714611747817,0.0,0.30657848715782166,-1.147468392048971,-0.0,-0.054432325065135956,1.289571762084961,-0.0,0.00648491783067584,0.8911651372909546,0.0,0.00584122259169817
502.0,198.0,-1.6253,-4.0463,8.6387,-0.0342,0.0231,-0.115,-1.963916917840475,0.0,3.69490385055542,-1.5951296091079712,-0.0,2.0338492393493652,4.997137892037191,0.0,0.3090571463108063,-1.1475008169757288,-0.0,-0.04114581644535065,1.289611577987671,-0.0,0.01342331524938345,0.8910844922065735,0.0,0.01041821576654911
502.0,198.0,-1.6253,-4.0463,8.6387,-0.0342,0.0231,-0.115,-1.9639650783934535,0.0,3.7236547470092773,-1.5950815677642822,-0.0,2.0308642387390137,4.997141945153036,0.0,0.2895466387271881,-1.1474807898150843,-0.0,-0.050259072333574295,1.289671540260315,-0.0,0.005321416072547436,0.891136884689331,0.0,0.004712858237326145
502.0,198.0,-1.6253,-4.0463,8.6387,-0.0342,0.0231,-0.115,-1.96392883876943,0.0,3.6873819828033447,-1.595137357711792,-0.0,2.0464155673980713,4.997170197754659,0.0,0.29596883058547974,-1.1474726835833948,-0.0,-0.0462338924407959,1.2896435260772705,-0.0,0.008641328662633896,0.8911529183387756,0.0,0.009870730340480804
502.0,198.0,-1.6253,-4.0463,8.6387,-0.0342,0.0231,-0.115,-1.9639088116087855,0.0,3.6807899475097656,-1.5951011180877686,-0.0,2.0258371829986572,4.9972018776233575,0.0,0.2927834391593933,-1.1475089232074183,-0.0,-0.051345933228731155,1.2895756959915161,-0.0,0.019570384174585342,0.8911365270614624,0.0,0.010329612530767918
502.0,198.0,-1.6253,-4.0463,8.6387,-0.0342,0.0231,-0.115,-1.9639245472350062,0.0,3.6756949424743652,-1.5951255559921265,-0.0,2.0231759548187256,4.9971742806728265,0.0,0.2903826832771301,-1.1474602858172815,-0.0,-0.05109746754169464,1.2895677089691162,-0.0,0.01368175819516182,0.8911811709403992,0.0,-0.004412113223224878
502.0,198.0,-1.6253,-4.0463,8.6387,-0.0342,0.0231,-0.115,-1.9639126263060511,0.0,3.6732027530670166,-1.595149278640747,-0.0,2.008598804473877,4.997162449150839,0.0,0.29096320271492004,-1.1474726835833948,-0.0,-0.05470654368400574,1.2895795106887817,-0.0,0.010987561196088791,0.891112744808197,0.0,-0.007651172578334808
502.0,198.0,-1.6253,-4.0463,8.6387,-0.0342,0.0231,-0.115,-1.963945051232809,0.0,3.6472346782684326,-1.5951415300369263,-0.0,2.0236828327178955,4.997170197754659,0.0,0.29601410031318665,-1.14748460451235,-0.0,-0.053910985589027405,1.2896153926849365,-0.0,0.02621898427605629,0.8911008238792419,0.0,0.0006295442581176758
502.0,198.0,-1.6253,-4.0463,8.6387,-0.0342,0.0231,-0.115,-1.9639488659300746,0.0,3.7279467582702637,-1.595101237297058,-0.0,2.050095796585083,4.9971742806728265,0.0,0.2999626398086548,-1.1475089232074183,-0.0,-0.05439579486846924,1.2896276712417603,-0.0,0.018864011391997337,0.8911447525024414,0.0,-0.022325744852423668
502.0,198.0,-1.6253,-4.0463,8.6387,-0.0342,0.0231,-0.115,-1.9639126263060511,0.0,3.6884055137634277,-1.5951250791549683,-0.0,2.0537538528442383,4.997158276825704,0.0,0.2951042056083679,-1.1474726835833948,-0.0,-0.03902635723352432,1.289595603942871,-0.0,0.0185190849006176,0.8911733031272888,0.0,-0.015548640862107277
502.0,198.0,-1.6253,-4.0463,8.6387,-0.0342,0.0231,-0.115,-1.9639164410033167,0.0,3.6951303482055664,-1.595069169998169,-0.0,2.0453097820281982,4.997150200396337,0.0,0.30684801936149597,-1.1474726835833948,-0.0,-0.04908694326877594,1.2896156311035156,-0.0,0.019108375534415245,0.8911811709403992,0.0,0.05278923362493515
502.0,198.0,-1.6253,-4.0463,8.6387,-0.0342,0.0231,-0.115,-1.9639045200743617,0.0,3.657423257827759,-1.5951257944107056,-0.0,2.0334904193878174,4.99714611747817,0.0,0.27829602360725403,-1.1474884192096155,-0.0,-0.04919573664665222,1.2896037101745605,-0.0,0.014982685446739197,0.8911246061325073,0.0,0.02674045041203499
502.0,198.0,-1.6253,-4.0463,8.6387,-0.0342,0.0231,-0.115,-1.963956972161764,0.0,3.6889350414276123,-1.595101237297058,-0.0,2.065546751022339,4.9971899566944025,0.0,0.283875048160553,-1.147452179585592,-0.0,-0.05499626696109772,1.2895996570587158,-0.0,-0.00061810202896595,0.8911085724830627,0.0,0.04036790132522583
502.0,198.0,-1.6253,-4.0463,8.6387,-0.0342,0.0231,-0.115,-1.9639488659300746,0.0,3.6512436866760254,-1.5951135158538818,-0.0,2.0387611389160156,4.9971662042434595,0.0,0.2836828827857971,-1.1474488417254847,-0.0,-0.057676978409290314,1.2896156311035156,-0.0,-0.001443077577278018,0.8911209106445312,0.0,-0.011575336568057537
502.0,198.0,-1.6253,-4.0463,8.6387,-0.0342,0.0231,-0.115,-1.963940759698385,0.0,3.709562063217163,-1.595069169998169,-0.0,2.0231404304504395,4.997158276825704,0.0,0.2917212247848511,-1.1474927107440394,-0.0,-0.04241479933261871,1.2896156311035156,-0.0,0.012728302739560604,0.8911287784576416,0.0,0.018820365890860558
501.0,191.0,-1.593,-4.0295,8.6082,-0.0324,0.0371,-0.1199,-1.963956972161764,0.0,3.6875181198120117,-1.5950732231140137,-0.0,2.0574965476989746,4.997150200396337,0.0,0.3018559217453003,-1.1474927107440394,-0.0,-0.051350176334381104,1.2896075248718262,-0.0,0.013292845338582993,0.8911488056182861,0.0,0.04206814616918564
501.0,191.0,-1.593,-4.0295,8.6082,-0.0324,0.0371,-0.1199,-1.963945051232809,0.0,3.656635284423828,-1.5950772762298584,-0.0,2.0267105102539062,4.997158247023382,0.0,0.2862209975719452,-1.1474888960467737,-0.0,-0.05509590357542038,1.289623498916626,-0.0,0.01068492978811264,0.8911529183387756,0.0,0.039525292813777924
501.0,191.0,-1.593,-4.0295,8.6082,-0.0324,0.0371,-0.1199,-1.9639331303038539,0.0,3.675629138946533,-1.5951539278030396,-0.0,1.9926316738128662,4.997193771391668,0.0,0.29924601316452026,-1.1475008169757288,-0.0,-0.044653650373220444,1.2896196842193604,-0.0,0.020391864702105522,0.8911328315734863,0.0,-0.005109647288918495
501.0,191.0,-1.593,-4.0295,8.6082,-0.0324,0.0371,-0.1199,-1.9639488659300746,0.0,3.688866376876831,-1.5950329303741455,-0.0,2.0370664596557617,4.997202265053549,0.0,0.2858714759349823,-1.1474559942828577,-0.0,-0.05813312530517578,1.289611577987671,-0.0,0.006803661119192839,0.891136884689331,0.0,0.010611310601234436
501.0,191.0,-1.593,-4.0295,8.6082,-0.0324,0.0371,-0.1199,-1.9639488659300746,0.0,3.6785435676574707,-1.5950897932052612,-0.0,2.041376829147339,4.997158485441961,0.0,0.29572492837905884,-1.1474769751178187,-0.0,-0.05550047755241394,1.2896474599838257,-0.0,0.014627398923039436,0.8911405801773071,0.0,0.033116936683654785
501.0,191.0,-1.593,-4.0295,8.6082,-0.0324,0.0371,-0.1199,-1.963945051232809,0.0,3.714416980743408,-1.595133662223816,-0.0,2.0683207511901855,4.997170197754659,0.0,0.29751238226890564,-1.1475008169757288,-0.0,-0.0586940236389637,1.2895758152008057,-0.0,0.008823966607451439,0.8910925984382629,0.0,0.024520009756088257
501.0,191.0,-1.593,-4.0295,8.6082,-0.0324,0.0371,-0.1199,-1.963956972161764,0.0,3.7184767723083496,-1.5950815677642822,-0.0,2.053509473800659,4.997197854309835,0.0,0.2982133626937866,-1.1474602858172815,-0.0,-0.03263750672340393,1.2896076440811157,-0.0,0.017595984041690826,0.8911168575286865,0.0,0.03633129596710205
501.0,191.0,-1.593,-4.0295,8.6082,-0.0324,0.0371,-0.1199,-1.9638964138426722,0.0,3.698038339614868,-1.5951175689697266,-0.0,2.024087905883789,4.997170197754659,0.0,0.28722018003463745,-1.1474927107440394,-0.0,-0.04622030258178711,1.2896075248718262,-0.0,0.00632245559245348,0.8911811709403992,0.0,-0.013632283546030521
501.0,191.0,-1.593,-4.0295,8.6082,-0.0324,0.0371,-0.1199,-1.9639126263060511,0.0,3.6702048778533936,-1.595133662223816,-0.0,2.0321269035339355,4.997194069414892,0.0,0.2885897159576416,-1.1474445501910608,-0.0,-0.06974967569112778,1.2896156311035156,-0.0,0.003958793822675943,0.8911246061325073,0.0,0.03457260876893997
501.0,191.0,-1.593,-4.0295,8.6082,-0.0324,0.0371,-0.1199,-1.9639164410033167,0.0,3.6884593963623047,-1.5950775146484375,-0.0,2.0477662086486816,4.997141974955358,0.0,0.29291242361068726,-1.1474764982806605,-0.0,-0.04510517418384552,1.2895996570587158,-0.0,0.00012034818064421415,0.8911770582199097,0.0,-0.02464648336172104
501.0,191.0,-1.593,-4.0295,8.6082,-0.0324,0.0371,-0.1199,-1.9639088116087855,0.0,3.66530179977417,-1.595093011856079,-0.0,2.0647389888763428,4.99715422370986,0.0,0.28280314803123474,-1.1474927107440394,-0.0,-0.05474467948079109,1.2896554470062256,-0.0,0.0050894226878881454,0.8911089897155762,0.0,-0.04124745354056358
501.0,191.0,-1.593,-4.0295,8.6082,-0.0324,0.0371,-0.1199,-1.9639650783934535,0.0,3.6767642498016357,-1.5950847864151,-0.0,2.0707528591156006,4.997185873776235,0.0,0.3071431815624237,-1.147468392048971,-0.0,-0.05523054301738739,1.2895915508270264,-0.0,0.007882334291934967,0.8911328315734863,0.0,0.0037172846496105194
501.0,191.0,-1.593,-4.0295,8.6082,-0.0324,0.0371,-0.1199,-1.9639331303038539,0.0,3.683671474456787,-1.595093011856079,-0.0,2.038393497467041,4.997162449150839,0.0,0.296973317861557,-1.1474726835833948,-0.0,-0.04591268301010132,1.2895756959915161,-0.0,4.266155883669853e-05,0.8911651372909546,0.0,0.01842547580599785
501.0,191.0,-1.593,-4.0295,8.6082,-0.0324,0.0371,-0.1199,-1.963956972161764,0.0,3.6972403526306152,-1.59506094455719,-0.0,1.978611707687378,4.997181880265035,0.0,0.30819347500801086,-1.1474645773517054,-0.0,-0.044187504798173904,1.2896236181259155,-0.0,0.014926988631486893,0.8911168575286865,0.0,0.007378515787422657
501.0,191.0,-1.593,-4.0295,8.6082,-0.0324,0.0371,-0.1199,-1.9639889202513636,0.0,3.682330846786499,-1.5951011180877686,-0.0,2.051290273666382,4.9971379218395136,0.0,0.2875411808490753,-1.1475046316729944,-0.0,-0.06653938442468643,1.289583683013916,-0.0,0.014601578935980797,0.8911049365997314,0.0,-0.027406182140111923
501.0,191.0,-1.593,-4.0295,8.6082,-0.0324,0.0371,-0.1199,-1.9639207325377406,0.0,3.694301128387451,-1.5950692892074585,-0.0,1.997818946838379,4.997170197754659,0.0,0.2930971086025238,-1.14748460451235,-0.0,-0.042605455964803696,1.2896195650100708,-0.0,0.01993577927350998,0.8911246061325073,0.0,-0.0005462588742375374
501.0,191.0,-1.593,-4.0295,8.6082,-0.0324,0.0371,-0.1199,-1.963940759698385,0.0,3.6548209190368652,-1.595085620880127,-0.0,2.01155424118042,4.997162121325292,0.0,0.2996746301651001,-1.147468392048971,-0.0,-0.0532262846827507,1.2895996570587158,-0.0,0.00954944547265768,0.891136884689331,0.0,0.023531150072813034
501.0,191.0,-1.593,-4.0295,8.6082,-0.0324,0.0371,-0.1199,-1.9638964138426722,0.0,3.7194223403930664,-1.5951052904129028,-0.0,2.0409419536590576,4.997162121325292,0.0,0.2856081426143646,-1.1475046316729944,-0.0,-0.052445217967033386,1.289595603942871,-0.0,0.0048440564423799515,0.8911287784576416,0.0,0.026248596608638763
490.0,193.0,-1.596,-4.0355,8.5872,-0.0338,0.0212,-0.1213,-1.9639164410033167,0.0,3.691023826599121,-1.595109462738037,-0.0,1.9962902069091797,4.997218119889059,0.0,0.2844722270965576,-1.147524658833639,-0.0,-0.04415266588330269,1.289635419845581,-0.0,0.015593046322464943,0.8911492228507996,0.0,0.05533655732870102
490.0,193.0,-1.596,-4.0355,8.5872,-0.0338,0.0212,-0.1213,-1.9639088116087855,0.0,3.664926052093506,-1.5951217412948608,-0.0,2.000466823577881,4.997162449150839,0.0,0.30361735820770264,-1.1474688688861292,-0.0,-0.04616934061050415,1.2896355390548706,-0.0,0.012956967577338219,0.891136884689331,0.0,-0.021547937765717506
490.0,193.0,-1.596,-4.0355,8.5872,-0.0338,0.0212,-0.1213,-1.9639245472350062,0.0,3.6849403381347656,-1.5951615571975708,-0.0,2.057642936706543,4.997154193907537,0.0,0.29688560962677,-1.14748460451235,-0.0,-0.05307107791304588,1.2895996570587158,-0.0,0.009107936173677444,0.891136884689331,0.0,0.010585661977529526
490.0,193.0,-1.596,-4.0355,8.5872,-0.0338,0.0212,-0.1213,-1.9639088116087855,0.0,3.654115915298462,-1.5950775146484375,-0.0,2.0322365760803223,4.9971742806728265,0.0,0.28840839862823486,-1.1474807898150843,-0.0,-0.06364303827285767,1.2896156311035156,-0.0,0.007223309017717838,0.8910885453224182,0.0,-0.0017965110018849373
490.0,193.0,-1.596,-4.0355,8.5872,-0.0338,0.0212,-0.1213,-1.9639488659300746,0.0,3.6863279342651367,-1.5951011180877686,-0.0,1.9760212898254395,4.997162449150839,0.0,0.28403347730636597,-1.1474445501910608,-0.0,-0.06295622885227203,1.2895876169204712,-4.0524437139310976e-08,0.02284969389438629,0.8910967707633972,0.0,0.01842019520699978
490.0,193.0,-1.596,-4.0355,8.5872,-0.0338,0.0212,-0.1213,-1.963940759698385,0.0,3.6730291843414307,-1.5951296091079712,-0.0,2.034064531326294,4.997133898525991,0.0,0.2907443046569824,-1.1475208441363733,-0.0,-0.048756591975688934,1.2896474599838257,-1.1280124403989511e-11,0.016728568822145462,0.8911529183387756,0.0,0.000963390339165926
490.0,193.0,-1.596,-4.0355,8.5872,-0.0338,0.0212,-0.1213,-1.9639765224852503,0.0,3.6706762313842773,-1.5951415300369263,-0.0,2.0312929153442383,4.997133898525991,0.0,0.30592191219329834,-1.147452179585592,-0.0,-0.058065496385097504,1.289531946182251,-3.1398636793198874e-15,0.0038980033714324236,0.8911405801773071,0.0,0.019869022071361542
490.0,193.0,-1.596,-4.0355,8.5872,-0.0338,0.0212,-0.1213,-1.963940759698385,0.0,3.652707576751709,-1.5951576232910156,-0.0,2.0210201740264893,4.997170197754659,0.0,0.3019557595252991,-1.147452179585592,-0.0,-0.0440140925347805,1.2895915508270264,-1.3385732802992388e-17,0.02150491625070572,0.8911610841751099,0.0,-0.034190960228443146
490.0,193.0,-1.596,-4.0355,8.5872,-0.0338,0.0212,-0.1213,-1.963940759698385,0.0,3.694683074951172,-1.595077395439148,-0.0,2.0486812591552734,4.997137892037191,0.0,0.297579288482666,-1.1474478880511683,-0.0,-0.05516771972179413,1.289611577987671,-3.72596842627584e-21,0.011082382872700691,0.8911651372909546,0.0,0.017087038606405258
490.0,193.0,-1.596,-4.0355,8.5872,-0.0338,0.0212,-0.1213,-1.9639445743956507,0.0,3.6754865646362305,-1.5950732231140137,-0.0,2.027864933013916,4.9971662042434595,0.0,0.29692545533180237,-1.1474888960467737,-0.0,-0.06048144772648811,1.2895996570587158,-1.588438643611632e-23,0.015234725549817085,0.8911287784576416,0.0,-0.0013226009905338287
490.0,193.0,-1.596,-4.0355,8.5872,-0.0338,0.0212,-0.1213,-1.96392883876943,0.0,3.692732810974121,-1.5951217412948608,-0.0,1.9990484714508057,4.9971742806728265,0.0,0.29682832956314087,-1.1474884192096155,-0.0,-0.04863489419221878,1.2896314859390259,-4.421477551358307e-27,0.018698230385780334,0.8911811709403992,0.0,-0.02227517031133175
490.0,193.0,-1.596,-4.0355,8.5872,-0.0338,0.0212,-0.1213,-1.963945051232809,0.0,3.6662840843200684,-1.595101237297058,-0.0,2.0305960178375244,4.997170197754659,0.0,0.2873234748840332,-1.1474478880511683,-0.0,-0.04715938866138458,1.289543867111206,-1.884945252391014e-29,0.012801367789506912,0.8910967707633972,0.0,0.01349718775600195
490.0,193.0,-1.596,-4.0355,8.5872,-0.0338,0.0212,-0.1213,-1.9639045200743617,0.0,3.6845836639404297,-1.5950846672058105,-0.0,2.0183863639831543,4.997185873776235,0.0,0.29676616191864014,-1.1474445501910608,-0.0,-0.05586257576942444,1.2896314859390259,-5.246814626791465e-33,0.013158896006643772,0.891124963760376,0.0,-0.016841009259223938
490.0,193.0,-1.596,-4.0355,8.5872,-0.0338,0.0212,-0.1213,-1.9639212093748988,0.0,3.6919803619384766,-1.5951135158538818,-0.0,2.053274393081665,4.9971742806728265,0.0,0.29094406962394714,-1.147468392048971,-0.0,-0.04627709090709686,1.2896156311035156,-2.2367992977780268e-35,0.020385518670082092,0.8911328315734863,0.0,-0.023640556260943413
490.0,193.0,-1.596,-4.0355,8.5872,-0.0338,0.0212,-0.1213,-1.963900705377096,0.0,3.6748006343841553,-1.5951457023620605,-0.0,2.0364036560058594,4.9971899566944025,0.0,0.29281526803970337,-1.1474559942828577,-0.0,-0.054761361330747604,1.2895638942718506,-6.226212902927955e-39,0.021956264972686768,0.8911287784576416,0.0,0.013461031019687653
490.0,193.0,-1.596,-4.0355,8.5872,-0.0338,0.0212,-0.1213,-1.9639364681639613,0.0,3.7058849334716797,-1.5951176881790161,-0.0,2.0052194595336914,4.997137892037191,0.0,0.2974961996078491,-1.1474807898150843,-0.0,-0.049203768372535706,1.289595603942871,-1.7334062003697987e-42,0.010312703438103199,0.8911811709403992,0.0,0.02230401150882244
490.0,193.0,-1.596,-4.0355,8.5872,-0.0338,0.0212,-0.1213,-1.9638687572874964,0.0,3.6379313468933105,-1.5951616764068604,-0.0,2.050328493118286,4.9971938011939905,0.0,0.28991466760635376,-1.1474726835833948,-0.0,-0.04484046995639801,1.289595603942871,-7.006492321624085e-45,0.0031036704313009977,0.8911209106445312,0.0,0.011369628831744194
490.0,193.0,-1.596,-4.0355,8.5872,-0.0338,0.0212,-0.1213,-1.963956972161764,0.0,3.704988479614258,-1.5950971841812134,-0.0,2.0506041049957275,4.9972018776233575,0.0,0.2925022542476654,-1.1474645773517054,-0.0,-0.05473129451274872,1.2895876169204712,-0.0,0.014398189261555672,0.8911328315734863,0.0,0.010557273402810097
497.0,186.0,-1.6594,-4.0552,8.531,-0.0357,0.0203,-0.1151,-1.9639889202513636,0.0,3.720262289047241,-1.5950814485549927,-0.0,2.045330047607422,4.997166502266683,0.0,0.2830846905708313,-1.147468392048971,-0.0,-0.05268619954586029,1.2896236181259155,-0.0,0.007384947966784239,0.8911246061325073,0.0,0.01242483127862215
497.0,186.0,-1.6594,-4.0552,8.531,-0.0357,0.0203,-0.1151,-1.9639526806273402,0.0,3.646109104156494,-1.5951011180877686,-0.0,2.052528142929077,4.997130113631048,0.0,0.3090079724788666,-1.1474645773517054,-0.0,-0.03958332538604736,1.2896037101745605,-0.0,0.007361420895904303,0.8911529183387756,0.0,-0.022513996809720993
497.0,186.0,-1.6594,-4.0552,8.531,-0.0357,0.0203,-0.1151,-1.9639088116087855,0.0,3.6734724044799805,-1.5950775146484375,-0.0,2.0378079414367676,4.997154193907537,0.0,0.27747827768325806,-1.147480312977926,-0.0,-0.04970803111791611,1.2895756959915161,-0.0,0.008578921668231487,0.8911733031272888,0.0,-0.003761984407901764
497.0,186.0,-1.6594,-4.0552,8.531,-0.0357,0.0203,-0.1151,-1.963945051232809,0.0,3.685636520385742,-1.595085620880127,-0.0,2.043303966522217,4.997178423195638,0.0,0.28375476598739624,-1.1474888960467737,-0.0,-0.04361920803785324,1.2895359992980957,-0.0,0.014452720060944557,0.8911328315734863,0.0,0.014737929217517376
497.0,186.0,-1.6594,-4.0552,8.531,-0.0357,0.0203,-0.1151,-1.9639245472350062,0.0,3.7274632453918457,-1.595085620880127,-0.0,2.033261299133301,4.9971742806728265,0.0,0.2986777424812317,-1.1474769751178187,-0.0,-0.057429175823926926,1.2896075248718262,-0.0,0.011920090764760971,0.8911246061325073,0.0,0.01847139000892639
497.0,186.0,-1.6594,-4.0552,8.531,-0.0357,0.0203,-0.1151,-1.9638925991454066,0.0,3.6674435138702393,-1.595109462738037,-0.0,2.0625417232513428,4.997185873776235,0.0,0.288228303194046,-1.1475127379046839,-0.0,-0.040613412857055664,1.289591670036316,-0.0,-0.001988219330087304,0.8911409974098206,0.0,-0.017140205949544907
497.0,186.0,-1.6594,-4.0552,8.531,-0.0357,0.0203,-0.1151,-1.963945051232809,0.0,3.611527442932129,-1.595109462738037,-0.0,2.040024518966675,4.9971662042434595,0.0,0.28944939374923706,-1.1475089232074183,-0.0,-0.04903879016637802,1.2896075248718262,-0.0,0.012664108537137508,0.8911008238792419,0.0,0.06991293281316757
497.0,186.0,-1.6594,-4.0552,8.531,-0.0357,0.0203,-0.1151,-1.9639207325377406,0.0,3.7193551063537598,-1.595085620880127,-0.0,2.0238583087921143,4.997214185982504,0.0,0.2977331280708313,-1.1474769751178187,-0.0,-0.056660279631614685,1.2896593809127808,-0.0,0.00979018397629261,0.8911488056182861,0.0,0.006223969627171755
497.0,186.0,-1.6594,-4.0552,8.531,-0.0357,0.0203,-0.1151,-1.9639364681639613,0.0,3.650867462158203,-1.5950970649719238,-0.0,2.0622572898864746,4.997125971108236,0.0,0.29260891675949097,-1.14748460451235,-0.0,-0.05418285354971886,1.2895996570587158,-0.0,0.014561867341399193,0.891136884689331,0.0,-0.03366122394800186
497.0,186.0,-1.6594,-4.0552,8.531,-0.0357,0.0203,-0.1151,-1.9639526806273402,0.0,3.7052316665649414,-1.5951052904129028,-0.0,2.012645721435547,4.997141945153036,0.0,0.2969322204589844,-1.14748460451235,-0.0,-0.050309088081121445,1.2895996570587158,-0.0,0.001974754733964801,0.8911447525024414,0.0,-0.06600737571716309
497.0,186.0,-1.6594,-4.0552,8.531,-0.0357,0.0203,-0.1151,-1.96392883876943,0.0,3.6987085342407227,-1.5950651168823242,-0.0,2.00429105758667,4.997170197754659,0.0,0.28570061922073364,-1.1474769751178187,-0.0,-0.06231217086315155,1.289611577987671,-0.0,0.012913732789456844,0.8910804390907288,0.0,-0.018753893673419952
497.0,186.0,-1.6594,-4.0552,8.531,-0.0357,0.0203,-0.1151,-1.96392883876943,0.0,3.6866955757141113,-1.595109462738037,-0.0,2.0239365100860596,4.997121947794714,0.0,0.2908349931240082,-1.147496525441305,-0.0,-0.04248606413602829,1.2895678281784058,-0.0,0.016290828585624695,0.8911168575286865,0.0,0.04730832576751709
497.0,186.0,-1.6594,-4.0552,8.531,-0.0357,0.0203,-0.1151,-1.963916917840475,0.0,3.6765968799591064,-1.595109462738037,-0.0,2.0353217124938965,4.997146177082815,0.0,0.29467785358428955,-1.1474722067462366,-0.0,-0.046587735414505005,1.289611577987671,-0.0,0.018208205699920654,0.8911328315734863,0.0,0.025797564536333084
497.0,186.0,-1.6594,-4.0552,8.531,-0.0357,0.0203,-0.1151,-1.96392883876943,0.0,3.685032844543457,-1.5950897932052612,-0.0,2.0093724727630615,4.99715023019866,0.0,0.2782207727432251,-1.1474769751178187,-0.0,-0.057839199900627136,1.289643406867981,-0.0,0.002974589355289936,0.8911569714546204,0.0,0.054477058351039886
497.0,186.0,-1.6594,-4.0552,8.531,-0.0357,0.0203,-0.1151,-1.963945051232809,0.0,3.681854724884033,-1.5950814485549927,-0.0,2.073718309402466,4.997185873776235,0.0,0.29738205671310425,-1.1474364439593714,-0.0,-0.05719670653343201,1.2896116971969604,-0.0,0.015352508053183556,0.8911209106445312,0.0,0.007433200255036354
497.0,186.0,-1.6594,-4.0552,8.531,-0.0357,0.0203,-0.1151,-1.963916917840475,0.0,3.702672004699707,-1.5950690507888794,-0.0,2.027385711669922,4.997137892037191,0.0,0.2870333790779114,-1.1475251356707972,-0.0,-0.053196102380752563,1.289583683013916,-0.0,0.026708554476499557,0.8911811709403992,0.0,-0.025685705244541168
497.0,186.0,-1.6594,-4.0552,8.531,-0.0357,0.0203,-0.1151,-1.963940759698385,0.0,3.747494697570801,-1.5950970649719238,-0.0,2.0189766883850098,4.997178452997961,0.0,0.29153695702552795,-1.1474478880511683,-0.0,-0.05420178174972534,1.2896156311035156,-0.0,0.0020487322472035885,0.891136884689331,0.0,0.013280865736305714
501.0,188.0,-1.593,-4.051,8.5567,-0.0307,0.0238,-0.1133,-1.9639131031432093,0.0,3.678368330001831,-1.5950732231140137,-0.0,2.0597469806671143,4.9971662042434595,0.0,0.30340176820755005,-1.14748460451235,-0.0,-0.05438724905252457,1.289595603942871,-0.0,0.014059082604944706,0.8911168575286865,0.0,0.01610415428876877
501.0,188.0,-1.593,-4.051,8.5567,-0.0307,0.0238,-0.1133,-1.963956972161764,0.0,3.7149133682250977,-1.5950970649719238,-0.0,2.0005881786346436,4.9971742806728265,0.0,0.30938366055488586,-1.1475046316729944,-0.0,-0.0574880875647068,1.2896156311035156,-0.0,0.011092687025666237,0.8911529183387756,0.0,0.06313075870275497
501.0,188.0,-1.593,-4.051,8.5567,-0.0307,0.0238,-0.1133,-1.963940759698385,0.0,3.7151012420654297,-1.5951415300369263,-0.0,2.01629900932312,4.997210132866659,3.4899629852702674e-09,0.29374226927757263,-1.1474602858172815,-0.0,-0.042928218841552734,1.2896314859390259,-0.0,0.01752006821334362,0.8911168575286865,0.0,-0.02173677645623684
501.0,188.0,-1.593,-4.051,8.5567,-0.0307,0.0238,-0.1133,-1.9639088116087855,0.0,3.6937742233276367,-1.5951175689697266,-0.0,2.0638370513916016,4.997170227556982,1.487826008228499e-11,0.299302875995636,-1.147452179585592,-0.0,-0.04457933455705643,1.2896592617034912,-0.0,0.012021442875266075,0.8911447525024414,0.0,0.017750106751918793
501.0,188.0,-1.593,-4.051,8.5567,-0.0307,0.0238,-0.1133,-1.963900705377096,0.0,3.670642137527466,-1.5950775146484375,-0.0,2.0652658939361572,4.99714611747817,4.141418517801185e-15,0.2857484817504883,-1.1475208441363733,-0.0,-0.05171573534607887,1.2895678281784058,-0.0,0.02161356620490551,0.8911569714546204,0.0,-0.023582948371767998
501.0,188.0,-1.593,-4.051,8.5567,-0.0307,0.0238,-0.1133,-1.9638968906798304,0.0,3.6749730110168457,-1.595093011856079,-0.0,2.022373676300049,4.9971899566944025,1.1527789607837538e-18,0.28900831937789917,-1.1474726835833948,-0.0,-0.04755348712205887,1.2896156311035156,-0.0,0.013509036973118782,0.8911852240562439,0.0,0.008877110667526722
501.0,188.0,-1.593,-4.051,8.5567,-0.0307,0.0238,-0.1133,-1.963872571984762,0.0,3.659069061279297,-1.595133662223816,-0.0,2.0305914878845215,4.997162121325292,4.914477524704656e-21,0.2843897044658661,-1.14748460451235,-0.0,-0.05788309872150421,1.2896076440811157,-0.0,0.008543038740754128,0.8911692500114441,0.0,0.01867307350039482
501.0,188.0,-1.593,-4.051,8.5567,-0.0307,0.0238,-0.1133,-1.9639250240721644,0.0,3.650733470916748,-1.5950970649719238,-0.0,2.03432035446167,4.9972018776233575,1.3679630054904645e-24,0.29075974225997925,-1.1474488417254847,-0.0,-0.04597663879394531,1.2895996570587158,-0.0,0.01249996293336153,0.8911409974098206,0.0,-0.00743119977414608
501.0,188.0,-1.593,-4.051,8.5567,-0.0307,0.0238,-0.1133,-1.96392883876943,0.0,3.7394747734069824,-1.5951052904129028,-0.0,2.0773401260375977,4.997170197754659,5.831841057050935e-27,0.2935401499271393,-1.1474645773517054,-0.0,-0.05059666931629181,1.2896195650100708,-0.0,0.009883125312626362,0.8910685181617737,0.0,-0.015949536114931107
501.0,188.0,-1.593,-4.051,8.5567,-0.0307,0.0238,-0.1133,-1.9639126263060511,0.0,3.6224584579467773,-1.5950970649719238,-0.0,2.01920485496521,4.997181880265035,1.6233144402934688e-30,0.2842693328857422,-1.147468392048971,-0.0,-0.04811616241931915,1.2896156311035156,-0.0,-0.004330501891672611,0.8911405801773071,0.0,0.009039558470249176
501.0,188.0,-1.593,-4.051,8.5567,-0.0307,0.0238,-0.1133,-1.9639088116087855,0.0,3.658898115158081,-1.5951650142669678,-0.0,2.0041468143463135,4.997189628868856,6.920443075873928e-33,0.29393821954727173,-1.1474888960467737,-0.0,-0.04005351662635803,1.2895996570587158,-0.0,0.01335090957581997,0.8911287784576416,0.0,-0.02531794086098671
501.0,188.0,-1.593,-4.051,8.5567,-0.0307,0.0238,-0.1133,-1.9639245472350062,0.0,3.680720806121826,-1.5951610803604126,-0.0,2.034014940261841,4.9971742806728265,1.9263306054378176e-36,0.31368154287338257,-1.1474445501910608,-0.0,-0.04780297726392746,1.289611577987671,-0.0,0.012261593714356422,0.8911610841751099,0.0,-0.011173547245562077
501.0,188.0,-1.593,-4.051,8.5567,-0.0307,0.0238,-0.1133,-1.9639607868590296,0.0,3.66689133644104,-1.5950931310653687,-0.0,2.034493923187256,4.997117864876547,5.3620125218003395e-40,0.28399893641471863,-1.1474764982806605,-0.0,-0.051847510039806366,1.289615511894226,-0.0,0.0005999589338898659,0.891136884689331,0.0,0.00646722037345171
501.0,188.0,-1.593,-4.051,8.5567,-0.0307,0.0238,-0.1133,-1.9639126263060511,0.0,3.6965575218200684,-1.5950777530670166,-0.0,2.041869878768921,4.997137892037191,2.2855177953137766e-42,0.30570101737976074,-1.14748460451235,-0.0,-0.04722170531749725,1.289603590965271,-0.0,0.014985023066401482,0.8911688327789307,0.0,0.0605340451002121
501.0,188.0,-1.593,-4.051,8.5567,-0.0307,0.0238,-0.1133,-1.9639607868590296,0.0,3.64992618560791,-1.595100998878479,-0.0,2.0581517219543457,4.9971662042434595,0.0,0.2902805209159851,-1.1475008169757288,-0.0,-0.05492335557937622,1.289615511894226,-0.0,0.01535838283598423,0.891197144985199,0.0,0.022180385887622833
501.0,188.0,-1.593,-4.051,8.5567,-0.0307,0.0238,-0.1133,-1.9639531574644984,0.0,3.6803722381591797,-1.5951054096221924,-0.0,2.0300848484039307,4.9971899566944025,0.0,0.2968551218509674,-1.147480312977926,-0.0,-0.038355179131031036,1.2895718812942505,-0.0,0.005562658421695232,0.8910925984382629,0.0,-0.028287116438150406
501.0,188.0,-1.593,-4.051,8.5567,-0.0307,0.0238,-0.1133,-1.963916917840475,0.0,3.676870346069336,-1.5950970649719238,-0.0,2.0612881183624268,4.997185873776235,-2.1953375835437328e-05,0.28896692395210266,-1.147468392048971,-0.0,-0.058891136199235916,1.289603590965271,-0.0,0.016126928851008415,0.8911405801773071,0.0,-0.008932052180171013
501.0,188.0,-1.593,-4.051,8.5567,-0.0307,0.0238,-0.1133,-1.963945051232809,0.0,3.715236186981201,-1.5951133966445923,-0.0,2.025913953781128,4.997130113631048,-2.2415095372707583e-05,0.28976869583129883,-1.147468392048971,-0.0,-0.05158715322613716,1.2896076440811157,-0.0,0.011746284551918507,0.8911328315734863,0.0,0.011667147278785706
496.0,190.0,-1.6576,-4.2126,8.6207,-0.0382,0.0254,-0.1121,-1.9639607868590296,0.0,3.69779634475708,-1.5950816869735718,-0.0,2.0150506496429443,4.997150200396337,-2.0862778910668567e-05,0.30636879801750183,-1.1474888960467737,-0.0,-0.03969758003950119,1.2896156311035156,-0.0,0.0230159480124712,0.8911447525024414,0.0,-0.009229381568729877
496.0,190.0,-1.6576,-4.2126,8.6207,-0.0382,0.0254,-0.1121,-1.9639488659300746,0.0,3.6684000492095947,-1.5950896739959717,-0.0,2.0351672172546387,4.997146087675848,-1.9938324840040877e-05,0.2953639626502991,-1.1475208441363733,-0.0,-0.054358985275030136,1.2895877361297607,-0.0,0.013749255798757076,0.891104519367218,0.0,-0.024149995297193527
496.0,190.0,-1.6576,-4.2126,8.6207,-0.0382,0.0254,-0.1121,-1.963997026483053,0.0,3.6926252841949463,-1.5951173305511475,-0.0,2.0371603965759277,4.9971742806728265,-1.8695764083531685e-05,0.28878253698349,-1.147468392048971,-0.0,-0.0516815148293972,1.2896076440811157,-0.0,0.018797453492879868,0.8911328315734863,0.0,-0.02162066102027893
496.0,190.0,-1.6576,-4.2126,8.6207,-0.0382,0.0254,-0.1121,-1.9639727077879847,0.0,3.690181255340576,-1.595100998878479,-0.0,2.025402545928955,4.997166502266683,-1.759898805175908e-05,0.2956094741821289,-1.1474364439593714,-0.0,-0.054994940757751465,1.2896473407745361,-0.0,0.021283132955431938,0.8911287784576416,0.0,0.026421036571264267
496.0,190.0,-1.6576,-4.2126,8.6207,-0.0382,0.0254,-0.1121,-1.9639088116087855,0.0,3.6808595657348633,-1.5951133966445923,-0.0,2.0265724658966064,4.9972018776233575,-1.6936606698436663e-05,0.28525906801223755,-1.147468392048971,-0.0,-0.04679896682500839,1.289603590965271,-0.0,0.00732848234474659,0.8911569714546204,0.0,0.02749357372522354
496.0,190.0,-1.6576,-4.2126,8.6207,-0.0382,0.0254,-0.1121,-1.9639607868590296,0.0,3.6706738471984863,-1.595085620880127,-0.0,2.060826301574707,4.997130113631048,-1.6031530321924947e-05,0.29066550731658936,-1.1474645773517054,-0.0,-0.046561844646930695,1.289615511894226,-0.0,0.01968037523329258,0.891088604927063,0.0,0.011901579797267914
496.0,190.0,-1.6576,-4.2126,8.6207,-0.0382,0.0254,-0.1121,-1.9639607868590296,0.0,3.6684231758117676,-1.595085620880127,-0.0,2.026254415512085,4.997185873776235,-1.5480040019610897e-05,0.3019556701183319,-1.1474769751178187,-0.0,-0.05248943716287613,1.289611577987671,-0.0,0.020704559981822968,0.8911328315734863,0.0,0.02339239977300167
496.0,190.0,-1.6576,-4.2126,8.6207,-0.0382,0.0254,-0.1121,-1.9639245472350062,0.0,3.685762405395508,-1.595100998878479,-0.0,2.0435259342193604,4.997150200396337,-1.2780036229287361e-07,0.28402578830718994,-1.1475127379046839,-0.0,-0.04762771725654602,1.2895996570587158,-0.0,0.001121371053159237,0.8911651372909546,0.0,-0.009736652486026287
496.0,190.0,-1.6576,-4.2126,8.6207,-0.0382,0.0254,-0.1121,-1.9639650783934535,0.0,3.6912989616394043,-1.5951050519943237,-0.0,2.019625425338745,4.99715422370986,-5.448329565282961e-10,0.31371015310287476,-1.1474888960467737,-0.0,-0.036996468901634216,1.2895838022232056,-0.0,0.005005211569368839,0.8911328315734863,0.0,-0.015862662345170975
496.0,190.0,-1.6576,-4.2126,8.6207,-0.0382,0.0254,-0.1121,-1.963900705377096,0.0,3.652676582336426,-1.5951133966445923,-0.0,2.0273830890655518,4.997181880265035,-1.5165626187588904e-13,0.29197967052459717,-1.14748460451235,-0.0,-0.06177631765604019,1.2895996570587158,-0.0,0.02765478938817978,0.8911365270614624,0.0,-0.014458732679486275
496.0,190.0,-1.6576,-4.2126,8.6207,-0.0382,0.0254,-0.1121,-1.9639245472350062,0.0,3.7066702842712402,-1.5951173305511475,-0.0,2.0200681686401367,4.99715422370986,-4.22140773006801e-17,0.2956589460372925,-1.1475122610675257,-0.0,-0.049517322331666946,1.289623498916626,-0.0,0.015683135017752647,0.8911204934120178,0.0,0.012306060642004013
496.0,190.0,-1.6576,-4.2126,8.6207,-0.0382,0.0254,-0.1121,-1.9639049969115199,0.0,3.659451484680176,-1.5950454473495483,-0.0,2.0485169887542725,4.997181880265035,-1.7996521392797562e-19,0.2888537645339966,-1.1475327650653284,-0.0,-0.043669600039720535,1.289623498916626,-0.0,0.010000200942158699,0.8911852240562439,0.0,-0.0035310713574290276
496.0,190.0,-1.6576,-4.2126,8.6207,-0.0382,0.0254,-0.1121,-1.9639126263060511,0.0,3.6751792430877686,-1.595109462738037,-0.0,2.0413975715637207,4.997173654824056,-5.0093976990636917e-23,0.2892882227897644,-1.1475165526019495,-0.0,-0.04679686948657036,1.2895399332046509,-0.0,0.017345517873764038,0.8911447525024414,0.0,-0.021117407828569412
496.0,190.0,-1.6576,-4.2126,8.6207,-0.0382,0.0254,-0.1121,-1.9639126263060511,0.0,3.7418365478515625,-1.595085620880127,-0.0,2.0261189937591553,4.997185873776235,-2.1355847676107255e-25,0.31209108233451843,-1.14750844637026,-0.0,-0.04042739421129227,1.289611577987671,-0.0,0.010360940359532833,0.8911328315734863,0.0,0.028917096555233
496.0,190.0,-1.6576,-4.2126,8.6207,-0.0382,0.0254,-0.1121,-1.9639488659300746,0.0,3.6942648887634277,-1.5950454473495483,-0.0,2.0281832218170166,4.997173625021734,-5.944478467995315e-29,0.2776889204978943,-1.147480312977926,-0.0,-0.0469747893512249,1.289563775062561,-0.0,0.015592951327562332,0.8911688327789307,0.0,-0.014945604838430882
496.0,190.0,-1.6576,-4.2126,8.6207,-0.0382,0.0254,-0.1121,-1.963916917840475,0.0,3.6633095741271973,-1.5950931310653687,-0.0,2.0052502155303955,4.997162121325292,-2.534224761050753e-31,0.2891819477081299,-1.1474602858172815,-0.0,-0.05112290754914284,1.2896275520324707,-0.0,0.012353216297924519,0.8911209106445312,0.0,-0.015500595793128014
496.0,190.0,-1.6576,-4.2126,8.6207,-0.0382,0.0254,-0.1121,-1.963945051232809,0.0,3.66389799118042,-1.5950896739959717,-0.0,2.020009994506836,4.997170197754659,-7.05410830891719e-35,0.30608120560646057,-1.1475008169757288,-0.0,-0.04997694864869118,1.2895678281784058,-0.0,0.007836248725652695,0.8911811709403992,0.0,0.01429085060954094
496.0,190.0,-1.6576,-4.2126,8.6207,-0.0382,0.0254,-0.1121,-1.9639488659300746,0.0,3.6689844131469727,-1.595109462738037,-0.0,2.03916597366333,4.9971662042434595,-3.007276635958283e-37,0.2945627272129059,-1.14748460451235,-0.0,-0.03568364679813385,1.2895479202270508,-0.0,0.014859335497021675,0.8911688327789307,0.0,0.03409746661782265
458.0,187.0,-1.5745,-4.0373,8.47,-0.035,0.0269,-0.118,-1.9639250240721644,0.0,3.6542155742645264,-1.5951213836669922,-0.0,2.0150043964385986,4.9971662042434595,-8.370796506490727e-41,0.30423006415367126,-1.147468392048971,-0.0,-0.04808264225721359,1.2896195650100708,-0.0,0.020372584462165833,0.8911569118499756,0.0,0.02105516567826271
458.0,187.0,-1.5745,-4.0373,8.47,-0.035,0.0269,-0.118,-1.9639808140196742,0.0,3.6727585792541504,-1.595137357711792,-0.0,2.0380516052246094,4.997205990343847,-2.382207389352189e-44,0.29536253213882446,-1.147480312977926,-0.0,-0.04042644426226616,1.289591670036316,-0.0,0.002063439227640629,0.8911447525024414,0.0,-0.001043163239955902
458.0,187.0,-1.5745,-4.0373,8.47,-0.035,0.0269,-0.118,-1.963916917840475,0.0,3.7222900390625,-1.5950777530670166,-0.0,2.068749189376831,4.99716209152297,-0.0,0.2923338711261749,-1.1474922339068812,-0.0,-0.04996863380074501,1.2896075248718262,-0.0,-0.003753405762836337,0.8911328315734863,0.0,0.027030639350414276
458.0,187.0,-1.5745,-4.0373,8.47,-0.035,0.0269,-0.118,-1.9639607868590296,0.0,3.664053440093994,-1.595089077949524,-0.0,2.0261378288269043,4.997162478953161,-0.0,0.29587191343307495,-1.1474602858172815,-0.0,-0.05830163508653641,1.2895957231521606,-0.0,0.009052569977939129,0.891112744808197,0.0,0.013034006580710411
458.0,187.0,-1.5745,-4.0373,8.47,-0.035,0.0269,-0.118,-1.9639526806273402,0.0,3.661688804626465,-1.5950454473495483,-0.0,2.044384241104126,4.997198152333059,-0.0,0.2945827841758728,-1.1475165526019495,-0.0,-0.04926231876015663,1.2896473407745361,-0.0,0.01347734872251749,0.8911728858947754,0.0,-0.025582153350114822
458.0,187.0,-1.5745,-4.0373,8.47,-0.035,0.0269,-0.118,-1.9639488659300746,0.0,3.6749267578125,-1.5950493812561035,-0.0,1.9976625442504883,4.9972018776233575,-0.0,0.2811518609523773,-1.1475046316729944,-0.0,-0.04164940118789673,1.289571762084961,-0.0,0.016030164435505867,0.8911930918693542,0.0,0.02799925021827221
458.0,187.0,-1.5745,-4.0373,8.47,-0.035,0.0269,-0.118,-1.963956972161764,0.0,3.6611456871032715,-1.5950572490692139,-0.0,2.0239968299865723,4.997154193907537,-0.0,0.2840341031551361,-1.147524658833639,-0.0,-0.04867280274629593,1.2895996570587158,-0.0,0.005313884932547808,0.8911328315734863,0.0,-0.017936386168003082
458.0,187.0,-1.5745,-4.0373,8.47,-0.035,0.0269,-0.118,-1.9639331303038539,0.0,3.704873561859131,-1.5951372385025024,-0.0,2.008556365966797,4.997154193907537,-0.0,0.29104748368263245,-1.14748460451235,-0.0,-0.03291943296790123,1.289623498916626,-0.0,0.008937850594520569,0.8911569714546204,0.0,0.04771241173148155
458.0,187.0,-1.5745,-4.0373,8.47,-0.035,0.0269,-0.118,-1.9639212093748988,0.0,3.6736245155334473,-1.5951571464538574,-0.0,2.0175983905792236,4.997146147280493,-0.0,0.3003091514110565,-1.1475203672992151,-0.0,-0.05492948740720749,1.289603590965271,-0.0,-0.0005677536246366799,0.8910967707633972,0.0,-0.014832278713583946
458.0,187.0,-1.5745,-4.0373,8.47,-0.035,0.0269,-0.118,-1.9639650783934535,0.0,3.648341417312622,-1.5950931310653687,-0.0,2.0566155910491943,4.9971899566944025,-0.0,0.28318139910697937,-1.1475165526019495,-0.0,-0.05634576454758644,1.2896274328231812,-0.0,0.015076184645295143,0.8911447525024414,0.0,-0.0036186203360557556
458.0,187.0,-1.5745,-4.0373,8.47,-0.035,0.0269,-0.118,-1.963968416253561,0.0,3.6729655265808105,-1.5951292514801025,-0.0,2.046687126159668,4.997205930739202,-0.0,0.28676944971084595,-1.147496525441305,-0.0,-0.05004877969622612,1.2895957231521606,-0.0,0.0020919227972626686,0.8911287784576416,0.0,0.018855448812246323
458.0,187.0,-1.5745,-4.0373,8.47,-0.035,0.0269,-0.118,-1.9639607868590296,0.0,3.6875476837158203,-1.5951173305511475,-0.0,2.0839624404907227,4.997181910067358,-0.0,0.2923291325569153,-1.147480312977926,-0.0,-0.05415807664394379,1.289615511894226,-0.0,0.022970952093601227,0.8911529183387756,0.0,0.04717499017715454
458.0,187.0,-1.5745,-4.0373,8.47,-0.035,0.0269,-0.118,-1.9639364681639613,0.0,3.659148931503296,-1.5951213836669922,-0.0,2.043288469314575,4.99716209152297,-0.0,0.29713377356529236,-1.1474726835833948,-0.0,-0.04451777786016464,1.2896195650100708,-0.0,0.004470004700124264,0.8911409974098206,0.0,0.00932895764708519
458.0,187.0,-1.5745,-4.0373,8.47,-0.035,0.0269,-0.118,-1.963916917840475,-2.074185431411024e-06,3.691458225250244,-1.5950777530670166,-0.0,2.0746445655822754,4.997162121325292,-0.0,0.2908187508583069,-1.1475165526019495,-0.0,-0.049363814294338226,1.289603590965271,-0.0,0.015523367561399937,0.8911728858947754,0.0,0.012605562806129456
458.0,187.0,-1.5745,-4.0373,8.47,-0.035,0.0269,-0.118,-1.9639650783934535,-5.008914290283162e-12,3.7375359535217285,-1.5950697660446167,-0.0,2.0313782691955566,4.997154193907537,-0.0,0.29934296011924744,-1.1474440733539026,-0.0,-0.0632116049528122,1.289635419845581,-0.0,0.00606429623439908,0.8911447525024414,0.0,0.001912801992148161
458.0,187.0,-1.5745,-4.0373,8.47,-0.035,0.0269,-0.118,-1.9639488659300746,-9.015868453760424e-16,3.6627981662750244,-1.595109462738037,-0.0,2.059840202331543,4.99718992689208,-0.0,0.27596884965896606,-1.147480312977926,-0.0,-0.044162772595882416,1.2895996570587158,-0.0,0.010526847094297409,0.8911651372909546,0.0,-0.021639058366417885
458.0,187.0,-1.5745,-4.0373,8.47,-0.035,0.0269,-0.118,-1.963940759698385,-2.1772262100480156e-21,3.675858736038208,-1.5950613021850586,-0.0,2.0363945960998535,4.99715422370986,-0.0,0.2856205105781555,-1.147480312977926,-0.0,-0.0455310195684433,1.2895519733428955,-0.0,0.015018733218312263,0.8911287784576416,0.0,-0.015203824266791344
458.0,187.0,-1.5745,-4.0373,8.47,-0.035,0.0269,-0.118,-1.9639564953246058,-5.257744836974422e-27,3.642841339111328,-1.5951213836669922,-0.0,2.0253357887268066,4.997137892037191,-0.0,0.2909989058971405,-1.14748460451235,-0.0,-0.06062445044517517,1.289611577987671,-0.0,0.0026151114143431187,0.891136884689331,0.0,-0.023621447384357452
477.0,194.0,-1.7976,-4.0534,8.7523,-0.0342,0.0231,-0.1101,-1.9639488659300746,-9.46375361479785e-31,3.7482991218566895,-1.5950816869735718,-0.0,2.028944253921509,4.997170227556982,-0.0,0.2871667444705963,-1.1474645773517054,-0.0,-0.05163954198360443,1.289615511894226,-0.0,0.010123725980520248,0.8911287784576416,0.0,0.01635398343205452
477.0,194.0,-1.7976,-4.0534,8.7523,-0.0342,0.0231,-0.1101,-1.9639607868590296,-2.285384974640134e-36,3.6453545093536377,-1.595085620880127,-0.0,2.0233500003814697,4.99715023019866,-0.0,0.2928926944732666,-1.147480312977926,-0.0,-0.04668954387307167,1.2896076440811157,-0.0,0.0007775710546411574,0.8911569714546204,0.0,-0.029229786247015
477.0,194.0,-1.7976,-4.0534,8.7523,-0.0342,0.0231,-0.1101,-1.9639927349486292,-4.113609732918003e-40,3.6798789501190186,-1.5951173305511475,-0.0,2.0219693183898926,4.997193830996313,-0.0,0.2980831563472748,-1.1475127379046839,-0.0,-0.0340278223156929,1.2895678281784058,-0.0,0.006594245322048664,0.891136884689331,0.0,0.0031362485606223345
477.0,194.0,-1.7976,-4.0534,8.7523,-0.0342,0.0231,-0.1101,-1.963916917840475,-1.401298464324817e-45,3.670682430267334,-1.595129370689392,-0.0,2.0132744312286377,4.997166234045782,-0.0,0.2885570526123047,-1.147456471120016,-0.0,-0.041471920907497406,1.2895996570587158,-0.0,0.018458614125847816,0.8911409974098206,0.0,0.006132711656391621
477.0,194.0,-1.7976,-4.0534,8.7523,-0.0342,0.0231,-0.1101,-1.9639412365355433,0.0,3.700143814086914,-1.5951050519943237,-0.0,2.0475170612335205,4.99715023019866,-0.0,0.2917121648788452,-1.1475165526019495,-0.0,-0.043842002749443054,1.2895957231521606,-0.0,0.01077477540820837,0.8911365270614624,0.0,-0.01581818237900734
477.0,194.0,-1.7976,-4.0534,8.7523,-0.0342,0.0231,-0.1101,-1.9639564953246058,0.0,3.7163166999816895,-1.595125436782837,-0.0,2.0433647632598877,4.997197854309835,-0.0,0.29090556502342224,-1.147536579762594,-0.0,-0.04721298813819885,1.2895559072494507,-0.0,-0.001313008600845933,0.8911728858947754,0.0,-0.017726900056004524
477.0,194.0,-1.7976,-4.0534,8.7523,-0.0342,0.0231,-0.1101,-1.9639045200743617,0.0,3.708925247192383,-1.595069169998169,-0.0,2.0027432441711426,4.997181910067358,-0.0,0.29476675391197205,-1.1474602858172815,-0.0,-0.05103079974651337,1.2895996570587158,-0.0,-0.0025171609595417976,0.8911328315734863,0.0,-0.012887721881270409
477.0,194.0,-1.7976,-4.0534,8.7523,-0.0342,0.0231,-0.1101,-1.9639607868590296,0.0,3.6800577640533447,-1.5950896739959717,-0.0,2.025240421295166,4.997193771391668,-0.0,0.29163599014282227,-1.147496525441305,-0.0,-0.04854721575975418,1.2895838022232056,-0.0,0.0181276835501194,0.8911246061325073,0.0,-0.014061257243156433
477.0,194.0,-1.7976,-4.0534,8.7523,-0.0342,0.0231,-0.1101,-1.963940759698385,0.0,3.661562919616699,-1.5950697660446167,-0.0,2.048412799835205,4.997214126377859,-0.0,0.2887595593929291,-1.1474764982806605,-0.0,-0.052908189594745636,1.289591670036316,-0.0,0.005242262501269579,0.8911733031272888,0.0,-0.007793345954269171
477.0,194.0,-1.7976,-4.0534,8.7523,-0.0342,0.0231,-0.1101,-1.9639207325377406,0.0,3.6854982376098633,-1.5951173305511475,-0.0,2.0122485160827637,4.997189628868856,-0.0,0.29471534490585327,-1.147496525441305,-0.0,-0.05275074020028114,1.2896631956100464,-0.0,0.006629970856010914,0.8911287784576416,0.0,-0.008739644661545753
477.0,194.0,-1.7976,-4.0534,8.7523,-0.0342,0.0231,-0.1101,-1.963916917840475,0.0,3.6835317611694336,-1.5951253175735474,-0.0,2.064544677734375,4.997205960541525,-0.0,0.27649345993995667,-1.1475208441363733,-0.0,-0.0553794801235199,1.2895718812942505,-0.0,0.0060114627704024315,0.891112744808197,0.0,-0.01412668451666832
477.0,194.0,-1.7976,-4.0534,8.7523,-0.0342,0.0231,-0.1101,-1.9638968906798304,0.0,3.7005553245544434,-1.5950816869735718,3.187804509252601e-08,2.045567274093628,4.997189599066534,-0.0,0.3095605969429016,-1.1475165526019495,-0.0,-0.042270027101039886,1.289591670036316,-0.0,0.006550716236233711,0.8911447525024414,0.0,0.0016809231601655483
477.0,194.0,-1.7976,-4.0534,8.7523,-0.0342,0.0231,-0.1101,-1.963888784448141,0.0,3.649354934692383,-1.5950572490692139,7.698172882573268e-14,2.0708184242248535,4.997205960541525,-0.0,0.2910710573196411,-1.1475127379046839,-0.0,-0.042781271040439606,1.2896473407745361,-0.0,0.011980556882917881,0.8911204934120178,0.0,-0.03414313495159149
477.0,194.0,-1.7976,-4.0534,8.7523,-0.0342,0.0231,-0.1101,-1.9639250240721644,0.0,3.69865083694458,-1.5950931310653687,1.3856439930565688e-17,2.035233974456787,4.997177797346868,-0.0,0.29356610774993896,-1.14750844637026,-0.0,-0.05445960909128189,1.2895838022232056,-0.0,0.007770922034978867,0.8911246061325073,0.0,-0.033101100474596024
477.0,194.0,-1.7976,-4.0534,8.7523,-0.0342,0.0231,-0.1101,-1.9639727077879847,0.0,3.667877435684204,-1.5951054096221924,3.3461671530280554e-23,2.0447795391082764,4.997201847821035,-0.0,0.29867109656333923,-1.1475327650653284,-0.0,-0.03598632663488388,1.2895519733428955,-0.0,0.017652548849582672,0.8911365270614624,0.0,-0.07024718075990677
477.0,194.0,-1.7976,-4.0534,8.7523,-0.0342,0.0231,-0.1101,-1.963916917840475,0.0,3.7113659381866455,-1.595085620880127,8.080599591688113e-29,2.026252269744873,4.997169571905889,-0.0,0.2877565622329712,-1.14750844637026,-5.0618833569160415e-08,-0.05481770262122154,1.2895877361297607,-0.0,0.017272833734750748,0.8911610841751099,0.0,-0.0015891455113887787
477.0,194.0,-1.7976,-4.0534,8.7523,-0.0342,0.0231,-0.1101,-1.9639212093748988,0.0,3.711320161819458,-1.5950572490692139,1.454479420953932e-32,2.050098180770874,4.997177797346868,-0.0,0.28713521361351013,-1.1475203672992151,-2.1579601994226039e-10,-0.0602751150727272,1.2896592617034912,-0.0,0.003957689739763737,0.8911688327789307,0.00021774136985186487,0.03177042677998543
477.0,194.0,-1.7976,-4.0534,8.7523,-0.0342,0.0231,-0.1101,-1.963900705377096,0.0,3.7019832134246826,-1.595069169998169,0.0003112306585535407,2.0644145011901855,4.997173654824056,-0.0,0.3012669086456299,-1.1475523153888147,-6.006760572881825e-14,-0.04861690476536751,1.2896473407745361,-0.0,0.015958931297063828,0.891209065914154,0.0002745275560300797,0.008827117271721363
466.0,191.0,-1.9561,-4.0594,8.5484,-0.0336,0.0287,-0.1022,-1.9638973675169886,0.0,3.6337156295776367,-1.5950334072113037,0.00038032609154470265,2.026137590408325,4.9972018776233575,-0.0,0.3041561245918274,-1.1474960486041468,-2.5607759465232104e-16,-0.047773756086826324,1.289611577987671,-0.0,0.01613694801926613,0.8911848664283752,0.0008617477724328637,0.009954119101166725
466.0,191.0,-1.9561,-4.0594,8.5484,-0.0336,0.0287,-0.1022,-1.9638687572874964,0.0,3.6605958938598633,-1.5950335264205933,0.0014774269657209516,2.0160703659057617,4.997189658671179,-0.0,0.2870795726776123,-1.1475604216205042,-0.00046101954649202526,-0.04811517894268036,1.289643406867981,-0.0,-0.0028920616023242474,0.8912250399589539,0.0014030326856300235,-0.03211962431669235
466.0,191.0,-1.9561,-4.0594,8.5484,-0.0336,0.0287,-0.1022,-1.963916917840475,-7.587994446112134e-07,3.6959376335144043,-1.5950573682785034,0.0020432970486581326,2.030740737915039,4.9972018776233575,-0.0,0.3068043887615204,-1.1475604216205042,-0.0004744285542983562,-0.04875590652227402,1.2896393537521362,-0.0,0.024472089484333992,0.891184389591217,0.002038853708654642,0.004238012712448835
466.0,191.0,-1.9561,-4.0594,8.5484,-0.0336,0.0287,-0.1022,-1.9639088116087855,2.6844372769119218e-05,3.715369701385498,-1.5949654579162598,0.0032699296716600657,2.0583856105804443,4.997218149691381,8.17289765109308e-05,0.2938236892223358,-1.1475885550128382,-0.0007399267633445561,-0.03833366185426712,1.2895996570587158,-0.0,0.011996924877166748,0.8912245035171509,0.0026495170313864946,-0.016389399766921997
466.0,191.0,-1.9561,-4.0594,8.5484,-0.0336,0.0287,-0.1022,-1.963900705377096,2.5694851501611993e-05,3.648505210876465,-1.59498929977417,0.006241266615688801,2.041403293609619,4.997189628868856,9.775556100066751e-05,0.2895464301109314,-1.1475637594806116,-0.0014209233922883868,-0.055787522345781326,1.2896631956100464,-0.0,0.02341793105006218,0.8912848234176636,0.004460381343960762,0.00760253518819809
466.0,191.0,-1.9561,-4.0594,8.5484,-0.0336,0.0287,-0.1022,-1.9639412365355433,2.4981656679301523e-05,3.701694965362549,-1.5949654579162598,0.00798443891108036,2.053419589996338,4.997205960541525,9.369098552269861e-05,0.2927578389644623,-1.1475361029254358,-0.0021912562660872936,-0.056537166237831116,1.2895877361297607,-0.0,0.020772000774741173,0.891301155090332,0.005771678406745195,0.05615241453051567
466.0,191.0,-1.9561,-4.0594,8.5484,-0.0336,0.0287,-0.1022,-1.9639650783934535,1.199164216814097e-05,3.708104133605957,-1.594869613647461,0.008104030042886734,2.060856819152832,4.997173654824056,7.06244827597402e-05,0.29792359471321106,-1.1475966612445276,-0.005380237475037575,-0.062356121838092804,1.2896394729614258,-0.0,0.01874825917184353,0.8912805914878845,0.0078371437266469,0.011045010760426521
466.0,191.0,-1.9561,-4.0594,8.5484,-0.0336,0.0287,-0.1022,-1.9639488659300746,1.1680303941830061e-05,3.7119393348693848,-1.5948418378829956,0.007294864393770695,2.071864604949951,4.997162121325292,6.788595783291385e-05,0.2953740954399109,-1.1475961844073694,-0.008192894048988819,-0.05092203617095947,1.2896592617034912,-0.0,0.015120457857847214,0.8913366794586182,0.009630550630390644,0.023738332092761993
466.0,191.0,-1.9561,-4.0594,8.5484,-0.0336,0.0287,-0.1022,-1.9639650783934535,6.07880368264091e-09,3.7000012397766113,-1.5949300527572632,0.006269877310842276,2.016849994659424,4.99714611747817,6.425084575312212e-05,0.2946069538593292,-1.147696320210592,-0.010250875726342201,-0.05851038545370102,1.289611577987671,-0.0,0.02146468497812748,0.8914526700973511,0.010468647815287113,0.036434587091207504
466.0,191.0,-1.9561,-4.0594,8.5484,-0.0336,0.0287,-0.1022,-1.963956972161764,1.0941631715249978e-12,3.668794870376587,-1.5948377847671509,0.0050386693328619,2.0862483978271484,4.9971662042434595,6.20364589849487e-05,0.30037426948547363,-1.1477401892291468,-0.0055214897729456425,-0.052918531000614166,1.2896274328231812,-0.0,0.011530612595379353,0.8915166258811951,0.011138799600303173,0.06586331874132156
466.0,191.0,-1.9561,-4.0594,8.5484,-0.0336,0.0287,-0.1022,-1.9639245472350062,2.642275851977631e-18,3.671738624572754,-1.594773769378662,0.002714887959882617,2.0285279750823975,4.997181880265035,5.898700328543782e-05,0.30563974380493164,-1.1477163473712366,0.00033980232547037303,-0.05471835285425186,1.2895996570587158,-0.0,0.03100593015551567,0.8915644884109497,0.011734168976545334,-0.033022794872522354
466.0,191.0,-1.9561,-4.0594,8.5484,-0.0336,0.0287,-0.1022,-1.9639088116087855,4.756003270076581e-22,3.731696128845215,-1.5947856903076172,0.0019759354181587696,2.0475106239318848,4.997205960541525,5.711523408535868e-05,0.30125492811203003,-1.1477201620685022,0.0006687094573862851,-0.03770983964204788,1.2895996570587158,-0.0,0.02055232599377632,0.8915683031082153,0.011445862241089344,0.05830676853656769
466.0,191.0,-1.9561,-4.0594,8.5484,-0.0336,0.0287,-0.1022,-1.963940759698385,1.1485189815750978e-27,3.676542282104492,-1.594781756401062,0.0011814902536571026,2.027416229248047,4.9971899566944025,5.452026744023897e-05,0.2956768274307251,-1.1476677099811,0.0003839397104457021,-0.057403795421123505,1.2896870374679565,-0.0,0.014563821256160736,0.8917129635810852,0.01171019021421671,0.026989132165908813
466.0,191.0,-1.9561,-4.0594,8.5484,-0.0336,0.0287,-0.1022,-1.963916917840475,2.7735383294758855e-33,3.68544340133667,-1.594769835472107,0.0008672994445078075,2.0344910621643066,4.997185873776235,5.2150902774883434e-05,0.2857711911201477,-1.147696320210592,0.00026894890470430255,-0.06532712280750275,1.2896076440811157,-0.0,0.023047493770718575,0.8917486071586609,0.011094260960817337,0.030819309875369072
466.0,191.0,-1.9561,-4.0594,8.5484,-0.0336,0.0287,-0.1022,-1.963968416253561,4.992271289989696e-37,3.762916088104248,-1.5948060750961304,0.0005780888604931533,2.023803234100342,4.9972018776233575,5.0682505388977006e-05,0.29184770584106445,-1.1476925055133265,0.00022422433539759368,-0.0563577264547348,1.2896076440811157,-0.0,0.023825040087103844,0.8917842507362366,0.010303032584488392,0.03260301798582077
466.0,191.0,-1.9561,-4.0594,8.5484,-0.0336,0.0287,-0.1022,-1.9638806782164515,1.2051166793193427e-42,3.643615245819092,-1.5947659015655518,0.0004972918541170657,1.9933695793151855,4.9972101030643366,4.8628666263539344e-05,0.29329466819763184,-1.147724453602926,0.0001794751879060641,-0.04955406114459038,1.2895838022232056,-0.0,0.020756199955940247,0.8918241858482361,0.008889971300959587,0.03498539701104164
466.0,191.0,-1.9561,-4.0594,8.5484,-0.0336,0.0287,-0.1022,-1.963888784448141,0.0,3.6753344535827637,-1.5947896242141724,0.0005597865674644709,2.040849208831787,4.997218179493704,4.734946196549572e-05,0.2811613976955414,-1.1477082411395472,0.00015840485866647214,-0.04312160611152649,1.289603590965271,-0.0,0.015626845881342888,0.8918558359146118,0.008101715706288815,0.04209068790078163
466.0,191.0,-1.9561,-4.0594,8.5484,-0.0336,0.0287,-0.1022,-1.9639607868590296,0.0,3.682093620300293,-1.5948055982589722,0.002007708651944995,2.0305676460266113,4.9972018776233575,4.5552085794042796e-05,0.2851177155971527,-1.1476925055133265,0.00013468984980136156,-0.04923726245760918,1.2896432876586914,-0.0,0.00630812207236886,0.8919000625610352,0.005306442733854055,0.028693286702036858
456.0,188.0,-1.4381,-4.6068,8.9779,-0.0657,0.0238,-0.1045,-1.963968416253561,0.0,3.6565370559692383,-1.5947659015655518,0.0025161474477499723,2.049659013748169,4.997221964388647,2.385922743997071e-05,0.29586297273635864,-1.147724453602926,0.00012246747792232782,-0.05403643101453781,1.2895996570587158,-0.0,0.002611033618450165,0.8919644355773926,0.004161755088716745,0.035386741161346436
456.0,188.0,-1.4381,-4.6068,8.9779,-0.0657,0.0238,-0.1045,-1.9639765224852503,0.0,3.6481266021728516,-1.5947096347808838,0.00344396336004138,2.0886054039001465,4.9972018776233575,5.639647042698925e-06,0.2871018946170807,-1.1476715246783655,0.00010779577132780105,-0.05235037952661514,1.2895838022232056,-0.0,0.007125181145966053,0.891948401927948,0.0019674301147460938,0.02478424273431301
456.0,188.0,-1.4381,-4.6068,8.9779,-0.0657,0.0238,-0.1045,-1.9639765224852503,-0.0008812353480607271,3.6772918701171875,-1.594781756401062,0.0028306315653026104,2.0703237056732178,4.9971855757530115,1.5698167210587144e-09,0.2940126061439514,-1.1476925055133265,0.00012409362534526736,-0.05249927565455437,1.289635419845581,-0.0,0.0055552334524691105,0.8919323682785034,0.0006516838329844177,0.04533836245536804
456.0,188.0,-1.4381,-4.6068,8.9779,-0.0657,0.0238,-0.1045,-1.964013238946432,-0.0016896207816898823,3.699512481689453,-1.5947136878967285,0.002284840913489461,1.991159200668335,4.997177797346868,6.692374952821378e-12,0.2945265769958496,-1.1476758162127894,0.00011978972179349512,-0.05475056916475296,1.2895638942718506,-0.0,0.01603522337973118,0.8918960094451904,0.0004777669964823872,0.044879764318466187
456.0,188.0,-1.4381,-4.6068,8.9779,-0.0657,0.0238,-0.1045,-1.963997026483053,-0.0011039894307032228,3.6462345123291016,-1.594681739807129,0.0020750826224684715,2.033479690551758,4.997177797346868,1.8628471618861503e-15,0.29398244619369507,-1.147696320210592,0.00010893086437135935,-0.05053205043077469,1.289603590965271,-0.0,0.009632798843085766,0.8919000625610352,0.0002562392328400165,0.005499587394297123
456.0,188.0,-1.4381,-4.6068,8.9779,-0.0657,0.0238,-0.1045,-1.9640089474120082,-0.0005949538899585605,3.658503532409668,-1.5947058200836182,0.0032407850958406925,2.0512845516204834,4.9971742806728265,7.941609687069522e-18,0.2844027876853943,-1.1476801077472132,0.00012751419853884727,-0.05717112496495247,1.2895758152008057,-0.0,0.00814836099743843,0.8918758034706116,-0.00018104533955920488,0.025607557967305183
456.0,188.0,-1.4381,-4.6068,8.9779,-0.0657,0.0238,-0.1045,-1.9639564953246058,-0.000396554620238021,3.6865358352661133,-1.594670057296753,0.006939649116247892,2.029029130935669,4.997197884112158,2.210576169407786e-21,0.28204604983329773,-1.1476801077472132,0.00011826879199361429,-0.050321053713560104,1.289603590965271,-0.0,-0.004940783604979515,0.8918964266777039,-0.00025426261709071696,-0.07513976842164993
456.0,188.0,-1.4381,-4.6068,8.9779,-0.0657,0.0238,-0.1045,-1.9639603100218714,-0.00024371758627239615,3.669642210006714,-1.5945820808410645,0.010791870765388012,2.047902822494507,4.997189628868856,9.424033718636001e-24,0.29528355598449707,-1.147644344960348,0.0001123624897445552,-0.04529973864555359,1.2895798683166504,-0.0,0.006793341599404812,0.8919124007225037,-0.0003005298785865307,0.008067440241575241
456.0,188.0,-1.4381,-4.6068,8.9779,-0.0657,0.0238,-0.1045,-1.9639326534666957,0.00016197630611713976,3.7158148288726807,-1.594550371170044,0.015341801568865776,2.021502733230591,4.997214185982504,2.6232146140895845e-27,0.29281461238861084,-1.1476438681231897,0.00010453175491420552,-0.04240693897008896,1.2896274328231812,-0.0,0.009264837950468063,0.8918640613555908,-0.0007440885528922081,0.02321026474237442
456.0,188.0,-1.4381,-4.6068,8.9779,-0.0657,0.0238,-0.1045,-1.9639769993224085,0.00013742056034971029,3.6913015842437744,-1.594429850578308,0.018171191215515137,2.0063328742980957,4.997213798552313,1.1183175532819069e-29,0.2869945168495178,-1.1476839224444788,9.989076352212578e-05,-0.056784577667713165,1.2895838022232056,-0.0,0.012443078681826591,0.8918320536613464,-0.001284276251681149,-0.0011131782084703445
456.0,188.0,-1.4381,-4.6068,8.9779,-0.0657,0.0238,-0.1045,-1.9639646015562953,0.00011180726869497448,3.6582813262939453,-1.5943104028701782,0.021729212254285812,2.043320655822754,4.997230189829626,3.1128776509483634e-33,0.3014373779296875,-1.1476438681231897,9.365379810333252e-05,-0.051866479218006134,1.289615511894226,-1.255178631254239e-06,-0.0014815718168392777,0.8918361663818359,-0.0011455878848209977,-0.00900890864431858
456.0,188.0,-1.4381,-4.6068,8.9779,-0.0657,0.0238,-0.1045,-1.9639245472350062,9.424322342965752e-05,3.716118097305298,-1.5942106246948242,0.023502491414546967,2.047818660736084,4.997210132866659,8.664809999834977e-37,0.27227213978767395,-1.1476357618915003,8.814992179395631e-05,-0.051724374294281006,1.289591670036316,-3.493835498691311e-10,0.009039259515702724,0.8918361663818359,-0.0009712638566270471,-0.01277340017259121
456.0,188.0,-1.4381,-4.6068,8.9779,-0.0657,0.0238,-0.1045,-1.9639564953246058,8.53089804877527e-05,3.682798147201538,-1.5940707921981812,0.02365819551050663,2.031827926635742,4.997185873776235,3.693944664926614e-39,0.2826528549194336,-1.1476677099811,8.482650446239859e-05,-0.04322976619005203,1.2896114587783813,-1.4894766192999342e-12,0.0049253106117248535,0.8918402194976807,-0.0009499040897935629,0.010319042019546032
456.0,188.0,-1.4381,-4.6068,8.9779,-0.0657,0.0238,-0.1045,-1.9639364681639613,7.468889089068398e-05,3.701265811920166,-1.5939154624938965,0.023463552817702293,2.04524564743042,4.997210132866659,1.0285530728144157e-42,0.27914726734161377,-1.1476438681231897,8.028611046029255e-05,-0.05305945873260498,1.2895838022232056,-4.1460131950840065e-16,0.00885216798633337,0.8918324708938599,-0.0009023146121762693,0.015587151050567627
456.0,188.0,-1.4381,-4.6068,8.9779,-0.0657,0.0238,-0.1045,-1.9639164410033167,6.896533159306273e-05,3.674464702606201,-1.5938433408737183,0.020043794065713882,2.077117681503296,4.997233885317602,4.203895392974451e-45,0.27735620737075806,-1.1476925055133265,7.751991506665945e-05,-0.06094987690448761,1.289603590965271,-1.7675104339165715e-18,0.012667229399085045,0.8918119072914124,-0.0009117051376961172,-0.038249850273132324
456.0,188.0,-1.4381,-4.6068,8.9779,-0.0657,0.0238,-0.1045,-1.9639727077879847,6.185534584801644e-05,3.6550307273864746,-1.5937354564666748,0.015214446000754833,2.0581376552581787,4.997221964388647,0.0,0.2850572168827057,-1.1476677099811,5.897696246393025e-05,-0.05396687239408493,1.289615511894226,-4.919930333229935e-22,0.005673106759786606,0.8918042182922363,-0.0011361665092408657,-0.01177721656858921
456.0,188.0,-1.4381,-4.6068,8.9779,-0.0657,0.0238,-0.1045,-1.9639488659300746,5.787737245555036e-05,3.6391701698303223,-1.5936518907546997,0.012509393505752087,2.0341827869415283,4.997173654824056,0.0,0.2914438247680664,-1.147696320210592,5.70979573240038e-05,-0.06233315169811249,1.2896194458007812,-2.0974436879699356e-24,0.01268688403069973,0.8918161392211914,-0.001042890944518149,0.02329619973897934
456.0,188.0,-1.4381,-4.6068,8.9779,-0.0657,0.0238,-0.1045,-1.9639045200743617,7.607557199662551e-05,3.710125207901001,-1.5936883687973022,0.008560308255255222,2.055558204650879,4.997197824507513,0.0,0.2976515591144562,-1.1476638952838343,5.4504460422322154e-05,-0.05472012981772423,1.2895996570587158,-5.838310737216618e-28,0.0008915055659599602,0.8917882442474365,-0.0007954543689265847,0.0037011909298598766
434.0,193.0,-1.867,-3.7669,8.4993,-0.0455,0.0292,-0.1092,-1.9638844929137171,9.418583067599684e-05,3.6704049110412598,-1.5936410427093506,0.005432470235973597,2.0587656497955322,4.9972018776233575,0.0,0.285775363445282,-1.1476758162127894,2.6970998078468256e-05,-0.06438835710287094,1.2895679473876953,-1.6251154151883636e-31,0.0076590729877352715,0.8917759656906128,-0.0006620693020522594,-0.05074741691350937
434.0,193.0,-1.867,-3.7669,8.4993,-0.0455,0.0292,-0.1092,-1.9639488659300746,0.00010720354475779459,3.6800074577331543,-1.593548059463501,0.003442812943831086,2.024000883102417,4.9972219345863245,0.0,0.28356146812438965,-1.1476553122149866,2.5979801648645662e-05,-0.06638219207525253,1.289615511894226,-6.928122176391667e-34,0.006634284742176533,0.8918365240097046,-0.000559300126042217,-0.02606659196317196
434.0,193.0,-1.867,-3.7669,8.4993,-0.0455,0.0292,-0.1092,-1.963900705377096,0.00010688741167541593,3.6868600845336914,-1.5935243368148804,0.001358822570182383,2.018270492553711,4.997177797346868,0.0,0.28262650966644287,-1.1476758162127894,2.490072074579075e-05,-0.058764003217220306,1.289515733718872,-1.928468291850339e-37,-0.0016295716632157564,0.8917922973632812,-0.00045357385533861816,-0.0029830243438482285
434.0,193.0,-1.867,-3.7669,8.4993,-0.0455,0.0292,-0.1092,-1.9639488659300746,0.00012016154505545273,3.669769287109375,-1.5935475826263428,0.001015030313283205,2.0040359497070312,4.997218149691381,0.0,0.2809072732925415,-1.1477320829974573,2.4230315830209292e-05,-0.0525202602148056,1.2895838022232056,-8.221362038255129e-40,-0.00040387315675616264,0.8918119668960571,-0.0004028136027045548,-0.039096586406230927
434.0,193.0,-1.867,-3.7669,8.4993,-0.0455,0.0292,-0.1092,-1.9639212093748988,9.5456896815449e-05,3.721778392791748,-1.5934885740280151,0.0006487543578259647,2.013047695159912,4.997181880265035,0.0,0.2911388576030731,-1.1476758162127894,2.3289781893254258e-05,-0.059006668627262115,1.2896472215652466,-2.284116496849452e-43,0.00378320156596601,0.8918243050575256,-0.0003166507522109896,0.0026113297790288925
434.0,193.0,-1.867,-3.7669,8.4993,-0.0455,0.0292,-0.1092,-1.9639045200743617,9.064546611625701e-05,3.687959671020508,-1.5935243368148804,0.0005230067181400955,2.023507595062256,4.99715023019866,0.0,0.2812919318675995,-1.1476715246783655,2.2702321075485088e-05,-0.05004487931728363,1.2895718812942505,-1.401298464324817e-45,0.006871819496154785,0.8918361663818359,-0.0002754158340394497,0.002336574485525489
434.0,193.0,-1.867,-3.7669,8.4993,-0.0455,0.0292,-0.1092,-1.963940759698385,6.324330024654046e-05,3.6309871673583984,-1.593567967414856,0.0004052239819429815,2.015969753265381,4.997162449150839,0.0,0.26604223251342773,-1.1476958433734339,2.187464815506246e-05,-0.05488213896751404,1.2895996570587158,-0.0,0.0044489772990345955,0.8918324708938599,-5.425283598015085e-05,-0.01946980319917202
434.0,193.0,-1.867,-3.7669,8.4993,-0.0455,0.0292,-0.1092,-1.9639650783934535,6.0382193623809144e-05,3.6408352851867676,-1.5935561656951904,0.000352333823684603,2.0361499786376953,4.997158306628027,0.0,0.2656674385070801,-1.1477158705340784,2.1355583157856017e-05,-0.05602257326245308,1.2896075248718262,-0.0,0.006007135380059481,0.891884446144104,-5.183278517506551e-07,-0.02759459987282753
434.0,193.0,-1.867,-3.7669,8.4993,-0.0455,0.0292,-0.1092,-1.963956972161764,-0.00013631822366733104,3.6745128631591797,-1.593511939048767,0.000294649536954239,2.002624988555908,4.997114109783926,-0.0007867732783779502,0.266004741191864,-1.1476839224444788,2.0621626390493475e-05,-0.06920191645622253,1.2895759344100952,-0.00010826941434061155,-0.0004420091281645,0.8918845057487488,-1.2517007829532245e-12,0.015227099880576134
434.0,193.0,-1.867,-3.7669,8.4993,-0.0455,0.0292,-0.1092,-1.9639526806273402,-0.00014742767962161452,3.580031633377075,-1.5935436487197876,0.0002531976206228137,1.9747546911239624,4.997137892037191,-0.0007854465511627495,0.25276702642440796,-1.1476758162127894,1.9936434910050593e-05,-0.04644257575273514,1.2895877361297607,-0.00010136873606825247,0.004328729584813118,0.891876220703125,0.0024057854898273945,0.01710648462176323
434.0,193.0,-1.867,-3.7669,8.4993,-0.0455,0.0292,-0.1092,-1.9639207325377406,-0.0001483154483139515,3.622817039489746,-1.593567967414856,0.0002655019052326679,2.0359795093536377,4.997158455639639,-0.0008569719502702355,0.26809167861938477,-1.1476758162127894,1.6766828991876537e-07,-0.05876942723989487,1.2895718812942505,-9.699866495793685e-05,-0.002588865114375949,0.8919119834899902,0.002682763384655118,0.0011433940380811691
434.0,193.0,-1.867,-3.7669,8.4993,-0.0455,0.0292,-0.1092,-1.9639727077879847,-0.0001273325178772211,3.647500514984131,-1.593511939048767,0.00022035057190805674,2.02927303314209,4.997122245817938,-0.0009342331904917955,0.2609253525733948,-1.1477163473712366,4.667108019495991e-11,-0.05583665892481804,1.289552092552185,-0.00010693834337871522,0.004755896981805563,0.891907811164856,0.0032839160412549973,0.006693452596664429
434.0,193.0,-1.867,-3.7669,8.4993,-0.0455,0.0292,-0.1092,-1.9639927349486292,-0.00011635678674792871,3.6116127967834473,-1.5934964418411255,0.0018895885441452265,2.0523407459259033,4.997126447945394,-0.0009993043495342135,0.25585925579071045,-1.1477282683001917,1.989661419562333e-13,-0.052950404584407806,1.2896075248718262,-0.00010506331454962492,0.004041729960590601,0.8919561505317688,0.003375355852767825,0.021963099017739296
434.0,193.0,-1.867,-3.7669,8.4993,-0.0455,0.0292,-0.1092,-1.9639765224852503,-0.00010303507588105276,3.5701189041137695,-1.593448281288147,0.0041060736402869225,2.0094385147094727,4.99709780791358,-0.0010072197765111923,0.24775274097919464,-1.147663418446676,5.538295147120191e-17,-0.051722053438425064,1.2895679473876953,-9.927809878718108e-05,0.012112419120967388,0.8919720649719238,0.004224888980388641,0.015416367910802364
434.0,193.0,-1.867,-3.7669,8.4993,-0.0455,0.0292,-0.1092,-1.963968416253561,-9.572858834872022e-05,3.5521395206451416,-1.59342360496521,0.0050394064746797085,2.032491683959961,4.997065710812368,-0.0009457201231271029,0.2510146498680115,-1.1477115789996546,2.3610622059589103e-19,-0.05816907435655594,1.2895519733428955,-9.575713193044066e-05,0.007347737438976765,0.8919757008552551,0.00521662225946784,-0.003439484164118767
434.0,193.0,-1.867,-3.7669,8.4993,-0.0455,0.0292,-0.1092,-1.9639932117857875,-0.00011522947170305997,3.5412654876708984,-1.5934280157089233,0.006611937191337347,2.048377513885498,4.997098195343771,-0.0010000546462833881,0.24741554260253906,-1.1477320829974573,6.572101806680842e-23,-0.04767133668065071,1.2895996570587158,-0.0001059420537785627,-0.005418227985501289,0.8920518755912781,0.0069588967598974705,0.03724374622106552
434.0,193.0,-1.867,-3.7669,8.4993,-0.0455,0.0292,-0.1092,-1.9639808140196742,-0.00013233470963314176,3.554931640625,-1.5933643579483032,0.007869777269661427,2.0307815074920654,4.997053968697347,-0.0013178704539313912,0.25049033761024475,-1.1477282683001917,2.8017896349834483e-25,-0.05627494677901268,1.2895638942718506,-0.00010261750867357478,-0.00230962922796607,0.8920798301696777,0.007208226714283228,0.009136182256042957
436.0,190.0,-1.5757,-4.2341,8.6806,-0.0354,0.0203,-0.098,-1.9639765224852503,-0.0002105901949107647,3.5280730724334717,-1.5933763980865479,0.009097502566874027,2.0769639015197754,4.997021961003103,-0.001588319893926382,0.2489660382270813,-1.1476920286761683,7.798883587219762e-29,-0.07011692225933075,1.2896075248718262,-9.783718996914104e-05,-0.00818656012415886,0.8921158313751221,0.00850397627800703,0.014066830277442932
436.0,190.0,-1.5757,-4.2341,8.6806,-0.0354,0.0203,-0.098,-1.9639636478819789,-0.001032044063322246,3.5546207427978516,-1.5933241844177246,0.009348658844828606,2.0400609970092773,4.997070359974661,-0.0024592033587396145,0.2339111566543579,-1.1477277914630335,2.1708474249905242e-32,-0.062132105231285095,1.2895599603652954,-9.348184539703652e-05,-0.007185720838606358,0.8921439051628113,0.009574390947818756,0.042693763971328735
436.0,190.0,-1.5757,-4.2341,8.6806,-0.0354,0.0203,-0.098,-1.9639846287169398,-0.0019069351255893707,3.5342187881469727,-1.5932608842849731,0.008804926648736,2.0154831409454346,4.9970625815685175,-0.002635279204696417,0.23306265473365784,-1.1477039496051233,9.254663580192764e-35,-0.06507094949483871,1.289595603942871,-9.078759467229247e-05,0.011254717595875263,0.8922197222709656,0.009942389093339443,0.09108882397413254
436.0,190.0,-1.5757,-4.2341,8.6806,-0.0354,0.0203,-0.098,-1.9640127621092738,-0.002168977400287986,3.5292422771453857,-1.5931719541549683,0.007987650111317635,2.055548906326294,4.997038352280416,-0.0022435488644987345,0.24160444736480713,-1.1477316061602991,2.57606946487982e-38,-0.06051938980817795,1.2895678281784058,-8.702532795723528e-05,0.009537571109831333,0.8922799229621887,0.010133132338523865,0.12188023328781128
436.0,190.0,-1.5757,-4.2341,8.6806,-0.0354,0.0203,-0.098,-1.9640170536436976,-0.002505328506231308,3.510709524154663,-1.5931408405303955,0.00820273719727993,2.0558178424835205,4.997018354922094,-0.0016270920168608427,0.24107903242111206,-1.1477559248553675,-6.494815897895023e-05,-0.06264565885066986,1.2896195650100708,-8.468556916341186e-05,0.008970347233116627,0.8923077583312988,0.010592841543257236,0.05585406348109245
436.0,190.0,-1.5757,-4.2341,8.6806,-0.0354,0.0203,-0.098,-1.9640408955016078,-0.0028004422783851624,3.5112133026123047,-1.5931004285812378,0.008283688686788082,2.0272228717803955,4.996994125633993,-0.0011623336467891932,0.23414692282676697,-1.1477320829974573,-0.0002579769352450967,-0.06482845544815063,1.2895362377166748,-9.151509584626183e-05,0.0016915692249312997,0.8924040794372559,0.010976693592965603,0.06547856330871582
436.0,190.0,-1.5757,-4.2341,8.6806,-0.0354,0.0203,-0.098,-1.9640566311278285,-0.002724824007600546,3.510895252227783,-1.5930604934692383,0.009190180338919163,2.082427740097046,4.996986377030172,-0.0008800755604170263,0.22347748279571533,-1.1477039496051233,-0.00023148651234805584,-0.07141035795211792,1.2895797491073608,-9.068180952453986e-05,-0.003542087972164154,0.892464280128479,0.011603272520005703,0.06286149471998215
436.0,190.0,-1.5757,-4.2341,8.6806,-0.0354,0.0203,-0.098,-1.964036603967184,-0.002544623799622059,3.4597630500793457,-1.5930371284484863,0.009455185383558273,2.009089469909668,4.997022318630972,-0.0008809391874819994,0.22764864563941956,-1.1477239767657679,-0.0002399194345343858,-0.06586165726184845,1.2895996570587158,-8.738620090298355e-05,0.013379162177443504,0.8924952745437622,0.011736304499208927,0.10983109474182129
436.0,190.0,-1.5757,-4.2341,8.6806,-0.0354,0.0203,-0.098,-1.9640728435912074,-0.002369627822190523,3.4735796451568604,-1.5930132865905762,0.010396640747785568,2.07338547706604,4.997010397702017,-0.000830291653983295,0.23842960596084595,-1.1477678457843226,-0.00021225497766863555,-0.07111096382141113,1.289560079574585,-8.431626338278875e-05,-0.007216392084956169,0.8925595283508301,0.011319063603878021,0.048489198088645935
436.0,190.0,-1.5757,-4.2341,8.6806,-0.0354,0.0203,-0.098,-1.9641086063780726,-0.0021807083394378424,3.471951484680176,-1.5929293632507324,0.011150380596518517,2.01381254196167,4.99703876951293,-0.0009558440069667995,0.2320074737071991,-1.147735897694723,-0.00019678293028846383,-0.07417172193527222,1.289591670036316,-8.238665759563446e-05,0.0013669987674802542,0.8925873637199402,0.011898467317223549,0.059700578451156616
436.0,190.0,-1.5757,-4.2341,8.6806,-0.0354,0.0203,-0.098,-1.9641205273070277,-0.002263828879222274,3.5111026763916016,-1.5928009748458862,0.012363885529339314,2.0283548831939697,4.996994423657217,-0.0009020172874443233,0.21404869854450226,-1.1477401892291468,-0.0002049559698207304,-0.06919582933187485,1.2895480394363403,-7.965233089635149e-05,0.0005055498331785202,0.8927241563796997,0.010623913258314133,0.07776279747486115
436.0,190.0,-1.5757,-4.2341,8.6806,-0.0354,0.0203,-0.098,-1.9641248188414515,-0.002625644439831376,3.5003762245178223,-1.592785358428955,0.012240277603268623,2.055520534515381,4.996998566180029,-0.0010101961670443416,0.22163021564483643,-1.147747818623678,-0.0001941840018844232,-0.07794328033924103,1.2895995378494263,-3.3957039136112144e-07,-0.00045297981705516577,0.89267498254776,0.010750383138656616,0.07330705225467682
436.0,190.0,-1.5757,-4.2341,8.6806,-0.0354,0.0203,-0.098,-1.964128156701559,-0.0026672901585698128,3.4333884716033936,-1.5927212238311768,0.012193773873150349,2.011986017227173,4.996958780079641,-0.0010455332230776548,0.21834799647331238,-1.1477440039264124,-0.0001777536963345483,-0.0692235678434372,1.2895560264587402,-9.452066213055943e-11,0.003816395765170455,0.8927792906761169,0.009602286852896214,0.07884310185909271
436.0,190.0,-1.5757,-4.2341,8.6806,-0.0354,0.0203,-0.098,-1.964140077630514,-0.0028177346102893353,3.456099271774292,-1.5926775932312012,0.013734654523432255,2.018599510192871,4.997002708702841,-0.00097500259289518,0.23384882509708405,-1.1477559248553675,-0.00016825790225993842,-0.07911171019077301,1.2895996570587158,-4.0295647677976443e-13,-0.0013941110810264945,0.8928194642066956,0.009005638770759106,0.019905351102352142
436.0,190.0,-1.5757,-4.2341,8.6806,-0.0354,0.0203,-0.098,-1.9641362629332484,-0.0031812458764761686,3.4255728721618652,-1.592545509338379,0.015328587032854557,2.0456647872924805,4.996930408268728,-0.001117834122851491,0.21442587673664093,-1.1477239767657679,-0.00017653958639129996,-0.08466781675815582,1.2895394563674927,-1.1216442051276967e-16,0.002682535443454981,0.8928472995758057,0.008405950851738453,0.10826106369495392
436.0,190.0,-1.5757,-4.2341,8.6806,-0.0354,0.0203,-0.098,-1.964184900323385,-0.0032165953889489174,3.4801414012908936,-1.5925055742263794,0.015968339517712593,2.0622968673706055,4.99693043807105,-0.0014920714311301708,0.21578553318977356,-1.1477440039264124,-0.00016963369853328913,-0.07280440628528595,1.2895797491073608,-4.781745005531229e-19,-0.0011051089968532324,0.8928988575935364,0.008485103026032448,0.07653238624334335
436.0,190.0,-1.5757,-4.2341,8.6806,-0.0354,0.0203,-0.098,-1.9642406902708949,-0.0037560774944722652,3.4259514808654785,-1.592434048652649,0.01667441613972187,2.043325901031494,4.996970671206274,-0.0014398274943232536,0.21995112299919128,-1.147764031087057,-0.00015844052541069686,-0.05794844031333923,1.2895797491073608,-1.3310162277335908e-22,0.007982313632965088,0.8929271101951599,0.008143284358084202,0.05684798210859299
436.0,190.0,-1.5757,-4.2341,8.6806,-0.0354,0.0203,-0.098,-1.964264532128805,-0.004065381363034248,3.409886360168457,-1.5922703742980957,0.019586628302931786,2.0287063121795654,4.996934580593862,-0.0012570578837767243,0.21093839406967163,-1.147764031087057,-0.00014862805255688727,-0.06775978207588196,1.2895797491073608,-3.704933312581894e-26,0.00627432856708765,0.8930435180664062,0.008379076607525349,0.04261481761932373
431.0,193.0,-1.7791,-4.2616,8.9659,-0.0325,0.0518,-0.0939,-1.964219709435934,-0.00426504947245121,3.4094529151916504,-1.5922062397003174,0.02234097197651863,2.0250086784362793,4.9969346700008295,-0.0012841433053836226,0.2189747393131256,-1.1477521101581019,-0.00014273506531026214,-0.0681501105427742,1.289503812789917,-1.5794710363140133e-28,-0.0018674973398447037,0.8930270671844482,0.008777630515396595,0.076954185962677
431.0,193.0,-1.7791,-4.2616,8.9659,-0.0325,0.0518,-0.0939,-1.964264532128805,-0.004688178654760122,3.4692745208740234,-1.59206223487854,0.024539530277252197,2.051766872406006,4.996966916113653,-0.0017310890834778547,0.20178520679473877,-1.1477277914630335,-0.00011612402886385098,-0.07503655552864075,1.2895718812942505,-5.70047996006906e-05,0.008977196179330349,0.8931192755699158,0.009633000008761883,0.04995354264974594
431.0,193.0,-1.7791,-4.2616,8.9659,-0.0325,0.0518,-0.0939,-1.9642273388304652,-0.004818499553948641,3.4167494773864746,-1.5919389724731445,0.027199437841773033,2.020155429840088,4.9969427464301965,-0.0022624479606747627,0.2042619287967682,-1.1477158705340784,-0.00011028879816876724,-0.07305142283439636,1.2895312309265137,-5.925305958953686e-05,0.005190110299736261,0.8931552767753601,0.010300400666892529,0.08050662279129028
431.0,193.0,-1.7791,-4.2616,8.9659,-0.0325,0.0518,-0.0939,-1.964292665521139,-0.005606774240732193,3.4050991535186768,-1.5917627811431885,0.032555047422647476,2.0532639026641846,4.996882664948263,-0.003183944383636117,0.2097949981689453,-1.1477316061602991,-0.00010273404768668115,-0.06394115090370178,1.2895758152008057,-5.7016619393834844e-05,-0.0006432065274566412,0.8931666612625122,0.010806772857904434,0.06379082053899765
431.0,193.0,-1.7791,-4.2616,8.9659,-0.0325,0.0518,-0.0939,-1.9643522701659144,-0.0062392354011535645,3.400347948074341,-1.5916311740875244,0.03428388759493828,2.076845645904541,4.996890830784597,-0.003872747765854001,0.2068447768688202,-1.147747818623678,-9.824805601965636e-05,-0.07334137707948685,1.2895480394363403,-5.560753561439924e-05,-0.010611933656036854,0.8932511210441589,0.011652066372334957,0.08482661843299866
431.0,193.0,-1.7791,-4.2616,8.9659,-0.0325,0.0518,-0.0939,-1.964368005792135,-0.006713257171213627,3.4133613109588623,-1.5914113521575928,0.038383930921554565,2.089489459991455,4.996851074486532,-0.005090103950351477,0.20183171331882477,-1.1477316061602991,-9.220827632816508e-05,-0.06945782899856567,1.2895680665969849,-6.363500870065764e-05,-0.002931665163487196,0.893294632434845,0.011676743626594543,0.09295274317264557
431.0,193.0,-1.7791,-4.2616,8.9659,-0.0325,0.0518,-0.0939,-1.9644037685790003,-0.008258262649178505,3.3616676330566406,-1.5911513566970825,0.04245966300368309,2.093841075897217,4.996810930758276,-0.0056117018684744835,0.18724748492240906,-1.1477158705340784,-8.686812361702323e-05,-0.07507458329200745,1.289543867111206,-6.212282460182905e-05,0.014581821858882904,0.8933667540550232,0.011766764335334301,0.07608427107334137
