ramyac6/ROB537/final_project/csv/all/bad_177.csv
tof_0,tof_1,accelx,accely,accelz,gyrox,gyroy,gyroz,shoulder_lift_joint_position,shoulder_lift_joint_velocity,shoulder_lift_joint_effort,elbow_joint_position,elbow_joint_velocity,elbow_joint_effort,wrist_1_joint_position,wrist_1_joint_velocity,wrist_1_joint_effort,wrist_2_joint_position,wrist_2_joint_velocity,wrist_2_joint_effort,wrist_3_joint_position,wrist_3_joint_velocity,wrist_3_joint_effort,shoulder_pan_joint_position,shoulder_pan_joint_velocity,shoulder_pan_joint_effort
239.0,228.0,-0.198,-5.7936,7.6606,-0.0432,0.0235,-0.1174,-1.887643953362936,0.0,3.3960812091827393,-1.6107337474822998,-0.0,2.0655832290649414,5.20165108421401,-0.0,0.24419933557510376,-0.9749825636493128,0.0,-0.0652819573879242,0.29707592725753784,0.0,-0.011376476846635342,1.2100751399993896,0.0,-0.008463696576654911
239.0,228.0,-0.198,-5.7936,7.6606,-0.0432,0.0235,-0.1174,-1.8876635036864222,0.0,3.357851028442383,-1.6106855869293213,-0.0,2.0209951400756836,5.201615023403921,-0.0,0.2611795663833618,-0.9750636259662073,0.0,-0.06720990687608719,0.2971487045288086,0.0,0.0008019107626751065,1.2100671529769897,0.0,-0.01513668056577444
239.0,228.0,-0.198,-5.7936,7.6606,-0.0432,0.0235,-0.1174,-1.8876353702940882,0.0,3.4068522453308105,-1.6107456684112549,-0.0,2.032780885696411,5.201611059695043,-0.0,0.246852308511734,-0.9750030676471155,0.0,-0.08551118522882462,0.2970840632915497,0.0,0.007265361491590738,1.2100870609283447,0.0,-0.011492358520627022
239.0,228.0,-0.198,-5.7936,7.6606,-0.0432,0.0235,-0.1174,-1.887639661828512,0.0,3.360377073287964,-1.6107218265533447,-0.0,2.0202879905700684,5.201599168568411,-0.0,0.25726044178009033,-0.9750593344317835,0.0,-0.07014714181423187,0.29711219668388367,0.0,-0.0033031029161065817,1.2100950479507446,0.0,-0.024042140692472458
239.0,228.0,-0.198,-5.7936,7.6606,-0.0432,0.0235,-0.1174,-1.887655874291891,0.0,3.401519775390625,-1.6107057332992554,-0.0,2.042391300201416,5.201590943127432,-0.0,0.2604745030403137,-0.9749911467181605,0.0,-0.06762391328811646,0.2971522808074951,0.0,0.005707972217351198,1.2101110219955444,0.0,-0.0052857352420687675
239.0,228.0,-0.198,-5.7936,7.6606,-0.0432,0.0235,-0.1174,-1.8876196346678675,0.0,3.3573198318481445,-1.6107418537139893,-0.0,2.103761672973633,5.201602804451742,-0.0,0.25890451669692993,-0.9750312010394495,0.0,-0.059911344200372696,0.2971203327178955,0.0,-0.007868936285376549,1.2101110219955444,0.0,0.013252679258584976
239.0,228.0,-0.198,-5.7936,7.6606,-0.0432,0.0235,-0.1174,-1.8876635036864222,0.0,3.4132418632507324,-1.6107139587402344,-0.0,2.021775484085083,5.201579081803121,-0.0,0.25916239619255066,-0.975039307271139,0.0,-0.0646478459239006,0.29716047644615173,0.0,-0.004755254834890366,1.2100950479507446,0.0,-0.021726246923208237
239.0,228.0,-0.198,-5.7936,7.6606,-0.0432,0.0235,-0.1174,-1.887655874291891,0.0,3.3759045600891113,-1.6106576919555664,-0.0,2.1087584495544434,5.201602804451742,-0.0,0.2606132924556732,-0.9750149885760706,0.0,-0.07032917439937592,0.29712000489234924,0.0,-0.009738720953464508,1.2101110219955444,0.0,-0.016116878017783165
241.0,228.0,-0.2518,-5.7679,7.5823,-0.0388,0.0281,-0.1136,-1.8876315555968226,0.0,3.4066948890686035,-1.6107500791549683,-0.0,2.0273613929748535,5.201623308449545,-0.0,0.2477666139602661,-0.9750269095050257,0.0,-0.07606483995914459,0.29715609550476074,0.0,-0.010829687118530273,1.210131287574768,0.0,0.05569946765899658
241.0,228.0,-0.2518,-5.7679,7.5823,-0.0388,0.0281,-0.1136,-1.887639661828512,0.0,3.3812432289123535,-1.6107299327850342,-0.0,2.057777166366577,5.2016392824943445,-0.0,0.25129562616348267,-0.9750312010394495,0.0,-0.07615751773118973,0.2970314025878906,0.0,0.005699239671230316,1.2101151943206787,0.0,-0.0014657221036031842
241.0,228.0,-0.2518,-5.7679,7.5823,-0.0388,0.0281,-0.1136,-1.8876153431334437,0.0,3.3999345302581787,-1.6107139587402344,-0.0,2.032163619995117,5.2016314444835565,-0.0,0.2667675018310547,-0.9750350157367151,0.0,-0.06417614221572876,0.2971203327178955,0.0,0.005116305314004421,1.2100830078125,0.0,0.005372490268200636
241.0,228.0,-0.2518,-5.7679,7.5823,-0.0388,0.0281,-0.1136,-1.8876272640623988,0.0,3.414273262023926,-1.6107181310653687,-0.0,2.028231143951416,5.2016314444835565,-0.0,0.25895100831985474,-0.9750235716449183,0.0,-0.06680624932050705,0.29714012145996094,0.0,0.003460302483290434,1.2101551294326782,0.0,-0.021634411066770554
241.0,228.0,-0.2518,-5.7679,7.5823,-0.0388,0.0281,-0.1136,-1.887639661828512,0.0,3.372868299484253,-1.6107538938522339,-0.0,2.0615146160125732,5.201602834254064,-0.0,0.24760311841964722,-0.9750312010394495,0.0,-0.07487118244171143,0.2971522808074951,0.0,-0.004099132027477026,1.2101069688796997,0.0,-0.02711661346256733
241.0,228.0,-0.2518,-5.7679,7.5823,-0.0388,0.0281,-0.1136,-1.887643953362936,0.0,3.4163527488708496,-1.6107099056243896,-0.0,2.039478302001953,5.201655226736822,-0.0,0.24329331517219543,-0.9750588575946253,0.0,-0.08670922368764877,0.2971723973751068,0.0,0.00519721582531929,1.2101030349731445,0.0,-0.04811520874500275
241.0,228.0,-0.2518,-5.7679,7.5823,-0.0388,0.0281,-0.1136,-1.8876477680602015,0.0,3.42065167427063,-1.6106897592544556,-0.0,2.0455210208892822,5.201607006579199,-0.0,0.2593580186367035,-0.9749949614154261,0.0,-0.08254414796829224,0.29711225628852844,0.0,0.012813430279493332,1.2100871801376343,0.0,0.011038964614272118
241.0,228.0,-0.2518,-5.7679,7.5823,-0.0388,0.0281,-0.1136,-1.887667795220846,0.0,3.349674940109253,-1.6107299327850342,-0.0,2.0509724617004395,5.201611089497366,-0.0,0.25315776467323303,-0.975039307271139,0.0,-0.0692371129989624,0.2971203327178955,0.0,0.0029894253239035606,1.2101070880889893,0.0,-0.02130141481757164
241.0,228.0,-0.2518,-5.7679,7.5823,-0.0388,0.0281,-0.1136,-1.8876716099181117,0.0,3.432860851287842,-1.610754132270813,-0.0,2.0489535331726074,5.201574969082632,-0.0,0.2549102306365967,-0.9750631491290491,0.0,-0.06979025155305862,0.29705142974853516,0.0,-0.005796304903924465,1.2100752592086792,0.0,0.02009565569460392
241.0,228.0,-0.2518,-5.7679,7.5823,-0.0388,0.0281,-0.1136,-1.8876434765257777,0.0,3.3690614700317383,-1.61081063747406,-0.0,2.0321924686431885,5.201602804451742,-0.0,0.25176361203193665,-0.9749787489520472,0.0,-0.07359866797924042,0.297156423330307,0.0,-0.00019143125973641872,1.2100752592086792,0.0,0.020316286012530327
241.0,228.0,-0.2518,-5.7679,7.5823,-0.0388,0.0281,-0.1136,-1.8876472912230433,0.0,3.3673837184906006,-1.6106493473052979,-0.0,2.0478410720825195,5.201575058489599,-0.0,0.2547188997268677,-0.9749825636493128,0.0,-0.06358562409877777,0.29712817072868347,0.0,0.013001585379242897,1.2100830078125,0.0,0.016713935881853104
241.0,228.0,-0.2518,-5.7679,7.5823,-0.0388,0.0281,-0.1136,-1.8876077137389125,0.0,3.3906867504119873,-1.610745906829834,-0.0,2.0897958278656006,5.201611059695043,-0.0,0.2536260187625885,-0.9750354925738733,0.0,-0.08371061831712723,0.2970717251300812,0.0,0.007071582600474358,1.2100712060928345,0.0,0.010250132530927658
241.0,228.0,-0.2518,-5.7679,7.5823,-0.0388,0.0281,-0.1136,-1.887667795220846,0.0,3.3524842262268066,-1.6107099056243896,-0.0,2.0446243286132812,5.201606946974554,-0.0,0.25489795207977295,-0.9749787489520472,0.0,-0.0770529955625534,0.29712826013565063,0.0,0.004307672381401062,1.2100911140441895,0.0,-0.006073370575904846
241.0,228.0,-0.2518,-5.7679,7.5823,-0.0388,0.0281,-0.1136,-1.887643953362936,0.0,3.3981196880340576,-1.6107579469680786,-0.0,2.085333824157715,5.201611059695043,-0.0,0.25778913497924805,-0.9749906698810022,0.0,-0.0871257483959198,0.29714417457580566,0.0,0.01204046793282032,1.2100350856781006,0.0,0.017379505559802055
241.0,228.0,-0.2518,-5.7679,7.5823,-0.0388,0.0281,-0.1136,-1.8876716099181117,0.0,3.38948392868042,-1.6107662916183472,-0.0,2.015737533569336,5.201595055847921,-0.0,0.2502395808696747,-0.975011173878805,0.0,-0.06647907197475433,0.2971203327178955,0.0,0.0004512097220867872,1.2101311683654785,0.0,0.02487809769809246
241.0,228.0,-0.2518,-5.7679,7.5823,-0.0388,0.0281,-0.1136,-1.887667795220846,0.0,3.4005603790283203,-1.6107099056243896,-0.0,2.0349130630493164,5.20158680060462,-0.0,0.2599940299987793,-0.9750116507159632,0.0,-0.07030105590820312,0.29709991812705994,0.0,0.00825005304068327,1.2101110219955444,0.0,-0.049581870436668396
242.0,227.0,-0.201,-5.8062,7.5529,-0.037,0.0296,-0.1228,-1.8876472912230433,0.0,3.4025096893310547,-1.6107176542282104,-0.0,2.0296103954315186,5.201574969082632,-0.0,0.25691571831703186,-0.9750149885760706,0.0,-0.060221198946237564,0.29716426134109497,0.0,0.0020883502438664436,1.2100871801376343,0.0,-0.01622021570801735
242.0,227.0,-0.201,-5.8062,7.5529,-0.037,0.0296,-0.1228,-1.8876234493651332,0.0,3.3966825008392334,-1.6107378005981445,-0.0,2.0828909873962402,5.201583105116644,-0.0,0.2530010938644409,-0.9750192801104944,0.0,-0.060236092656850815,0.29707983136177063,0.0,-0.007172377314418554,1.2100989818572998,0.0,0.010691876523196697
242.0,227.0,-0.201,-5.8062,7.5529,-0.037,0.0296,-0.1228,-1.8876596889891566,0.0,3.371800422668457,-1.6107500791549683,-0.0,2.020338773727417,5.2016151426132105,-0.0,0.25410255789756775,-0.9749949614154261,0.0,-0.07468508183956146,0.2970999479293823,0.0,0.0058886706829071045,1.2100911140441895,0.0,0.028521906584501266
242.0,227.0,-0.201,-5.8062,7.5529,-0.037,0.0296,-0.1228,-1.8876472912230433,0.0,3.3895468711853027,-1.6107258796691895,-0.0,2.1138479709625244,5.201643752842703,-0.0,0.247737854719162,-0.9749992529498499,0.0,-0.07399439811706543,0.29718470573425293,0.0,-0.0011938887182623148,1.2100671529769897,0.0,0.01650513894855976
242.0,227.0,-0.201,-5.8062,7.5529,-0.037,0.0296,-0.1228,-1.8876921139159144,0.0,3.3605775833129883,-1.6107620000839233,-0.0,2.042418956756592,5.201606976776876,-0.0,0.25041693449020386,-0.9750312010394495,0.0,-0.07909278571605682,0.2971683144569397,0.0,-0.007881083525717258,1.2101231813430786,0.0,-0.009919382631778717
242.0,227.0,-0.201,-5.8062,7.5529,-0.037,0.0296,-0.1228,-1.887639661828512,0.0,3.4235992431640625,-1.6106975078582764,-0.0,2.040959358215332,5.201639312296667,-0.0,0.2615903913974762,-0.9749825636493128,0.0,-0.07409347593784332,0.29710817337036133,0.0,-0.0009205741807818413,1.2100831270217896,0.0,0.0017885289853438735
242.0,227.0,-0.201,-5.8062,7.5529,-0.037,0.0296,-0.1228,-1.887684007684225,0.0,3.399163007736206,-1.6107101440429688,-0.0,2.07908034324646,5.201598721533575,-0.0,0.24832305312156677,-0.9749949614154261,0.0,-0.0693134292960167,0.29715609550476074,0.0,-0.0073193954303860664,1.2101072072982788,0.0,0.020279424265027046
242.0,227.0,-0.201,-5.8062,7.5529,-0.037,0.0296,-0.1228,-1.8876801929869593,0.0,3.39001727104187,-1.610745906829834,-0.0,2.037662982940674,5.201602804451742,-0.0,0.2584395408630371,-0.9750636259662073,0.0,-0.06992211937904358,0.2971121668815613,0.0,-0.0013640251709148288,1.210131049156189,0.0,-0.009343190118670464
242.0,227.0,-0.201,-5.8062,7.5529,-0.037,0.0296,-0.1228,-1.887583395043844,0.0,3.3912014961242676,-1.6107702255249023,-0.0,2.070800542831421,5.20158268788413,-0.0,0.24740302562713623,-0.9749992529498499,0.0,-0.07618080079555511,0.29709985852241516,0.0,0.0016415419522672892,1.2101272344589233,0.0,-0.018648166209459305
242.0,227.0,-0.201,-5.8062,7.5529,-0.037,0.0296,-0.1228,-1.8876921139159144,0.0,3.353353500366211,-1.6107181310653687,-0.0,2.0048937797546387,5.20158680060462,-0.0,0.255228728055954,-0.9750312010394495,0.0,-0.06646012514829636,0.2971523404121399,0.0,-0.012727547436952591,1.2101272344589233,0.0,-0.04188820719718933
242.0,227.0,-0.201,-5.8062,7.5529,-0.037,0.0296,-0.1228,-1.8876353702940882,0.0,3.4081857204437256,-1.6107181310653687,-0.0,2.046515464782715,5.201602804451742,-0.0,0.2540290355682373,-0.9750431219684046,0.0,-0.06430062651634216,0.2971765697002411,0.0,-0.007547794841229916,1.2100790739059448,0.0,0.0005306995008140802
242.0,227.0,-0.201,-5.8062,7.5529,-0.037,0.0296,-0.1228,-1.8876153431334437,0.0,3.377962112426758,-1.6107538938522339,-0.0,2.0478034019470215,5.20157082655982,-0.0,0.25027453899383545,-0.9750474135028284,0.0,-0.09191135317087173,0.2971322536468506,0.0,0.008123503066599369,1.2100752592086792,0.0,0.007896953262388706
242.0,227.0,-0.201,-5.8062,7.5529,-0.037,0.0296,-0.1228,-1.8876353702940882,0.0,3.336519718170166,-1.6107497215270996,-0.0,2.0196447372436523,5.201643365412512,-0.0,0.2543427348136902,-0.9750431219684046,0.0,-0.0762627050280571,0.29714417457580566,0.0,-0.0027446583844721317,1.2100989818572998,0.0,-0.05232445150613785
242.0,227.0,-0.201,-5.8062,7.5529,-0.037,0.0296,-0.1228,-1.8876759014525355,0.0,3.432013988494873,-1.6107419729232788,-0.0,2.0455048084259033,5.20161913612441,-0.0,0.25327956676483154,-0.9749949614154261,0.0,-0.07874616235494614,0.29715603590011597,0.0,0.004935731645673513,1.2100831270217896,0.0,0.000519284512847662
242.0,227.0,-0.201,-5.8062,7.5529,-0.037,0.0296,-0.1228,-1.8876801929869593,0.0,3.4215657711029053,-1.6107258796691895,-0.0,2.080676794052124,5.201590972929754,-0.0,0.25150445103645325,-0.9749992529498499,0.0,-0.07218323647975922,0.2971203327178955,0.0,7.968186400830746e-05,1.2101069688796997,0.0,-0.05271407216787338
242.0,227.0,-0.201,-5.8062,7.5529,-0.037,0.0296,-0.1228,-1.8876434765257777,0.0,3.4000704288482666,-1.6106733083724976,-0.0,2.0553314685821533,5.201550739794531,-0.0,0.2638063132762909,-0.9750431219684046,0.0,-0.07702687382698059,0.2971523404121399,0.0,0.003968057222664356,1.2101069688796997,0.0,-0.03743622452020645
243.0,225.0,-0.2291,-5.7739,7.5858,-0.0347,0.0224,-0.1228,-1.8876878223814906,0.0,3.4091994762420654,-1.6107378005981445,-0.0,2.071408748626709,5.201575028687277,-0.0,0.247085839509964,-0.9749711195575159,0.0,-0.08014549314975739,0.2971245050430298,0.0,-0.003854488953948021,1.2101311683654785,0.0,-0.011938000097870827
243.0,225.0,-0.2291,-5.7739,7.5858,-0.0347,0.0224,-0.1228,-1.8876716099181117,0.0,3.414548635482788,-1.610681414604187,-0.0,2.068507194519043,5.201590913325109,-0.0,0.2565865218639374,-0.9749825636493128,0.0,-0.06484127044677734,0.2971683144569397,0.0,-0.0043245586566627026,1.2100752592086792,0.0,0.04796966165304184
243.0,225.0,-0.2291,-5.7739,7.5858,-0.0347,0.0224,-0.1228,-1.8876315555968226,0.0,3.4325802326202393,-1.6107099056243896,-0.0,2.061474084854126,5.201598721533575,-0.0,0.25427430868148804,-0.9750030676471155,0.0,-0.06505095958709717,0.2971322536468506,0.0,0.0025339662097394466,1.2101272344589233,0.0,-0.007660886272788048
243.0,225.0,-0.2291,-5.7739,7.5858,-0.0347,0.0224,-0.1228,-1.8876153431334437,0.0,3.354602813720703,-1.6107181310653687,-0.0,2.0153346061706543,5.201611059695043,-0.0,0.2606480121612549,-0.9750149885760706,0.0,-0.07392635941505432,0.29714009165763855,0.0,-0.0006470111547969282,1.2100991010665894,0.0,0.043860405683517456
243.0,225.0,-0.2291,-5.7739,7.5858,-0.0347,0.0224,-0.1228,-1.8876315555968226,0.0,3.4337596893310547,-1.6106494665145874,-0.0,2.1043479442596436,5.20157082655982,-0.0,0.25671908259391785,-0.9750712553607386,0.0,-0.08508802205324173,0.297148734331131,0.0,-0.0030366431456059217,1.2101351022720337,0.0,0.013323928229510784
243.0,225.0,-0.2291,-5.7739,7.5858,-0.0347,0.0224,-0.1228,-1.8876315555968226,0.0,3.381864547729492,-1.6106936931610107,1.4433938133606716e-07,2.058600664138794,5.201603191881933,-0.0,0.2515939474105835,-0.975039307271139,0.0,-0.06174860894680023,0.2970958650112152,0.0,-0.0014572935178875923,1.2101112604141235,0.0,0.0068666874431073666
243.0,225.0,-0.2291,-5.7739,7.5858,-0.0347,0.0224,-0.1228,-1.8876515827574671,0.0,3.356936454772949,-1.6107176542282104,3.4856265009736154e-13,2.0947887897491455,5.201606976776876,-0.0,0.2603137493133545,-0.9750593344317835,0.0,-0.07422113418579102,0.29711219668388367,0.0,0.002536337124183774,1.2100790739059448,0.0,0.01888420060276985
243.0,225.0,-0.2291,-5.7739,7.5858,-0.0347,0.0224,-0.1228,-1.887655874291891,0.0,3.4501070976257324,-1.6107057332992554,8.417378022618304e-19,2.061230182647705,5.201611059695043,-0.0,0.2610653340816498,-0.9750192801104944,0.0,-0.07338105887174606,0.297180712223053,0.0,0.0017008220311254263,1.2101069688796997,0.0,-0.06284604966640472
243.0,225.0,-0.2291,-5.7739,7.5858,-0.0347,0.0224,-0.1228,-1.887639661828512,0.0,3.439267158508301,-1.6107057332992554,2.0326981263891474e-24,2.048696517944336,5.201591002732076,-0.0,0.24445337057113647,-0.9750073591815394,0.0,-0.07521703839302063,0.2971363365650177,0.0,0.013516221195459366,1.2100633382797241,0.0,-0.017727795988321304
243.0,225.0,-0.2291,-5.7739,7.5858,-0.0347,0.0224,-0.1228,-1.887643953362936,0.0,3.3737292289733887,-1.610705852508545,4.9087271112936966e-30,2.057042121887207,5.201602804451742,-0.0,0.2549712359905243,-0.9750474135028284,0.0,-0.060577258467674255,0.29708394408226013,0.0,0.0005322375800460577,1.2101231813430786,0.0,-0.008311750367283821
243.0,225.0,-0.2291,-5.7739,7.5858,-0.0347,0.0224,-0.1228,-1.8876716099181117,0.0,3.3911778926849365,-1.610705852508545,8.835535329688567e-34,2.057281970977783,5.201599138766088,-0.0,0.2601715922355652,-0.975051228200094,0.0,-0.06620937585830688,0.29718056321144104,0.0,0.006858640816062689,1.210151195526123,0.0,0.021227022632956505
243.0,225.0,-0.2291,-5.7739,7.5858,-0.0347,0.0224,-0.1228,-1.8876515827574671,0.0,3.412231683731079,-1.6107418537139893,2.1336772976149324e-39,2.0690908432006836,5.201595055847921,-0.0,0.26535627245903015,-0.9750435988055628,0.0,-0.057367436587810516,0.2971765697002411,0.0,-0.00930116605013609,1.2101231813430786,0.0,-0.012209728360176086
243.0,225.0,-0.2291,-5.7739,7.5858,-0.0347,0.0224,-0.1228,-1.8876315555968226,0.0,3.4484031200408936,-1.6106938123703003,5.605193857299268e-45,2.0367798805236816,5.201575028687277,-0.0,0.2610284388065338,-0.9750593344317835,0.0,-0.06184124946594238,0.2971162796020508,0.0,0.0006127055967226624,1.2100911140441895,0.0,0.004284227266907692
243.0,225.0,-0.2291,-5.7739,7.5858,-0.0347,0.0224,-0.1228,-1.8876592121519984,0.0,3.386962652206421,-1.6107258796691895,-0.0,2.0579452514648438,5.201619225531378,-0.0,0.261526882648468,-0.9750192801104944,0.0,-0.08678598701953888,0.2971245348453522,0.0,-0.012008622288703918,1.2101550102233887,0.0,0.05692291259765625
243.0,225.0,-0.2291,-5.7739,7.5858,-0.0347,0.0224,-0.1228,-1.8876272640623988,0.0,3.3614706993103027,-1.6107341051101685,-0.0,2.042301654815674,5.201619225531378,-0.0,0.25584927201271057,-0.9749992529498499,0.0,-0.06334304809570312,0.2971482574939728,0.0,0.001962952548637986,1.2101272344589233,0.0,0.052444346249103546
243.0,225.0,-0.2291,-5.7739,7.5858,-0.0347,0.0224,-0.1228,-1.8876515827574671,0.0,3.3306779861450195,-1.6107341051101685,-0.0,2.0487899780273438,5.201606946974554,-0.0,0.26161521673202515,-0.9749992529498499,0.0,-0.06844069063663483,0.2971523106098175,0.0,0.008598646149039268,1.2100989818572998,0.0,0.03151855990290642
241.0,232.0,-0.2171,-5.7709,7.5775,-0.0412,0.0224,-0.1199,-1.8876472912230433,0.0,3.3955130577087402,-1.61078679561615,-0.0,2.0330588817596436,5.201595055847921,-0.0,0.24080950021743774,-0.975011173878805,0.0,-0.07991601526737213,0.2971121370792389,0.0,0.00036994251422584057,1.2100553512573242,0.0,0.006423464044928551
241.0,232.0,-0.2171,-5.7709,7.5775,-0.0412,0.0224,-0.1199,-1.8876434765257777,0.0,3.357235908508301,-1.6107217073440552,-0.0,2.0529274940490723,5.201611059695043,-0.0,0.2617000341415405,-0.9750149885760706,0.0,-0.07372434437274933,0.29706355929374695,0.0,-0.0071303388103842735,1.2101070880889893,0.0,0.022617651149630547
241.0,232.0,-0.2171,-5.7709,7.5775,-0.0412,0.0224,-0.1199,-1.8876801929869593,0.0,3.4029219150543213,-1.6107258796691895,-0.0,2.029852867126465,5.201635080366888,-0.0,0.234619140625,-0.9749630133258265,0.0,-0.07530499249696732,0.2971285879611969,0.0,-0.010704948566854,1.2101272344589233,0.0,0.010991868562996387
241.0,232.0,-0.2171,-5.7709,7.5775,-0.0412,0.0224,-0.1199,-1.887667795220846,0.0,3.4075927734375,-1.6107299327850342,-0.0,2.054323196411133,5.201579052000799,-0.0,0.25174322724342346,-0.9750235716449183,0.0,-0.0630892664194107,0.2971404790878296,0.0,-0.001566990278661251,1.2101192474365234,0.0,-0.017922822386026382
241.0,232.0,-0.2171,-5.7709,7.5775,-0.0412,0.0224,-0.1199,-1.8876320324339808,0.0,3.372629165649414,-1.6107414960861206,-0.0,2.0717689990997314,5.201590972929754,-0.0,0.2591046392917633,-0.975039307271139,0.0,-0.07379214465618134,0.297140508890152,0.0,-0.004865886643528938,1.2100950479507446,0.0,0.007937181740999222
241.0,232.0,-0.2171,-5.7709,7.5775,-0.0412,0.0224,-0.1199,-1.8876515827574671,0.0,3.3886961936950684,-1.6107020378112793,-0.0,2.0512874126434326,5.201643872051992,-0.0,0.2574228048324585,-0.9749949614154261,0.0,-0.06532362848520279,0.2971203327178955,0.0,0.0033334018662571907,1.2100989818572998,0.0,-0.05638134479522705
241.0,232.0,-0.2171,-5.7709,7.5775,-0.0412,0.0224,-0.1199,-1.8876391849913539,0.0,3.383188009262085,-1.6107299327850342,-0.0,2.0552287101745605,5.201590972929754,-0.0,0.25506043434143066,-0.9750030676471155,0.0,-0.05877688527107239,0.29710400104522705,0.0,-0.0018240490462630987,1.2101471424102783,0.0,-0.001667693955823779
241.0,232.0,-0.2171,-5.7709,7.5775,-0.0412,0.0224,-0.1199,-1.887611528436178,0.0,3.4065158367156982,-1.6107418537139893,-0.0,2.066922187805176,5.201623308449545,-0.0,0.2521805167198181,-0.9750312010394495,0.0,-0.08450139313936234,0.29710400104522705,0.0,-0.006418171804398298,1.2100751399993896,0.0,-0.011717497371137142
241.0,232.0,-0.2171,-5.7709,7.5775,-0.0412,0.0224,-0.1199,-1.887667795220846,0.0,3.375737428665161,-1.6106938123703003,-0.0,2.113039970397949,5.201623308449545,-0.0,0.25561898946762085,-0.9750354925738733,0.0,-0.07092039287090302,0.29716426134109497,0.0,0.005753578618168831,1.2100871801376343,0.0,0.02817852795124054
241.0,232.0,-0.2171,-5.7709,7.5775,-0.0412,0.0224,-0.1199,-1.887684007684225,0.0,3.3963828086853027,-1.610705852508545,-0.0,2.0492756366729736,5.201623308449545,-0.0,0.24767449498176575,-0.9750030676471155,0.0,-0.061400361359119415,0.2971322536468506,0.0,0.01291811466217041,1.2101231813430786,0.0,-0.028595706447958946
241.0,232.0,-0.2171,-5.7709,7.5775,-0.0412,0.0224,-0.1199,-1.8876882992186488,0.0,3.371331214904785,-1.6106938123703003,-0.0,2.051140308380127,5.201562630921163,-0.0,0.2507811188697815,-0.9750192801104944,0.0,-0.0697205513715744,0.29714417457580566,0.0,-0.001122145913541317,1.2100950479507446,0.0,0.010350797325372696
241.0,232.0,-0.2171,-5.7709,7.5775,-0.0412,0.0224,-0.1199,-1.8877040348448695,0.0,3.4129724502563477,-1.6107181310653687,-0.0,2.060561180114746,5.20160277464942,-0.0,0.26213788986206055,-0.9750354925738733,0.0,-0.05421828478574753,0.2971683144569397,0.0,0.007117404602468014,1.2101030349731445,0.0,0.00785763282328844
241.0,232.0,-0.2171,-5.7709,7.5775,-0.0412,0.0224,-0.1199,-1.8876716099181117,0.0,3.4142255783081055,-1.6107299327850342,-0.0,2.064218521118164,5.201590972929754,-0.0,0.2508786916732788,-0.9750030676471155,0.0,-0.06394945830106735,0.2971363663673401,0.0,0.002011864446103573,1.2101151943206787,0.0,0.011835778132081032
241.0,232.0,-0.2171,-5.7709,7.5775,-0.0412,0.0224,-0.1199,-1.8876716099181117,0.0,3.431872606277466,-1.610778570175171,-0.0,2.1006503105163574,5.20164372304038,-0.0,0.26796847581863403,-0.9750316778766077,0.0,-0.06414403021335602,0.2971285581588745,0.0,0.012078040279448032,1.2101192474365234,0.0,-0.013001174665987492
241.0,232.0,-0.2171,-5.7709,7.5775,-0.0412,0.0224,-0.1199,-1.8876596889891566,0.0,3.426745891571045,-1.6106700897216797,-0.0,2.104344606399536,5.201623308449545,-0.0,0.25773313641548157,-0.9750354925738733,0.0,-0.06382046639919281,0.2971724569797516,0.0,-0.00744308577850461,1.2100672721862793,0.0,0.0019375153351575136
241.0,232.0,-0.2171,-5.7709,7.5775,-0.0412,0.0224,-0.1199,-1.887639661828512,0.0,3.3793418407440186,-1.6107099056243896,-0.0,2.0226428508758545,5.201619106322088,-0.0,0.24675270915031433,-0.9750154654132288,0.0,-0.07605716586112976,0.29714828729629517,0.0,-0.009073943831026554,1.2101272344589233,0.0,-0.022861558943986893
245.0,225.0,-0.2351,-5.7817,7.6487,-0.0322,0.0189,-0.1176,-1.8876759014525355,0.0,3.417351722717285,-1.6106412410736084,-0.0,2.049649715423584,5.201583194523611,-0.0,0.25001972913742065,-0.975039307271139,0.0,-0.0726110115647316,0.29716426134109497,0.0,-0.0013755976688116789,1.2100831270217896,0.0,-0.0053067817352712154
245.0,225.0,-0.2351,-5.7817,7.6487,-0.0322,0.0189,-0.1176,-1.8876353702940882,0.0,3.4071121215820312,-1.6107099056243896,-0.0,2.1046314239501953,5.201615023403921,-0.0,0.2536337375640869,-0.9750269095050257,0.0,-0.07275871932506561,0.2971362769603729,0.0,-0.001968180062249303,1.2101272344589233,0.0,0.02267468348145485
245.0,225.0,-0.2351,-5.7817,7.6487,-0.0322,0.0189,-0.1176,-1.887684007684225,0.0,3.3941988945007324,-1.6106897592544556,-0.0,2.068355083465576,5.201590972929754,-0.0,0.2555827498435974,-0.9750354925738733,0.0,-0.06104995682835579,0.2971203327178955,0.0,0.006391746923327446,1.2100553512573242,0.0,-0.0188264362514019
245.0,225.0,-0.2351,-5.7817,7.6487,-0.0322,0.0189,-0.1176,-1.8876801929869593,0.0,3.419466495513916,-1.6107221841812134,-0.0,2.0507802963256836,5.201598691731252,-0.0,0.26140284538269043,-0.9750354925738733,0.0,-0.0676833987236023,0.29711219668388367,0.0,-0.001330061350017786,1.2101351022720337,0.0,0.0034969113767147064
245.0,225.0,-0.2351,-5.7817,7.6487,-0.0322,0.0189,-0.1176,-1.8876716099181117,0.0,3.365546226501465,-1.610705852508545,-0.0,1.9932937622070312,5.20158680060462,-0.0,0.25866347551345825,-0.9750073591815394,0.0,-0.06835990399122238,0.29717257618904114,0.0,0.0003688647411763668,1.2101110219955444,0.0,-0.02184382826089859
245.0,225.0,-0.2351,-5.7817,7.6487,-0.0322,0.0189,-0.1176,-1.887655874291891,0.0,3.3592724800109863,-1.6106618642807007,-0.0,2.0420660972595215,5.201610970288076,-0.0,0.25927209854125977,-0.9750631491290491,0.0,-0.06518042087554932,0.29712408781051636,0.0,0.013998392969369888,1.2100950479507446,0.0,-0.002136348746716976
245.0,225.0,-0.2351,-5.7817,7.6487,-0.0322,0.0189,-0.1176,-1.8876153431334437,0.0,3.3982582092285156,-1.610745906829834,-0.0,2.0447568893432617,5.201563137560644,-0.0,0.26126015186309814,-0.9750030676471155,0.0,-0.07464419305324554,0.29714012145996094,0.0,0.00019206712022423744,1.2101192474365234,0.0,0.0036626881919801235
245.0,225.0,-0.2351,-5.7817,7.6487,-0.0322,0.0189,-0.1176,-1.8876153431334437,0.0,3.3654093742370605,-1.610705852508545,-0.0,2.035940170288086,5.201606976776876,-0.0,0.25150978565216064,-0.9750030676471155,0.0,-0.06011560931801796,0.29711994528770447,0.0,0.010466727428138256,1.2101149559020996,0.0,0.033057667315006256
245.0,225.0,-0.2351,-5.7817,7.6487,-0.0322,0.0189,-0.1176,-1.8876515827574671,0.0,3.3972268104553223,-1.6107745170593262,-0.0,2.0450522899627686,5.201623308449545,-0.0,0.25293654203414917,-0.9750354925738733,0.0,-0.08151958882808685,0.29716429114341736,0.0,-0.006737186573445797,1.2101112604141235,0.0,-0.045183174312114716
245.0,225.0,-0.2351,-5.7817,7.6487,-0.0322,0.0189,-0.1176,-1.8876515827574671,0.0,3.4321517944335938,-1.6107341051101685,-0.0,2.0130021572113037,5.201579052000799,-0.0,0.25506895780563354,-0.9750354925738733,0.0,-0.06749992072582245,0.29712408781051636,0.0,-0.0012536292197182775,1.2100712060928345,0.0,0.06401553750038147
245.0,225.0,-0.2351,-5.7817,7.6487,-0.0322,0.0189,-0.1176,-1.8876434765257777,0.0,3.3767151832580566,-1.6107579469680786,-0.0,2.0482304096221924,5.201586830406942,-0.0,0.2516157627105713,-0.9750149885760706,0.0,-0.07334046810865402,0.2971004247665405,0.0,0.0026627962943166494,1.2100871801376343,0.0,0.008117470890283585
245.0,225.0,-0.2351,-5.7817,7.6487,-0.0322,0.0189,-0.1176,-1.8876515827574671,0.0,3.3880362510681152,-1.6107176542282104,-0.0,2.064770221710205,5.20163511016921,-0.0,0.25854212045669556,-0.9749949614154261,0.0,-0.06417521834373474,0.297079861164093,0.0,0.002240394474938512,1.2100512981414795,0.0,0.046251606196165085
245.0,225.0,-0.2351,-5.7817,7.6487,-0.0322,0.0189,-0.1176,-1.8876391849913539,0.0,3.398235321044922,-1.610705852508545,-0.0,2.062453269958496,5.201598691731252,-0.0,0.2623834013938904,-0.9750030676471155,0.0,-0.06655088067054749,0.29709216952323914,0.0,-0.004480910021811724,1.2100752592086792,0.0,-0.039279043674468994
245.0,225.0,-0.2351,-5.7817,7.6487,-0.0322,0.0189,-0.1176,-1.8876234493651332,0.0,3.4216275215148926,-1.6107258796691895,-0.0,2.071495294570923,5.201558995037832,-0.0,0.26660147309303284,-0.9750073591815394,0.0,-0.07373304665088654,0.2971482574939728,0.0,0.006029078271239996,1.2100831270217896,0.0,-0.004844192415475845
245.0,225.0,-0.2351,-5.7817,7.6487,-0.0322,0.0189,-0.1176,-1.8876353702940882,0.0,3.4068610668182373,-1.6107099056243896,-0.0,2.0659074783325195,5.201627361565389,-0.0,0.24952754378318787,-0.9750474135028284,0.0,-0.07241234183311462,0.2971724271774292,0.0,-0.006284382194280624,1.2101231813430786,0.0,0.01452651061117649
245.0,225.0,-0.2351,-5.7817,7.6487,-0.0322,0.0189,-0.1176,-1.8876596889891566,0.0,3.3755319118499756,-1.6106691360473633,-0.0,2.048231363296509,5.201631474285879,-0.0,0.2599135637283325,-0.9750354925738733,0.0,-0.08651696145534515,0.297148734331131,0.0,0.007247363682836294,1.2100911140441895,0.0,-0.018588488921523094
235.0,235.0,-0.2195,-5.805,7.6337,-0.0304,0.0316,-0.1235,-1.887667795220846,0.0,3.419764995574951,-1.610705852508545,-0.0,2.0509281158447266,5.201590972929754,-0.0,0.25410714745521545,-0.9749992529498499,0.0,-0.08961619436740875,0.2971322536468506,0.0,-0.00013888953253626823,1.2100592851638794,0.0,0.016972674056887627
235.0,235.0,-0.2195,-5.805,7.6337,-0.0304,0.0316,-0.1235,-1.887639661828512,0.0,3.4051828384399414,-1.61078679561615,-0.0,2.0124495029449463,5.201563048153677,-0.0,0.2601596713066101,-0.9749792257892054,0.0,-0.08264875411987305,0.2971482574939728,0.0,0.010023855604231358,1.2100553512573242,0.0,-0.01591729372739792
235.0,235.0,-0.2195,-5.805,7.6337,-0.0304,0.0316,-0.1235,-1.8876801929869593,0.0,3.4344706535339355,-1.6106691360473633,-0.0,2.0346827507019043,5.201590972929754,-0.0,0.24966973066329956,-0.9749906698810022,0.0,-0.06276056170463562,0.2971245050430298,0.0,0.006616832222789526,1.2100712060928345,0.0,-0.016661763191223145
235.0,235.0,-0.2195,-5.805,7.6337,-0.0304,0.0316,-0.1235,-1.8876320324339808,0.0,3.3729639053344727,-1.6107258796691895,-0.0,2.0385618209838867,5.201623308449545,-0.0,0.24769988656044006,-0.9750354925738733,0.0,-0.06816854327917099,0.29714009165763855,0.0,-0.00033536460250616074,1.2100712060928345,0.0,-0.03625036031007767
235.0,235.0,-0.2195,-5.805,7.6337,-0.0304,0.0316,-0.1235,-1.887667795220846,0.0,3.3698348999023438,-1.6107579469680786,-0.0,2.056882381439209,5.201566684037008,-0.0,0.24165108799934387,-0.975039307271139,0.0,-0.06608857959508896,0.2971162497997284,0.0,0.009860938414931297,1.2101470232009888,0.0,0.0283270925283432
235.0,235.0,-0.2195,-5.805,7.6337,-0.0304,0.0316,-0.1235,-1.887627740899557,0.0,3.3775134086608887,-1.6107455492019653,-0.0,2.0160491466522217,5.201583134918966,-0.0,0.2649078965187073,-0.9750235716449183,0.0,-0.07633168250322342,0.2971765697002411,0.0,0.005722718313336372,1.2100831270217896,0.0,0.019159449264407158
235.0,235.0,-0.2195,-5.805,7.6337,-0.0304,0.0316,-0.1235,-1.8876353702940882,0.0,3.368971109390259,-1.6107341051101685,-0.0,2.006478786468506,5.201606946974554,-0.0,0.2510679364204407,-0.9750631491290491,0.0,-0.076054647564888,0.2970876395702362,0.0,0.008603730238974094,1.2101030349731445,0.0,-0.030666658654808998
235.0,235.0,-0.2195,-5.805,7.6337,-0.0304,0.0316,-0.1235,-1.8876515827574671,0.0,3.401082992553711,-1.6107378005981445,-0.0,2.0938730239868164,5.201643395214834,-0.0,0.2581973671913147,-0.9750593344317835,0.0,-0.0763058066368103,0.29715612530708313,0.0,-0.01070330012589693,1.2100712060928345,0.0,0.039134811609983444
235.0,235.0,-0.2195,-5.805,7.6337,-0.0304,0.0316,-0.1235,-1.8876515827574671,0.0,3.383347988128662,-1.6107099056243896,-0.0,2.042630195617676,5.201606976776876,-0.0,0.25604137778282166,-0.9749868551837366,0.0,-0.0742083340883255,0.29716426134109497,0.0,0.004632608965039253,1.2101352214813232,0.0,-0.018833497539162636
235.0,235.0,-0.2195,-5.805,7.6337,-0.0304,0.0316,-0.1235,-1.887643953362936,0.0,3.359280586242676,-1.6107460260391235,-0.0,2.052781581878662,5.201587247639456,-0.0,0.24882492423057556,-0.9750312010394495,0.0,-0.06340118497610092,0.29715701937675476,0.0,0.0031906631775200367,1.2101110219955444,0.0,-0.024304773658514023
235.0,235.0,-0.2195,-5.805,7.6337,-0.0304,0.0316,-0.1235,-1.8876353702940882,0.0,3.391308546066284,-1.6107016801834106,-0.0,2.016021251678467,5.201595055847921,-0.0,0.2632116675376892,-0.9750631491290491,0.0,-0.06502942740917206,0.2971765398979187,0.0,0.0014649260556325316,1.2100911140441895,0.0,-0.014743643812835217
235.0,235.0,-0.2195,-5.805,7.6337,-0.0304,0.0316,-0.1235,-1.8876759014525355,0.0,3.414882183074951,-1.6107704639434814,-0.0,2.03336763381958,5.201550680189886,-0.0,0.2428690493106842,-0.9750073591815394,0.0,-0.06924429535865784,0.29707983136177063,0.0,0.006499319337308407,1.2101192474365234,0.0,0.022856658324599266
235.0,235.0,-0.2195,-5.805,7.6337,-0.0304,0.0316,-0.1235,-1.8877002201476039,0.0,3.367882251739502,-1.610745906829834,-0.0,2.0445849895477295,5.20161913612441,-0.0,0.261298805475235,-0.9750149885760706,0.0,-0.07971043139696121,0.2971523106098175,0.0,0.010166516527533531,1.2100950479507446,0.0,0.02992573194205761
235.0,235.0,-0.2195,-5.805,7.6337,-0.0304,0.0316,-0.1235,-1.8876034222044886,0.0,3.4093966484069824,-1.6107299327850342,-0.0,2.0878303050994873,5.201582747488775,-0.0,0.2629442811012268,-0.975067440663473,0.0,-0.06816595047712326,0.29712411761283875,0.0,0.003277439624071121,1.2101030349731445,0.0,-0.010218541137874126
235.0,235.0,-0.2195,-5.805,7.6337,-0.0304,0.0316,-0.1235,-1.8876596889891566,0.0,3.383429765701294,-1.6107869148254395,-0.0,2.066890001296997,5.201627361565389,-0.0,0.2518792748451233,-0.9750030676471155,0.0,-0.07491608709096909,0.29710808396339417,0.0,-0.0073990970849990845,1.2100950479507446,0.0,-0.05443287640810013
235.0,235.0,-0.2195,-5.805,7.6337,-0.0304,0.0316,-0.1235,-1.8876110515990199,0.0,3.3644566535949707,-1.6107418537139893,-0.0,2.031428813934326,5.201570796757498,-0.0,0.26107722520828247,-0.9750073591815394,0.0,-0.07192486524581909,0.29713231325149536,0.0,-0.0034698331728577614,1.210071325302124,0.0,0.002813858212903142
244.0,231.0,-0.2273,-5.805,7.541,-0.0307,0.0278,-0.1191,-1.8876801929869593,0.0,3.393538475036621,-1.610705852508545,-0.0,1.9964637756347656,5.201558935433187,-0.0,0.25444772839546204,-0.9749992529498499,0.0,-0.07067018002271652,0.29715195298194885,0.0,-0.014787208288908005,1.2100553512573242,0.0,-0.004596381448209286
244.0,231.0,-0.2273,-5.805,7.541,-0.0307,0.0278,-0.1191,-1.8876882992186488,0.0,3.343954563140869,-1.6106897592544556,-0.0,2.0353970527648926,5.201610970288076,-0.0,0.25677070021629333,-0.9749992529498499,0.0,-0.06978343427181244,0.2971121668815613,0.0,-0.003916093613952398,1.2100471258163452,0.0,0.003906691446900368
244.0,231.0,-0.2273,-5.805,7.541,-0.0307,0.0278,-0.1191,-1.8876759014525355,0.0,3.3747243881225586,-1.6107258796691895,-0.0,2.0559165477752686,5.201570737152853,-0.0,0.24650564789772034,-0.975011173878805,0.0,-0.05939222127199173,0.2970876395702362,0.0,-0.0038564945571124554,1.2100871801376343,0.0,0.014415635727345943
244.0,231.0,-0.2273,-5.805,7.541,-0.0307,0.0278,-0.1191,-1.8876801929869593,0.0,3.39561128616333,-1.610742211341858,-0.0,2.050153970718384,5.201587217837133,-0.0,0.25370341539382935,-0.9750312010394495,0.0,-0.06877286732196808,0.2971647083759308,0.0,0.0031060699839144945,1.2101069688796997,0.0,-0.05019999295473099
244.0,231.0,-0.2273,-5.805,7.541,-0.0307,0.0278,-0.1191,-1.8876472912230433,0.0,3.4143447875976562,-1.6107745170593262,-0.0,2.046215057373047,5.201590972929754,-0.0,0.24949362874031067,-0.9749630133258265,0.0,-0.07130582630634308,0.2970999479293823,0.0,0.013402899727225304,1.2101272344589233,0.0,-0.010277368128299713
244.0,231.0,-0.2273,-5.805,7.541,-0.0307,0.0278,-0.1191,-1.8876234493651332,0.0,3.4338278770446777,-1.6107336282730103,-0.0,2.0731618404388428,5.201590972929754,-0.0,0.2573692798614502,-0.9749868551837366,0.0,-0.061606042087078094,0.2971322536468506,0.0,0.005426228977739811,1.2101109027862549,0.0,-0.025907736271619797
244.0,231.0,-0.2273,-5.805,7.541,-0.0307,0.0278,-0.1191,-1.887655874291891,0.0,3.380013942718506,-1.6107139587402344,-0.0,2.043776512145996,5.2015548823173425,-0.0,0.2530636191368103,-0.9749868551837366,0.0,-0.0723499208688736,0.29716426134109497,0.0,-0.005030562169849873,1.2100672721862793,0.0,-0.009456672705709934
244.0,231.0,-0.2273,-5.805,7.541,-0.0307,0.0278,-0.1191,-1.8876801929869593,0.0,3.373368740081787,-1.6107016801834106,-0.0,2.0859405994415283,5.201599168568411,-0.0,0.2415759265422821,-0.9750435988055628,0.0,-0.07911244034767151,0.29714009165763855,0.0,0.0023257252760231495,1.2100791931152344,0.0,0.001550465589389205
244.0,231.0,-0.2273,-5.805,7.541,-0.0307,0.0278,-0.1191,-1.887655874291891,0.0,3.372060775756836,-1.6107501983642578,-0.0,2.0285723209381104,5.201602804451742,-0.0,0.2507510781288147,-0.975039307271139,0.0,-0.06953354924917221,0.2971363365650177,0.0,0.008733327500522137,1.2101192474365234,0.0,0.017214180901646614
244.0,231.0,-0.2273,-5.805,7.541,-0.0307,0.0278,-0.1191,-1.887655874291891,0.0,3.3908424377441406,-1.6107258796691895,-0.0,2.0772573947906494,5.201574969082632,-0.0,0.2598809003829956,-0.975039307271139,0.0,-0.06718665361404419,0.2971363365650177,0.0,0.004886525683104992,1.2101151943206787,0.0,0.003572328481823206
244.0,231.0,-0.2273,-5.805,7.541,-0.0307,0.0278,-0.1191,-1.887639661828512,0.0,3.382228136062622,-1.6107418537139893,-0.0,2.007528305053711,5.201606976776876,-0.0,0.25590234994888306,-0.9750269095050257,0.0,-0.06890425086021423,0.2970958650112152,0.0,0.00931062176823616,1.2101069688796997,0.0,0.026543209329247475
244.0,231.0,-0.2273,-5.805,7.541,-0.0307,0.0278,-0.1191,-1.8876515827574671,0.0,3.3818039894104004,-1.6107827425003052,-0.0,2.099915027618408,5.201595055847921,-0.0,0.26744288206100464,-0.975039307271139,0.0,-0.07599376887083054,0.29715609550476074,0.0,-0.011383659206330776,1.2101271152496338,0.0,-0.004123402293771505
244.0,231.0,-0.2273,-5.805,7.541,-0.0307,0.0278,-0.1191,-1.8876234493651332,0.0,3.3999805450439453,-1.6107099056243896,-0.0,2.0529236793518066,5.201615172415533,-0.0,0.2391393929719925,-0.9750192801104944,0.0,-0.06815826147794724,0.29708394408226013,0.0,0.01100531592965126,1.2101030349731445,0.0,0.036560676991939545
244.0,231.0,-0.2273,-5.805,7.541,-0.0307,0.0278,-0.1191,-1.8876472912230433,0.0,3.39973783493042,-1.610697865486145,-0.0,2.066868782043457,5.2016392824943445,-0.0,0.2534157633781433,-0.9750312010394495,0.0,-0.07147253304719925,0.2971363365650177,0.0,-0.00020494195632636547,1.2100831270217896,0.0,0.018091272562742233
244.0,231.0,-0.2273,-5.805,7.541,-0.0307,0.0278,-0.1191,-1.8876801929869593,0.0,3.420807123184204,-1.6107299327850342,-0.0,2.027111530303955,5.201627391367712,-0.0,0.25753194093704224,-0.9750192801104944,0.0,-0.07218583673238754,0.2971363663673401,0.0,0.0018800979014486074,1.210071325302124,0.0,0.010997293516993523
244.0,231.0,-0.2273,-5.805,7.541,-0.0307,0.0278,-0.1191,-1.8876759014525355,0.0,3.42366886138916,-1.610762119293213,-0.0,2.040170192718506,5.201598721533575,-0.0,0.23990049958229065,-0.975039307271139,0.0,-0.06872856616973877,0.2971683144569397,0.0,-0.006604006513953209,1.2101069688796997,0.0,0.034268248826265335
242.0,232.0,-0.0915,-6.0042,7.5248,-0.0406,0.0154,-0.1162,-1.8876716099181117,0.0,3.3913955688476562,-1.6106773614883423,-0.0,2.021597146987915,5.2016314444835565,-0.0,0.2635238468647003,-0.975039307271139,0.0,-0.06691382825374603,0.2971764802932739,0.0,-0.0038701083976775408,1.2101149559020996,0.0,-0.01844635233283043
242.0,232.0,-0.0915,-6.0042,7.5248,-0.0406,0.0154,-0.1162,-1.8876882992186488,0.0,3.4088902473449707,-1.6106897592544556,-0.0,2.047452688217163,5.201530802040853,-0.0,0.24862641096115112,-0.9750316778766077,0.0,-0.08058211952447891,0.29711219668388367,0.0,0.008348400704562664,1.2101231813430786,0.0,0.009808860719203949
242.0,232.0,-0.0915,-6.0042,7.5248,-0.0406,0.0154,-0.1162,-1.8876434765257777,0.0,3.3713536262512207,-1.6107336282730103,-0.0,2.090752124786377,5.201606976776876,-0.0,0.25209471583366394,-0.9750030676471155,0.0,-0.07557561248540878,0.2971363365650177,0.0,-0.00025503174401819706,1.2100911140441895,0.0,0.044127143919467926
242.0,232.0,-0.0915,-6.0042,7.5248,-0.0406,0.0154,-0.1162,-1.8876434765257777,0.0,3.3908751010894775,-1.610745906829834,-0.0,2.065873146057129,5.20160277464942,-0.0,0.26186883449554443,-0.9750712553607386,0.0,-0.06638307124376297,0.29716435074806213,0.0,-0.0037016787100583315,1.2101231813430786,0.0,0.048924654722213745
242.0,232.0,-0.0915,-6.0042,7.5248,-0.0406,0.0154,-0.1162,-1.8876801929869593,0.0,3.367818832397461,-1.6107704639434814,-0.0,2.072557210922241,5.2015786347682855,-0.0,0.24176573753356934,-0.9750555197345179,0.0,-0.07744567096233368,0.2971805930137634,0.0,0.00613609841093421,1.2100831270217896,0.0,-0.016975238919258118
242.0,232.0,-0.0915,-6.0042,7.5248,-0.0406,0.0154,-0.1162,-1.8876716099181117,0.0,3.351165771484375,-1.6107538938522339,-0.0,1.992204189300537,5.201558995037832,-0.0,0.2542977035045624,-0.975039307271139,0.0,-0.07468884438276291,0.29710811376571655,0.0,-0.0023808192927390337,1.2100989818572998,0.0,0.04960555583238602
242.0,232.0,-0.0915,-6.0042,7.5248,-0.0406,0.0154,-0.1162,-1.8876272640623988,0.0,3.360719680786133,-1.6107181310653687,-0.0,2.0392770767211914,5.201558995037832,-0.0,0.2552526891231537,-0.9750073591815394,0.0,-0.07235642522573471,0.2971683442592621,0.0,-0.0032143606804311275,1.2101069688796997,0.0,0.022176871076226234
242.0,232.0,-0.0915,-6.0042,7.5248,-0.0406,0.0154,-0.1162,-1.8876759014525355,0.0,3.401920795440674,-1.6107745170593262,-0.0,2.0751638412475586,5.201590972929754,-0.0,0.24651026725769043,-0.9750149885760706,0.0,-0.07498086988925934,0.29712820053100586,0.0,-0.005963428877294064,1.2100831270217896,0.0,-0.017479388043284416
242.0,232.0,-0.0915,-6.0042,7.5248,-0.0406,0.0154,-0.1162,-1.8876635036864222,0.0,3.4072470664978027,-1.6107057332992554,-0.0,2.067326307296753,5.20158680060462,-0.0,0.2500622272491455,-0.9750030676471155,0.0,-0.07283298671245575,0.29712820053100586,0.0,0.005914323963224888,1.2101109027862549,0.0,-0.04762643203139305
242.0,232.0,-0.0915,-6.0042,7.5248,-0.0406,0.0154,-0.1162,-1.8876596889891566,0.0,3.384042739868164,-1.6107337474822998,-0.0,2.0396106243133545,5.201607006579199,-0.0,0.2601846754550934,-0.9749711195575159,0.0,-0.07406453788280487,0.29714053869247437,0.0,0.0071329474449157715,1.210051417350769,0.0,-0.02506844885647297
242.0,232.0,-0.0915,-6.0042,7.5248,-0.0406,0.0154,-0.1162,-1.8876515827574671,0.0,3.381587266921997,-1.610697865486145,-0.0,2.0499110221862793,5.201615053206243,-0.0,0.25735747814178467,-0.975051228200094,0.0,-0.09315822273492813,0.2971203327178955,0.0,0.006159953307360411,1.2100553512573242,0.0,-0.06079200655221939
242.0,232.0,-0.0915,-6.0042,7.5248,-0.0406,0.0154,-0.1162,-1.8876759014525355,0.0,3.388767719268799,-1.6106773614883423,4.86778390040854e-07,2.003483295440674,5.2016111491020105,1.6580862620685366e-06,0.2608676850795746,-0.9750235716449183,0.0,-0.08064546436071396,0.29710400104522705,0.0,-0.008572079241275787,1.2101112604141235,0.0,-0.0616595596075058
242.0,232.0,-0.0915,-6.0042,7.5248,-0.0406,0.0154,-0.1162,-1.887639661828512,0.0,3.432807445526123,-1.6106414794921875,0.004483711440116167,2.0773963928222656,5.201598721533575,4.6153436628060263e-10,0.24534322321414948,-0.975051228200094,0.0,-0.07205290347337723,0.2971363365650177,0.0,0.0021871360950171947,1.2101112604141235,0.0,-0.02180015668272972
242.0,232.0,-0.0915,-6.0042,7.5248,-0.0406,0.0154,-0.1162,-1.8876759014525355,0.0,3.3725666999816895,-1.610697865486145,0.003993982449173927,2.0480995178222656,5.201611059695043,1.2846978526565717e-13,0.2529192566871643,-0.9750192801104944,0.0,-0.06291445344686508,0.2971482574939728,0.0,-0.01684238575398922,1.2101192474365234,0.0,0.007862984202802181
242.0,232.0,-0.0915,-6.0042,7.5248,-0.0406,0.0154,-0.1162,-1.8876921139159144,0.0,3.342719554901123,-1.6106864213943481,0.0026946556754410267,2.0550832748413086,5.201595055847921,3.576003696718205e-17,0.2496432662010193,-0.9750631491290491,0.0,-0.06176796928048134,0.29718056321144104,0.0,0.00727249588817358,1.2101472616195679,5.388073532230919e-06,-0.0005566151812672615
244.0,235.0,-0.652,-6.813,7.7372,-0.0322,0.08,-0.0521,-1.8876759014525355,0.0,3.397047519683838,-1.6106222867965698,0.002326348563656211,2.0623512268066406,5.20161913612441,9.953939293467946e-21,0.26194462180137634,-0.9749868551837366,0.0,-0.07606611400842667,0.297172486782074,0.0,-0.006829269230365753,1.2100993394851685,0.0004804322379641235,-0.0006170840933918953
244.0,235.0,-0.652,-6.813,7.7372,-0.0322,0.08,-0.0521,-1.8876315555968226,0.0,3.3767638206481934,-1.6105942726135254,0.0026108387392014265,2.03057861328125,5.201631474285879,2.7707151713316282e-24,0.27049142122268677,-0.9750435988055628,0.0,-0.07485973834991455,0.29710400104522705,0.0,-0.008112626150250435,1.210202932357788,0.0004424953949637711,0.01971454918384552
244.0,235.0,-0.652,-6.813,7.7372,-0.0322,0.08,-0.0521,-1.8876515827574671,0.0,3.390566825866699,-1.6105983257293701,0.0021923803724348545,2.052034616470337,5.20161913612441,7.712387425263658e-28,0.25969040393829346,-0.9750030676471155,0.0,-0.07701168209314346,0.29712817072868347,0.0,0.006902975030243397,1.2101151943206787,0.00036547231138683856,0.011936241760849953
244.0,235.0,-0.652,-6.813,7.7372,-0.0322,0.08,-0.0521,-1.8876272640623988,0.0,3.3417768478393555,-1.610561728477478,0.0013892654096707702,2.052650213241577,5.201583134918966,3.287912242187816e-30,0.24392563104629517,-0.9750192801104944,0.0,-0.06245676800608635,0.2971482574939728,0.0,0.0019147417042404413,1.210159182548523,0.0003274736809544265,-0.002551504410803318
244.0,235.0,-0.652,-6.813,7.7372,-0.0322,0.08,-0.0521,-1.8876515827574671,0.0,3.3632924556732178,-1.6105860471725464,0.0007177652441896498,2.044135093688965,5.201590972929754,9.152025245032968e-34,0.24904704093933105,-0.9749868551837366,0.0,-0.07254773378372192,0.2971523404121399,0.0,0.0037650344893336296,1.210131049156189,0.00013530306750908494,0.026446329429745674
244.0,235.0,-0.652,-6.813,7.7372,-0.0322,0.08,-0.0521,-1.887667795220846,0.0,3.3967323303222656,-1.6106024980545044,0.0005823764367960393,2.0317513942718506,5.201635139971533,2.5474993994255957e-37,0.25757068395614624,-0.9750030676471155,0.0,-0.06694881618022919,0.29713594913482666,0.0,-0.010925756767392159,1.2101469039916992,0.00010625224967952818,-0.012650709599256516
244.0,235.0,-0.652,-6.813,7.7372,-0.0322,0.08,-0.0521,-1.8876234493651332,0.0,3.3989717960357666,-1.6105983257293701,0.00043996903696097434,2.07948899269104,5.201570796757498,7.090990619022872e-41,0.2636559307575226,-0.9749992529498499,0.0,-0.07133077085018158,0.29716017842292786,0.0,0.0034054326824843884,1.2100950479507446,6.068743459763937e-05,-0.011413668282330036
244.0,235.0,-0.652,-6.813,7.7372,-0.0322,0.08,-0.0521,-1.887611528436178,0.0,3.389657974243164,-1.6105902194976807,0.00035353339626453817,2.1002848148345947,5.20158280709342,1.961817850054744e-44,0.25115376710891724,-0.9750312010394495,0.0,-0.0863693356513977,0.29710817337036133,0.0,0.004853835329413414,1.2101112604141235,4.645286480808863e-06,0.0061824023723602295
244.0,235.0,-0.652,-6.813,7.7372,-0.0322,0.08,-0.0521,-1.887639661828512,0.0,3.402724266052246,-1.6105695962905884,0.0002954888332169503,2.0611422061920166,5.201627391367712,0.0,0.25182902812957764,-0.9749825636493128,0.0,-0.07102156430482864,0.2971482574939728,0.0,0.011830728501081467,1.2100989818572998,1.1217818340902852e-11,0.03770533949136734
244.0,235.0,-0.652,-6.813,7.7372,-0.0322,0.08,-0.0521,-1.8876472912230433,0.0,3.438319683074951,-1.6106263399124146,0.00025381764862686396,2.060802459716797,5.2016151426132105,0.0,0.2569168508052826,-0.9750030676471155,0.0,-0.0709870457649231,0.29709985852241516,0.0,0.0050508249551057816,1.2100911140441895,2.7089711766135977e-17,0.03976767882704735
244.0,235.0,-0.652,-6.813,7.7372,-0.0322,0.08,-0.0521,-1.8876716099181117,0.0,3.401937961578369,-1.610569953918457,0.0001853760186349973,2.0353291034698486,5.2016314444835565,0.0,0.25675851106643677,-0.975011173878805,0.0,-0.07052260637283325,0.29716426134109497,0.0,-0.0007628879975527525,1.2100950479507446,6.541846782155081e-23,0.04943899065256119
244.0,235.0,-0.652,-6.813,7.7372,-0.0322,0.08,-0.0521,-1.8876315555968226,0.0,3.350170135498047,-1.6105576753616333,0.000164983473950997,2.041905641555786,5.201602804451742,0.0,0.24688735604286194,-0.9749906698810022,0.0,-0.07985900342464447,0.29711222648620605,0.0,0.0035332865081727505,1.2100554704666138,1.5797790647344938e-28,0.007124212104827166
244.0,235.0,-0.652,-6.813,7.7372,-0.0322,0.08,-0.0521,-1.8875953159727992,0.0,3.425342321395874,-1.6106138229370117,0.00014863481919746846,2.084857225418091,5.201590972929754,0.0,0.258177250623703,-0.9749992529498499,0.0,-0.06899476051330566,0.29712408781051636,0.0,-0.008328556083142757,1.2100989818572998,3.814980819816086e-34,-0.020993279293179512
244.0,235.0,-0.652,-6.813,7.7372,-0.0322,0.08,-0.0521,-1.8876401386656703,0.0,3.384099006652832,-1.6105860471725464,0.00015774468192830682,2.0530052185058594,5.201606976776876,0.0,0.2586366534233093,-0.975011173878805,0.0,-0.07540872693061829,0.2970799207687378,0.0,-0.010412236675620079,1.2100989818572998,6.866829387839917e-38,-0.028249591588974
244.0,235.0,-0.652,-6.813,7.7372,-0.0322,0.08,-0.0521,-1.8876596889891566,0.0,3.3853330612182617,-1.6106057167053223,0.0001530801528133452,2.0811870098114014,5.201582717686453,0.0,0.24538670480251312,-0.975039307271139,0.0,-0.06763686239719391,0.297116219997406,0.0,-0.001914788386784494,1.2101069688796997,1.6535321879032841e-43,-0.04747343435883522
244.0,235.0,-0.652,-6.813,7.7372,-0.0322,0.08,-0.0521,-1.887643953362936,0.0,3.3880136013031006,-1.6105737686157227,0.00014108196774031967,2.0657434463500977,5.201615023403921,0.0,0.26297152042388916,-0.9749825636493128,0.0,-0.07061580568552017,0.29712411761283875,0.0,-0.0030421572737395763,1.2100791931152344,0.0,0.012750163674354553
242.0,228.0,-0.0096,-5.4078,7.5535,-0.0287,-0.0111,-0.1388,-1.8875915012755335,0.0,3.4242866039276123,-1.6105974912643433,0.00013082790246699005,1.9957765340805054,5.201610970288076,0.0,0.2591519057750702,-0.9749744574176233,0.0,-0.07203057408332825,0.29711616039276123,0.0,-0.0061524356715381145,1.2100672721862793,0.0,-0.013972437009215355
242.0,228.0,-0.0096,-5.4078,7.5535,-0.0287,-0.0111,-0.1388,-1.8876320324339808,0.0,3.405066967010498,-1.6105983257293701,0.00012196329043945298,2.0580663681030273,5.201615172415533,0.0,0.2589748799800873,-0.9750149885760706,0.0,-0.07678443193435669,0.29711219668388367,0.0,0.008054171688854694,1.2101030349731445,0.0,-0.04277656599879265
242.0,228.0,-0.0096,-5.4078,7.5535,-0.0287,-0.0111,-0.1388,-1.887627740899557,0.0,3.3324637413024902,-1.610602617263794,0.00011422383977333084,2.0816121101379395,5.201639312296667,0.0,0.2572690546512604,-0.9750149885760706,0.0,-0.060026708990335464,0.2970879375934601,0.0,0.004086792469024658,1.2100592851638794,0.0,0.00012135377619415522
242.0,228.0,-0.0096,-5.4078,7.5535,-0.0287,-0.0111,-0.1388,-1.887667795220846,0.0,3.424340009689331,-1.6105657815933228,0.00010740805737441406,2.1017701625823975,5.2015950856502435,0.0,0.24821823835372925,-0.9749949614154261,0.0,-0.06415103375911713,0.2971121668815613,0.0,0.005133099853992462,1.210131049156189,0.0,-0.012828147038817406
242.0,228.0,-0.0096,-5.4078,7.5535,-0.0287,-0.0111,-0.1388,-1.8876234493651332,0.0,3.4053120613098145,-1.6105901002883911,0.00010135979391634464,2.046046495437622,5.201578664570608,0.0,0.2584538161754608,-0.9750631491290491,0.0,-0.06595701724290848,0.2971401512622833,0.0,-0.006101812236011028,1.2101231813430786,0.0,-0.006845367141067982
242.0,228.0,-0.0096,-5.4078,7.5535,-0.0287,-0.0111,-0.1388,-1.887639661828512,0.0,3.3827621936798096,-1.610581874847412,9.595653682481498e-05,2.0479202270507812,5.201659339457311,0.0,0.25233423709869385,-0.9749992529498499,0.0,-0.06205328553915024,0.2971039414405823,0.0,0.0011925838189199567,1.2100871801376343,0.0,-0.007984398864209652
242.0,228.0,-0.0096,-5.4078,7.5535,-0.0287,-0.0111,-0.1388,-1.887615819970602,0.0,3.388296604156494,-1.6106220483779907,9.266331471735612e-05,2.017101764678955,5.201574998884954,0.0,0.25626248121261597,-0.9750431219684046,0.0,-0.05348454415798187,0.29710403084754944,0.0,0.002318719634786248,1.2101109027862549,0.0,0.03476538509130478
242.0,228.0,-0.0096,-5.4078,7.5535,-0.0287,-0.0111,-0.1388,-1.8876596889891566,0.0,3.3791706562042236,-1.6105974912643433,8.812677697278559e-05,2.076840877532959,5.201606976776876,0.0,0.255546510219574,-0.9750273863421839,0.0,-0.07101351767778397,0.29708757996559143,0.0,0.0008843074319884181,1.2100911140441895,0.0,-0.05327587574720383
242.0,228.0,-0.0096,-5.4078,7.5535,-0.0287,-0.0111,-0.1388,-1.8876639805235804,0.0,3.362826347351074,-1.6106057167053223,7.001135963946581e-05,2.0285654067993164,5.201599138766088,0.0,0.25204265117645264,-0.975039307271139,0.0,-0.07325678318738937,0.29712408781051636,0.0,0.005178765393793583,1.2101151943206787,0.0,0.01309173833578825
242.0,228.0,-0.0096,-5.4078,7.5535,-0.0287,-0.0111,-0.1388,-1.8876272640623988,0.0,3.386380672454834,-1.610634684562683,6.68894499540329e-05,2.0458171367645264,5.2016151426132105,0.0,0.2654154598712921,-0.9750188032733362,0.0,-0.08102904260158539,0.2971040606498718,0.0,0.0004831352853216231,1.2101112604141235,0.0,-0.015763211995363235
242.0,228.0,-0.0096,-5.4078,7.5535,-0.0287,-0.0111,-0.1388,-1.887627740899557,0.0,3.4216971397399902,-1.6106066703796387,6.403395673260093e-05,2.0853095054626465,5.201607006579199,0.0,0.2517053484916687,-0.9750073591815394,0.0,-0.07956451922655106,0.29716017842292786,0.0,0.000855746679008007,1.2101112604141235,0.0,-0.015133881941437721
242.0,228.0,-0.0096,-5.4078,7.5535,-0.0287,-0.0111,-0.1388,-1.8876759014525355,0.0,3.356757640838623,-1.610626220703125,6.141233461676165e-05,2.0381481647491455,5.201602834254064,0.0,0.24905243515968323,-0.975011173878805,0.0,-0.07787816971540451,0.29713594913482666,0.0,0.007512170355767012,1.2100911140441895,0.0,0.004738098010420799
242.0,228.0,-0.0096,-5.4078,7.5535,-0.0287,-0.0111,-0.1388,-1.8876034222044886,0.0,3.382547378540039,-1.6105983257293701,5.899697862332687e-05,2.0334982872009277,5.201602804451742,0.0,0.25695425271987915,-0.9749787489520472,0.0,-0.06274905800819397,0.2970999479293823,0.0,-0.009092802181839943,1.2101109027862549,0.0,0.022375039756298065
242.0,228.0,-0.0096,-5.4078,7.5535,-0.0287,-0.0111,-0.1388,-1.8876921139159144,0.0,3.3781254291534424,-1.6106340885162354,5.676442742696963e-05,2.005051374435425,5.2015950856502435,0.0,0.24673794209957123,-0.9749668280230921,0.0,-0.0724748894572258,0.29712817072868347,0.0,-0.0013993007596582174,1.2100712060928345,0.0,0.02042197808623314
242.0,228.0,-0.0096,-5.4078,7.5535,-0.0287,-0.0111,-0.1388,-1.887684007684225,0.0,3.3690829277038574,-1.6105457544326782,5.4694610298611224e-05,2.0670714378356934,5.201602834254064,0.0,0.24924832582473755,-0.9749992529498499,0.0,-0.0613861158490181,0.2971162497997284,0.0,0.003312951186671853,1.2100871801376343,0.0,-0.014805322512984276
242.0,228.0,-0.0096,-5.4078,7.5535,-0.0287,-0.0111,-0.1388,-1.8876315555968226,0.0,3.3825159072875977,-1.6106024980545044,5.277053060126491e-05,2.0463056564331055,5.201623308449545,0.0,0.2577681541442871,-0.975039307271139,0.0,-0.06823023408651352,0.2971564829349518,0.0,0.0002098663244396448,1.2100989818572998,0.0,0.02624453604221344
239.0,224.0,-0.5013,-6.6066,7.3932,-0.0809,0.0334,-0.1034,-1.887639661828512,0.0,3.432952404022217,-1.6106222867965698,5.156124461791478e-05,2.0155365467071533,5.201643335610189,0.0,0.2686057984828949,-0.9750030676471155,0.0,-0.08074575662612915,0.29713594913482666,0.0,0.004420156590640545,1.2100989818572998,0.0,-0.007937371730804443
239.0,224.0,-0.5013,-6.6066,7.3932,-0.0809,0.0334,-0.1034,-1.8876272640623988,0.0,3.3630447387695312,-1.6105983257293701,4.984783299732953e-05,2.0360732078552246,5.201635527401724,0.0,0.2470969557762146,-0.9750273863421839,0.0,-0.07436196506023407,0.29710400104522705,0.0,-0.0012593730352818966,1.2100989818572998,0.0,0.020299479365348816
239.0,224.0,-0.5013,-6.6066,7.3932,-0.0809,0.0334,-0.1034,-1.8876234493651332,0.0,3.3736636638641357,-1.6105456352233887,3.5271113807411325e-10,2.0541205406188965,5.201627391367712,0.0,0.2577962875366211,-0.9750474135028284,0.0,-0.06648167967796326,0.29715612530708313,0.0,0.002836701227352023,1.2101192474365234,-2.492907333362382e-05,-0.031062910333275795
239.0,224.0,-0.5013,-6.6066,7.3932,-0.0809,0.0334,-0.1034,-1.8876596889891566,0.0,3.3537635803222656,-1.6105575561523438,8.517558441495127e-16,2.0112366676330566,5.201602715044775,0.0,0.2505190670490265,-0.9750230948077601,0.0,-0.07682357728481293,0.29711589217185974,0.0,-0.010557238012552261,1.2101271152496338,-1.2113470802432857e-05,0.020408978685736656
239.0,224.0,-0.5013,-6.6066,7.3932,-0.0809,0.0334,-0.1034,-1.8876201115050257,0.0,3.42444109916687,-1.6105576753616333,2.0568904140703733e-21,2.04499888420105,5.201650726586141,3.4792497771718445e-09,0.25554805994033813,-0.9749949614154261,0.0,-0.07595796138048172,0.29712408781051636,0.0,-0.011513672769069672,1.2101030349731445,-1.1493136298668105e-05,-0.01743236742913723
239.0,224.0,-0.5013,-6.6066,7.3932,-0.0809,0.0334,-0.1034,-1.887611528436178,8.155504474416375e-05,3.3550806045532227,-1.610601544380188,4.9671482010136316e-27,2.0588974952697754,5.201651114016332,9.684620726896354e-13,0.2656983435153961,-0.9750469366656702,0.0,-0.06099173054099083,0.29711219668388367,0.0,-0.0053071207366883755,1.2101112604141235,-2.7754566006565895e-11,-0.027257336303591728
239.0,224.0,-0.5013,-6.6066,7.3932,-0.0809,0.0334,-0.1034,-1.887587686578268,0.00010427373490529135,3.396747350692749,-1.610521912574768,6.104989438426855e-07,2.0309810638427734,5.201635139971533,2.695749852574795e-16,0.25780242681503296,-0.9751036802874964,0.0,-0.06354901194572449,0.29716020822525024,0.0,-0.006122546270489693,1.210131049156189,-6.702400981544848e-17,-0.021082734689116478
239.0,224.0,-0.5013,-6.6066,7.3932,-0.0809,0.0334,-0.1034,-1.8875795803465785,9.993863932322711e-05,3.4334182739257812,-1.6105011701583862,1.4742831521558086e-12,2.0889711380004883,5.201643395214834,7.503719166691067e-20,0.2491738200187683,-0.9750230948077601,0.0,-0.07256302237510681,0.29714828729629517,0.0,0.01240602508187294,1.2101030349731445,-1.6185507265413665e-22,-0.0007563196122646332
239.0,224.0,-0.5013,-6.6066,7.3932,-0.0809,0.0334,-0.1034,-1.8876077137389125,9.594347648089752e-05,3.3882856369018555,-1.6106139421463013,0.0005765858804807067,2.03383731842041,5.201647060900488,2.0886876869093897e-23,0.25058335065841675,-0.975067440663473,0.0,-0.07512686401605606,0.2971479296684265,0.0,-0.0070018526166677475,1.210159182548523,-3.908609340515786e-28,0.036340560764074326
239.0,224.0,-0.5013,-6.6066,7.3932,-0.0809,0.0334,-0.1034,-1.887599607507223,9.225549001712352e-05,3.4248476028442383,-1.6105704307556152,0.0006354459328576922,2.039210319519043,5.201598751335897,5.813938382659889e-27,0.2462531328201294,-0.9750350157367151,0.0,-0.0765666589140892,0.297071635723114,0.0,-0.005836923606693745,1.2101631164550781,-9.438833009664144e-34,0.022508585825562477
239.0,224.0,-0.5013,-6.6066,7.3932,-0.0809,0.0334,-0.1034,-1.8876320324339808,7.915401511127129e-05,3.377750873565674,-1.610566258430481,0.00107313203625381,2.0901148319244385,5.201578604965963,2.4785732849799996e-29,0.2580113410949707,-0.9750869909869593,0.0,-0.05876731872558594,0.29717257618904114,0.0,-0.001799450721591711,1.2101631164550781,-1.6989565668189603e-37,0.013339162804186344
239.0,224.0,-0.5013,-6.6066,7.3932,-0.0809,0.0334,-0.1034,-1.887655874291891,7.586335414089262e-05,3.3891005516052246,-1.6104737520217896,0.005520827602595091,2.076078176498413,5.201639312296667,6.899199688902662e-33,0.26115334033966064,-0.9750588575946253,0.0,-0.0733046606183052,0.2971847355365753,0.0,-0.00952341128140688,1.210151195526123,0.0004337821446824819,-0.047606460750103
239.0,224.0,-0.5013,-6.6066,7.3932,-0.0809,0.0334,-0.1034,-1.887599607507223,8.282552880700678e-05,3.419306516647339,-1.6104140281677246,0.012940946966409683,2.0347495079040527,5.20161913612441,1.9204177985416298e-36,0.2527241110801697,-0.9750717321978968,0.0,-0.0665072649717331,0.2971321940422058,0.0,0.005251607857644558,1.2101832628250122,0.0014741361374035478,-0.009282592684030533
239.0,224.0,-0.5013,-6.6066,7.3932,-0.0809,0.0334,-0.1034,-1.887655874291891,3.647646735771559e-05,3.3883659839630127,-1.6103341579437256,0.018860232084989548,2.0798237323760986,5.201602804451742,5.345547264844523e-40,0.25752314925193787,-0.975067440663473,0.0,-0.0740431621670723,0.29710865020751953,0.0,0.00618177093565464,1.2102071046829224,0.0019790316000580788,-0.011338010430335999
239.0,224.0,-0.5013,-6.6066,7.3932,-0.0809,0.0334,-0.1034,-1.8877164326109828,8.808637846913214e-11,3.403207302093506,-1.6101901531219482,0.024113958701491356,2.094123363494873,5.201598721533575,1.485376372184306e-43,0.2665189206600189,-0.9750469366656702,0.0,-0.06701580435037613,0.2971523404121399,0.0,-0.009095673449337482,1.2102428674697876,0.002591887954622507,0.007624798454344273
239.0,224.0,-0.5013,-6.6066,7.3932,-0.0809,0.0334,-0.1034,-1.8876997433104457,-0.0016032009152695537,3.3740720748901367,-1.6099698543548584,0.027431435883045197,2.09509539604187,5.201626974135198,0.0,0.25101858377456665,-0.9750826994525355,0.0,-0.0601612851023674,0.2971038818359375,0.0,-0.00030989793594926596,1.2102627754211426,0.003994683735072613,0.022851785644888878
248.0,231.0,-0.344,-6.6556,7.1809,-0.0713,0.0276,-0.1549,-1.8877278767027796,-0.0014030089369043708,3.3662314414978027,-1.6098133325576782,0.03036215901374817,2.0959506034851074,5.201643395214834,0.0,0.24441179633140564,-0.9750993887530726,0.0,-0.08024503290653229,0.2971162497997284,0.0,-0.0017189704813063145,1.2102587223052979,0.005200021434575319,-0.015464755706489086
248.0,231.0,-0.344,-6.6556,7.1809,-0.0713,0.0276,-0.1549,-1.8876916370787562,-0.0010091860312968493,3.374785900115967,-1.6097224950790405,0.02825811505317688,2.1039421558380127,5.201647448330679,-4.4474621972767636e-05,0.25412002205848694,-0.9750474135028284,0.0,-0.06801241636276245,0.29715192317962646,0.0,0.009536963887512684,1.2102468013763428,0.003398106200620532,-0.015769556164741516
248.0,231.0,-0.344,-6.6556,7.1809,-0.0713,0.0276,-0.1549,-1.887764116326803,-0.0005678489105775952,3.3999710083007812,-1.6095695495605469,0.02309439517557621,2.0421230792999268,5.201603221684255,-4.1812418203335255e-05,0.25726693868637085,-0.9750550428973597,0.0,-0.06732500344514847,0.2971682846546173,0.0,0.0031655076891183853,1.210250973701477,0.0014358189655467868,0.031870804727077484
248.0,231.0,-0.344,-6.6556,7.1809,-0.0713,0.0276,-0.1549,-1.8877555332579554,-0.0004118442302569747,3.423675537109375,-1.6094380617141724,0.018552711233496666,2.0763025283813477,5.201598721533575,-3.908849976141937e-05,0.24725422263145447,-0.9751117865191858,0.0,-0.06610158085823059,0.2971724271774292,0.0,0.002946854569017887,1.2102627754211426,8.527475756636704e-07,0.04866071790456772
248.0,231.0,-0.344,-6.6556,7.1809,-0.0713,0.0276,-0.1549,-1.8877397976317347,-0.0003481038729660213,3.411470413208008,-1.6093624830245972,0.015284042805433273,2.1159088611602783,5.201574969082632,-1.889464692794718e-05,0.2564033567905426,-0.9750149885760706,0.0,-0.07211430370807648,0.2971765100955963,0.0,-0.006649914663285017,1.2102547883987427,1.534915528011993e-10,-0.0049651795998215675
248.0,231.0,-0.344,-6.6556,7.1809,-0.0713,0.0276,-0.1549,-1.8877722225584925,-0.0002825242409016937,3.393941879272461,-1.6092621088027954,0.00991198793053627,2.056002140045166,5.201590525894918,-1.762999818311073e-05,0.250270277261734,-0.9750631491290491,0.0,-0.06399275362491608,0.2971445322036743,0.0,0.0006757939700037241,1.210174798965454,-0.002975994488224387,-0.032757289707660675
248.0,231.0,-0.344,-6.6556,7.1809,-0.0713,0.0276,-0.1549,-1.887719293633932,-0.0002688894746825099,3.4124951362609863,-1.6092339754104614,0.0032839584164321423,2.047403335571289,5.201566684037008,-1.665139279793948e-05,0.24576032161712646,-0.9750350157367151,0.0,-0.07126950472593307,0.2971482574939728,0.0,-4.279124550521374e-05,1.210187315940857,-0.003339214250445366,-0.017230361700057983
248.0,231.0,-0.344,-6.6556,7.1809,-0.0713,0.0276,-0.1549,-1.887747427026266,-0.00028671990730799735,3.407433032989502,-1.6093344688415527,-0.003444771282374859,2.0390257835388184,5.2016151426132105,-1.5775751307955943e-05,0.2459796667098999,-0.9750230948077601,0.0,-0.07505394518375397,0.2971805930137634,0.0,-0.0005248017841950059,1.2101188898086548,-0.0041840351186692715,-0.0131152318790555
248.0,231.0,-0.344,-6.6556,7.1809,-0.0713,0.0276,-0.1549,-1.887764116326803,-0.0016828863881528378,3.4644815921783447,-1.6093785762786865,-0.005476899445056915,2.033200740814209,5.201606976776876,-4.092628660146147e-05,0.25715070962905884,-0.975039307271139,0.0,-0.06061778590083122,0.297071635723114,0.0,0.005985911935567856,1.2100948095321655,-0.00759308785200119,-0.019205350428819656
248.0,231.0,-0.344,-6.6556,7.1809,-0.0713,0.0276,-0.1549,-1.887787481347555,-0.004378385841846466,3.354457378387451,-1.6093419790267944,-0.00452254805713892,2.0230913162231445,5.201627391367712,-3.675471089081839e-05,0.25308847427368164,-0.9750354925738733,0.0,-0.06798900663852692,0.29710817337036133,0.0,-0.004411712288856506,1.2100709676742554,-0.007535809185355902,-0.009641798213124275
248.0,231.0,-0.344,-6.6556,7.1809,-0.0713,0.0276,-0.1549,-1.887859960595602,-0.006588194519281387,3.3776450157165527,-1.6094266176223755,-0.003503479529172182,2.037989854812622,5.201595055847921,-3.2742736948421225e-05,0.2523863911628723,-0.9750030676471155,0.0,-0.061359383165836334,0.29718464612960815,0.0,0.0007786053465679288,1.2100152969360352,-0.00599730433896184,0.0270261000841856
248.0,231.0,-0.344,-6.6556,7.1809,-0.0713,0.0276,-0.1549,-1.8879076443114222,-0.008377926424145699,3.412034749984741,-1.6094627380371094,-0.0019638712983578444,2.0453832149505615,5.201643395214834,-2.9520424504880793e-05,0.25192517042160034,-0.9750316778766077,0.0,-0.06650844216346741,0.29713594913482666,0.0,-0.008070475421845913,1.21000337600708,-0.005519539583474398,0.019956311210989952
248.0,231.0,-0.344,-6.6556,7.1809,-0.0713,0.0276,-0.1549,-1.8879033527769984,-0.008535511791706085,3.3688905239105225,-1.6093981266021729,-0.0005587450577877462,2.1318764686584473,5.201566684037008,-2.6875582989305258e-05,0.25568270683288574,-0.9750273863421839,0.0,-0.07261502742767334,0.2971482276916504,0.0,-0.009827918373048306,1.209915041923523,-0.005311660934239626,0.024546019732952118
248.0,231.0,-0.344,-6.6556,7.1809,-0.0713,0.0276,-0.1549,-1.887923379937643,-0.006356317084282637,3.3657469749450684,-1.6094059944152832,-4.668756901082816e-06,2.0457262992858887,5.20158680060462,-2.4665710952831432e-05,0.256906658411026,-0.9750316778766077,0.0,-0.05541708320379257,0.29712405800819397,0.0,-0.00023791752755641937,1.2098630666732788,-0.005367530509829521,-0.06092086806893349
248.0,231.0,-0.344,-6.6556,7.1809,-0.0713,0.0276,-0.1549,-1.8880039654173792,-0.0048835305497050285,3.3987350463867188,-1.6093538999557495,-8.40359726250739e-10,2.044454574584961,5.201595055847921,-2.338389094802551e-05,0.25001806020736694,-0.9749992529498499,0.0,-0.058693960309028625,0.2971158027648926,0.0,-0.010939007624983788,1.2098711729049683,-0.004751425702124834,-0.02422339655458927
248.0,231.0,-0.344,-6.6556,7.1809,-0.0713,0.0276,-0.1549,-1.8879920444884242,-0.0032995312940329313,3.4197890758514404,-1.6094348430633545,-2.029370027668083e-15,2.059762954711914,5.201574969082632,-2.169292747566942e-05,0.24838289618492126,-0.9749506155597132,0.0,-0.05905528366565704,0.2971564829349518,0.0,0.008672468364238739,1.2098753452301025,-0.003752677934244275,-0.018840473145246506
240.0,233.0,-0.4834,-5.4903,7.8413,-0.0124,0.0072,-0.1471,-1.887975355187887,-0.0026548337191343307,3.394993782043457,-1.60935378074646,-4.900689296310449e-21,2.0519638061523438,5.201611059695043,-2.0230014342814684e-05,0.25344958901405334,-0.9750073591815394,0.0,-0.055081047117710114,0.29714006185531616,0.0,-0.0004551976453512907,1.2098795175552368,-0.0024564331397414207,0.007496675476431847
240.0,233.0,-0.4834,-5.4903,7.8413,-0.0124,0.0072,-0.1471,-1.8880797825255335,-0.003207886591553688,3.370495557785034,-1.609433889389038,-1.1834589137366794e-26,2.0314950942993164,5.201599138766088,-1.8951976016978733e-05,0.26884984970092773,-0.9750235716449183,0.0,-0.07166831940412521,0.29708755016326904,0.0,0.011939478106796741,1.2098634243011475,-0.0014423442771658301,0.02394179254770279
240.0,233.0,-0.4834,-5.4903,7.8413,-0.0124,0.0072,-0.1471,-1.8880797825255335,-0.00525403069332242,3.3964529037475586,-1.609418272972107,-2.8579138813441693e-32,2.0117154121398926,5.201675432711401,-1.7825856048148125e-05,0.25001755356788635,-0.9749906698810022,0.0,-0.06925873458385468,0.2971724569797516,0.0,-0.0032409541308879852,1.2098432779312134,-0.0009447004413232207,0.0001900731585919857
240.0,233.0,-0.4834,-5.4903,7.8413,-0.0124,0.0072,-0.1471,-1.8880874119200648,-0.0069272480905056,3.357358694076538,-1.6094143390655518,-6.901525537816599e-38,2.065640687942505,5.201595055847921,-1.6826013961690478e-05,0.24342229962348938,-0.9749906698810022,0.0,-0.06589329242706299,0.297116219997406,0.0,0.0024895998649299145,1.2098515033721924,-0.000711995642632246,0.05166194587945938
240.0,233.0,-0.4834,-5.4903,7.8413,-0.0124,0.0072,-0.1471,-1.888151308099264,-0.008258339948952198,3.393672466278076,-1.6094021797180176,-1.6675451725465323e-43,2.0676910877227783,5.201602804451742,-1.5932433598209172e-05,0.24513131380081177,-0.9749949614154261,0.0,-0.06734556704759598,0.29711222648620605,0.0,-0.01921580359339714,1.2098753452301025,-0.0005681845359504223,0.016739213839173317
240.0,233.0,-0.4834,-5.4903,7.8413,-0.0124,0.0072,-0.1471,-1.888191362420553,-0.009226184338331223,3.337820053100586,-1.6093858480453491,-0.0,2.0637645721435547,5.201623308449545,-1.5128952327359002e-05,0.256168395280838,-0.9750073591815394,0.0,-0.06511325389146805,0.2971363365650177,0.0,0.011001485399901867,1.209871530532837,-0.0004593983758240938,-0.026008984073996544
240.0,233.0,-0.4834,-5.4903,7.8413,-0.0124,0.0072,-0.1471,-1.8882795772948207,-0.011912114918231964,3.3624155521392822,-1.6093899011611938,-0.0,2.068791389465332,5.201562601118841,-1.4402619854081422e-05,0.24649986624717712,-0.9749868551837366,0.0,-0.056838974356651306,0.2971322536468506,0.0,0.0042502060532569885,1.2098753452301025,-0.00033741185325197875,-0.0152202770113945
240.0,233.0,-0.4834,-5.4903,7.8413,-0.0124,0.0072,-0.1471,-1.8883716068663539,-0.012932061217725277,3.3415982723236084,-1.6093899011611938,-0.0,2.0187439918518066,5.201655286341467,-1.3955956092104316e-05,0.2558571398258209,-0.9750712553607386,0.0,-0.05317135900259018,0.29714781045913696,0.0,0.007678644731640816,1.2098671197891235,-0.00012286931450944394,-0.03224705904722214
240.0,233.0,-0.4834,-5.4903,7.8413,-0.0124,0.0072,-0.1471,-1.8884388409056605,-0.016959112137556076,3.379366636276245,-1.6094142198562622,-0.0,2.0748651027679443,5.201534825354376,-1.3335586118046194e-05,0.25302109122276306,-0.9750073591815394,0.0,-0.051912881433963776,0.29712817072868347,0.0,-0.0019480582559481263,1.2098548412322998,-2.0783672027846478e-07,-0.028590111061930656
240.0,233.0,-0.4834,-5.4903,7.8413,-0.0124,0.0072,-0.1471,-1.8885389767088832,-0.02128034457564354,3.3912367820739746,-1.6094101667404175,-0.0,2.0507893562316895,5.201579052000799,-1.2768031410814729e-05,0.2533559799194336,-0.9749949614154261,0.0,-0.06256253272294998,0.29710397124290466,0.0,0.005875741597265005,1.2098793983459473,-5.019012549317692e-13,-0.022281918674707413
240.0,233.0,-0.4834,-5.4903,7.8413,-0.0124,0.0072,-0.1471,-1.8886949024596156,-0.024449942633509636,3.3420727252960205,-1.6094266176223755,-0.0,2.0382180213928223,5.201619076519766,-1.2246804544702172e-05,0.25419867038726807,-0.9750269095050257,0.0,-0.05215604603290558,0.29708394408226013,0.0,0.010888111777603626,1.2099313735961914,0.000959778786636889,-0.06903178244829178
240.0,233.0,-0.4834,-5.4903,7.8413,-0.0124,0.0072,-0.1471,-1.888890882531637,-0.0271504707634449,3.290367364883423,-1.6094142198562622,-0.0,1.9814480543136597,5.201606946974554,-1.1766462193918414e-05,0.25398027896881104,-0.9750149885760706,0.0,-0.055944427847862244,0.2970840036869049,0.0,0.003880483331158757,1.209915041923523,0.0006261573289521039,-0.018493294715881348
240.0,233.0,-0.4834,-5.4903,7.8413,-0.0124,0.0072,-0.1471,-1.8890229664244593,-0.027802366763353348,3.3232898712158203,-1.609433889389038,-0.0,2.073254108428955,5.201590972929754,-1.1322388672851957e-05,0.2475174367427826,-0.9750073591815394,0.0,-0.04492305964231491,0.2971322536468506,0.0,-0.0037087032105773687,1.2099109888076782,0.0004644898581318557,-0.005156821105629206
240.0,233.0,-0.4834,-5.4903,7.8413,-0.0124,0.0072,-0.1471,-1.889186521569723,-0.027064470574259758,3.31514573097229,-1.6093981266021729,-0.0,2.04848313331604,5.2016314444835565,-1.0910608580161352e-05,0.2586580514907837,-0.9750149885760706,0.0,-0.0584554448723793,0.2971482574939728,0.0,0.00689024617895484,1.2099109888076782,0.00043072126572951674,0.020493410527706146
240.0,233.0,-0.4834,-5.4903,7.8413,-0.0124,0.0072,-0.1471,-1.8893305263915003,-0.024594290181994438,3.3321950435638428,-1.6093337535858154,-0.0,1.9909608364105225,5.201615172415533,-1.0527730410103686e-05,0.24969099462032318,-0.9750116507159632,0.0,-0.06684353202581406,0.2971765100955963,0.0,-0.0014140286948531866,1.2098833322525024,0.0003574059228412807,0.06851206719875336
240.0,233.0,-0.4834,-5.4903,7.8413,-0.0124,0.0072,-0.1471,-1.8895188770689906,-0.022813843563199043,3.319377899169922,-1.609373927116394,-0.0,2.0406620502471924,5.201671200781622,-1.0170820132771041e-05,0.24934107065200806,-0.9750116507159632,0.0,-0.06381168961524963,0.2971682846546173,0.0,0.0009333065245300531,1.2099395990371704,0.0003054195549339056,0.030960233882069588
247.0,223.0,0.0598,-5.8355,7.3872,-0.0302,0.0006,-0.1356,-1.889662881890768,-0.022201716899871826,3.3483328819274902,-1.6093937158584595,-0.0,2.0205767154693604,5.201611059695043,-6.494046260741015e-07,0.2547679841518402,-0.9750273863421839,0.0,-0.07145988196134567,0.29716065526008606,0.0,-0.0006632330478169024,1.209931492805481,0.00026663742028176785,0.003598117735236883
247.0,223.0,0.0598,-5.8355,7.3872,-0.0302,0.0006,-0.1356,-1.8897386989989222,-0.02162076160311699,3.3558926582336426,-1.6093978881835938,-0.0,2.0155606269836426,5.201570796757498,-2.7685143066946694e-09,0.26521599292755127,-0.9750474135028284,0.0,-0.07114269584417343,0.2971683740615845,0.0,0.0006317042279988527,1.209875226020813,0.00024582742480561137,0.004885908216238022
247.0,223.0,0.0598,-5.8355,7.3872,-0.0302,0.0006,-0.1356,-1.8898507557311,-0.02040121890604496,3.367710590362549,-1.6094019412994385,-0.0,2.072445869445801,5.201558995037832,-7.706260759729466e-13,0.26287293434143066,-0.9750030676471155,0.0,-0.06405257433652878,0.29710811376571655,0.0,-0.0011425084667280316,1.209895372390747,0.0002200653252657503,0.014422363601624966
247.0,223.0,0.0598,-5.8355,7.3872,-0.0302,0.0006,-0.1356,-1.8899623356261195,-0.020084060728549957,3.3108224868774414,-1.6094142198562622,-0.0,1.981378197669983,5.201611089497366,-2.1450663373428867e-16,0.25367820262908936,-0.9749754110919397,0.0,-0.06830617785453796,0.29710811376571655,0.0,0.009035233408212662,1.2099273204803467,0.0001991907338378951,0.013824590481817722
247.0,223.0,0.0598,-5.8355,7.3872,-0.0302,0.0006,-0.1356,-1.89003386119985,-0.019681287929415703,3.390921115875244,-1.6093502044677734,-0.0,2.0726256370544434,5.201611059695043,-5.970870773569051e-20,0.25498729944229126,-0.9750192801104944,0.0,-0.07877671718597412,0.2971482574939728,0.0,-0.0030687390826642513,1.2099395990371704,0.00018193373398389667,-0.05147827789187431
247.0,223.0,0.0598,-5.8355,7.3872,-0.0302,0.0006,-0.1356,-1.8902226887144984,-0.017998024821281433,3.3892695903778076,-1.6094257831573486,-0.0,2.070291042327881,5.201651054411688,-1.6620138069754233e-23,0.2484990358352661,-0.9750154654132288,0.0,-0.06505294144153595,0.29716429114341736,0.0,-0.009118381887674332,1.2099072933197021,5.2416457037907094e-05,0.022383365780115128
247.0,223.0,0.0598,-5.8355,7.3872,-0.0302,0.0006,-0.1356,-1.8902703724303187,-0.01653011329472065,3.3964977264404297,-1.609442114830017,-0.0,2.037713050842285,5.201590972929754,-4.626277860156535e-27,0.2432282567024231,-0.9750073591815394,0.0,-0.059813253581523895,0.2971601188182831,0.0,-0.002758944407105446,1.2099113464355469,4.819874811801128e-05,0.04410729929804802
247.0,223.0,0.0598,-5.8355,7.3872,-0.0302,0.0006,-0.1356,-1.8903662166991175,-0.015668826177716255,3.341573476791382,-1.609434723854065,-0.0,2.011463165283203,5.201647388726034,-1.2877414600263752e-30,0.25421077013015747,-0.975039307271139,0.0,-0.07179147750139236,0.29712817072868347,0.0,-0.01049596443772316,1.2099031209945679,2.2343412638292648e-05,-0.013467018492519855
247.0,223.0,0.0598,-5.8355,7.3872,-0.0302,0.0006,-0.1356,-1.8904501400389613,-0.016754761338233948,3.3533477783203125,-1.6093899011611938,-0.0,2.03469181060791,5.201627361565389,-3.584476020346932e-34,0.2593383193016052,-0.975039307271139,0.0,-0.06921525299549103,0.29709988832473755,0.0,0.0015100438613444567,1.2098912000656128,2.0763432985404506e-05,0.006100662052631378
247.0,223.0,0.0598,-5.8355,7.3872,-0.0302,0.0006,-0.1356,-1.8905703030028285,-0.018078744411468506,3.3391470909118652,-1.6093538999557495,-0.0,2.02390718460083,5.201606976776876,-9.977519720491705e-38,0.2519398331642151,-0.975039307271139,0.0,-0.07296545803546906,0.2971523702144623,0.0,0.0031164539977908134,1.209923267364502,1.9419408999965526e-05,0.008157746866345406
247.0,223.0,0.0598,-5.8355,7.3872,-0.0302,0.0006,-0.1356,-1.8907185993590296,-0.019195327535271645,3.3321471214294434,-1.6094101667404175,-0.0,2.0714809894561768,5.201647388726034,-2.777233426445355e-41,0.25764966011047363,-0.9750154654132288,0.0,-0.0628494992852211,0.29712817072868347,0.0,0.0066309282556176186,1.2099153995513916,1.8238797565572895e-05,-0.06222038343548775
247.0,223.0,0.0598,-5.8355,7.3872,-0.0302,0.0006,-0.1356,-1.8907338581480921,-0.020045481622219086,3.380432605743408,-1.6093981266021729,-0.0,2.073173761367798,5.201627391367712,-1.1770907100328463e-43,0.25226494669914246,-0.975011173878805,0.0,-0.0734245777130127,0.2971363365650177,0.0,0.013522913679480553,1.2098870277404785,1.75283603311982e-05,0.01180940680205822
247.0,223.0,0.0598,-5.8355,7.3872,-0.0302,0.0006,-0.1356,-1.8908945522704066,-0.020293939858675003,3.320859909057617,-1.6094224452972412,-0.0,2.093414068222046,5.201570796757498,-0.0,0.2527128756046295,-0.9750235716449183,0.0,-0.06633409112691879,0.29715192317962646,0.0,-0.009554153308272362,1.2099153995513916,1.6560754374950193e-05,-0.006086765322834253
247.0,223.0,0.0598,-5.8355,7.3872,-0.0302,0.0006,-0.1356,-1.8910180530943812,-0.020723553374409676,3.369070053100586,-1.6094224452972412,-0.0,2.044705867767334,5.201591002732076,-0.0,0.26845410466194153,-0.9750154654132288,0.0,-0.06694832444190979,0.29712817072868347,0.0,0.002676576841622591,1.2099113464355469,1.000679650253744e-09,0.02450113743543625
247.0,223.0,0.0598,-5.8355,7.3872,-0.0302,0.0006,-0.1356,-1.8911382160582484,-0.020630396902561188,3.399318218231201,-1.6094183921813965,-0.0,2.0224459171295166,5.2016392824943445,-0.0,0.25372982025146484,-0.9749911467181605,0.0,-0.0647008940577507,0.29722079634666443,0.0,-0.005791630130261183,1.2099034786224365,2.416523376869606e-15,-0.036617178469896317
247.0,223.0,0.0598,-5.8355,7.3872,-0.0302,0.0006,-0.1356,-1.891249795953268,-0.020427163690328598,3.3998546600341797,-1.6093538999557495,-0.0,2.023833990097046,5.2016712603862665,-0.0,0.25066035985946655,-0.9749868551837366,0.0,-0.06883563101291656,0.2971401512622833,0.0,0.0025018597953021526,1.2098671197891235,5.8356194732745285e-21,0.01203964278101921
255.0,215.0,-0.1328,-5.6417,7.6654,-0.0212,0.0154,-0.1312,-1.8913537464537562,-0.02140757441520691,3.3459715843200684,-1.6093981266021729,-0.0,2.076842784881592,5.201639252692022,-0.0,0.25716695189476013,-0.9750154654132288,0.0,-0.07263419032096863,0.29713594913482666,0.0,0.004821510054171085,1.2098231315612793,1.4092334470384596e-26,-0.009692307561635971
255.0,215.0,-0.1328,-5.6417,7.6654,-0.0212,0.0154,-0.1312,-1.8914653263487757,-0.020684247836470604,3.290424346923828,-1.6093863248825073,-0.0,2.024075984954834,5.201654898911276,-0.0,0.24552297592163086,-0.9749906698810022,0.0,-0.0640452653169632,0.29712817072868347,0.0,-0.00012111238902434707,1.2098551988601685,3.4031328466369135e-32,-0.02810487151145935
255.0,215.0,-0.1328,-5.6417,7.6654,-0.0212,0.0154,-0.1312,-1.8915649853148402,-0.02006109245121479,3.3584747314453125,-1.6094019412994385,-0.0,2.0277884006500244,5.201607006579199,-0.0,0.25299715995788574,-0.9750192801104944,0.0,-0.07219170778989792,0.2971441149711609,0.0,0.0015202576760202646,1.2099194526672363,8.218165956717697e-38,-0.054461363703012466
255.0,215.0,-0.1328,-5.6417,7.6654,-0.0212,0.0154,-0.1312,-1.891705175439352,-0.019116828218102455,3.359074592590332,-1.609382152557373,-0.0,2.0582590103149414,5.201675283699789,-0.0,0.26151734590530396,-0.9750030676471155,0.0,-0.07057870179414749,0.29708802700042725,0.0,0.0002787922276183963,1.2098875045776367,1.9898438193412402e-43,0.047317489981651306
255.0,215.0,-0.1328,-5.6417,7.6654,-0.0212,0.0154,-0.1312,-1.8918172321715296,-0.019527217373251915,3.3864011764526367,-1.6093461513519287,-0.0,1.9939417839050293,5.201647031098165,-0.0,0.2571316361427307,-0.9750354925738733,0.0,-0.05864100158214569,0.2971363365650177,0.0,-0.003942527808248997,1.2099195718765259,0.0,-0.01973944902420044
255.0,215.0,-0.1328,-5.6417,7.6654,-0.0212,0.0154,-0.1312,-1.8919173679747523,-0.018562618643045425,3.423201084136963,-1.6093456745147705,-0.0,2.047402858734131,5.20165895202712,-0.0,0.2615118622779846,-0.9750235716449183,0.0,-0.07105071097612381,0.29708394408226013,0.0,-0.0015348265878856182,1.2099113464355469,0.0,0.0470123365521431
255.0,215.0,-0.1328,-5.6417,7.6654,-0.0212,0.0154,-0.1312,-1.8920337162413539,-0.017797015607357025,3.4031546115875244,-1.6093780994415283,-0.0,2.0485146045684814,5.2015946982200525,-0.0,0.25537022948265076,-0.9750116507159632,0.0,-0.06476312130689621,0.2971445918083191,0.0,0.0029462028760463,1.2099113464355469,0.0,0.019893839955329895
255.0,215.0,-0.1328,-5.6417,7.6654,-0.0212,0.0154,-0.1312,-1.892137189904684,-0.01766587793827057,3.3718738555908203,-1.6094021797180176,-0.0,2.020493268966675,5.201675283699789,-0.0,0.24773630499839783,-0.9750149885760706,0.0,-0.08206445723772049,0.297087699174881,0.0,-0.008967645466327667,1.2099190950393677,0.0,-0.012761280871927738
255.0,215.0,-0.1328,-5.6417,7.6654,-0.0212,0.0154,-0.1312,-1.8922373257079066,-0.017599448561668396,3.395625591278076,-1.6094224452972412,-0.0,2.0858192443847656,5.201647031098165,-0.0,0.2574585974216461,-0.9749992529498499,0.0,-0.06796641647815704,0.29718494415283203,0.0,-1.4982884749770164e-05,1.2099113464355469,0.0,0.009577210992574692
255.0,215.0,-0.1328,-5.6417,7.6654,-0.0212,0.0154,-0.1312,-1.8923489056029261,-0.01799420267343521,3.3296496868133545,-1.6093254089355469,-0.0,2.0783305168151855,5.201690929919042,-0.0,0.2601207196712494,-0.9749825636493128,0.0,-0.07200779020786285,0.29716426134109497,0.0,0.00019953848095610738,1.2099236249923706,0.0,0.02547255903482437
255.0,215.0,-0.1328,-5.6417,7.6654,-0.0212,0.0154,-0.1312,-1.8924204311766566,-0.017615938559174538,3.388184070587158,-1.6094142198562622,-0.0,2.064652919769287,5.201690929919042,-0.0,0.2568572759628296,-0.9750669638263147,0.0,-0.07084965705871582,0.29715612530708313,0.0,0.009768776595592499,1.2099478244781494,0.0,-0.044907160103321075
255.0,215.0,-0.1328,-5.6417,7.6654,-0.0212,0.0154,-0.1312,-1.8925610981383265,-0.01689027063548565,3.342358350753784,-1.6093862056732178,1.2612835775804854e-10,2.025252103805542,5.20166306474761,-0.0,0.24748867750167847,-0.9750273863421839,0.0,-0.0780811607837677,0.29709216952323914,0.0,0.0038961274549365044,1.2099072933197021,5.260863690637052e-05,0.007866384461522102
255.0,215.0,-0.1328,-5.6417,7.6654,-0.0212,0.0154,-0.1312,-1.8926125965514125,-0.015997936949133873,3.3567423820495605,-1.6093902587890625,3.045851598383251e-16,2.0830078125,5.201675253897466,-0.0,0.253614604473114,-0.9750273863421839,0.0,-0.07094449549913406,0.2971363663673401,0.0,0.0015191739657893777,1.2099031209945679,4.840471956413239e-05,0.03673218935728073
255.0,215.0,-0.1328,-5.6417,7.6654,-0.0212,0.0154,-0.1312,-1.8927446804442347,-0.0151307862251997,3.3817641735076904,-1.6093460321426392,7.355372401765351e-22,2.046013355255127,5.201622891217031,-0.0,0.2660805583000183,-0.9749949614154261,0.0,-0.0811353400349617,0.2971039414405823,0.0,0.00420033186674118,1.209883451461792,4.4791202526539564e-05,0.006019495893269777
255.0,215.0,-0.1328,-5.6417,7.6654,-0.0212,0.0154,-0.1312,-1.8928286037840785,-0.013842744752764702,3.380819797515869,-1.609370231628418,1.776235691308777e-27,2.0247669219970703,5.201683389931478,-0.0,0.2447221279144287,-0.9750235716449183,0.0,-0.07037816941738129,0.29715609550476074,0.0,0.004448569379746914,1.2099155187606812,4.1679697460494936e-05,-0.03805726021528244
255.0,215.0,-0.1328,-5.6417,7.6654,-0.0212,0.0154,-0.1312,-1.892892976800436,-0.013380530290305614,3.388357162475586,-1.6093417406082153,3.197161727315634e-31,2.0120511054992676,5.201618808298864,-0.0,0.26097774505615234,-0.9749711195575159,0.0,-0.05771723389625549,0.29710397124290466,0.0,0.005330878775566816,1.209915041923523,3.983492206316441e-05,0.0353366956114769
259.0,223.0,-0.2171,-5.8385,7.5422,-0.0342,0.0267,-0.1321,-1.892940183679098,-0.012972867116332054,3.392094612121582,-1.6093418598175049,7.720769797923377e-37,2.020197629928589,5.201667088061132,-0.0,0.2536296844482422,-0.9750435988055628,0.0,-0.06337690353393555,0.29710400104522705,0.0,-0.013524404726922512,1.2099153995513916,1.9425337086431682e-05,0.030951321125030518
259.0,223.0,-0.2171,-5.8385,7.5422,-0.0342,0.0267,-0.1321,-1.8930326900877894,-0.012553702108561993,3.3842086791992188,-1.6093500852584839,1.8651282560163315e-42,2.06174373626709,5.201671170979299,-0.0,0.25070878863334656,-0.9750116507159632,0.0,-0.07687700539827347,0.2971482574939728,0.0,0.003884627018123865,1.2099113464355469,1.7582769942237064e-05,-0.0475645549595356
259.0,223.0,-0.2171,-5.8385,7.5422,-0.0342,0.0267,-0.1321,-1.893076559106344,-0.01137371826916933,3.362323522567749,-1.6094021797180176,0.00019704204169102013,2.0862691402435303,5.201622921019354,-0.0,0.24121958017349243,-0.975039307271139,0.0,-0.0665503442287445,0.297132283449173,0.0,0.01213323324918747,1.2099077701568604,1.6609326848993078e-05,0.025684308260679245
259.0,223.0,-0.2171,-5.8385,7.5422,-0.0342,0.0267,-0.1321,-1.8931604824461878,-0.010247602127492428,3.410429000854492,-1.6093661785125732,0.00017483705596532673,2.017848253250122,5.201678740769186,-0.0,0.25565558671951294,-0.9749868551837366,0.0,-0.07528211176395416,0.2971523702144623,0.0,0.0006460223812609911,1.2098711729049683,4.010957538325144e-11,-0.002900038380175829
259.0,223.0,-0.2171,-5.8385,7.5422,-0.0342,0.0267,-0.1321,-1.8931967220702113,-0.009877386502921581,3.3944315910339355,-1.6093742847442627,0.00018663423543330282,2.01410174369812,5.201627003937521,-0.0,0.25469857454299927,-0.9750116507159632,0.0,-0.08111526072025299,0.2971765697002411,0.0,0.0067122094333171844,1.2099195718765259,9.685990496697885e-17,0.012122130021452904
259.0,223.0,-0.2171,-5.8385,7.5422,-0.0342,0.0267,-0.1321,-1.8932644329466761,-0.00898564513772726,3.415036201477051,-1.609297513961792,0.00017014055629260838,2.0703134536743164,5.201671230583944,-0.0,0.25902366638183594,-0.9750712553607386,0.0,-0.06893007457256317,0.29719656705856323,0.0,0.009618126787245274,1.209895372390747,2.3390528584660153e-22,-0.06587620079517365
259.0,223.0,-0.2171,-5.8385,7.5422,-0.0342,0.0267,-0.1321,-1.8932839832701625,-0.00820018071681261,3.391977071762085,-1.6094224452972412,0.00015544725465588272,2.0449414253234863,5.201638865261831,-0.0,0.25202837586402893,-0.9750073591815394,0.0,-0.0726480707526207,0.2970835566520691,0.0,0.0068716611713171005,1.2098469734191895,5.648536822733991e-28,-0.00739674549549818
259.0,223.0,-0.2171,-5.8385,7.5422,-0.0342,0.0267,-0.1321,-1.8933526478209437,-0.00850483775138855,3.3984904289245605,-1.6094183921813965,0.00014309001562651247,2.0296401977539062,5.201642977982321,-0.0,0.259385347366333,-0.9749825636493128,0.0,-0.07400030642747879,0.2970757782459259,0.0,-0.006968853063881397,1.2098793983459473,1.3640553078021945e-33,-0.014151228591799736
259.0,223.0,-0.2171,-5.8385,7.5422,-0.0342,0.0267,-0.1321,-1.8933679066100062,-0.008036493323743343,3.3787667751312256,-1.6094063520431519,0.00013588836009148508,2.0761771202087402,5.201642977982321,-0.0,0.259967178106308,-0.9750073591815394,0.0,-0.07300951331853867,0.29712408781051636,0.0,0.009159540757536888,1.2098593711853027,2.4552513609997073e-37,0.00013354024849832058
259.0,223.0,-0.2171,-5.8385,7.5422,-0.0342,0.0267,-0.1321,-1.893407484094137,-0.008397706784307957,3.3836824893951416,-1.609382152557373,0.0001263497251784429,2.019871234893799,5.201663005142965,-0.0,0.24158404767513275,-0.9749711195575159,0.0,-0.07238222658634186,0.2971203327178955,0.0,-0.0017063398845493793,1.2098793983459473,5.927492504093976e-43,0.03195752203464508
259.0,223.0,-0.2171,-5.8385,7.5422,-0.0342,0.0267,-0.1321,-1.8934880695738734,-0.008898225612938404,3.3573575019836426,-1.6094022989273071,0.00011806259863078594,2.0407497882843018,5.201618748694219,-0.0,0.26341697573661804,-0.9750030676471155,0.0,-0.06828740984201431,0.29712820053100586,0.0,0.004876959137618542,1.2098551988601685,0.0,0.0017195623368024826
259.0,223.0,-0.2171,-5.8385,7.5422,-0.0342,0.0267,-0.1321,-1.893503805200094,-0.009173397906124592,3.368762493133545,-1.6093500852584839,0.00011079547402914613,1.990046739578247,5.201675283699789,-0.0,0.257524311542511,-0.9750030676471155,0.0,-0.06574799865484238,0.2971322536468506,0.0,0.004959540441632271,1.2098551988601685,0.0,0.017193064093589783
259.0,223.0,-0.2171,-5.8385,7.5422,-0.0342,0.0267,-0.1321,-1.893604417840475,-0.009802856482565403,3.420222282409668,-1.6093500852584839,0.00012175690062576905,2.0437350273132324,5.2016149936015985,-0.0,0.255246639251709,-0.9750555197345179,0.0,-0.07851707935333252,0.2970921993255615,0.0,0.0018787356093525887,1.2098753452301025,0.0,-0.005706091411411762
259.0,223.0,-0.2171,-5.8385,7.5422,-0.0342,0.0267,-0.1321,-1.8936196766295375,-0.010027308017015457,3.3721373081207275,-1.609373927116394,0.00011509285104693845,2.0778489112854004,5.2016310570533655,-0.0,0.25621166825294495,-0.9750273863421839,0.0,-0.07611881196498871,0.2971723675727844,0.0,-0.00547577952966094,1.2098593711853027,0.0,7.469207048416138e-06
259.0,223.0,-0.2171,-5.8385,7.5422,-0.0342,0.0267,-0.1321,-1.8936640224852503,-0.010187205858528614,3.3930513858795166,-1.6093541383743286,0.00012469955254346132,2.0208778381347656,5.2016630349452875,-0.0,0.25897762179374695,-0.975011173878805,0.0,-0.08519341051578522,0.2971358895301819,0.0,0.006865194533020258,1.2098028659820557,0.0,-0.03234192728996277
267.0,217.0,-0.07,-5.665,7.5667,-0.0347,0.0376,-0.1402,-1.8937560520567835,-0.010096917860209942,3.3913826942443848,-1.6093460321426392,0.00011460750829428434,2.003404378890991,5.201651143818655,-0.0,0.2459874004125595,-0.9750030676471155,0.0,-0.06725914776325226,0.2971359193325043,0.0,-0.00409010611474514,1.2098875045776367,-0.0001465401437599212,0.0089375339448452
267.0,217.0,-0.07,-5.665,7.5667,-0.0347,0.0376,-0.1402,-1.8938280544676722,-0.009837924502789974,3.4222068786621094,-1.609366536140442,0.00010647152521414682,2.0425257682800293,5.201622921019354,1.9363969840924256e-05,0.2538151144981384,-0.9750154654132288,0.0,-0.05428365617990494,0.29712405800819397,0.0,0.005520124454051256,1.2098753452301025,-0.000160160445375368,0.048687562346458435
267.0,217.0,-0.07,-5.665,7.5667,-0.0347,0.0376,-0.1402,-1.8938561878600062,-0.00938279926776886,3.3927862644195557,-1.609370231628418,0.00011929786705877632,2.0576443672180176,5.201667088061132,2.029234565270599e-05,0.25067317485809326,-0.975011173878805,0.0,-0.07799727469682693,0.2971162497997284,0.0,0.010922662913799286,1.20989990234375,-0.00016322691226378083,0.013405091129243374
267.0,217.0,-0.07,-5.665,7.5667,-0.0347,0.0376,-0.1402,-1.893867631951803,-0.009391862899065018,3.3601062297821045,-1.6092653274536133,0.00011425001866882667,2.040020704269409,5.20164709070281,1.0059214218927082e-05,0.24818234145641327,-0.9750073591815394,0.0,-0.08435134589672089,0.29709991812705994,0.0,-0.0014321993803605437,1.2098671197891235,-0.00016275931557174772,0.009635351598262787
267.0,217.0,-0.07,-5.665,7.5667,-0.0347,0.0376,-0.1402,-1.893952032128805,-0.008240536786615849,3.383037567138672,-1.609358310699463,0.00012533616973087192,2.0997402667999268,5.20163511016921,2.8000186613752476e-09,0.25205254554748535,-0.9750235716449183,0.0,-0.06617512553930283,0.2971765398979187,0.0,0.005262018647044897,1.209891676902771,-0.0001652435166761279,-0.010660004802048206
267.0,217.0,-0.07,-5.665,7.5667,-0.0347,0.0376,-0.1402,-1.8940001926817835,-0.007168513722717762,3.3919081687927246,-1.609370231628418,0.00013514677993953228,2.021808624267578,5.201651143818655,7.79395591034987e-13,0.25702738761901855,-0.9749992529498499,0.0,-0.07161878794431686,0.2971482574939728,0.0,0.0039677401073277,1.2098634243011475,-0.0001610482286196202,0.031824130564928055
267.0,217.0,-0.07,-5.665,7.5667,-0.0347,0.0376,-0.1402,-1.8940073452391566,-0.006708505563437939,3.428877353668213,-1.6093542575836182,0.00022743594308849424,2.052443742752075,5.201643007784643,2.1694761063470816e-16,0.2578850984573364,-0.975051228200094,0.0,-0.06866583973169327,0.2971404492855072,0.0,0.0037834313698112965,1.2098313570022583,-0.00015092091052792966,0.0018879503477364779
267.0,217.0,-0.07,-5.665,7.5667,-0.0347,0.0376,-0.1402,-1.894087930718893,-0.0058961291797459126,3.37418532371521,-1.6094306707382202,0.0002443895791657269,2.042557716369629,5.201643395214834,6.03881590607204e-20,0.2517845630645752,-0.9750235716449183,0.0,-0.06409526616334915,0.2971162497997284,0.0,-0.00032255437690764666,1.2098551988601685,-0.00014199198631104082,-0.04081549867987633
267.0,217.0,-0.07,-5.665,7.5667,-0.0347,0.0376,-0.1402,-1.8940755329527796,-0.004739711061120033,3.3865323066711426,-1.6093542575836182,0.0002549703640397638,2.027228355407715,5.201615112810888,1.680926904950278e-23,0.2531987428665161,-0.9749992529498499,0.0,-0.07338494062423706,0.29716426134109497,0.0,-0.007078176364302635,1.2098753452301025,-0.00017851710435934365,-0.009755544364452362
267.0,217.0,-0.07,-5.665,7.5667,-0.0347,0.0376,-0.1402,-1.894139905969137,-0.0036168741062283516,3.383937120437622,-1.6093542575836182,0.000259855471085757,1.9981663227081299,5.201598751335897,4.678921999628393e-27,0.2619226574897766,-0.975039307271139,0.0,-0.0669177770614624,0.29714417457580566,0.0,-0.012265508063137531,1.209855556488037,-0.00015953330148477107,0.003747304668650031
267.0,217.0,-0.07,-5.665,7.5667,-0.0347,0.0376,-0.1402,-1.8941761455931605,-0.0024906122125685215,3.4224870204925537,-1.6093138456344604,0.0004088307323399931,2.029996156692505,5.20161913612441,1.3023950785641777e-30,0.2516656517982483,-0.9750030676471155,0.0,-0.0756727084517479,0.2971482574939728,0.0,0.006906889379024506,1.2098392248153687,-0.00017298893362749368,0.0004867223324254155
267.0,217.0,-0.07,-5.665,7.5667,-0.0347,0.0376,-0.1402,-1.8941799602904261,-0.0015305066481232643,3.430069923400879,-1.6093302965164185,0.00034965950180776417,2.08078670501709,5.201606976776876,3.6252652151429846e-34,0.25875794887542725,-0.9750073591815394,0.0,-0.07718107104301453,0.2971724271774292,0.0,0.019369877874851227,1.2098313570022583,-0.0001841274934122339,0.020849592983722687
267.0,217.0,-0.07,-5.665,7.5667,-0.0347,0.0376,-0.1402,-1.8941480122008265,-0.0008924579597078264,3.3873610496520996,-1.6093065738677979,0.00034157439949922264,2.016197919845581,5.201627361565389,1.009105964830393e-37,0.26513636112213135,-0.9750073591815394,0.0,-0.0662321075797081,0.2971683144569397,0.0,0.0035096025094389915,1.2098109722137451,-0.00019350770162418485,0.012677142396569252
267.0,217.0,-0.07,-5.665,7.5667,-0.0347,0.0376,-0.1402,-1.8941275082030238,-0.0007656094967387617,3.370689868927002,-1.6093180179595947,0.0003081551694776863,2.0604162216186523,5.20157082655982,4.301972272492545e-40,0.25186535716056824,-0.9750235716449183,0.0,-0.06485413014888763,0.29712408781051636,0.0,0.00799210462719202,1.209891676902771,-0.000326802721247077,-0.05453263968229294
267.0,217.0,-0.07,-5.665,7.5667,-0.0347,0.0376,-0.1402,-1.8941518268980921,-0.000715727626811713,3.447760581970215,-1.6093705892562866,0.0002687206433620304,2.0756444931030273,5.201615053206243,1.1911036946760945e-43,0.2582705616950989,-0.9750073591815394,0.0,-0.070612832903862,0.29712405800819397,0.0,0.008483244106173515,1.2098273038864136,-0.0003749591123778373,-0.015099993906915188
267.0,217.0,-0.07,-5.665,7.5667,-0.0347,0.0376,-0.1402,-1.8941718540587367,-0.0006080763414502144,3.4589028358459473,-1.6093862056732178,0.00023823423543944955,2.002864122390747,5.201590972929754,0.0,0.26194238662719727,-0.9750116507159632,0.0,-0.07558552920818329,0.29712817072868347,0.0,-0.02050589770078659,1.2098191976547241,-0.0008177069830708206,-0.0036385497078299522
266.0,214.0,-0.2871,-5.7793,7.7222,-0.0302,0.0327,-0.126,-1.8941275082030238,-0.0005800084327347577,3.429015636444092,-1.6093385219573975,0.00021396046213340014,2.0522453784942627,5.201602804451742,0.0,0.252011775970459,-0.9750354925738733,0.0,-0.060427434742450714,0.29716426134109497,0.0,0.0021150768734514713,1.2098597288131714,-0.0008652881369926035,-0.04083791747689247
266.0,214.0,-0.2871,-5.7793,7.7222,-0.0302,0.0327,-0.126,-1.8941275082030238,-0.0005919281975366175,3.4240336418151855,-1.6093385219573975,0.0002219156885985285,2.0720839500427246,5.201627361565389,0.0,0.2501150667667389,-0.9750316778766077,0.0,-0.07000088691711426,0.29714009165763855,7.748207053737133e-08,-0.01527319010347128,1.2098232507705688,-0.0008104074513539672,-0.021257128566503525
266.0,214.0,-0.2871,-5.7793,7.7222,-0.0302,0.0327,-0.126,-1.8941880665221156,-0.0006269317818805575,3.3849077224731445,-1.609285831451416,0.00020313268760219216,2.0311222076416016,5.201558995037832,0.0,0.2526063024997711,-0.9749868551837366,0.0,-0.07808917760848999,0.29716017842292786,2.1567416255696692e-11,0.005338198971003294,1.2098395824432373,-0.000871907512191683,0.05650891736149788
266.0,214.0,-0.2871,-5.7793,7.7222,-0.0302,0.0327,-0.126,-1.8941799602904261,-0.0012754418421536684,3.4218785762786865,-1.6093180179595947,0.00018728143186308444,2.061772346496582,5.201587217837133,0.0,0.24746927618980408,-0.974987808858053,0.0,-0.08346301317214966,0.29719656705856323,6.003368460037956e-15,0.0005046469159424305,1.2098075151443481,-0.0010699430713430047,-0.0366005077958107
266.0,214.0,-0.2871,-5.7793,7.7222,-0.0302,0.0327,-0.126,-1.8941394291319789,-0.0018537811702117324,3.4406285285949707,-1.609394907951355,0.00017372527508996427,2.043282985687256,5.201590972929754,0.0,0.24744218587875366,-0.9749754110919397,0.0,-0.08941781520843506,0.29718056321144104,1.671059830324393e-18,0.01012939028441906,1.209791898727417,-0.0011368324048817158,0.02238326705992222
266.0,214.0,-0.2871,-5.7793,7.7222,-0.0302,0.0327,-0.126,-1.894179483453268,-0.0022370119113475084,3.409914016723633,-1.6093180179595947,0.00014174898387864232,2.0158143043518066,5.201571213990011,-0.000362599705113098,0.2624678909778595,-0.9749792257892054,0.0,-0.07557927072048187,0.2971805930137634,4.651456607158472e-22,0.008188425563275814,1.2098197937011719,-0.0014772012364119291,0.03038240596652031
266.0,214.0,-0.2871,-5.7793,7.7222,-0.0302,0.0327,-0.126,-1.8942238293089808,-0.0023322582710534334,3.3975820541381836,-1.6093746423721313,0.0001327861682511866,2.0447590351104736,5.201567131071844,-0.0003515543940011412,0.25099796056747437,-0.974987808858053,0.0,-0.06250312924385071,0.2971322536468506,1.2947500081682602e-25,-0.003224732354283333,1.209763765335083,-0.0015534117119386792,-0.03974216431379318
