ramyac6/ROB537/final_project/csv/all/bad_86.csv
tof_0,tof_1,accelx,accely,accelz,gyrox,gyroy,gyroz,shoulder_lift_joint_position,shoulder_lift_joint_velocity,shoulder_lift_joint_effort,elbow_joint_position,elbow_joint_velocity,elbow_joint_effort,wrist_1_joint_position,wrist_1_joint_velocity,wrist_1_joint_effort,wrist_2_joint_position,wrist_2_joint_velocity,wrist_2_joint_effort,wrist_3_joint_position,wrist_3_joint_velocity,wrist_3_joint_effort,shoulder_pan_joint_position,shoulder_pan_joint_velocity,shoulder_pan_joint_effort
431.0,397.0,0.5874,0.2704,9.4893,-0.0437,0.0237,-0.1171,-1.5283840981176873,0.0,1.8678827285766602,-1.9802848100662231,-0.0,2.104886531829834,4.941122415452757,3.2314949832692534e-28,0.2833254635334015,-1.5898664633380335,0.0,-0.015044176019728184,0.7541028261184692,-1.4133494520709666e-25,0.0015083167236298323,0.7753880023956299,-7.609608587699768e-08,-0.03460968658328056
431.0,397.0,0.5874,0.2704,9.4893,-0.0437,0.0237,-0.1171,-1.5283436712673684,0.0,1.8718827962875366,-1.9802477359771729,-0.0,2.068423271179199,4.941094147949972,1.3776368732879952e-30,0.2769581377506256,-1.5898664633380335,0.0,-0.010395027697086334,0.7541192173957825,-6.025329608913799e-28,0.0011656550923362374,0.7754119634628296,-1.3697027886894197e-11,0.018523357808589935
431.0,397.0,0.5874,0.2704,9.4893,-0.0437,0.0237,-0.1171,-1.528392308657505,0.0,1.857837200164795,-1.9802725315093994,-0.0,2.084808826446533,4.941106053977766,3.834703181382236e-34,0.27366510033607483,-1.5898216406451624,0.0,-0.023039666935801506,0.754115104675293,-1.6771725351628339e-31,0.0007999744266271591,0.7753998637199402,-3.307670938217433e-17,0.03213179111480713
431.0,397.0,0.5874,0.2704,9.4893,-0.0437,0.0237,-0.1171,-1.528400083338358,0.0,1.8701090812683105,-1.9803125858306885,-0.0,2.030216693878174,4.941134753614225,1.0674035682703741e-37,0.28207090497016907,-1.5898578802691858,0.0,-0.026111893355846405,0.7541311383247375,-4.6684715095018324e-35,0.005734726320952177,0.775408148765564,-7.987635708275598e-23,0.004461073782294989
431.0,397.0,0.5874,0.2704,9.4893,-0.0437,0.0237,-0.1171,-1.5283720579794426,0.0,1.8770828247070312,-1.9803333282470703,-0.0,2.02071475982666,4.941138732224264,2.9711731339079096e-41,0.28585731983184814,-1.5898297468768519,0.0,-0.019358165562152863,0.7540950775146484,-1.2994861434903725e-38,-0.0031956781167536974,0.7753962278366089,-1.92892019136714e-28,-0.044696830213069916
431.0,397.0,0.5874,0.2704,9.4893,-0.0437,0.0237,-0.1171,-1.528323383336403,0.0,1.8744375705718994,-1.9803167581558228,-0.0,2.073660373687744,4.941101911454954,1.2611686178923354e-43,0.2741779386997223,-1.5898378531085413,0.0,-0.010823258198797703,0.7541393041610718,-5.539893348861732e-41,0.007048573810607195,0.77537602186203,-3.47198860373068e-32,-0.03088216856122017
431.0,397.0,0.5874,0.2704,9.4893,-0.0437,0.0237,-0.1171,-1.5283638474396248,0.0,1.8739125728607178,-1.9802641868591309,-0.0,2.0724620819091797,4.941074090987005,0.0,0.2729604244232178,-1.5898578802691858,0.0,-0.02788790687918663,0.7541069984436035,-1.5414283107572988e-44,0.008323024027049541,0.7754284143447876,-8.384444593013865e-38,0.031054645776748657
431.0,397.0,0.5874,0.2704,9.4893,-0.0437,0.0237,-0.1171,-1.5283840981176873,0.0,1.8610923290252686,-1.9802839756011963,-0.0,2.035806655883789,4.941150206118383,0.0,0.26739364862442017,-1.589874569569723,0.0,-0.011475726962089539,0.7540385127067566,-0.0,-0.0003227911365684122,0.7754163146018982,-2.0178697886277366e-43,-0.0013934895396232605
431.0,397.0,0.5874,0.2704,9.4893,-0.0437,0.0237,-0.1171,-1.528359805499651,0.0,1.8811755180358887,-1.9802601337432861,-0.0,2.0330567359924316,4.941082212119856,0.0,0.27715054154396057,-1.5898860136615198,0.0,-0.010263128206133842,0.754139244556427,-0.0,-0.0030139076989144087,0.7753719091415405,0.0,0.004380487836897373
421.0,383.0,0.6658,0.2495,9.2955,-0.0351,0.0333,-0.11,-1.5283638474396248,0.0,1.8489532470703125,-1.9802806377410889,-0.0,2.0464982986450195,4.9411383894975565,0.0,0.2704835534095764,-1.5898454825030726,0.0,-0.011687081307172775,0.7541027665138245,-0.0,-0.0018654627492651343,0.7753880023956299,0.0,-0.02037135884165764
421.0,383.0,0.6658,0.2495,9.2955,-0.0351,0.0333,-0.11,-1.5283155676773568,0.0,1.8830270767211914,-1.9802725315093994,-0.0,2.0198922157287598,4.941130581289091,0.0,0.2821384370326996,-1.5898335615741175,0.0,-0.010232415050268173,0.7541110515594482,-0.0,-0.006586420349776745,0.7753798365592957,0.0,0.030563224107027054
421.0,383.0,0.6658,0.2495,9.2955,-0.0351,0.0333,-0.11,-1.5283882108381768,0.0,1.878124713897705,-1.9803085327148438,-0.0,2.0414302349090576,4.941130581289091,0.0,0.27510514855384827,-1.5898540655719202,0.0,-0.025974534451961517,0.7541834712028503,-0.0,-0.0019246428273618221,0.77537602186203,0.0,-0.019391890615224838
421.0,383.0,0.6658,0.2495,9.2955,-0.0351,0.0333,-0.11,-1.5283720468035717,0.0,1.8798139095306396,-1.9802641868591309,-0.0,2.094757080078125,4.94112645366744,0.0,0.2802467942237854,-1.5898783842669886,0.0,-0.013165286742150784,0.7541229724884033,-0.0,0.0013859914615750313,0.7753759622573853,0.0,-0.019869748502969742
421.0,383.0,0.6658,0.2495,9.2955,-0.0351,0.0333,-0.11,-1.5283356618932267,0.0,1.8657476902008057,-1.9802560806274414,-0.0,2.0292186737060547,4.941118258028784,0.0,0.28052592277526855,-1.5898903051959437,0.0,-0.015214018523693085,0.7540708184242249,-0.0,-0.0074539524503052235,0.7753477096557617,0.0,-0.0063864002004265785
421.0,383.0,0.6658,0.2495,9.2955,-0.0351,0.0333,-0.11,-1.5283397671631356,0.0,1.8384119272232056,-1.9803085327148438,-0.0,2.030689239501953,4.9410458383853815,0.0,0.28111475706100464,-1.5898621718036097,0.0,-0.014452498406171799,0.7540790438652039,-0.0,-0.004801312927156687,0.7754283547401428,0.0,-0.02646995335817337
421.0,383.0,0.6658,0.2495,9.2955,-0.0351,0.0333,-0.11,-1.5283840981176873,0.0,1.86751389503479,-1.98029625415802,-0.0,2.1156296730041504,4.941081839590826,0.0,0.2667660713195801,-1.5898740927325647,0.0,-0.013331297785043716,0.7541834712028503,-0.0,0.0024692120496183634,0.7754242420196533,0.0,0.048657678067684174
421.0,383.0,0.6658,0.2495,9.2955,-0.0351,0.0333,-0.11,-1.5283436265638848,0.0,1.8898053169250488,-1.9802560806274414,-0.0,2.038109064102173,4.941074135690489,0.0,0.27979743480682373,-1.5898664633380335,0.0,-0.009691417217254639,0.7541270852088928,-0.0,0.009687823243439198,0.7754568457603455,0.0,0.03408394008874893
421.0,383.0,0.6658,0.2495,9.2955,-0.0351,0.0333,-0.11,-1.5284245026162644,0.0,1.858875036239624,-1.9802124500274658,-0.0,2.0462489128112793,4.941110151797094,0.0,0.27901697158813477,-1.5898297468768519,0.0,-0.014684481546282768,0.7541147470474243,-0.0,0.001135501777753234,0.7754445672035217,0.0,-0.013935728929936886
421.0,383.0,0.6658,0.2495,9.2955,-0.0351,0.0333,-0.11,-1.5283679601601143,0.0,1.8153440952301025,-1.9802435636520386,-0.0,2.073329448699951,4.941106068878927,0.0,0.2839969992637634,-1.5898178259478968,0.0,-0.009717619977891445,0.754115104675293,-0.0,-0.0011034385534003377,0.77538001537323,0.0,-0.017117206007242203
421.0,383.0,0.6658,0.2495,9.2955,-0.0351,0.0333,-0.11,-1.5283279207399865,0.0,1.8653688430786133,-1.980329155921936,-0.0,2.013913631439209,4.9410858927066705,0.0,0.2843979597091675,-1.589886490498678,0.0,-0.008345179259777069,0.7541351318359375,-0.0,0.0033571526873856783,0.7753921747207642,0.0,-0.005368930287659168
421.0,383.0,0.6658,0.2495,9.2955,-0.0351,0.0333,-0.11,-1.5283882033875962,0.0,1.9097933769226074,-1.9802601337432861,-0.0,2.0631933212280273,4.941122385650434,0.0,0.2809404730796814,-1.5898783842669886,0.0,-0.01963522471487522,0.7540749907493591,-0.0,-0.0008740880293771625,0.7753962278366089,0.0,-0.019760848954319954
421.0,383.0,0.6658,0.2495,9.2955,-0.0351,0.0333,-0.11,-1.528384083216526,0.0,1.9129526615142822,-1.9802839756011963,-0.0,2.0581254959106445,4.941085922508993,0.0,0.26970890164375305,-1.589837376271383,0.0,-0.004361508414149284,0.7541674971580505,-0.0,0.00877226609736681,0.7754201889038086,0.0,0.010917752049863338
421.0,383.0,0.6658,0.2495,9.2955,-0.0351,0.0333,-0.11,-1.5283679378083725,0.0,1.9044699668884277,-1.980288028717041,-0.0,2.048290491104126,4.941085907607832,0.0,0.2775494456291199,-1.5898821989642542,0.0,-0.003677555825561285,0.7540987133979797,-0.0,0.0006230188300833106,0.7754163146018982,0.0,0.00603025546297431
421.0,383.0,0.6658,0.2495,9.2955,-0.0351,0.0333,-0.11,-1.5283959557167073,0.0,1.8612980842590332,-1.980304479598999,-0.0,2.064427614212036,4.9411224005515955,0.0,0.2640669345855713,-1.5898783842669886,0.0,-0.02328234352171421,0.7541310787200928,-0.0,-0.008570167236030102,0.7754325270652771,0.0,-0.006132439710199833
421.0,383.0,0.6658,0.2495,9.2955,-0.0351,0.0333,-0.11,-1.5284041886082669,0.0,1.9151668548583984,-1.9803415536880493,-0.0,2.0612034797668457,4.941158506065168,0.0,0.2854785919189453,-1.589902702962057,0.0,-0.025221489369869232,0.7541593909263611,-0.0,-7.497487240470946e-05,0.7753718495368958,0.0,-0.006632980890572071
418.0,407.0,0.5617,0.2387,9.6185,-0.0305,0.0226,-0.1127,-1.5283799928477784,0.0,1.8534953594207764,-1.9802765846252441,-0.0,2.0519752502441406,4.941106053977766,0.0,0.2870142161846161,-1.589825455342428,0.0,-0.012965591624379158,0.7541110515594482,-0.0,-0.0020220244769006968,0.7754044532775879,0.0,0.011555145494639874
418.0,407.0,0.5617,0.2387,9.6185,-0.0305,0.0226,-0.1127,-1.5283597831479092,0.0,1.8572649955749512,-1.9803167581558228,-0.0,2.0460219383239746,4.941142442613401,0.0,0.2821655571460724,-1.5898621718036097,0.0,-0.02617446519434452,0.7541233897209167,-0.0,0.010568307712674141,0.7754043936729431,0.0,0.017199618741869926
418.0,407.0,0.5617,0.2387,9.6185,-0.0305,0.0226,-0.1127,-1.528355912571289,0.0,1.871483564376831,-1.9802838563919067,-0.0,2.031597852706909,4.941069873958387,0.0,0.29121607542037964,-1.5898702780352991,0.0,-0.009396957233548164,0.7541393637657166,-0.0,0.006369474809616804,0.7754204273223877,0.0,-0.029273029416799545
418.0,407.0,0.5617,0.2387,9.6185,-0.0305,0.0226,-0.1127,-1.528408297603466,0.0,1.8623496294021606,-1.9802354574203491,-0.0,2.0575857162475586,4.941041889577665,0.0,0.285936176776886,-1.5898292700396937,0.0,-0.0011212725657969713,0.7541310787200928,-0.0,-8.807121776044369e-05,0.775416374206543,0.0,-0.016984563320875168
418.0,407.0,0.5617,0.2387,9.6185,-0.0305,0.0226,-0.1127,-1.5284083050540467,0.0,1.888502597808838,-1.9802961349487305,-0.0,2.0485312938690186,4.941118198424139,0.0,0.2704131603240967,-1.5898578802691858,0.0,-0.02951723337173462,0.7540830969810486,-0.0,0.001263403333723545,0.7754040360450745,0.0,0.006270785816013813
418.0,407.0,0.5617,0.2387,9.6185,-0.0305,0.0226,-0.1127,-1.5283638474396248,0.0,1.8901293277740479,-1.9802476167678833,-0.0,2.040041923522949,4.9411141751106165,0.0,0.29057884216308594,-1.5898783842669886,0.0,-0.004969750065356493,0.7541593909263611,-0.0,-0.004201343283057213,0.775399923324585,0.0,0.009363123215734959
418.0,407.0,0.5617,0.2387,9.6185,-0.0305,0.0226,-0.1127,-1.5284000535360356,0.0,1.8580844402313232,-1.9802806377410889,-0.0,2.0511474609375,4.941094162851133,0.0,0.28701359033584595,-1.5899017492877405,0.0,-0.008950304239988327,0.7541434168815613,-0.0,0.006622602231800556,0.7754043936729431,0.0,-0.004581782966852188
418.0,407.0,0.5617,0.2387,9.6185,-0.0305,0.0226,-0.1127,-1.5283679527095337,0.0,1.8869695663452148,-1.980288028717041,-0.0,2.0409748554229736,4.941106053977766,0.0,0.2806963622570038,-1.5898702780352991,0.0,-0.021974600851535797,0.7540868520736694,-0.0,-0.0019759314600378275,0.7754325270652771,0.0,0.01617426984012127
418.0,407.0,0.5617,0.2387,9.6185,-0.0305,0.0226,-0.1127,-1.5283600066653271,0.0,1.8750982284545898,-1.9803004264831543,-0.0,2.069225788116455,4.941101896553793,0.0,0.2841496169567108,-1.5898497740374964,0.0,-0.010495870374143124,0.7540909647941589,-0.0,0.005552441347390413,0.7753921747207642,0.0,0.019868100062012672
418.0,407.0,0.5617,0.2387,9.6185,-0.0305,0.0226,-0.1127,-1.5283354644528409,0.0,1.9363007545471191,-1.9802839756011963,-0.0,2.0657730102539062,4.941086414247312,0.0,0.2759578824043274,-1.5898783842669886,0.0,-0.009447209537029266,0.7541713118553162,-0.0,0.0029337196610867977,0.7753677368164062,0.0,-0.023588037118315697
418.0,407.0,0.5617,0.2387,9.6185,-0.0305,0.0226,-0.1127,-1.5283799853971978,0.0,1.8770735263824463,-1.9802961349487305,-0.0,2.077132225036621,4.9411142198141,0.0,0.2794855237007141,-1.5898578802691858,0.0,-0.0043434570543468,0.7540950775146484,-0.0,-0.0016786402557045221,0.775408148765564,0.0,-0.012609725818037987
418.0,407.0,0.5617,0.2387,9.6185,-0.0305,0.0226,-0.1127,-1.5283438873342057,0.0,1.8662320375442505,-1.9802354574203491,-0.0,1.9971849918365479,4.9411142198141,0.0,0.2789788842201233,-1.5898740927325647,0.0,-0.007976711727678776,0.7541836500167847,-0.0,0.008651738986372948,0.775408148765564,0.0,-0.019635790959000587
418.0,407.0,0.5617,0.2387,9.6185,-0.0305,0.0226,-0.1127,-1.5283840906671067,0.0,1.8887741565704346,-1.9802764654159546,-0.0,2.0429863929748535,4.941094177752294,0.0,0.28442516922950745,-1.5898903051959437,0.0,-0.021279964596033096,0.7540991306304932,-0.0,-0.001840020064264536,0.7754122018814087,0.0,-0.013109448365867138
418.0,407.0,0.5617,0.2387,9.6185,-0.0305,0.0226,-0.1127,-1.5283638474396248,0.0,1.8484766483306885,-1.9802725315093994,-0.0,2.071345567703247,4.941114264517584,0.0,0.28770527243614197,-1.589937988911764,0.0,-0.018586277961730957,0.7540909647941589,-0.0,-0.0005730672273784876,0.77537602186203,0.0,-0.015089211985468864
418.0,407.0,0.5617,0.2387,9.6185,-0.0305,0.0226,-0.1127,-1.5283882033875962,0.0,1.8393669128417969,-1.9802641868591309,-0.0,2.0135574340820312,4.941090079932966,0.0,0.2842479348182678,-1.5898211638080042,0.0,-0.005466743838042021,0.7540991306304932,-0.0,-0.005112356506288052,0.7754404544830322,0.0,-0.004241940565407276
418.0,407.0,0.5617,0.2387,9.6185,-0.0305,0.0226,-0.1127,-1.528375969534256,0.0,1.8803768157958984,-1.9802725315093994,-0.0,2.084109306335449,4.941110151797094,0.0,0.27068448066711426,-1.5898378531085413,0.0,-0.013264834880828857,0.7541393637657166,-0.0,-0.0071395691484212875,0.7753722667694092,0.0,0.028583180159330368
429.0,409.0,0.6215,0.25,9.4953,-0.0409,0.0247,-0.1156,-1.5283881810358544,0.0,1.8732731342315674,-1.9802725315093994,-0.0,2.080334424972534,4.941094162851133,0.0,0.2780989110469818,-1.5898664633380335,0.0,-0.005405034404247999,0.7540627121925354,-0.0,0.0010801074095070362,0.7754040360450745,0.0,0.04731881618499756
429.0,409.0,0.6215,0.25,9.4953,-0.0409,0.0247,-0.1156,-1.5284281124225636,0.0,1.902896523475647,-1.9802601337432861,-0.0,2.0682530403137207,4.941094162851133,0.0,0.2798105776309967,-1.5898540655719202,0.0,-0.022336319088935852,0.7541757822036743,-0.0,-0.0010928483679890633,0.7753924131393433,0.0,-0.01565457507967949
429.0,409.0,0.6215,0.25,9.4953,-0.0409,0.0247,-0.1156,-1.5283679527095337,0.0,1.8704471588134766,-1.9802476167678833,-0.0,2.045893430709839,4.941085937410154,0.0,0.28233787417411804,-1.589898411427633,0.0,-0.011051096022129059,0.754115104675293,-0.0,0.0005478342063724995,0.7753921747207642,0.0,-0.01756507158279419
429.0,409.0,0.6215,0.25,9.4953,-0.0409,0.0247,-0.1156,-1.5283275556615372,0.0,1.9158785343170166,-1.9802757501602173,-0.0,2.0601754188537598,4.9411224005515955,0.0,0.2921326756477356,-1.5898497740374964,0.0,-0.009848881512880325,0.7540463209152222,-0.0,0.008113788440823555,0.7753800749778748,-6.612786984661057e-10,-0.023643657565116882
429.0,409.0,0.6215,0.25,9.4953,-0.0409,0.0247,-0.1156,-1.528363862340786,0.0,1.9093916416168213,-1.9802478551864624,-0.0,2.029662609100342,4.941045897990026,0.0,0.2788352370262146,-1.5898335615741175,0.0,-0.008050664328038692,0.7541311383247375,-0.0,-0.009868313558399677,0.7754243016242981,-1.1902784801624128e-13,-0.00870096031576395
429.0,409.0,0.6215,0.25,9.4953,-0.0409,0.0247,-0.1156,-1.5283355575850983,0.0,1.8712108135223389,-1.9802765846252441,-0.0,2.0505998134613037,4.941162112146177,0.0,0.2847180664539337,-1.589869801198141,0.0,-0.008443777449429035,0.7541028261184692,-0.0,-0.0027612545527517796,0.77537602186203,-2.874382318269704e-19,-0.009326432831585407
429.0,409.0,0.6215,0.25,9.4953,-0.0409,0.0247,-0.1156,-1.5283759099296113,0.0,1.8882110118865967,-1.9802641868591309,-0.0,2.0276598930358887,4.94103758314208,0.0,0.2790195047855377,-1.5898860136615198,0.0,-0.02138303592801094,0.7541192173957825,-0.0,-0.0090125547721982,0.7754365801811218,-6.941295080376085e-25,-0.016205936670303345
429.0,409.0,0.6215,0.25,9.4953,-0.0409,0.0247,-0.1156,-1.5283356842449685,0.0,1.9095990657806396,-1.9802641868591309,-0.0,2.0649571418762207,4.941085922508993,0.0,0.2876634895801544,-1.5898903051959437,0.0,0.00015189498662948608,0.754115104675293,-0.0,-0.0075417328625917435,0.7753921747207642,-1.6762412144985644e-30,0.0025011796969920397
429.0,409.0,0.6215,0.25,9.4953,-0.0409,0.0247,-0.1156,-1.5283517961255093,0.0,1.906665563583374,-1.9802641868591309,-0.0,2.098363161087036,4.941106053977766,0.0,0.2834451198577881,-1.589841667805807,0.0,-0.009538417682051659,0.754147469997406,-0.0,0.0044305105693638325,0.7753962278366089,-4.0479249996519366e-36,-0.01682562567293644
429.0,409.0,0.6215,0.25,9.4953,-0.0409,0.0247,-0.1156,-1.528376181875803,0.0,1.8763916492462158,-1.9802920818328857,-0.0,2.0688085556030273,4.941090050130644,0.0,0.2720209062099457,-1.5898497740374964,0.0,-0.010961905121803284,0.7541916966438293,-0.0,0.011232297867536545,0.7754243016242981,-7.286121430180103e-40,-0.01882336102426052
429.0,409.0,0.6215,0.25,9.4953,-0.0409,0.0247,-0.1156,-1.5284082789770146,0.0,1.8774809837341309,-1.9802601337432861,-0.0,2.0480761528015137,4.941122355848112,0.0,0.2633645832538605,-1.5898621718036097,0.0,-0.027116987854242325,0.754118800163269,-0.0,0.005880644079297781,0.775408148765564,-1.401298464324817e-45,-0.04855189844965935
429.0,409.0,0.6215,0.25,9.4953,-0.0409,0.0247,-0.1156,-1.5284001019648095,0.0,1.8665432929992676,-1.98029625415802,-0.0,2.10341739654541,4.941118228226461,0.0,0.2744225263595581,-1.5898454825030726,0.0,-0.009603573940694332,0.7540790438652039,-0.0,0.003844853024929762,0.775388240814209,0.0,0.046799950301647186
429.0,409.0,0.6215,0.25,9.4953,-0.0409,0.0247,-0.1156,-1.5283517961255093,0.0,1.860537052154541,-1.980228066444397,-0.0,2.0497491359710693,4.941085907607832,0.0,0.29363173246383667,-1.5898664633380335,0.0,-0.013473432511091232,0.7541270852088928,-0.0,-0.003072574967518449,0.7753841876983643,0.0,-0.014662159606814384
429.0,409.0,0.6215,0.25,9.4953,-0.0409,0.0247,-0.1156,-1.528404166256525,0.0,1.8725671768188477,-1.980312705039978,-0.0,2.0287036895751953,4.941085907607832,0.0,0.28407108783721924,-1.5898740927325647,0.0,-0.0024230550043284893,0.7540987133979797,-0.0,-0.010372227989137173,0.7753962278366089,0.0,0.016319282352924347
429.0,409.0,0.6215,0.25,9.4953,-0.0409,0.0247,-0.1156,-1.528392293756344,0.0,1.912241816520691,-1.980288028717041,-0.0,2.0939507484436035,4.941106068878927,0.0,0.2802041172981262,-1.589813534413473,0.0,-0.023614943027496338,0.7540627121925354,-0.0,-0.008194823749363422,0.7754281759262085,0.0,0.04176405817270279
429.0,409.0,0.6215,0.25,9.4953,-0.0409,0.0247,-0.1156,-1.5283638399890442,0.0,1.9218568801879883,-1.9803210496902466,-0.0,2.0837669372558594,4.941085907607832,0.0,0.28026270866394043,-1.5898903051959437,0.0,-0.009013868868350983,0.7541230320930481,-0.0,-0.00956813246011734,0.7753800749778748,0.0,0.001196778379380703
429.0,409.0,0.6215,0.25,9.4953,-0.0409,0.0247,-0.1156,-1.528347735559084,0.0,1.8835629224777222,-1.9803085327148438,-0.0,2.049443006515503,4.941126468568601,0.0,0.2855026125907898,-1.589841667805807,0.0,-0.01580663211643696,0.7541109919548035,-0.0,0.0053965430706739426,0.7754043936729431,0.0,-0.02306891605257988
402.0,397.0,0.5791,0.2441,9.5384,-0.0447,0.0296,-0.1191,-1.5283638586154957,0.0,1.881543755531311,-1.980329155921936,-0.0,2.0880777835845947,4.941101911454954,0.0,0.27801015973091125,-1.5898578802691858,0.0,-0.009296577423810959,0.7541393041610718,-0.0,0.012380529195070267,0.7754122018814087,0.0,0.024008505046367645
402.0,397.0,0.5791,0.2441,9.5384,-0.0447,0.0296,-0.1191,-1.5283679527095337,0.0,1.937639832496643,-1.9802920818328857,-0.0,2.0520999431610107,4.941090065031805,0.0,0.28813764452934265,-1.5898659865008753,0.0,-0.011795500293374062,0.754135251045227,-0.0,-0.004096352495253086,0.7754163146018982,0.0,0.030711881816387177
402.0,397.0,0.5791,0.2441,9.5384,-0.0447,0.0296,-0.1191,-1.528392319833376,0.0,1.8817143440246582,-1.9802560806274414,-0.0,2.0471994876861572,4.941106068878927,0.0,0.2742691934108734,-1.5898540655719202,0.0,-0.0026176967658102512,0.7540987133979797,-0.0,-0.010106752626597881,0.7754085659980774,0.0,-0.003689791075885296
402.0,397.0,0.5791,0.2441,9.5384,-0.0447,0.0296,-0.1191,-1.5283679452589531,0.0,1.8914999961853027,-1.9802961349487305,-0.0,2.0622003078460693,4.941126468568601,0.0,0.2942894399166107,-1.5898297468768519,0.0,-0.02222515270113945,0.7540707588195801,-0.0,-0.004559218883514404,0.7753599882125854,0.0,-0.054572779685258865
402.0,397.0,0.5791,0.2441,9.5384,-0.0447,0.0296,-0.1191,-1.5283679378083725,0.0,1.8598284721374512,-1.980312466621399,-0.0,2.035081386566162,4.9411182133253,0.0,0.2873082160949707,-1.589886490498678,0.0,-0.014971316792070866,0.7541192173957825,-0.0,-0.0036923671141266823,0.7754043936729431,0.0,-0.01609038934111595
402.0,397.0,0.5791,0.2441,9.5384,-0.0447,0.0296,-0.1191,-1.528403953914978,0.0,1.8251872062683105,-1.9802560806274414,-0.0,2.0925869941711426,4.941090065031805,0.0,0.27867186069488525,-1.5898821989642542,0.0,-0.013549620285630226,0.7540467381477356,-0.0,0.0006002327427268028,0.7753962278366089,0.0,-0.006422530394047499
402.0,397.0,0.5791,0.2441,9.5384,-0.0447,0.0296,-0.1191,-1.5284000609866162,0.0,1.9259088039398193,-1.9802806377410889,-0.0,2.0437893867492676,4.941101911454954,0.0,0.28004053235054016,-1.5898454825030726,0.0,-0.011632384732365608,0.7540831565856934,-0.0,0.006449335720390081,0.7753921747207642,0.0,-0.017157912254333496
402.0,397.0,0.5791,0.2441,9.5384,-0.0447,0.0296,-0.1191,-1.5283881810358544,0.0,1.8989289999008179,-1.9802395105361938,2.637017587403534e-06,2.050467014312744,4.941106068878927,0.0,0.2752632200717926,-1.5898941198932093,0.0,-0.02090565860271454,0.7541069984436035,-0.0,-0.00997916143387556,0.77537602186203,0.0,0.04786190390586853
402.0,397.0,0.5791,0.2441,9.5384,-0.0447,0.0296,-0.1191,-1.5283237633160134,0.0,1.8732860088348389,-1.9802641868591309,6.368089215669226e-12,2.0294721126556396,4.941085907607832,0.0,0.282983660697937,-1.5898578802691858,0.0,-0.020064745098352432,0.7541027665138245,-0.0,0.0016792218666523695,0.7753921747207642,0.0,-0.004263218026608229
402.0,397.0,0.5791,0.2441,9.5384,-0.0447,0.0296,-0.1191,-1.528347724383213,0.0,1.8460030555725098,-1.98029625415802,1.5378184251144792e-17,2.070591449737549,4.941134246974745,0.0,0.28992584347724915,-1.5898702780352991,0.0,-0.011591622605919838,0.7541192173957825,-0.0,-0.0040955436415970325,0.77537602186203,0.0,0.013043014332652092
402.0,397.0,0.5791,0.2441,9.5384,-0.0447,0.0296,-0.1191,-1.5283274737051507,0.0,1.8439079523086548,-1.980279803276062,2.7680185560344915e-21,2.058605670928955,4.941110151797094,0.0,0.2744196057319641,-1.5898621718036097,0.0,-0.002713955007493496,0.7540586590766907,-0.0,-0.0034093346912413836,0.775408148765564,0.0,0.02914237603545189
402.0,397.0,0.5791,0.2441,9.5384,-0.0447,0.0296,-0.1191,-1.528351818477251,0.0,1.8393182754516602,-1.9802476167678833,6.684439073037487e-27,2.0669291019439697,4.941134232073583,0.0,0.27239808440208435,-1.5898783842669886,0.0,-0.005980847869068384,0.7541069984436035,-0.0,-0.004588430747389793,0.7754122614860535,0.0,-0.005040678195655346
402.0,397.0,0.5791,0.2441,9.5384,-0.0447,0.0296,-0.1191,-1.5283878196826954,0.0,1.8966989517211914,-1.9802641868591309,1.6142133809937386e-32,2.0801379680633545,4.941057684808531,0.0,0.28605350852012634,-1.5898903051959437,0.0,-0.009306393563747406,0.7541552782058716,-0.0,-0.014493501745164394,0.7754201889038086,0.0,0.0033748806454241276
402.0,397.0,0.5791,0.2441,9.5384,-0.0447,0.0296,-0.1191,-1.5283720654300232,0.0,1.8897833824157715,-1.9802601337432861,3.8981354311750905e-38,2.075998306274414,4.941101911454954,0.0,0.27629971504211426,-1.589869801198141,0.0,-0.011756502091884613,0.7540504336357117,-0.0,-0.0018027399200946093,0.7753921747207642,0.0,0.0314982570707798
402.0,397.0,0.5791,0.2441,9.5384,-0.0447,0.0296,-0.1191,-1.528347724383213,0.0,1.8633298873901367,-1.9802519083023071,7.016301410874359e-42,2.0690512657165527,4.941101896553793,0.0,0.2745448350906372,-1.5898783842669886,0.0,-0.010664238594472408,0.754094660282135,-0.0,-0.010818272829055786,0.7754122018814087,0.0,0.02478240430355072
402.0,397.0,0.5791,0.2441,9.5384,-0.0447,0.0296,-0.1191,-1.5283556778780003,0.0,1.8897331953048706,-1.9802477359771729,0.0,2.0870838165283203,4.941114190011778,0.0,0.28106722235679626,-1.5898211638080042,0.0,-0.016310054808855057,0.754127025604248,-0.0,0.010127133689820766,0.775408148765564,0.0,0.030024778097867966
422.0,377.0,0.6413,0.2824,9.417,-0.0353,0.0258,-0.1245,-1.5283799928477784,0.0,1.88623046875,-1.9802725315093994,-0.0,2.0686659812927246,4.941110151797094,0.0,0.272172212600708,-1.5898621718036097,0.0,-0.012108631432056427,0.7540950179100037,-0.0,-0.007678450550884008,0.7754203677177429,0.0,-0.00695079518482089
422.0,377.0,0.6413,0.2824,9.417,-0.0353,0.0258,-0.1245,-1.5283638399890442,0.0,1.8513059616088867,-1.9802839756011963,-0.0,2.0363121032714844,4.941142457514562,0.0,0.2710995078086853,-1.5898578802691858,0.0,-0.004406104329973459,0.7540867924690247,-0.0,-0.011212989687919617,0.7754243016242981,0.0,0.011835170909762383
422.0,377.0,0.6413,0.2824,9.417,-0.0353,0.0258,-0.1245,-1.528359805499651,0.0,1.8809905052185059,-1.9802476167678833,-0.0,2.052379608154297,4.941093760519781,0.0,0.284656822681427,-1.5898783842669886,0.0,-0.010725535452365875,0.7541598081588745,-0.0,-2.3214495740830898e-05,0.7753841876983643,0.0,0.008904626592993736
422.0,377.0,0.6413,0.2824,9.417,-0.0353,0.0258,-0.1245,-1.5283356432667752,0.0,1.8773210048675537,-1.980288028717041,-0.0,2.002115249633789,4.941081839590826,0.0,0.28076010942459106,-1.5898497740374964,0.0,-0.0018146797083318233,0.7541073560714722,-0.0,-0.006639841012656689,0.7754243016242981,0.0,0.006242536008358002
422.0,377.0,0.6413,0.2824,9.417,-0.0353,0.0258,-0.1245,-1.5283841167441388,0.0,1.9077731370925903,-1.9803085327148438,-0.0,2.018294334411621,4.941090035229482,0.0,0.283378541469574,-1.5898903051959437,0.0,-0.01469050720334053,0.7541069984436035,-0.0,-0.0061462135054171085,0.7753759622573853,0.0,-0.007576704025268555
422.0,377.0,0.6413,0.2824,9.417,-0.0353,0.0258,-0.1245,-1.5284082491746922,0.0,1.8625260591506958,-1.9802560806274414,-0.0,2.0884757041931152,4.941085907607832,0.0,0.2788015305995941,-1.5898578802691858,0.0,-0.011332958936691284,0.7541675567626953,-0.0,-0.008352874778211117,0.7754363417625427,0.0,0.026414934545755386
422.0,377.0,0.6413,0.2824,9.417,-0.0353,0.0258,-0.1245,-1.5284202706864853,0.0,1.9110143184661865,-1.9802560806274414,-0.0,2.0719666481018066,4.941090079932966,0.0,0.28014978766441345,-1.5898659865008753,0.0,-0.0056474176235497,0.7541110515594482,-0.0,0.009565260261297226,0.775408148765564,0.0,-0.04161807894706726
422.0,377.0,0.6413,0.2824,9.417,-0.0353,0.0258,-0.1245,-1.528359805499651,0.0,1.852067232131958,-1.9802848100662231,-0.0,2.069547176361084,4.941126468568601,0.0,0.2803105115890503,-1.5898330847369593,0.0,-0.0088350186124444,0.7540789842605591,-0.0,-0.005942114628851414,0.775408148765564,0.0,-0.02854117378592491
422.0,377.0,0.6413,0.2824,9.417,-0.0353,0.0258,-0.1245,-1.5283156161061306,0.0,1.8939599990844727,-1.9803167581558228,-0.0,2.0423130989074707,4.941074076085844,0.0,0.2744976878166199,-1.5898454825030726,0.0,-0.01443876139819622,0.7541106939315796,-0.0,-0.006291744764894247,0.7753759622573853,0.0,0.019814155995845795
422.0,377.0,0.6413,0.2824,9.417,-0.0353,0.0258,-0.1245,-1.5283556778780003,0.0,1.9091399908065796,-1.9802478551864624,-0.0,2.0784311294555664,4.941093760519781,0.0,0.29458388686180115,-1.589869801198141,0.0,-0.00758954556658864,0.7541393041610718,-0.0,-0.0089146438986063,0.7753718495368958,0.0,0.03417770937085152
422.0,377.0,0.6413,0.2824,9.417,-0.0353,0.0258,-0.1245,-1.5283638586154957,0.0,1.8816813230514526,-1.980288028717041,-0.0,2.0878148078918457,4.941106068878927,0.0,0.2958580255508423,-1.5898297468768519,0.0,-0.013363711535930634,0.7541110515594482,-0.0,-0.001041497103869915,0.7754003405570984,0.0,-0.038579728454351425
422.0,377.0,0.6413,0.2824,9.417,-0.0353,0.0258,-0.1245,-1.5283761632493515,0.0,1.865212321281433,-1.9802725315093994,-0.0,2.101820468902588,4.941101911454954,0.0,0.274681031703949,-1.5898740927325647,0.0,-0.005316799506545067,0.7540790438652039,-0.0,0.01793256215751171,0.7754122018814087,0.0,-0.02918948233127594
422.0,377.0,0.6413,0.2824,9.417,-0.0353,0.0258,-0.1245,-1.528351818477251,0.0,1.8997324705123901,-1.9802920818328857,-0.0,2.0202598571777344,4.941077786474981,0.0,0.28856953978538513,-1.5898702780352991,0.0,-0.019249562174081802,0.7540991306304932,-0.0,0.004680391866713762,0.775355875492096,0.0,-0.027431344613432884
422.0,377.0,0.6413,0.2824,9.417,-0.0353,0.0258,-0.1245,-1.5283275370350857,0.0,1.8710051774978638,-1.9802520275115967,-0.0,2.0848915576934814,4.941126468568601,0.0,0.282470166683197,-1.5898578802691858,0.0,-0.018207062035799026,0.7540708184242249,-0.0,0.0006030260119587183,0.7753719091415405,0.0,0.0034823287278413773
422.0,377.0,0.6413,0.2824,9.417,-0.0353,0.0258,-0.1245,-1.5283799928477784,0.0,1.8857656717300415,-1.9802643060684204,-0.0,2.054649591445923,4.941126468568601,0.0,0.26223039627075195,-1.5898740927325647,0.0,-0.0042504132725298405,0.7541393041610718,-0.0,0.0014300041366368532,0.77537602186203,0.0,0.0024032481014728546
422.0,377.0,0.6413,0.2824,9.417,-0.0353,0.0258,-0.1245,-1.5283436712673684,0.0,1.8909945487976074,-1.9802601337432861,-0.0,2.0848307609558105,4.941085877805509,0.0,0.29107338190078735,-1.5898664633380335,0.0,-0.0071564107201993465,0.7541393637657166,-0.0,0.003824390470981598,0.7754122018814087,0.0,-0.017679011449217796
422.0,377.0,0.6413,0.2824,9.417,-0.0353,0.0258,-0.1245,-1.5283436712673684,0.0,1.869150161743164,-1.9802920818328857,-0.0,2.055867910385132,4.941098215966978,0.0,0.2759020924568176,-1.5898740927325647,0.0,-0.017343800514936447,0.754155695438385,-0.0,0.009768597781658173,0.7754082083702087,0.0,-0.00860976055264473
406.0,409.0,0.5844,0.2381,9.4385,-0.0392,0.0254,-0.1174,-1.5283315901509305,0.0,1.8774693012237549,-1.980288028717041,-0.0,2.0747101306915283,4.941130536585607,0.0,0.2793431878089905,-1.5898903051959437,0.0,-0.01458669826388359,0.7541110515594482,-0.0,0.0037354326341301203,0.7754003405570984,0.0,-0.026752064004540443
406.0,409.0,0.5844,0.2381,9.4385,-0.0392,0.0254,-0.1174,-1.528408048009016,0.0,1.8659636974334717,-1.9802517890930176,-0.0,2.0482523441314697,4.941106068878927,0.0,0.28015249967575073,-1.589837376271383,0.0,-0.008733578026294708,0.7541552782058716,-0.0,-0.0044456953182816505,0.7753800749778748,0.0,-0.023412130773067474
406.0,409.0,0.5844,0.2381,9.4385,-0.0392,0.0254,-0.1174,-1.528400083338358,0.0,1.8694599866867065,-1.980288028717041,-0.0,2.0951435565948486,4.941101896553793,0.0,0.2869698405265808,-1.5898664633380335,0.0,-0.005385333672165871,0.7540987133979797,-0.0,0.00046608562115579844,0.7753599882125854,0.0,-0.005673053674399853
406.0,409.0,0.5844,0.2381,9.4385,-0.0392,0.0254,-0.1174,-1.5283679527095337,0.0,1.8723976612091064,-1.9802961349487305,-0.0,2.0309066772460938,4.941110136895933,0.0,0.28217846155166626,-1.5899022261248987,0.0,-0.007997091859579086,0.754115104675293,-0.0,-0.003856601659208536,0.7754003405570984,0.0,-0.02831842750310898
406.0,409.0,0.5844,0.2381,9.4385,-0.0392,0.0254,-0.1174,-1.5283840869418164,0.0,1.9089605808258057,-1.9802641868591309,-0.0,2.0833520889282227,4.941158461361685,0.0,0.27252453565597534,-1.5898821989642542,0.0,-0.00631541246548295,0.7541393041610718,-0.0,-0.002363713923841715,0.775408148765564,0.0,0.04526950418949127
406.0,409.0,0.5844,0.2381,9.4385,-0.0392,0.0254,-0.1174,-1.5283275929144402,0.0,1.9048532247543335,-1.9802920818328857,-0.0,2.084545612335205,4.941098230868139,0.0,0.28718191385269165,-1.5898821989642542,0.0,-0.012694845907390118,0.7541270852088928,-0.0,0.004060522653162479,0.7753883004188538,0.0,-0.013340082950890064
406.0,409.0,0.5844,0.2381,9.4385,-0.0392,0.0254,-0.1174,-1.528347724383213,1.7078729055985953e-11,1.8810659646987915,-1.9802725315093994,-0.0,2.056238889694214,4.941090065031805,2.277974076037026e-08,0.2844765782356262,-1.5898664633380335,0.0,-0.012494998052716255,0.7541229724884033,-0.0,-0.00571033451706171,0.775416374206543,0.0,0.019196726381778717
406.0,409.0,0.5844,0.2381,9.4385,-0.0392,0.0254,-0.1174,-1.5283761408976098,4.1243119462775553e-17,1.855825662612915,-1.9802725315093994,-0.0,2.0557827949523926,4.9410941181476495,6.3408236994355605e-12,0.28987303376197815,-1.5898335615741175,0.0,-0.012332959100604057,0.7541753649711609,-0.0,-0.0036525139585137367,0.7754003405570984,0.0,-0.010908182710409164
406.0,409.0,0.5844,0.2381,9.4385,-0.0392,0.0254,-0.1174,-1.5283356842449685,7.423617225681676e-21,1.9195353984832764,-1.9802560806274414,-0.0,2.0750553607940674,4.941110077291288,2.7031924875603464e-14,0.28893405199050903,-1.589914623891012,0.0,-0.010699944570660591,0.7541110515594482,-0.0,-0.010468178428709507,0.7754122614860535,0.0,0.041807256639003754
406.0,409.0,0.5844,0.2381,9.4385,-0.0392,0.0254,-0.1174,-1.5283720468035717,1.7927158353242996e-26,1.8401451110839844,-1.9802839756011963,-0.0,2.0122597217559814,4.941073688655653,7.524436034379428e-18,0.2872540056705475,-1.5898097197162073,0.0,-0.018780123442411423,0.7541027665138245,-0.0,-0.004665689542889595,0.7754040360450745,0.0,-0.03148680180311203
406.0,409.0,0.5844,0.2381,9.4385,-0.0392,0.0254,-0.1174,-1.5283397783390065,4.3291981695374567e-32,1.8715972900390625,-1.9802517890930176,-0.0,2.046535015106201,4.941134232073583,2.0944546324689026e-21,0.2815355658531189,-1.5898941198932093,0.0,-0.011042444966733456,0.7540831565856934,-0.0,-0.01133060734719038,0.7753400206565857,-1.6490016463421853e-08,-0.054314080625772476
406.0,409.0,0.5844,0.2381,9.4385,-0.0392,0.0254,-0.1174,-1.5283397783390065,1.04545049021663e-37,1.860522747039795,-1.9802519083023071,-0.0,2.0317609310150146,4.941150221019544,5.829990238374379e-25,0.2745418846607208,-1.589841667805807,0.0,-0.002843269845470786,0.7541233897209167,-0.0,-0.009367700666189194,0.7753921151161194,-3.9821448140917384e-14,-0.025506313890218735
406.0,409.0,0.5844,0.2381,9.4385,-0.0392,0.0254,-0.1174,-1.5283397783390065,2.5223372357846707e-43,1.9000403881072998,-1.9802354574203491,-0.0,2.092435121536255,4.941118228226461,1.6227995248672436e-28,0.2802734971046448,-1.5898621718036097,0.0,-0.007094109430909157,0.7541188597679138,-0.0,0.015719695016741753,0.7754003405570984,-9.616412121924805e-20,0.022739695385098457
406.0,409.0,0.5844,0.2381,9.4385,-0.0392,0.0254,-0.1174,-1.5283963282457371,0.0,1.8895961046218872,-1.9802601337432861,-0.0,2.051866292953491,4.941110077291288,6.918248809956607e-31,0.2832677960395813,-1.589825455342428,0.0,-0.020097386091947556,0.754135251045227,-0.0,-0.0018335964996367693,0.7753841876983643,-1.7309200181855735e-23,-0.008377747610211372
406.0,409.0,0.5844,0.2381,9.4385,-0.0392,0.0254,-0.1174,-1.5283600215664883,0.0,1.922788143157959,-1.980208396911621,-0.0,2.037546396255493,4.941118228226461,1.9257203298672552e-34,0.2745145261287689,-1.5898497740374964,0.0,-0.021941659972071648,0.7541233897209167,-0.0,0.000909223803319037,0.7753921747207642,-4.1799685363375727e-29,-0.02600798010826111
406.0,409.0,0.5844,0.2381,9.4385,-0.0392,0.0254,-0.1174,-1.5283315901509305,0.0,1.8908411264419556,-1.9802725315093994,-0.0,2.030287027359009,4.941110077291288,5.360313027022806e-38,0.275646835565567,-1.5898664633380335,0.0,-0.005628223996609449,0.7540749907493591,-0.0,-0.001958380686119199,0.775392472743988,-1.0094132998516663e-34,0.04719807952642441
402.0,400.0,0.5791,0.3182,9.4774,-0.0275,0.0221,-0.1185,-1.5283237819424649,0.0,1.8432308435440063,-1.9802725315093994,-0.0,2.0634703636169434,4.941142457514562,1.4921026048130652e-41,0.27782756090164185,-1.5898740927325647,0.0,-0.007275225594639778,0.7541511058807373,-0.0,0.004051361232995987,0.7753681540489197,-2.4376147306315923e-40,0.0046809036284685135
402.0,400.0,0.5791,0.3182,9.4774,-0.0275,0.0221,-0.1185,-1.5283799928477784,0.0,1.9007117748260498,-1.9802961349487305,-0.0,2.113718032836914,4.941110077291288,6.305843089461677e-44,0.2798496186733246,-1.5899065176593226,0.0,-0.01781272143125534,0.7541106939315796,-0.0,-0.0012597537133842707,0.7753276228904724,-4.344025239406933e-44,0.005157662555575371
402.0,400.0,0.5791,0.3182,9.4774,-0.0275,0.0221,-0.1185,-1.5283600066653271,0.0,1.899665117263794,-1.980279803276062,-0.0,2.0760090351104736,4.9410858927066705,0.0,0.2781057059764862,-1.5898540655719202,0.0,-0.011664068326354027,0.7541270852088928,-0.0,-0.0058553796261549,0.7754126191139221,0.0,-0.013053878210484982
402.0,400.0,0.5791,0.3182,9.4774,-0.0275,0.0221,-0.1185,-1.5283801940134545,0.0,1.8358345031738281,-1.980228066444397,-0.0,2.0708117485046387,4.9411142198141,4.619804531103e-05,0.2868075370788574,-1.5898578802691858,0.0,-0.019534006714820862,0.7541310787200928,-0.0,0.001249892171472311,0.7753841876983643,0.0,0.009335977956652641
402.0,400.0,0.5791,0.3182,9.4774,-0.0275,0.0221,-0.1185,-1.5283878196826954,0.0,1.909188985824585,-1.980224847793579,-0.0,2.0715792179107666,4.941118228226461,4.401512705953792e-05,0.2767656743526459,-1.5898860136615198,0.0,-0.01792013645172119,0.7541433572769165,-0.0,-0.014709366485476494,0.7754003405570984,-4.763185643241741e-05,-0.006445840001106262
402.0,400.0,0.5791,0.3182,9.4774,-0.0275,0.0221,-0.1185,-1.5283679527095337,4.012211138615385e-05,1.899519920349121,-1.9802848100662231,-0.0,2.05000638961792,4.941122385650434,4.1007100662682205e-05,0.27522096037864685,-1.5898821989642542,0.0,-0.013889082707464695,0.7541110515594482,-0.0,-0.010819198563694954,0.7753841876983643,-5.541771315620281e-05,-0.018578607589006424
402.0,400.0,0.5791,0.3182,9.4774,-0.0275,0.0221,-0.1185,-1.528395978068449,3.841189754894003e-05,1.8792953491210938,-1.9802764654159546,-0.0,2.054539680480957,4.941106068878927,3.922005998902023e-05,0.29226797819137573,-1.5898621718036097,0.0,-0.02059308812022209,0.7541274428367615,-0.0,-0.0021983888000249863,0.7753921151161194,-5.2203238738002256e-05,-0.019356492906808853
402.0,400.0,0.5791,0.3182,9.4774,-0.0275,0.0221,-0.1185,-1.5283518073013802,3.610074054449797e-05,1.906686782836914,-1.9802839756011963,-0.0,2.045379161834717,4.941118258028784,3.681358793983236e-05,0.28694048523902893,-1.589841667805807,0.0,-0.0253097303211689,0.7541229724884033,-0.0,-0.012293418869376183,0.7753924131393433,-4.8024754505604506e-05,-0.041357580572366714
402.0,400.0,0.5791,0.3182,9.4774,-0.0275,0.0221,-0.1185,-1.5283679527095337,3.40519763994962e-05,1.9175610542297363,-1.9802961349487305,-0.0,2.104602575302124,4.941101911454954,3.468538852757774e-05,0.27447420358657837,-1.5898783842669886,0.0,-0.008641407825052738,0.754115104675293,-0.0,0.008375688455998898,0.7753800749778748,-4.446563616511412e-05,-0.018227895721793175
402.0,400.0,0.5791,0.3182,9.4774,-0.0275,0.0221,-0.1185,-1.5283720579794426,3.2223186281044036e-05,1.8877596855163574,-1.9802848100662231,-0.0,2.0321691036224365,4.941101911454954,3.27898160321638e-05,0.28105396032333374,-1.5898454825030726,0.0,-0.014373723417520523,0.7541069984436035,-0.0,0.002322000917047262,0.7753718495368958,-4.1397670429432765e-05,0.012416934594511986
402.0,400.0,0.5791,0.3182,9.4774,-0.0275,0.0221,-0.1185,-1.5283558641425152,3.110938268946484e-05,1.9230440855026245,-1.9802929162979126,-0.0,2.0910394191741943,4.9411224005515955,4.337785139796324e-05,0.2844039499759674,-1.5898621718036097,0.0,0.0035708316136151552,0.754115104675293,-0.0,0.007125398144125938,0.7753800749778748,-3.957723674830049e-05,-0.040290411561727524
402.0,400.0,0.5791,0.3182,9.4774,-0.0275,0.0221,-0.1185,-1.5283881698599835,2.9575947337434627e-05,1.9128133058547974,-1.9802559614181519,-0.0,2.0595884323120117,4.9410858927066705,4.5077620598021895e-05,0.2820557951927185,-1.589893643056051,0.0,-0.009794387966394424,0.7541310787200928,-0.0,-0.003759785322472453,0.7753921151161194,-3.712816396728158e-05,-0.009775589220225811
402.0,400.0,0.5791,0.3182,9.4774,-0.0275,0.0221,-0.1185,-1.5283759397319336,2.818654502334539e-05,1.8852715492248535,-1.9803447723388672,-0.0,2.0625343322753906,4.941081839590826,4.292854282539338e-05,0.2746903598308563,-1.5898783842669886,0.0,-0.02687115967273712,0.7540426254272461,-0.0,0.006925069261342287,0.775364100933075,-3.496459612506442e-05,0.013908696360886097
402.0,400.0,0.5791,0.3182,9.4774,-0.0275,0.0221,-0.1185,-1.528351818477251,3.8811846025055274e-05,1.895524024963379,-1.980312705039978,-0.0,2.040672540664673,4.941150221019544,4.0974176954478025e-05,0.2788686752319336,-1.5898740927325647,0.0,-0.021994031965732574,0.7540749907493591,-0.0,-0.0016538482159376144,0.7754445672035217,-5.64791889701155e-06,0.0009153620339930058
402.0,400.0,0.5791,0.3182,9.4774,-0.0275,0.0221,-0.1185,-1.5283600141159077,3.864863174385391e-05,1.8961161375045776,-1.9802920818328857,-0.0,2.0712575912475586,4.941134246974745,4.889091360382736e-05,0.2788853049278259,-1.5898540655719202,0.0,-0.013342849910259247,0.7541229724884033,-0.0,-0.004140996374189854,0.7754283547401428,-1.3639060367220956e-11,-0.02162807434797287
402.0,400.0,0.5791,0.3182,9.4774,-0.0275,0.0221,-0.1185,-1.5283117418042202,5.0090529839508235e-05,1.9207584857940674,-1.9802395105361938,-0.0,2.0914249420166016,4.941130134254255,5.0764854677254334e-05,0.2858528196811676,-1.5898903051959437,0.0,-0.009236907586455345,0.7541393041610718,-0.0,-0.01053693424910307,0.7753800749778748,-2.454982696081451e-15,-4.0335580706596375e-06
399.0,401.0,0.801,0.1065,9.6748,-0.053,0.0203,-0.1177,-1.5283356618932267,8.268901729024947e-05,1.9121179580688477,-1.9803003072738647,-0.0,2.088198184967041,4.941093760519781,4.845939110964537e-05,0.28304794430732727,-1.5898740927325647,0.0,-0.005556631367653608,0.7541027665138245,-0.0,-0.013700088486075401,0.7754003405570984,-5.928493519150264e-21,0.0037122094072401524
399.0,401.0,0.801,0.1065,9.6748,-0.053,0.0203,-0.1177,-1.5283158098212262,0.00012676246115006506,1.8761131763458252,-1.9802476167678833,-0.0,2.02705454826355,4.9411621419484995,7.82774222898297e-05,0.2751721143722534,-1.5898578802691858,0.0,-0.0021558909211307764,0.7541593313217163,-0.0,0.0037525605875998735,0.7754322290420532,-1.431661594575629e-26,0.03440424054861069
399.0,401.0,0.801,0.1065,9.6748,-0.053,0.0203,-0.1177,-1.5283520345440884,0.0006458328571170568,1.8716535568237305,-1.9802920818328857,1.6173521411033676e-09,2.067220687866211,4.941154005914488,8.345480455318466e-05,0.27793821692466736,-1.5898740927325647,0.0,0.0014186749467626214,0.7541229724884033,-0.0,0.001590354135259986,0.775408148765564,-3.4572934549774627e-32,-0.06420837342739105
399.0,401.0,0.801,0.1065,9.6748,-0.053,0.0203,-0.1177,-1.5283319999328633,0.0005876145442016423,1.8827810287475586,-1.9802558422088623,2.9111766166114994e-13,2.020639419555664,4.941101792245664,8.956424426287413e-05,0.2704489529132843,-1.5898540655719202,0.0,-0.007265223190188408,0.7541470527648926,-0.0,0.004514977335929871,0.7754163146018982,-6.223006395729948e-36,0.016161324456334114
399.0,401.0,0.801,0.1065,9.6748,-0.053,0.0203,-0.1177,-1.5283479628017922,0.00047771306708455086,1.8496994972229004,-1.9802683591842651,7.030149606457421e-19,2.0737199783325195,4.941118228226461,9.348303137812763e-05,0.2932804226875305,-1.589893643056051,0.0,-0.004711288958787918,0.754147469997406,-0.0,-0.004758649971336126,0.775399923324585,-1.5027524731419338e-41,0.005223428830504417
399.0,401.0,0.801,0.1065,9.6748,-0.053,0.0203,-0.1177,-1.5283199113658448,0.0003891650412697345,1.8718708753585815,-1.9802848100662231,1.6976984822257295e-24,2.0513062477111816,4.941114145308294,8.800114301266149e-05,0.272272527217865,-1.589897934590475,0.0,-0.016969017684459686,0.7541311383247375,-0.0,0.004640410654246807,0.7753921747207642,-0.0,-0.014337067492306232
399.0,401.0,0.801,0.1065,9.6748,-0.053,0.0203,-0.1177,-1.5283722554198285,0.00032831469434313476,1.9089610576629639,-1.9802724123001099,4.099742495102992e-30,2.092238187789917,4.941093760519781,8.312433055834845e-05,0.28033703565597534,-1.5899103323565882,0.0,-0.016969922930002213,0.7541106343269348,-0.0,0.003483081003651023,0.775408148765564,0.0,-0.03362634778022766
399.0,401.0,0.801,0.1065,9.6748,-0.053,0.0203,-0.1177,-1.528323770766594,0.00028392227250151336,1.8659651279449463,-1.9802601337432861,9.900396692328802e-36,2.009615182876587,4.941114145308294,7.875969458837062e-05,0.2703995406627655,-1.5898740927325647,0.0,0.0011291464325040579,0.7541031837463379,-0.0,-0.0028109638951718807,0.775408148765564,9.375035733683035e-05,-0.01000528410077095
399.0,401.0,0.801,0.1065,9.6748,-0.053,0.0203,-0.1177,-1.5283117418042202,0.0002604451437946409,1.9163627624511719,-1.9803375005722046,1.7820368622757272e-39,2.0059728622436523,4.941157984524526,6.100909013184719e-05,0.2896670401096344,-1.5898054281817835,0.0,-0.007028656546026468,0.7541192173957825,-0.0,-0.0022887056693434715,0.775408148765564,8.512436761520803e-05,0.014019640162587166
399.0,401.0,0.801,0.1065,9.6748,-0.053,0.0203,-0.1177,-1.5283559460989018,0.00023248748038895428,1.913910150527954,-1.9802560806274414,4.203895392974451e-45,2.0595734119415283,4.941106068878927,5.7937581004807726e-05,0.27984124422073364,-1.5898740927325647,0.0,0.006610522978007793,0.7541877627372742,-0.0,0.010197175666689873,0.7754243016242981,7.454734441125765e-05,0.028965149074792862
399.0,401.0,0.801,0.1065,9.6748,-0.053,0.0203,-0.1177,-1.5283357177725811,4.2205378122162074e-05,1.868591070175171,-1.9802519083023071,-0.0,2.0520741939544678,4.941101911454954,6.098947415011935e-05,0.2931217551231384,-1.5898497740374964,0.0,-0.010331129655241966,0.7540987133979797,-0.0,0.01256529800593853,0.7754442691802979,6.630822463193908e-05,0.02600005269050598
399.0,401.0,0.801,0.1065,9.6748,-0.053,0.0203,-0.1177,-1.5283960227719326,6.530464169429706e-09,1.8751559257507324,-1.9802961349487305,-0.0,2.0813140869140625,4.941074046283521,5.556655742111616e-05,0.2812812328338623,-1.5898297468768519,0.0,-0.005947070196270943,0.7541593909263611,-0.0,-0.0009483664180152118,0.7753640413284302,2.9903481845394708e-05,0.023388778790831566
399.0,401.0,0.801,0.1065,9.6748,-0.053,0.0203,-0.1177,-1.5283638586154957,1.1754605535457818e-12,1.8890972137451172,-1.980288028717041,-0.0,2.0593128204345703,4.941074046283521,2.6286046704626642e-05,0.28544604778289795,-1.5898783842669886,0.0,-0.016997262835502625,0.7541593313217163,-0.0,-0.005086778663098812,0.7754163146018982,2.79972064163303e-05,-0.007658015936613083
399.0,401.0,0.801,0.1065,9.6748,-0.053,0.0203,-0.1177,-1.5283759285560627,-0.0009355641668662429,1.9081804752349854,-1.980288028717041,-0.0,2.0429601669311523,4.941082227021017,2.8129937490461998e-08,0.28987419605255127,-1.5898702780352991,0.0,-0.011859206482768059,0.754118800163269,-0.0,-0.005325119476765394,0.7754122018814087,4.156769506380442e-08,-0.01591673120856285
399.0,401.0,0.801,0.1065,9.6748,-0.053,0.0203,-0.1177,-1.528395840232708,-0.001173844444565475,1.887716293334961,-1.9802961349487305,-0.0,2.111196517944336,4.941102403193273,7.83007079313558e-12,0.27947041392326355,-1.589837376271383,0.0,-0.004442677367478609,0.754127025604248,-0.0,-0.0018554199486970901,0.7754003405570984,1.0038110208505924e-13,-0.02237047627568245
399.0,401.0,0.801,0.1065,9.6748,-0.053,0.0203,-0.1177,-1.5284279149821778,-0.0018455693498253822,1.8233349323272705,-1.980228066444397,-0.0,2.080683946609497,4.9410700527723215,2.17952906394201e-15,0.2831616699695587,-1.5898454825030726,0.0,-0.00740765081718564,0.7541511058807373,-0.0,-0.0062551349401474,0.7754201889038086,2.4240856138172083e-19,0.020774347707629204
399.0,401.0,0.801,0.1065,9.6748,-0.053,0.0203,-0.1177,-1.5284036931446572,-0.0024100777227431536,1.8706026077270508,-1.9802724123001099,-0.0,2.068331480026245,4.94105817654685,6.066800072429562e-19,0.2730811834335327,-1.5898621718036097,0.0,-0.008770914748311043,0.7541713118553162,-0.0,0.004957631230354309,0.7754003405570984,5.853881383927063e-25,-0.03577649965882301
389.0,401.0,0.3655,0.1543,9.6993,-0.0342,0.0089,-0.1206,-1.5284678053906937,-0.002226421842351556,1.8752214908599854,-1.9802848100662231,-0.0,2.079763650894165,4.941098230868139,2.5863720361191908e-21,0.28480252623558044,-1.5898783842669886,0.0,-0.0071187736466526985,0.7541024684906006,-0.0,0.0033414047211408615,0.7754283547401428,1.0536778373923365e-28,0.06256785243749619
389.0,401.0,0.3655,0.1543,9.6993,-0.0342,0.0089,-0.1206,-1.5284877580455323,-0.0018476588884368539,1.8887851238250732,-1.9802961349487305,-0.0,2.0270004272460938,4.9410418448741815,7.19926147106854e-25,0.28249821066856384,-1.5898702780352991,0.0,-0.011513547040522099,0.754127025604248,-0.0,0.005656715482473373,0.7753921747207642,2.5445081325685404e-34,-0.006454453803598881
389.0,401.0,0.3655,0.1543,9.6993,-0.0342,0.0089,-0.1206,-1.528536432688572,-0.0014104541623964906,1.8773267269134521,-1.9802888631820679,-0.0,2.0510125160217285,4.941049906402387,2.003940699749613e-28,0.28590312600135803,-1.589898411427633,0.0,-0.0014908704906702042,0.7540626525878906,-0.0,-0.006928768940269947,0.7753841876983643,6.144693766064323e-40,-0.012481833808124065
389.0,401.0,0.3655,0.1543,9.6993,-0.0342,0.0089,-0.1206,-1.5285360191813488,-0.0011691622203215957,1.826442837715149,-1.9803249835968018,-0.0,2.061514377593994,4.941098201065817,5.578042192356704e-32,0.27846774458885193,-1.5898497740374964,0.0,-0.0035828780382871628,0.7541269659996033,-0.0,-0.0013957151677459478,0.7754040360450745,1.401298464324817e-45,0.00882150512188673
389.0,401.0,0.3655,0.1543,9.6993,-0.0342,0.0089,-0.1206,-1.5285200414112587,-0.0010015064617618918,1.8502142429351807,-1.9802601337432861,-0.0,2.0629029273986816,4.941070097475805,2.3780069342029964e-34,0.26146435737609863,-1.5898297468768519,0.0,-0.016105515882372856,0.7541393041610718,-0.0,-0.0013339073630049825,0.7754201889038086,0.0,0.05301990360021591
389.0,401.0,0.3655,0.1543,9.6993,-0.0342,0.0089,-0.1206,-1.5284916286221524,-0.0008544739102944732,1.7748444080352783,-1.9802839756011963,1.5770829122629948e-05,2.0407326221466064,4.941070082574644,6.619269274899666e-38,0.2631465196609497,-1.5898664633380335,0.0,-0.016807828098535538,0.754131019115448,-0.0,-5.4863980039954185e-05,0.775408148765564,0.0,0.09858773648738861
389.0,401.0,0.3655,0.1543,9.6993,-0.0342,0.0089,-0.1206,-1.5284836900285264,-0.0006499680457636714,1.879404067993164,-1.9802724123001099,1.4990840099926572e-05,2.067382335662842,4.941085922508993,1.842567350740702e-41,0.2641800045967102,-1.5898497740374964,0.0,-0.018524037674069405,0.7541670799255371,-0.0,0.006062840577214956,0.775399923324585,0.0,0.0688461884856224
389.0,401.0,0.3655,0.1543,9.6993,-0.0342,0.0089,-0.1206,-1.5284997832826157,-0.0006639824132435024,1.816741943359375,-1.9803004264831543,1.4277425179898273e-05,2.035472869873047,4.941069918661871,5.605193857299268e-45,0.2686366140842438,-1.5898497740374964,0.0,-0.030335228890180588,0.7541269659996033,-0.0,0.004569466691464186,0.7753840088844299,0.0,0.13152998685836792
389.0,401.0,0.3655,0.1543,9.6993,-0.0342,0.0089,-0.1206,-1.5285480071655293,-0.0009690611041150987,1.7877147197723389,-1.980279803276062,1.3838362065143883e-05,2.0329504013061523,4.941070097475805,-8.414863987127319e-05,0.2662332057952881,-1.5898497740374964,0.0,-0.01933196932077408,0.754102349281311,-0.0,0.009765041060745716,0.7754525542259216,0.0,0.14993087947368622
389.0,401.0,0.3655,0.1543,9.6993,-0.0342,0.0089,-0.1206,-1.5285398860326787,-0.0018998915329575539,1.7938052415847778,-1.9802683591842651,2.644919186423067e-05,2.061617374420166,4.941058146744528,-0.0001682828296907246,0.2629278600215912,-1.5898821989642542,0.0,-0.0334540493786335,0.7541429400444031,-0.0,0.00284928479231894,0.7754322290420532,0.0,0.16257940232753754
389.0,401.0,0.3655,0.1543,9.6993,-0.0342,0.0089,-0.1206,-1.528519519870617,-0.003241743892431259,1.7747998237609863,-1.9802641868591309,2.5339095373055898e-05,2.0526201725006104,4.941026153951444,-0.00020629986829590052,0.24581672251224518,-1.5898578802691858,0.0,-0.03923727571964264,0.7541670799255371,-0.0,0.000691467896103859,0.7754163146018982,0.0,0.15111427009105682
389.0,401.0,0.3655,0.1543,9.6993,-0.0342,0.0089,-0.1206,-1.5285795007697125,-0.005920277442783117,1.6937487125396729,-1.9802683591842651,2.4312355890288018e-05,2.0860097408294678,4.941058131843366,-0.0006130487308837473,0.24888131022453308,-1.5898540655719202,0.0,-0.031072061508893967,0.7541753053665161,-6.108384695835412e-07,-0.010523630306124687,0.775440514087677,0.0006127122906036675,0.2033577561378479
389.0,401.0,0.3655,0.1543,9.6993,-0.0342,0.0089,-0.1206,-1.528603510265686,-0.008944490924477577,1.6778292655944824,-1.9802393913269043,2.3365595552604645e-05,2.0677714347839355,4.941033887654104,-0.000524224538821727,0.2507628798484802,-1.5898421446429651,0.0,-0.051921457052230835,0.7541466355323792,-1.7002914354247167e-10,0.013721339404582977,0.775424063205719,0.0006790337502025068,0.2531666159629822
389.0,401.0,0.3655,0.1543,9.6993,-0.0342,0.0089,-0.1206,-1.528699954306223,-0.011768847703933716,1.6630849838256836,-1.9802476167678833,2.2774347598897293e-05,2.1072206497192383,4.941030207067289,-0.0006195151945576072,0.2523835301399231,-1.5898140112506312,0.0,-0.03670567274093628,0.7541670799255371,-7.248609807004869e-13,0.00012434384552761912,0.7753916382789612,0.0008652678807266057,0.19589436054229736
389.0,401.0,0.3655,0.1543,9.6993,-0.0342,0.0089,-0.1206,-1.5288002167693158,-0.01662958413362503,1.5889537334442139,-1.9802725315093994,2.1941528757452033e-05,2.061678647994995,4.941038477211752,-0.0018501745071262121,0.23748411238193512,-1.5898016134845179,0.0,-0.037856027483940125,0.7542031407356262,-2.0176769495894743e-16,-0.0010392004624009132,0.7754364013671875,0.0007119242218323052,0.2456241399049759
389.0,401.0,0.3655,0.1543,9.6993,-0.0342,0.0089,-0.1206,-1.528915663515665,-0.022377099841833115,1.5750765800476074,-1.9803414344787598,2.1167463273741305e-05,2.038280487060547,4.9410064844186685,-0.0016687579918652773,0.2237926721572876,-1.5898097197162073,0.0,-0.04194674640893936,0.7541187405586243,-5.616277832013175e-20,0.0006479346193373203,0.7754363417625427,0.0005316244205459952,0.24896886944770813
404.0,384.0,0.1771,0.1531,9.5791,-0.0541,0.0295,-0.1092,-1.5290069368532677,-0.027478935196995735,1.5355234146118164,-1.9802724123001099,3.970133911934681e-05,2.077484369277954,4.9410466132457636,-0.0012815804220736027,0.21838818490505219,-1.5898335615741175,0.0,-0.029949836432933807,0.7542232871055603,-1.5633115305141703e-23,0.02745714783668518,0.7754445672035217,0.00042420573299750686,0.25518178939819336
404.0,384.0,0.1771,0.1531,9.5791,-0.0541,0.0295,-0.1092,-1.5291917000762005,-0.032112956047058105,1.5081090927124023,-1.9802519083023071,0.00012668802810367197,2.0513253211975098,4.940978529840269,-0.001115504652261734,0.22479310631752014,-1.5898259321795862,0.0,-0.027839159592986107,0.7541753053665161,-6.664642670250724e-26,-0.005853571463376284,0.775444507598877,0.0003773012140300125,0.23809313774108887
404.0,384.0,0.1771,0.1531,9.5791,-0.0541,0.0295,-0.1092,-1.5294235360673447,-0.03881346806883812,1.4680521488189697,-1.9802206754684448,0.00018355388601776212,2.0857434272766113,4.940970289498129,-0.002099474659189582,0.2048078030347824,-1.5898459593402308,0.0,-0.048449136316776276,0.7541713118553162,-1.8551277943434232e-29,0.021593960002064705,0.7754283547401428,8.100344712147489e-05,0.2517014145851135
404.0,384.0,0.1771,0.1531,9.5791,-0.0541,0.0295,-0.1092,-1.5296630051783104,-0.045372895896434784,1.4223251342773438,-1.980224847793579,0.0008099587867036462,2.087127923965454,4.940942439227857,-0.0035633090883493423,0.19174128770828247,-1.5897977987872522,-7.311824479216966e-09,-0.028223615139722824,0.754122793674469,-5.163816276757765e-33,0.011882610619068146,0.7754240036010742,5.012269321014173e-05,0.2710393965244293
404.0,384.0,0.1771,0.1531,9.5791,-0.0541,0.0295,-0.1092,-1.529958603238203,-0.05254688858985901,1.3487143516540527,-1.9802082777023315,0.0011013189796358347,2.0864877700805664,4.940890344768324,-0.006568627897650003,0.19088220596313477,-1.5897696653949183,-2.0352732086476033e-12,-0.015859171748161316,0.7541995048522949,-1.4373675729056819e-36,0.013638189062476158,0.775408148765564,1.7555440763317165e-06,0.22073853015899658
404.0,384.0,0.1771,0.1531,9.5791,-0.0541,0.0295,-0.1092,-1.5303183768740674,-0.061260174959897995,1.278090238571167,-1.9802721738815308,0.0014225805643945932,2.0885391235351562,4.940931054740705,-0.011815176345407963,0.17083963751792908,-1.589785401021139,-5.665257047933036e-16,-0.027923159301280975,0.7541347146034241,-4.000959349370931e-40,0.02350390888750553,0.7754363417625427,4.239432589703274e-12,0.2457941770553589
404.0,384.0,0.1771,0.1531,9.5791,-0.0541,0.0295,-0.1092,-1.5305746805718918,-0.06398996710777283,1.3086737394332886,-1.9802485704421997,0.0016217069933190942,2.1095998287200928,4.940842601447859,-0.013862689957022667,0.16905781626701355,-1.5897696653949183,-2.41518809725707e-18,-0.01662823185324669,0.7541753053665161,-1.7053802310833024e-42,0.019992366433143616,0.7754363417625427,7.63082823637657e-16,0.2594262361526489
404.0,384.0,0.1771,0.1531,9.5791,-0.0541,0.0295,-0.1092,-1.5310544160059472,-0.07170020788908005,1.2459163665771484,-1.9802165031433105,0.0018277291674166918,2.1058883666992188,4.940742838173666,-0.01570211537182331,0.1664840281009674,-1.5898063818561,0.0004277164407540113,-0.011487053707242012,0.7541994452476501,-0.0,0.015448995865881443,0.77537602186203,1.842754840789275e-21,0.28635191917419434
404.0,384.0,0.1771,0.1531,9.5791,-0.0541,0.0295,-0.1092,-1.5315580044737835,-0.07740409672260284,1.2307584285736084,-1.9802247285842896,0.0018112423131242394,2.107626438140869,4.9406150607164285,-0.01928901858627796,0.15947438776493073,-1.5897696653949183,0.000458013906609267,-0.01644008979201317,0.7541589736938477,-0.0,0.01214661542326212,0.7754160761833191,4.4500367813176366e-27,0.2772230803966522
404.0,384.0,0.1771,0.1531,9.5791,-0.0541,0.0295,-0.1092,-1.5320333254388352,-0.08415915817022324,1.1596221923828125,-1.9802124500274658,0.001470929360948503,2.047544002532959,4.940507653146543,-0.0254822950810194,0.13905376195907593,-1.5897820631610315,0.0006074609118513763,-0.00988679938018322,0.7541671395301819,-0.0,0.0008670936804264784,0.7754764556884766,1.0746314988603627e-32,0.24914580583572388
404.0,384.0,0.1771,0.1531,9.5791,-0.0541,0.0295,-0.1092,-1.5324050572565575,-0.09042023867368698,1.1437381505966187,-1.9801762104034424,0.00127314159180969,2.1361851692199707,4.940392020135679,-0.033825114369392395,0.13404032588005066,-1.5897858778582972,0.000578725419472903,-0.007418082095682621,0.7541670799255371,-0.0,0.01829082891345024,0.7754040360450745,1.934298769659151e-36,0.24858716130256653
404.0,384.0,0.1771,0.1531,9.5791,-0.0541,0.0295,-0.1092,-1.5330182251385231,-0.10287220776081085,1.0907981395721436,-1.9801647663116455,0.0008710091933608055,2.131579875946045,4.9400759665067575,-0.057393431663513184,0.11371340602636337,-1.5897463003741663,0.000529274286236614,0.00997992791235447,0.7541995048522949,-0.0,0.01957567036151886,0.775363564491272,4.670527781594615e-42,0.26211631298065186
404.0,384.0,0.1771,0.1531,9.5791,-0.0541,0.0295,-0.1092,-1.533644126062729,-0.1187608614563942,1.0304299592971802,-1.9801967144012451,0.0008821479277685285,2.070753812789917,4.939684557705679,-0.09176560491323471,0.10321474075317383,-1.5897133986102503,0.00045676418812945485,-0.0009238035418093204,0.7541507482528687,-0.0,0.007731186226010323,0.7754160761833191,0.0,0.20657595992088318
404.0,384.0,0.1771,0.1531,9.5791,-0.0541,0.0295,-0.1092,-1.534367361371853,-0.1343580186367035,1.0443758964538574,-1.9801729917526245,0.003952216822654009,2.0842013359069824,4.939042511373319,-0.12484169751405716,0.0643715113401413,-1.589773956929342,0.0004199853865429759,0.008896997198462486,0.7541187405586243,-0.0,0.014181526377797127,0.7753998637199402,0.0,0.24637675285339355
404.0,384.0,0.1771,0.1531,9.5791,-0.0541,0.0295,-0.1092,-1.5352511045387764,-0.14605048298835754,1.0239403247833252,-1.9801087379455566,0.008399395272135735,2.0777292251586914,4.938249501376905,-0.13398705422878265,0.0659886971116066,-1.5897701422320765,0.00039335156907327473,0.00946765299886465,0.7541351914405823,-0.0,0.010396457277238369,0.7754566073417664,0.0,0.19565801322460175
404.0,384.0,0.1771,0.1531,9.5791,-0.0541,0.0295,-0.1092,-1.5358344738236447,-0.15180575847625732,1.0108411312103271,-1.9801045656204224,0.010631981305778027,2.095551013946533,4.937743726163664,-0.1323501467704773,0.06440739333629608,-1.5897133986102503,0.00039637612644582987,0.013635806739330292,0.7542150616645813,-0.0,0.004050657618790865,0.7753998637199402,0.0,0.22874200344085693
404.0,384.0,0.1771,0.1531,9.5791,-0.0541,0.0295,-0.1092,-1.5367817182889958,-0.1552424430847168,1.0225770473480225,-1.979987621307373,0.012216897681355476,2.0946195125579834,4.936930182367124,-0.12414240837097168,0.06684289872646332,-1.5897615591632288,0.0003451774246059358,0.0026889191940426826,0.7541306614875793,-0.0,0.015093166381120682,0.7754727005958557,0.0,0.19579964876174927
407.0,393.0,-1.812,0.0891,8.7003,-0.0307,-0.0991,-0.1008,-1.5377662156573315,-0.16020512580871582,0.9605322480201721,-1.979952335357666,0.01179908961057663,2.1152782440185547,4.936129528075018,-0.138697549700737,0.06623848527669907,-1.589721981679098,0.00030176667496562004,0.014010914601385593,0.7542113661766052,-0.0,0.00851390976458788,0.7754281163215637,0.0,0.19441348314285278
407.0,393.0,-1.812,0.0891,8.7003,-0.0307,-0.0991,-0.1008,-1.538833887582161,-0.17416508495807648,0.9742513298988342,-1.979856252670288,0.010334476828575134,2.128155469894409,4.935116696148672,-0.1745418906211853,0.03396773338317871,-1.589773956929342,0.00026805614470504224,0.019717741757631302,0.7542073130607605,-0.0,0.0053826854564249516,0.7754401564598083,0.0,0.2367212474346161
407.0,393.0,-1.812,0.0891,8.7003,-0.0307,-0.0991,-0.1008,-1.5395652756891032,-0.18758852779865265,0.9618668556213379,-1.9798684120178223,0.008666119538247585,2.109649181365967,4.93435979166583,-0.19190900027751923,0.026580892503261566,-1.589773956929342,0.0002112460497301072,0.02406701073050499,0.7541589736938477,-0.0,0.0146464379504323,0.7753958106040955,0.0,0.18457874655723572
407.0,393.0,-1.812,0.0891,8.7003,-0.0307,-0.0991,-0.1008,-1.5407466136715193,-0.21132364869117737,0.8987360000610352,-1.979844570159912,0.007148177828639746,2.1208713054656982,4.9331723032291315,-0.20912820100784302,0.030223393812775612,-1.5897415320025843,0.00018078210996463895,0.01634715124964714,0.7541994452476501,-0.0,0.003935599699616432,0.7754524946212769,0.0,0.21303138136863708
407.0,393.0,-1.812,0.0891,8.7003,-0.0307,-0.0991,-0.1008,-1.5419324201396485,-0.22261787950992584,0.8805923461914062,-1.9797648191452026,0.007315135095268488,2.0498218536376953,4.931781220227041,-0.25524473190307617,0.0015075068222358823,-1.589733902608053,0.00016133341705426574,0.019622769206762314,0.7541466355323792,-0.0,0.0099708903580904,0.7754199504852295,0.0,0.18157470226287842
407.0,393.0,-1.812,0.0891,8.7003,-0.0307,-0.0991,-0.1008,-1.543228055616357,-0.219702810049057,0.9375996589660645,-1.9796849489212036,0.012547686696052551,2.091597080230713,4.930178302317419,-0.2659759819507599,0.0036910567432641983,-1.589733902608053,0.0001456641184631735,0.0003620428033173084,0.7542073130607605,-0.0,0.01988258585333824,0.7754483819007874,0.0,0.1786162257194519
407.0,393.0,-1.812,0.0891,8.7003,-0.0307,-0.0991,-0.1008,-1.544523413558938,-0.220451220870018,0.9414746761322021,-1.9795647859573364,0.018358267843723297,2.1064658164978027,4.928577008634367,-0.27936291694641113,-0.02348428964614868,-1.5897658506976526,0.00013276968093123287,0.003572271205484867,0.7542073130607605,-0.0,0.009282478131353855,0.7754119634628296,0.0,0.20113630592823029
407.0,393.0,-1.812,0.0891,8.7003,-0.0307,-0.0991,-0.1008,-1.545476996605732,-0.22685571014881134,0.9569939374923706,-1.9795286655426025,0.02073911391198635,2.102050542831421,4.927324282913961,-0.2871530055999756,-0.02304690331220627,-1.5897415320025843,0.00012537112343125045,0.018754590302705765,0.7541953921318054,-0.0,0.015756316483020782,0.7754243016242981,0.0,0.2023630142211914
407.0,393.0,-1.812,0.0891,8.7003,-0.0307,-0.0991,-0.1008,-1.5469973155162116,-0.24189503490924835,0.9226497411727905,-1.979404330253601,0.0223933644592762,2.0955963134765625,4.925627681403913,-0.3014245927333832,-0.021327877417206764,-1.5898101965533655,0.0001157001024694182,0.02252037636935711,0.7541589736938477,-0.0,0.0046369899064302444,0.7754479050636292,0.0,0.2068418264389038
407.0,393.0,-1.812,0.0891,8.7003,-0.0307,-0.0991,-0.1008,-1.548430511062481,-0.25911208987236023,0.9596632122993469,-1.9792572259902954,0.019628936424851418,2.0776381492614746,4.923665988236227,-0.3298405706882477,-0.02945396862924099,-1.5897939840899866,0.00010741444566519931,0.012429378926753998,0.7541830539703369,-0.0,0.008752679452300072,0.7754886746406555,0.0,0.18348349630832672
407.0,393.0,-1.812,0.0891,8.7003,-0.0307,-0.0991,-0.1008,-1.5500579842231055,-0.2765531539916992,0.9353426694869995,-1.9791691303253174,0.020561853423714638,2.1108968257904053,4.921598034888067,-0.3525577187538147,-0.03176022693514824,-1.5897415320025843,0.0001002362187136896,0.002630047034472227,0.7541670203208923,-0.0,0.03107912838459015,0.7753998637199402,0.00030695635359734297,0.18318653106689453
407.0,393.0,-1.812,0.0891,8.7003,-0.0307,-0.0991,-0.1008,-1.5511131056449194,-0.2844142019748688,0.933646559715271,-1.979068636894226,0.02264704741537571,2.1325249671936035,4.920150849014082,-0.36145949363708496,-0.03623965382575989,-1.5897820631610315,9.596109885023907e-05,0.002918631536886096,0.7542150616645813,-0.0,0.01962084136903286,0.7753998637199402,0.00011912758054677397,0.2365601807832718
407.0,393.0,-1.812,0.0891,8.7003,-0.0307,-0.0991,-0.1008,-1.5528204825571557,-0.284923255443573,0.9291601181030273,-1.9788490533828735,0.02607540413737297,2.1557047367095947,4.918010714441099,-0.3796687424182892,-0.05374671891331673,-1.5898101965533655,9.019100980367512e-05,-0.0008834563195705414,0.7542031407356262,1.8795521100400947e-05,0.01769317127764225,0.7754322290420532,2.2499713203671945e-09,0.20024245977401733
407.0,393.0,-1.812,0.0891,8.7003,-0.0307,-0.0991,-0.1008,-1.5545751892826338,-0.28985512256622314,0.9751038551330566,-1.9787131547927856,0.03151894733309746,2.1464896202087402,4.915699827461996,-0.37948212027549744,-0.043636638671159744,-1.5897777716266077,8.507550228387117e-05,0.0017247037030756474,0.7541950345039368,4.0618535422254354e-05,0.01853819563984871,0.7754322290420532,5.4334156599400614e-15,0.22886276245117188
407.0,393.0,-1.812,0.0891,8.7003,-0.0307,-0.0991,-0.1008,-1.5563130278936406,-0.29627880454063416,0.9814184904098511,-1.9785536527633667,0.03581295907497406,2.1265830993652344,4.913416254311361,-0.3947352468967438,-0.04469247907400131,-1.5897820631610315,8.050922042457387e-05,0.002608379814773798,0.7541630268096924,3.804907464655116e-05,0.016539741307497025,0.7754122018814087,1.3121061185949337e-20,0.16879120469093323
407.0,393.0,-1.812,0.0891,8.7003,-0.0307,-0.0991,-0.1008,-1.5581993770650406,-0.2979949712753296,1.0124993324279785,-1.9782614707946777,0.03930939361453056,2.1575121879577637,4.9109685001666925,-0.4115845263004303,-0.03981347009539604,-1.5897496382342737,7.640809053555131e-05,-0.008899087086319923,0.7541511058807373,3.578003088477999e-05,0.026735378429293633,0.7754643559455872,3.1685821608902614e-26,0.2200644314289093
412.0,455.0,-0.4618,0.3099,8.4365,-0.0003,-0.608,-0.1368,-1.5594907843372603,-0.3070099651813507,1.0301480293273926,-1.9781609773635864,0.0415203720331192,2.117617607116699,4.909390377789297,-0.40959808230400085,-0.04648216441273689,-1.5897734800921839,5.937161040492356e-05,0.002891227137297392,0.7541269659996033,3.44118925568182e-05,0.022440295666456223,0.7754281163215637,5.703336089850681e-30,0.16637971997261047
412.0,455.0,-0.4618,0.3099,8.4365,-0.0003,-0.608,-0.1368,-1.5613967276043077,-0.3243023753166199,1.0640217065811157,-1.9779216051101685,0.04050955921411514,2.1397314071655273,4.906924161105909,-0.4173184335231781,-0.04442795738577843,-1.5897939840899866,5.634309854940511e-05,0.005422447808086872,0.7541671395301819,3.25452747347299e-05,0.018705034628510475,0.7754363417625427,1.3772886478261613e-35,0.19870541989803314
412.0,455.0,-0.4618,0.3099,8.4365,-0.0003,-0.608,-0.1368,-1.5633626657402893,-0.3311542868614197,1.125048279762268,-1.9776296615600586,0.03925339877605438,2.1390018463134766,4.904414015799322,-0.4215758442878723,-0.03408137336373329,-1.5897820631610315,5.381621667766012e-05,0.01069366093724966,0.7541347146034241,3.0870727641740814e-05,0.016433298587799072,0.775399923324585,3.3259819050749533e-41,0.2220725417137146
412.0,455.0,-0.4618,0.3099,8.4365,-0.0003,-0.608,-0.1368,-1.5653974193013092,-0.3357163667678833,1.125521183013916,-1.977433681488037,0.036860160529613495,2.074490547180176,4.901839452772894,-0.4210977852344513,-0.029098134487867355,-1.5897734800921839,5.150629658601247e-05,-0.0017543020658195019,0.7541629672050476,1.8461998479324393e-05,0.013971993699669838,0.7754201889038086,0.0,0.2100953459739685
412.0,455.0,-0.4618,0.3099,8.4365,-0.0003,-0.608,-0.1368,-1.5667119936882337,-0.34194594621658325,1.0559154748916626,-1.9772700071334839,0.035667628049850464,2.102457284927368,4.900132956891813,-0.4268713593482971,-0.03669369965791702,-1.5897777716266077,5.0073467718902975e-05,-0.020030643790960312,0.7542073726654053,1.4232395187718794e-05,0.011336715891957283,0.7754726409912109,0.0,0.19066157937049866
412.0,455.0,-0.4618,0.3099,8.4365,-0.0003,-0.608,-0.1368,-1.5687748273233701,-0.3391737937927246,1.1327974796295166,-1.977054476737976,0.03408549726009369,2.0785980224609375,4.8975712833698175,-0.4222829043865204,-0.026449143886566162,-1.5897820631610315,4.806771539733745e-05,-0.023456275463104248,0.7541711330413818,1.3573087016993668e-05,0.008635098114609718,0.7754160165786743,0.0,0.1913941502571106
412.0,455.0,-0.4618,0.3099,8.4365,-0.0003,-0.608,-0.1368,-1.5708171329894007,-0.3379492461681366,1.1467658281326294,-1.9768742322921753,0.031042946502566338,2.1170003414154053,4.89503655114726,-0.40800127387046814,-0.02481638453900814,-1.5897734800921839,4.621646803570911e-05,-0.019921598955988884,0.7541351318359375,1.2985567082068883e-05,0.02252591773867607,0.7755047082901001,-5.25273171660956e-05,0.22130849957466125
412.0,455.0,-0.4618,0.3099,8.4365,-0.0003,-0.608,-0.1368,-1.572810789147848,-0.3455335795879364,1.2047659158706665,-1.9766817092895508,0.028207549825310707,2.090024709701538,4.892649891763487,-0.4121178388595581,-0.003949031699448824,-1.5897896925555628,3.411239595152438e-05,-0.01415596716105938,0.7541429996490479,1.2446794244169723e-05,0.016672274097800255,0.7754322290420532,7.94061561464332e-05,0.20819857716560364
412.0,455.0,-0.4618,0.3099,8.4365,-0.0003,-0.608,-0.1368,-1.5748287640013636,-0.3465907871723175,1.173216700553894,-1.9765385389328003,0.025678889825940132,2.1051764488220215,4.890139344125547,-0.4148123860359192,0.0038769664242863655,-1.5897939840899866,3.2183565053856e-05,-0.03310753405094147,0.7541388273239136,1.1950954103667755e-05,0.017647098749876022,0.7754078507423401,0.00012388324830681086,0.2293144166469574
412.0,455.0,-0.4618,0.3099,8.4365,-0.0003,-0.608,-0.1368,-1.5762282810606898,-0.34746283292770386,1.260392665863037,-1.9763977527618408,0.02613779529929161,2.0873162746429443,4.888509574323454,-0.40372323989868164,-0.006368639878928661,-1.5897896925555628,3.1433981348527595e-05,-0.02187090925872326,0.7541589736938477,1.164177228929475e-05,0.005748318508267403,0.7754723429679871,0.00011363789963070303,0.17172780632972717
412.0,455.0,-0.4618,0.3099,8.4365,-0.0003,-0.608,-0.1368,-1.5782982311644496,-0.3493313193321228,1.2095496654510498,-1.976270318031311,0.02767767943441868,2.054269790649414,4.886218833714285,-0.396092027425766,-0.005229419097304344,-1.5898221174823206,3.0373148547369055e-05,-0.024153683334589005,0.7541912794113159,1.1206881026737392e-05,0.011342302896082401,0.7754682302474976,0.00037503839121200144,0.1753006875514984
412.0,455.0,-0.4618,0.3099,8.4365,-0.0003,-0.608,-0.1368,-1.5803371868529261,-0.3494039475917816,1.302117109298706,-1.976082682609558,0.02900124527513981,2.1090784072875977,4.883863317757406,-0.3879401981830597,0.010621985420584679,-1.5898063818561,-2.454397690598853e-05,-0.027074944227933884,0.7541589736938477,1.0803319128172006e-05,-0.0028351224027574062,0.7754682302474976,0.000506060547195375,0.23386752605438232
412.0,455.0,-0.4618,0.3099,8.4365,-0.0003,-0.608,-0.1368,-1.5823904476561488,-0.3498423099517822,1.2820314168930054,-1.9759024381637573,0.03128133341670036,2.0694379806518555,4.881535801082411,-0.37784266471862793,0.01951467990875244,-1.589785401021139,-2.443869198032189e-05,-0.04126572608947754,0.7541630268096924,1.0427793313283473e-05,0.004716021940112114,0.7755046486854553,0.001110614975914359,0.20956136286258698
412.0,455.0,-0.4618,0.3099,8.4365,-0.0003,-0.608,-0.1368,-1.5837937794127406,-0.34950536489486694,1.3276944160461426,-1.9757707118988037,0.034537047147750854,2.012378692626953,4.880145597248831,-0.3760949969291687,0.020390816032886505,-1.589802090321676,-3.4902128390967846e-05,-0.03966045007109642,0.7541269659996033,1.0191630281042308e-05,0.007644269615411758,0.7755125761032104,0.0013624615967273712,0.2421850711107254
412.0,455.0,-0.4618,0.3099,8.4365,-0.0003,-0.608,-0.1368,-1.5859319172301234,-0.35144028067588806,1.2921243906021118,-1.9755263328552246,0.038874976336956024,2.0960030555725098,4.877912762552061,-0.35479840636253357,0.024898070842027664,-1.5898101965533655,-3.43278115906287e-05,-0.04789914935827255,0.7541753053665161,1.283674691876513e-06,0.01083575002849102,0.7755489349365234,0.0014938750537112355,0.21810631453990936
412.0,455.0,-0.4618,0.3099,8.4365,-0.0003,-0.608,-0.1368,-1.5880772076048792,-0.35488641262054443,1.2963271141052246,-1.975291132926941,0.045936454087495804,2.080264091491699,4.875828715949812,-0.35398873686790466,0.02185313031077385,-1.5897977987872522,-4.4076674384996295e-05,-0.04864124953746796,0.7541871666908264,3.573156215352924e-10,0.014919836074113846,0.7754799723625183,0.0025597091298550367,0.25287505984306335
471.0,971.0,1.9448,0.4259,9.1406,0.0423,-0.6707,-0.139,-1.5902735195555628,-0.3533557951450348,1.3198349475860596,-1.9750558137893677,0.050008565187454224,2.1139986515045166,4.8737184284027,-0.3340408504009247,0.042664431035518646,-1.589802090321676,-5.311181303113699e-05,-0.052262820303440094,0.7541186809539795,9.946011977337785e-14,-0.005401863716542721,0.775560200214386,0.0042635416612029076,0.294289231300354
471.0,971.0,1.9448,0.4259,9.1406,0.0423,-0.6707,-0.139,-1.5924745998778285,-0.36018240451812744,1.3210697174072266,-1.9746593236923218,0.056612879037857056,2.0556392669677734,4.87171337285594,-0.32321134209632874,0.052196718752384186,-1.5897939840899866,-0.00024451149511151016,-0.04623406380414963,0.7541630268096924,2.768509155563327e-17,0.006993962451815605,0.7755560874938965,0.007058714982122183,0.2662724256515503
471.0,971.0,1.9448,0.4259,9.1406,0.0423,-0.6707,-0.139,-1.5939332447447718,-0.3623497784137726,1.324022650718689,-1.9744188785552979,0.06254823505878448,2.092233657836914,4.870465326100149,-0.31938570737838745,0.0520271435379982,-1.5898502508746546,-0.0002437191578792408,-0.05647338181734085,0.7541306018829346,1.1802587796121662e-19,-0.00859527662396431,0.775608241558075,0.008092856965959072,0.31703048944473267
471.0,971.0,1.9448,0.4259,9.1406,0.0423,-0.6707,-0.139,-1.596203943292135,-0.36162975430488586,1.4064618349075317,-1.974088191986084,0.07141663134098053,2.142258882522583,4.8684910265500925,-0.3104996979236603,0.07226991653442383,-1.5897896925555628,-0.0002681241894606501,-0.05051475018262863,0.7541269659996033,3.285293912415771e-23,-0.0016449876129627228,0.7756485939025879,0.008731069043278694,0.3253978490829468
471.0,971.0,1.9448,0.4259,9.1406,0.0423,-0.6707,-0.139,-1.5984579525389613,-0.37353625893592834,1.374967098236084,-1.9735642671585083,0.0799262523651123,2.0647737979888916,4.86674082556323,-0.2903275191783905,0.0636109858751297,-1.5898178259478968,-0.0002734959125518799,-0.06126076728105545,0.7541548013687134,9.144735228678472e-27,0.0038881408981978893,0.7757245898246765,0.009592259302735329,0.2885968089103699
471.0,971.0,1.9448,0.4259,9.1406,0.0423,-0.6707,-0.139,-1.6007005176939906,-0.37197139859199524,1.3825441598892212,-1.9730759859085083,0.08808570355176926,2.142277479171753,4.8650104878242395,-0.2682845890522003,0.08764855563640594,-1.5898378531085413,-0.0004260416026227176,-0.05452031269669533,0.7541834712028503,2.5454711386830363e-30,0.004555379971861839,0.7757523655891418,0.012128930538892746,0.36968088150024414
471.0,971.0,1.9448,0.4259,9.1406,0.0423,-0.6707,-0.139,-1.6021748981871546,-0.37452200055122375,1.4593315124511719,-1.9727600812911987,0.0917862206697464,2.147066116333008,4.864061626582899,-0.24875621497631073,0.1016072928905487,-1.5898140112506312,-0.0004293900274205953,-0.05705523490905762,0.7541186809539795,1.0851743607560939e-32,0.006509963423013687,0.7757921814918518,0.013157830573618412,0.31746870279312134
471.0,971.0,1.9448,0.4259,9.1406,0.0423,-0.6707,-0.139,-1.6044260464110316,-0.3833240866661072,1.3948168754577637,-1.972172737121582,0.09491895884275436,2.1094372272491455,4.862545597344198,-0.24565230309963226,0.11252131313085556,-1.5898259321795862,-0.00040733127389103174,-0.06725147366523743,0.7541589140892029,3.02062300610647e-36,0.010284378193318844,0.775908887386322,0.01573963277041912,0.3751189112663269
471.0,971.0,1.9448,0.4259,9.1406,0.0423,-0.6707,-0.139,-1.6066719494261683,-0.3806520998477936,1.4557520151138306,-1.971483588218689,0.09729471057653427,2.1089277267456055,4.861258911877432,-0.21760502457618713,0.11181953549385071,-1.5898621718036097,-0.0004131243040319532,-0.07138092070817947,0.754118800163269,8.408014993703194e-40,0.000622362014837563,0.7760533094406128,0.018767761066555977,0.43271732330322266
471.0,971.0,1.9448,0.4259,9.1406,0.0423,-0.6707,-0.139,-1.6088744602599085,-0.3786282539367676,1.413804531097412,-1.9709614515304565,0.09799046814441681,2.1006357669830322,4.860086712032118,-0.19006624817848206,0.13073758780956268,-1.5898497740374964,-0.0003919207083526999,-0.08354757726192474,0.7541990876197815,2.3401684354224445e-43,-0.011624847538769245,0.7761046886444092,0.02226921170949936,0.41240793466567993
471.0,971.0,1.9448,0.4259,9.1406,0.0423,-0.6707,-0.139,-1.6110483608641566,-0.3720632791519165,1.4813417196273804,-1.9703739881515503,0.10616780072450638,2.1621203422546387,4.859009939223089,-0.16845151782035828,0.12794873118400574,-1.589874569569723,-0.00037634262116625905,-0.06287705153226852,0.7541548013687134,0.0,0.00028090865816920996,0.7762890458106995,0.0276414193212986,0.41336899995803833
471.0,971.0,1.9448,0.4259,9.1406,0.0423,-0.6707,-0.139,-1.6125756702818812,-0.369910329580307,1.4181296825408936,-1.9698820114135742,0.1107751801609993,2.16283917427063,4.858388337283888,-0.14310966432094574,0.15318924188613892,-1.5898621718036097,-0.00037778704427182674,-0.0836232602596283,0.7541429996490479,0.0,0.003125476883724332,0.7764214277267456,0.03073839098215103,0.39924728870391846
471.0,971.0,1.9448,0.4259,9.1406,0.0423,-0.6707,-0.139,-1.614781995812887,-0.3680308163166046,1.50798499584198,-1.9692105054855347,0.11601023375988007,2.1849477291107178,4.857686462789335,-0.09379728883504868,0.18256637454032898,-1.589841667805807,-0.00038026104448363185,-0.07745681703090668,0.7541711330413818,0.0,-0.002294069854542613,0.7766177654266357,0.03658497333526611,0.45585668087005615
471.0,971.0,1.9448,0.4259,9.1406,0.0423,-0.6707,-0.139,-1.617016931573385,-0.3710229694843292,1.5485284328460693,-1.9684427976608276,0.12221251428127289,2.1832287311553955,4.857311966806211,-0.0598025918006897,0.21108531951904297,-1.5898178259478968,-0.0003649273712653667,-0.09627785533666611,0.7541753053665161,0.0,0.0014775954186916351,0.7767891883850098,0.04362434893846512,0.49298954010009766
471.0,971.0,1.9448,0.4259,9.1406,0.0423,-0.6707,-0.139,-1.6192833385863246,-0.3765268623828888,1.5079890489578247,-1.967636227607727,0.1318301111459732,2.202932834625244,4.857037457614698,-0.04173008352518082,0.20579278469085693,-1.5898421446429651,-0.00037863958277739584,-0.09372156858444214,0.754127025604248,0.0,0.011381344869732857,0.7771143317222595,0.04965001717209816,0.5329601168632507
471.0,971.0,1.9448,0.4259,9.1406,0.0423,-0.6707,-0.139,-1.6207205257811488,-0.37385231256484985,1.4895018339157104,-1.9671138525009155,0.13653171062469482,2.1830384731292725,4.856905776053228,-0.0321904756128788,0.2077471911907196,-1.5898621718036097,-0.00036359092337079346,-0.0816083699464798,0.7541629672050476,0.0,0.014097657054662704,0.777286171913147,0.052498459815979004,0.5239920020103455
471.0,971.0,1.9448,0.4259,9.1406,0.0423,-0.6707,-0.139,-1.623007436791891,-0.37719854712486267,1.5189725160598755,-1.9662461280822754,0.14485138654708862,2.2151012420654297,4.856729987054624,-0.019622519612312317,0.21941900253295898,-1.5898664633380335,-0.0003399124543648213,-0.09078465402126312,0.7542031407356262,0.0,0.0013050572015345097,0.7776188254356384,0.05692761018872261,0.5448019504547119
695.0,1028.0,4.0834,0.1346,9.5659,-0.0192,-0.3939,-0.1095,-1.625383039514059,-0.37252846360206604,1.5327203273773193,-1.9653149843215942,0.1544288992881775,2.2245447635650635,4.856746423035421,-0.005164080299437046,0.22670625150203705,-1.5898621718036097,-0.0002950298658106476,-0.08533670008182526,0.7541146874427795,0.0,0.010082934983074665,0.7779946327209473,0.06092732399702072,0.5260730981826782
695.0,1028.0,4.0834,0.1346,9.5659,-0.0192,-0.3939,-0.1095,-1.6275841198363246,-0.3662361800670624,1.614585518836975,-1.9644373655319214,0.16050870716571808,2.2623209953308105,4.856722581177511,0.003405597060918808,0.2469547688961029,-1.5898211638080042,-0.00029559319955296814,-0.09164510667324066,0.7541346549987793,0.0,0.015993867069482803,0.7783710360527039,0.06573918461799622,0.5453532934188843
695.0,1028.0,4.0834,0.1346,9.5659,-0.0192,-0.3939,-0.1095,-1.6298066578307093,-0.3724943995475769,1.562668800354004,-1.9633578062057495,0.16769593954086304,2.2265682220458984,4.85670659223155,0.0019358444260433316,0.2295818030834198,-1.5898578802691858,-0.00029620464192703366,-0.09112435579299927,0.7541711330413818,0.0,0.006525777280330658,0.7788600325584412,0.0715518593788147,0.5670211315155029
695.0,1028.0,4.0834,0.1346,9.5659,-0.0192,-0.3939,-0.1095,-1.6312934360899867,-0.36898693442344666,1.6430788040161133,-1.9627094268798828,0.17560294270515442,2.267296314239502,4.8567668227250955,0.0007420872570946813,0.2414676696062088,-1.5898664633380335,-0.00030891597270965576,-0.09432733058929443,0.7541830539703369,0.0,-0.00353332725353539,0.7791078090667725,0.07547211647033691,0.5502317547798157
695.0,1028.0,4.0834,0.1346,9.5659,-0.0192,-0.3939,-0.1095,-1.633547922173971,-0.37234073877334595,1.5557117462158203,-1.9616107940673828,0.17951208353042603,2.294644832611084,4.856710675149717,-0.00011766551324399188,0.2420632541179657,-1.5898335615741175,-0.00031629455043002963,-0.08673837035894394,0.7541830539703369,0.0,0.0165926031768322,0.7796729207038879,0.08067777007818222,0.5791349411010742
695.0,1028.0,4.0834,0.1346,9.5659,-0.0192,-0.3939,-0.1095,-1.6357060871519984,-0.37822455167770386,1.5845658779144287,-1.9605168104171753,0.18041618168354034,2.281785249710083,4.856679025083341,-0.000375445670215413,0.23743030428886414,-1.5898740927325647,-0.00031065597431734204,-0.11354748159646988,0.7542150616645813,0.0,0.00697717722505331,0.780040442943573,0.0805986076593399,0.5680208802223206
695.0,1028.0,4.0834,0.1346,9.5659,-0.0192,-0.3939,-0.1095,-1.637916704217428,-0.3732702136039734,1.6270207166671753,-1.9593701362609863,0.19126997888088226,2.2632718086242676,4.856710690050878,-0.00021296738123055547,0.2407855987548828,-1.5898454825030726,-0.0003090783138759434,-0.09831177443265915,0.7541909217834473,0.0,0.015813853591680527,0.7805811762809753,0.08063976466655731,0.6190064549446106
695.0,1028.0,4.0834,0.1346,9.5659,-0.0192,-0.3939,-0.1095,-1.6393715343871058,-0.3706398904323578,1.632173776626587,-1.9586104154586792,0.1981298178434372,2.2453019618988037,4.856750505953588,-2.9263888791319914e-05,0.24203389883041382,-1.5898903051959437,-0.0003139452019240707,-0.09610478579998016,0.7541912794113159,0.0,0.02061609923839569,0.7808651328086853,0.08137256652116776,0.6147357225418091
695.0,1028.0,4.0834,0.1346,9.5659,-0.0192,-0.3939,-0.1095,-1.6414810619749964,-0.361615926027298,1.6162168979644775,-1.9573477506637573,0.21348530054092407,2.325137138366699,4.856714743166723,-8.145709884388452e-09,0.23155170679092407,-1.5898659865008753,-0.00035805313382297754,-0.09919416904449463,0.7541871070861816,0.0,-0.0073341624811291695,0.7813737988471985,0.08414574712514877,0.5668405294418335
695.0,1028.0,4.0834,0.1346,9.5659,-0.0192,-0.3939,-0.1095,-1.643679758111471,-0.3567759692668915,1.6523443460464478,-1.9560761451721191,0.22022996842861176,2.2952637672424316,4.856726664095678,-2.2673881001911145e-12,0.24033702909946442,-1.589869801198141,-0.00044989850721322,-0.10629794001579285,0.7541711330413818,0.0,0.02672663703560829,0.7819021344184875,0.09021525084972382,0.6640337705612183
695.0,1028.0,4.0834,0.1346,9.5659,-0.0192,-0.3939,-0.1095,-1.645790239373678,-0.3546997010707855,1.6427063941955566,-1.9547343254089355,0.23060181736946106,2.296471118927002,4.856694656401434,-6.311357368835263e-16,0.23986029624938965,-1.589898411427633,-0.0007535028853453696,-0.10931271314620972,0.7541793584823608,0.0,0.028338875621557236,0.7825068235397339,0.09962893277406693,0.6384265422821045
695.0,1028.0,4.0834,0.1346,9.5659,-0.0192,-0.3939,-0.1095,-1.6479245624937953,-0.3551056981086731,1.7106221914291382,-1.9533114433288574,0.24181415140628815,2.3218612670898438,4.8566667316253564,-1.7567897078887897e-19,0.22446545958518982,-1.5898740927325647,-0.0006227227859199047,-0.10232026875019073,0.7541106343269348,0.0,0.01276632584631443,0.783091127872467,0.10825642198324203,0.6470222473144531
695.0,1028.0,4.0834,0.1346,9.5659,-0.0192,-0.3939,-0.1095,-1.6493836841978968,-0.35955023765563965,1.633090615272522,-1.9523817300796509,0.24938401579856873,2.378406047821045,4.856654467969694,-7.489470172846274e-22,0.25171390175819397,-1.5899022261248987,-0.0005198964499868453,-0.10492384433746338,0.754219114780426,0.0,0.012280724011361599,0.7834913730621338,0.11315899342298508,0.662812352180481
695.0,1028.0,4.0834,0.1346,9.5659,-0.0192,-0.3939,-0.1095,-1.6515733204283656,-0.3574383556842804,1.7549066543579102,-1.9508386850357056,0.2565276324748993,2.3438713550567627,4.856646764069357,-2.0847214816324035e-25,0.22969010472297668,-1.5898578802691858,-0.00047403728240169585,-0.09134727716445923,0.7541916966438293,0.0,0.015291723422706127,0.7842281460762024,0.11913253366947174,0.6298936605453491
695.0,1028.0,4.0834,0.1346,9.5659,-0.0192,-0.3939,-0.1095,-1.6537066898741664,-0.35903578996658325,1.6567535400390625,-1.9492528438568115,0.2634066343307495,2.296815872192383,4.856695058732786,-5.802897941105441e-29,0.23980632424354553,-1.5899022261248987,-0.0003973094280809164,-0.09587791562080383,0.7541834115982056,0.0,0.012227300554513931,0.7849327325820923,0.12638191878795624,0.6802327036857605
695.0,1028.0,4.0834,0.1346,9.5659,-0.0192,-0.3939,-0.1095,-1.6559483013548792,-0.3597128093242645,1.731825351715088,-1.9475606679916382,0.28385552763938904,2.3563575744628906,4.856722894101896,-1.615258101598032e-32,0.23079320788383484,-1.5898454825030726,-0.0003408667107578367,-0.10569709539413452,0.7541909217834473,0.0,0.007126054726541042,0.785693347454071,0.1245703175663948,0.6779025793075562
753.0,983.0,2.9486,0.1801,9.8752,0.0095,-0.0881,-0.0087,-1.6573950252928675,-0.35177385807037354,1.7356576919555664,-1.946511149406433,0.29496222734451294,2.344507932662964,4.856706920057096,-0.00023914438497740775,0.2414131462574005,-1.589881722127096,-0.0003113761486019939,-0.09870020300149918,0.7541511058807373,0.0,0.018543757498264313,0.7862297892570496,0.12502413988113403,0.5973026156425476
753.0,983.0,2.9486,0.1801,9.8752,0.0095,-0.0881,-0.0087,-1.6596294842162074,-0.3563638925552368,1.7221940755844116,-1.9447578191757202,0.2988477945327759,2.350745677947998,4.856670874148168,-0.0003583685029298067,0.23625397682189941,-1.5898903051959437,-0.0002756085305009037,-0.09932370483875275,0.7541789412498474,0.0,0.004076452925801277,0.7870393991470337,0.12909436225891113,0.6282886266708374
753.0,983.0,2.9486,0.1801,9.8752,0.0095,-0.0881,-0.0087,-1.6617981396117152,-0.3631385564804077,1.7202019691467285,-1.9428876638412476,0.30968090891838074,2.3819053173065186,4.856662723212995,-0.00034512829734012485,0.24666620790958405,-1.5898860136615198,-0.0002472174819558859,-0.0961371660232544,0.7541711330413818,0.0,-0.0001297486014664173,0.787783145904541,0.1330818384885788,0.6755862236022949
753.0,983.0,2.9486,0.1801,9.8752,0.0095,-0.0881,-0.0087,-1.6639515362181605,-0.36319610476493835,1.7698767185211182,-1.9409772157669067,0.3214901387691498,2.406337261199951,4.856670993357458,-0.0004086564586032182,0.2374732345342636,-1.5898616949664515,-0.00022412829275708646,-0.08856074512004852,0.7541347146034241,0.0,0.016272692009806633,0.7885351777076721,0.1355743110179901,0.6772762537002563
753.0,983.0,2.9486,0.1801,9.8752,0.0095,-0.0881,-0.0087,-1.6661244831480921,-0.3742678761482239,1.70670485496521,-1.938967227935791,0.32176586985588074,2.3712260723114014,4.856602507620611,-0.00238975090906024,0.22035542130470276,-1.5898578802691858,-0.00020498287631198764,-0.09868694841861725,0.754086434841156,0.0,0.008464736863970757,0.7893924713134766,0.13674037158489227,0.6653348803520203
753.0,983.0,2.9486,0.1801,9.8752,0.0095,-0.0881,-0.0087,-1.6675635776915492,-0.3751148283481598,1.7173999547958374,-1.937692403793335,0.3253418505191803,2.369163990020752,4.8565904823835275,-0.0026278565637767315,0.22962069511413574,-1.5898903051959437,-0.00019393960246816278,-0.10917378962039948,0.7541024088859558,0.0,0.011986840516328812,0.790005624294281,0.13678112626075745,0.6467828750610352
753.0,983.0,2.9486,0.1801,9.8752,0.0095,-0.0881,-0.0087,-1.669765134850973,-0.37042713165283203,1.7798831462860107,-1.9355988502502441,0.34010016918182373,2.4051783084869385,4.85657865086154,-0.0014293415006250143,0.2371947467327118,-1.5898740927325647,-0.00017943893908523023,-0.09990491718053818,0.7541429996490479,0.0,0.013301411643624306,0.7908339500427246,0.1391240507364273,0.6589573621749878
753.0,983.0,2.9486,0.1801,9.8752,0.0095,-0.0881,-0.0087,-1.671915670434469,-0.3637487590312958,1.7450815439224243,-1.9335078001022339,0.34836411476135254,2.3517508506774902,4.856590527087011,-0.0008126680040732026,0.23622196912765503,-1.5898783842669886,-0.0001669544872129336,-0.08808910846710205,0.7541347742080688,0.0,0.003251349087804556,0.7916665077209473,0.13926909863948822,0.6603631973266602
753.0,983.0,2.9486,0.1801,9.8752,0.0095,-0.0881,-0.0087,-1.6740404568114222,-0.3577541708946228,1.7693109512329102,-1.9313879013061523,0.35717537999153137,2.426006317138672,4.8566632000501535,-0.0005856083589605987,0.23738929629325867,-1.5899184385882776,-0.00015609536785632372,-0.10462339222431183,0.7541671395301819,0.0,0.016224142163991928,0.7924908399581909,0.13950666785240173,0.6447440385818481
753.0,983.0,2.9486,0.1801,9.8752,0.0095,-0.0881,-0.0087,-1.675455232659811,-0.35611459612846375,1.7995356321334839,-1.9299529790878296,0.3641684949398041,2.453202724456787,4.856614815979757,-0.0004937254125252366,0.22576355934143066,-1.5898783842669886,-0.00014960882253944874,-0.09135136008262634,0.7541548013687134,0.0,0.01825592666864395,0.7930832505226135,0.14011141657829285,0.6585754156112671
753.0,983.0,2.9486,0.1801,9.8752,0.0095,-0.0881,-0.0087,-1.6776329479613246,-0.3561292886734009,1.7422834634780884,-1.9276748895645142,0.3699661195278168,2.3680830001831055,4.856582808285513,-0.0004207469755783677,0.2279874086380005,-1.5899179617511194,-0.0001408290263498202,-0.10327836871147156,0.7541507482528687,0.0,0.000723695382475853,0.7939156293869019,0.13661624491214752,0.6504073143005371
753.0,983.0,2.9486,0.1801,9.8752,0.0095,-0.0881,-0.0087,-1.679786821404928,-0.3627917468547821,1.7606170177459717,-1.9254897832870483,0.3793598711490631,2.470177173614502,4.856550770788946,-0.0016109566204249859,0.23437707126140594,-1.5898740927325647,-0.00013302334991749376,-0.08969926089048386,0.7540786862373352,0.0,0.0071737514808773994,0.7947809100151062,0.13690532743930817,0.6547003388404846
753.0,983.0,2.9486,0.1801,9.8752,0.0095,-0.0881,-0.0087,-1.6819325886168421,-0.36474713683128357,1.7646279335021973,-1.923248529434204,0.3824540078639984,2.435713768005371,4.856535154372015,-0.0026261652819812298,0.21092349290847778,-1.5898211638080042,-0.0001260379358427599,-0.08846846967935562,0.7541507482528687,0.0,-0.00663312803953886,0.7955930829048157,0.13423489034175873,0.6583013534545898
753.0,983.0,2.9486,0.1801,9.8752,0.0095,-0.0881,-0.0087,-1.6841470203795375,-0.36365842819213867,1.806438684463501,-1.920935034751892,0.394073486328125,2.40004301071167,4.856527271657743,-0.0030973057728260756,0.2202533632516861,-1.5898578802691858,-0.0001197486708406359,-0.09212620556354523,0.7541670799255371,0.0,0.01665014587342739,0.7963294982910156,0.1295701414346695,0.5967922806739807
753.0,983.0,2.9486,0.1801,9.8752,0.0095,-0.0881,-0.0087,-1.6856333218016566,-0.3686610758304596,1.7351375818252563,-1.9193564653396606,0.3966292440891266,2.4515233039855957,4.856575313001432,-0.0032402926590293646,0.22780771553516388,-1.5898740927325647,-0.00011589367204578593,-0.10031887888908386,0.7541794180870056,0.0,0.012626728042960167,0.7968298196792603,0.13189579546451569,0.6253363490104675
753.0,983.0,2.9486,0.1801,9.8752,0.0095,-0.0881,-0.0087,-1.687817235986227,-0.3622477352619171,1.808359980583191,-1.9169397354125977,0.40656620264053345,2.3931846618652344,4.856547388225355,-0.0037951671984046698,0.2195001095533371,-1.5898621718036097,-0.0001105554765672423,-0.09498154371976852,0.7541753053665161,0.0,0.011832336895167828,0.7976464629173279,0.13513289391994476,0.6241387128829956
753.0,983.0,2.9486,0.1801,9.8752,0.0095,-0.0881,-0.0087,-1.6901771030821742,-0.3622795045375824,1.7661585807800293,-1.914473533630371,0.4186016023159027,2.4845168590545654,4.856463002949514,-0.0034429088700562716,0.20165212452411652,-1.5898378531085413,-0.00010568666766630486,-0.09136570990085602,0.7541106343269348,0.0,0.0031639800872653723,0.7984511852264404,0.13406522572040558,0.6415932178497314
942.0,978.0,2.5884,0.923,9.0251,0.0593,0.0275,0.0131,-1.6924511394896449,-0.3758600056171417,1.7591485977172852,-1.9119837284088135,0.4204454720020294,2.4050467014312744,4.8564552692468546,-0.007581280078738928,0.213780015707016,-1.5898783842669886,-0.00010122921230504289,-0.08340302109718323,0.7541306614875793,0.0,0.01108524575829506,0.7992921471595764,0.12794621288776398,0.5634384751319885
942.0,978.0,2.5884,0.923,9.0251,0.0593,0.0275,0.0131,-1.6939565143980921,-0.3729843199253082,1.7866168022155762,-1.9103662967681885,0.42552000284194946,2.4653496742248535,4.85634736993865,-0.011449544690549374,0.20441660284996033,-1.5898578802691858,-8.620672451797873e-05,-0.08554824441671371,0.7541429996490479,0.0,-0.004930442199110985,0.7998288869857788,0.12180007249116898,0.5509225726127625
942.0,978.0,2.5884,0.923,9.0251,0.0593,0.0275,0.0131,-1.6962253055968226,-0.38423478603363037,1.7999616861343384,-1.9077996015548706,0.4188796579837799,2.395699977874756,4.856292459159651,-0.01910380832850933,0.20635715126991272,-1.589825455342428,-8.27576222945936e-05,-0.08210226148366928,0.7541429400444031,0.0,-0.001121436944231391,0.8005125522613525,0.11541279405355453,0.5532567501068115
942.0,978.0,2.5884,0.923,9.0251,0.0593,0.0275,0.0131,-1.6984831295409144,-0.39506077766418457,1.7981526851654053,-1.9052364826202393,0.4201749563217163,2.449993848800659,4.856132450490751,-0.02321360632777214,0.191211998462677,-1.589841667805807,-7.962024392327294e-05,-0.06952080875635147,0.7541630268096924,0.0,-0.00384039175696671,0.8011692762374878,0.11087529361248016,0.573000431060791
942.0,978.0,2.5884,0.923,9.0251,0.0593,0.0275,0.0131,-1.7008077106871546,-0.395534485578537,1.7843350172042847,-1.902662754058838,0.42268404364585876,2.41892147064209,4.856044429331579,-0.019597284495830536,0.19203592836856842,-1.589902702962057,-7.67116725910455e-05,-0.06414160132408142,0.7541711330413818,0.0,0.009632053785026073,0.8018015623092651,0.1047925129532814,0.5280010104179382
942.0,978.0,2.5884,0.923,9.0251,0.0593,0.0275,0.0131,-1.7030688724913539,-0.39022690057754517,1.7664644718170166,-1.900046944618225,0.4281015992164612,2.465482711791992,4.856001275568762,-0.010098951868712902,0.19883111119270325,-1.5898664633380335,-7.400805770885199e-05,-0.06783068925142288,0.7541670203208923,0.0,-0.0034714462235569954,0.8024665713310242,0.10761798173189163,0.4928895831108093
942.0,978.0,2.5884,0.923,9.0251,0.0593,0.0275,0.0131,-1.7046319446959437,-0.38499391078948975,1.8225111961364746,-1.8983180522918701,0.43134182691574097,2.4517765045166016,4.855961116939344,-0.00473309401422739,0.19618472456932068,-1.5898178259478968,-2.2369640646502376e-05,-0.07150097191333771,0.7541466355323792,0.0,0.01120184175670147,0.8029072284698486,0.10998433828353882,0.4968583583831787
942.0,978.0,2.5884,0.923,9.0251,0.0593,0.0275,0.0131,-1.706921239892477,-0.3797651529312134,1.7947170734405518,-1.8957149982452393,0.43386542797088623,2.4643852710723877,4.855912270932951,-0.0005274383584037423,0.19597923755645752,-1.5898335615741175,-2.116234645654913e-05,-0.06895595788955688,0.7541106343269348,0.0,0.0002661332837305963,0.8034870624542236,0.11031016707420349,0.46046337485313416
942.0,978.0,2.5884,0.923,9.0251,0.0593,0.0275,0.0131,-1.7092029056944789,-0.3766826093196869,1.8097050189971924,-1.8931119441986084,0.43851593136787415,2.4489097595214844,4.855981233506956,-0.00013398633745964617,0.19623328745365143,-1.5898216406451624,-1.026517384161707e-05,-0.043720223009586334,0.7541387677192688,0.0,0.00680571561679244,0.8041637539863586,0.10913146287202835,0.5038966536521912
942.0,978.0,2.5884,0.923,9.0251,0.0593,0.0275,0.0131,-1.7114926777281703,-0.38351598381996155,1.8162533044815063,-1.8904969692230225,0.4444199502468109,2.4913697242736816,4.8558968035276315,-0.0002765488170552999,0.20306813716888428,-1.5898259321795862,-5.6243973922676105e-09,-0.051811106503009796,0.7541347742080688,0.0,8.295394945889711e-05,0.8048158884048462,0.1056612953543663,0.40563714504241943
942.0,978.0,2.5884,0.923,9.0251,0.0593,0.0275,0.0131,-1.7130409679808558,-0.38693034648895264,1.8401553630828857,-1.8887165784835815,0.4456266164779663,2.5006604194641113,4.855897190957823,-0.00028639627271331847,0.20867757499217987,-1.5898664633380335,-2.3977689625476195e-11,-0.04532337188720703,0.7541671395301819,0.0,-2.130703069269657e-05,0.8052365779876709,0.10235325992107391,0.4476214051246643
942.0,978.0,2.5884,0.923,9.0251,0.0593,0.0275,0.0131,-1.7154365978636683,-0.38705864548683167,1.8444098234176636,-1.8860334157943726,0.44546613097190857,2.46223783493042,4.855909082084455,-0.0003053155087400228,0.17639434337615967,-1.5898702780352991,-6.6742778465696696e-15,-0.050701774656772614,0.7541753649711609,0.0,0.0006882119923830032,0.8058408498764038,0.09524115920066833,0.3895168900489807
942.0,978.0,2.5884,0.923,9.0251,0.0593,0.0275,0.0131,-1.717811723748678,-0.39721935987472534,1.8399207592010498,-1.883378267288208,0.4541283845901489,2.4699740409851074,4.855952936201849,-0.0002187080681324005,0.18678030371665955,-1.5898454825030726,-1.8578096054859227e-18,-0.04437455162405968,0.7541752457618713,0.0,-0.010061866603791714,0.8063449859619141,0.08454038947820663,0.3856656551361084
942.0,978.0,2.5884,0.923,9.0251,0.0593,0.0275,0.0131,-1.7201906643309535,-0.38786953687667847,1.857229232788086,-1.8806670904159546,0.46221673488616943,2.4681191444396973,4.855969387083807,-0.00010919519263552502,0.20435622334480286,-1.5898297468768519,-5.171281864908013e-22,-0.039471205323934555,0.7541429400444031,0.0,0.001848607324063778,0.8068050146102905,0.07539957016706467,0.2942809462547302
