ramyac6/ROB537/final_project/csv/all/bad_30.csv
tof_0,tof_1,accelx,accely,accelz,gyrox,gyroy,gyroz,shoulder_lift_joint_position,shoulder_lift_joint_velocity,shoulder_lift_joint_effort,elbow_joint_position,elbow_joint_velocity,elbow_joint_effort,wrist_1_joint_position,wrist_1_joint_velocity,wrist_1_joint_effort,wrist_2_joint_position,wrist_2_joint_velocity,wrist_2_joint_effort,wrist_3_joint_position,wrist_3_joint_velocity,wrist_3_joint_effort,shoulder_pan_joint_position,shoulder_pan_joint_velocity,shoulder_pan_joint_effort
226.0,251.0,3.3338,-0.3834,8.729,-0.0371,0.0279,-0.1263,-1.743694921533102,0.0,2.8908004760742188,-1.6010879278182983,-0.0,2.1937882900238037,4.586135073299072,0.0,0.27179092168807983,-1.3209779898272913,0.0,-0.030289987102150917,0.30079182982444763,0.0,0.024679232388734818,1.4120742082595825,0.0,0.041439082473516464
226.0,251.0,3.3338,-0.3834,8.729,-0.0371,0.0279,-0.1263,-1.7437035046019496,0.0,2.853790760040283,-1.6011077165603638,-0.0,2.1606249809265137,4.586103125209473,0.0,0.28065165877342224,-1.3209899107562464,0.0,-0.036091744899749756,0.30075156688690186,0.0,0.030750103294849396,1.4120619297027588,-4.495565463003004e-06,0.043723609298467636
226.0,251.0,3.3338,-0.3834,8.729,-0.0371,0.0279,-0.1263,-1.74369539837026,0.0,2.8722293376922607,-1.6011078357696533,-0.0,2.1400301456451416,4.58611981451001,0.0,0.27719637751579285,-1.3209779898272913,0.0,-0.05523594096302986,0.3007395267486572,0.0,0.040114667266607285,1.4120861291885376,-1.08562612025076e-11,0.07156050950288773
226.0,251.0,3.3338,-0.3834,8.729,-0.0371,0.0279,-0.1263,-1.7436872921385707,0.0,2.9144628047943115,-1.6010873317718506,-0.0,2.216916084289551,4.586103125209473,0.0,0.2881474792957306,-1.3209980169879358,0.0,-0.045638903975486755,0.30071982741355896,0.0,0.03555349260568619,1.4120738506317139,0.00015030904614832252,-0.015929559245705605
226.0,251.0,3.3338,-0.3834,8.729,-0.0371,0.0279,-0.1263,-1.7436672649779261,0.0,2.904198169708252,-1.6011157035827637,-0.0,2.1604039669036865,4.586103125209473,0.0,0.2886096239089966,-1.320914093648092,0.0,-0.05816621333360672,0.30077579617500305,0.0,0.034131549298763275,1.4120336771011353,0.00010049883712781593,0.056381210684776306
226.0,251.0,3.3338,-0.3834,8.729,-0.0371,0.0279,-0.1263,-1.7436872921385707,0.0,2.9141550064086914,-1.6011078357696533,-0.0,2.159363269805908,4.586135073299072,0.0,0.29202017188072205,-1.3209503332721155,0.0,-0.047123052179813385,0.3006995916366577,0.0,0.03327255696058273,1.4121021032333374,8.214430999942124e-05,0.024626240134239197
226.0,251.0,3.3338,-0.3834,8.729,-0.0371,0.0279,-0.1263,-1.7436915836729945,0.0,2.8655872344970703,-1.6010957956314087,-0.0,2.10461688041687,4.586071177119873,0.0,0.28681737184524536,-1.3209622542010706,0.0,-0.03490595519542694,0.300799697637558,0.0,0.03252916783094406,1.4120659828186035,6.448222848121077e-05,0.07226771116256714
226.0,251.0,3.3338,-0.3834,8.729,-0.0371,0.0279,-0.1263,-1.743655344048971,0.0,2.891432285308838,-1.6010918617248535,-0.0,2.157747745513916,4.5860792833515625,0.0,0.27896609902381897,-1.3209860960589808,0.0,-0.025474274531006813,0.30071181058883667,0.0,0.03381330519914627,1.4120738506317139,5.3072653827257454e-05,0.019437899813055992
226.0,251.0,3.3338,-0.3834,8.729,-0.0371,0.0279,-0.1263,-1.7437240085997523,0.0,2.912362813949585,-1.601051688194275,-0.0,2.127074718475342,4.586103125209473,0.0,0.28504490852355957,-1.3209503332721155,0.0,-0.04211079701781273,0.30075955390930176,0.0,0.04189431294798851,1.412045955657959,4.509418431553058e-05,0.02500345930457115
239.0,242.0,3.3039,-0.411,8.7506,-0.0202,0.0284,-0.1232,-1.7436710796751917,0.0,2.9314634799957275,-1.6010794639587402,-0.0,2.1339330673217773,4.586083098048828,0.0,0.29560574889183044,-1.3209341208087366,0.0,-0.03639955073595047,0.3007035553455353,0.0,0.03018379583954811,1.41203773021698,4.098656427231617e-05,0.04885530099272728
239.0,242.0,3.3039,-0.411,8.7506,-0.0202,0.0284,-0.1232,-1.7437197170653285,0.0,2.9549906253814697,-1.6011117696762085,-0.0,2.1502840518951416,4.586086912746094,0.0,0.2928164005279541,-1.3209384123431605,0.0,-0.033481400460004807,0.3007117509841919,0.0,0.0432758703827858,1.41203773021698,3.6059725971426815e-05,0.020013460889458656
239.0,242.0,3.3039,-0.411,8.7506,-0.0202,0.0284,-0.1232,-1.743694921533102,0.0,2.916085720062256,-1.6010997295379639,-0.0,2.1502788066864014,4.586146994228027,0.0,0.2945420444011688,-1.3209579626666468,0.0,-0.0453055202960968,0.3007476031780243,0.0,0.04722348228096962,1.4120255708694458,3.219032441847958e-05,0.02912053093314171
239.0,242.0,3.3039,-0.411,8.7506,-0.0202,0.0284,-0.1232,-1.7436992130675257,0.0,2.92679762840271,-1.6010879278182983,-0.0,2.159701347351074,4.586139364833496,0.0,0.2760993540287018,-1.3209942022906702,0.0,-0.04321369156241417,0.3007957637310028,0.0,0.023523816838860512,1.4120738506317139,9.973351552616805e-06,0.01882018893957138
239.0,242.0,3.3039,-0.411,8.7506,-0.0202,0.0284,-0.1232,-1.7436634502806605,0.0,2.885308265686035,-1.6010714769363403,-0.0,2.1565163135528564,4.58611981451001,0.0,0.29347968101501465,-1.3209503332721155,0.0,-0.039111196994781494,0.30073562264442444,0.0,0.04821273684501648,1.4120419025421143,1.7951679032179868e-09,0.016695300117135048
239.0,242.0,3.3039,-0.411,8.7506,-0.0202,0.0284,-0.1232,-1.743711610833639,0.0,2.897054672241211,-1.601048231124878,-0.0,2.0898549556732178,4.58611981451001,0.0,0.2923491597175598,-1.3209660688983362,0.0,-0.0405769869685173,0.3007037341594696,0.0,0.03989672660827637,1.4120819568634033,4.335119282728719e-15,0.016676120460033417
239.0,242.0,3.3039,-0.411,8.7506,-0.0202,0.0284,-0.1232,-1.7436710796751917,0.0,2.919088363647461,-1.601035714149475,-0.0,2.1654868125915527,4.586098833675049,0.0,0.3073573112487793,-1.3209899107562464,0.0,-0.037422701716423035,0.30075162649154663,0.0,0.03767558932304382,1.4120815992355347,1.0468801871438953e-20,0.08514197915792465
239.0,242.0,3.3039,-0.411,8.7506,-0.0202,0.0284,-0.1232,-1.7437073192992152,0.0,2.9100475311279297,-1.6010918617248535,-0.0,2.144632339477539,4.586066885585449,0.0,0.2875298857688904,-1.3209460417376917,0.0,-0.04287463054060936,0.30069950222969055,0.0,0.02380979433655739,1.412054181098938,2.528092279320118e-26,0.037116196006536484
239.0,242.0,3.3039,-0.411,8.7506,-0.0202,0.0284,-0.1232,-1.743694921533102,0.0,2.902163028717041,-1.6011037826538086,-0.0,2.1487624645233154,4.586115522975586,0.0,0.29483479261398315,-1.3210061232196253,0.0,-0.037457410246133804,0.3006756007671356,0.0,0.03280818462371826,1.4120419025421143,4.5504766820896355e-30,0.019816726446151733
239.0,242.0,3.3039,-0.411,8.7506,-0.0202,0.0284,-0.1232,-1.7436830006041468,0.0,2.943204879760742,-1.6010794639587402,-0.0,2.1255946159362793,4.586123629207275,0.0,0.2872522473335266,-1.3209460417376917,0.0,-0.04331756755709648,0.30077579617500305,0.0,0.035056330263614655,1.41203773021698,1.0988867583498815e-35,0.019309259951114655
239.0,242.0,3.3039,-0.411,8.7506,-0.0202,0.0284,-0.1232,-1.7436710796751917,0.0,2.921989917755127,-1.6010799407958984,-0.0,2.205422878265381,4.586139364833496,0.0,0.2835674285888672,-1.3209503332721155,0.0,-0.04998244345188141,0.30076363682746887,0.0,0.031391389667987823,1.412045955657959,2.653638901891906e-41,0.03942602127790451
239.0,242.0,3.3039,-0.411,8.7506,-0.0202,0.0284,-0.1232,-1.7436629734435023,0.0,2.9105024337768555,-1.6011157035827637,-0.0,2.1892077922821045,4.586098833675049,0.0,0.28153008222579956,-1.3210018316852015,0.0,-0.03284475952386856,0.3006915748119354,0.0,0.036607325077056885,1.4121061563491821,0.0,0.02888570912182331
239.0,242.0,3.3039,-0.411,8.7506,-0.0202,0.0284,-0.1232,-1.743683477441305,0.0,2.894766092300415,-1.601052165031433,-0.0,2.1308021545410156,4.586123629207275,0.0,0.289803147315979,-1.3209503332721155,0.0,-0.03235732391476631,0.3007197976112366,0.0,0.036068253219127655,1.4120419025421143,0.0,0.06403864175081253
239.0,242.0,3.3039,-0.411,8.7506,-0.0202,0.0284,-0.1232,-1.7436872921385707,0.0,2.892577648162842,-1.6010714769363403,-0.0,2.174697160720825,4.586139364833496,0.0,0.2887343168258667,-1.3209741751300257,0.0,-0.04571592062711716,0.3007635474205017,0.0,0.03976394981145859,1.4120738506317139,0.0,-0.005070818588137627
239.0,242.0,3.3039,-0.411,8.7506,-0.0202,0.0284,-0.1232,-1.743699689904684,0.0,2.867689371109009,-1.6010959148406982,-0.0,2.171863317489624,4.586122675532959,0.0,0.27719104290008545,-1.3209541479693812,0.0,-0.05559481680393219,0.3006756603717804,0.0,0.03237224742770195,1.4120296239852905,0.0,0.06282421946525574
239.0,242.0,3.3039,-0.411,8.7506,-0.0202,0.0284,-0.1232,-1.7437483272948207,0.0,2.889889717102051,-1.6010833978652954,-0.0,2.1677086353302,4.586132212276123,0.0,0.28927281498908997,-1.3209541479693812,0.0,-0.04128324240446091,0.3006998300552368,0.0,0.030022485181689262,1.4120336771011353,0.0,0.05321376398205757
239.0,242.0,3.3039,-0.411,8.7506,-0.0202,0.0284,-0.1232,-1.7436791859068812,0.0,2.8857903480529785,-1.6010714769363403,-0.0,2.1507482528686523,4.586115522975586,0.0,0.2867838144302368,-1.3209541479693812,0.0,-0.02858465164899826,0.30069562792778015,0.0,0.02675311639904976,1.4120819568634033,0.0,0.014575226232409477
228.0,252.0,3.3362,-0.3912,8.7141,-0.0418,0.0318,-0.1187,-1.7436753712096156,0.0,2.8930623531341553,-1.601011872291565,-0.0,2.169780969619751,4.586083098048828,0.0,0.2854965329170227,-1.320942227040426,0.0,-0.04641777649521828,0.30080363154411316,0.0,0.02982894703745842,1.4120738506317139,0.0,0.0261024609208107
228.0,252.0,3.3362,-0.3912,8.7141,-0.0418,0.0318,-0.1187,-1.7436796627440394,0.0,2.9253344535827637,-1.6010918617248535,-0.0,2.1692559719085693,4.586086912746094,0.0,0.2849767506122589,-1.3210423628436487,0.0,-0.02842644974589348,0.30077576637268066,0.0,0.029236305505037308,1.4120779037475586,0.0,0.0398557148873806
228.0,252.0,3.3362,-0.3912,8.7141,-0.0418,0.0318,-0.1187,-1.7436510525145472,0.0,2.8852503299713135,-1.6011037826538086,-0.0,2.185098171234131,4.586086912746094,0.0,0.2861236035823822,-1.320918385182516,0.0,-0.03506498411297798,0.3007837235927582,0.0,0.030511576682329178,1.41203773021698,0.0,0.024994434788823128
228.0,252.0,3.3362,-0.3912,8.7141,-0.0418,0.0318,-0.1187,-1.7437197170653285,0.0,2.8778023719787598,-1.6010675430297852,-0.0,2.1719353199005127,4.5860792833515625,0.0,0.2835414409637451,-1.3209698835956019,0.0,-0.03625292330980301,0.30073171854019165,0.0,0.02941235527396202,1.4120419025421143,0.0,0.032687708735466
228.0,252.0,3.3362,-0.3912,8.7141,-0.0418,0.0318,-0.1187,-1.7436992130675257,0.0,2.890687942504883,-1.601159930229187,-0.0,2.1957387924194336,4.586095495814941,0.0,0.2860144376754761,-1.3209264914142054,0.0,-0.024124152958393097,0.30073171854019165,0.0,0.0409591868519783,1.4120419025421143,0.0,0.048093028366565704
228.0,252.0,3.3362,-0.3912,8.7141,-0.0418,0.0318,-0.1187,-1.7437197170653285,0.0,2.90934419631958,-1.6011241674423218,-0.0,2.162997007369995,4.586126967067383,0.0,0.29600849747657776,-1.3209145704852503,0.0,-0.032447442412376404,0.3007197976112366,0.0,0.035647206008434296,1.4120419025421143,0.0,0.05163322389125824
228.0,252.0,3.3362,-0.3912,8.7141,-0.0418,0.0318,-0.1187,-1.7436868153014125,0.0,2.9322445392608643,-1.6010879278182983,-0.0,2.1851046085357666,4.58611981451001,0.0,0.2879908084869385,-1.3209384123431605,0.0,-0.038611575961112976,0.30070778727531433,0.0,0.032983701676130295,1.4120500087738037,0.0,0.08201240003108978
228.0,252.0,3.3362,-0.3912,8.7141,-0.0418,0.0318,-0.1187,-1.7437073192992152,0.0,2.912337064743042,-1.601131558418274,-0.0,2.188194751739502,4.586107416743896,0.0,0.28945988416671753,-1.320981804524557,0.0,-0.0293964184820652,0.3007197976112366,0.0,0.04155801236629486,1.4120819568634033,0.0,0.045343752950429916
228.0,252.0,3.3362,-0.3912,8.7141,-0.0418,0.0318,-0.1187,-1.7436915836729945,0.0,2.9113290309906006,-1.601043701171875,-0.0,2.20279598236084,4.586083098048828,0.0,0.29488927125930786,-1.3209779898272913,0.0,-0.03510046377778053,0.30077576637268066,0.0,0.035074129700660706,1.4120336771011353,0.0,0.017650505527853966
228.0,252.0,3.3362,-0.3912,8.7141,-0.0418,0.0318,-0.1187,-1.7436915836729945,0.0,2.8749184608459473,-1.6011077165603638,-0.0,2.185072898864746,4.586130781764648,0.0,0.2760927677154541,-1.3209503332721155,0.0,-0.0375688299536705,0.30077147483825684,0.0,0.023268096148967743,1.4120619297027588,0.0,0.014474702067673206
228.0,252.0,3.3362,-0.3912,8.7141,-0.0418,0.0318,-0.1187,-1.7436992130675257,0.0,2.8850889205932617,-1.6010277271270752,-0.0,2.1954715251922607,4.586146994228027,0.0,0.27551212906837463,-1.3209221998797815,0.0,-0.04785560071468353,0.300719678401947,0.0,0.04065844789147377,1.4120417833328247,0.0,0.036380842328071594
228.0,252.0,3.3362,-0.3912,8.7141,-0.0418,0.0318,-0.1187,-1.7437035046019496,0.0,2.8928468227386475,-1.6010879278182983,-0.0,2.1482934951782227,4.586098833675049,0.0,0.29022181034088135,-1.3209102789508265,0.0,-0.04271441325545311,0.30076363682746887,0.0,0.027355119585990906,1.41203773021698,0.0,0.021964211016893387
228.0,252.0,3.3362,-0.3912,8.7141,-0.0418,0.0318,-0.1187,-1.7436830006041468,0.0,2.931633949279785,-1.601091742515564,-0.0,2.1858465671539307,4.586107416743896,0.0,0.30140531063079834,-1.320981804524557,0.0,-0.04092491418123245,0.30079564452171326,0.0,0.031681276857852936,1.4120738506317139,0.0,0.020951388403773308
228.0,252.0,3.3362,-0.3912,8.7141,-0.0418,0.0318,-0.1187,-1.7436992130675257,0.0,2.860499382019043,-1.6010959148406982,-0.0,2.174154281616211,4.586123629207275,0.0,0.28522270917892456,-1.3209741751300257,0.0,-0.036489710211753845,0.300715833902359,0.0,0.03317704796791077,1.412057876586914,0.0,0.02715127542614937
228.0,252.0,3.3362,-0.3912,8.7141,-0.0418,0.0318,-0.1187,-1.7436672649779261,0.0,2.911762237548828,-1.6010918617248535,-0.0,2.17857027053833,4.586115522975586,0.0,0.29488813877105713,-1.3209221998797815,0.0,-0.04339629039168358,0.3007476329803467,0.0,0.030086813494563103,1.4120697975158691,0.0,0.034748420119285583
228.0,252.0,3.3362,-0.3912,8.7141,-0.0418,0.0318,-0.1187,-1.7436791859068812,0.0,2.904482841491699,-1.6010833978652954,-0.0,2.18422269821167,4.586123629207275,0.0,0.2906416654586792,-1.320914093648092,0.0,-0.026397954672574997,0.3007436692714691,0.0,0.026879742741584778,1.4120701551437378,0.0,0.07161500304937363
228.0,252.0,3.3362,-0.3912,8.7141,-0.0418,0.0318,-0.1187,-1.7436710796751917,0.0,2.8870556354522705,-1.6010879278182983,-0.0,2.161285638809204,4.586135073299072,0.0,0.28120672702789307,-1.3209622542010706,0.0,-0.03741500899195671,0.300715833902359,0.0,0.02596292458474636,1.4120779037475586,0.0,0.008745754137635231
237.0,250.0,3.3033,-0.4355,8.948,-0.0376,0.0218,-0.1171,-1.7436510525145472,0.0,2.931736707687378,-1.6010879278182983,-0.0,2.195866107940674,4.586090727443359,0.0,0.27536457777023315,-1.3209622542010706,0.0,-0.030516035854816437,0.3006957173347473,0.0,0.03506198525428772,1.4120419025421143,0.0,0.05372948944568634
237.0,250.0,3.3033,-0.4355,8.948,-0.0376,0.0218,-0.1171,-1.7436791859068812,0.0,2.8788485527038574,-1.6010600328445435,-0.0,2.1682639122009277,4.586098833675049,0.0,0.27440255880355835,-1.3209579626666468,0.0,-0.040830448269844055,0.30075961351394653,0.0,0.03410499542951584,1.4120378494262695,0.0,0.035358063876628876
237.0,250.0,3.3033,-0.4355,8.948,-0.0376,0.0218,-0.1171,-1.7436791859068812,0.0,2.871079921722412,-1.6011037826538086,-0.0,2.1685421466827393,4.586103125209473,0.0,0.2861061692237854,-1.3209541479693812,0.0,-0.03826664388179779,0.30072373151779175,0.0,0.05145079642534256,1.4120779037475586,0.0,0.06120120361447334
237.0,250.0,3.3033,-0.4355,8.948,-0.0376,0.0218,-0.1171,-1.7436672649779261,0.0,2.9152464866638184,-1.6010833978652954,-0.0,2.1609725952148438,4.586115522975586,0.0,0.27582401037216187,-1.320981804524557,0.0,-0.03269776329398155,0.30075162649154663,0.0,0.03660758584737778,1.412021517753601,0.0,0.05052584037184715
237.0,250.0,3.3033,-0.4355,8.948,-0.0376,0.0218,-0.1171,-1.7436796627440394,0.0,2.9537246227264404,-1.6010600328445435,-0.0,2.1514034271240234,4.58611170827832,0.0,0.2823733687400818,-1.3209460417376917,0.0,-0.041004814207553864,0.30072781443595886,0.0,0.03754706680774689,1.412045955657959,0.0,0.04746212065219879
237.0,250.0,3.3033,-0.4355,8.948,-0.0376,0.0218,-0.1171,-1.743711610833639,0.0,2.96480393409729,-1.6010998487472534,-0.0,2.1584813594818115,4.586115522975586,0.0,0.28551435470581055,-1.3209384123431605,0.0,-0.03434813767671585,0.30073967576026917,0.0,0.03766162693500519,1.4120336771011353,0.0,0.08729574829339981
237.0,250.0,3.3033,-0.4355,8.948,-0.0376,0.0218,-0.1171,-1.7436872921385707,0.0,2.9097752571105957,-1.6010560989379883,-0.0,2.163083553314209,4.5860912042805175,0.0,0.2769105136394501,-1.3209503332721155,0.0,-0.03273756802082062,0.30070775747299194,0.0,0.03292708843946457,1.4120659828186035,0.0,0.07886651903390884
237.0,250.0,3.3033,-0.4355,8.948,-0.0376,0.0218,-0.1171,-1.743655344048971,0.0,2.913802146911621,-1.6010675430297852,-0.0,2.1715831756591797,4.586115522975586,0.0,0.2844923436641693,-1.3209579626666468,0.0,-0.0461873933672905,0.3007476031780243,0.0,0.036770015954971313,1.4120378494262695,0.0,0.05325125902891159
237.0,250.0,3.3033,-0.4355,8.948,-0.0376,0.0218,-0.1171,-1.743755956689352,0.0,2.908001661300659,-1.6010634899139404,-0.0,2.1387686729431152,4.586083098048828,0.0,0.29191088676452637,-1.3209779898272913,0.0,-0.03943600505590439,0.3007197976112366,0.0,0.04644698649644852,1.4120738506317139,0.0,0.025124115869402885
237.0,250.0,3.3033,-0.4355,8.948,-0.0376,0.0218,-0.1171,-1.7437197170653285,0.0,2.8834662437438965,-1.6010675430297852,-0.0,2.1479883193969727,4.586090727443359,0.0,0.2799651324748993,-1.3209541479693812,0.0,-0.046514835208654404,0.3007357120513916,0.0,0.031180040910840034,1.4120619297027588,0.0,0.02505888044834137
237.0,250.0,3.3033,-0.4355,8.948,-0.0376,0.0218,-0.1171,-1.7436634502806605,0.0,2.8910422325134277,-1.6010833978652954,-0.0,2.1441562175750732,4.58611170827832,0.0,0.2847719192504883,-1.320930306111471,0.0,-0.025864271447062492,0.300735741853714,0.0,0.03792271763086319,1.4120862483978271,0.0,0.02790900133550167
237.0,250.0,3.3033,-0.4355,8.948,-0.0376,0.0218,-0.1171,-1.7437316379942835,0.0,2.897301197052002,-1.6010879278182983,-0.0,2.1468803882598877,4.5860912042805175,0.0,0.2832542955875397,-1.3209698835956019,0.0,-0.04549211263656616,0.30072781443595886,0.0,0.036109235137701035,1.4120701551437378,0.0,0.008043625392019749
237.0,250.0,3.3033,-0.4355,8.948,-0.0376,0.0218,-0.1171,-1.7436872921385707,0.0,2.91841459274292,-1.6010998487472534,-0.0,2.150446891784668,4.586115522975586,0.0,0.28835517168045044,-1.3209541479693812,0.0,-0.024783235043287277,0.3007476329803467,0.0,0.04063808172941208,1.412045955657959,0.0,0.0024096257984638214
237.0,250.0,3.3033,-0.4355,8.948,-0.0376,0.0218,-0.1171,-1.743711610833639,0.0,2.884342670440674,-1.6010873317718506,-0.0,2.128110885620117,4.586086912746094,0.0,0.2860758304595947,-1.320942227040426,0.0,-0.039630211889743805,0.30069175362586975,0.0,0.025481078773736954,1.4120819568634033,0.0,0.05535052716732025
237.0,250.0,3.3033,-0.4355,8.948,-0.0376,0.0218,-0.1171,-1.7436748943724574,0.0,2.865525245666504,-1.6010879278182983,-0.0,2.1248772144317627,4.58611981451001,0.0,0.2946065068244934,-1.3209541479693812,0.0,-0.03602258861064911,0.30075952410697937,0.0,0.047079768031835556,1.4120938777923584,0.0,-0.0004044715315103531
237.0,250.0,3.3033,-0.4355,8.948,-0.0376,0.0218,-0.1171,-1.7437316379942835,0.0,2.901099681854248,-1.6010634899139404,-0.0,2.1395108699798584,4.586130781764648,0.0,0.2822696268558502,-1.320942227040426,0.0,-0.03712714836001396,0.3007476329803467,0.0,0.029164113104343414,1.412045955657959,0.0,0.050655052065849304
237.0,250.0,3.3033,-0.4355,8.948,-0.0376,0.0218,-0.1171,-1.743694921533102,0.0,2.898362398147583,-1.6010794639587402,-0.0,2.186610698699951,4.586115522975586,0.0,0.29797816276550293,-1.3209899107562464,0.0,-0.03662644699215889,0.3007635176181793,0.0,0.039732709527015686,1.4120218753814697,0.0,0.015028734691441059
238.0,257.0,3.3416,-0.3936,8.7045,-0.0341,0.025,-0.1161,-1.7437159023680628,0.0,2.9138598442077637,-1.6010918617248535,-0.0,2.1552608013153076,4.586115522975586,0.0,0.2883787751197815,-1.320981804524557,0.0,-0.041669294238090515,0.30075955390930176,0.0,0.047625698149204254,1.412057876586914,0.0,0.07529932260513306
238.0,257.0,3.3416,-0.3936,8.7045,-0.0341,0.025,-0.1161,-1.7437359295287074,0.0,2.9122509956359863,-1.6011117696762085,-0.0,2.1699345111846924,4.586086912746094,0.0,0.29541146755218506,-1.3209260145770472,0.0,-0.03310265764594078,0.3007237911224365,0.0,0.035114169120788574,1.4121061563491821,0.0,-0.005923018790781498
238.0,257.0,3.3416,-0.3936,8.7045,-0.0341,0.025,-0.1161,-1.7436830006041468,0.0,2.923820972442627,-1.6010714769363403,-0.0,2.17478609085083,4.58611981451001,0.0,0.293928325176239,-1.3209741751300257,0.0,-0.036553315818309784,0.3007158637046814,0.0,0.03927158936858177,1.4120419025421143,0.0,0.07131638377904892
238.0,257.0,3.3416,-0.3936,8.7045,-0.0341,0.025,-0.1161,-1.7437197170653285,0.0,2.882091999053955,-1.6010918617248535,-0.0,2.1427059173583984,4.586130781764648,0.0,0.2878866195678711,-1.3210142294513147,0.0,-0.041546955704689026,0.30078765749931335,0.0,0.02125732973217964,1.4120819568634033,0.0,0.0036086849868297577
238.0,257.0,3.3416,-0.3936,8.7045,-0.0341,0.025,-0.1161,-1.7436830006041468,0.0,2.933866500854492,-1.6010794639587402,-0.0,2.1586616039276123,4.586103125209473,0.0,0.29030925035476685,-1.3210061232196253,0.0,-0.0439898818731308,0.3007078468799591,0.0,0.020351363345980644,1.4120979309082031,0.0,0.005483125802129507
238.0,257.0,3.3416,-0.3936,8.7045,-0.0341,0.025,-0.1161,-1.743694921533102,0.0,2.9090776443481445,-1.6011037826538086,-0.0,2.2172083854675293,4.586127920741699,0.0,0.28221753239631653,-1.3209899107562464,0.0,-0.04312528669834137,0.300819456577301,0.0,0.018767066299915314,1.4120659828186035,0.0,-0.017132066190242767
238.0,257.0,3.3416,-0.3936,8.7045,-0.0341,0.025,-0.1161,-1.7437073192992152,0.0,2.8883137702941895,-1.6010799407958984,-0.0,2.167889356613159,4.5860912042805175,0.0,0.29056698083877563,-1.3209503332721155,0.0,-0.04199771583080292,0.30067580938339233,0.0,0.02945789322257042,1.4120701551437378,0.0,0.06526695191860199
238.0,257.0,3.3416,-0.3936,8.7045,-0.0341,0.025,-0.1161,-1.7436830006041468,0.0,2.899782180786133,-1.6010675430297852,-0.0,2.1567468643188477,4.586083098048828,0.0,0.28507891297340393,-1.3209660688983362,0.0,-0.0444413460791111,0.30070385336875916,0.0,0.018804870545864105,1.412057876586914,0.0,-0.0020451073069125414
238.0,257.0,3.3416,-0.3936,8.7045,-0.0341,0.025,-0.1161,-1.7437283001341761,0.0,2.900756359100342,-1.601159930229187,-0.0,2.1758925914764404,4.586130781764648,0.0,0.29469045996665955,-1.3209980169879358,0.0,-0.03476443886756897,0.30072376132011414,0.0,0.02360241487622261,1.4120378494262695,0.0,0.015960410237312317
238.0,257.0,3.3416,-0.3936,8.7045,-0.0341,0.025,-0.1161,-1.7436467609801234,0.0,2.9049038887023926,-1.6010918617248535,-0.0,2.1161015033721924,4.58611170827832,0.0,0.28332218527793884,-1.3209660688983362,0.0,-0.036763254553079605,0.3007476329803467,0.0,0.02352769300341606,1.411989450454712,0.0,0.033576853573322296
238.0,257.0,3.3416,-0.3936,8.7045,-0.0341,0.025,-0.1161,-1.7436510525145472,0.0,2.9068708419799805,-1.6010998487472534,-0.0,2.1979482173919678,4.586083098048828,0.0,0.2976314425468445,-1.3209579626666468,0.0,-0.053510650992393494,0.3007476329803467,0.0,0.025546347722411156,1.4120861291885376,0.0,0.0229707732796669
238.0,257.0,3.3416,-0.3936,8.7045,-0.0341,0.025,-0.1161,-1.743683477441305,0.0,2.8638510704040527,-1.6010634899139404,-0.0,2.176964521408081,4.586115522975586,0.0,0.29220345616340637,-1.3209503332721155,0.0,-0.048020053654909134,0.3007436692714691,0.0,0.036258891224861145,1.4120861291885376,0.0,0.028740037232637405
238.0,257.0,3.3416,-0.3936,8.7045,-0.0341,0.025,-0.1161,-1.7436872921385707,0.0,2.8900203704833984,-1.6010918617248535,-0.0,2.1661605834960938,4.5860912042805175,0.0,0.2953776717185974,-1.3209741751300257,0.0,-0.03880670294165611,0.3007078468799591,0.0,0.03058454766869545,1.412049651145935,0.0,0.008128270506858826
238.0,257.0,3.3416,-0.3936,8.7045,-0.0341,0.025,-0.1161,-1.7436872921385707,0.0,2.940227508544922,-1.6010838747024536,-0.0,2.1380245685577393,4.586115522975586,0.0,0.2804129123687744,-1.3209579626666468,0.0,-0.04308381676673889,0.30073174834251404,0.0,0.03134813904762268,1.4120336771011353,0.0,0.03525009751319885
238.0,257.0,3.3416,-0.3936,8.7045,-0.0341,0.025,-0.1161,-1.7436830006041468,0.0,2.9044127464294434,-1.6011037826538086,-0.0,2.1704018115997314,4.586098833675049,0.0,0.28235799074172974,-1.3209503332721155,0.0,-0.037168532609939575,0.30075955390930176,0.0,0.03682112321257591,1.412057876586914,0.0,-0.001144016277976334
238.0,257.0,3.3416,-0.3936,8.7045,-0.0341,0.025,-0.1161,-1.7436915836729945,0.0,2.901639461517334,-1.6010675430297852,-0.0,2.1507949829101562,4.586126967067383,0.0,0.2843315005302429,-1.3209064642535608,0.0,-0.03539571166038513,0.3007277548313141,0.0,0.023600444197654724,1.4120419025421143,0.0,0.06560297310352325
238.0,257.0,3.3416,-0.3936,8.7045,-0.0341,0.025,-0.1161,-1.7436629734435023,0.0,2.8785128593444824,-1.6010600328445435,-0.0,2.151214838027954,4.58611981451001,0.0,0.2869899570941925,-1.3209541479693812,0.0,-0.03332514315843582,0.30067187547683716,0.0,0.03580767288804054,1.4120500087738037,0.0,0.01599837839603424
239.0,255.0,3.3117,-0.3888,8.7805,-0.0226,0.022,-0.1168,-1.7437035046019496,0.0,2.91207218170166,-1.6011037826538086,-0.0,2.1450512409210205,4.586150808925293,0.0,0.2848827540874481,-1.3209698835956019,0.0,-0.04899780452251434,0.3007476329803467,0.0,0.027665600180625916,1.4120378494262695,0.0,0.050153665244579315
239.0,255.0,3.3117,-0.3888,8.7805,-0.0226,0.022,-0.1168,-1.7436872921385707,0.0,2.9193596839904785,-1.6011037826538086,-0.0,2.1670684814453125,4.586071177119873,0.0,0.28478026390075684,-1.3209541479693812,0.0,-0.03784302622079849,0.3007356822490692,0.0,0.036225754767656326,1.4120336771011353,0.0,0.04125826805830002
239.0,255.0,3.3117,-0.3888,8.7805,-0.0226,0.022,-0.1168,-1.743711610833639,0.0,2.9009695053100586,-1.6010675430297852,-0.0,2.164491891860962,4.586139364833496,0.0,0.28808972239494324,-1.3209503332721155,0.0,-0.024624058976769447,0.30075153708457947,0.0,0.03487648442387581,1.4120336771011353,0.0,0.040980949997901917
239.0,255.0,3.3117,-0.3888,8.7805,-0.0226,0.022,-0.1168,-1.7437073192992152,0.0,2.8918890953063965,-1.6010918617248535,-0.0,2.171813488006592,4.586095495814941,0.0,0.29402124881744385,-1.3209622542010706,0.0,-0.03508588671684265,0.3006996512413025,0.0,0.03941923752427101,1.4120500087738037,0.0,-0.0018437812104821205
239.0,255.0,3.3117,-0.3888,8.7805,-0.0226,0.022,-0.1168,-1.7436830006041468,0.0,2.9155466556549072,-1.6011600494384766,-0.0,2.2278358936309814,4.5860912042805175,0.0,0.2894493639469147,-1.3209064642535608,0.0,-0.04287835955619812,0.30073174834251404,0.0,0.027636516839265823,1.4120378494262695,0.0,0.018794944509863853
239.0,255.0,3.3117,-0.3888,8.7805,-0.0226,0.022,-0.1168,-1.7437197170653285,0.0,2.8968939781188965,-1.6011037826538086,-0.0,2.1427340507507324,4.586115522975586,0.0,0.304288774728775,-1.320981804524557,0.0,-0.04572369158267975,0.30075159668922424,0.0,0.029098428785800934,1.4120819568634033,0.0,0.002035421784967184
239.0,255.0,3.3117,-0.3888,8.7805,-0.0226,0.022,-0.1168,-1.7437035046019496,0.0,2.934990167617798,-1.6010998487472534,-0.0,2.1346614360809326,4.586095018977783,0.0,0.2906759977340698,-1.3209384123431605,0.0,-0.033080101013183594,0.3007357120513916,0.0,0.023978620767593384,1.412045955657959,0.0,0.06641162931919098
239.0,255.0,3.3117,-0.3888,8.7805,-0.0226,0.022,-0.1168,-1.7437073192992152,0.0,2.88616943359375,-1.6010833978652954,-0.0,2.167759418487549,4.586083098048828,0.0,0.2861398458480835,-1.3209503332721155,0.0,-0.03736625611782074,0.3007436692714691,0.0,0.02175300568342209,1.4120336771011353,0.0,0.05313897877931595
239.0,255.0,3.3117,-0.3888,8.7805,-0.0226,0.022,-0.1168,-1.7436992130675257,0.0,2.9238500595092773,-1.6010754108428955,-0.0,2.147063732147217,4.586115522975586,0.0,0.29466769099235535,-1.3209341208087366,0.0,-0.052249014377593994,0.3007277846336365,0.0,0.03587730601429939,1.4120419025421143,0.0,0.016280509531497955
239.0,255.0,3.3117,-0.3888,8.7805,-0.0226,0.022,-0.1168,-1.7437035046019496,0.0,2.8906190395355225,-1.6011639833450317,-0.0,2.150784969329834,4.58611170827832,0.0,0.2919560670852661,-1.3209503332721155,0.0,-0.047936249524354935,0.30075156688690186,0.0,0.02056104503571987,1.4120738506317139,0.0,0.04957166686654091
239.0,255.0,3.3117,-0.3888,8.7805,-0.0226,0.022,-0.1168,-1.7436791859068812,0.0,2.9224045276641846,-1.6010794639587402,-0.0,2.1653218269348145,4.586123629207275,0.0,0.29552286863327026,-1.3209622542010706,0.0,-0.0378425195813179,0.3007079064846039,0.0,0.02979748323559761,1.4120779037475586,0.0,0.06431123614311218
239.0,255.0,3.3117,-0.3888,8.7805,-0.0226,0.022,-0.1168,-1.7437283001341761,0.0,2.8956494331359863,-1.6010799407958984,-0.0,2.186785936355591,4.586043043727539,0.0,0.2955210208892822,-1.3209660688983362,0.0,-0.03436737507581711,0.30071189999580383,0.0,0.03482741862535477,1.4120619297027588,0.0,0.006346606649458408
239.0,255.0,3.3117,-0.3888,8.7805,-0.0226,0.022,-0.1168,-1.7436710796751917,0.0,2.8945586681365967,-1.6010477542877197,-0.0,2.163051128387451,4.586099310512207,0.0,0.2832275629043579,-1.3209541479693812,0.0,-0.0309370756149292,0.30070760846138,0.0,0.029759574681520462,1.4120779037475586,0.0,0.05770743638277054
239.0,255.0,3.3117,-0.3888,8.7805,-0.0226,0.022,-0.1168,-1.7436710796751917,0.0,2.9198527336120605,-1.6010159254074097,-0.0,2.2279105186462402,4.58611981451001,0.0,0.2880093455314636,-1.320942227040426,0.0,-0.052176155149936676,0.3007555603981018,0.0,0.03695708513259888,1.4120779037475586,0.0,0.02681090123951435
239.0,255.0,3.3117,-0.3888,8.7805,-0.0226,0.022,-0.1168,-1.7436796627440394,0.0,2.892885684967041,-1.6010998487472534,-0.0,2.2050843238830566,4.586103125209473,0.0,0.29150858521461487,-1.3209860960589808,0.0,-0.029024092480540276,0.3007555603981018,0.0,0.021370770409703255,1.4120336771011353,0.0,0.04357115924358368
239.0,255.0,3.3117,-0.3888,8.7805,-0.0226,0.022,-0.1168,-1.7436672649779261,0.0,2.9002652168273926,-1.6010600328445435,-0.0,2.1660377979278564,4.586078806514404,0.0,0.28614702820777893,-1.3209503332721155,0.0,-0.040565360337495804,0.30073174834251404,0.0,0.02980906516313553,1.4120656251907349,0.0,0.04099337011575699
239.0,255.0,3.3117,-0.3888,8.7805,-0.0226,0.022,-0.1168,-1.7437359295287074,0.0,2.898564100265503,-1.6010998487472534,-0.0,2.1574459075927734,4.58611981451001,0.0,0.284468412399292,-1.3209264914142054,0.0,-0.03806053102016449,0.3007158637046814,0.0,0.027659814804792404,1.412021517753601,0.0,-0.015655213966965675
228.0,253.0,3.2518,-0.4528,8.9402,-0.0412,0.0226,-0.1122,-1.7436872921385707,0.0,2.908118724822998,-1.6011196374893188,-0.0,2.189105272293091,4.586083098048828,0.0,0.2959729731082916,-1.3209860960589808,0.0,-0.03260323032736778,0.30077970027923584,0.0,0.040043625980615616,1.4120336771011353,0.0,0.03088749758899212
228.0,253.0,3.2518,-0.4528,8.9402,-0.0412,0.0226,-0.1122,-1.7436992130675257,0.0,2.902198314666748,-1.6010794639587402,-0.0,2.183626174926758,4.586126967067383,0.0,0.277917742729187,-1.320918385182516,0.0,-0.04683952033519745,0.30066001415252686,0.0,0.029267361387610435,1.4120378494262695,0.0,0.009035899303853512
228.0,253.0,3.2518,-0.4528,8.9402,-0.0412,0.0226,-0.1122,-1.7437359295287074,0.0,2.8984313011169434,-1.6010714769363403,-0.0,2.1898539066314697,4.5860912042805175,0.0,0.2758621573448181,-1.3209741751300257,0.0,-0.03525032848119736,0.30073174834251404,0.0,0.04272224009037018,1.4120898246765137,0.0,-0.005967958830296993
228.0,253.0,3.2518,-0.4528,8.9402,-0.0412,0.0226,-0.1122,-1.7437035046019496,0.0,2.89502215385437,-1.6011157035827637,-0.0,2.1573686599731445,4.586123629207275,0.0,0.2931428551673889,-1.3210061232196253,0.0,-0.03657519444823265,0.3007356822490692,0.0,0.021623097360134125,1.4120296239852905,0.0,0.028432557359337807
228.0,253.0,3.2518,-0.4528,8.9402,-0.0412,0.0226,-0.1122,-1.74369539837026,0.0,2.9072604179382324,-1.6010959148406982,-0.0,2.152222156524658,4.586098833675049,0.0,0.29014214873313904,-1.3209660688983362,0.0,-0.03887420892715454,0.30078762769699097,0.0,0.03864363208413124,1.4120819568634033,0.0,0.05327330902218819
228.0,253.0,3.2518,-0.4528,8.9402,-0.0412,0.0226,-0.1122,-1.743655344048971,0.0,2.886713981628418,-1.6010873317718506,-0.0,2.167513608932495,4.58611981451001,0.0,0.2847086489200592,-1.3209384123431605,0.0,-0.026378773152828217,0.30072784423828125,0.0,0.03444637358188629,1.4120701551437378,0.0,0.014568513259291649
228.0,253.0,3.2518,-0.4528,8.9402,-0.0412,0.0226,-0.1122,-1.743699689904684,0.0,2.896124839782715,-1.6011117696762085,-0.0,2.1322336196899414,4.586130781764648,0.0,0.2931705117225647,-1.3209660688983362,0.0,-0.04092153534293175,0.30077141523361206,0.0,0.014189156703650951,1.4120378494262695,0.0,0.004110283218324184
228.0,253.0,3.2518,-0.4528,8.9402,-0.0412,0.0226,-0.1122,-1.7436992130675257,0.0,2.9200072288513184,-1.6010918617248535,-0.0,2.160443067550659,4.586083098048828,0.0,0.2885781228542328,-1.3209341208087366,0.0,-0.03848522529006004,0.30073174834251404,0.0,0.01789720728993416,1.4120819568634033,0.0,0.05069335550069809
228.0,253.0,3.2518,-0.4528,8.9402,-0.0412,0.0226,-0.1122,-1.7437035046019496,0.0,2.8981714248657227,-1.6011117696762085,-0.0,2.1383352279663086,4.586115522975586,0.0,0.28861600160598755,-1.3209660688983362,0.0,-0.038837410509586334,0.300735741853714,0.0,0.022831013426184654,1.4120136499404907,0.0,0.01176883652806282
228.0,253.0,3.2518,-0.4528,8.9402,-0.0412,0.0226,-0.1122,-1.7436830006041468,0.0,2.902557849884033,-1.6011037826538086,-0.0,2.1013131141662598,4.58611981451001,0.0,0.28788653016090393,-1.3209660688983362,0.0,-0.03229113668203354,0.3007357120513916,0.0,0.03064620867371559,1.4120659828186035,0.0,-0.024755943566560745
228.0,253.0,3.2518,-0.4528,8.9402,-0.0412,0.0226,-0.1122,-1.7436710796751917,0.0,2.935591697692871,-1.6010998487472534,-0.0,2.1341562271118164,4.586135073299072,0.0,0.2983483672142029,-1.3209698835956019,0.0,-0.03164713457226753,0.3007476329803467,0.0,0.01785319112241268,1.4120619297027588,0.0,0.03155457600951195
228.0,253.0,3.2518,-0.4528,8.9402,-0.0412,0.0226,-0.1122,-1.7436911068358363,0.0,2.9016685485839844,-1.6011037826538086,-0.0,2.110989809036255,4.586115522975586,0.0,0.2963593602180481,-1.3209779898272913,0.0,-0.03392781317234039,0.30073174834251404,0.0,0.022181741893291473,1.41203773021698,0.0,0.017191922292113304
228.0,253.0,3.2518,-0.4528,8.9402,-0.0412,0.0226,-0.1122,-1.7436629734435023,0.0,2.949326992034912,-1.6011117696762085,-0.0,2.1769356727600098,4.58611170827832,0.0,0.28851181268692017,-1.3209460417376917,0.0,-0.047245092689991,0.3007718026638031,0.0,0.025299932807683945,1.4120659828186035,0.0,0.035633474588394165
228.0,253.0,3.2518,-0.4528,8.9402,-0.0412,0.0226,-0.1122,-1.7437359295287074,0.0,2.908322811126709,-1.6011321544647217,-0.0,2.1564507484436035,4.586123629207275,0.0,0.2804473042488098,-1.3209503332721155,0.0,-0.049467600882053375,0.30075159668922424,0.0,0.029612470418214798,1.4120659828186035,0.0,-0.020422212779521942
228.0,253.0,3.2518,-0.4528,8.9402,-0.0412,0.0226,-0.1122,-1.7436591587462367,0.0,2.8937549591064453,-1.6011077165603638,-0.0,2.156782865524292,4.5860912042805175,0.0,0.27554619312286377,-1.3209460417376917,0.0,-0.03631553426384926,0.3007078766822815,0.0,0.025522254407405853,1.4120378494262695,0.0,-0.026500046253204346
228.0,253.0,3.2518,-0.4528,8.9402,-0.0412,0.0226,-0.1122,-1.7437159023680628,0.0,2.903681993484497,-1.6010481119155884,-0.0,2.1754488945007324,4.58611981451001,0.0,0.2910795211791992,-1.320981804524557,0.0,-0.047285545617341995,0.3007357120513916,0.0,0.03236502781510353,1.412054181098938,0.0,0.04808049649000168
228.0,253.0,3.2518,-0.4528,8.9402,-0.0412,0.0226,-0.1122,-1.7436830006041468,0.0,2.857295513153076,-1.6010918617248535,-0.0,2.193281650543213,4.586143179530762,0.0,0.2864508330821991,-1.3209899107562464,0.0,-0.05016058683395386,0.3007158935070038,0.0,0.034232012927532196,1.412045955657959,0.0,0.025792421773076057
235.0,258.0,3.3739,-0.3787,8.7954,-0.0359,0.0286,-0.1237,-1.743711610833639,0.0,2.911663770675659,-1.6010918617248535,-0.0,2.1679842472076416,4.586115522975586,0.0,0.2828255295753479,-1.3209779898272913,0.0,-0.03795487433671951,0.3007476329803467,0.0,0.0412573479115963,1.412057876586914,0.0,0.05932540446519852
235.0,258.0,3.3739,-0.3787,8.7954,-0.0359,0.0286,-0.1237,-1.7437240085997523,0.0,2.8891139030456543,-1.601120114326477,-0.0,2.1589667797088623,4.586122675532959,0.0,0.2913929522037506,-1.3209460417376917,0.0,-0.039269234985113144,0.30077970027923584,0.0,0.028805937618017197,1.412049651145935,0.0,0.00530623784288764
235.0,258.0,3.3739,-0.3787,8.7954,-0.0359,0.0286,-0.1237,-1.7437035046019496,0.0,2.895737648010254,-1.6010674238204956,-0.0,2.197856903076172,4.586098833675049,0.0,0.292070597410202,-1.3209622542010706,0.0,-0.03720925748348236,0.3007555603981018,0.0,0.02595178782939911,1.412045955657959,0.0,0.004525665193796158
235.0,258.0,3.3739,-0.3787,8.7954,-0.0359,0.0286,-0.1237,-1.7436310253539027,0.0,2.8846724033355713,-1.6010794639587402,-0.0,2.1582789421081543,4.58611170827832,0.0,0.2831265926361084,-1.3209698835956019,0.0,-0.04549315571784973,0.3007317781448364,0.0,0.026540961116552353,1.4120254516601562,0.0,0.04428408294916153
235.0,258.0,3.3739,-0.3787,8.7954,-0.0359,0.0286,-0.1237,-1.7437440357603968,0.0,2.8544936180114746,-1.6010481119155884,-0.0,2.200195789337158,4.586155100459717,0.0,0.2837687134742737,-1.3209660688983362,0.0,-0.0429922416806221,0.3007237911224365,0.0,0.013289697468280792,1.4120697975158691,0.0,0.0045133125968277454
235.0,258.0,3.3739,-0.3787,8.7954,-0.0359,0.0286,-0.1237,-1.7436992130675257,0.0,2.8986616134643555,-1.6010794639587402,-0.0,2.2052388191223145,4.586078806514404,0.0,0.2882295548915863,-1.3209503332721155,0.0,-0.03493228182196617,0.3007555305957794,0.0,0.03886720538139343,1.4120659828186035,0.0,0.03797798603773117
235.0,258.0,3.3739,-0.3787,8.7954,-0.0359,0.0286,-0.1237,-1.743655344048971,0.0,2.915505886077881,-1.6010918617248535,-0.0,2.156906843185425,4.586115522975586,0.0,0.2854931354522705,-1.3209503332721155,0.0,-0.04515516757965088,0.3007635474205017,0.0,0.03107082098722458,1.4120738506317139,0.0,0.030568573623895645
235.0,258.0,3.3739,-0.3787,8.7954,-0.0359,0.0286,-0.1237,-1.7436672649779261,0.0,2.9064955711364746,-1.6011037826538086,-0.0,2.1291964054107666,4.586078806514404,0.0,0.3028262257575989,-1.3209503332721155,0.0,-0.03751968592405319,0.30069974064826965,0.0,0.029421452432870865,1.4120738506317139,0.0,-0.022424986585974693
235.0,258.0,3.3739,-0.3787,8.7954,-0.0359,0.0286,-0.1237,-1.7436629734435023,0.0,2.8945794105529785,-1.601123571395874,-0.0,2.174290418624878,4.586139364833496,0.0,0.29556840658187866,-1.3209503332721155,0.0,-0.04487195238471031,0.30073174834251404,0.0,0.018935244530439377,1.4120419025421143,0.0,0.03551201522350311
235.0,258.0,3.3739,-0.3787,8.7954,-0.0359,0.0286,-0.1237,-1.7436710796751917,0.0,2.9020776748657227,-1.6010959148406982,-0.0,2.182931423187256,4.58611981451001,0.0,0.30154213309288025,-1.320981804524557,0.0,-0.03705763816833496,0.3007674515247345,0.0,0.029305437579751015,1.4120738506317139,0.0,0.0447331964969635
235.0,258.0,3.3739,-0.3787,8.7954,-0.0359,0.0286,-0.1237,-1.7436472378172816,0.0,2.8658456802368164,-1.6010714769363403,-0.0,2.1560797691345215,4.58611981451001,0.0,0.28816094994544983,-1.320942227040426,0.0,-0.0553947314620018,0.3007713854312897,0.0,0.013808043673634529,1.4121021032333374,0.0,0.03115634061396122
235.0,258.0,3.3739,-0.3787,8.7954,-0.0359,0.0286,-0.1237,-1.7437159023680628,0.0,2.933810234069824,-1.6010714769363403,-0.0,2.095811605453491,4.586095495814941,0.0,0.2796378433704376,-1.3209698835956019,0.0,-0.037429291754961014,0.3007476329803467,0.0,0.028575636446475983,1.4120296239852905,0.0,0.03535929322242737
235.0,258.0,3.3739,-0.3787,8.7954,-0.0359,0.0286,-0.1237,-1.7436467609801234,0.0,2.8790271282196045,-1.6010754108428955,-0.0,2.1670610904693604,4.586083098048828,0.0,0.28079521656036377,-1.3209622542010706,0.0,-0.04261806234717369,0.30070367455482483,0.0,0.028914369642734528,1.412054181098938,0.0,-0.014842584729194641
235.0,258.0,3.3739,-0.3787,8.7954,-0.0359,0.0286,-0.1237,-1.7436353168883265,0.0,2.909597873687744,-1.6011196374893188,-0.0,2.1660068035125732,4.58611170827832,0.0,0.2854826748371124,-1.3209541479693812,0.0,-0.045718640089035034,0.30069175362586975,0.0,0.02513650618493557,1.4120619297027588,0.0,0.013622818514704704
235.0,258.0,3.3739,-0.3787,8.7954,-0.0359,0.0286,-0.1237,-1.7437321148314417,0.0,2.90910005569458,-1.6011037826538086,-0.0,2.1293082237243652,4.586086912746094,0.0,0.2838573455810547,-1.3209264914142054,0.0,-0.053509559482336044,0.30073967576026917,0.0,0.035004790872335434,1.412009596824646,0.0,0.05136127769947052
235.0,258.0,3.3739,-0.3787,8.7954,-0.0359,0.0286,-0.1237,-1.743711610833639,0.0,2.873788833618164,-1.6010600328445435,-0.0,2.1590113639831543,4.586103125209473,0.0,0.2725414037704468,-1.320918385182516,0.0,-0.04247327148914337,0.3007555305957794,0.0,0.02496001496911049,1.4120177030563354,0.0,0.0010574311017990112
235.0,258.0,3.3739,-0.3787,8.7954,-0.0359,0.0286,-0.1237,-1.7436992130675257,0.0,2.87149715423584,-1.6010680198669434,-0.0,2.145310401916504,4.586086912746094,0.0,0.2974679172039032,-1.3209741751300257,0.0,-0.04877631366252899,0.3007237911224365,0.0,0.03257060796022415,1.4120738506317139,0.0,0.011302703991532326
239.0,247.0,3.3176,-0.3834,8.6489,-0.0279,0.0264,-0.1254,-1.7436872921385707,0.0,2.877075433731079,-1.6010998487472534,-0.0,2.1423208713531494,4.586103125209473,0.0,0.2789973020553589,-1.3209622542010706,0.0,-0.042491614818573,0.3007039725780487,0.0,0.03600003942847252,1.4120419025421143,0.0,0.016312072053551674
239.0,247.0,3.3176,-0.3834,8.6489,-0.0279,0.0264,-0.1254,-1.743699689904684,0.0,2.8903980255126953,-1.6011196374893188,-0.0,2.174112319946289,4.586086912746094,0.0,0.2877717614173889,-1.3209264914142054,0.0,-0.05294003337621689,0.30076348781585693,0.0,0.02976975217461586,1.4120136499404907,0.0,0.01299508847296238
239.0,247.0,3.3176,-0.3834,8.6489,-0.0279,0.0264,-0.1254,-1.7437073192992152,0.0,2.907604932785034,-1.6010757684707642,-0.0,2.1722376346588135,4.586115522975586,0.0,0.28647980093955994,-1.3209541479693812,0.0,-0.024988144636154175,0.3007555305957794,0.0,0.019389133900403976,1.4120819568634033,0.0,0.029700107872486115
239.0,247.0,3.3176,-0.3834,8.6489,-0.0279,0.0264,-0.1254,-1.7436791859068812,0.0,2.954294204711914,-1.6011117696762085,-0.0,2.150588274002075,4.586083098048828,0.0,0.2835136353969574,-1.3209503332721155,0.0,-0.04756598919630051,0.3007357120513916,0.0,0.03017614223062992,1.412054181098938,0.0,0.045748271048069
239.0,247.0,3.3176,-0.3834,8.6489,-0.0279,0.0264,-0.1254,-1.7437197170653285,0.0,2.883066177368164,-1.6010594367980957,-0.0,2.139599084854126,4.586115522975586,0.0,0.2980242073535919,-1.3209503332721155,0.0,-0.031092099845409393,0.30071163177490234,0.0,0.01900457963347435,1.4120218753814697,0.0,0.04301410913467407
239.0,247.0,3.3176,-0.3834,8.6489,-0.0279,0.0264,-0.1254,-1.7436791859068812,0.0,2.8666560649871826,-1.6011481285095215,-0.0,2.1653220653533936,4.586090727443359,0.0,0.28765588998794556,-1.3209579626666468,0.0,-0.04438476264476776,0.30069971084594727,0.0,0.03421424701809883,1.4120659828186035,0.0,-0.012869794853031635
239.0,247.0,3.3176,-0.3834,8.6489,-0.0279,0.0264,-0.1254,-1.7437440357603968,0.0,2.8949601650238037,-1.6011559963226318,-0.0,2.1760923862457275,4.586107416743896,0.0,0.2899981737136841,-1.3209698835956019,0.0,-0.04178089275956154,0.3007156252861023,0.0,0.026250284165143967,1.4120378494262695,0.0,0.024867985397577286
239.0,247.0,3.3176,-0.3834,8.6489,-0.0279,0.0264,-0.1254,-1.7436791859068812,0.0,2.8955116271972656,-1.6010959148406982,-0.0,2.1540141105651855,4.586115522975586,0.0,0.2898511290550232,-1.320981804524557,0.0,-0.041374292224645615,0.30072781443595886,0.0,0.04000774025917053,1.4120701551437378,0.0,0.0988963395357132
239.0,247.0,3.3176,-0.3834,8.6489,-0.0279,0.0264,-0.1254,-1.7436915836729945,0.0,2.9231739044189453,-1.6010998487472534,-0.0,2.145554304122925,4.586107416743896,0.0,0.28703179955482483,-1.3209460417376917,0.0,-0.04292780160903931,0.30075955390930176,0.0,0.03571879491209984,1.4120057821273804,0.0,0.06575672328472137
239.0,247.0,3.3176,-0.3834,8.6489,-0.0279,0.0264,-0.1254,-1.7436872921385707,0.0,2.915379524230957,-1.6010838747024536,-0.0,2.146115303039551,4.586123629207275,0.0,0.2795032262802124,-1.3209541479693812,0.0,-0.053112491965293884,0.3007158935070038,0.0,0.030254140496253967,1.4120255708694458,0.0,0.041563138365745544
239.0,247.0,3.3176,-0.3834,8.6489,-0.0279,0.0264,-0.1254,-1.7437035046019496,0.0,2.8553085327148438,-1.6011117696762085,-0.0,2.1359591484069824,4.586107416743896,0.0,0.29869282245635986,-1.3209779898272913,0.0,-0.03768407925963402,0.3007357120513916,0.0,0.040291398763656616,1.4120500087738037,0.0,0.07327351719141006
239.0,247.0,3.3176,-0.3834,8.6489,-0.0279,0.0264,-0.1254,-1.7436672649779261,0.0,2.9200990200042725,-1.6010640859603882,-0.0,2.1452276706695557,4.586083098048828,0.0,0.2919587790966034,-1.3209698835956019,0.0,-0.03967564180493355,0.300783634185791,0.0,0.02312200888991356,1.412045955657959,0.0,-0.00979500450193882
239.0,247.0,3.3176,-0.3834,8.6489,-0.0279,0.0264,-0.1254,-1.7436830006041468,0.0,2.8965067863464355,-1.6010476350784302,-0.0,2.1347460746765137,4.586098833675049,0.0,0.28270113468170166,-1.320902172719137,0.0,-0.039540231227874756,0.3007237911224365,0.0,0.03083297610282898,1.412057876586914,0.0,0.04490228742361069
239.0,247.0,3.3176,-0.3834,8.6489,-0.0279,0.0264,-0.1254,-1.7436710796751917,0.0,2.8942008018493652,-1.6010879278182983,-0.0,2.159433603286743,4.586111231441162,0.0,0.3020729124546051,-1.3209503332721155,0.0,-0.0516691654920578,0.3007316291332245,0.0,0.024399518966674805,1.4120819568634033,0.0,-0.01338114868849516
239.0,247.0,3.3176,-0.3834,8.6489,-0.0279,0.0264,-0.1254,-1.7437073192992152,0.0,2.9144086837768555,-1.6010959148406982,-0.0,2.1510062217712402,4.586066885585449,0.0,0.2921074330806732,-1.3209503332721155,0.0,-0.02239377051591873,0.3007357120513916,0.0,0.02857034280896187,1.4120659828186035,0.0,-0.02237352915108204
239.0,247.0,3.3176,-0.3834,8.6489,-0.0279,0.0264,-0.1254,-1.7436143360533656,0.0,2.9119625091552734,-1.6011236906051636,-0.0,2.174985885620117,4.586107416743896,0.0,0.28890368342399597,-1.320981804524557,0.0,-0.03696983680129051,0.3007357120513916,0.0,0.03591207414865494,1.4120659828186035,0.0,-0.024752546101808548
239.0,247.0,3.3176,-0.3834,8.6489,-0.0279,0.0264,-0.1254,-1.7437440357603968,0.0,2.912654399871826,-1.6011236906051636,-0.0,2.177609443664551,4.586086912746094,0.0,0.28349947929382324,-1.3209741751300257,0.0,-0.04147981107234955,0.3007357120513916,0.0,0.03943028673529625,1.4120296239852905,0.0,-0.03329267352819443
235.0,252.0,3.3595,-0.4259,8.7547,-0.0307,0.0279,-0.1213,-1.7436753712096156,0.0,2.9100325107574463,-1.6011356115341187,-0.0,2.1204352378845215,4.58611170827832,0.0,0.28100207448005676,-1.3209698835956019,0.0,-0.0322226919233799,0.300767719745636,0.0,0.01638571172952652,1.4120659828186035,0.0,0.016781412065029144
235.0,252.0,3.3595,-0.4259,8.7547,-0.0307,0.0279,-0.1213,-1.7436915836729945,0.0,2.8989851474761963,-1.6011441946029663,-0.0,2.157609701156616,4.586086912746094,0.0,0.28340238332748413,-1.3209460417376917,0.0,-0.04755012318491936,0.3007156252861023,0.0,0.013600160367786884,1.412054181098938,0.0,0.042857564985752106
235.0,252.0,3.3595,-0.4259,8.7547,-0.0307,0.0279,-0.1213,-1.7437035046019496,0.0,2.9346225261688232,-1.6011277437210083,-0.0,2.176422595977783,4.586098833675049,0.0,0.29512014985084534,-1.3209460417376917,0.0,-0.01866595633327961,0.30066725611686707,0.0,0.02394832670688629,1.4120619297027588,0.0,0.02279004268348217
235.0,252.0,3.3595,-0.4259,8.7547,-0.0307,0.0279,-0.1213,-1.7436591587462367,0.0,2.928809642791748,-1.6010959148406982,-0.0,2.155118465423584,4.586098833675049,0.0,0.28316304087638855,-1.3209980169879358,0.0,-0.02811359614133835,0.3007557690143585,0.0,0.025289297103881836,1.4120500087738037,0.0,0.038725607097148895
235.0,252.0,3.3595,-0.4259,8.7547,-0.0307,0.0279,-0.1213,-1.7436872921385707,0.0,2.906147003173828,-1.6010714769363403,-0.0,2.1713109016418457,4.586098833675049,0.0,0.29339471459388733,-1.3209341208087366,0.0,-0.04299171268939972,0.30071985721588135,0.0,0.024996472522616386,1.4120378494262695,0.0,0.04554940387606621
235.0,252.0,3.3595,-0.4259,8.7547,-0.0307,0.0279,-0.1213,-1.7436310253539027,0.0,2.892777681350708,-1.6011077165603638,-0.0,2.133126735687256,4.586107416743896,0.0,0.2915693521499634,-1.320918385182516,0.0,-0.025372426956892014,0.30070731043815613,0.0,0.03694765269756317,1.4120255708694458,0.0,0.05253872647881508
235.0,252.0,3.3595,-0.4259,8.7547,-0.0307,0.0279,-0.1213,-1.7437321148314417,0.0,2.909742832183838,-1.6011356115341187,-0.0,2.1803817749023438,4.586083098048828,0.0,0.2866665720939636,-1.3209541479693812,0.0,-0.024646341800689697,0.30074355006217957,0.0,0.02648867294192314,1.4120779037475586,0.0,0.029622577130794525
235.0,252.0,3.3595,-0.4259,8.7547,-0.0307,0.0279,-0.1213,-1.7436796627440394,0.0,2.883270502090454,-1.6011117696762085,-0.0,2.171816110610962,4.586122675532959,0.0,0.2880646586418152,-1.320930306111471,0.0,-0.03684231638908386,0.3007476031780243,0.0,0.021729756146669388,1.4120738506317139,0.0,-0.04259253293275833
235.0,252.0,3.3595,-0.4259,8.7547,-0.0307,0.0279,-0.1213,-1.7437035046019496,0.0,2.8970017433166504,-1.6011277437210083,-0.0,2.158785343170166,4.58611170827832,0.0,0.29168736934661865,-1.3209660688983362,0.0,-0.029042335227131844,0.3007476329803467,0.0,0.012858550995588303,1.4120218753814697,0.0,0.018593337386846542
235.0,252.0,3.3595,-0.4259,8.7547,-0.0307,0.0279,-0.1213,-1.7437035046019496,0.0,2.9064879417419434,-1.6010879278182983,-0.0,2.141159772872925,4.586103125209473,0.0,0.2861095368862152,-1.3209460417376917,0.0,-0.05435784161090851,0.30068740248680115,0.0,0.006452135741710663,1.4121060371398926,0.0,0.0541376993060112
235.0,252.0,3.3595,-0.4259,8.7547,-0.0307,0.0279,-0.1213,-1.7437197170653285,0.0,2.8796310424804688,-1.6011077165603638,-0.0,2.1904866695404053,4.5860912042805175,0.0,0.275778591632843,-1.3209541479693812,0.0,-0.026008078828454018,0.30069977045059204,0.0,0.02758849412202835,1.4120538234710693,0.0,0.032123785465955734
235.0,252.0,3.3595,-0.4259,8.7547,-0.0307,0.0279,-0.1213,-1.7437035046019496,0.0,2.8837151527404785,-1.6011196374893188,-0.0,2.1427626609802246,4.586115522975586,0.0,0.3056962192058563,-1.3209503332721155,0.0,-0.03537215292453766,0.3007237911224365,0.0,0.025403106585144997,1.4120659828186035,0.0,-0.019909817725419998
235.0,252.0,3.3595,-0.4259,8.7547,-0.0307,0.0279,-0.1213,-1.743655344048971,0.0,2.9051527976989746,-1.6010559797286987,-0.0,2.173111915588379,4.586115522975586,0.0,0.2843315005302429,-1.3209579626666468,0.0,-0.03429897502064705,0.30077993869781494,0.0,0.025915633887052536,1.4120980501174927,0.0,0.008852076716721058
235.0,252.0,3.3595,-0.4259,8.7547,-0.0307,0.0279,-0.1213,-1.7436791859068812,0.0,2.8458216190338135,-1.601111888885498,-0.0,2.1421549320220947,4.586130781764648,0.0,0.2930988669395447,-1.3209779898272913,0.0,-0.04372674226760864,0.3007356822490692,0.0,0.02455305866897106,1.412054181098938,0.0,0.0608624592423439
235.0,252.0,3.3595,-0.4259,8.7547,-0.0307,0.0279,-0.1213,-1.7436753712096156,0.0,2.850360870361328,-1.6010794639587402,-0.0,2.134946584701538,4.58611981451001,0.0,0.2853957414627075,-1.3209860960589808,0.0,-0.03894456848502159,0.30074355006217957,0.0,0.018627680838108063,1.4120255708694458,0.0,0.036721933633089066
235.0,252.0,3.3595,-0.4259,8.7547,-0.0307,0.0279,-0.1213,-1.7436591587462367,0.0,2.912595272064209,-1.6010361909866333,-0.0,2.1624951362609863,4.586107416743896,0.0,0.27588245272636414,-1.3209698835956019,0.0,-0.03650697320699692,0.3007073998451233,0.0,0.03788485378026962,1.4120819568634033,0.0,-0.048381488770246506
235.0,252.0,3.3595,-0.4259,8.7547,-0.0307,0.0279,-0.1213,-1.7437321148314417,0.0,2.9100303649902344,-1.601111888885498,-0.0,2.152015447616577,4.586074991817139,0.0,0.2799617648124695,-1.3209741751300257,0.0,-0.04353927820920944,0.3007393777370453,0.0,0.03407280147075653,1.4120980501174927,0.0,0.026844017207622528
244.0,252.0,3.3165,-0.4355,8.7165,-0.0373,0.029,-0.1191,-1.7437521419920863,0.0,2.88547420501709,-1.6011321544647217,-0.0,2.155120849609375,4.586135073299072,0.0,0.29073381423950195,-1.3209460417376917,0.0,-0.036533087491989136,0.30074355006217957,0.0,0.03244484215974808,1.4120622873306274,0.0,-0.012814129702746868
244.0,252.0,3.3165,-0.4355,8.7165,-0.0373,0.029,-0.1191,-1.7436710796751917,0.0,2.9062652587890625,-1.6011357307434082,-0.0,2.160123825073242,4.586098833675049,0.0,0.2932155430316925,-1.3209698835956019,0.0,-0.04158308729529381,0.30076363682746887,0.0,0.02374010719358921,1.412009596824646,0.0,-0.01444798894226551
244.0,252.0,3.3165,-0.4355,8.7165,-0.0373,0.029,-0.1191,-1.7436591587462367,0.0,2.9265787601470947,-1.6011236906051636,-0.0,2.1337132453918457,4.586130781764648,0.0,0.2770143449306488,-1.3209622542010706,0.0,-0.04363361373543739,0.3007357120513916,0.0,0.016459206119179726,1.4120619297027588,0.0,0.05853379890322685
244.0,252.0,3.3165,-0.4355,8.7165,-0.0373,0.029,-0.1191,-1.7436992130675257,0.0,2.9515140056610107,-1.6010957956314087,-0.0,2.145411968231201,4.586130781764648,0.0,0.28749731183052063,-1.3209779898272913,0.0,-0.03958497196435928,0.3007316291332245,0.0,0.021907541900873184,1.4120619297027588,0.0,0.05830607935786247
244.0,252.0,3.3165,-0.4355,8.7165,-0.0373,0.029,-0.1191,-1.7436830006041468,0.0,2.9561898708343506,-1.6011158227920532,-0.0,2.1320693492889404,4.586098833675049,0.0,0.2950138449668884,-1.320918385182516,0.0,-0.030837655067443848,0.300767719745636,0.0,0.025193115696310997,1.4120701551437378,0.0,0.05091973766684532
244.0,252.0,3.3165,-0.4355,8.7165,-0.0373,0.029,-0.1191,-1.7436915836729945,0.0,2.9053707122802734,-1.6011520624160767,-0.0,2.101790428161621,4.586086912746094,0.0,0.29086950421333313,-1.3209698835956019,0.0,-0.05318886414170265,0.3007640838623047,0.0,0.016023188829421997,1.4120177030563354,0.0,0.025836022570729256
244.0,252.0,3.3165,-0.4355,8.7165,-0.0373,0.029,-0.1191,-1.7436992130675257,0.0,2.8799471855163574,-1.6011157035827637,-0.0,2.186380386352539,4.586115522975586,0.0,0.281009703874588,-1.3209779898272913,0.0,-0.04013299196958542,0.30068325996398926,0.0,0.03615886718034744,1.4120659828186035,0.0,0.010654164478182793
244.0,252.0,3.3165,-0.4355,8.7165,-0.0373,0.029,-0.1191,-1.7436634502806605,0.0,2.905243396759033,-1.6010479927062988,-0.0,2.1599740982055664,4.586107416743896,0.0,0.29342299699783325,-1.3209579626666468,0.0,-0.0527535155415535,0.3007393777370453,0.0,0.028806479647755623,1.4120819568634033,0.0,0.026223767548799515
244.0,252.0,3.3165,-0.4355,8.7165,-0.0373,0.029,-0.1191,-1.7436872921385707,0.0,2.8806185722351074,-1.6010833978652954,-0.0,2.14096736907959,4.586171312923096,0.0,0.28769293427467346,-1.3209660688983362,0.0,-0.04560397192835808,0.3007718324661255,0.0,0.04386987164616585,1.4120738506317139,0.0,0.063992440700531
244.0,252.0,3.3165,-0.4355,8.7165,-0.0373,0.029,-0.1191,-1.743655344048971,0.0,2.8770782947540283,-1.6010714769363403,-0.0,2.13401460647583,4.586115522975586,0.0,0.28255516290664673,-1.3209384123431605,0.0,-0.03471246734261513,0.3007517158985138,0.0,0.015016015619039536,1.4120619297027588,0.0,0.0384591743350029
244.0,252.0,3.3165,-0.4355,8.7165,-0.0373,0.029,-0.1191,-1.7436915836729945,0.0,2.90582275390625,-1.6010754108428955,-0.0,2.1355297565460205,4.586071177119873,0.0,0.2716067135334015,-1.3209579626666468,0.0,-0.03986639529466629,0.3007320463657379,0.0,0.03360171616077423,1.4120738506317139,0.0,0.00789171364158392
244.0,252.0,3.3165,-0.4355,8.7165,-0.0373,0.029,-0.1191,-1.7436830006041468,0.0,2.8983042240142822,-1.6010833978652954,-0.0,2.1409549713134766,4.586146994228027,0.0,0.28048598766326904,-1.3209460417376917,0.0,-0.041978418827056885,0.3007397949695587,0.0,0.01669279858469963,1.4120701551437378,0.0,0.027878766879439354
244.0,252.0,3.3165,-0.4355,8.7165,-0.0373,0.029,-0.1191,-1.743711610833639,0.0,2.8894591331481934,-1.6010874509811401,-0.0,2.1853597164154053,4.586107416743896,0.0,0.2853480577468872,-1.3209779898272913,0.0,-0.04493124037981033,0.30070745944976807,0.0,0.023101605474948883,1.4121021032333374,0.0,0.009044213220477104
244.0,252.0,3.3165,-0.4355,8.7165,-0.0373,0.029,-0.1191,-1.7437440357603968,0.0,2.8780734539031982,-1.6010918617248535,-0.0,2.1812407970428467,4.586107416743896,0.0,0.29140058159828186,-1.3209221998797815,0.0,-0.03648247569799423,0.30077996850013733,0.0,0.03718645125627518,1.4120538234710693,0.0,0.07098942250013351
244.0,252.0,3.3165,-0.4355,8.7165,-0.0373,0.029,-0.1191,-1.7436748943724574,0.0,2.951138496398926,-1.6010640859603882,-0.0,2.1706554889678955,4.586098833675049,0.0,0.29288509488105774,-1.3209341208087366,0.0,-0.034179024398326874,0.30070337653160095,0.0,0.021145228296518326,1.4120819568634033,0.0,0.07153530418872833
244.0,252.0,3.3165,-0.4355,8.7165,-0.0373,0.029,-0.1191,-1.7437035046019496,0.0,2.9245128631591797,-1.6011316776275635,-0.0,2.172238349914551,4.586135073299072,0.0,0.2859340012073517,-1.320918385182516,0.0,-0.03098686970770359,0.3007557988166809,0.0,0.03572291508316994,1.4120500087738037,0.0,0.0009913486428558826
237.0,251.0,3.338,-0.3978,8.8187,-0.0391,0.0321,-0.122,-1.7437035046019496,0.0,2.8852763175964355,-1.6010600328445435,-0.0,2.1582658290863037,4.586138887996338,0.0,0.2909504771232605,-1.320930306111471,0.0,-0.03503246605396271,0.3006792366504669,0.0,0.007298067212104797,1.4120582342147827,0.0,0.027828287333250046
237.0,251.0,3.338,-0.3978,8.8187,-0.0391,0.0321,-0.122,-1.7437197170653285,0.0,2.875443458557129,-1.6011077165603638,-0.0,2.1642568111419678,4.586123629207275,0.0,0.2743814289569855,-1.3209698835956019,0.0,-0.04385669529438019,0.30068373680114746,0.0,0.026890873908996582,1.4120819568634033,0.0,-0.00030957162380218506
237.0,251.0,3.338,-0.3978,8.8187,-0.0391,0.0321,-0.122,-1.743727823297018,0.0,2.9020586013793945,-1.6010674238204956,-0.0,2.151261806488037,4.586139364833496,0.0,0.29482465982437134,-1.320942227040426,0.0,-0.04318288713693619,0.30070340633392334,0.0,0.03485516458749771,1.412045955657959,0.0,-0.03822614997625351
237.0,251.0,3.338,-0.3978,8.8187,-0.0391,0.0321,-0.122,-1.7437240085997523,0.0,2.901622772216797,-1.6010760068893433,-0.0,2.156271457672119,4.586090727443359,0.0,0.2820895314216614,-1.3209541479693812,0.0,-0.043920017778873444,0.30070745944976807,0.0,0.03371279686689377,1.4120861291885376,0.0,0.028219226747751236
237.0,251.0,3.338,-0.3978,8.8187,-0.0391,0.0321,-0.122,-1.7437073192992152,0.0,2.9348087310791016,-1.6010640859603882,-0.0,2.1614327430725098,4.586098833675049,0.0,0.2870035767555237,-1.3209384123431605,0.0,-0.043689221143722534,0.3007517158985138,0.0,0.03610854223370552,1.412045955657959,0.0,-0.008664746768772602
237.0,251.0,3.338,-0.3978,8.8187,-0.0391,0.0321,-0.122,-1.7436629734435023,0.0,2.87229323387146,-1.6010754108428955,-0.0,2.1504993438720703,4.58611981451001,0.0,0.2907980680465698,-1.320914093648092,0.0,-0.030874859541654587,0.3007600009441376,0.0,0.012755649164319038,1.4120500087738037,0.0,0.02360260859131813
237.0,251.0,3.338,-0.3978,8.8187,-0.0391,0.0321,-0.122,-1.7437159023680628,0.0,2.890256643295288,-1.6010396480560303,-0.0,2.1419289112091064,4.58611981451001,0.0,0.29012906551361084,-1.3209822813617151,0.0,-0.03595859184861183,0.3007320761680603,0.0,0.02545226365327835,1.412045955657959,0.0,-0.0007370660314336419
237.0,251.0,3.338,-0.3978,8.8187,-0.0391,0.0321,-0.122,-1.7436992130675257,0.0,2.8786134719848633,-1.6010959148406982,-0.0,2.1739768981933594,4.586086912746094,0.0,0.2912265360355377,-1.320942227040426,0.0,-0.03820115327835083,0.3007037937641144,0.0,0.03192853182554245,1.4120255708694458,0.0,0.04083264619112015
237.0,251.0,3.338,-0.3978,8.8187,-0.0391,0.0321,-0.122,-1.743711610833639,0.0,2.9062893390655518,-1.6010794639587402,-0.0,2.142533302307129,4.586126967067383,0.0,0.29596009850502014,-1.3209579626666468,0.0,-0.034700918942689896,0.3006473183631897,0.0,0.03448300063610077,1.4120136499404907,0.0,0.024237949401140213
237.0,251.0,3.338,-0.3978,8.8187,-0.0391,0.0321,-0.122,-1.743655344048971,0.0,2.8849403858184814,-1.6010315418243408,-0.0,2.1097302436828613,4.586103125209473,0.0,0.2959044873714447,-1.3209541479693812,0.0,-0.04456644132733345,0.3007320463657379,0.0,0.01873166300356388,1.4120659828186035,0.0,0.051552899181842804
237.0,251.0,3.338,-0.3978,8.8187,-0.0391,0.0321,-0.122,-1.74369539837026,0.0,2.8512935638427734,-1.6010754108428955,-0.0,2.151165246963501,4.586130781764648,0.0,0.29847824573516846,-1.3209622542010706,0.0,-0.0440562404692173,0.30066734552383423,0.0,0.02746707573533058,1.4120538234710693,0.0,0.01905764453113079
237.0,251.0,3.338,-0.3978,8.8187,-0.0391,0.0321,-0.122,-1.7437316379942835,0.0,2.914884328842163,-1.6010640859603882,-0.0,2.1596193313598633,4.586123629207275,0.0,0.29270127415657043,-1.3209660688983362,0.0,-0.04044907167553902,0.3007238209247589,0.0,0.03417958691716194,1.4120336771011353,0.0,0.015007967129349709
237.0,251.0,3.338,-0.3978,8.8187,-0.0391,0.0321,-0.122,-1.7436796627440394,0.0,2.903730869293213,-1.6011316776275635,-0.0,2.1868679523468018,4.586115522975586,0.0,0.2883842885494232,-1.3209622542010706,0.0,-0.028267964720726013,0.30071571469306946,0.0,0.01744769513607025,1.4120336771011353,0.0,0.04345332458615303
237.0,251.0,3.338,-0.3978,8.8187,-0.0391,0.0321,-0.122,-1.743694921533102,0.0,2.883657455444336,-1.6011039018630981,-0.0,2.179891586303711,4.586098833675049,0.0,0.27611255645751953,-1.3209460417376917,0.0,-0.04394623264670372,0.30079594254493713,0.0,0.0155729278922081,1.4120779037475586,0.0,0.07819370925426483
237.0,251.0,3.338,-0.3978,8.8187,-0.0391,0.0321,-0.122,-1.7437073192992152,0.0,2.859132766723633,-1.6010680198669434,-0.0,2.163762092590332,4.586099310512207,0.0,0.2923254072666168,-1.3209541479693812,0.0,-0.03770436346530914,0.3007599413394928,0.0,0.023258086293935776,1.4120622873306274,0.0,0.03299640491604805
237.0,251.0,3.338,-0.3978,8.8187,-0.0391,0.0321,-0.122,-1.7436591587462367,0.0,2.892664909362793,-1.6011039018630981,-0.0,2.1478798389434814,4.586111231441162,0.0,0.30375438928604126,-1.320942227040426,0.0,-0.03424408659338951,0.3007517457008362,0.0,0.028603915125131607,1.4120779037475586,0.0,0.031119249761104584
237.0,251.0,3.338,-0.3978,8.8187,-0.0391,0.0321,-0.122,-1.7436830006041468,0.0,2.8828814029693604,-1.6010396480560303,-0.0,2.1564502716064453,4.586130781764648,0.0,0.28141433000564575,-1.3209660688983362,0.0,-0.04690605774521828,0.3007237911224365,0.0,0.01981620490550995,1.4121021032333374,0.0,0.05377641320228577
236.0,244.0,3.1651,-0.3912,8.7972,-0.0388,0.0229,-0.1214,-1.7436710796751917,0.0,2.8982596397399902,-1.6010959148406982,1.9674426532390044e-09,2.1622891426086426,4.586143179530762,0.0,0.29595884680747986,-1.3209579626666468,0.0,-0.02194027230143547,0.3007517158985138,0.0,0.019695350900292397,1.4120538234710693,0.0,0.02610265277326107
236.0,244.0,3.1651,-0.3912,8.7972,-0.0388,0.0229,-0.1214,-1.7436830006041468,0.0,2.9075450897216797,-1.6010874509811401,4.751142479387984e-15,2.1976521015167236,4.586083098048828,0.0,0.28960293531417847,-1.320981804524557,0.0,-0.04499015212059021,0.3007557988166809,0.0,0.025228753685951233,1.4120419025421143,0.0,0.04712527245283127
236.0,244.0,3.1651,-0.3912,8.7972,-0.0388,0.0229,-0.1214,-1.7437240085997523,0.0,2.8777308464050293,-1.6010559797286987,8.551888446964966e-19,2.174771785736084,4.586086912746094,0.0,0.29017770290374756,-1.3209741751300257,0.0,-0.05705113708972931,0.3007758855819702,0.0,0.013151267543435097,1.4120419025421143,0.0,0.039688557386398315
236.0,244.0,3.1651,-0.3912,8.7972,-0.0388,0.0229,-0.1214,-1.7436753712096156,0.0,2.913228988647461,-1.601131796836853,2.0651806574529804e-24,2.1647560596466064,4.586155100459717,0.0,0.28436633944511414,-1.3209503332721155,0.0,-0.04368501901626587,0.30069929361343384,0.0,0.02319156378507614,1.4120218753814697,0.0,0.014677578583359718
236.0,244.0,3.1651,-0.3912,8.7972,-0.0388,0.0229,-0.1214,-1.7436710796751917,0.0,2.891940116882324,-1.6011481285095215,4.9871688837590966e-30,2.1712443828582764,4.586115522975586,0.0,0.30276042222976685,-1.3209860960589808,0.0,-0.03484254702925682,0.3007279634475708,0.0,0.02805725485086441,1.4120419025421143,0.0,-0.017883479595184326
236.0,244.0,3.1651,-0.3912,8.7972,-0.0388,0.0229,-0.1214,-1.7437321148314417,-1.2690234640899689e-08,2.898432731628418,-1.601111888885498,1.2043426065318047e-35,2.2178821563720703,4.586107416743896,0.0,0.28559359908103943,-1.3209660688983362,0.0,-0.02263794094324112,0.300743967294693,0.0,0.019472762942314148,1.4120500087738037,0.0,0.006457591895014048
236.0,244.0,3.1651,-0.3912,8.7972,-0.0388,0.0229,-0.1214,-1.7436872921385707,-2.2841973538328952e-12,2.8693132400512695,-1.6010600328445435,0.0001686335017438978,2.136141538619995,4.586103125209473,0.0,0.29203033447265625,-1.320993725453512,0.0,-0.047704968601465225,0.3007197082042694,0.0,0.023850541561841965,1.4120738506317139,0.0,0.022783374413847923
236.0,244.0,3.1651,-0.3912,8.7972,-0.0388,0.0229,-0.1214,-1.7436706028380335,-5.5160679768802785e-18,2.8688602447509766,-1.6010441780090332,0.00029949151212349534,2.1709184646606445,4.586126967067383,0.0,0.29391419887542725,-1.320930306111471,0.0,-0.041232459247112274,0.30076363682746887,0.0,0.031164519488811493,1.4120659828186035,0.0,0.050735507160425186
236.0,244.0,3.1651,-0.3912,8.7972,-0.0388,0.0229,-0.1214,-1.7436472378172816,-1.332065318074226e-23,2.9024362564086914,-1.6010719537734985,0.00030405056895688176,2.1416993141174316,4.586122675532959,0.0,0.2926465570926666,-1.3209384123431605,0.0,-0.0368206612765789,0.3007237911224365,0.0,0.031979553401470184,1.4120819568634033,0.0,0.07215273380279541
236.0,244.0,3.1651,-0.3912,8.7972,-0.0388,0.0229,-0.1214,-1.743699689904684,-3.2167814803472426e-29,2.922700881958008,-1.601080060005188,0.0005722437635995448,2.181884527206421,4.586163206691406,0.0,0.2937672436237335,-1.3209384123431605,0.0,-0.02323661744594574,0.3007517158985138,0.0,0.02877207100391388,1.4120819568634033,0.0,0.055528879165649414
236.0,244.0,3.1651,-0.3912,8.7972,-0.0388,0.0229,-0.1214,-1.7436391315855921,-5.7900935855949706e-33,2.932213306427002,-1.601048231124878,0.0005505510489456356,2.1077985763549805,4.58611170827832,0.0,0.29126450419425964,-1.3209779898272913,0.0,-0.046707235276699066,0.3007197082042694,0.0,0.0247194804251194,1.4120898246765137,0.0,0.03743021935224533
236.0,244.0,3.1651,-0.3912,8.7972,-0.0388,0.0229,-0.1214,-1.7437073192992152,-1.398239429777196e-38,2.84637451171875,-1.60105562210083,0.0005045034340582788,2.1284914016723633,4.586143179530762,0.0,0.2945042848587036,-1.3209541479693812,0.0,-0.027907490730285645,0.3007557988166809,0.0,0.01596534624695778,1.412045955657959,0.0,0.02344289794564247
236.0,244.0,3.1651,-0.3912,8.7972,-0.0388,0.0229,-0.1214,-1.743699689904684,-3.363116314379561e-44,2.9159722328186035,-1.6010441780090332,0.00041748187504708767,2.1686503887176514,4.586118860835693,0.0,0.27525532245635986,-1.3209541479693812,0.0,-0.026996929198503494,0.30069971084594727,0.0,0.03703003749251366,1.41203773021698,0.0,0.09309879690408707
236.0,244.0,3.1651,-0.3912,8.7972,-0.0388,0.0229,-0.1214,-1.743643423120016,0.0,2.888766288757324,-1.6010358333587646,0.00035561469849199057,2.180541753768921,4.586122675532959,0.0,0.29465627670288086,-1.3209779898272913,0.0,-0.04389754682779312,0.30080416798591614,0.0,0.016549402847886086,1.4120500087738037,0.0,0.004916278645396233
236.0,244.0,3.1651,-0.3912,8.7972,-0.0388,0.0229,-0.1214,-1.7436791859068812,0.0,2.907731294631958,-1.6010197401046753,0.0003236417251173407,2.2094151973724365,4.586090727443359,0.0,0.2823832929134369,-1.3209541479693812,0.0,-0.04095793142914772,0.30073118209838867,0.0,0.01956940069794655,1.4120172262191772,0.0,0.03470093756914139
236.0,244.0,3.1651,-0.3912,8.7972,-0.0388,0.0229,-0.1214,-1.7436558208861292,0.0,2.910796642303467,-1.6010197401046753,0.0002851830213330686,2.199803113937378,4.586188002223633,0.0,0.30289119482040405,-1.3209660688983362,0.0,-0.04605019837617874,0.300743967294693,0.0,0.03312399610877037,1.4120779037475586,0.0,-0.0077784922905266285
236.0,244.0,3.1651,-0.3912,8.7972,-0.0388,0.0229,-0.1214,-1.7437240085997523,0.0,2.888878345489502,-1.6010637283325195,0.00025489323888905346,2.1330580711364746,4.586126967067383,0.0,0.2929741144180298,-1.3209221998797815,0.0,-0.04080319032073021,0.300767719745636,0.0,0.023784812539815903,1.4120172262191772,0.0,0.009732555598020554
233.0,259.0,3.5061,-0.5635,8.7165,-0.0484,0.0127,-0.1113,-1.743711610833639,0.0,2.882765769958496,-1.6010760068893433,0.00023042097745928913,2.188894510269165,4.586115522975586,0.0,0.2805461585521698,-1.3209622542010706,0.0,-0.032540060579776764,0.3007476329803467,0.0,0.03143429756164551,1.4120500087738037,0.0,0.006080893334001303
233.0,259.0,3.5061,-0.5635,8.7165,-0.0484,0.0127,-0.1113,-1.7436911068358363,0.0,2.8847522735595703,-1.6010674238204956,0.00021655941964127123,2.170245885848999,4.586138887996338,0.0,0.2934095561504364,-1.3209460417376917,0.0,-0.04382757097482681,0.3007557690143585,0.0,0.023335766047239304,1.4120500087738037,0.0,0.022336101159453392
233.0,259.0,3.5061,-0.5635,8.7165,-0.0484,0.0127,-0.1113,-1.74367155651235,0.0,2.9524765014648438,-1.6010676622390747,0.00019863546185661107,2.172213077545166,4.586126967067383,0.0,0.3014223277568817,-1.3209341208087366,0.0,-0.036282509565353394,0.3007718324661255,0.0,0.016006624326109886,1.4121021032333374,0.0,0.0005413796752691269
233.0,259.0,3.5061,-0.5635,8.7165,-0.0484,0.0127,-0.1113,-1.7436510525145472,0.0,2.8840084075927734,-1.601068139076233,0.00018379588436800987,2.174727439880371,4.586146994228027,0.0,0.2880482077598572,-1.320993725453512,0.0,-0.029510613530874252,0.30078011751174927,0.0,0.02588084526360035,1.4120980501174927,0.0,0.032446809113025665
233.0,259.0,3.5061,-0.5635,8.7165,-0.0484,0.0127,-0.1113,-1.74367155651235,0.0,2.9426145553588867,-1.601083755493164,0.00012717368372250348,2.131316661834717,4.586134596461914,0.0,0.29439577460289,-1.3209579626666468,0.0,-0.039490971714258194,0.3007476031780243,0.0,0.03607349097728729,1.4121021032333374,0.0,-0.01509237103164196
233.0,259.0,3.5061,-0.5635,8.7165,-0.0484,0.0127,-0.1113,-1.7436472378172816,0.0,2.894193649291992,-1.601099967956543,0.00014433046453632414,2.158191204071045,4.586095018977783,0.0,0.2919645309448242,-1.3210018316852015,0.0,-0.04611027613282204,0.3007316291332245,0.0,0.0272492878139019,1.4120656251907349,0.0,0.02023588865995407
233.0,259.0,3.5061,-0.5635,8.7165,-0.0484,0.0127,-0.1113,-1.7436877689757289,0.0,2.911092758178711,-1.6010198593139648,0.00015598726167809218,2.169386386871338,4.586134596461914,2.2900332297126624e-08,0.29220762848854065,-1.3209698835956019,0.0,-0.031802549958229065,0.30078360438346863,0.0,0.0422084741294384,1.412057876586914,0.0,0.03720653057098389
233.0,259.0,3.5061,-0.5635,8.7165,-0.0484,0.0127,-0.1113,-1.743699689904684,0.0,2.892490863800049,-1.6010280847549438,0.0004061316722072661,2.183760643005371,4.586078806514404,6.374391032376581e-12,0.28948813676834106,-1.3209660688983362,0.0,-0.04251965135335922,0.3007357120513916,0.0,0.015320105478167534,1.4121261835098267,0.0,0.043726660311222076
233.0,259.0,3.5061,-0.5635,8.7165,-0.0484,0.0127,-0.1113,-1.743655344048971,0.0,2.919163227081299,-1.6009997129440308,0.00042835084605030715,2.159236431121826,4.586115522975586,1.7743350776342729e-15,0.29152780771255493,-1.3209741751300257,0.0,-0.03711215406656265,0.3007279932498932,0.0,0.02796400710940361,1.4121061563491821,0.00029901330708526075,0.010860953480005264
233.0,259.0,3.5061,-0.5635,8.7165,-0.0484,0.0127,-0.1113,-1.7436710796751917,0.0,2.947768211364746,-1.60105562210083,0.0003942481125704944,2.1773695945739746,4.586138887996338,7.564268089596306e-18,0.3017347455024719,-1.3209698835956019,0.0,-0.0353594571352005,0.30077993869781494,0.0,0.030753934755921364,1.4121061563491821,0.0002672791888471693,0.029040537774562836
233.0,259.0,3.5061,-0.5635,8.7165,-0.0484,0.0127,-0.1113,-1.7436710796751917,0.0,2.9391512870788574,-1.6010841131210327,0.0004979969817213714,2.1626124382019043,4.586130781764648,2.1055415991752408e-21,0.2874789834022522,-1.3209899107562464,0.0,-0.03366131708025932,0.30074355006217957,0.0,0.023516781628131866,1.412085771560669,0.00022685292060486972,0.046434324234724045
233.0,259.0,3.5061,-0.5635,8.7165,-0.0484,0.0127,-0.1113,-1.7436710796751917,0.0,2.944146156311035,-1.6010595560073853,0.0004526301345322281,2.183537006378174,4.586134596461914,5.860852449138888e-25,0.3009515404701233,-1.320981804524557,0.0,-0.04448869079351425,0.3007073998451233,0.0,0.027082283049821854,1.41207754611969,0.00023485321435146034,0.010116525925695896
233.0,259.0,3.5061,-0.5635,8.7165,-0.0484,0.0127,-0.1113,-1.7437197170653285,2.689671964617446e-05,2.9620018005371094,-1.6010117530822754,0.0004750298394355923,2.1770567893981934,4.586122675532959,1.6313898946429398e-28,0.3034941256046295,-1.3209899107562464,0.0,-0.030776431784033775,0.3007316291332245,0.0,0.03490500897169113,1.4120938777923584,0.00027455235249362886,0.03690534085035324
233.0,259.0,3.5061,-0.5635,8.7165,-0.0484,0.0127,-0.1113,-1.7436429462828578,2.611640411487315e-05,2.94932222366333,-1.6010677814483643,0.00048314273590222,2.139151096343994,4.586134596461914,6.9548715715553455e-31,0.2914748787879944,-1.320993725453512,0.0,-0.045971937477588654,0.3007635474205017,0.0,0.03498208150267601,1.4120898246765137,0.0003198349440935999,0.030403288081288338
233.0,259.0,3.5061,-0.5635,8.7165,-0.0484,0.0127,-0.1113,-1.7436796627440394,2.5027087758644484e-05,2.8728761672973633,-1.6010757684707642,0.0005866275168955326,2.155571937561035,4.586066885585449,1.9359140699407923e-34,0.2995578944683075,-1.3209541479693812,0.0,-0.03865811228752136,0.3007476329803467,0.0,0.036569610238075256,1.4120938777923584,0.00040454743430018425,0.014656665734946728
233.0,259.0,3.5061,-0.5635,8.7165,-0.0484,0.0127,-0.1113,-1.7436830006041468,2.402497557341121e-05,2.890230655670166,-1.6010401248931885,0.001126374234445393,2.152491331100464,4.586099310512207,5.388688199886612e-38,0.3067043423652649,-1.320981804524557,2.4150143218548692e-08,-0.03040723130106926,0.30078771710395813,0.0,0.0275526475161314,1.4121098518371582,0.0008518820977769792,0.01625828631222248
233.0,259.0,3.5061,-0.5635,8.7165,-0.0484,0.0127,-0.1113,-1.743711610833639,1.1603602615650743e-05,2.9101321697235107,-1.6009999513626099,0.0018194009317085147,2.1715087890625,4.5861145693012695,1.4999498762132842e-41,0.29135844111442566,-1.3209741751300257,6.7222824529089564e-12,-0.043988585472106934,0.3007517158985138,0.0,0.02925967052578926,1.4121421575546265,0.0010880171321332455,0.02985232323408127
235.0,250.0,3.2907,-0.1663,8.8451,-0.0283,0.0212,-0.131,-1.7437359295287074,1.1260995961492881e-05,2.909977436065674,-1.6009999513626099,0.002354644238948822,2.162644386291504,4.586146517390869,6.445972935894159e-44,0.2926839292049408,-1.3210023085223597,2.8658146819168784e-14,-0.03735293075442314,0.300743967294693,0.0,0.028491608798503876,1.412117600440979,0.0010340050794184208,-0.013533184304833412
235.0,250.0,3.2907,-0.1663,8.8451,-0.0283,0.0212,-0.131,-1.7436825237669886,1.0853591447812505e-05,2.857935905456543,-1.6010198593139648,0.003591841319575906,2.1571877002716064,4.586146517390869,0.0,0.2988145053386688,-1.3210023085223597,7.977100698431722e-18,-0.021353626623749733,0.30075955390930176,0.0,0.024297848343849182,1.412089467048645,0.0008387660491280258,0.039269525557756424
235.0,250.0,3.2907,-0.1663,8.8451,-0.0283,0.0212,-0.131,-1.743711610833639,1.0474635928403586e-05,2.9128074645996094,-1.600951910018921,0.0035133715718984604,2.1994235515594482,4.5861827570148925,0.0,0.29142889380455017,-1.3209617773639124,2.2204552827831477e-21,-0.0358220711350441,0.3007676303386688,0.0,0.031888335943222046,1.412125825881958,0.0005723595386371017,0.03663509711623192
235.0,250.0,3.2907,-0.1663,8.8451,-0.0283,0.0212,-0.131,-1.7436748943724574,1.678826447459869e-05,2.904938220977783,-1.6009318828582764,0.0037556556053459644,2.153380870819092,4.586115522975586,0.0,0.30065783858299255,-1.3209942022906702,6.180719275949838e-25,-0.03145984560251236,0.3007476329803467,0.0,0.04424216225743294,1.4122024774551392,0.0004342269094195217,0.05007253587245941
235.0,250.0,3.2907,-0.1663,8.8451,-0.0283,0.0212,-0.131,-1.7436629734435023,6.7554237830336206e-06,2.8928275108337402,-1.6009199619293213,0.0036595184355974197,2.1564362049102783,4.586158915156982,0.0,0.2962970435619354,-1.3209779898272913,2.6349371718820863e-27,-0.040967028588056564,0.3006914556026459,0.0,0.025200899690389633,1.4121416807174683,0.00037405441980808973,0.033795617520809174
235.0,250.0,3.2907,-0.1663,8.8451,-0.0283,0.0212,-0.131,-1.7437197170653285,1.6313554673796915e-11,2.9289917945861816,-1.6008756160736084,0.003595965914428234,2.154836893081665,4.586171312923096,0.0,0.2853933274745941,-1.3209660688983362,7.334445280204227e-31,-0.030505578964948654,0.3007640838623047,0.0,0.029588300734758377,1.412109375,0.00025807623751461506,0.05843719467520714
235.0,250.0,3.2907,-0.1663,8.8451,-0.0283,0.0212,-0.131,-1.7436591587462367,3.9395317088340297e-17,2.89272403717041,-1.600903868675232,0.0035140449181199074,2.1850996017456055,4.586095495814941,0.0,0.3027702271938324,-1.320993725453512,2.0415694307381188e-34,-0.03324511647224426,0.3007553815841675,0.0,0.03182987868785858,1.4121098518371582,0.0002201860916102305,0.040474504232406616
235.0,250.0,3.2907,-0.1663,8.8451,-0.0283,0.0212,-0.131,-1.7436472378172816,9.513504744784358e-23,2.8599634170532227,-1.6008360385894775,0.0031296724919229746,2.151977300643921,4.58611170827832,0.0,0.2823282480239868,-1.3210061232196253,5.682783753268933e-38,-0.02760864607989788,0.30077996850013733,0.0,0.04519086331129074,1.412117600440979,0.00015366380102932453,0.03227444365620613
235.0,250.0,3.2907,-0.1663,8.8451,-0.0283,0.0212,-0.131,-1.7437159023680628,1.7123971610723654e-26,2.9039907455444336,-1.6008354425430298,0.002657029777765274,2.170879364013672,4.5861546236225585,0.0,0.29449164867401123,-1.3209942022906702,2.4226628760172465e-40,-0.033720750361680984,0.3007279634475708,0.0,0.025699373334646225,1.412113904953003,0.00011032198381144553,0.03411204367876053
235.0,250.0,3.2907,-0.1663,8.8451,-0.0283,0.0212,-0.131,-1.7437073192992152,4.135238075168727e-32,2.8979721069335938,-1.6008720397949219,0.002089542103931308,2.17301082611084,4.586115522975586,0.0,0.30159032344818115,-1.3209579626666468,6.726232628759122e-44,-0.026794882491230965,0.30078816413879395,0.0,0.03617627173662186,1.412113904953003,-5.295099981594831e-05,0.06093844771385193
235.0,250.0,3.2907,-0.1663,8.8451,-0.0283,0.0212,-0.131,-1.7437478504576625,9.986112482674945e-38,2.9071784019470215,-1.6008082628250122,0.001437435974366963,2.1653621196746826,4.586130781764648,0.0,0.3008359968662262,-1.3209579626666468,0.0,-0.03393557667732239,0.3007718324661255,0.0,0.03229818120598793,1.412134051322937,-9.731538739288226e-05,0.02545289508998394
235.0,250.0,3.2907,-0.1663,8.8451,-0.0283,0.0212,-0.131,-1.7436872921385707,2.4102333586386854e-43,2.8829469680786133,-1.600795865058899,0.0009433183586224914,2.1633429527282715,4.586134596461914,0.0,0.3001035451889038,-1.3209698835956019,0.0,-0.04576876014471054,0.3007316291332245,0.0,0.03628259152173996,1.412069320678711,-0.0005038722301833332,0.04646266996860504
235.0,250.0,3.2907,-0.1663,8.8451,-0.0283,0.0212,-0.131,-1.7436791859068812,0.0,2.9344444274902344,-1.6008155345916748,0.0008167067426256835,2.1332693099975586,4.58611170827832,0.0,0.2940671443939209,-1.3209899107562464,0.0,-0.04033636674284935,0.3007032573223114,0.0,0.043898358941078186,1.412113904953003,-0.000735584762878716,0.07907551527023315
235.0,250.0,3.2907,-0.1663,8.8451,-0.0283,0.0212,-0.131,-1.7437521419920863,0.0,2.8958466053009033,-1.600816249847412,0.0006163376965560019,2.1310853958129883,4.5861427026936035,0.0,0.2982789874076843,-1.3209341208087366,0.0,-0.034582193940877914,0.3007357120513916,0.0,0.044145844876766205,1.4120173454284668,-0.00100896623916924,0.0665452852845192
235.0,250.0,3.2907,-0.1663,8.8451,-0.0283,0.0212,-0.131,-1.7436992130675257,0.0,2.959503650665283,-1.6007877588272095,0.0005124697927385569,2.171315908432007,4.586130781764648,0.0,0.30115315318107605,-1.3209541479693812,0.0,-0.021100271493196487,0.3007758855819702,0.0,0.028649568557739258,1.412057876586914,-0.001444977824576199,0.001919063739478588
235.0,250.0,3.2907,-0.1663,8.8451,-0.0283,0.0212,-0.131,-1.7436872921385707,0.0,2.9053025245666504,-1.6007957458496094,0.0012535324785858393,2.13515567779541,4.586163206691406,0.0,0.2852535843849182,-1.320981804524557,0.0,-0.036705318838357925,0.3007156252861023,0.0,0.03190644085407257,1.412054181098938,-0.0024255330208688974,-0.006583342794328928
235.0,250.0,3.2907,-0.1663,8.8451,-0.0283,0.0212,-0.131,-1.7437283001341761,0.0,2.8901352882385254,-1.6007678508758545,0.002337911631911993,2.1662204265594482,4.5861427026936035,0.0,0.30144160985946655,-1.3209741751300257,0.0,-0.04305608570575714,0.30079641938209534,0.0,0.03584015369415283,1.4120419025421143,-0.0024411201011389494,0.01064691599458456
234.0,248.0,3.1585,-0.25,8.8756,-0.0319,0.0359,-0.1225,-1.7436510525145472,0.0,2.9042444229125977,-1.6008119583129883,0.0030647616367787123,2.159410238265991,4.586171312923096,0.0,0.29064738750457764,-1.3209660688983362,0.0,-0.041711848229169846,0.30077600479125977,0.0,0.030110493302345276,1.4119817018508911,-0.0028113157022744417,0.028838645666837692
234.0,248.0,3.1585,-0.25,8.8756,-0.0319,0.0359,-0.1225,-1.743694921533102,0.0,2.93351411819458,-1.6007881164550781,0.004323701374232769,2.167088031768799,4.586138887996338,0.0,0.3021068572998047,-1.320942227040426,0.0,-0.050342708826065063,0.3007352948188782,0.0,0.035642579197883606,1.411969780921936,-0.0027263828087598085,0.004958707839250565
234.0,248.0,3.1585,-0.25,8.8756,-0.0319,0.0359,-0.1225,-1.7436672649779261,0.0,2.9255223274230957,-1.6007074117660522,0.0050666602328419685,2.1940457820892334,4.586126967067383,0.0,0.2984377443790436,-1.3209503332721155,0.0,-0.04361976683139801,0.30080002546310425,0.0,0.042546529322862625,1.4120022058486938,-0.002530996222048998,0.03930734843015671
234.0,248.0,3.1585,-0.25,8.8756,-0.0319,0.0359,-0.1225,-1.7437240085997523,0.0,2.92488431930542,-1.6006990671157837,0.005915488116443157,2.1901514530181885,4.586135073299072,0.0,0.2924346923828125,-1.3209698835956019,0.0,-0.045186616480350494,0.3007197082042694,0.0,0.04014842212200165,1.4119579792022705,-0.002158480230718851,-0.005500534549355507
234.0,248.0,3.1585,-0.25,8.8756,-0.0319,0.0359,-0.1225,-1.7436748943724574,0.0,2.9342613220214844,-1.6006836891174316,0.006447875872254372,2.215482711791992,4.586146517390869,0.0,0.29098057746887207,-1.3209779898272913,0.0,-0.037038080394268036,0.30075132846832275,0.0,0.04427807405591011,1.4119298458099365,-0.0016385632334277034,0.041708704084157944
234.0,248.0,3.1585,-0.25,8.8756,-0.0319,0.0359,-0.1225,-1.7436911068358363,0.0,2.9567971229553223,-1.6005678176879883,0.007921564392745495,2.1772656440734863,4.586138887996338,0.0,0.29666370153427124,-1.320981804524557,0.0,-0.033427465707063675,0.30077171325683594,0.0,0.033647019416093826,1.4119861125946045,-0.0012801842531189322,0.01688338629901409
234.0,248.0,3.1585,-0.25,8.8756,-0.0319,0.0359,-0.1225,-1.7437764606871546,0.0,2.875382900238037,-1.6006163358688354,0.009317217394709587,2.2116193771362305,4.586146994228027,0.0,0.30144187808036804,-1.3209460417376917,0.0,-0.03625789284706116,0.3007918894290924,0.0,0.03854891657829285,1.4119701385498047,-0.000734107568860054,-0.020091764628887177
234.0,248.0,3.1585,-0.25,8.8756,-0.0319,0.0359,-0.1225,-1.7437359295287074,0.0,2.9460067749023438,-1.6004794836044312,0.010381005704402924,2.2032198905944824,4.586171312923096,0.0,0.30083054304122925,-1.320981804524557,0.0,-0.043412793427705765,0.300783634185791,0.0,0.042746856808662415,1.4119701385498047,-0.0005533458315767348,-0.0039423489943146706
234.0,248.0,3.1585,-0.25,8.8756,-0.0319,0.0359,-0.1225,-1.7436868153014125,0.0,2.900588035583496,-1.6004598140716553,0.011624354869127274,2.1825814247131348,4.586159391994141,0.0,0.30239444971084595,-1.3209503332721155,0.0,-0.03396330401301384,0.30075129866600037,0.0,0.03268314152956009,1.4119417667388916,-0.00047518970677629113,0.0035991217009723186
234.0,248.0,3.1585,-0.25,8.8756,-0.0319,0.0359,-0.1225,-1.7437435589232386,0.0,2.9367361068725586,-1.6003875732421875,0.013065756298601627,2.2223997116088867,4.5861427026936035,0.0,0.3025584816932678,-1.3209579626666468,0.0,-0.03790456801652908,0.30077993869781494,0.0,0.033816996961832047,1.41196608543396,-0.00038203291478566825,0.045231908559799194
234.0,248.0,3.1585,-0.25,8.8756,-0.0319,0.0359,-0.1225,-1.743711610833639,0.0,2.9192893505096436,-1.6002676486968994,0.013728740625083447,2.1781883239746094,4.586118860835693,0.0,0.317483514547348,-1.3209660688983362,0.0,-0.03255603089928627,0.30078810453414917,0.0,0.03457310050725937,1.4119540452957153,-0.0003151355485897511,0.0907786637544632
234.0,248.0,3.1585,-0.25,8.8756,-0.0319,0.0359,-0.1225,-1.743751665154928,0.0,2.9233689308166504,-1.6002475023269653,0.013094217516481876,2.195854663848877,4.586167021388672,1.68442625181342e-06,0.29256951808929443,-1.3209341208087366,0.0,-0.04772690683603287,0.3008037209510803,0.0,0.049249544739723206,1.411949872970581,-0.0002821946400217712,0.06147424876689911
234.0,248.0,3.1585,-0.25,8.8756,-0.0319,0.0359,-0.1225,-1.743706842462057,0.0,2.8864121437072754,-1.6001958847045898,0.012966982088983059,2.181926727294922,4.586135073299072,4.688662236240759e-10,0.29672273993492126,-1.3209779898272913,0.0,-0.05393202602863312,0.30077171325683594,0.0,0.04271437227725983,1.4119625091552734,-0.0002846041170414537,0.052563175559043884
234.0,248.0,3.1585,-0.25,8.8756,-0.0319,0.0359,-0.1225,-1.7438003025450648,-0.00037585932295769453,2.9625964164733887,-1.600067138671875,0.01241291780024767,2.1817150115966797,4.586167021388672,1.305106467775624e-13,0.29672935605049133,-1.3209899107562464,0.0,-0.05277760326862335,0.3007115125656128,0.0,0.05631203204393387,1.4119985103607178,-0.000286432565189898,0.011285917833447456
234.0,248.0,3.1585,-0.25,8.8756,-0.0319,0.0359,-0.1225,-1.743751665154928,-0.00037871027598157525,2.929201126098633,-1.599987268447876,0.011117537505924702,2.2095606327056885,4.586198969478271,3.632811814210387e-17,0.30576106905937195,-1.3209899107562464,0.0,-0.0693991556763649,0.3006991744041443,0.0,0.046138323843479156,1.411974310874939,-0.0002223508490715176,0.06545814871788025
234.0,248.0,3.1585,-0.25,8.8756,-0.0319,0.0359,-0.1225,-1.7437597713866175,-0.0003864050377160311,2.9190962314605713,-1.5999395847320557,0.010516519658267498,2.1631178855895996,4.586171312923096,1.5487247032632931e-19,0.3050404191017151,-1.320981804524557,0.0,-0.06436748802661896,0.30073118209838867,0.0,0.05332039296627045,1.4119501113891602,-0.0002092432841891423,0.05257602035999298
234.0,248.0,3.1585,-0.25,8.8756,-0.0319,0.0359,-0.1225,-1.7437311611571253,-0.0004226046148687601,2.948326587677002,-1.5999963283538818,0.00887768343091011,2.1784534454345703,4.586163206691406,4.3109314183388693e-23,0.3046473264694214,-1.3209660688983362,0.0,-0.05457006394863129,0.3007758855819702,0.0,0.048449523746967316,1.4118614196777344,-0.00021867681061848998,0.010196119546890259
231.0,252.0,3.5492,-0.4247,8.747,-0.0276,0.0142,-0.1269,-1.7437311611571253,-0.00039598927833139896,2.9207801818847656,-1.5999202728271484,0.007457870524376631,2.2169671058654785,4.586171312923096,1.1999635940996936e-26,0.314918577671051,-1.3209622542010706,0.0,-0.06780167669057846,0.30077171325683594,0.0,0.043419502675533295,1.411909818649292,-0.00022635693312622607,0.07138214260339737
231.0,252.0,3.5492,-0.4247,8.747,-0.0276,0.0142,-0.1269,-1.743807931939596,-0.00037860608426854014,2.923231840133667,-1.5998642444610596,0.005310187116265297,2.203523635864258,4.586167021388672,3.340142559499937e-30,0.31707853078842163,-1.3209622542010706,0.0,-0.07785028964281082,0.30075129866600037,0.0,0.054290879517793655,1.411909818649292,-0.0003312927146907896,0.03184077888727188
231.0,252.0,3.5492,-0.4247,8.747,-0.0276,0.0142,-0.1269,-1.7437759838499964,-0.00033805149723775685,2.908655881881714,-1.5998517274856567,0.004078560043126345,2.213296890258789,4.586135073299072,0.00017899232625495642,0.32180795073509216,-1.3209980169879358,0.0,-0.0714007169008255,0.30074721574783325,0.0,0.05608012527227402,1.4118856191635132,-0.00034576875623315573,0.04099496826529503
231.0,252.0,3.5492,-0.4247,8.747,-0.0276,0.0142,-0.1269,-1.743807931939596,-0.00033256932510994375,2.9281136989593506,-1.599843978881836,0.0023717782460153103,2.2147645950317383,4.586167021388672,0.00017841551743913442,0.3265296518802643,-1.3209541479693812,0.0,-0.06262382119894028,0.3008115589618683,0.0,0.060010164976119995,1.4119380712509155,-0.00033903573057614267,0.10563202202320099
231.0,252.0,3.5492,-0.4247,8.747,-0.0276,0.0142,-0.1269,-1.7437793217101039,-0.0002924980944953859,2.908993721008301,-1.5998519659042358,0.0009647783590480685,2.198784351348877,4.5861546236225585,0.00015945208724588156,0.31966859102249146,-1.320981804524557,0.0,-0.07888709008693695,0.30076363682746887,0.0,0.060112327337265015,1.4119138717651367,-0.0005491948104463518,0.06812457740306854
231.0,252.0,3.5492,-0.4247,8.747,-0.0276,0.0142,-0.1269,-1.7437793217101039,-0.0002881564723793417,2.904805898666382,-1.5998320579528809,0.000586759764701128,2.197819948196411,4.586135073299072,0.0001728238130453974,0.32092633843421936,-1.3209660688983362,0.0,-0.07600846141576767,0.3007795512676239,0.0,0.05310312658548355,1.4119421243667603,-0.0008692929986864328,0.0863514170050621
231.0,252.0,3.5492,-0.4247,8.747,-0.0276,0.0142,-0.1269,-1.7437511883177699,-0.0002651201793923974,2.9153733253479004,-1.5998804569244385,0.0004653216456063092,2.2180845737457275,4.586167021388672,0.00016254131332971156,0.31348323822021484,-1.3209384123431605,0.0,-0.07627049833536148,0.30074355006217957,0.0,0.05411364883184433,1.4119019508361816,-0.00099561654496938,0.044727254658937454
231.0,252.0,3.5492,-0.4247,8.747,-0.0276,0.0142,-0.1269,-1.7438198528685511,-0.00026959562092088163,2.9450550079345703,-1.5998399257659912,0.00035511533496901393,2.170041084289551,4.586150808925293,0.00014907889999449253,0.30783596634864807,-1.3209660688983362,0.0,-0.07571984827518463,0.3007676303386688,0.0,0.05975927412509918,1.411909818649292,-0.001018161536194384,0.05464918911457062
231.0,252.0,3.5492,-0.4247,8.747,-0.0276,0.0142,-0.1269,-1.7437674007811488,-0.000273053563432768,2.9282541275024414,-1.599855899810791,0.0002871248289011419,2.1743080615997314,4.586146994228027,0.00013767543714493513,0.3130744695663452,-1.3209660688983362,0.0,-0.07486237585544586,0.30080747604370117,0.0,0.052859969437122345,1.4119138717651367,-0.00108848896343261,0.07820363342761993
231.0,252.0,3.5492,-0.4247,8.747,-0.0276,0.0142,-0.1269,-1.7438036404051722,-0.00024618167662993073,2.909989356994629,-1.5998320579528809,0.0002891040639951825,2.2085397243499756,4.586130781764648,0.00012789299944415689,0.32171308994293213,-1.3209779898272913,0.0,-0.09057383984327316,0.30075526237487793,0.0,0.05417601764202118,1.4118859767913818,-0.000959435012191534,0.0746796652674675
231.0,252.0,3.5492,-0.4247,8.747,-0.0276,0.0142,-0.1269,-1.7437550030150355,-0.00027618237072601914,2.929377555847168,-1.5998561382293701,0.00030466748285107315,2.2205851078033447,4.586198969478271,0.00012210871500428766,0.3215503692626953,-1.3209341208087366,0.0,-0.08655323088169098,0.3007758855819702,0.0,0.06443558633327484,1.4118659496307373,-0.0010076172184199095,0.05002551153302193
231.0,252.0,3.5492,-0.4247,8.747,-0.0276,0.0142,-0.1269,-1.7437635860838832,-0.00023324174981098622,2.914400339126587,-1.599804162979126,0.00025335882673971355,2.174424886703491,4.586163206691406,0.00011435108899604529,0.3292318880558014,-1.3209622542010706,0.0,-0.09303203225135803,0.30084434151649475,0.0,0.06062711030244827,1.4118741750717163,-0.0008759407210163772,0.024551555514335632
231.0,252.0,3.5492,-0.4247,8.747,-0.0276,0.0142,-0.1269,-1.7437473736205042,-0.00020185214816592634,2.9007675647735596,-1.599816083908081,0.0008691523689776659,2.201648473739624,4.586159391994141,9.194993617711589e-05,0.3195178806781769,-1.3209579626666468,0.0,-0.08562497794628143,0.30078768730163574,0.0,0.05553051084280014,1.4118496179580688,-0.0007768559735268354,0.09134231507778168
231.0,252.0,3.5492,-0.4247,8.747,-0.0276,0.0142,-0.1269,-1.7438074551024378,-0.00021347167785279453,2.9154515266418457,-1.5997837781906128,0.0009297726792283356,2.1780943870544434,4.586202784175537,8.455032366327941e-05,0.3329436182975769,-1.3209899107562464,0.0,-0.07942734658718109,0.3008120059967041,0.0,0.07046587765216827,1.4118618965148926,-0.0005671007675118744,0.10665010660886765
231.0,252.0,3.5492,-0.4247,8.747,-0.0276,0.0142,-0.1269,-1.7438274822630824,-0.00022693014761898667,2.8602890968322754,-1.5997958183288574,0.0011345517123118043,2.21834659576416,4.586099787349365,8.148751658154652e-05,0.3255108594894409,-1.3209541479693812,0.0,-0.08397437632083893,0.30073118209838867,0.0,0.046530283987522125,1.4118659496307373,-0.0004805581702385098,0.08347875624895096
231.0,252.0,3.5492,-0.4247,8.747,-0.0276,0.0142,-0.1269,-1.743880411187643,-0.00023762289492879063,2.883016586303711,-1.599767804145813,0.0012504133628681302,2.1765639781951904,4.586150808925293,7.728872878942639e-05,0.3322274684906006,-1.3209541479693812,0.0,-0.09480738639831543,0.3007712662220001,0.0,0.06916554272174835,1.411833643913269,-0.0004469144332688302,0.09636422246694565
231.0,252.0,3.5492,-0.4247,8.747,-0.0276,0.0142,-0.1269,-1.7438236675658167,-0.00028271166956983507,2.947571277618408,-1.5997965335845947,0.0011394460452720523,2.1712512969970703,4.586115046138428,7.350149098783731e-05,0.3332752287387848,-1.3209622542010706,-0.00010980282968375832,-0.09432927519083023,0.3008033335208893,0.0,0.06111839413642883,1.4118578433990479,-0.0003767505695577711,0.0965801402926445
232.0,257.0,3.2877,-0.3763,8.7745,-0.0359,0.0223,-0.1161,-1.743819376031393,-0.0003258701763115823,2.8632655143737793,-1.599807858467102,0.0008248533122241497,2.180877685546875,4.586171312923096,7.006808300502598e-05,0.3210170269012451,-1.320914093648092,-0.00010837889567483217,-0.09288069605827332,0.3008120059967041,0.0,0.05527897924184799,1.4118741750717163,-0.00032562832348048687,0.0630379319190979
232.0,257.0,3.2877,-0.3763,8.7745,-0.0359,0.0223,-0.1161,-1.7438317737975062,-0.0007190500618889928,2.869809150695801,-1.5998321771621704,0.0007469411357305944,2.1696865558624268,4.586150808925293,6.795192166464403e-05,0.32648834586143494,-1.320993725453512,-0.00010340003063902259,-0.09819310903549194,0.300807923078537,0.0,0.06196015328168869,1.4118536710739136,-0.00029861644725315273,0.03679659962654114
232.0,257.0,3.2877,-0.3763,8.7745,-0.0359,0.0223,-0.1161,-1.7438637218871058,-0.0006920027080923319,2.8338406085968018,-1.599787712097168,0.0005696070729754865,2.1798462867736816,4.586146517390869,5.2118139137746766e-05,0.34285956621170044,-1.3209622542010706,-0.00011478702072054148,-0.10040304064750671,0.3007791340351105,0.0,0.05908714979887009,1.4118376970291138,-0.0002655712014529854,0.10117838531732559
232.0,257.0,3.2877,-0.3763,8.7745,-0.0359,0.0223,-0.1161,-1.7437988720335902,-0.0007128280121833086,2.9000353813171387,-1.5997998714447021,0.0004603273409884423,2.187619686126709,4.586126967067383,4.984548286302015e-05,0.3249431252479553,-1.3209660688983362,-0.00010904525697696954,-0.10154465585947037,0.3008239269256592,0.0,0.06612413376569748,1.4118942022323608,-0.00023911154130473733,0.10094594955444336
232.0,257.0,3.2877,-0.3763,8.7745,-0.0359,0.0223,-0.1161,-1.7438837490477503,-0.0006961544859223068,2.8793177604675293,-1.599787712097168,0.00038623588625341654,2.192199230194092,4.5861193376728515,4.785754208569415e-05,0.3217642307281494,-1.3210104147540491,-0.00010281683353241533,-0.09969961643218994,0.30082380771636963,0.0,0.06826317310333252,1.4118942022323608,-0.0002174471883336082,0.08859604597091675
232.0,257.0,3.2877,-0.3763,8.7745,-0.0359,0.0223,-0.1161,-1.7438632450499476,-0.0009031126974150538,2.8790793418884277,-1.5997803211212158,0.0003488081565592438,2.1417629718780518,4.586166544551514,4.661808634409681e-05,0.3325861692428589,-1.3210142294513147,-9.904514445224777e-05,-0.10057510435581207,0.3007349371910095,0.0,0.06181998923420906,1.4118536710739136,-0.00020506102009676397,0.13589848577976227
232.0,257.0,3.2877,-0.3763,8.7745,-0.0359,0.0223,-0.1161,-1.7439037762083949,-0.0010569612495601177,2.8588531017303467,-1.5997917652130127,0.00030454358784481883,2.1830480098724365,4.586138887996338,4.487478145165369e-05,0.3302084505558014,-1.3209660688983362,-9.387925092596561e-05,-0.11309225857257843,0.3007914423942566,0.0,0.07285907864570618,1.411897897720337,-0.0001733929238980636,0.1547645926475525
232.0,257.0,3.2877,-0.3763,8.7745,-0.0359,0.0223,-0.1161,-1.743932386437887,-0.0012327802833169699,2.801921844482422,-1.5997560024261475,0.00027024876908399165,2.171767473220825,4.5860912042805175,4.3257157813059166e-05,0.32343441247940063,-1.3209341208087366,-8.922567940317094e-05,-0.10674458742141724,0.3008360266685486,0.0,0.07456793636083603,1.4118618965148926,-0.0001532416936242953,0.0762835294008255
232.0,257.0,3.2877,-0.3763,8.7745,-0.0359,0.0223,-0.1161,-1.743871351281637,-0.0015666127437725663,2.8727898597717285,-1.5997803211212158,0.0002428969310130924,2.181152820587158,4.5861427026936035,4.175212234258652e-05,0.3265664577484131,-1.320981804524557,-8.501164120389149e-05,-0.10785295069217682,0.3007754683494568,0.0,0.06545262038707733,1.411870002746582,-0.00014281969924923033,0.12041479349136353
232.0,257.0,3.2877,-0.3763,8.7745,-0.0359,0.0223,-0.1161,-1.7438794575133265,-0.0018659732304513454,2.835052251815796,-1.5998241901397705,0.00022754409292247146,2.1810691356658936,4.5861427026936035,4.080562575836666e-05,0.3305760324001312,-1.320993725453512,-8.241662726504728e-05,-0.1033751592040062,0.3007872998714447,0.0,0.06965242326259613,1.4119302034378052,-0.00013662525452673435,0.10507307946681976
232.0,257.0,3.2877,-0.3763,8.7745,-0.0359,0.0223,-0.1161,-1.74391569713735,-0.0025150557048618793,2.843431234359741,-1.5997958183288574,0.0002078383695334196,2.238776206970215,4.586130781764648,5.139614131621784e-06,0.3394167423248291,-1.320981804524557,-7.880828343331814e-05,-0.10290703177452087,0.3007955551147461,0.0,0.07861382514238358,1.4118738174438477,-4.027409158879891e-05,0.10173587501049042
232.0,257.0,3.2877,-0.3763,8.7745,-0.0359,0.0223,-0.1161,-1.7438951931395472,-0.003207310102880001,2.807082414627075,-1.5997884273529053,0.00019127418636344373,2.20351505279541,4.586095495814941,1.4306305029521127e-09,0.3335414230823517,-1.3209660688983362,-7.550263399025425e-05,-0.11385974287986755,0.3008676767349243,0.0,0.06709109246730804,1.4118901491165161,-3.774023207370192e-05,0.17033293843269348
232.0,257.0,3.2877,-0.3763,8.7745,-0.0359,0.0223,-0.1161,-1.7439757786192835,-0.003669839119538665,2.819812536239624,-1.599768042564392,0.0001771551906131208,2.164923906326294,4.586138887996338,3.982212780015426e-13,0.3273942470550537,-1.3209660688983362,-7.246308086905628e-05,-0.09867236018180847,0.3007754683494568,0.0,0.07892456650733948,1.411881923675537,-1.983024412766099e-05,0.16459578275680542
232.0,257.0,3.2877,-0.3763,8.7745,-0.0359,0.0223,-0.1161,-1.7439476452269496,-0.004312118515372276,2.8385379314422607,-1.5997639894485474,0.00016884617798496038,2.192380428314209,4.586118860835693,1.6976795488198243e-15,0.32305458188056946,-1.3209741751300257,-7.056911272229627e-05,-0.11357226967811584,0.300791472196579,0.0,0.06034743785858154,1.4118577241897583,-1.7079992176149972e-05,0.12861153483390808
232.0,257.0,3.2877,-0.3763,8.7745,-0.0359,0.0223,-0.1161,-1.744040151635641,-0.0046298871748149395,2.821485757827759,-1.5997763872146606,0.00015774837811477482,2.1487975120544434,4.586146517390869,4.725553075556853e-19,0.3128153085708618,-1.3209379355060022,-6.790688348701224e-05,-0.11376933753490448,0.3007955551147461,0.00010286153701599687,0.06448537111282349,1.4118859767913818,-3.52742640652437e-10,0.14901524782180786
