ramyac6/ROB537/final_project/csv/all/bad_181.csv
tof_0,tof_1,accelx,accely,accelz,gyrox,gyroy,gyroz,shoulder_lift_joint_position,shoulder_lift_joint_velocity,shoulder_lift_joint_effort,elbow_joint_position,elbow_joint_velocity,elbow_joint_effort,wrist_1_joint_position,wrist_1_joint_velocity,wrist_1_joint_effort,wrist_2_joint_position,wrist_2_joint_velocity,wrist_2_joint_effort,wrist_3_joint_position,wrist_3_joint_velocity,wrist_3_joint_effort,shoulder_pan_joint_position,shoulder_pan_joint_velocity,shoulder_pan_joint_effort
263.0,302.0,3.807,-2.586,8.1894,-0.0362,0.0156,-0.1132,-1.6757203541197718,0.0,2.639151096343994,-1.4932875633239746,-0.0,2.2323246002197266,4.1751906114765625,0.0,0.2756006717681885,-1.624829117451803,0.0,0.0028142931405454874,1.1892814636230469,0.0,-0.011266408488154411,0.6796268820762634,0.0,-0.018678361549973488
263.0,302.0,3.807,-2.586,8.1894,-0.0362,0.0156,-0.1132,-1.6757446728148402,0.0,2.640740394592285,-1.4932637214660645,-0.0,2.155862331390381,4.175211115474365,0.0,0.2872657775878906,-1.6248047987567347,0.0,-0.0069609456695616245,1.1893374919891357,0.0,-0.0030187282245606184,0.6796265244483948,0.0,0.009753282181918621
263.0,302.0,3.807,-2.586,8.1894,-0.0362,0.0156,-0.1132,-1.6757403812804164,0.0,2.6313514709472656,-1.4933204650878906,-0.0,2.1675686836242676,4.175178213710449,0.0,0.27444013953208923,-1.624800984059469,0.0,0.01815151609480381,1.1893216371536255,0.0,-0.011386989615857601,0.6796708106994629,0.0,-0.01054344978183508
263.0,302.0,3.807,-2.586,8.1894,-0.0362,0.0156,-0.1132,-1.6757003269591273,0.0,2.6717352867126465,-1.4933040142059326,-0.0,2.245985507965088,4.175186319942139,0.0,0.2698667347431183,-1.6248248259173792,0.0,0.01179034449160099,1.189345121383667,0.0,0.0019630391616374254,0.6796708106994629,0.0,-0.00022767717018723488
263.0,302.0,3.807,-2.586,8.1894,-0.0362,0.0156,-0.1132,-1.6756841144957484,0.0,2.6201791763305664,-1.4932957887649536,-0.0,2.164909601211548,4.175203009242676,0.0,0.263502836227417,-1.6248090902911585,0.0,-3.7231948226690292e-06,1.189345359802246,0.0,-0.0052214693278074265,0.6796430349349976,0.0,-0.009433618746697903
263.0,302.0,3.807,-2.586,8.1894,-0.0362,0.0156,-0.1132,-1.6756884060301722,0.0,2.5916199684143066,-1.4932835102081299,-0.0,2.1443467140197754,4.175186796779297,0.0,0.2674034833908081,-1.6248214880572718,0.0,0.005654160864651203,1.1892893314361572,0.0,0.0015133100096136332,0.6796467304229736,0.0,0.03455456718802452
263.0,302.0,3.807,-2.586,8.1894,-0.0362,0.0156,-0.1132,-1.6757246456541957,0.0,2.623598575592041,-1.4933040142059326,-0.0,2.1992852687835693,4.175226851100586,0.0,0.2852897644042969,-1.624845329915182,0.0,-0.010736661963164806,1.1893056631088257,0.0,0.00015041185542941093,0.6796467304229736,0.0,0.004681098274886608
263.0,302.0,3.807,-2.586,8.1894,-0.0362,0.0156,-0.1132,-1.6757084331908167,0.0,2.655831813812256,-1.4931946992874146,-0.0,2.194977045059204,4.175238772029541,0.0,0.28217241168022156,-1.6248372236834925,0.0,0.005371026694774628,1.1892732381820679,0.0,-0.022280637174844742,0.6796343326568604,0.0,-0.0019832998514175415
263.0,302.0,3.807,-2.586,8.1894,-0.0362,0.0156,-0.1132,-1.6757198772826136,0.0,2.6470155715942383,-1.4932998418807983,-0.0,2.1826248168945312,4.175211115474365,0.0,0.274219274520874,-1.624800984059469,0.0,0.014203615486621857,1.1893212795257568,0.0,-0.009171142242848873,0.6796831488609314,0.0,0.03484401851892471
263.0,302.0,3.807,-2.586,8.1894,-0.0362,0.0156,-0.1132,-1.6757003269591273,0.0,2.6784019470214844,-1.4933195114135742,-0.0,2.2178795337677,4.175194426173828,0.0,0.28283634781837463,-1.6247766653644007,0.0,-0.005045747384428978,1.1893376111984253,0.0,-0.0023181855212897062,0.6796222925186157,0.0,0.018605949357151985
263.0,302.0,3.807,-2.586,8.1894,-0.0362,0.0156,-0.1132,-1.6756922207274378,0.0,2.666919231414795,-1.493239402770996,-0.0,2.1689229011535645,4.1751624780842285,0.0,0.270757257938385,-1.6248047987567347,0.0,-0.00018693844322115183,1.1892733573913574,0.0,-0.006873670034110546,0.6796104907989502,0.0,-0.0010645510628819466
268.0,304.0,3.8088,-2.5436,8.2499,-0.0342,0.0185,-0.1214,-1.675748964349264,0.0,2.7028801441192627,-1.4932714700698853,-0.0,2.1933650970458984,4.175211115474365,0.0,0.28344792127609253,-1.6248415152179163,0.0,0.009852615185081959,1.1892774105072021,0.0,-0.005409694742411375,0.6796063184738159,0.0,-0.0059364610351622105
268.0,304.0,3.8088,-2.5436,8.2499,-0.0342,0.0185,-0.1214,-1.6756922207274378,0.0,2.649820327758789,-1.4932957887649536,-0.0,2.243084192276001,4.175194903010986,0.0,0.29512855410575867,-1.6248534361468714,0.0,0.007320726290345192,1.1893495321273804,0.0,-0.011907082051038742,0.6796508431434631,0.0,0.024085432291030884
268.0,304.0,3.8088,-2.5436,8.2499,-0.0342,0.0185,-0.1214,-1.6757003269591273,0.0,2.623168468475342,-1.4932875633239746,-0.0,2.1876919269561768,4.175210638637207,0.0,0.2879739999771118,-1.624829117451803,0.0,0.005796464625746012,1.1892979145050049,0.0,0.0022454261779785156,0.6796384453773499,0.0,-0.0018760641105473042
268.0,304.0,3.8088,-2.5436,8.2499,-0.0342,0.0185,-0.1214,-1.6757203541197718,0.0,2.6494221687316895,-1.4932554960250854,-0.0,2.1873998641967773,4.175219221706055,0.0,0.2768734097480774,-1.6248534361468714,0.0,0.009234181605279446,1.1893212795257568,0.0,-0.012623056769371033,0.6796627640724182,0.0,-0.013941008597612381
268.0,304.0,3.8088,-2.5436,8.2499,-0.0342,0.0185,-0.1214,-1.6757613621153773,0.0,2.6629767417907715,-1.4932358264923096,-0.0,2.203566789627075,4.175194426173828,0.0,0.2797892689704895,-1.6248052755938929,0.0,-0.0015908293426036835,1.1892695426940918,0.0,-0.00957160722464323,0.6796508431434631,0.0,-0.007557238452136517
268.0,304.0,3.8088,-2.5436,8.2499,-0.0342,0.0185,-0.1214,-1.6757570705809535,0.0,2.6723694801330566,-1.4932674169540405,-0.0,2.210330009460449,4.175118132228516,0.0,0.2787208557128906,-1.6248415152179163,0.0,0.008497378788888454,1.1892895698547363,0.0,0.0020949209574609995,0.679699182510376,0.0,0.007053987123072147
268.0,304.0,3.8088,-2.5436,8.2499,-0.0342,0.0185,-0.1214,-1.675748964349264,0.0,2.65975284576416,-1.4932554960250854,-0.0,2.1544666290283203,4.175154848689697,0.0,0.2721710205078125,-1.6248248259173792,0.0,0.0008626607595942914,1.189305305480957,0.0,-0.009364614263176918,0.6795941591262817,0.0,0.0035584899596869946
268.0,304.0,3.8088,-2.5436,8.2499,-0.0342,0.0185,-0.1214,-1.6757165394225062,0.0,2.615292549133301,-1.4932714700698853,-0.0,2.2049317359924316,4.175162954921387,0.0,0.276423841714859,-1.624845329915182,0.0,0.0010622425470501184,1.1893174648284912,0.0,0.00361846387386322,0.6796668767929077,0.0,-0.028475312516093254
268.0,304.0,3.8088,-2.5436,8.2499,-0.0342,0.0185,-0.1214,-1.675704141656393,0.0,2.657148838043213,-1.4932554960250854,-0.0,2.1532719135284424,4.175230188960693,0.0,0.2798532247543335,-1.6248248259173792,0.0,0.013210132718086243,1.1893056631088257,0.0,-0.015621332451701164,0.6796145439147949,0.0,0.0032304953783750534
268.0,304.0,3.8088,-2.5436,8.2499,-0.0342,0.0185,-0.1214,-1.675732275048727,0.0,2.6613497734069824,-1.4933040142059326,-0.0,2.1594181060791016,4.175214930171631,0.0,0.28273433446884155,-1.6248372236834925,0.0,0.014675211161375046,1.1893253326416016,0.0,-0.0011485600844025612,0.67962646484375,0.0,-0.020698852837085724
268.0,304.0,3.8088,-2.5436,8.2499,-0.0342,0.0185,-0.1214,-1.6757527790465296,0.0,2.6538400650024414,-1.4932875633239746,-0.0,2.2222776412963867,4.175206823939941,0.0,0.2792792320251465,-1.6248214880572718,0.0,0.0008266178774647415,1.1892651319503784,0.0,-0.004402474034577608,0.6796022057533264,0.0,-0.023851633071899414
268.0,304.0,3.8088,-2.5436,8.2499,-0.0342,0.0185,-0.1214,-1.6756965122618617,0.0,2.6309902667999268,-1.493283748626709,-0.0,2.1517796516418457,4.175170584315918,0.0,0.27578121423721313,-1.6248248259173792,0.0,0.01059968862682581,1.1892569065093994,0.0,-0.007139255758374929,0.6796544790267944,0.0,-0.0031601712107658386
268.0,304.0,3.8088,-2.5436,8.2499,-0.0342,0.0185,-0.1214,-1.6757084331908167,0.0,2.624858856201172,-1.4932554960250854,-0.0,2.236631155014038,4.175186319942139,0.0,0.26678138971328735,-1.624841038380758,0.0,0.0011912735644727945,1.189305305480957,0.0,-0.006734135560691357,0.6796627044677734,0.0,-0.02882821299135685
268.0,304.0,3.8088,-2.5436,8.2499,-0.0342,0.0185,-0.1214,-1.6757008037962855,0.0,2.6283817291259766,-1.4932554960250854,-0.0,2.213117837905884,4.175214930171631,0.0,0.2742001414299011,-1.6247966925250452,0.0,0.005577628035098314,1.1892613172531128,0.0,-0.0075006792321801186,0.6796709299087524,0.0,-0.010931163094937801
268.0,304.0,3.8088,-2.5436,8.2499,-0.0342,0.0185,-0.1214,-1.675748964349264,0.0,2.6477293968200684,-1.4932798147201538,-0.0,2.1731114387512207,4.175203009242676,0.0,0.2795836925506592,-1.6248496214496058,0.0,0.0010148247238248587,1.1892974376678467,0.0,0.0014376819599419832,0.6796749830245972,0.0,0.02478146180510521
268.0,304.0,3.8088,-2.5436,8.2499,-0.0342,0.0185,-0.1214,-1.6757246456541957,0.0,2.5774123668670654,-1.4933072328567505,-0.0,2.2479183673858643,4.175203009242676,0.0,0.2856723964214325,-1.6248329321490687,0.0,0.00723582087084651,1.1892614364624023,0.0,0.0070407213643193245,0.6796708106994629,0.0,0.008283927105367184
268.0,304.0,3.8088,-2.5436,8.2499,-0.0342,0.0185,-0.1214,-1.6757203541197718,0.0,2.635302782058716,-1.4932796955108643,-0.0,2.23888897895813,4.175234003657959,0.0,0.28254371881484985,-1.624800984059469,0.0,0.007334915921092033,1.1892368793487549,0.0,-0.007108625024557114,0.6796467304229736,0.0,-0.02461874671280384
268.0,304.0,3.8088,-2.5436,8.2499,-0.0342,0.0185,-0.1214,-1.6756640873351039,0.0,2.6452276706695557,-1.4932111501693726,-0.0,2.1774182319641113,4.175166769618652,0.0,0.2766413390636444,-1.6248248259173792,0.0,-0.006232632324099541,1.1892735958099365,0.0,-0.0016204483108595014,0.6796222925186157,0.0,0.0020564785227179527
268.0,304.0,3.8088,-2.5436,8.2499,-0.0342,0.0185,-0.1214,-1.6757728062071742,0.0,2.583751678466797,-1.4932632446289062,-0.0,2.2512502670288086,4.175238295192383,0.0,0.2774415910243988,-1.6248329321490687,0.0,0.007924281992018223,1.1893012523651123,0.0,9.712018072605133e-05,0.6796544790267944,0.0,-0.05152447521686554
268.0,304.0,3.8088,-2.5436,8.2499,-0.0342,0.0185,-0.1214,-1.675727983514303,0.0,2.6751837730407715,-1.4932959079742432,-0.0,2.17233943939209,4.175158663386963,0.0,0.2759949564933777,-1.6248052755938929,0.0,0.010272316634654999,1.189265489578247,0.0,0.005329531151801348,0.6796586513519287,0.0,-0.005050766281783581
265.0,292.0,3.7819,-2.5005,8.278,-0.033,0.0212,-0.1239,-1.6757284603514613,0.0,2.6727921962738037,-1.4932514429092407,-0.0,2.157292604446411,4.175242109889648,0.0,0.28133687376976013,-1.6247928778277796,0.0,0.0063071041367948055,1.1893055438995361,0.0,-0.013494443148374557,0.6796222925186157,0.0,0.021131042391061783
265.0,292.0,3.7819,-2.5005,8.278,-0.033,0.0212,-0.1239,-1.6756922207274378,0.0,2.6436591148376465,-1.4933122396469116,-0.0,2.1764161586761475,4.175182505244873,0.0,0.2744365930557251,-1.6247766653644007,0.0,-0.0005234206328168511,1.1892814636230469,0.0,-0.003533953335136175,0.6796222925186157,0.0,-0.0010499749332666397
265.0,292.0,3.7819,-2.5005,8.278,-0.033,0.0212,-0.1239,-1.6757527790465296,0.0,2.6346945762634277,-1.4932677745819092,-0.0,2.190793037414551,4.1751906114765625,0.0,0.2815205156803131,-1.6248090902911585,0.0,0.023217488080263138,1.1893175840377808,0.0,-0.002484389580786228,0.6796467304229736,0.0,0.023806998506188393
265.0,292.0,3.7819,-2.5005,8.278,-0.033,0.0212,-0.1239,-1.6757084331908167,0.0,2.6378862857818604,-1.4932959079742432,-0.0,2.2054858207702637,4.1751906114765625,0.0,0.2835490107536316,-1.6248372236834925,0.0,0.0002056348603218794,1.1892774105072021,0.0,0.0013982316013425589,0.67962646484375,0.0,0.023993168026208878
265.0,292.0,3.7819,-2.5005,8.278,-0.033,0.0212,-0.1239,-1.6756960354247035,0.0,2.6963062286376953,-1.4932794570922852,-0.0,2.1873857975006104,4.175170584315918,0.0,0.2921084761619568,-1.6248329321490687,0.0,-0.00034567585680633783,1.1892895698547363,0.0,-0.0038686180487275124,0.6796914339065552,0.0,-0.021565355360507965
265.0,292.0,3.7819,-2.5005,8.278,-0.033,0.0212,-0.1239,-1.6757246456541957,0.0,2.659320831298828,-1.493283748626709,-0.0,2.211207389831543,4.175194426173828,0.0,0.2730877995491028,-1.6248496214496058,0.0,0.0017849012510851026,1.1893093585968018,0.0,0.008786652237176895,0.6795982122421265,0.0,0.021707171574234962
265.0,292.0,3.7819,-2.5005,8.278,-0.033,0.0212,-0.1239,-1.6757203541197718,0.0,2.655756950378418,-1.4932674169540405,-0.0,2.1919829845428467,4.175238295192383,0.0,0.29263681173324585,-1.624829117451803,0.0,0.0007377465954050422,1.1892691850662231,0.0,0.0032985354773700237,0.6796508431434631,0.0,0.011939575895667076
265.0,292.0,3.7819,-2.5005,8.278,-0.033,0.0212,-0.1239,-1.6757203541197718,0.0,2.6237387657165527,-1.4932875633239746,-0.0,2.168765068054199,4.175203009242676,0.0,0.2854323387145996,-1.6248248259173792,0.0,0.006053118035197258,1.1892814636230469,0.0,0.0063075595535337925,0.6796508431434631,0.0,0.004784659948199987
265.0,292.0,3.7819,-2.5005,8.278,-0.033,0.0212,-0.1239,-1.675732275048727,0.0,2.638212203979492,-1.493303894996643,-0.0,2.19527006149292,4.175174875850342,0.0,0.26012343168258667,-1.624857250844137,0.0,0.0065335361286997795,1.1893614530563354,0.0,-0.0056553734466433525,0.6796387434005737,0.0,0.041451334953308105
265.0,292.0,3.7819,-2.5005,8.278,-0.033,0.0212,-0.1239,-1.6757403812804164,0.0,2.6561665534973145,-1.4933277368545532,-0.0,2.160999298095703,4.175238295192383,0.0,0.28695443272590637,-1.624800984059469,0.0,0.0004863627254962921,1.1892772912979126,0.0,-0.004756339825689793,0.6796545386314392,0.0,0.009848316200077534
265.0,292.0,3.7819,-2.5005,8.278,-0.033,0.0212,-0.1239,-1.675732275048727,0.0,2.6285667419433594,-1.4932998418807983,-0.0,2.1527793407440186,4.175222559566162,0.0,0.27397069334983826,-1.6247885862933558,0.0,0.017832312732934952,1.1892814636230469,0.0,-0.0020196547266095877,0.6795942187309265,0.0,0.0037874411791563034
265.0,292.0,3.7819,-2.5005,8.278,-0.033,0.0212,-0.1239,-1.6756721935667933,0.0,2.597501754760742,-1.4933080673217773,-0.0,2.2347259521484375,4.175226374263428,0.0,0.28222572803497314,-1.6248372236834925,0.0,0.007492322474718094,1.1893454790115356,0.0,-0.002637983299791813,0.6795900464057922,0.0,-0.0106468191370368
265.0,292.0,3.7819,-2.5005,8.278,-0.033,0.0212,-0.1239,-1.6756960354247035,0.0,2.589503288269043,-1.4932957887649536,-0.0,2.1311683654785156,4.175198717708252,0.0,0.28162580728530884,-1.624857250844137,0.0,-0.00019281264394521713,1.1893175840377808,0.0,-0.006453017704188824,0.6796384453773499,0.0,-0.0002139066345989704
265.0,292.0,3.7819,-2.5005,8.278,-0.033,0.0212,-0.1239,-1.6757084331908167,0.0,2.6467432975769043,-1.4932714700698853,-0.0,2.192387104034424,4.175218268031738,0.0,0.2880426347255707,-1.6248329321490687,0.0,0.008991987444460392,1.1893012523651123,0.0,-0.014228048734366894,0.6796832084655762,0.0,-0.00017423182725906372
265.0,292.0,3.7819,-2.5005,8.278,-0.033,0.0212,-0.1239,-1.6757446728148402,0.0,2.6159939765930176,-1.4932796955108643,-0.0,2.201272964477539,4.1751953798481445,0.0,0.27371639013290405,-1.6247928778277796,0.0,0.012066350318491459,1.1893293857574463,0.0,-0.0037582414224743843,0.6796146035194397,0.0,0.028818396851420403
265.0,292.0,3.7819,-2.5005,8.278,-0.033,0.0212,-0.1239,-1.6757084331908167,0.0,2.6689882278442383,-1.4932477474212646,-0.0,2.1732053756713867,4.175198717708252,0.0,0.274949312210083,-1.6248090902911585,0.0,-0.0037165707908570766,1.1892893314361572,0.0,0.001483268802985549,0.6796104907989502,0.0,-0.06405258178710938
265.0,292.0,3.7819,-2.5005,8.278,-0.033,0.0212,-0.1239,-1.6757084331908167,0.0,2.6251277923583984,-1.4932957887649536,-0.0,2.228384017944336,4.175242109889648,0.0,0.28427010774612427,-1.6248248259173792,0.0,-0.0010757797863334417,1.1893174648284912,0.0,0.0012513436377048492,0.6796064972877502,0.0,-0.04035177081823349
265.0,292.0,3.7819,-2.5005,8.278,-0.033,0.0212,-0.1239,-1.6757246456541957,0.0,2.626340866088867,-1.4932957887649536,-0.0,2.234220266342163,4.175226374263428,0.0,0.2755553126335144,-1.6247928778277796,0.0,0.004843225236982107,1.189305305480957,0.0,-0.014806222170591354,0.6796302795410156,0.0,-0.015364974737167358
265.0,292.0,3.7819,-2.5005,8.278,-0.033,0.0212,-0.1239,-1.6757003269591273,0.0,2.6728057861328125,-1.4932596683502197,-0.0,2.2006640434265137,4.175203009242676,0.0,0.28271907567977905,-1.6248248259173792,0.0,0.005144634749740362,1.1893293857574463,0.0,0.009273707866668701,0.6796305775642395,0.0,-0.020109212026000023
265.0,292.0,3.7819,-2.5005,8.278,-0.033,0.0212,-0.1239,-1.6756922207274378,0.0,2.6222827434539795,-1.4932714700698853,-0.0,2.2349205017089844,4.175127192134521,0.0,0.274603009223938,-1.6247647444354456,0.0,0.01519088540226221,1.1892814636230469,0.0,-0.004853819962590933,0.6796548962593079,0.0,-0.0052490513771772385
267.0,289.0,3.8148,-2.5005,8.1727,-0.0376,0.0333,-0.1187,-1.6757403812804164,0.0,2.6302449703216553,-1.4932477474212646,-0.0,2.1860549449920654,4.17519919454541,0.0,0.27544426918029785,-1.624845329915182,0.0,0.009215078316628933,1.1893093585968018,0.0,-0.0041809771209955215,0.6796627044677734,0.0,-0.016591915860772133
267.0,289.0,3.8148,-2.5005,8.1727,-0.0376,0.0333,-0.1187,-1.675732275048727,0.0,2.6280975341796875,-1.4933236837387085,-0.0,2.174844741821289,4.175174875850342,0.0,0.28518974781036377,-1.6248205343829554,0.0,0.0112708555534482,1.1892893314361572,0.0,-0.003300079610198736,0.6795982122421265,0.0,0.03242655098438263
267.0,289.0,3.8148,-2.5005,8.1727,-0.0376,0.0333,-0.1187,-1.6757446728148402,0.0,2.615985870361328,-1.4932957887649536,-0.0,2.184124231338501,4.175203009242676,0.0,0.2750554382801056,-1.6248052755938929,0.0,-0.0034491585101932287,1.189293384552002,0.0,-0.004659597296267748,0.6796426773071289,0.0,-0.0628044456243515
267.0,289.0,3.8148,-2.5005,8.1727,-0.0376,0.0333,-0.1187,-1.6757246456541957,0.0,2.629523754119873,-1.4932957887649536,-0.0,2.207301139831543,4.1751906114765625,0.0,0.2821481227874756,-1.62476092973818,0.0,0.007693065330386162,1.1892931461334229,0.0,-0.004753654822707176,0.6796950697898865,0.0,-0.02406945452094078
267.0,289.0,3.8148,-2.5005,8.1727,-0.0376,0.0333,-0.1187,-1.6757122478880824,0.0,2.633143663406372,-1.4933162927627563,-0.0,2.150501251220703,4.175218268031738,0.0,0.2816508710384369,-1.6247966925250452,0.0,0.00337908323854208,1.1893454790115356,0.0,-0.005012162029743195,0.6796343922615051,0.0,0.021594228222966194
267.0,289.0,3.8148,-2.5005,8.1727,-0.0376,0.0333,-0.1187,-1.6757079563536585,0.0,2.627584218978882,-1.4933122396469116,-0.0,2.1929149627685547,4.175115271205566,0.0,0.2747951149940491,-1.6248534361468714,0.0,0.009617073461413383,1.1892774105072021,0.0,0.004363606683909893,0.6796227693557739,0.0,0.01815480925142765
267.0,289.0,3.8148,-2.5005,8.1727,-0.0376,0.0333,-0.1187,-1.6756683788695277,0.0,2.6537885665893555,-1.4932637214660645,-0.0,2.214895248413086,4.175206823939941,0.0,0.27694445848464966,-1.6248095671283167,0.0,0.006039646454155445,1.1893055438995361,0.0,-0.018219003453850746,0.6796467304229736,0.0,-0.03365208953619003
267.0,289.0,3.8148,-2.5005,8.1727,-0.0376,0.0333,-0.1187,-1.675716062585348,0.0,2.6318883895874023,-1.4932875633239746,-0.0,2.194692611694336,4.175203009242676,0.0,0.2908400893211365,-1.6247766653644007,0.0,0.0014943154528737068,1.1892286539077759,0.0,-0.014741571620106697,0.67962646484375,0.0,-0.03300519287586212
267.0,289.0,3.8148,-2.5005,8.1727,-0.0376,0.0333,-0.1187,-1.6757203541197718,0.0,2.662834882736206,-1.4932395219802856,-0.0,2.2287378311157227,4.175226374263428,0.0,0.27741554379463196,-1.6248329321490687,0.0,0.009165181778371334,1.189305305480957,0.0,-0.018624404445290565,0.6796750426292419,0.0,-0.01251322589814663
267.0,289.0,3.8148,-2.5005,8.1727,-0.0376,0.0333,-0.1187,-1.6757446728148402,0.0,2.6652369499206543,-1.4932998418807983,-0.0,2.2343435287475586,4.175226374263428,0.0,0.27017784118652344,-1.6247809568988245,0.0,-0.0029725641943514347,1.1893055438995361,0.0,0.0017795811872929335,0.6796548962593079,0.0,0.012172743678092957
267.0,289.0,3.8148,-2.5005,8.1727,-0.0376,0.0333,-0.1187,-1.6757446728148402,0.0,2.626070976257324,-1.4932957887649536,-0.0,2.1598613262176514,4.175158663386963,0.0,0.28783363103866577,-1.6248248259173792,0.0,0.009401412680745125,1.189257264137268,0.0,0.001739166909828782,0.6796667575836182,0.0,0.01943088509142399
267.0,289.0,3.8148,-2.5005,8.1727,-0.0376,0.0333,-0.1187,-1.6757365665831507,0.0,2.6552329063415527,-1.4932398796081543,-0.0,2.2091541290283203,4.175203009242676,0.0,0.294975221157074,-1.6248090902911585,0.0,0.013330578804016113,1.1892855167388916,0.0,-0.003994588740170002,0.6796384453773499,0.0,0.008692544884979725
267.0,289.0,3.8148,-2.5005,8.1727,-0.0376,0.0333,-0.1187,-1.6757203541197718,0.0,2.662588596343994,-1.4932554960250854,-0.0,2.220170497894287,4.175174875850342,0.0,0.2773846983909607,-1.6248090902911585,0.0,0.004206113051623106,1.1893293857574463,0.0,0.0011256203288212419,0.67962646484375,0.0,0.017046792432665825
267.0,289.0,3.8148,-2.5005,8.1727,-0.0376,0.0333,-0.1187,-1.6756798229613246,0.0,2.630061626434326,-1.4932957887649536,-0.0,2.1712398529052734,4.175186796779297,0.0,0.2853543162345886,-1.6248133818255823,0.0,-0.002567374613136053,1.1893174648284912,0.0,-0.006852027028799057,0.6796545386314392,0.0,-0.0219920314848423
267.0,289.0,3.8148,-2.5005,8.1727,-0.0376,0.0333,-0.1187,-1.6756764851012171,0.0,2.641160011291504,-1.4932596683502197,-0.0,2.2030179500579834,4.175158663386963,0.0,0.27529478073120117,-1.6248615423785608,0.0,-0.009199663996696472,1.1892770528793335,0.0,-0.011226951144635677,0.6796467900276184,0.0,-0.011174945160746574
267.0,289.0,3.8148,-2.5005,8.1727,-0.0376,0.0333,-0.1187,-1.6756640873351039,0.0,2.6327061653137207,-1.4933195114135742,-0.0,2.1622893810272217,4.1751906114765625,0.0,0.2859940826892853,-1.6247847715960901,0.0,0.013001191429793835,1.1892446279525757,0.0,-0.0002781564253382385,0.6796385049819946,0.0,0.0013360632583498955
267.0,289.0,3.8148,-2.5005,8.1727,-0.0376,0.0333,-0.1187,-1.6757084331908167,0.0,2.639516830444336,-1.4932395219802856,-0.0,2.12430739402771,4.175238295192383,0.0,0.2847060561180115,-1.6248167196856897,0.0,0.00039470952469855547,1.189265489578247,0.0,0.0043799616396427155,0.6796145439147949,0.0,-0.03416530787944794
267.0,289.0,3.8148,-2.5005,8.1727,-0.0376,0.0333,-0.1187,-1.6757403812804164,0.0,2.682805061340332,-1.4932235479354858,-0.0,2.2047853469848633,4.175182505244873,0.0,0.2797388732433319,-1.6247766653644007,0.0,0.0012190858833491802,1.18930983543396,0.0,0.011962269432842731,0.6796790957450867,0.0,-0.07655450701713562
267.0,289.0,3.8148,-2.5005,8.1727,-0.0376,0.0333,-0.1187,-1.675748964349264,0.0,2.692047119140625,-1.493255853652954,-0.0,2.231081485748291,4.175234003657959,0.0,0.27258720993995667,-1.624800984059469,0.0,0.009728626348078251,1.1893014907836914,0.0,-0.008131436072289944,0.6796467304229736,0.0,0.024086765944957733
267.0,289.0,3.8148,-2.5005,8.1727,-0.0376,0.0333,-0.1187,-1.6757403812804164,0.0,2.6137404441833496,-1.4932756423950195,-0.0,2.1556663513183594,4.175158663386963,0.0,0.28704938292503357,-1.6248415152179163,0.0,-0.00031327514443546534,1.1892774105072021,0.0,0.003510004375129938,0.679634690284729,0.0,-0.028973450884222984
275.0,307.0,3.7962,-2.5406,8.1673,-0.0418,0.0212,-0.117,-1.6757570705809535,0.0,2.644087553024292,-1.493299961090088,-0.0,2.189749240875244,4.175122900600098,0.0,0.2866622805595398,-1.6247766653644007,0.0,0.004768256098031998,1.1892814636230469,0.0,0.004910295829176903,0.6796750426292419,0.0,0.00902666337788105
275.0,307.0,3.7962,-2.5406,8.1673,-0.0418,0.0212,-0.117,-1.6757003269591273,0.0,2.6296257972717285,-1.4933277368545532,-0.0,2.2218828201293945,4.175154848689697,0.0,0.26575371623039246,-1.6248496214496058,0.0,0.0022495125886052847,1.1892409324645996,0.0,0.0006382943247444928,0.6796343922615051,0.0,-0.03115532547235489
275.0,307.0,3.7962,-2.5406,8.1673,-0.0418,0.0212,-0.117,-1.675765176812643,0.0,2.619755506515503,-1.4932193756103516,-0.0,2.1908655166625977,4.17519919454541,0.0,0.28277552127838135,-1.6248329321490687,0.0,0.010631320998072624,1.189341425895691,0.0,-0.0047463406808674335,0.6796467304229736,0.0,-0.022105161100625992
275.0,307.0,3.7962,-2.5406,8.1673,-0.0418,0.0212,-0.117,-1.6756841144957484,0.0,2.636043071746826,-1.4932875633239746,-0.0,2.1930439472198486,4.175186796779297,0.0,0.27578628063201904,-1.6247885862933558,0.0,0.0030540158040821552,1.1892613172531128,0.0,-0.01285944040864706,0.6796508431434631,0.0,-0.009487064555287361
275.0,307.0,3.7962,-2.5406,8.1673,-0.0418,0.0212,-0.117,-1.6757084331908167,0.0,2.648238182067871,-1.4932756423950195,-0.0,2.1871635913848877,4.1752025324055175,0.0,0.28062760829925537,-1.6248214880572718,0.0,-0.0014829488936811686,1.1893134117126465,0.0,-0.019440054893493652,0.6796145439147949,0.0,0.012528478167951107
275.0,307.0,3.7962,-2.5406,8.1673,-0.0418,0.0212,-0.117,-1.6757284603514613,0.0,2.579350471496582,-1.4933319091796875,-0.0,2.1874752044677734,4.175170584315918,0.0,0.28083816170692444,-1.6248372236834925,0.0,0.004657763987779617,1.189305305480957,0.0,-0.008242065086960793,0.6796548962593079,0.0,0.011438701301813126
275.0,307.0,3.7962,-2.5406,8.1673,-0.0418,0.0212,-0.117,-1.6757446728148402,0.0,2.679271936416626,-1.493340253829956,-0.0,2.2252609729766846,4.175210638637207,0.0,0.2677247226238251,-1.6247966925250452,0.0,-0.00037155806785449386,1.1893216371536255,0.0,-0.009384158067405224,0.6796462535858154,0.0,0.013736818917095661
275.0,307.0,3.7962,-2.5406,8.1673,-0.0418,0.0212,-0.117,-1.67572083095693,0.0,2.6560628414154053,-1.493299961090088,-0.0,2.1615867614746094,4.175170584315918,0.0,0.28245046734809875,-1.6248248259173792,0.0,0.010075840167701244,1.1892893314361572,0.0,-0.016628388315439224,0.6796508431434631,0.0,-0.01216066163033247
275.0,307.0,3.7962,-2.5406,8.1673,-0.0418,0.0212,-0.117,-1.675765176812643,0.0,2.640773296356201,-1.4932957887649536,-0.0,2.178548574447632,4.175203009242676,0.0,0.2845185101032257,-1.6248372236834925,0.0,0.0035372290294617414,1.1892528533935547,0.0,-0.005034557078033686,0.6796504855155945,0.0,0.007364626973867416
275.0,307.0,3.7962,-2.5406,8.1673,-0.0418,0.0212,-0.117,-1.6757570705809535,0.0,2.667701005935669,-1.4932637214660645,-0.0,2.203977584838867,4.175206823939941,0.0,0.28983449935913086,-1.6248248259173792,0.0,0.002324824221432209,1.1892774105072021,0.0,-0.005202566273510456,0.67962646484375,0.0,-0.04338310286402702
275.0,307.0,3.7962,-2.5406,8.1673,-0.0418,0.0212,-0.117,-1.6757403812804164,0.0,2.6407113075256348,-1.4932714700698853,-0.0,2.1577088832855225,4.175182505244873,0.0,0.29107287526130676,-1.6248329321490687,0.0,-0.009471694938838482,1.1892974376678467,0.0,0.007309633772820234,0.6796913743019104,0.0,0.03959333896636963
275.0,307.0,3.7962,-2.5406,8.1673,-0.0418,0.0212,-0.117,-1.6756640873351039,0.0,2.6546449661254883,-1.4932514429092407,-0.0,2.1536030769348145,4.175182505244873,0.0,0.28085124492645264,-1.6248248259173792,0.0,0.013343073427677155,1.18930983543396,0.0,-0.01642078161239624,0.6796265244483948,0.0,-0.02745559811592102
275.0,307.0,3.7962,-2.5406,8.1673,-0.0418,0.0212,-0.117,-1.6757084331908167,0.0,2.66845440864563,-1.4932917356491089,-0.0,2.1931142807006836,4.175238295192383,0.0,0.2654817998409271,-1.6248205343829554,0.0,0.012580284848809242,1.1892613172531128,0.0,0.0001758956932462752,0.6796587109565735,0.0,-0.021806031465530396
275.0,307.0,3.7962,-2.5406,8.1673,-0.0418,0.0212,-0.117,-1.6757203541197718,0.0,2.6406192779541016,-1.4932879209518433,-0.0,2.138686418533325,4.175230188960693,0.0,0.272244930267334,-1.6247885862933558,0.0,0.0013946773251518607,1.189329981803894,0.0,-0.00044773274566978216,0.6796146035194397,0.0,-0.01328823808580637
275.0,307.0,3.7962,-2.5406,8.1673,-0.0418,0.0212,-0.117,-1.6757446728148402,0.0,2.6043920516967773,-1.4932513236999512,-0.0,2.1493797302246094,4.175162954921387,0.0,0.2900855541229248,-1.6247885862933558,0.0,0.0010856089647859335,1.189321517944336,0.0,0.000674401584547013,0.6796467304229736,0.0,-0.015060320496559143
275.0,307.0,3.7962,-2.5406,8.1673,-0.0418,0.0212,-0.117,-1.6757365665831507,0.0,2.659726619720459,-1.4932677745819092,-0.0,2.253380537033081,4.175206823939941,0.0,0.28195762634277344,-1.6248214880572718,0.0,0.014276040717959404,1.1892892122268677,0.0,0.001144717913120985,0.6796586513519287,0.0,0.002669239416718483
275.0,307.0,3.7962,-2.5406,8.1673,-0.0418,0.0212,-0.117,-1.6756965122618617,0.0,2.6055655479431152,-1.4932677745819092,-0.0,2.157148599624634,4.1751906114765625,0.0,0.27225926518440247,-1.6247928778277796,0.0,-0.0014408602146431804,1.1893216371536255,0.0,-0.011784479953348637,0.679634690284729,0.0,0.006844312883913517
275.0,307.0,3.7962,-2.5406,8.1673,-0.0418,0.0212,-0.117,-1.6756798229613246,0.0,2.642408847808838,-1.4932554960250854,-0.0,2.2035069465637207,4.175191088313721,0.0,0.2771904468536377,-1.6248496214496058,0.0,0.0023889304138720036,1.1893014907836914,0.0,-0.008615881204605103,0.6796265244483948,0.0,0.016448287293314934
275.0,307.0,3.7962,-2.5406,8.1673,-0.0418,0.0212,-0.117,-1.675727983514303,0.0,2.689584732055664,-1.4933441877365112,-0.0,2.2013192176818848,4.175186796779297,0.0,0.2822369635105133,-1.6247847715960901,0.0,0.012822853401303291,1.1893093585968018,0.0,-0.0007755539263598621,0.6796503663063049,0.0,-0.027244236320257187
275.0,307.0,3.7962,-2.5406,8.1673,-0.0418,0.0212,-0.117,-1.6756798229613246,0.0,2.635491371154785,-1.4933162927627563,-0.0,2.218621253967285,4.175186796779297,0.0,0.2651638388633728,-1.6247847715960901,0.0,0.005516969598829746,1.1893374919891357,0.0,0.001181810861453414,0.6796831488609314,0.0,-0.022586587816476822
268.0,301.0,3.8112,-2.6542,8.1625,-0.0313,0.0144,-0.122,-1.6757003269591273,0.0,2.66721773147583,-1.4933196306228638,-0.0,2.1779770851135254,4.1751906114765625,0.0,0.2856820821762085,-1.624857250844137,0.0,0.0154074402526021,1.1892971992492676,0.0,-0.003099086694419384,0.6796709895133972,0.0,0.03942446410655975
268.0,301.0,3.8112,-2.6542,8.1625,-0.0313,0.0144,-0.122,-1.675748964349264,0.0,2.669625759124756,-1.4932596683502197,-0.0,2.1977133750915527,4.175214930171631,0.0,0.27135202288627625,-1.624845329915182,0.0,0.009315810166299343,1.189321517944336,0.0,-0.005337893031537533,0.6796187162399292,0.0,-0.0057986024767160416
268.0,301.0,3.8112,-2.6542,8.1625,-0.0313,0.0144,-0.122,-1.6756960354247035,0.0,2.683197498321533,-1.4932514429092407,-0.0,2.224130630493164,4.175174875850342,0.0,0.28278398513793945,-1.6248205343829554,0.0,-0.008211248554289341,1.1893258094787598,0.0,-0.0070893727242946625,0.679690957069397,0.0,-0.00046130362898111343
268.0,301.0,3.8112,-2.6542,8.1625,-0.0313,0.0144,-0.122,-1.6757246456541957,0.0,2.649524211883545,-1.4932596683502197,-0.0,2.1831531524658203,4.175142927760742,0.0,0.2718297839164734,-1.624800984059469,0.0,-0.005361517891287804,1.189265489578247,0.0,-0.0070653557777404785,0.6796872615814209,0.0,0.05023055523633957
268.0,301.0,3.8112,-2.6542,8.1625,-0.0313,0.0144,-0.122,-1.6757246456541957,0.0,2.6428322792053223,-1.4933040142059326,-0.0,2.1674041748046875,4.175146742458008,0.0,0.2893258333206177,-1.6248167196856897,0.0,0.0029379709158092737,1.1893372535705566,0.0,-0.011085869744420052,0.6796305775642395,0.0,-0.03232716768980026
268.0,301.0,3.8112,-2.6542,8.1625,-0.0313,0.0144,-0.122,-1.6756922207274378,0.0,2.678617477416992,-1.4932917356491089,-0.0,2.235490322113037,4.175142927760742,0.0,0.28076785802841187,-1.6248090902911585,0.0,0.005670422688126564,1.1893216371536255,0.0,-0.008471022360026836,0.6796387434005737,0.0,-0.008521280251443386
268.0,301.0,3.8112,-2.6542,8.1625,-0.0313,0.0144,-0.122,-1.675716062585348,0.0,2.640674591064453,-1.4932591915130615,-0.0,2.221275806427002,4.175154848689697,0.0,0.28530460596084595,-1.6247928778277796,0.0,0.00753596518188715,1.1893335580825806,0.0,-0.0069025615230202675,0.6796627640724182,0.0,-0.02492714300751686
268.0,301.0,3.8112,-2.6542,8.1625,-0.0313,0.0144,-0.122,-1.675704141656393,0.0,2.6149985790252686,-1.4932432174682617,-0.0,2.2104129791259766,4.175178690547607,0.0,0.2845522463321686,-1.6248090902911585,0.0,0.008375579491257668,1.1893131732940674,0.0,-0.008975326083600521,0.6796426773071289,0.0,0.01901629939675331
268.0,301.0,3.8112,-2.6542,8.1625,-0.0313,0.0144,-0.122,-1.675748964349264,0.0,2.673130512237549,-1.4932793378829956,-0.0,2.1890692710876465,4.175226374263428,0.0,0.2856298089027405,-1.624841038380758,0.0,-8.980417624115944e-05,1.1892614364624023,0.0,-0.003945303149521351,0.6797029376029968,0.0,0.04772500321269035
268.0,301.0,3.8112,-2.6542,8.1625,-0.0313,0.0144,-0.122,-1.675716062585348,0.0,2.650644302368164,-1.4932957887649536,-0.0,2.2249207496643066,4.175203009242676,0.0,0.2872086763381958,-1.6248534361468714,0.0,-0.00719184335321188,1.1892772912979126,0.0,-0.012122804298996925,0.6796749830245972,0.0,0.0035284056793898344
268.0,301.0,3.8112,-2.6542,8.1625,-0.0313,0.0144,-0.122,-1.6757246456541957,0.0,2.637934446334839,-1.4932918548583984,-0.0,2.202047348022461,4.175158663386963,0.0,0.2816750407218933,-1.6248648802386683,0.0,0.0062865386717021465,1.1892205476760864,0.0,-0.011824604123830795,0.6796988844871521,0.0,-0.028888728469610214
268.0,301.0,3.8112,-2.6542,8.1625,-0.0313,0.0144,-0.122,-1.6757203541197718,0.0,2.6530072689056396,-1.4933443069458008,-0.0,2.172835350036621,4.175182505244873,0.0,0.2711668610572815,-1.6248167196856897,0.0,0.00399771286174655,1.1892695426940918,0.0,-0.00033970712684094906,0.679682731628418,0.0,-0.03506265580654144
268.0,301.0,3.8112,-2.6542,8.1625,-0.0313,0.0144,-0.122,-1.6756798229613246,0.0,2.630018711090088,-1.493308186531067,-0.0,2.1779673099517822,4.175218268031738,0.0,0.29006877541542053,-1.6248415152179163,0.0,0.00828730221837759,1.189285159111023,0.0,0.0034075002186000347,0.6796910166740417,5.701668328583764e-07,0.0018080733716487885
268.0,301.0,3.8112,-2.6542,8.1625,-0.0313,0.0144,-0.122,-1.675716062585348,0.0,2.671605110168457,-1.493219256401062,-0.0,2.1570804119110107,4.175222559566162,0.0,0.2899011969566345,-1.6248248259173792,0.0,0.0024110786616802216,1.1893134117126465,0.0,0.0001054163440130651,0.6796625852584839,1.376885909974701e-12,0.01461323443800211
268.0,301.0,3.8112,-2.6542,8.1625,-0.0313,0.0144,-0.122,-1.6757403812804164,0.0,2.653059959411621,-1.4932875633239746,-0.0,2.1616621017456055,4.175170584315918,0.0,0.27710458636283875,-1.624800984059469,0.0,0.009994883090257645,1.1892691850662231,0.0,-0.0011920735705643892,0.6796745657920837,2.478345876469974e-16,-0.03598540276288986
268.0,301.0,3.8112,-2.6542,8.1625,-0.0313,0.0144,-0.122,-1.675716062585348,0.0,2.682344675064087,-1.493308186531067,-0.0,2.1946096420288086,4.175158663386963,0.0,0.29583317041397095,-1.6248052755938929,0.0,0.008403265848755836,1.1893619298934937,0.0,-0.0029690107330679893,0.6796910166740417,4.4609349602973276e-20,0.01963387057185173
268.0,301.0,3.8112,-2.6542,8.1625,-0.0313,0.0144,-0.122,-1.675732275048727,0.0,2.636019706726074,-1.4932796955108643,-0.0,2.221639633178711,4.175218268031738,0.0,0.2815513610839844,-1.6248491446124476,0.0,0.009117703884840012,1.1892735958099365,0.0,0.004656475968658924,0.6796950697898865,8.029526431153368e-24,-0.017871860414743423
268.0,301.0,3.8112,-2.6542,8.1625,-0.0313,0.0144,-0.122,-1.6757403812804164,0.0,2.6399457454681396,-1.4932276010513306,-0.0,2.202094554901123,4.175162954921387,0.0,0.27479931712150574,-1.6248248259173792,0.0,0.005487812217324972,1.1893055438995361,0.0,0.013884921558201313,0.6796467304229736,1.9390361985853448e-29,0.000176495173946023
268.0,301.0,3.8112,-2.6542,8.1625,-0.0313,0.0144,-0.122,-1.6757203541197718,0.0,2.6264233589172363,-1.493316411972046,-0.0,2.2118444442749023,4.175214930171631,0.0,0.2848978042602539,-1.6248167196856897,0.0,-0.00045067514292895794,1.1892855167388916,0.0,-0.00012374366633594036,0.6796790361404419,3.4901966438829324e-33,0.05026401951909065
268.0,301.0,3.8112,-2.6542,8.1625,-0.0313,0.0144,-0.122,-1.6757084331908167,0.0,2.68837308883667,-1.493303894996643,-0.0,2.2213683128356934,4.175186796779297,0.0,0.28927165269851685,-1.6247885862933558,0.0,0.004424144513905048,1.1893014907836914,0.0,-0.01815653219819069,0.6796504259109497,6.282230874026172e-37,-0.005094263702630997
262.0,303.0,4.2365,-2.7416,8.5663,-0.0403,0.0185,-0.1239,-1.6757446728148402,0.0,2.618678569793701,-1.4932276010513306,-0.0,2.216553211212158,4.175170584315918,0.0,0.2756836414337158,-1.6248205343829554,0.0,0.0020243932958692312,1.1892974376678467,0.0,-0.007909055799245834,0.6796627044677734,1.1307777957869111e-40,-0.035970885306596756
262.0,303.0,4.2365,-2.7416,8.5663,-0.0403,0.0185,-0.1239,-1.6757527790465296,0.0,2.6472818851470947,-1.4932277202606201,-0.0,2.2338600158691406,4.175154848689697,0.0,0.2945564389228821,-1.6247966925250452,0.0,0.008362974040210247,1.189265489578247,0.0,-0.007777131162583828,0.6796187162399292,-8.19999841041863e-05,0.019299522042274475
262.0,303.0,4.2365,-2.7416,8.5663,-0.0403,0.0185,-0.1239,-1.675676008264059,0.0,2.616077184677124,-1.4933154582977295,-0.0,2.1995773315429688,4.175198717708252,0.0,0.291271835565567,-1.6248329321490687,0.0,-0.007451346144080162,1.1893258094787598,0.0,0.004413429647684097,0.6796832084655762,-7.552521128673106e-05,0.085323765873909
262.0,303.0,4.2365,-2.7416,8.5663,-0.0403,0.0185,-0.1239,-1.6757241688170375,0.0,2.6285176277160645,-1.4932596683502197,-0.0,2.181567907333374,4.175211115474365,0.0,0.27202197909355164,-1.624829117451803,0.0,0.006275543011724949,1.1892695426940918,0.0,-0.004898352548480034,0.679634690284729,-6.967783701838925e-05,0.051401086151599884
262.0,303.0,4.2365,-2.7416,8.5663,-0.0403,0.0185,-0.1239,-1.675748964349264,0.0,2.659555196762085,-1.4932637214660645,-8.66545724065304e-11,2.1944990158081055,4.175206823939941,0.0,0.28087106347084045,-1.6248496214496058,0.0,-0.006872333586215973,1.1893293857574463,0.0,-0.005479465704411268,0.679618239402771,-6.242781819310039e-05,0.009279961697757244
262.0,303.0,4.2365,-2.7416,8.5663,-0.0403,0.0185,-0.1239,-1.6757365665831507,0.0,2.642643928527832,-1.493211030960083,-1.5597517106558968e-14,2.1999454498291016,4.175186796779297,0.0,0.2815326452255249,-1.6248329321490687,0.0,0.0028281230479478836,1.1893131732940674,0.0,-0.003226218279451132,0.6796668767929077,-5.837826392962597e-05,-0.014195205643773079
262.0,303.0,4.2365,-2.7416,8.5663,-0.0403,0.0185,-0.1239,-1.6757122478880824,0.0,2.6593375205993652,-1.4932917356491089,-2.807497734709585e-18,2.1924428939819336,4.175178690547607,0.0,0.28703105449676514,-1.6248133818255823,0.0,0.009235209785401821,1.1893253326416016,0.0,-0.008516190573573112,0.6796467304229736,-5.4822176025481895e-05,-0.018836908042430878
262.0,303.0,4.2365,-2.7416,8.5663,-0.0403,0.0185,-0.1239,-1.6757203541197718,0.0,2.633390426635742,-1.4932477474212646,-5.053396510715702e-22,2.1878104209899902,4.175214930171631,0.0,0.2844051718711853,-1.6247809568988245,0.0,0.00581877026706934,1.1892855167388916,0.0,-0.007224663160741329,0.6796503663063049,-5.167452400201e-05,-0.004388441331684589
262.0,303.0,4.2365,-2.7416,8.5663,-0.0403,0.0185,-0.1239,-1.6757284603514613,0.0,2.64947772026062,-1.4932637214660645,-1.2203359462363257e-27,2.205152750015259,4.175194426173828,0.0,0.28067803382873535,-1.6248214880572718,0.0,0.007336285896599293,1.189257264137268,0.0,0.0023429072462022305,0.6796467304229736,-4.75768611067906e-05,-0.03872434049844742
262.0,303.0,4.2365,-2.7416,8.5663,-0.0403,0.0185,-0.1239,-1.675765176812643,0.0,2.6624062061309814,-1.4932312965393066,-2.196561187590609e-31,2.207030773162842,4.175238772029541,0.0,0.29041600227355957,-1.6248248259173792,0.0,0.004653860814869404,1.1893093585968018,0.0,0.00319866300560534,0.679634690284729,-4.518808054854162e-05,0.0725325345993042
262.0,303.0,4.2365,-2.7416,8.5663,-0.0403,0.0185,-0.1239,-1.675732751885885,0.0,2.622765302658081,-1.4933195114135742,-3.95373220110194e-35,2.2237467765808105,4.175165815944336,0.00027409070753492415,0.28006938099861145,-1.6248534361468714,0.0,0.014440435916185379,1.1892653703689575,0.0,-0.01203787513077259,0.6796627044677734,-4.3027655920013785e-05,0.009448438882827759
262.0,303.0,4.2365,-2.7416,8.5663,-0.0403,0.0185,-0.1239,-1.6757127247252406,0.0,2.6329822540283203,-1.493219256401062,-9.547747086677141e-41,2.2084128856658936,4.175238295192383,0.00042612405377440155,0.2791232168674469,-1.6248496214496058,0.0,-0.00399708142504096,1.189305305480957,0.0,-0.018126435577869415,0.6796872615814209,-4.014851219835691e-05,-0.04260899871587753
262.0,303.0,4.2365,-2.7416,8.5663,-0.0403,0.0185,-0.1239,-1.6756802997984828,0.0,2.619955062866211,-1.493299961090088,-1.6815581571897805e-44,2.205929756164551,4.175198717708252,0.0003342422714922577,0.2811797559261322,-1.624829117451803,0.0,-0.004141930025070906,1.1892614364624023,0.0,0.005982385948300362,0.6796305775642395,-3.8433998270193115e-05,-0.022861627861857414
262.0,303.0,4.2365,-2.7416,8.5663,-0.0403,0.0185,-0.1239,-1.6756683788695277,0.0013936662580817938,2.6568078994750977,-1.4932796955108643,0.0006792500498704612,2.181558609008789,4.175246401424072,0.0003479970037005842,0.2749708294868469,-1.6248615423785608,0.0,0.01449564378708601,1.189265489578247,0.0,-0.007030554581433535,0.6796467304229736,-3.6859903048025444e-05,0.04011360555887222
262.0,303.0,4.2365,-2.7416,8.5663,-0.0403,0.0185,-0.1239,-1.6756402454771937,0.00228631473146379,2.690763235092163,-1.4932756423950195,0.0006237697089090943,2.1766958236694336,4.175218268031738,0.0002874254423659295,0.28170740604400635,-1.6248248259173792,0.0,0.003133642952889204,1.1892811059951782,0.0,0.006643587723374367,0.6796627640724182,-3.540966645232402e-05,-0.03281627222895622
262.0,303.0,4.2365,-2.7416,8.5663,-0.0403,0.0185,-0.1239,-1.6756440601744593,0.002829220611602068,2.670358180999756,-1.4932440519332886,0.0005938386893831193,2.1970715522766113,4.175226374263428,0.0002877715160138905,0.2831538915634155,-1.6248534361468714,0.0,0.004214989487081766,1.1892814636230469,0.0,-0.010064372792840004,0.6795904040336609,-3.343640855746344e-05,-0.01958918571472168
262.0,303.0,4.2365,-2.7416,8.5663,-0.0403,0.0185,-0.1239,-1.675612588922018,0.002362309955060482,2.6737117767333984,-1.4932481050491333,0.0005384247051551938,2.2170650959014893,4.175274057979248,0.00019191841420251876,0.2833545506000519,-1.6248205343829554,0.0,0.004463111516088247,1.189293384552002,0.0,-0.003954538609832525,0.6796466708183289,-3.2238687708741054e-05,-0.029204275459051132
262.0,303.0,4.2365,-2.7416,8.5663,-0.0403,0.0185,-0.1239,-1.6755925617613734,0.001748203532770276,2.696530818939209,-1.4932481050491333,0.0004351225506979972,2.1568586826324463,4.175230188960693,0.0001646743039600551,0.27537375688552856,-1.624857250844137,0.0,-0.013178499415516853,1.1892814636230469,0.0,-0.02018795534968376,0.6796549558639526,-3.112384001724422e-05,0.0263180173933506
262.0,303.0,4.2365,-2.7416,8.5663,-0.0403,0.0185,-0.1239,-1.67564119915151,0.001128475065343082,2.624180316925049,-1.4932037591934204,0.0003004722238983959,2.1689536571502686,4.175318403834961,0.0001467489346396178,0.2685033679008484,-1.6248214880572718,0.0,0.002946816850453615,1.189309000968933,0.0,0.0005752227734774351,0.6796145439147949,-3.008350722666364e-05,0.02992868423461914
262.0,303.0,4.2365,-2.7416,8.5663,-0.0403,0.0185,-0.1239,-1.675624509850973,0.0001351952669210732,2.6328015327453613,-1.4932641983032227,0.00023462808167096227,2.2083773612976074,4.17519919454541,0.0001261699799215421,0.28182685375213623,-1.6248415152179163,0.0,0.008219713345170021,1.1893174648284912,0.0,-0.010249876417219639,0.6796790957450867,-2.8647178623941727e-05,0.013218092732131481
272.0,314.0,3.5312,-2.5723,7.8556,-0.0064,0.0599,-0.1281,-1.675652643243307,0.0001026936006383039,2.657275676727295,-1.4932842254638672,0.00013178099470678717,2.1768381595611572,4.175186319942139,-9.953861444955692e-05,0.2827565670013428,-1.6247847715960901,0.0,-0.004278142936527729,1.1892613172531128,0.0,-0.0005819055950269103,0.6796548962593079,-2.7763469915953465e-05,0.0029638707637786865
272.0,314.0,3.5312,-2.5723,7.8556,-0.0064,0.0599,-0.1281,-1.675612588922018,8.360415085917339e-05,2.6307220458984375,-1.4932398796081543,7.642746641067788e-05,2.1518521308898926,4.175203009242676,-0.0003241616068407893,0.2800613045692444,-1.6247966925250452,0.0,-0.004139113239943981,1.1892772912979126,0.0,-0.007726594340056181,0.679682731628418,-2.69326483248733e-05,-0.027199752628803253
272.0,314.0,3.5312,-2.5723,7.8556,-0.0064,0.0599,-0.1281,-1.6756044826903285,6.53785391477868e-05,2.65635347366333,-1.4932637214660645,6.090233728173189e-05,2.1948094367980957,4.175186796779297,-5.100323505757842e-07,0.27882641553878784,-1.6248415152179163,0.0,0.011944189667701721,1.1892528533935547,0.0,-0.007680824957787991,0.6796832084655762,-2.5775665562832728e-05,-0.009881574660539627
272.0,314.0,3.5312,-2.5723,7.8556,-0.0064,0.0599,-0.1281,-1.6756006679930628,0.00011406822159187868,2.672483444213867,-1.493219256401062,3.167286521943424e-08,2.200194835662842,4.175166769618652,-2.174347812911037e-09,0.2795192003250122,-1.624829117451803,0.0,-0.0016083390219137073,1.1893014907836914,0.0,0.0062588355503976345,0.6796385049819946,-2.5058016035472974e-05,-0.03831800818443298
272.0,314.0,3.5312,-2.5723,7.8556,-0.0064,0.0599,-0.1281,-1.675608297387594,0.000151249289046973,2.704882860183716,-1.4932518005371094,5.701003905067559e-12,2.171536684036255,4.175238295192383,-9.26958509950282e-12,0.280610591173172,-1.6248090902911585,0.0,0.005047982092946768,1.1892974376678467,0.0,0.00018226588144898415,0.6796305775642395,-2.5794162866077386e-05,-0.0297604538500309
272.0,314.0,3.5312,-2.5723,7.8556,-0.0064,0.0599,-0.1281,-1.67558016399526,0.00018189992988482118,2.637439012527466,-1.4932316541671753,1.0261605103243244e-15,2.1902997493743896,4.175230188960693,-3.9517691961636625e-14,0.2817732095718384,-1.6247966925250452,0.0,-0.0020078816451132298,1.189305305480957,0.0,0.0033453661017119884,0.6796668767929077,-2.3736534785712138e-05,0.018497547134757042
272.0,314.0,3.5312,-2.5723,7.8556,-0.0064,0.0599,-0.1281,-1.6756049595274867,0.00023548236640635878,2.6330156326293945,-1.4932641983032227,0.001615061890333891,2.226520538330078,4.1752587991901855,-1.0999894935025078e-17,0.2877674698829651,-1.6247928778277796,0.0,0.0027335945051163435,1.1892855167388916,0.0,0.0008310338016599417,0.6796544790267944,-2.2833013645140454e-05,-0.03173357993364334
272.0,314.0,3.5312,-2.5723,7.8556,-0.0064,0.0599,-0.1281,-1.6755324802794398,0.0016040102345868945,2.6736867427825928,-1.493175745010376,0.002178679686039686,2.156430721282959,4.175250216121338,-4.6894277717611893e-20,0.2869883179664612,-1.6247928778277796,0.0,0.013812257908284664,1.1892979145050049,0.0,-0.008231262676417828,0.6796872615814209,-2.226807009719778e-05,-0.023274319246411324
272.0,314.0,3.5312,-2.5723,7.8556,-0.0064,0.0599,-0.1281,-1.6755925617613734,0.0023721912875771523,2.6662063598632812,-1.49323570728302,0.0019405324710533023,2.1610403060913086,4.175191088313721,-1.9991764919637392e-22,0.2674887180328369,-1.6248329321490687,0.0,-0.0026913126930594444,1.1893459558486938,0.0,-0.011432106606662273,0.6796347498893738,-2.173042594222352e-05,0.010687808506190777
272.0,314.0,3.5312,-2.5723,7.8556,-0.0064,0.0599,-0.1281,-1.6755567989745082,0.0015755615895614028,2.6301865577697754,-1.493192195892334,0.0010560867376625538,2.2202658653259277,4.1751953798481445,-5.564780748717315e-26,0.2823440134525299,-1.6247928778277796,0.0,0.004966059699654579,1.1893212795257568,0.0,-0.012628475204110146,0.6795982718467712,-2.0970917830709368e-05,0.006227999925613403
272.0,314.0,3.5312,-2.5723,7.8556,-0.0064,0.0599,-0.1281,-1.675629278222555,0.0009958472801372409,2.673743486404419,-1.4932119846343994,0.0004633772186934948,2.163299798965454,4.175187273616455,-2.3723535240001487e-28,0.2937103509902954,-1.6248133818255823,0.0,0.008989968337118626,1.1893093585968018,0.0,0.007981091737747192,0.6796063780784607,-2.0493409465416335e-05,-0.014685177244246006
272.0,314.0,3.5312,-2.5723,7.8556,-0.0064,0.0599,-0.1281,-1.6755687199034632,0.0005275728181004524,2.6095709800720215,-1.4932119846343994,0.00021806296717841178,2.210787773132324,4.175234003657959,-1.0113713593627394e-30,0.27189579606056213,-1.6248248259173792,0.0,0.007781043648719788,1.1892974376678467,0.0,0.002885391004383564,0.6796586513519287,-2.991982182720676e-05,0.041456617414951324
272.0,314.0,3.5312,-2.5723,7.8556,-0.0064,0.0599,-0.1281,-1.6756369076170863,0.0002981026773341,2.616234302520752,-1.4932153224945068,0.000175490538822487,2.2037172317504883,4.175250216121338,-4.311634667631439e-33,0.2886471450328827,-1.6248372236834925,0.0,-0.00021963566541671753,1.1892732381820679,0.0,-0.006689115427434444,0.679602324962616,-1.3606999971216283e-07,-0.005238033831119537
272.0,314.0,3.5312,-2.5723,7.8556,-0.0064,0.0599,-0.1281,-1.6756087742247523,-0.00025334482779726386,2.6170897483825684,-1.4932481050491333,6.822557770647109e-05,2.1486170291900635,4.175230188960693,-1.2001594458719472e-36,0.2684459686279297,-1.6247885862933558,0.0,0.0074744271114468575,1.1892287731170654,0.0,-0.007751380559056997,0.6796269416809082,-3.285930826480571e-13,-0.0005075382068753242
272.0,314.0,3.5312,-2.5723,7.8556,-0.0064,0.0599,-0.1281,-1.675668855706686,-0.0003512598341330886,2.6540369987487793,-1.4933042526245117,1.2280362504668574e-08,2.1761016845703125,4.175203009242676,-5.116467195792095e-39,0.271542489528656,-1.6248052755938929,0.0,0.01997065171599388,1.1892613172531128,0.0,-0.005333465524017811,0.6796872615814209,-5.854319533682428e-05,0.014026321470737457
272.0,314.0,3.5312,-2.5723,7.8556,-0.0064,0.0599,-0.1281,-1.6756288013853968,-0.0009322091354988515,2.619910955429077,-1.493271827697754,2.210421515963512e-12,2.226724863052368,4.175142927760742,-2.1812611895680103e-41,0.2865239977836609,-1.624772850667135,0.0,-0.005985765717923641,1.189321517944336,0.0,-0.003684811294078827,0.6796227693557739,-6.889167707413435e-05,0.025147849693894386
272.0,314.0,3.5312,-2.5723,7.8556,-0.0064,0.0599,-0.1281,-1.675612588922018,-0.0010476477909833193,2.667952537536621,-1.4932119846343994,-0.00036083647864870727,2.1648645401000977,4.175182505244873,-5.605193857299268e-45,0.2917613983154297,-1.6247647444354456,0.0,0.005848567001521587,1.18924880027771,0.0,-0.006584370508790016,0.6796028017997742,-8.860133675625548e-05,0.000543743371963501
272.0,314.0,3.5312,-2.5723,7.8556,-0.0064,0.0599,-0.1281,-1.6756888828673304,-0.0011535794474184513,2.6671364307403564,-1.493227481842041,-0.00013415281136985868,2.204990863800049,4.175230188960693,-0.0,0.26992183923721313,-1.624857250844137,0.0,0.003961571492254734,1.189257025718689,0.0,0.005611911416053772,0.679578423500061,-0.0006782361888326705,-0.01695505529642105
272.0,314.0,3.5312,-2.5723,7.8556,-0.0064,0.0599,-0.1281,-1.6756802997984828,-0.00154607102740556,2.610568046569824,-1.4932562112808228,-1.5453963442269014e-06,2.2460787296295166,4.175162954921387,-0.0,0.2813745141029358,-1.6248214880572718,0.0,0.002066347748041153,1.1892614364624023,0.0,-0.007922103628516197,0.6796429753303528,-0.0006298551452346146,-0.007897691801190376
272.0,314.0,3.5312,-2.5723,7.8556,-0.0064,0.0599,-0.1281,-1.6756602726378382,-0.0018578844610601664,2.6279189586639404,-1.4931995868682861,-2.781658792194719e-10,2.1648271083831787,4.175174875850342,-0.0,0.28211212158203125,-1.624772850667135,0.0,0.007401125505566597,1.1892814636230469,0.0,-0.00293706520460546,0.6796470284461975,-0.0005275394069030881,-0.029258843511343002
266.0,301.0,4.0343,-2.607,8.0746,0.0055,0.0263,-0.1217,-1.6756845913329066,-0.0017233829712495208,2.6160995960235596,-1.4932119846343994,-6.717379965123652e-16,2.2178425788879395,4.175206347102783,-5.2812076319241896e-05,0.27942901849746704,-1.6248176733600062,0.0,0.006056187208741903,1.1892205476760864,0.0,-0.0016461509512737393,0.6796351671218872,-0.0004809641104657203,-0.04368305578827858
266.0,301.0,4.0343,-2.607,8.0746,0.0055,0.0263,-0.1217,-1.6756721935667933,-0.0013917728792876005,2.629741907119751,-1.493264079093933,-1.209104506276451e-19,2.1956472396850586,4.175206823939941,-7.462327630491927e-05,0.287977397441864,-1.6247523466693323,0.0,0.015248043462634087,1.1893258094787598,0.0,-0.011886154301464558,0.6796429753303528,-0.0004249444173183292,-0.016203103587031364
266.0,301.0,4.0343,-2.607,8.0746,0.0055,0.0263,-0.1217,-1.6756679020323695,-0.001104324939660728,2.642167329788208,-1.4932398796081543,-2.1763454373810054e-23,2.1808314323425293,4.175206823939941,-7.091173756634817e-05,0.2712886333465576,-1.6247571150409144,0.0,0.0047280387952923775,1.1893376111984253,0.0,-0.0013966441620141268,0.6795904040336609,-0.0003800738777499646,-0.01955522783100605
266.0,301.0,4.0343,-2.607,8.0746,0.0055,0.0263,-0.1217,-1.675631662408346,-0.0008449491579085588,2.5887341499328613,-1.493255853652954,-3.9173449735575376e-27,2.199190855026245,4.175211115474365,-6.737346120644361e-05,0.2629677653312683,-1.624789063130514,0.0,0.0071849459782242775,1.1892695426940918,0.0,-0.020206689834594727,0.6795986890792847,-0.00034377590054646134,-0.038447603583335876
266.0,301.0,4.0343,-2.607,8.0746,0.0055,0.0263,-0.1217,-1.6756521664061488,-0.0005468814051710069,2.6208431720733643,-1.493280053138733,-9.459928174144611e-33,2.1548376083374023,4.175206823939941,-6.268100696615875e-05,0.2705407738685608,-1.6247809568988245,0.0,-0.00486620282754302,1.1892974376678467,0.0,-0.003612140193581581,0.6796310544013977,-0.0003007001359947026,-0.0679701566696167
266.0,301.0,4.0343,-2.607,8.0746,0.0055,0.0263,-0.1217,-1.675692697564596,-0.00046585919335484505,2.6349101066589355,-1.4932037591934204,-1.7027536820833228e-36,2.218405246734619,4.175214453334473,-5.989973942632787e-05,0.28251853585243225,-1.6248329321490687,0.0,0.01199018768966198,1.1892774105072021,0.0,-0.01564737781882286,0.6796227693557739,-0.0002442364057060331,0.018053624778985977
266.0,301.0,4.0343,-2.607,8.0746,0.0055,0.0263,-0.1217,-1.675664564172262,-9.100390161620453e-05,2.6443371772766113,-1.4932036399841309,0.00020062642579432577,2.191391706466675,4.175218268031738,-5.7354813179699704e-05,0.2544373571872711,-1.624841038380758,0.0,-0.007079468108713627,1.189345359802246,0.0,-0.004764175973832607,0.679634690284729,-0.00022544866078533232,-0.030175410211086273
266.0,301.0,4.0343,-2.607,8.0746,0.0055,0.0263,-0.1217,-1.6756559811034144,-9.428468672467716e-08,2.6342546939849854,-1.4932481050491333,0.00027751343441195786,2.1996657848358154,4.175198717708252,-3.714313425007276e-05,0.2658618092536926,-1.6247966925250452,0.0,0.00869379285722971,1.1893174648284912,0.0,-0.004463843069970608,0.6796145439147949,-7.18902811058797e-05,-0.013516178354620934
266.0,301.0,4.0343,-2.607,8.0746,0.0055,0.0263,-0.1217,-1.6756359539427699,-1.697090905306009e-11,2.634652853012085,-1.4931756258010864,0.0009008763590827584,2.180241584777832,4.175226374263428,-3.457029743003659e-05,0.2819454073905945,-1.624800984059469,0.0,0.010233890265226364,1.18930983543396,0.0,-0.002007816918194294,0.6796227693557739,-6.655080505879596e-05,-0.014135635457932949
266.0,301.0,4.0343,-2.607,8.0746,0.0055,0.0263,-0.1217,-1.675624509850973,-3.054704257352361e-15,2.602250576019287,-1.4931963682174683,0.0015468854689970613,2.2049429416656494,4.175210638637207,-1.6929005141719244e-05,0.26885026693344116,-1.6248090902911585,0.0,0.007483519613742828,1.1891889572143555,0.0,0.0017170540522783995,0.6796388030052185,-3.100162939517759e-05,-0.03816280886530876
266.0,301.0,4.0343,-2.607,8.0746,0.0055,0.0263,-0.1217,-1.6756559811034144,-5.498358970543707e-19,2.6144890785217285,-1.4931317567825317,0.003031497821211815,2.2104039192199707,4.175222559566162,-1.0681793582989485e-06,0.27157846093177795,-1.624800984059469,0.0,0.012533679604530334,1.1892693042755127,0.0,0.0026981490664184093,0.6796672940254211,-1.170896894109319e-06,-0.009807063266634941
266.0,301.0,4.0343,-2.607,8.0746,0.0055,0.0263,-0.1217,-1.6756440601744593,-1.3277890806007266e-24,2.601330041885376,-1.4931519031524658,0.00570410443469882,2.1918599605560303,4.175218268031738,-2.9733160378242474e-10,0.28129062056541443,-1.6248090902911585,0.0,0.005705167539417744,1.1892614364624023,0.0,-0.0007031703134998679,0.6796305775642395,-2.827578015479615e-12,-0.035361018031835556
266.0,301.0,4.0343,-2.607,8.0746,0.0055,0.0263,-0.1217,-1.6756683788695277,-2.3899733755788614e-28,2.6615424156188965,-1.4931119680404663,0.006467984989285469,2.22102689743042,4.175254507655762,-1.2675713343540673e-12,0.2808881998062134,-1.6248095671283167,0.0,0.0009843463776633143,1.1893298625946045,0.0,0.0006868368363939226,0.67962646484375,-5.089540400387313e-16,-0.04679330810904503
266.0,301.0,4.0343,-2.607,8.0746,0.0055,0.0263,-0.1217,-1.675692697564596,-4.301867338133663e-32,2.6705403327941895,-1.4930353164672852,0.008209380321204662,2.2136991024017334,4.175254507655762,-5.4038563276632545e-15,0.25542667508125305,-1.6247971693622034,0.0,0.0010277465917170048,1.1892735958099365,0.0,-0.00420048413798213,0.6796467304229736,-9.160994264751811e-20,-0.017917679622769356
266.0,301.0,4.0343,-2.607,8.0746,0.0055,0.0263,-0.1217,-1.6756483517088832,-1.0388503744496602e-37,2.608755588531494,-1.4930243492126465,0.011157537810504436,2.1929426193237305,4.175258322353027,-1.5041830693794498e-18,0.27133819460868835,-1.6248176733600062,0.0,0.009901714511215687,1.1892735958099365,0.0,0.0008959643309935927,0.6796708106994629,-2.212272401397589e-25,-0.07457059621810913
266.0,301.0,4.0343,-2.607,8.0746,0.0055,0.0263,-0.1217,-1.6756521664061488,0.0001353723491774872,2.5626120567321777,-1.4929234981536865,0.01294718962162733,2.19541335105896,4.175306482906006,-6.4125678531106785e-21,0.28919804096221924,-1.624845329915182,0.0,0.011378114111721516,1.1892735958099365,0.0,-0.0005628550425171852,0.6796992421150208,0.0007071567233651876,-0.061737753450870514
266.0,301.0,4.0343,-2.607,8.0746,0.0055,0.0263,-0.1217,-1.6756679020323695,5.4898053349461406e-05,2.6115236282348633,-1.4928803443908691,0.015368091873824596,2.2205326557159424,4.175278349513672,0.00034035462886095047,0.28563976287841797,-1.624829117451803,0.0,0.014988616108894348,1.1893694400787354,0.0,-0.012266180478036404,0.6796385049819946,0.0008036863873712718,-0.008021564222872257
266.0,301.0,4.0343,-2.607,8.0746,0.0055,0.0263,-0.1217,-1.6756721935667933,6.251394779610564e-07,2.6030030250549316,-1.4928120374679565,0.017194388434290886,2.226839065551758,4.1752306657978515,0.0003698538930620998,0.2853432297706604,-1.6248653570758265,0.0,0.0037667942233383656,1.1892410516738892,0.0,0.00820220448076725,0.6796786189079285,0.001479143276810646,-0.019828954711556435
266.0,301.0,4.0343,-2.607,8.0746,0.0055,0.0263,-0.1217,-1.6756884060301722,1.5096382260590402e-12,2.620605230331421,-1.4927239418029785,0.018680492416024208,2.2303075790405273,4.175310297603271,0.0003098520392086357,0.28989851474761963,-1.6248090902911585,0.0,0.013597451150417328,1.189293384552002,0.0,-0.014056291431188583,0.6797266602516174,0.00247918046079576,-0.014392804354429245
266.0,301.0,4.0343,-2.607,8.0746,0.0055,0.0263,-0.1217,-1.6757570705809535,-0.0015080241719260812,2.618917942047119,-1.49263596534729,0.01975741982460022,2.2851250171661377,4.175270243281982,0.0002779433270916343,0.27693402767181396,-1.624845329915182,0.0,0.018067441880702972,1.1893093585968018,0.0,0.008453017100691795,0.6797469258308411,0.0036374980118125677,0.010912444442510605
278.0,303.0,3.5605,-2.9904,8.2528,-0.0095,0.0392,-0.1051,-1.675748964349264,-0.0021816061343997717,2.6585710048675537,-1.4925121068954468,0.0195265281945467,2.187321186065674,4.175250216121338,0.0002519943518564105,0.281328022480011,-1.6248653570758265,0.0,0.0029957154765725136,1.189265489578247,0.0,-0.005782152526080608,0.6797789335250854,0.004423615988343954,-0.04539930447936058
278.0,303.0,3.5605,-2.9904,8.2528,-0.0095,0.0392,-0.1051,-1.6757728062071742,-0.003236290765926242,2.6105194091796875,-1.492459774017334,0.02038022130727768,2.1946051120758057,4.175286455745361,0.0002304786175955087,0.2934380769729614,-1.6248615423785608,0.0,0.0017128873150795698,1.1893372535705566,0.0,0.0002448062878102064,0.6798350811004639,0.0059939175844192505,-0.0009727985598146915
278.0,303.0,3.5605,-2.9904,8.2528,-0.0095,0.0392,-0.1051,-1.6757761440672816,-0.004416536074131727,2.6299374103546143,-1.4923241138458252,0.022529762238264084,2.257521629333496,4.175294561977051,0.00020431265875231475,0.2887815237045288,-1.624841038380758,0.0,0.011988993734121323,1.1893253326416016,0.0,-0.006443354766815901,0.6798509359359741,0.009480305016040802,0.05556633323431015
278.0,303.0,3.5605,-2.9904,8.2528,-0.0095,0.0392,-0.1051,-1.6758367023863734,-0.006066462025046349,2.6011548042297363,-1.492200255393982,0.023864461109042168,2.2191967964172363,4.1752659517475585,0.0002173938846681267,0.28228893876075745,-1.6248491446124476,0.0,0.0023574663791805506,1.1893055438995361,0.0,-0.008832067251205444,0.6799390912055969,0.013038652017712593,0.029277436435222626
278.0,303.0,3.5605,-2.9904,8.2528,-0.0095,0.0392,-0.1051,-1.6758886776366175,-0.006769940257072449,2.6774418354034424,-1.4921003580093384,0.025094978511333466,2.2037570476531982,4.1752821642109375,0.00022151046141516417,0.28195977210998535,-1.6248605887042444,0.0,0.001132095931097865,1.1893014907836914,0.0,-0.008507899008691311,0.6800313591957092,0.016888264566659927,0.002177300862967968
278.0,303.0,3.5605,-2.9904,8.2528,-0.0095,0.0392,-0.1051,-1.6759282551207484,-0.009060860611498356,2.636890411376953,-1.4918720722198486,0.02901698276400566,2.2751588821411133,4.175346060390137,0.0002748527913354337,0.28686442971229553,-1.6249011198626917,0.0,0.005607076920568943,1.1893012523651123,0.0,0.0017545348964631557,0.6801312565803528,0.023613762110471725,0.01569632813334465
278.0,303.0,3.5605,-2.9904,8.2528,-0.0095,0.0392,-0.1051,-1.6759959659972132,-0.010749941691756248,2.6427667140960693,-1.4918038845062256,0.03321254625916481,2.2693872451782227,4.175354166621826,0.0015626195818185806,0.2807825207710266,-1.6248729864703577,0.0,0.013104825280606747,1.1892974376678467,0.0,-0.017430242151021957,0.6802311539649963,0.028937164694070816,0.01832437328994274
278.0,303.0,3.5605,-2.9904,8.2528,-0.0095,0.0392,-0.1051,-1.6760522327818812,-0.012063687667250633,2.606936454772949,-1.4915876388549805,0.03791411593556404,2.224721908569336,4.1753222185322265,0.001921653631143272,0.2871476709842682,-1.6248930136310022,0.0,0.0004856059094890952,1.1893012523651123,0.0,0.004104487597942352,0.680415689945221,0.033188916742801666,0.07269797474145889
278.0,303.0,3.5605,-2.9904,8.2528,-0.0095,0.0392,-0.1051,-1.6761323414244593,-0.014001915231347084,2.612967014312744,-1.4915200471878052,0.042207080870866776,2.2487716674804688,4.175326033229492,0.001642850344069302,0.2916010320186615,-1.6248772780047815,0.0,0.0029135560616850853,1.1892695426940918,0.0,0.004201994743198156,0.6805641055107117,0.039839018136262894,-0.0147619117051363
278.0,303.0,3.5605,-2.9904,8.2528,-0.0095,0.0392,-0.1051,-1.6762439213194789,-0.016009915620088577,2.63010835647583,-1.4912322759628296,0.04680914804339409,2.299576759338379,4.175334139461182,0.0010307100601494312,0.2868892550468445,-1.624857250844137,0.0,0.011056413874030113,1.1892937421798706,0.0,0.002677635755389929,0.6807882189750671,0.043742530047893524,0.006833417806774378
278.0,303.0,3.5605,-2.9904,8.2528,-0.0095,0.0392,-0.1051,-1.6763040028014125,-0.017300665378570557,2.599092960357666,-1.4910486936569214,0.049183834344148636,2.2665908336639404,4.175337954158447,0.000776945089455694,0.29498961567878723,-1.6248930136310022,0.0,-0.003596849739551544,1.1892614364624023,0.0,-0.013043036684393883,0.6810007095336914,0.04828101769089699,0.07935217022895813
278.0,303.0,3.5605,-2.9904,8.2528,-0.0095,0.0392,-0.1051,-1.67639221767568,-0.01935582607984543,2.628725528717041,-1.4908199310302734,0.049670834094285965,2.243988275527954,4.175366087550781,0.0006229999125935137,0.29146552085876465,-1.6248610655414026,0.0,0.007526763249188662,1.189265489578247,0.0,0.012001093477010727,0.6811483502388,0.047695692628622055,0.019658178091049194
278.0,303.0,3.5605,-2.9904,8.2528,-0.0095,0.0392,-0.1051,-1.6765357456602992,-0.02298498898744583,2.5887250900268555,-1.4905813932418823,0.04770849272608757,2.2891125679016113,4.175314112300537,0.00048034125939011574,0.2997105121612549,-1.6248043219195765,0.0,-0.006938408128917217,1.1893012523651123,0.0,-0.004251925740391016,0.6814687848091125,0.04620783403515816,0.06163947284221649
278.0,303.0,3.5605,-2.9904,8.2528,-0.0095,0.0392,-0.1051,-1.676675935784811,-0.024753190577030182,2.6317381858825684,-1.4903689622879028,0.045397814363241196,2.238924741744995,4.175306482906006,0.0004167466831859201,0.28125694394111633,-1.6248448530780237,0.0,-0.0020705130882561207,1.1893174648284912,0.0,-0.00812574289739132,0.6815887093544006,0.04432251304388046,0.02454572170972824
278.0,303.0,3.5605,-2.9904,8.2528,-0.0095,0.0392,-0.1051,-1.6767269573607386,-0.02623913064599037,2.6636433601379395,-1.4901763200759888,0.04146809130907059,2.2253880500793457,4.175353689784668,0.0003625173703767359,0.2968454658985138,-1.6248448530780237,0.0,0.0032115322537720203,1.189293384552002,0.0,-0.021112799644470215,0.6817927360534668,0.041985105723142624,0.039779916405677795
278.0,303.0,3.5605,-2.9904,8.2528,-0.0095,0.0392,-0.1051,-1.6768752537169398,-0.026378899812698364,2.618732452392578,-1.490004539489746,0.03755944222211838,2.232459545135498,4.175398035640381,0.0002667427179403603,0.27942338585853577,-1.6248610655414026,0.0,0.0034931025002151728,1.1892693042755127,0.0,0.0004969283472746611,0.6819290518760681,0.03930549696087837,0.004196810070425272
278.0,303.0,3.5605,-2.9904,8.2528,-0.0095,0.0392,-0.1051,-1.6769753895201625,-0.02524919994175434,2.6457271575927734,-1.489809513092041,0.033336494117975235,2.2132508754730225,4.175394697780273,0.000691436231136322,0.2918054163455963,-1.6248534361468714,0.0,0.0030610261019319296,1.1893212795257568,0.0,-0.005369793623685837,0.6821329593658447,0.036966148763895035,0.03386520594358444
278.0,303.0,3.5605,-2.9904,8.2528,-0.0095,0.0392,-0.1051,-1.6770874462523402,-0.02438097447156906,2.5680480003356934,-1.4897339344024658,0.028897328302264214,2.2357518672943115,4.175401850337646,0.0027083244640380144,0.29176440834999084,-1.6248534361468714,0.0,0.0013286285102367401,1.1893372535705566,0.0,-0.020061731338500977,0.6822891235351562,0.03422721475362778,0.08783768862485886
278.0,303.0,3.5605,-2.9904,8.2528,-0.0095,0.0392,-0.1051,-1.6771875820555628,-0.02347664348781109,2.5905377864837646,-1.4895970821380615,0.026647454127669334,2.231334924697876,4.175421877498291,0.004019967280328274,0.29646849632263184,-1.6248653570758265,0.0,-0.010724247433245182,1.1892614364624023,0.0,-0.007675595115870237,0.682429313659668,0.033213380724191666,0.022863119840621948
278.0,303.0,3.5605,-2.9904,8.2528,-0.0095,0.0392,-0.1051,-1.6772624454894007,-0.02048485353589058,2.6792550086975098,-1.4894903898239136,0.0210517980158329,2.1974740028381348,4.175458117122314,0.004580850247293711,0.3059672713279724,-1.6248372236834925,0.0,-0.003950400743633509,1.1893091201782227,0.0,-0.009219362400472164,0.6825772523880005,0.03414177522063255,-0.020663248375058174
261.0,303.0,2.5926,-2.2744,8.522,-0.0386,0.0197,-0.0773,-1.6773787937560023,-0.020295744761824608,2.6331262588500977,-1.4894506931304932,0.01816030964255333,2.206770420074463,4.175449534053467,0.0051064882427453995,0.28212541341781616,-1.624829117451803,0.0,0.0016955301398411393,1.1893532276153564,0.0,-0.012693146243691444,0.6827656030654907,0.034896038472652435,0.03693776950240135
261.0,303.0,2.5926,-2.2744,8.522,-0.0386,0.0197,-0.0773,-1.6774951420226039,-0.020580703392624855,2.6197948455810547,-1.489342212677002,0.014982660301029682,2.2498247623443604,4.175477667445801,0.006823815871030092,0.2974175810813904,-1.6248090902911585,0.0,-0.002417507115751505,1.1892893314361572,0.0,-0.018584584817290306,0.6829258799552917,0.03596026450395584,0.014308360405266285
261.0,303.0,2.5926,-2.2744,8.522,-0.0386,0.0197,-0.0773,-1.6775428257384242,-0.022788019850850105,2.5948572158813477,-1.4893059730529785,0.012736964970827103,2.215914726257324,4.175477667445801,0.007535912096500397,0.2921196520328522,-1.6248286406146448,0.0,0.0050596632063388824,1.1893212795257568,0.0,0.007847539149224758,0.6830298900604248,0.03789626061916351,0.030230624601244926
261.0,303.0,2.5926,-2.2744,8.522,-0.0386,0.0197,-0.0773,-1.6776706180968226,-0.02291499823331833,2.6638917922973633,-1.489158034324646,0.009567715227603912,2.2005667686462402,4.175517244929932,0.005787283647805452,0.29464489221572876,-1.6247928778277796,0.0,0.002668039407581091,1.1893253326416016,0.0,-0.010670996271073818,0.6832704544067383,0.0409795418381691,0.010502761229872704
261.0,303.0,2.5926,-2.2744,8.522,-0.0386,0.0197,-0.0773,-1.6777383289732875,-0.02483844757080078,2.574852466583252,-1.4892096519470215,0.00681955274194479,2.1435444355010986,4.175537272090576,0.0039992136880755424,0.29712772369384766,-1.6247766653644007,0.0,0.003501680213958025,1.189265489578247,0.0,-0.006731067784130573,0.6834301948547363,0.04238481447100639,0.029333963990211487
261.0,303.0,2.5926,-2.2744,8.522,-0.0386,0.0197,-0.0773,-1.677866598168844,-0.026027558371424675,2.6087141036987305,-1.4891140460968018,0.004888978321105242,2.1809918880462646,4.175541563625,0.002586847171187401,0.28987470269203186,-1.6248052755938929,0.0,0.010791562497615814,1.1893694400787354,0.0,0.0031924506183713675,0.6835863590240479,0.0434202142059803,0.032724376767873764
261.0,303.0,2.5926,-2.2744,8.522,-0.0386,0.0197,-0.0773,-1.6779381237425746,-0.027149489149451256,2.622602939605713,-1.4891703128814697,0.0040224408730864525,2.209563732147217,4.175524874324463,0.001616118592210114,0.2920277416706085,-1.6248329321490687,0.0,-0.0030249878764152527,1.1893212795257568,0.0,-0.009717628359794617,0.6838110089302063,0.044255685061216354,0.04298293590545654
261.0,303.0,2.5926,-2.2744,8.522,-0.0386,0.0197,-0.0773,-1.6781465015807093,-0.030243543907999992,2.599270820617676,-1.489166021347046,0.0029396715108305216,2.2033581733703613,4.175569697017334,0.0010389412054792047,0.2922714650630951,-1.6247571150409144,0.0,0.009805209934711456,1.1893858909606934,0.0,-0.00580437108874321,0.6840513348579407,0.045695796608924866,0.07776590436697006
261.0,303.0,2.5926,-2.2744,8.522,-0.0386,0.0197,-0.0773,-1.67824186901235,-0.03295345976948738,2.5857343673706055,-1.489166021347046,0.002266051946207881,2.145448684692383,4.1755968767353515,0.0007809064700268209,0.3061687648296356,-1.6247571150409144,0.0,-0.00026726629585027695,1.1893572807312012,0.0,-0.006627066992223263,0.6843079328536987,0.046269066631793976,0.04478221386671066
261.0,303.0,2.5926,-2.2744,8.522,-0.0386,0.0197,-0.0773,-1.6783858738341273,-0.0355239138007164,2.6046862602233887,-1.489129900932312,0.0016730233328416944,2.243556499481201,4.175584955806396,0.0006255367188714445,0.28613847494125366,-1.6247528235064905,0.0,-0.006335015874356031,1.1893293857574463,0.0,-0.006345693953335285,0.6844843626022339,0.0474996380507946,0.04183987155556679
261.0,303.0,2.5926,-2.2744,8.522,-0.0386,0.0197,-0.0773,-1.6786333523192347,-0.038946483284235,2.602415084838867,-1.4890822172164917,0.0012287863064557314,2.21104097366333,4.175600691432617,0.00048184592742472887,0.28161385655403137,-1.624789063130514,0.0,0.00894064549356699,1.1893253326416016,0.0,-0.015189705416560173,0.6847151517868042,0.05124657601118088,0.02614685706794262
261.0,303.0,2.5926,-2.2744,8.522,-0.0386,0.0197,-0.0773,-1.678777357141012,-0.040859468281269073,2.5649471282958984,-1.4890978336334229,0.0018090627854689956,2.1848526000976562,4.175584955806396,0.00047647030442021787,0.3079727590084076,-1.624749008809225,0.0,0.010000195354223251,1.1893253326416016,0.0,7.792958058416843e-05,0.684968113899231,0.051985759288072586,0.07730001956224442
261.0,303.0,2.5926,-2.2744,8.522,-0.0386,0.0197,-0.0773,-1.6789771519102992,-0.04314253106713295,2.533167839050293,-1.4890739917755127,0.0028691194020211697,2.229696273803711,4.175636454219482,0.00035848497645929456,0.28727108240127563,-1.6247528235064905,0.0,0.004227751400321722,1.1893372535705566,0.0,-0.006897392217069864,0.6851881146430969,0.0570903941988945,0.08720624446868896
261.0,303.0,2.5926,-2.2744,8.522,-0.0386,0.0197,-0.0773,-1.6791049442686976,-0.04532507807016373,2.5829687118530273,-1.489029884338379,0.004189393948763609,2.1931748390197754,4.175576849574707,0.00042575885890983045,0.29746654629707336,-1.6248176733600062,0.0,0.009095550514757633,1.1893534660339355,0.0,-0.004847966134548187,0.6854242086410522,0.06032967194914818,0.03086993470788002
261.0,303.0,2.5926,-2.2744,8.522,-0.0386,0.0197,-0.0773,-1.6794210873045863,-0.04946624115109444,2.514904737472534,-1.489013910293579,0.006752179004251957,2.168330430984497,4.1755968767353515,0.001298252260312438,0.2925667464733124,-1.6247966925250452,0.0,0.018011821433901787,1.1892971992492676,0.0,0.001770634320564568,0.6858126521110535,0.06692668795585632,0.07984872162342072
261.0,303.0,2.5926,-2.2744,8.522,-0.0386,0.0197,-0.0773,-1.679636617700094,-0.05193708837032318,2.5098166465759277,-1.4890024662017822,0.007435348816215992,2.148963451385498,4.175609274501465,0.0014451293973252177,0.28229713439941406,-1.6248133818255823,0.0,0.005063547752797604,1.1893212795257568,0.0,-0.005844116676598787,0.6860971450805664,0.06918379664421082,0.08205728977918625
261.0,303.0,2.5926,-2.2744,8.522,-0.0386,0.0197,-0.0773,-1.6798764667906703,-0.057562027126550674,2.5513288974761963,-1.4889743328094482,0.00860312208533287,2.156242847442627,4.175593062038086,0.0014734718715772033,0.2872976064682007,-1.624789063130514,0.0,0.014049551449716091,1.1893610954284668,0.0,0.0038811517879366875,0.686365008354187,0.07069841772317886,0.01937779039144516
261.0,303.0,2.5926,-2.2744,8.522,-0.0386,0.0197,-0.0773,-1.6802402935423792,-0.06381212174892426,2.454041004180908,-1.4888616800308228,0.010039588436484337,2.1876790523529053,4.175649328822754,0.0012423538137227297,0.29603663086891174,-1.6247652212726038,0.0,0.007757685612887144,1.1893491744995117,0.0,0.0017640907317399979,0.6867895722389221,0.06877033412456512,0.06141222268342972
261.0,303.0,2.5926,-2.2744,8.522,-0.0386,0.0197,-0.0773,-1.680483957330221,-0.06762886792421341,2.4509716033935547,-1.4888501167297363,0.01172872819006443,2.165666103363037,4.175628824824951,0.0011564648011699319,0.29269087314605713,-1.6247847715960901,0.0,0.005593751557171345,1.189305305480957,0.0,-0.000376654090359807,0.6870819330215454,0.06659931689500809,0.11103963106870651
261.0,303.0,2.5926,-2.2744,8.522,-0.0386,0.0197,-0.0773,-1.6808520756163539,-0.07351526618003845,2.4408202171325684,-1.4888180494308472,0.013614227063953876,2.179795026779175,4.17564503728833,0.0012097684666514397,0.2897314429283142,-1.6247451941119593,0.0,-0.0021979277953505516,1.1893372535705566,0.0,0.0008159597055055201,0.6873863935470581,0.0634671300649643,0.06429075449705124
266.0,296.0,3.8297,-2.6758,7.8724,-0.078,-0.0342,-0.0576,-1.6810838184752406,-0.07893089950084686,2.4332985877990723,-1.4887501001358032,0.016018901020288467,2.185224771499634,4.175660772914551,0.0014199455035850406,0.28701627254486084,-1.6248372236834925,0.0,-0.007280594203621149,1.1893532276153564,0.0,-0.00862469244748354,0.6876264214515686,0.06127425283193588,0.06430253386497498
266.0,296.0,3.8297,-2.6758,7.8724,-0.078,-0.0342,-0.0576,-1.6816030941405238,-0.08258872479200363,2.489281177520752,-1.488661527633667,0.018325813114643097,2.185384750366211,4.175712748164795,0.001526148640550673,0.2902418375015259,-1.624800984059469,0.0,0.0010113704483956099,1.189293384552002,0.0,0.0005445084534585476,0.6879462003707886,0.05891586095094681,0.08602220565080643
266.0,296.0,3.8297,-2.6758,7.8724,-0.078,-0.0342,-0.0576,-1.6819702587523402,-0.0846496969461441,2.481349229812622,-1.4885703325271606,0.021462157368659973,2.1776108741760254,4.175704641933105,0.0015457436675205827,0.2884328067302704,-1.6248052755938929,0.0,0.0017425455152988434,1.1893733739852905,0.0,-0.0028222249820828438,0.6882067322731018,0.060420867055654526,0.013728554360568523
266.0,296.0,3.8297,-2.6758,7.8724,-0.078,-0.0342,-0.0576,-1.68229403118276,-0.08746953308582306,2.468761444091797,-1.488433837890625,0.023342495784163475,2.1940646171569824,4.175688906306885,0.001704453257843852,0.2897951602935791,-1.6248496214496058,0.0,0.007308317348361015,1.1893212795257568,0.0,-0.00034233788028359413,0.6884552240371704,0.062294136732816696,0.10782373696565628
266.0,296.0,3.8297,-2.6758,7.8724,-0.078,-0.0342,-0.0576,-1.6826855144896449,-0.09067817777395248,2.459150552749634,-1.4884226322174072,0.026932785287499428,2.153247356414795,4.1756531435200195,0.0016542354132980108,0.29182958602905273,-1.6247690359698694,0.0,0.013021053746342659,1.1892567873001099,0.0,-0.01823684200644493,0.6886305809020996,0.06463993340730667,0.038593050092458725
266.0,296.0,3.8297,-2.6758,7.8724,-0.078,-0.0342,-0.0576,-1.6832691631712855,-0.0992794781923294,2.4499824047088623,-1.4882745742797852,0.028035050258040428,2.1621663570404053,4.175696535701416,0.001123927067965269,0.27649635076522827,-1.6248295942889612,0.0,0.003267918946221471,1.189317226409912,0.0,-0.007918250747025013,0.6890758275985718,0.06679505854845047,0.07428751140832901
266.0,296.0,3.8297,-2.6758,7.8724,-0.078,-0.0342,-0.0576,-1.6836730442442835,-0.10477465391159058,2.4632909297943115,-1.4880702495574951,0.03039054200053215,2.1719422340393066,4.175656481380127,0.0007514882017858326,0.27886316180229187,-1.624841038380758,0.0,0.007713480852544308,1.1893454790115356,0.0,-0.009997088462114334,0.6893238425254822,0.06959162652492523,0.07723944634199142
266.0,296.0,3.8297,-2.6758,7.8724,-0.078,-0.0342,-0.0576,-1.684091707269186,-0.11115948855876923,2.417616128921509,-1.4879422187805176,0.032427139580249786,2.208460569381714,4.175664587611816,0.0006710232119075954,0.2860308587551117,-1.6248286406146448,0.0,0.007645067758858204,1.189297080039978,0.0,-0.0008615458500571549,0.6896405220031738,0.06815887987613678,0.07200397551059723
266.0,296.0,3.8297,-2.6758,7.8724,-0.078,-0.0342,-0.0576,-1.6847759685912074,-0.12110258638858795,2.382658004760742,-1.4877344369888306,0.03709311783313751,2.1900599002838135,4.175648851985596,0.0005722909118048847,0.2704910337924957,-1.6248133818255823,0.0,0.0005654006963595748,1.189297080039978,0.0,-0.004484623670578003,0.6899885535240173,0.06590153276920319,0.05716307833790779
266.0,296.0,3.8297,-2.6758,7.8724,-0.078,-0.0342,-0.0576,-1.6852394543089808,-0.1271410882472992,2.455930709838867,-1.4875903129577637,0.039927009493112564,2.203795909881592,4.17567698537793,0.0004927963018417358,0.25880634784698486,-1.624800984059469,0.0,0.00999532826244831,1.1893693208694458,0.0,-0.007260975427925587,0.6901962757110596,0.06516728550195694,0.09445247054100037
266.0,296.0,3.8297,-2.6758,7.8724,-0.078,-0.0342,-0.0576,-1.6857949695982875,-0.12851890921592712,2.457409381866455,-1.4874509572982788,0.04449215903878212,2.209157943725586,4.175680800075195,0.0005254423012956977,0.2820903956890106,-1.6248496214496058,0.0,0.01639740914106369,1.1893212795257568,0.0,-0.007273916155099869,0.6904523372650146,0.06250270456075668,0.07027317583560944
266.0,296.0,3.8297,-2.6758,7.8724,-0.078,-0.0342,-0.0576,-1.6862946949400843,-0.12841375172138214,2.4403185844421387,-1.4872426986694336,0.049034107476472855,2.233595848083496,4.175745173091553,0.0010717937257140875,0.27852219343185425,-1.6247604529010218,0.0,-0.009910905733704567,1.1893253326416016,0.0,-0.008189914748072624,0.690729022026062,0.06380541622638702,0.07190744578838348
266.0,296.0,3.8297,-2.6758,7.8724,-0.078,-0.0342,-0.0576,-1.6871496639647425,-0.12173939496278763,2.4225239753723145,-1.4868457317352295,0.0552755631506443,2.2399721145629883,4.175680800075195,0.0018260703654959798,0.27876490354537964,-1.6247928778277796,0.0,0.018160689622163773,1.1892732381820679,0.0,0.002362161874771118,0.6911091804504395,0.06433500349521637,0.06737647950649261
266.0,296.0,3.8297,-2.6758,7.8724,-0.078,-0.0342,-0.0576,-1.6876045666136683,-0.1180163025856018,2.5075430870056152,-1.486727237701416,0.05814873427152634,2.2799582481384277,4.175728483791016,0.0017849785508587956,0.2831178307533264,-1.624829117451803,2.144903010048438e-05,-0.008918057195842266,1.1893012523651123,0.0,-0.004053065087646246,0.6914058327674866,0.06638112664222717,0.025713589042425156
266.0,296.0,3.8297,-2.6758,7.8724,-0.078,-0.0342,-0.0576,-1.688120027581686,-0.11869830638170242,2.530900239944458,-1.4864386320114136,0.05944838374853134,2.282036066055298,4.175732775325439,0.001495899516157806,0.29427167773246765,-1.62476092973818,2.6370948035037145e-05,0.0034806893672794104,1.1892774105072021,0.0,0.00605429895222187,0.6916657090187073,0.06672099232673645,0.04251789301633835
266.0,296.0,3.8297,-2.6758,7.8724,-0.078,-0.0342,-0.0576,-1.688915868798727,-0.1258889138698578,2.481203556060791,-1.4861512184143066,0.05872632563114166,2.255046844482422,4.175708456630371,0.000865088077262044,0.2914777994155884,-1.6247766653644007,2.5283163267886266e-05,0.003301287768408656,1.189305305480957,0.0,-0.00605009263381362,0.6921104192733765,0.0663190484046936,0.0873900055885315
266.0,296.0,3.8297,-2.6758,7.8724,-0.078,-0.0342,-0.0576,-1.6894151173033656,-0.1350850909948349,2.5044260025024414,-1.4859356880187988,0.057652246206998825,2.2454473972320557,4.175752802486084,0.0006546789663843811,0.29340243339538574,-1.6247809568988245,2.4592329282313585e-05,0.0018936630804091692,1.1893413066864014,0.0,-0.008190429769456387,0.6923425793647766,0.0646309033036232,0.04721483215689659
266.0,296.0,3.8297,-2.6758,7.8724,-0.078,-0.0342,-0.0576,-1.6899825535216273,-0.14421172440052032,2.469573497772217,-1.4856390953063965,0.05635314807295799,2.1897435188293457,4.175696535701416,0.0006022799643687904,0.2762065827846527,-1.6248977820025843,2.3938198864925653e-05,-0.00684530520811677,1.189285159111023,0.0,-0.008188801817595959,0.6925823092460632,0.06228906661272049,0.06247953698039055
266.0,296.0,3.8297,-2.6758,7.8724,-0.078,-0.0342,-0.0576,-1.690517087975973,-0.14814919233322144,2.42537522315979,-1.4853991270065308,0.05709526315331459,2.2350239753723145,4.175728483791016,0.0005679280147887766,0.2792779207229614,-1.624829117451803,2.331801260879729e-05,0.011612453497946262,1.1892205476760864,0.0,0.0005173981189727783,0.6927944421768188,0.05961977690458298,0.057760950177907944
266.0,296.0,3.8297,-2.6758,7.8724,-0.078,-0.0342,-0.0576,-1.6914049587645472,-0.151879221200943,2.492251396179199,-1.4850479364395142,0.060058508068323135,2.255298137664795,4.175748034114502,0.0020138435065746307,0.2898556590080261,-1.624829117451803,2.2445699869422242e-05,-0.008679474703967571,1.1892774105072021,0.0,-0.011585614643990993,0.6931713223457336,0.055560339242219925,0.040961600840091705
261.0,293.0,4.0672,-3.4044,7.2945,-0.0965,-0.1184,-0.0611,-1.6919480762877406,-0.14647145569324493,2.5004281997680664,-1.484707236289978,0.0644327700138092,2.2523531913757324,4.175784273738525,0.005959175527095795,0.2920880913734436,-1.624829117451803,1.3764813957095612e-05,-0.015043582767248154,1.1893012523651123,0.0,-0.006471419706940651,0.6934113502502441,0.05243890732526779,0.05891640856862068
261.0,293.0,4.0672,-3.4044,7.2945,-0.0965,-0.1184,-0.0611,-1.6924993000426234,-0.1338990479707718,2.5088367462158203,-1.4845525026321411,0.06954041868448257,2.2577362060546875,4.17586009084668,0.009800850413739681,0.285831481218338,-1.6247885862933558,1.0701658538891934e-05,-0.012749741785228252,1.189265251159668,0.0,0.005528388079255819,0.6936235427856445,0.05403481051325798,0.032615356147289276
261.0,293.0,4.0672,-3.4044,7.2945,-0.0965,-0.1184,-0.0611,-1.6933666668333949,-0.11676187813282013,2.551393508911133,-1.484156847000122,0.07241354137659073,2.3217077255249023,4.175900145167969,0.015163032338023186,0.29368656873703003,-1.6248205343829554,1.0321873560314998e-05,-0.009144905023276806,1.1892653703689575,0.0,-0.007344228681176901,0.6939436197280884,0.05462776869535446,0.04374635964632034
261.0,293.0,4.0672,-3.4044,7.2945,-0.0965,-0.1184,-0.0611,-1.6939226589598597,-0.11227124184370041,2.5671422481536865,-1.4838687181472778,0.07123086601495743,2.2819316387176514,4.175920172328613,0.016424009576439857,0.2941443920135498,-1.624829117451803,5.114874966238858e-06,-0.006851001176983118,1.1892814636230469,0.0,-0.006393015384674072,0.694188117980957,0.056294072419404984,0.09307420253753662
261.0,293.0,4.0672,-3.4044,7.2945,-0.0965,-0.1184,-0.0611,-1.6943851910033167,-0.11483298987150192,2.636249542236328,-1.4836170673370361,0.07058467715978622,2.25583815574646,4.176004095668457,0.01677967607975006,0.29250943660736084,-1.6248329321490687,2.1805512062655907e-08,-0.012221232987940311,1.1893335580825806,0.0,-0.008827882818877697,0.6944281458854675,0.05957196652889252,0.08519001305103302
261.0,293.0,4.0672,-3.4044,7.2945,-0.0965,-0.1184,-0.0611,-1.6948729954161585,-0.1263859122991562,2.550173759460449,-1.4833528995513916,0.06871793419122696,2.299168109893799,4.17601124822583,0.01640886440873146,0.29395249485969543,-1.6248415152179163,9.296030611949391e-11,-0.01380244828760624,1.1892613172531128,0.0,-0.01066529005765915,0.6946320533752441,0.05939070135354996,0.10360857844352722
261.0,293.0,4.0672,-3.4044,7.2945,-0.0965,-0.1184,-0.0611,-1.6956926784911097,-0.14852643013000488,2.5237832069396973,-1.4828964471817017,0.06645190715789795,2.2748117446899414,4.17612282812085,0.014636742882430553,0.2862681746482849,-1.6248491446124476,2.587584348721396e-14,-0.025525249540805817,1.1892895698547363,0.0,-0.011042064055800438,0.6950287818908691,0.059462860226631165,0.10699953883886337
261.0,293.0,4.0672,-3.4044,7.2945,-0.0965,-0.1184,-0.0611,-1.696252008477682,-0.15611067414283752,2.539435863494873,-1.4826291799545288,0.06760424375534058,2.272944450378418,4.176263018245361,0.015601344406604767,0.2951473593711853,-1.6248729864703577,1.1031278002029217e-16,-0.01182382833212614,1.18938148021698,0.0,-0.0008036249782890081,0.6952006220817566,0.05844905227422714,0.09721717238426208
261.0,293.0,4.0672,-3.4044,7.2945,-0.0965,-0.1184,-0.0611,-1.6967951260008753,-0.16140399873256683,2.5390255451202393,-1.482317328453064,0.07200305163860321,2.267014980316162,4.176334543819092,0.01954910159111023,0.29651880264282227,-1.6248653570758265,4.70280664268741e-19,-0.019688960164785385,1.1893134117126465,0.0,-0.0016738425474613905,0.6954449415206909,0.05528688058257103,0.09102879464626312
261.0,293.0,4.0672,-3.4044,7.2945,-0.0965,-0.1184,-0.0611,-1.6973420582213343,-0.15448790788650513,2.532313823699951,-1.4819656610488892,0.08120476454496384,2.2782130241394043,4.176414175624512,0.028158891946077347,0.30289366841316223,-1.624873463307516,2.0048802213657512e-21,-0.018095672130584717,1.1893417835235596,0.0,-0.007699809968471527,0.6956653594970703,0.05174395069479942,0.03381454199552536
261.0,293.0,4.0672,-3.4044,7.2945,-0.0965,-0.1184,-0.0611,-1.6982776127257289,-0.14146526157855988,2.6003754138946533,-1.4814656972885132,0.09501965343952179,2.262450933456421,4.1766931253620605,0.04543866217136383,0.3204035758972168,-1.624857250844137,5.580657437251503e-25,-0.022118624299764633,1.189265489578247,0.0,-0.009880756959319115,0.695929229259491,0.048172157257795334,0.013930239714682102
261.0,293.0,4.0672,-3.4044,7.2945,-0.0965,-0.1184,-0.0611,-1.6988607845702113,-0.13038800656795502,2.6148393154144287,-1.4810338020324707,0.10469260811805725,2.3075475692749023,4.176884813899658,0.05953507870435715,0.31993380188941956,-1.6248248259173792,2.379122060344952e-27,-0.018690425902605057,1.1893495321273804,0.0,-0.0030693630687892437,0.6961696743965149,0.047726526856422424,0.07130982726812363
261.0,293.0,4.0672,-3.4044,7.2945,-0.0965,-0.1184,-0.0611,-1.6993996105589808,-0.12814103066921234,2.5539112091064453,-1.4806300401687622,0.11074670404195786,2.29746675491333,4.177168055171631,0.07456894218921661,0.3327728509902954,-1.6248610655414026,1.0142570757425956e-29,-0.02258181944489479,1.1893335580825806,0.0,-0.0047128526493906975,0.6963533163070679,0.04896729066967964,0.06014396250247955
261.0,293.0,4.0672,-3.4044,7.2945,-0.0965,-0.1184,-0.0611,-1.7002831898131312,-0.13688454031944275,2.6268672943115234,-1.4799703359603882,0.1124940887093544,2.331812858581543,4.17767779409375,0.09342994540929794,0.3437916338443756,-1.6248534361468714,2.823222067581328e-33,-0.017433391883969307,1.1893573999404907,0.0,-0.0028855192940682173,0.696681797504425,0.05242549255490303,0.04824759438633919
261.0,293.0,4.0672,-3.4044,7.2945,-0.0965,-0.1184,-0.0611,-1.7009388409056605,-0.14719952642917633,2.6340277194976807,-1.479514718055725,0.10594163835048676,2.3444275856018066,4.178036375636719,0.0990835502743721,0.3499077260494232,-1.6248534361468714,1.2035838874912807e-35,-0.011314745992422104,1.1892930269241333,0.0,-0.00945694837719202,0.6969383358955383,0.054279305040836334,0.07776491343975067
261.0,293.0,4.0672,-3.4044,7.2945,-0.0965,-0.1184,-0.0611,-1.7014976940550746,-0.16026943922042847,2.581049919128418,-1.479138731956482,0.10141082853078842,2.329241991043091,4.178450747127197,0.10057353228330612,0.3535701632499695,-1.6248534361468714,5.131066763972509e-38,-0.0140042994171381,1.1893055438995361,0.0,-0.00469222292304039,0.6971343159675598,0.054961446672677994,0.08555162698030472
261.0,293.0,4.0672,-3.4044,7.2945,-0.0965,-0.1184,-0.0611,-1.702092786828512,-0.17010460793972015,2.5987765789031982,-1.4787434339523315,0.0996951088309288,2.331845760345459,4.1789490419575195,0.0995195135474205,0.3457460403442383,-1.624829117451803,2.187454928780326e-40,-0.032833099365234375,1.1892938613891602,0.0,-0.0022155113983899355,0.697378933429718,0.05610255151987076,0.06555667519569397
261.0,293.0,4.0672,-3.4044,7.2945,-0.0965,-0.1184,-0.0611,-1.7030521831908167,-0.16915622353553772,2.5605740547180176,-1.4780592918395996,0.10396604984998703,2.2988827228546143,4.179485960597656,0.08765902370214462,0.3453965187072754,-1.6248491446124476,6.025583396596713e-44,-0.023382335901260376,1.189257264137268,0.0,0.0075318519957363605,0.697642982006073,0.0521589033305645,0.056960999965667725
261.0,293.0,4.0672,-3.4044,7.2945,-0.0965,-0.1184,-0.0611,-1.7036634884276332,-0.16144292056560516,2.592578649520874,-1.4776115417480469,0.10992690175771713,2.3116323947906494,4.179812594051025,0.08108676224946976,0.34144437313079834,-1.6248810927020472,0.0,-0.024266652762889862,1.1892447471618652,0.0,-0.004244412761181593,0.6978793144226074,0.050790488719940186,0.06324364244937897
261.0,293.0,4.0672,-3.4044,7.2945,-0.0965,-0.1184,-0.0611,-1.704282899896139,-0.15295733511447906,2.626589298248291,-1.4772242307662964,0.1176106259226799,2.3210606575012207,4.180159731502197,0.08415696024894714,0.3369836211204529,-1.6248534361468714,0.0,-0.030831314623355865,1.1893376111984253,0.0,-0.004836896434426308,0.6980876922607422,0.04843292012810707,0.0832095742225647
242.0,290.0,4.1539,-3.0915,7.5805,0.0206,0.1211,-0.0892,-1.7052060566344203,-0.14205129444599152,2.671165943145752,-1.4764398336410522,0.1305796504020691,2.3862802982330322,4.180710001582764,0.1019919365644455,0.352436900138855,-1.6248772780047815,0.0,-0.03200538456439972,1.1893174648284912,0.0,0.006422614678740501,0.698391854763031,0.04757178947329521,0.014749071560800076
242.0,290.0,4.1539,-3.0915,7.5805,0.0206,0.1211,-0.0892,-1.7058054409422816,-0.1408468633890152,2.591063976287842,-1.4758800268173218,0.13707391917705536,2.38022780418396,4.181080027217529,0.12248047441244125,0.3573600649833679,-1.6248491446124476,0.0,-0.02249635010957718,1.1892247200012207,0.0,-0.008876053616404533,0.6985755562782288,0.04990609735250473,0.05835787206888199
242.0,290.0,4.1539,-3.0915,7.5805,0.0206,0.1211,-0.0892,-1.7063642940916957,-0.14246781170368195,2.660851001739502,-1.4753971099853516,0.14166073501110077,2.402890205383301,4.18165032445874,0.13145576417446136,0.3775478005409241,-1.6248930136310022,0.0,-0.028039705008268356,1.1893335580825806,0.0,-0.011104200966656208,0.6987798810005188,0.05154770240187645,0.08076314628124237
242.0,290.0,4.1539,-3.0915,7.5805,0.0206,0.1211,-0.0892,-1.7070323429503382,-0.15207892656326294,2.6138792037963867,-1.4747885465621948,0.14241130650043488,2.41060209274292,4.1822520929523925,0.1329939067363739,0.37046247720718384,-1.6249011198626917,0.0,-0.020243223756551743,1.1892409324645996,0.0,-0.0055879997089505196,0.6989716291427612,0.055288512259721756,0.08798235654830933
242.0,290.0,4.1539,-3.0915,7.5805,0.0206,0.1211,-0.0892,-1.7079512081541957,-0.1623186618089676,2.596522808074951,-1.4739292860031128,0.139620840549469,2.3798530101776123,4.183000250453613,0.12644195556640625,0.36066102981567383,-1.624857250844137,0.0,-0.03581349179148674,1.1892529726028442,0.0,0.005015886854380369,0.6993041634559631,0.05578801780939102,0.03427049517631531
242.0,290.0,4.1539,-3.0915,7.5805,0.0206,0.1211,-0.0892,-1.7086063824095667,-0.16536100208759308,2.6168341636657715,-1.4733057022094727,0.1370336264371872,2.370382785797119,4.183530970210693,0.12609557807445526,0.34816282987594604,-1.6248448530780237,0.0,-0.027447903528809547,1.1893254518508911,0.0,-0.015419399365782738,0.6995203495025635,0.054672807455062866,0.068627268075943
242.0,290.0,4.1539,-3.0915,7.5805,0.0206,0.1211,-0.0892,-1.709177156487936,-0.16669408977031708,2.6460118293762207,-1.4728580713272095,0.13812126219272614,2.3704285621643066,4.184009237880371,0.13481087982654572,0.371559202671051,-1.6248772780047815,0.0,-0.03039095737040043,1.1891686916351318,0.0,-0.013719679787755013,0.699760913848877,0.052015017718076706,0.08784861862659454
242.0,290.0,4.1539,-3.0915,7.5805,0.0206,0.1211,-0.0892,-1.7098165951170863,-0.16660930216312408,2.5625154972076416,-1.472261905670166,0.14163967967033386,2.369321584701538,4.184586687678955,0.14579643309116364,0.3584096133708954,-1.6248491446124476,0.0,-0.0320550799369812,1.1892774105072021,0.0,-0.0004664285806939006,0.69990473985672,0.04774663597345352,0.060166630893945694
242.0,290.0,4.1539,-3.0915,7.5805,0.0206,0.1211,-0.0892,-1.7107678852477015,-0.16204115748405457,2.595421314239502,-1.471382737159729,0.1476106494665146,2.378509521484375,4.185498877162598,0.1507541388273239,0.36074793338775635,-1.624841038380758,0.0,-0.047679975628852844,1.1893258094787598,0.0,-0.01262229960411787,0.7002007365226746,0.040405549108982086,0.06981714814901352
242.0,290.0,4.1539,-3.0915,7.5805,0.0206,0.1211,-0.0892,-1.7114516697325648,-0.15855365991592407,2.5938475131988525,-1.4707783460617065,0.15268264710903168,2.3902618885040283,4.1860949236103515,0.14151811599731445,0.36744821071624756,-1.6248930136310022,0.0,-0.02415543980896473,1.1892569065093994,0.0,-0.012371356599032879,0.7003370523452759,0.03515158221125603,0.026633303612470627
242.0,290.0,4.1539,-3.0915,7.5805,0.0206,0.1211,-0.0892,-1.7120467625060023,-0.15450994670391083,2.568075180053711,-1.47011137008667,0.16019077599048615,2.3827221393585205,4.186648531551025,0.121595099568367,0.3620764911174774,-1.6248772780047815,0.0,-0.022862154990434647,1.1892331838607788,0.0,-0.008479321375489235,0.7005615830421448,0.030980998650193214,0.03819313645362854
242.0,290.0,4.1539,-3.0915,7.5805,0.0206,0.1211,-0.0892,-1.7130400143065394,-0.15184253454208374,2.5997657775878906,-1.4690791368484497,0.16981807351112366,2.385232448577881,4.1872474390217285,0.10662305355072021,0.35023796558380127,-1.6248448530780237,0.0,-0.029222112149000168,1.1892938613891602,0.0,-0.017182178795337677,0.7006725072860718,0.02751859277486801,0.03272170573472977
242.0,290.0,4.1539,-3.0915,7.5805,0.0206,0.1211,-0.0892,-1.7136689625182093,-0.14778921008110046,2.6331405639648438,-1.4683998823165894,0.17187358438968658,2.4019558429718018,4.187680407161377,0.11199494451284409,0.3493887186050415,-1.6249092260943812,0.0,-0.028229322284460068,1.189281940460205,0.0,-0.007207348011434078,0.700840950012207,0.027111470699310303,-0.010239513590931892
242.0,290.0,4.1539,-3.0915,7.5805,0.0206,0.1211,-0.0892,-1.7142812214293421,-0.15099163353443146,2.663691997528076,-1.4677677154541016,0.17330302298069,2.405648708343506,4.188187285060547,0.12275080382823944,0.3546459376811981,-1.6249092260943812,0.0,-0.022268399596214294,1.189253330230713,0.0,-0.017913946881890297,0.7009126543998718,0.027548719197511673,0.07516416907310486
242.0,290.0,4.1539,-3.0915,7.5805,0.0206,0.1211,-0.0892,-1.7149626217284144,-0.15759685635566711,2.6496613025665283,-1.467031717300415,0.16941538453102112,2.382823944091797,4.1886021333881835,0.12037354707717896,0.3505866527557373,-1.624880615864889,-9.797700477065518e-05,-0.03255893662571907,1.1892328262329102,0.0,0.0016928373370319605,0.7010970711708069,0.02797219343483448,0.07385259121656418
242.0,290.0,4.1539,-3.0915,7.5805,0.0206,0.1211,-0.0892,-1.7158752880492152,-0.17419075965881348,2.6366801261901855,-1.4659960269927979,0.16903553903102875,2.417604923248291,4.189309282893799,0.10712416470050812,0.36005210876464844,-1.6249130407916468,-9.383635915583e-05,-0.025310710072517395,1.189253330230713,0.0,-0.022751029580831528,0.7012450098991394,0.02760099247097969,0.00738961435854435
242.0,290.0,4.1539,-3.0915,7.5805,0.0206,0.1211,-0.0892,-1.716583868066305,-0.18319201469421387,2.636838912963867,-1.4652644395828247,0.1708180010318756,2.3859407901763916,4.1897336679646,0.09433049708604813,0.34941619634628296,-1.6248849073993128,-9.007989865494892e-05,-0.039622433483600616,1.18924880027771,0.0,-0.004909228533506393,0.7013328075408936,0.026472492143511772,0.020756514742970467
242.0,290.0,4.1539,-3.0915,7.5805,0.0206,0.1211,-0.0892,-1.7173615894713343,-0.1869775950908661,2.638944149017334,-1.46458101272583,0.17786166071891785,2.4464893341064453,4.1900669771381835,0.08433698862791061,0.32955583930015564,-1.6248567740069788,-8.661231549922377e-05,-0.027514860033988953,1.1892859935760498,0.0,-0.01581019163131714,0.7014410495758057,0.024623731151223183,0.04679141566157341
242.0,290.0,4.1539,-3.0915,7.5805,0.0206,0.1211,-0.0892,-1.7183381519713343,-0.17262691259384155,2.6814069747924805,-1.4634373188018799,0.1884496957063675,2.4261462688446045,4.190509005183838,0.08181074261665344,0.32612013816833496,-1.6248686949359339,-8.188407809939235e-05,-0.022544730454683304,1.1892775297164917,0.0,-0.017318710684776306,0.7015731334686279,0.021337758749723434,0.058227941393852234
242.0,290.0,4.1539,-3.0915,7.5805,0.0206,0.1211,-0.0892,-1.7190877399840296,-0.1571207344532013,2.6833558082580566,-1.4627583026885986,0.1940579116344452,2.387577533721924,4.19085614263501,0.08684118092060089,0.3322924077510834,-1.6248849073993128,-7.900868513388559e-05,-0.026041444391012192,1.189265251159668,0.0,-0.024019144475460052,0.70158451795578,0.019173014909029007,0.05889773741364479
229.0,260.0,2.7015,-2.1864,9.7478,0.009,0.1379,-0.1132,-1.7197562656798304,-0.15069083869457245,2.665470600128174,-1.461930513381958,0.19865362346172333,2.430927276611328,4.191209955806396,0.09454528987407684,0.34092605113983154,-1.6248686949359339,-7.632838241988793e-05,-0.03080253303050995,1.1892409324645996,0.0,0.007411648984998465,0.7016927003860474,0.018012521788477898,0.0477876290678978
229.0,260.0,2.7015,-2.1864,9.7478,0.009,0.1379,-0.1132,-1.7204204998412074,-0.15319523215293884,2.6512768268585205,-1.4611220359802246,0.1999567449092865,2.4374279975891113,4.1915647226521,0.09963935613632202,0.35551726818084717,-1.6249168554889124,-7.382396870525554e-05,-0.022875357419252396,1.1892778873443604,0.0,-0.012769132852554321,0.7017886638641357,0.017296047881245613,0.032621465623378754
229.0,260.0,2.7015,-2.1864,9.7478,0.009,0.1379,-0.1132,-1.7214623890318812,-0.17009790241718292,2.643648147583008,-1.4599792957305908,0.19991230964660645,2.452843189239502,4.192122622127197,0.09658332169055939,0.35533279180526733,-1.6248648802386683,-7.03611149219796e-05,-0.024103861302137375,1.189208984375,0.0,-0.025371607393026352,0.7019248604774475,0.01889740489423275,0.03633900731801987
229.0,260.0,2.7015,-2.1864,9.7478,0.009,0.1379,-0.1132,-1.7221752605833949,-0.1863388568162918,2.6418159008026123,-1.459099292755127,0.19970472157001495,2.374565839767456,4.192505045528076,0.08500425517559052,0.3377942442893982,-1.6248648802386683,-6.822746217949316e-05,-0.020183930173516273,1.189220905303955,0.0,-0.02502286434173584,0.7019765973091125,0.018421534448862076,0.05857785791158676
229.0,260.0,2.7015,-2.1864,9.7478,0.009,0.1379,-0.1132,-1.722908159295553,-0.19626763463020325,2.6299262046813965,-1.458363652229309,0.19719748198986053,2.411614179611206,4.192795439357422,0.06586892902851105,0.3456617593765259,-1.6248729864703577,-6.621949432883412e-05,-0.028874093666672707,1.189253330230713,0.0,-0.017930522561073303,0.7020083665847778,0.01722106710076332,0.08223722130060196
