ramyac6/ROB537/final_project/csv/all/bad_19.csv
tof_0,tof_1,accelx,accely,accelz,gyrox,gyroy,gyroz,shoulder_lift_joint_position,shoulder_lift_joint_velocity,shoulder_lift_joint_effort,elbow_joint_position,elbow_joint_velocity,elbow_joint_effort,wrist_1_joint_position,wrist_1_joint_velocity,wrist_1_joint_effort,wrist_2_joint_position,wrist_2_joint_velocity,wrist_2_joint_effort,wrist_3_joint_position,wrist_3_joint_velocity,wrist_3_joint_effort,shoulder_pan_joint_position,shoulder_pan_joint_velocity,shoulder_pan_joint_effort
426.0,571.0,0.9727,0.189,9.5527,-0.0365,0.022,-0.1173,-1.80531706432485,0.0,3.043220281600952,-1.760526418685913,-0.0,2.011923313140869,4.946053120284834,-0.0,0.2877468764781952,-1.5873106161700647,-0.0,-0.013743767514824867,0.7953660488128662,-0.0,-0.003993311896920204,0.8479393124580383,0.0,-0.05557709187269211
426.0,571.0,0.9727,0.189,9.5527,-0.0365,0.022,-0.1173,-1.8053699932494105,0.0,3.0546302795410156,-1.7605617046356201,-0.0,2.012662410736084,4.9461137531097314,-0.0,0.2724038064479828,-1.587306324635641,-0.0,-0.018736761063337326,0.7953461408615112,-0.0,-0.007203272543847561,0.8479673862457275,0.0,0.027271252125501633
426.0,571.0,0.9727,0.189,9.5527,-0.0365,0.022,-0.1173,-1.8053699932494105,0.0,2.9760003089904785,-1.7605576515197754,-0.0,2.056114435195923,4.946037131338873,-0.0,0.2795974314212799,-1.5872896353351038,-0.0,-0.03834404796361923,0.7953341603279114,-0.0,-0.008775610476732254,0.8479875922203064,0.0,0.018924647942185402
426.0,571.0,0.9727,0.189,9.5527,-0.0365,0.022,-0.1173,-1.8053413830199183,0.0,2.9772307872772217,-1.7605421543121338,-0.0,1.9950546026229858,4.9461137531097314,-0.0,0.28514429926872253,-1.5872777144061487,-0.0,-0.017926234751939774,0.7953499555587769,-0.0,-0.001425163121894002,0.8479673862457275,0.0,-0.029724955558776855
426.0,571.0,0.9727,0.189,9.5527,-0.0365,0.022,-0.1173,-1.8053699932494105,0.0,3.0372865200042725,-1.7605226039886475,-0.0,2.010881185531616,4.946077364474096,-0.0,0.28631871938705444,-1.5873106161700647,-0.0,-0.01940426602959633,0.7954336404800415,-0.0,-0.011304209008812904,0.8479427695274353,0.0,-0.01240471564233303
426.0,571.0,0.9727,0.189,9.5527,-0.0365,0.022,-0.1173,-1.8053370914854945,0.0,3.03006911277771,-1.7605584859848022,-0.0,2.024541139602661,4.946089598327436,-0.0,0.28153324127197266,-1.587306324635641,-0.0,-0.01780404895544052,0.7954223155975342,-0.0,0.0020727652590721846,0.8479875922203064,0.0,0.004412856884300709
426.0,571.0,0.9727,0.189,9.5527,-0.0365,0.022,-0.1173,-1.8053780994811,0.0,2.991849422454834,-1.7605699300765991,-0.0,2.0288290977478027,4.946093725949087,-0.0,0.275817334651947,-1.5873544851886194,-0.0,-0.031203070655465126,0.7953301072120667,-0.0,-0.00973832979798317,0.8479472994804382,0.0,0.005613761488348246
426.0,571.0,0.9727,0.189,9.5527,-0.0365,0.022,-0.1173,-1.8053614101805628,0.0,3.0077719688415527,-1.7605502605438232,-0.0,2.033508777618408,4.9460211274917505,-0.0,0.29017603397369385,-1.5873187224017542,-0.0,-0.010267695412039757,0.7953698635101318,-0.0,-0.005764505825936794,0.8479875922203064,0.0,-0.03155326843261719
426.0,571.0,0.9727,0.189,9.5527,-0.0365,0.022,-0.1173,-1.8053614101805628,0.0,2.999795913696289,-1.7605226039886475,-0.0,2.0562219619750977,4.946048992663183,-0.0,0.27430975437164307,-1.5872777144061487,-0.0,-0.01243357639759779,0.7954142093658447,-0.0,0.003508275840431452,0.847959578037262,0.0,0.018087100237607956
426.0,571.0,0.9727,0.189,9.5527,-0.0365,0.022,-0.1173,-1.8053657017149867,0.0,3.0097622871398926,-1.760501742362976,-0.0,1.995363473892212,4.946069124131956,-0.0,0.2857670187950134,-1.5872982184039515,-0.0,-0.029746627435088158,0.7954177260398865,-0.0,-0.00432711374014616,0.8479755520820618,0.0,0.06406965851783752
441.0,593.0,1.0798,0.2393,9.4056,-0.0307,0.0208,-0.1136,-1.8053413830199183,0.0,3.0381226539611816,-1.7605347633361816,-0.0,1.9737330675125122,4.946041288762846,-0.0,0.28041478991508484,-1.5872576872455042,-0.0,-0.013037003576755524,0.7953698635101318,-0.0,-0.0013646716251969337,0.8479673862457275,0.0,0.0030463761650025845
441.0,593.0,1.0798,0.2393,9.4056,-0.0307,0.0208,-0.1136,-1.8053413830199183,0.0,3.0266480445861816,-1.7605741024017334,-0.0,1.9998462200164795,4.946045356779852,-0.0,0.2784986197948456,-1.5873177687274378,-0.0,-0.023629138246178627,0.7953618764877319,-0.0,-0.00880481768399477,0.8479755520820618,0.0,-0.02223122864961624
441.0,593.0,1.0798,0.2393,9.4056,-0.0307,0.0208,-0.1136,-1.8053738079466761,0.0,2.9814515113830566,-1.7605822086334229,-0.0,2.011857032775879,4.94609363654212,-0.0,0.2965812385082245,-1.587302033101217,-0.0,-0.01897726207971573,0.7953819632530212,-0.0,-0.003169464645907283,0.8479998111724854,0.0,-0.026526253670454025
441.0,593.0,1.0798,0.2393,9.4056,-0.0307,0.0208,-0.1136,-1.8053456745543421,0.0,2.982271671295166,-1.7604862451553345,-0.0,2.014214038848877,4.9460613308246515,-0.0,0.27583813667297363,-1.587302033101217,-0.0,-0.021333368495106697,0.79541015625,-0.0,-0.003934574779123068,0.8479673862457275,0.0,-0.005236851051449776
441.0,593.0,1.0798,0.2393,9.4056,-0.0307,0.0208,-0.1136,-1.8053246937193812,0.0,3.015836238861084,-1.7604780197143555,-0.0,1.9802978038787842,4.94610561707572,-0.0,0.28075700998306274,-1.5873177687274378,-0.0,-0.02821836993098259,0.7953499555587769,-0.0,-0.002435895148664713,0.8479312062263489,0.0,-0.028659727424383163
441.0,593.0,1.0798,0.2393,9.4056,-0.0307,0.0208,-0.1136,-1.8053657017149867,0.0,3.0258514881134033,-1.7605699300765991,-0.0,2.051058769226074,4.946069541364469,-0.0,0.2857316732406616,-1.587306324635641,-0.0,-0.01184073369950056,0.7953620553016663,-0.0,-0.005964712705463171,0.8479633331298828,0.0,-0.019077911972999573
441.0,593.0,1.0798,0.2393,9.4056,-0.0307,0.0208,-0.1136,-1.8053537807860316,0.0,3.017287254333496,-1.7605429887771606,-0.0,2.036381721496582,4.946037488966741,-0.0,0.2733166217803955,-1.587330166493551,-0.0,-0.029230378568172455,0.7953899502754211,-0.0,-0.004240910988301039,0.8479393124580383,0.0,-0.010782649740576744
441.0,593.0,1.0798,0.2393,9.4056,-0.0307,0.0208,-0.1136,-1.8053776226439417,0.0,2.9920918941497803,-1.7605863809585571,-0.0,2.02557635307312,4.946109670191564,-0.0,0.2729393243789673,-1.5873106161700647,-0.0,-0.021338172256946564,0.7953941226005554,-0.0,-0.00964937824755907,0.8479192852973938,0.0,-0.024592095986008644
441.0,593.0,1.0798,0.2393,9.4056,-0.0307,0.0208,-0.1136,-1.8053456745543421,0.0,2.9824466705322266,-1.7605429887771606,-0.0,2.006361722946167,4.946089598327436,-0.0,0.27430564165115356,-1.5873220602618616,-0.0,-0.013466263189911842,0.7954142093658447,-0.0,-0.008450142107903957,0.8479677438735962,0.0,-0.038366906344890594
441.0,593.0,1.0798,0.2393,9.4056,-0.0307,0.0208,-0.1136,-1.8053614101805628,0.0,3.0582237243652344,-1.7605421543121338,-0.0,1.941211462020874,4.946045371681013,-0.0,0.2796132564544678,-1.5873096624957483,-0.0,-0.007726473268121481,0.7953660488128662,-0.0,-0.008401071652770042,0.8479554653167725,0.0,-0.006295491009950638
441.0,593.0,1.0798,0.2393,9.4056,-0.0307,0.0208,-0.1136,-1.8053776226439417,0.0,3.009274959564209,-1.7605421543121338,-0.0,2.00887393951416,4.946081462293424,-0.0,0.2717271149158478,-1.5873258749591272,-0.0,-0.016847819089889526,0.7953698635101318,-0.0,-0.007348851300776005,0.8479474782943726,0.0,-0.0025292367208749056
441.0,593.0,1.0798,0.2393,9.4056,-0.0307,0.0208,-0.1136,-1.8053580723204554,0.0,2.9962501525878906,-1.7605266571044922,-0.0,2.047410011291504,4.946125703841009,-0.0,0.28384050726890564,-1.5873220602618616,-0.0,-0.019989758729934692,0.79541015625,-0.0,-0.008969500660896301,0.8479714393615723,0.0,0.001554541289806366
441.0,593.0,1.0798,0.2393,9.4056,-0.0307,0.0208,-0.1136,-1.8053814373412074,0.0,3.0482778549194336,-1.7605822086334229,-0.0,2.045682907104492,4.946081343084135,-0.0,0.2860593795776367,-1.587334458027975,-0.0,-0.028851740062236786,0.7953819632530212,-0.0,0.0015957171563059092,0.847963273525238,0.0,0.11173324286937714
441.0,593.0,1.0798,0.2393,9.4056,-0.0307,0.0208,-0.1136,-1.8053819141783656,0.0,3.024991989135742,-1.760501742362976,-0.0,2.016136407852173,4.946089568525114,-0.0,0.28618085384368896,-1.587306324635641,-0.0,-0.028312109410762787,0.7953900098800659,-0.0,-0.007545963861048222,0.8479673862457275,0.0,-0.027757152915000916
441.0,593.0,1.0798,0.2393,9.4056,-0.0307,0.0208,-0.1136,-1.8053857288756312,0.0,3.0094661712646484,-1.7605544328689575,-0.0,2.0109479427337646,4.946073266654768,-0.0,0.2827971577644348,-1.5873506704913538,-0.0,-0.028443895280361176,0.7953658699989319,-0.0,-0.002872851677238941,0.847959578037262,0.0,0.015459481626749039
441.0,593.0,1.0798,0.2393,9.4056,-0.0307,0.0208,-0.1136,-1.8053819141783656,0.0,3.0199813842773438,-1.7605502605438232,-0.0,2.0450663566589355,4.946057277708807,-0.0,0.28419673442840576,-1.5872939268695276,-0.0,-0.015864336863160133,0.7953340411186218,-0.0,-0.025203676894307137,0.8479431867599487,0.0,0.019420485943555832
441.0,593.0,1.0798,0.2393,9.4056,-0.0307,0.0208,-0.1136,-1.8053738079466761,0.0,3.0167717933654785,-1.7604976892471313,-0.0,2.0229649543762207,4.946077364474096,-0.0,0.29598113894462585,-1.5873106161700647,-0.0,-0.012706281617283821,0.7953660488128662,-0.0,-0.0054520172998309135,0.8479554653167725,0.0,0.023372143507003784
441.0,593.0,1.0798,0.2393,9.4056,-0.0307,0.0208,-0.1136,-1.805406232873434,0.0,3.0746679306030273,-1.7605502605438232,-0.0,2.003425121307373,4.946057277708807,-0.0,0.27500176429748535,-1.5873025099383753,-0.0,-0.027700021862983704,0.7954222559928894,-0.0,-0.0007637448143213987,0.8479916453361511,0.0,0.022563738748431206
441.0,593.0,1.0798,0.2393,9.4056,-0.0307,0.0208,-0.1136,-1.8053251705565394,0.0,3.0090525150299072,-1.7605059146881104,-0.0,2.0410327911376953,4.946061390429296,-0.0,0.2816097140312195,-1.587313477193014,-0.0,-0.01636623963713646,0.7953620553016663,-0.0,9.189988486468792e-05,0.8479554653167725,0.0,-0.05165596306324005
438.0,610.0,1.0911,0.3296,9.329,-0.025,0.0234,-0.1155,-1.8053370914854945,0.0,3.042163848876953,-1.7605462074279785,-0.0,2.002899169921875,4.946029367833891,-0.0,0.26271775364875793,-1.5872653166400355,-0.0,-0.012393949553370476,0.7953659892082214,-0.0,-0.005099519621580839,0.8479714393615723,0.0,-0.025301970541477203
438.0,610.0,1.0911,0.3296,9.329,-0.025,0.0234,-0.1155,-1.8053051433958949,0.0,3.056731700897217,-1.760501742362976,-0.0,1.9642980098724365,4.946049439698019,-0.0,0.2688286304473877,-1.587273899708883,-0.0,-0.033404216170310974,0.7953781485557556,-0.0,-0.0047037797048687935,0.8479916453361511,0.0,-3.125891089439392e-05
438.0,610.0,1.0911,0.3296,9.329,-0.025,0.0234,-0.1155,-1.8053089580931605,0.0,3.052849292755127,-1.7605421543121338,-0.0,2.0006184577941895,4.946057262807646,-0.0,0.2804163992404938,-1.5872896353351038,-0.0,-0.01978641003370285,0.7953819632530212,-0.0,0.0037602740339934826,0.8479352593421936,0.0,-0.0011283783242106438
438.0,610.0,1.0911,0.3296,9.329,-0.025,0.0234,-0.1155,-1.8053738079466761,0.0,3.0363197326660156,-1.7605502605438232,-0.0,2.022523880004883,4.946073251753607,-0.0,0.2835426330566406,-1.5872896353351038,-0.0,-0.009477101266384125,0.7953620553016663,-0.0,0.0003064191259909421,0.8479554653167725,0.0,0.005610369145870209
438.0,610.0,1.0911,0.3296,9.329,-0.025,0.0234,-0.1155,-1.8053370914854945,0.0,2.9737489223480225,-1.7605347633361816,-0.0,1.9976637363433838,4.946057277708807,-0.0,0.2887495458126068,-1.5873468557940882,-0.0,-0.02272774465382099,0.7953779101371765,-0.0,-0.0006269239820539951,0.8479794263839722,0.0,-0.03180934116244316
438.0,610.0,1.0911,0.3296,9.329,-0.025,0.0234,-0.1155,-1.805390020410055,0.0,3.042654037475586,-1.7605100870132446,-0.0,2.027775764465332,4.946061360626974,-0.0,0.2806996703147888,-1.5873177687274378,-0.0,-0.013773288577795029,0.7953620553016663,-0.0,-0.011312302201986313,0.8479956984519958,0.0,-0.02194938249886036
438.0,610.0,1.0911,0.3296,9.329,-0.025,0.0234,-0.1155,-1.8053580723204554,0.0,3.0607423782348633,-1.7605503797531128,-0.0,2.0032801628112793,4.946045356779852,-0.0,0.2752699851989746,-1.5873220602618616,-0.0,-0.011308694258332253,0.7953501343727112,-0.0,-0.006127957720309496,0.8479551076889038,0.0,0.02884036861360073
438.0,610.0,1.0911,0.3296,9.329,-0.025,0.0234,-0.1155,-1.8053370914854945,0.0,3.0626115798950195,-1.7605665922164917,-0.0,2.000581979751587,4.946089598327436,-0.0,0.27972981333732605,-1.5873177687274378,-0.0,-0.009884363040328026,0.7953819632530212,-0.0,0.0012446533655747771,0.8479875922203064,0.0,-0.006691101938486099
438.0,610.0,1.0911,0.3296,9.329,-0.025,0.0234,-0.1155,-1.8053413830199183,0.0,3.004945755004883,-1.7605429887771606,-0.0,2.01552414894104,4.9460211274917505,-0.0,0.284085750579834,-1.5872982184039515,-0.0,-0.016786346212029457,0.7953982353210449,-0.0,-0.0010250969789922237,0.8479472994804382,0.0,-0.008245566859841347
438.0,610.0,1.0911,0.3296,9.329,-0.025,0.0234,-0.1155,-1.8053251705565394,0.0,3.0101139545440674,-1.7605421543121338,-0.0,2.0120606422424316,4.946061360626974,-0.0,0.29360589385032654,-1.5872896353351038,-0.0,-0.009166643023490906,0.7953541278839111,-0.0,0.0007140804082155228,0.847927451133728,0.0,0.008814739063382149
438.0,610.0,1.0911,0.3296,9.329,-0.025,0.0234,-0.1155,-1.8053251705565394,0.0,2.995987892150879,-1.760530710220337,-0.0,2.03739070892334,4.946053120284834,-0.0,0.28843408823013306,-1.587302033101217,-0.0,-0.009314039722084999,0.7953659296035767,-0.0,0.005621341057121754,0.8479835391044617,0.0,-0.01685808226466179
438.0,610.0,1.0911,0.3296,9.329,-0.025,0.0234,-0.1155,-1.805361887017721,0.0,2.9929535388946533,-1.7605544328689575,-0.0,2.0052614212036133,4.946061360626974,-0.0,0.29500171542167664,-1.5872939268695276,-0.0,-0.008339405991137028,0.7953500151634216,-0.0,-0.004264341667294502,0.8479714393615723,0.0,-0.03234696760773659
438.0,610.0,1.0911,0.3296,9.329,-0.025,0.0234,-0.1155,-1.8053494892516078,0.0,3.02402925491333,-1.7605100870132446,-0.0,2.0370707511901855,4.946085440903463,-0.0,0.283698707818985,-1.5872939268695276,-0.0,-0.025552768260240555,0.7954181432723999,-0.0,0.0016023130156099796,0.8479393124580383,0.0,0.01315474696457386
438.0,610.0,1.0911,0.3296,9.329,-0.025,0.0234,-0.1155,-1.8053780994811,0.0,3.023077964782715,-1.760509967803955,-0.0,2.0466701984405518,4.946073281555929,-0.0,0.2831842005252838,-1.587302033101217,-0.0,-0.017703445628285408,0.7953982353210449,-0.0,-0.005021938122808933,0.8479472994804382,0.0,-0.05851848050951958
438.0,610.0,1.0911,0.3296,9.329,-0.025,0.0234,-0.1155,-1.8053580723204554,0.0,3.0166680812835693,-1.7605347633361816,-0.0,2.0260462760925293,4.946053507715025,-0.0,0.2839677631855011,-1.587313477193014,-0.0,-0.010467838495969772,0.79541015625,-0.0,0.004021304659545422,0.847959578037262,0.0,-0.030273964628577232
438.0,610.0,1.0911,0.3296,9.329,-0.025,0.0234,-0.1155,-1.8053580723204554,0.0,3.0462217330932617,-1.7605429887771606,-0.0,2.068361282348633,4.946057277708807,-0.0,0.2704605758190155,-1.587306324635641,-0.0,-0.01828875206410885,0.7954060435295105,-0.0,-0.006103054620325565,0.8479796051979065,0.0,0.005836826749145985
438.0,610.0,1.0911,0.3296,9.329,-0.025,0.0234,-0.1155,-1.8053580723204554,0.0,3.040783405303955,-1.7605266571044922,-0.0,2.017580032348633,4.9461137531097314,-0.0,0.28125637769699097,-1.587302033101217,-0.0,-0.02685975842177868,0.7953579425811768,-0.0,0.0054444922134280205,0.8479755520820618,0.0,-0.024885494261980057
438.0,610.0,1.0911,0.3296,9.329,-0.025,0.0234,-0.1155,-1.8053537807860316,0.0,3.050571918487549,-1.7605699300765991,-0.0,2.094691514968872,4.946097823768415,-0.0,0.29094284772872925,-1.5872939268695276,-0.0,-0.024392392486333847,0.795394241809845,-0.0,-0.013235775753855705,0.8479509353637695,0.0,0.010789125226438046
438.0,610.0,1.0911,0.3296,9.329,-0.025,0.0234,-0.1155,-1.805328985253805,0.0,3.005310535430908,-1.7605100870132446,-0.0,2.008622407913208,4.9461137531097314,-0.0,0.2749452292919159,-1.5872896353351038,-0.0,-0.024669665843248367,0.7953981161117554,-0.0,0.00944054126739502,0.8479835391044617,0.0,-0.002417444484308362
438.0,610.0,1.0911,0.3296,9.329,-0.025,0.0234,-0.1155,-1.8053580723204554,0.0,3.049245834350586,-1.7605576515197754,-0.0,2.0300097465515137,4.946041303664007,-0.0,0.2872562110424042,-1.587302033101217,-0.0,-0.012496327981352806,0.7953181862831116,-0.0,-0.0065262774005532265,0.8479554653167725,0.0,0.010156121104955673
434.0,613.0,1.0247,0.2824,9.3494,-0.0374,0.0276,-0.1127,-1.8053370914854945,0.0,3.0287580490112305,-1.7605347633361816,-0.0,2.0040578842163086,4.946045356779852,-0.0,0.287310391664505,-1.5873382727252405,-0.0,-0.016957487910985947,0.7953382134437561,-0.0,-0.0012597297318279743,0.8479472994804382,0.0,-0.020213542506098747
434.0,613.0,1.0247,0.2824,9.3494,-0.0374,0.0276,-0.1127,-1.8053370914854945,0.0,3.0057339668273926,-1.7605535984039307,-0.0,2.031599998474121,4.946045356779852,-0.0,0.2758326530456543,-1.5873220602618616,-0.0,-0.023567751049995422,0.7953579425811768,-0.0,-0.004398519638925791,0.8479554653167725,0.0,-0.0068571195006370544
434.0,613.0,1.0247,0.2824,9.3494,-0.0374,0.0276,-0.1127,-1.80531706432485,0.0,3.0558199882507324,-1.7604739665985107,-0.0,2.0297985076904297,4.946025225311079,-0.0,0.28272515535354614,-1.5872815291034144,-0.0,-0.01747656986117363,0.7953980565071106,-0.0,5.904911085963249e-05,0.8479152321815491,0.0,-0.017681239172816277
434.0,613.0,1.0247,0.2824,9.3494,-0.0374,0.0276,-0.1127,-1.8053456745543421,0.0,3.003044366836548,-1.7605462074279785,-0.0,2.0199248790740967,4.946041229158201,-0.0,0.2755836844444275,-1.5872495810138147,-0.0,-0.017079435288906097,0.7954297661781311,-0.0,0.0037636230699718,0.8480079770088196,0.0,0.006284188479185104
434.0,613.0,1.0247,0.2824,9.3494,-0.0374,0.0276,-0.1127,-1.8053780994811,0.0,3.0040481090545654,-1.7605462074279785,-0.0,2.027500629425049,4.946093681245603,-0.0,0.2754105031490326,-1.587302033101217,-0.0,-0.013292554765939713,0.7953380942344666,-0.0,0.0007967883720993996,0.8479673862457275,0.0,-0.011277083307504654
434.0,613.0,1.0247,0.2824,9.3494,-0.0374,0.0276,-0.1127,-1.8053537807860316,0.0,2.994100570678711,-1.7605699300765991,-0.0,2.0348246097564697,4.946041288762846,-0.0,0.28044593334198,-1.5872939268695276,-0.0,-0.004790837876498699,0.795366108417511,-0.0,-0.007506188470870256,0.8479875922203064,0.0,-0.027337733656167984
434.0,613.0,1.0247,0.2824,9.3494,-0.0374,0.0276,-0.1127,-1.8053738079466761,0.0,2.9396133422851562,-1.7605100870132446,-0.0,2.0552473068237305,4.94600077250556,-0.0,0.28762298822402954,-1.5873177687274378,-0.0,-0.018555860966444016,0.7953981161117554,-0.0,-0.009156967513263226,0.847963273525238,0.0,0.022946609184145927
434.0,613.0,1.0247,0.2824,9.3494,-0.0374,0.0276,-0.1127,-1.8053699932494105,0.0,3.0080020427703857,-1.760522484779358,-0.0,2.0085129737854004,4.9460211274917505,-0.0,0.2901740074157715,-1.5872982184039515,-0.0,-0.018172333016991615,0.7953341603279114,-0.0,0.0008763736113905907,0.8479554653167725,0.0,0.0026286912616342306
434.0,613.0,1.0247,0.2824,9.3494,-0.0374,0.0276,-0.1127,-1.8053580723204554,0.0,2.9893386363983154,-1.7605059146881104,-0.0,2.018071413040161,4.946025314718046,-0.0,0.2824903130531311,-1.587306324635641,-0.0,-0.009987210854887962,0.7953541278839111,-0.0,-0.007139031775295734,0.8479434251785278,0.0,-0.01258155144751072
434.0,613.0,1.0247,0.2824,9.3494,-0.0374,0.0276,-0.1127,-1.8053699932494105,0.0,3.026226043701172,-1.7605781555175781,-0.0,2.0173463821411133,4.946049469500341,-0.0,0.2787165343761444,-1.587313477193014,-0.0,-0.025027919560670853,0.7953620553016663,-0.0,-0.01166145782917738,0.847959578037262,0.0,0.02793489769101143
434.0,613.0,1.0247,0.2824,9.3494,-0.0374,0.0276,-0.1127,-1.8053246937193812,0.0,3.004417896270752,-1.7605462074279785,-0.0,2.027055263519287,4.9460531053836725,-0.0,0.2872841954231262,-1.5873382727252405,-0.0,-0.018377237021923065,0.7954180836677551,-0.0,-0.009285468608140945,0.8479311466217041,0.0,0.032233938574790955
434.0,613.0,1.0247,0.2824,9.3494,-0.0374,0.0276,-0.1127,-1.8053251705565394,0.0,3.036764621734619,-1.7605347633361816,-0.0,2.008763551712036,4.946045371681013,-0.0,0.27722325921058655,-1.5873177687274378,-0.0,-0.013370778411626816,0.7953579425811768,-0.0,0.006073147989809513,0.8479554653167725,0.0,-0.029264111071825027
434.0,613.0,1.0247,0.2824,9.3494,-0.0374,0.0276,-0.1127,-1.805361887017721,0.0,2.994575023651123,-1.760538935661316,-0.0,2.0251002311706543,4.946049439698019,-0.0,0.2698361873626709,-1.5873187224017542,-0.0,-0.011323686689138412,0.7953900098800659,-0.0,0.0018520639277994633,0.8479837775230408,0.0,0.002907874993979931
434.0,613.0,1.0247,0.2824,9.3494,-0.0374,0.0276,-0.1127,-1.80531706432485,0.0,2.9850945472717285,-1.7605781555175781,-0.0,2.0133328437805176,4.946065026312628,-0.0,0.27926310896873474,-1.5872815291034144,-0.0,-0.017212897539138794,0.7953819632530212,-0.0,-0.0019809752702713013,0.8479636311531067,0.0,-0.003829546272754669
434.0,613.0,1.0247,0.2824,9.3494,-0.0374,0.0276,-0.1127,-1.8053819141783656,0.0,3.0192856788635254,-1.7605781555175781,-0.0,2.0488429069519043,4.946077364474096,-0.0,0.286928653717041,-1.5873220602618616,-0.0,-0.018110621720552444,0.7953660488128662,-0.0,-0.006852694787085056,0.8479636311531067,0.0,-0.03919673338532448
434.0,613.0,1.0247,0.2824,9.3494,-0.0374,0.0276,-0.1127,-1.8053580723204554,0.0,3.0274624824523926,-1.7605781555175781,-0.0,2.0411195755004883,4.946093666344442,-0.0,0.2857600748538971,-1.5873177687274378,-0.0,-0.027851125225424767,0.7953301668167114,-0.0,0.012279369868338108,0.8479393124580383,0.0,0.020913593471050262
434.0,613.0,1.0247,0.2824,9.3494,-0.0374,0.0276,-0.1127,-1.8053738079466761,0.0,3.0110931396484375,-1.7605502605438232,-0.0,2.0008578300476074,4.946057292609968,-0.0,0.2824804186820984,-1.5872982184039515,-0.0,-0.023921485990285873,0.7953142523765564,-0.0,-0.0037715251091867685,0.8479714393615723,0.0,0.06223510950803757
434.0,613.0,1.0247,0.2824,9.3494,-0.0374,0.0276,-0.1127,-1.8053780994811,0.0,3.0391788482666016,-1.7605617046356201,-0.0,2.061817169189453,4.9460854707057855,-0.0,0.28995490074157715,-1.5873106161700647,-0.0,-0.011261614970862865,0.7954496741294861,-0.0,-0.005008078645914793,0.8480116724967957,0.0,-0.004061402287334204
434.0,613.0,1.0247,0.2824,9.3494,-0.0374,0.0276,-0.1127,-1.8053370914854945,0.0,2.983344554901123,-1.7605905532836914,-0.0,2.021291971206665,4.946089672833242,-0.0,0.2711278200149536,-1.5872896353351038,-0.0,-0.022166132926940918,0.7953500747680664,-0.0,0.004360060673207045,0.847959578037262,0.0,0.0045733097940683365
444.0,599.0,0.9691,0.2076,9.4708,-0.0321,0.0246,-0.1156,-1.80531706432485,0.0,3.030332088470459,-1.760522484779358,-0.0,1.9693926572799683,4.946061360626974,-0.0,0.26954156160354614,-1.5873702208148401,-0.0,-0.014532172121107578,0.7953698635101318,-0.0,0.008395034819841385,0.8479714393615723,0.0,-0.009376699104905128
444.0,599.0,0.9691,0.2076,9.4708,-0.0321,0.0246,-0.1156,-1.8053976498045863,0.0,3.032848358154297,-1.7605700492858887,-0.0,2.04403018951416,4.946044894843855,-0.0,0.2695532441139221,-1.5872982184039515,-0.0,-0.023981837555766106,0.7953620553016663,-0.0,0.008986524306237698,0.8479554653167725,0.0,-0.01105278916656971
444.0,599.0,0.9691,0.2076,9.4708,-0.0321,0.0246,-0.1156,-1.8053332767882289,0.0,3.0473177433013916,-1.7605823278427124,-0.0,2.0068728923797607,4.946045356779852,-0.0,0.2943286597728729,-1.5872858206378382,-0.0,-0.017201781272888184,0.7954022288322449,-0.0,0.0030358247458934784,0.847963273525238,0.0,0.012468026019632816
444.0,599.0,0.9691,0.2076,9.4708,-0.0321,0.0246,-0.1156,-1.805361887017721,0.0,3.0504438877105713,-1.760538101196289,-0.0,2.043282985687256,4.9461297420556924,-0.0,0.2752173840999603,-1.5873220602618616,-0.0,-0.013300150632858276,0.7954141497612,-0.0,-0.005194075871258974,0.8479956984519958,0.0,0.018190454691648483
444.0,599.0,0.9691,0.2076,9.4708,-0.0321,0.0246,-0.1156,-1.8053494892516078,0.0,3.0438899993896484,-1.7605502605438232,-0.0,2.018918037414551,4.946037131338873,-0.0,0.28022944927215576,-1.5873468557940882,-0.0,0.005771143827587366,0.7954176664352417,-0.0,-0.00584773812443018,0.8479352593421936,0.0,0.05566698685288429
444.0,599.0,0.9691,0.2076,9.4708,-0.0321,0.0246,-0.1156,-1.80531706432485,0.0,2.998452663421631,-1.760518193244934,-0.0,2.0495100021362305,4.946077364474096,-0.0,0.28933143615722656,-1.5873177687274378,-0.0,-0.02413884550333023,0.7954060435295105,-0.0,0.0014250553213059902,0.8479554653167725,0.0,0.026912810280919075
444.0,599.0,0.9691,0.2076,9.4708,-0.0321,0.0246,-0.1156,-1.8053537807860316,0.0,3.0209834575653076,-1.7605421543121338,-0.0,2.0302531719207764,4.946041288762846,-0.0,0.27788323163986206,-1.5872982184039515,-0.0,-0.02149624563753605,0.7953180074691772,-0.0,0.0032485714182257652,0.847955048084259,0.0,-0.010774959810078144
444.0,599.0,0.9691,0.2076,9.4708,-0.0321,0.0246,-0.1156,-1.8053819141783656,0.0,3.0035088062286377,-1.7605462074279785,-0.0,1.9526872634887695,4.946065443545141,-0.0,0.2834666967391968,-1.5872858206378382,-0.0,-0.021744459867477417,0.7953342795372009,-0.0,0.014200256206095219,0.8479554653167725,0.0,-0.006485646590590477
444.0,599.0,0.9691,0.2076,9.4708,-0.0321,0.0246,-0.1156,-1.8053537807860316,0.0,3.014486074447632,-1.7605584859848022,-0.0,2.009428024291992,4.946093681245603,-0.0,0.2713644206523895,-1.5873096624957483,-0.0,-0.024432236328721046,0.7953541278839111,-0.0,0.00310337683185935,0.8479151725769043,0.0,0.020792361348867416
444.0,599.0,0.9691,0.2076,9.4708,-0.0321,0.0246,-0.1156,-1.8053614101805628,0.0,3.048990488052368,-1.7605429887771606,-0.0,2.0116419792175293,4.946101832180776,-0.0,0.2831260561943054,-1.5873177687274378,-0.0,-0.014917546883225441,0.7953819632530212,-0.0,-0.001250360393896699,0.8479998111724854,0.0,0.015250695869326591
444.0,599.0,0.9691,0.2076,9.4708,-0.0321,0.0246,-0.1156,-1.805349966088766,0.0,3.0320844650268555,-1.7605584859848022,-0.0,1.9746829271316528,4.946069124131956,-0.0,0.2880234718322754,-1.5873220602618616,-0.0,-0.01264302060008049,0.7953580021858215,-0.0,-0.007341392338275909,0.847963273525238,0.0,-0.010289452970027924
444.0,599.0,0.9691,0.2076,9.4708,-0.0321,0.0246,-0.1156,-1.8053814373412074,0.0,3.0021917819976807,-1.7605421543121338,-0.0,1.9896020889282227,4.946061360626974,-0.0,0.2769814729690552,-1.587306324635641,-0.0,-0.017321690917015076,0.7953342199325562,-0.0,0.007902235724031925,0.8479714393615723,0.0,0.023599527776241302
444.0,599.0,0.9691,0.2076,9.4708,-0.0321,0.0246,-0.1156,-1.8053580723204554,0.0,2.9998252391815186,-1.7605494260787964,-0.0,2.018486976623535,4.946085440903463,-0.0,0.28070077300071716,-1.587302033101217,-0.0,-0.016790833324193954,0.7953620553016663,-0.0,0.001203431049361825,0.8479554653167725,0.0,0.008171139284968376
444.0,599.0,0.9691,0.2076,9.4708,-0.0321,0.0246,-0.1156,-1.80531706432485,0.0,2.997058868408203,-1.7605347633361816,-0.0,2.0251967906951904,4.946069124131956,-0.0,0.2798187732696533,-1.587334458027975,-0.0,-0.01895557902753353,0.7954021096229553,-0.0,0.005918704904615879,0.8479835391044617,0.0,-0.034990161657333374
444.0,599.0,0.9691,0.2076,9.4708,-0.0321,0.0246,-0.1156,-1.805328985253805,0.0,3.000136613845825,-1.760530710220337,-0.0,2.016730308532715,4.946077379375257,-0.0,0.2882465124130249,-1.587334458027975,-0.0,-0.009679758921265602,0.7953221797943115,-0.0,0.00046299933455884457,0.8479554653167725,0.0,0.013473091647028923
444.0,599.0,0.9691,0.2076,9.4708,-0.0321,0.0246,-0.1156,-1.8053738079466761,0.0,3.0211586952209473,-1.7605657577514648,-0.0,2.0212581157684326,4.946073311358251,-0.0,0.2839767634868622,-1.5873106161700647,-0.0,-0.0179960485547781,0.7953779697418213,-0.0,-0.015033998526632786,0.8479714393615723,0.0,0.0024269954301416874
444.0,599.0,0.9691,0.2076,9.4708,-0.0321,0.0246,-0.1156,-1.8053699932494105,0.0,3.0379586219787598,-1.7605576515197754,-0.0,1.9803768396377563,4.946037146240034,-0.0,0.2820030748844147,-1.5873177687274378,-0.0,-0.021488159894943237,0.7953342199325562,-0.0,-0.004945719614624977,0.8479673862457275,0.0,-0.002815640065819025
444.0,599.0,0.9691,0.2076,9.4708,-0.0321,0.0246,-0.1156,-1.80540194133901,0.0,3.0647287368774414,-1.7605141401290894,-0.0,2.0498976707458496,4.946045326977529,-0.0,0.2845892310142517,-1.5873258749591272,-0.0,-0.022980663925409317,0.7953739166259766,-0.0,-0.0071108657866716385,0.847959578037262,0.0,-0.028292294591665268
444.0,599.0,0.9691,0.2076,9.4708,-0.0321,0.0246,-0.1156,-1.8053494892516078,0.0,2.9895763397216797,-1.7605576515197754,-0.0,2.0298290252685547,4.946053090482511,-0.0,0.2784847021102905,-1.587302033101217,-0.0,-0.009016691707074642,0.7953861355781555,-0.0,0.012253237888216972,0.8480400443077087,0.0,0.006019128020852804
444.0,619.0,0.9888,0.2841,9.4965,-0.036,0.0292,-0.1156,-1.8053738079466761,0.0,2.999551296234131,-1.760538935661316,-0.0,2.0363516807556152,4.946056830673971,-0.0,0.2912350594997406,-1.587334458027975,-0.0,-0.01206006295979023,0.7953699231147766,-0.0,-0.007591063156723976,0.8479312062263489,0.0,-0.0515441969037056
444.0,619.0,0.9888,0.2841,9.4965,-0.036,0.0292,-0.1156,-1.8053213558592738,0.0,3.0067930221557617,-1.760530710220337,-0.0,2.0280344486236572,4.946081357985296,-0.0,0.28880536556243896,-1.5872939268695276,-0.0,-0.018388215452432632,0.79541015625,-0.0,-0.0023235364351421595,0.8479755520820618,0.0,0.031391989439725876
444.0,619.0,0.9888,0.2841,9.4965,-0.036,0.0292,-0.1156,-1.805361887017721,0.0,2.9859824180603027,-1.760538101196289,-0.0,2.027663230895996,4.946053120284834,-0.0,0.28134778141975403,-1.587313477193014,-0.0,-0.014779563993215561,0.795322060585022,-0.0,-0.008970744907855988,0.8479192852973938,0.0,0.037571344524621964
444.0,619.0,0.9888,0.2841,9.4965,-0.036,0.0292,-0.1156,-1.8053418598570765,0.0,3.00685977935791,-1.7605544328689575,-0.0,2.0726850032806396,4.946057277708807,-0.0,0.2874545753002167,-1.5873425642596644,-0.0,-0.009319481439888477,0.7953779697418213,-0.0,-0.01023193635046482,0.8479554653167725,0.0,0.029251648113131523
444.0,619.0,0.9888,0.2841,9.4965,-0.036,0.0292,-0.1156,-1.8053294620909632,0.0,3.0269103050231934,-1.760538935661316,-0.0,2.007854461669922,4.9460773942764185,-0.0,0.28091397881507874,-1.587273899708883,-0.0,-0.011251338757574558,0.7953501343727112,-0.0,-0.009225749410688877,0.8479794263839722,0.0,-0.012925369665026665
444.0,619.0,0.9888,0.2841,9.4965,-0.036,0.0292,-0.1156,-1.8053657017149867,0.0,3.013430118560791,-1.7605265378952026,-0.0,2.0337977409362793,4.946061360626974,-0.0,0.29583629965782166,-1.5872896353351038,-0.0,-0.015005221590399742,0.7953620553016663,-0.0,0.008836689405143261,0.847963273525238,0.0,-0.0113691296428442
444.0,619.0,0.9888,0.2841,9.4965,-0.036,0.0292,-0.1156,-1.8053738079466761,0.0,3.028313636779785,-1.760522484779358,-0.0,2.0516366958618164,4.946029367833891,-0.0,0.27625200152397156,-1.587334458027975,-0.0,-0.01763955131173134,0.7954180836677551,-0.0,0.0020781606435775757,0.8479554653167725,0.0,0.018052317202091217
444.0,619.0,0.9888,0.2841,9.4965,-0.036,0.0292,-0.1156,-1.8053375683226527,0.0,2.998569965362549,-1.7605421543121338,-0.0,2.0218846797943115,4.946073281555929,-0.0,0.29589006304740906,-1.5873220602618616,-0.0,-0.016721641644835472,0.7953819632530212,-0.0,-0.008870021440088749,0.8479677438735962,0.0,-0.012912528589367867
444.0,619.0,0.9888,0.2841,9.4965,-0.036,0.0292,-0.1156,-1.8053094349303187,0.0,3.047588348388672,-1.7605265378952026,-0.0,2.0070788860321045,4.946053045779028,-0.0,0.2851334810256958,-1.5872939268695276,-0.0,-0.020966127514839172,0.7953301668167114,-0.0,0.0037250700406730175,0.847927451133728,0.0,0.037718433886766434
444.0,619.0,0.9888,0.2841,9.4965,-0.036,0.0292,-0.1156,-1.805349966088766,0.0,3.0125925540924072,-1.7605429887771606,-0.0,1.9898695945739746,4.946025299816885,-0.0,0.2612079381942749,-1.5873144308673304,-0.0,-0.007042947690933943,0.7953699231147766,-0.0,-0.0003752566408365965,0.847963273525238,0.0,0.016369424760341644
444.0,619.0,0.9888,0.2841,9.4965,-0.036,0.0292,-0.1156,-1.8053375683226527,0.0,2.995936155319214,-1.7605658769607544,-0.0,2.0418314933776855,4.946025299816885,-0.0,0.29498592019081116,-1.587302033101217,-0.0,-0.019300371408462524,0.7953421473503113,-0.0,0.0038659018464386463,0.8479233384132385,0.0,-0.004921107552945614
444.0,619.0,0.9888,0.2841,9.4965,-0.036,0.0292,-0.1156,-1.8053575954832972,0.0,3.0040171146392822,-1.760530710220337,-0.0,2.004284620285034,4.946057277708807,-0.0,0.2843567132949829,-1.587306324635641,-0.0,-0.003526407992467284,0.7954140901565552,-0.0,-0.004054481163620949,0.847959578037262,0.0,-0.01556173712015152
444.0,619.0,0.9888,0.2841,9.4965,-0.036,0.0292,-0.1156,-1.8053332767882289,0.0,2.9944236278533936,-1.7604780197143555,-0.0,2.00870418548584,4.946029412537374,-0.0,0.288762629032135,-1.5873144308673304,-0.0,-0.007268615532666445,0.7954176664352417,-0.0,-0.005226162727922201,0.8479714393615723,0.0,0.018667327240109444
444.0,619.0,0.9888,0.2841,9.4965,-0.036,0.0292,-0.1156,-1.8053657017149867,0.0,3.02614164352417,-1.7605347633361816,-0.0,1.9903297424316406,4.946041258960523,-0.0,0.2757691740989685,-1.5872815291034144,-0.0,-0.017100587487220764,0.7953699231147766,-0.0,0.0034871480893343687,0.8480157852172852,0.0,0.01424639206379652
444.0,619.0,0.9888,0.2841,9.4965,-0.036,0.0292,-0.1156,-1.8053976498045863,0.0,3.005617618560791,-1.7605100870132446,-0.0,2.0016794204711914,4.946057277708807,-0.0,0.27283769845962524,-1.587273899708883,-0.0,-0.022272642701864243,0.7953901290893555,-0.0,-0.007175877690315247,0.8479956984519958,0.0,0.013028986752033234
444.0,619.0,0.9888,0.2841,9.4965,-0.036,0.0292,-0.1156,-1.8053738079466761,0.0,3.0409703254699707,-1.7605305910110474,-0.0,1.9914320707321167,4.946089613228597,-0.0,0.30112606287002563,-1.5873258749591272,-0.0,-0.02036059834063053,0.7953739166259766,-0.0,-0.010359547100961208,0.847963273525238,0.0,-0.019136272370815277
444.0,619.0,0.9888,0.2841,9.4965,-0.036,0.0292,-0.1156,-1.8053738079466761,0.0,3.0205583572387695,-1.760530710220337,-0.0,2.0196619033813477,4.9460531053836725,-0.0,0.27560484409332275,-1.5873382727252405,-0.0,-0.021297849714756012,0.7953739166259766,-0.0,-0.012085975147783756,0.8479514122009277,0.0,0.050184398889541626
444.0,619.0,0.9888,0.2841,9.4965,-0.036,0.0292,-0.1156,-1.8053018055357875,0.0,2.9954898357391357,-1.7605421543121338,-0.0,1.9782298803329468,4.946045356779852,-0.0,0.28752076625823975,-1.5872939268695276,-0.0,-0.013317815959453583,0.795394241809845,-0.0,-0.0033905701711773872,0.8479311466217041,0.0,-0.006718920543789864
444.0,619.0,0.9888,0.2841,9.4965,-0.036,0.0292,-0.1156,-1.8053456745543421,0.0,3.012362480163574,-1.7605863809585571,-0.0,1.99007248878479,4.946061375528135,-0.0,0.2824135422706604,-1.5872815291034144,-0.0,-0.014358576387166977,0.7953739166259766,-0.0,-0.0030869091860949993,0.8479875326156616,0.0,0.010816572234034538
438.0,612.0,0.3972,-0.0311,9.2608,-0.0057,0.0421,-0.0857,-1.8053332767882289,0.0,3.02609920501709,-1.7605462074279785,-0.0,2.023637533187866,4.946033435850897,-0.0,0.28186607360839844,-1.5872777144061487,-0.0,-0.013818315230309963,0.7954100966453552,-0.0,0.007847602479159832,0.8479998111724854,0.0,0.0364881232380867
438.0,612.0,0.3972,-0.0311,9.2608,-0.0057,0.0421,-0.0857,-1.805349966088766,0.0,3.0308713912963867,-1.7605544328689575,-0.0,2.0373098850250244,4.946126061468878,-0.0,0.28401243686676025,-1.587306324635641,-0.0,-0.00721366424113512,0.795298159122467,-0.0,-0.0004896337632089853,0.8480158448219299,0.0,-0.027218127623200417
438.0,612.0,0.3972,-0.0311,9.2608,-0.0057,0.0421,-0.0857,-1.8053657017149867,0.0,3.014559745788574,-1.7605059146881104,-0.0,2.0141983032226562,4.946081447392263,-0.0,0.26311105489730835,-1.5872982184039515,-0.0,-0.019948666915297508,0.7953780293464661,-0.0,0.0004341868916526437,0.8479753136634827,0.0,0.012284527532756329
438.0,612.0,0.3972,-0.0311,9.2608,-0.0057,0.0421,-0.0857,-1.8053857288756312,0.0,3.0456368923187256,-1.7605223655700684,-0.0,2.0491881370544434,4.946049439698019,-0.0,0.2866514325141907,-1.5872657934771937,-0.0,-0.011460130102932453,0.7953660488128662,-0.0,-0.01028234139084816,0.8480035066604614,0.0,0.006716456264257431
438.0,612.0,0.3972,-0.0311,9.2608,-0.0057,0.0421,-0.0857,-1.8053738079466761,0.0,3.0073108673095703,-1.7604821920394897,-0.0,1.9827927350997925,4.946041288762846,-0.0,0.2927624583244324,-1.587302033101217,-0.0,-0.01400608941912651,0.7953861355781555,-0.0,-0.0044211638160049915,0.8480316996574402,0.001243053236976266,-0.02904343791306019
438.0,612.0,0.3972,-0.0311,9.2608,-0.0057,0.0421,-0.0857,-1.8053575954832972,0.0,2.9968392848968506,-1.760501742362976,-0.0,2.080921173095703,4.94606542864398,-0.0,0.2972184419631958,-1.5872896353351038,-0.0,-0.011198385618627071,0.7954100966453552,-0.0,0.0026953250635415316,0.8480557799339294,0.002655694494023919,0.020477082580327988
438.0,612.0,0.3972,-0.0311,9.2608,-0.0057,0.0421,-0.0857,-1.8053895435728968,0.0,3.0649044513702393,-1.760526418685913,-0.0,2.0173096656799316,4.946029367833891,-0.0,0.28506723046302795,-1.587306324635641,-0.0,-0.016804737970232964,0.7953260540962219,-0.0,-0.005677599459886551,0.8481404781341553,0.006039186380803585,0.05761218070983887
438.0,612.0,0.3972,-0.0311,9.2608,-0.0057,0.0421,-0.0857,-1.8053332767882289,0.0,3.025951862335205,-1.760526418685913,-0.0,2.027841567993164,4.946097749262609,-0.0,0.2830175459384918,-1.5872858206378382,-0.0,-0.014536190778017044,0.7953421473503113,-0.0,-0.00799659825861454,0.8482048511505127,0.008431259542703629,0.021812068298459053
438.0,612.0,0.3972,-0.0311,9.2608,-0.0057,0.0421,-0.0857,-1.8053575954832972,0.0,3.0346131324768066,-1.7604820728302002,0.0006686365231871605,2.000476121902466,4.946037131338873,-0.0,0.292021781206131,-1.5872982184039515,-0.0,-0.005819277837872505,0.7953941822052002,-0.0,0.002738450188189745,0.8481948375701904,0.011537822894752026,0.006709906738251448
438.0,612.0,0.3972,-0.0311,9.2608,-0.0057,0.0421,-0.0857,-1.8053895435728968,0.0,3.048043727874756,-1.7604985237121582,0.0020538566168397665,2.022477149963379,4.946073281555929,-0.0,0.2880750894546509,-1.587334458027975,-0.0,-0.010847100056707859,0.795350193977356,-0.0,0.004007355775684118,0.8482917547225952,0.01432006899267435,0.07916268706321716
438.0,612.0,0.3972,-0.0311,9.2608,-0.0057,0.0421,-0.0857,-1.8053857288756312,0.0,3.0415565967559814,-1.760518193244934,0.00293148634955287,2.0510189533233643,4.946045371681013,-0.0,0.2766834497451782,-1.5873382727252405,-0.0,-0.016742901876568794,0.7954020500183105,-0.0,0.006645094603300095,0.8483637571334839,0.015369275584816933,0.04777916148304939
438.0,612.0,0.3972,-0.0311,9.2608,-0.0057,0.0421,-0.0857,-1.8053332767882289,0.0,3.0109128952026367,-1.7604540586471558,0.0025282667484134436,2.0119192600250244,4.946085440903463,-0.0,0.2829183340072632,-1.5873382727252405,-0.0,-0.015919191762804985,0.7953981757164001,-0.0,0.002412812551483512,0.8484117984771729,0.014531029388308525,0.0010233046486973763
438.0,612.0,0.3972,-0.0311,9.2608,-0.0057,0.0421,-0.0857,-1.8053657017149867,0.0,3.038377285003662,-1.7604976892471313,1.8382141206529923e-05,2.0379109382629395,4.946061360626974,-7.966595383379627e-09,0.2836255729198456,-1.587334458027975,-0.0,-0.007125679403543472,0.7953501343727112,-0.0,0.0009279199875891209,0.8484569191932678,0.007448161020874977,0.05191052705049515
438.0,612.0,0.3972,-0.0311,9.2608,-0.0057,0.0421,-0.0857,-1.805401464501852,0.0,3.05037784576416,-1.7605347633361816,-0.004312310367822647,2.0187184810638428,4.946049007564344,-0.0002514076477382332,0.28791680932044983,-1.587330166493551,-0.0,-0.006195352412760258,0.7953417301177979,-0.0,-0.0172134842723608,0.8483961224555969,0.0018005013698711991,0.005184682551771402
438.0,612.0,0.3972,-0.0311,9.2608,-0.0057,0.0421,-0.0857,-1.8053776226439417,0.0,3.0258121490478516,-1.7604780197143555,-0.001140513806603849,2.0183634757995605,4.946065041213789,-0.00027627675444819033,0.3000738322734833,-1.587330166493551,-0.0,0.0022045355290174484,0.7953859567642212,-0.0,-0.013218254782259464,0.8483679890632629,-0.005344523582607508,-0.0095067098736763
438.0,612.0,0.3972,-0.0311,9.2608,-0.0057,0.0421,-0.0857,-1.8054219684996546,0.0,3.020747661590576,-1.7605502605438232,0.000712002394720912,1.985243558883667,4.94604945459918,-0.00030260556377470493,0.27524641156196594,-1.5872896353351038,-0.0,-0.00746841449290514,0.7953100800514221,-0.0,-0.006188161671161652,0.8483842015266418,-0.005604192148894072,0.03204134851694107
438.0,612.0,0.3972,-0.0311,9.2608,-0.0057,0.0421,-0.0857,-1.8054095707335414,-0.0005972934304736555,3.0359294414520264,-1.7605347633361816,0.00036933855153620243,2.045475721359253,4.946053522616186,-0.00034219789085909724,0.2815650403499603,-1.5873420874225062,-0.0,-0.005257531069219112,0.7953699231147766,-0.0,-0.012547198683023453,0.8483114838600159,-0.004670834634453058,0.00983942300081253
438.0,612.0,0.3972,-0.0311,9.2608,-0.0057,0.0421,-0.0857,-1.805418153802389,-0.0006168594118207693,3.022803544998169,-1.7605462074279785,1.9624599190137815e-07,2.02622652053833,4.946073281555929,-0.0002665184729266912,0.2680376172065735,-1.5873258749591272,-0.0,-0.013686003163456917,0.7953899502754211,-0.0,-0.011210594326257706,0.8483284115791321,-0.003879824187606573,0.008859576657414436
438.0,612.0,0.3972,-0.0311,9.2608,-0.0057,0.0421,-0.0857,-1.8053933582701625,-0.0005161332082934678,3.015327215194702,-1.7605347633361816,3.532358433533389e-11,2.0444507598876953,4.9460212019975565,-0.00023212615633383393,0.27342236042022705,-1.5872896353351038,-0.0,-0.025052562355995178,0.7953779697418213,-0.0,-0.0005051359185017645,0.8482310175895691,-0.0036626451183110476,-0.06445344537496567
438.0,612.0,0.3972,-0.0311,9.2608,-0.0057,0.0421,-0.0857,-1.8053695164122523,-0.00010218180250376463,2.985842704772949,-1.760538935661316,8.530229260292663e-17,2.021043062210083,4.946061360626974,-6.652650336036459e-05,0.272705614566803,-1.5873382727252405,-0.0,-0.012548509053885937,0.7953660488128662,-0.0,-0.0029575491789728403,0.8482478260993958,-0.0024736758787184954,-0.024613115936517715
434.0,598.0,1.1551,-0.8112,9.88,-0.0544,-0.0218,-0.0982,-1.8053657017149867,-1.8392364964370245e-08,3.0167713165283203,-1.760501742362976,1.535411037433796e-20,1.9887715578079224,4.946073281555929,-5.087397585157305e-05,0.285321444272995,-1.587330166493551,-0.0,-0.01834942027926445,0.7953580021858215,-0.0,-0.004654191434383392,0.8482235074043274,-0.0016549542779102921,-0.015125173144042492
434.0,598.0,1.1551,-0.8112,9.88,-0.0544,-0.0218,-0.0982,-1.8053375683226527,-3.310560376182381e-12,3.0405027866363525,-1.7605141401290894,2.76368582902043e-24,2.046469211578369,4.946045326977529,-8.249871825682931e-07,0.2796297073364258,-1.587330166493551,-0.0,-0.010189423337578773,0.795453667640686,-0.0,0.009713232517242432,0.8482560515403748,-0.0011337808100506663,0.03382565826177597
434.0,598.0,1.1551,-0.8112,9.88,-0.0544,-0.0218,-0.0982,-1.8053132496275843,0.0012812891509383917,3.0153188705444336,-1.760518193244934,0.0009495521662756801,2.0776829719543457,4.946064981609144,-2.2963825285771122e-10,0.271356999874115,-1.5873258749591272,-0.0,-0.019739607349038124,0.7953100204467773,-0.0,-0.001664845272898674,0.8481751680374146,-0.002108485670760274,0.009491164237260818
434.0,598.0,1.1551,-0.8112,9.88,-0.0544,-0.0218,-0.0982,-1.8053413830199183,0.0011637302814051509,3.033289909362793,-1.7605180740356445,0.0005854617338627577,2.070133686065674,4.946017089277067,-9.789839295129554e-13,0.28198397159576416,-1.5872939268695276,-0.0,-0.027829362079501152,0.7953381538391113,-0.0,-0.005577451549470425,0.8481920957565308,-0.004833503160625696,-0.026240281760692596
434.0,598.0,1.1551,-0.8112,9.88,-0.0544,-0.0218,-0.0982,-1.8053418598570765,0.0007379333837889135,3.0276777744293213,-1.7604944705963135,0.0004210585029795766,2.0590367317199707,4.946037131338873,-2.7250378696106847e-16,0.28753238916397095,-1.5872939268695276,-0.0,-0.0249190591275692,0.795362114906311,-0.0,0.0022629706654697657,0.8481639623641968,-0.00595275592058897,-0.02583349123597145
434.0,598.0,1.1551,-0.8112,9.88,-0.0544,-0.0218,-0.0982,-1.805345197717184,0.0004581452812999487,3.0676722526550293,-1.760526418685913,0.00035455756005831063,2.0427803993225098,4.946057277708807,-1.1617265734697399e-18,0.2837640047073364,-1.587302033101217,-0.0,-0.019311146810650826,0.7954416871070862,-0.0,-0.012794658541679382,0.8480790257453918,-0.0056827780790627,0.007597040385007858
434.0,598.0,1.1551,-0.8112,9.88,-0.0544,-0.0218,-0.0982,-1.8053294620909632,0.0003563845530152321,3.038212776184082,-1.7605502605438232,0.0003063623735215515,1.979261040687561,4.946101444750585,-4.952622748626211e-21,0.26940464973449707,-1.5873220602618616,-0.0,-0.002316308906301856,0.795362114906311,-0.0,-0.002865883056074381,0.8481235504150391,-0.004847228992730379,0.011484425514936447
434.0,598.0,1.1551,-0.8112,9.88,-0.0544,-0.0218,-0.0982,-1.8053943119444789,0.00020606580073945224,3.020519733428955,-1.7605544328689575,0.00015867040201555938,2.0411014556884766,4.946065011411466,-1.3785806788442867e-24,0.2774357795715332,-1.5872939268695276,-0.0,-0.014168251305818558,0.7953700423240662,-0.0,-0.003878760151565075,0.8480551242828369,-0.0032582429703325033,0.01732928492128849
434.0,598.0,1.1551,-0.8112,9.88,-0.0544,-0.0218,-0.0982,-1.8053018055357875,-0.00016568457067478448,3.0087227821350098,-1.7605429887771606,-9.683167445473373e-05,2.0678324699401855,4.946109670191564,-5.877105418161891e-27,0.28956758975982666,-1.5873106161700647,-0.0,-0.00030322978273034096,0.7954216003417969,-0.0,-0.00633302703499794,0.8480713963508606,-0.0023463284596800804,-0.019636448472738266
434.0,598.0,1.1551,-0.8112,9.88,-0.0544,-0.0218,-0.0982,-1.8053294620909632,-0.00013019614561926574,3.0399794578552246,-1.7604862451553345,-9.071238309843466e-05,2.0119032859802246,4.946081477194586,-1.6359138589433224e-30,0.2833169102668762,-1.5872982184039515,-0.0,-0.011053171940147877,0.7954415678977966,-0.0,-0.005123595241457224,0.8480796217918396,-0.0013020812766626477,-0.017349734902381897
434.0,598.0,1.1551,-0.8112,9.88,-0.0544,-0.0218,-0.0982,-1.8053695164122523,-0.00011373957386240363,3.024876832962036,-1.760518193244934,-8.242249896284193e-05,2.016725540161133,4.946065473347463,-6.974157290234753e-33,0.28673410415649414,-1.5872896353351038,-0.0,-0.00956050306558609,0.7954374551773071,-0.0,-0.007737333886325359,0.8480713963508606,-0.0010246937163174152,-0.006491567939519882
434.0,598.0,1.1551,-0.8112,9.88,-0.0544,-0.0218,-0.0982,-1.8053175411620082,-0.0001009766201605089,2.979820966720581,-1.7605100870132446,-7.550693408120424e-05,2.0457825660705566,4.946004810720243,-2.9731922682282716e-35,0.28415635228157043,-1.5873382727252405,-0.0,-0.010879643261432648,0.7953901290893555,-0.0,-0.010264938697218895,0.848063588142395,-0.0008833835599943995,-0.0289082583039999
434.0,598.0,1.1551,-0.8112,9.88,-0.0544,-0.0218,-0.0982,-1.8053251705565394,-4.321500091464259e-05,2.9709901809692383,-1.7604343891143799,-1.1524914953042753e-05,2.01926851272583,4.946105602174558,-8.275990257588367e-39,0.2723338305950165,-1.5872939268695276,-0.0,-0.023582950234413147,0.7954021096229553,-0.0,-0.0011427011340856552,0.8481280207633972,-0.0006456538685597479,-0.03885829448699951
434.0,598.0,1.1551,-0.8112,9.88,-0.0544,-0.0218,-0.0982,-1.8053175411620082,-4.669170266424771e-06,3.0084948539733887,-1.760526418685913,-2.0744439499509326e-09,2.047877788543701,4.946125614434042,-3.5281892734770244e-41,0.294205904006958,-1.5872939268695276,-0.0,-0.023242374882102013,0.7953700423240662,-0.0,-0.011883454397320747,0.8481321334838867,-0.0005474371137097478,-0.025789912790060043
434.0,598.0,1.1551,-0.8112,9.88,-0.0544,-0.0218,-0.0982,-1.8053375683226527,-1.1275496161755605e-11,3.000324010848999,-1.760477900505066,-5.009537926760907e-15,2.0485124588012695,4.946081372886457,-9.80908925027372e-45,0.27986204624176025,-1.5872896353351038,-0.0,-0.013338597491383553,0.7953861355781555,-0.0,0.00649624690413475,0.8480632305145264,-0.00039005832513794303,-0.03452344238758087
434.0,598.0,1.1551,-0.8112,9.88,-0.0544,-0.0218,-0.0982,-1.8053575954832972,-2.029549386894664e-15,2.999453067779541,-1.7604573965072632,-9.016992459863986e-19,2.0071253776550293,4.94611336567954,-0.0,0.2803925573825836,-1.5872896353351038,-0.0,-0.011780145578086376,0.7953780293464661,-0.0,0.008385853841900826,0.8480351567268372,-0.000347046967362985,-0.0018368978053331375
434.0,598.0,1.1551,-0.8112,9.88,-0.0544,-0.0218,-0.0982,-1.8053018055357875,-3.653117288790974e-19,3.0309464931488037,-1.7604695558547974,-1.623026660208718e-22,2.042771816253662,4.946085098176756,-0.0,0.28327417373657227,-1.5873220602618616,-0.0,-0.017287790775299072,0.795394241809845,-0.0,-0.021640416234731674,0.8480995893478394,-0.00010222725541098043,-0.03673352301120758
434.0,598.0,1.1551,-0.8112,9.88,-0.0544,-0.0218,-0.0982,-1.8053294620909632,-8.82184728030468e-25,3.010411024093628,-1.7605470418930054,-3.9194186223286594e-28,2.005126476287842,4.9461014596517465,-0.0,0.28230178356170654,-1.587306324635641,-0.0,-0.021055571734905243,0.795366108417511,-0.0,-0.007831083610653877,0.8481317162513733,-4.350440940470435e-05,0.0425085686147213
434.0,598.0,1.1551,-0.8112,9.88,-0.0544,-0.0218,-0.0982,-1.8053137264647425,-1.5879011927924608e-28,3.013335704803467,-1.7605429887771606,-7.054815157547569e-32,2.014969825744629,4.946097361832418,-0.0,0.2842358946800232,-1.5873382727252405,-0.0,-0.0073835402727127075,0.7953981757164001,-0.0,0.0027916477993130684,0.8481037020683289,-4.677217930293409e-06,-0.026725001633167267
438.0,633.0,0.9308,0.8136,9.4678,-0.0108,0.0397,-0.1217,-1.805345197717184,-2.8581660248824207e-32,3.0267043113708496,-1.7604820728302002,-1.2698418347861253e-35,2.039790630340576,4.946081387787618,-0.0,0.2734191417694092,-1.587302033101217,-0.0,-0.013876640237867832,0.7953421473503113,-0.0,-0.0035117925144732,0.848095715045929,-8.418826746847685e-10,0.02043587900698185
438.0,633.0,0.9308,0.8136,9.4678,-0.0108,0.0397,-0.1217,-1.8053933582701625,-6.902135943427659e-38,3.026050329208374,-1.760501742362976,-3.066461429481997e-41,1.9882599115371704,4.9460531053836725,-0.0,0.28606605529785156,-1.5872858206378382,-0.0,-0.00011808285489678383,0.7953739762306213,-0.0,-0.007167256437242031,0.8481197953224182,-2.0330476329668244e-15,-0.013083999045193195
438.0,633.0,0.9308,0.8136,9.4678,-0.0108,0.0397,-0.1217,-1.8053657017149867,-1.2423912184703828e-41,3.0446548461914062,-1.760501742362976,-5.605193857299268e-45,2.014397144317627,4.9460289804037,-0.0,0.2892490327358246,-1.5873106161700647,-0.0,-0.013428783044219017,0.7953822612762451,-0.0,-0.007804847322404385,0.8481560349464417,-3.659413684216151e-19,0.03693447634577751
438.0,633.0,0.9308,0.8136,9.4678,-0.0108,0.0397,-0.1217,-1.805361887017721,-0.0,3.0083811283111572,-1.760501742362976,-0.0,2.0116043090820312,4.946049037366667,-0.0,0.2803313136100769,-1.5873544851886194,-0.0,-0.014091510325670242,0.7953981757164001,-0.0,-0.006681475788354874,0.8481197953224182,-8.837053560328946e-25,-0.007632055319845676
438.0,633.0,0.9308,0.8136,9.4678,-0.0108,0.0397,-0.1217,-1.8053738079466761,0.0,3.0377275943756104,-1.7605584859848022,-0.0,2.015641450881958,4.946089598327436,-0.0,0.2876046597957611,-1.5872858206378382,-0.0,-0.012820457108318806,0.7953620553016663,-0.0,0.012180732563138008,0.8481235504150391,-1.5906384207259212e-28,-0.018231116235256195
438.0,633.0,0.9308,0.8136,9.4678,-0.0108,0.0397,-0.1217,-1.805349966088766,0.0,3.0231316089630127,-1.7605552673339844,-0.0,2.02445125579834,4.946089583426275,-0.0,0.2840504050254822,-1.5872939268695276,-0.0,-0.011899419128894806,0.7953660488128662,-0.0,-0.003044456709176302,0.8480632305145264,-2.8630928155803046e-32,0.0019895615987479687
438.0,633.0,0.9308,0.8136,9.4678,-0.0108,0.0397,-0.1217,-1.8053657017149867,0.0,3.034442901611328,-1.7605059146881104,-0.0,2.0184450149536133,4.946093278914251,-0.0,0.27568474411964417,-1.5873425642596644,-0.0,-0.015122786164283752,0.7954140305519104,-0.0,0.0032151304185390472,0.8480954766273499,-6.914032406870391e-38,-0.010137458331882954
438.0,633.0,0.9308,0.8136,9.4678,-0.0108,0.0397,-0.1217,-1.8053575954832972,0.0,3.0194640159606934,-1.7605140209197998,-0.0,2.017404556274414,4.946105646878042,-0.0,0.28208285570144653,-1.5872896353351038,-0.0,-0.02225172147154808,0.7953580021858215,-0.0,0.006647245958447456,0.8481519222259521,-1.24449316616687e-41,0.03156791999936104
438.0,633.0,0.9308,0.8136,9.4678,-0.0108,0.0397,-0.1217,-1.805345197717184,0.0,3.034003257751465,-1.760461449623108,-0.0,2.021592617034912,4.946093681245603,-0.0,0.2841288447380066,-1.5872939268695276,-0.0,-0.011996160261332989,0.7953858971595764,-0.0,0.012840434908866882,0.8480916619300842,-0.0,-0.002322673797607422
438.0,633.0,0.9308,0.8136,9.4678,-0.0108,0.0397,-0.1217,-1.8053413830199183,0.0,3.053297281265259,-1.7605905532836914,-0.0,2.0309224128723145,4.94607728996829,-0.0,0.2770707905292511,-1.5872939268695276,-0.0,-0.0222056582570076,0.7953739166259766,-0.0,-0.008604301139712334,0.8481194376945496,0.0,-0.012124411761760712
438.0,633.0,0.9308,0.8136,9.4678,-0.0108,0.0397,-0.1217,-1.8053294620909632,0.0,2.987842559814453,-1.7605304718017578,-0.0,2.023869514465332,4.946109670191564,-0.0,0.2780778110027313,-1.5872982184039515,-0.0,-0.021384645253419876,0.7954020500183105,-0.0,-0.00188831752166152,0.84808349609375,0.0,-0.0027397579979151487
438.0,633.0,0.9308,0.8136,9.4678,-0.0108,0.0397,-0.1217,-1.8053332767882289,0.0,3.0333313941955566,-1.760518193244934,-0.0,2.015566349029541,4.9460936961467645,-0.0,0.2824769616127014,-1.587306324635641,-0.0,-0.007816911675035954,0.7953700423240662,-0.0,0.006751437671482563,0.848071277141571,0.0,0.014698261395096779
438.0,633.0,0.9308,0.8136,9.4678,-0.0108,0.0397,-0.1217,-1.805349966088766,0.0,3.0506327152252197,-1.7604985237121582,-0.0,2.0081520080566406,4.946089598327436,-0.0,0.2780926823616028,-1.5872982184039515,-0.0,-0.009571618400514126,0.795350193977356,-0.0,-0.0015830289339646697,0.8480673432350159,0.0,0.003341503906995058
438.0,633.0,0.9308,0.8136,9.4678,-0.0108,0.0397,-0.1217,-1.8053814373412074,0.0,3.0112810134887695,-1.7604821920394897,-0.0,2.036667823791504,4.946081357985296,-0.0,0.28075045347213745,-1.587313477193014,-0.0,-0.012672720476984978,0.7953382134437561,-0.0,-0.005714563652873039,0.8480793833732605,0.0,-0.0032367052044719458
438.0,633.0,0.9308,0.8136,9.4678,-0.0108,0.0397,-0.1217,-1.8053413830199183,0.0,2.9744577407836914,-1.760518193244934,-0.0,2.0417537689208984,4.9461573390062235,8.77071070135571e-05,0.2986674904823303,-1.587334458027975,-0.0,-0.022382669150829315,0.795330286026001,-0.0,-0.006593312136828899,0.8480793833732605,0.0,-0.0017609531059861183
438.0,633.0,0.9308,0.8136,9.4678,-0.0108,0.0397,-0.1217,-1.805281778375143,0.0,3.0072875022888184,-1.760509967803955,-0.0,1.9833317995071411,4.946137118130483,0.000895282719284296,0.28127461671829224,-1.587313477193014,-0.0,-0.013533521443605423,0.7953660488128662,-0.0,-0.0174366794526577,0.8480995893478394,0.0,-0.04001767933368683
438.0,633.0,0.9308,0.8136,9.4678,-0.0108,0.0397,-0.1217,-1.8053332767882289,0.0,2.9779224395751953,-1.760502576828003,-0.0,2.0354623794555664,4.94617739596919,0.0018021304858848453,0.27651286125183105,-1.5873258749591272,-0.0,-0.016331978142261505,0.7953819632530212,-0.0,0.002440402749925852,0.8481157422065735,0.0,-0.04458320140838623
438.0,633.0,0.9308,0.8136,9.4678,-0.0108,0.0397,-0.1217,-1.8052693806090296,0.002441457472741604,3.0088319778442383,-1.7604622840881348,0.0008797511109150946,1.985673189163208,4.946148711233892,0.0016193992923945189,0.27379074692726135,-1.587330166493551,-0.0,-0.02105080336332321,0.7952784895896912,-0.0,-0.000623577565420419,0.8481437563896179,0.0,-0.035378798842430115
438.0,633.0,0.9308,0.8136,9.4678,-0.0108,0.0397,-0.1217,-1.805277486840719,0.006110780406743288,3.028454303741455,-1.7604384422302246,0.0018680078210309148,1.990836501121521,4.946132737189092,0.0008773717563599348,0.28282392024993896,-1.5873616377459925,-0.0,-0.003483736189082265,0.7953898906707764,-0.0,-0.00020278687588870525,0.8481075763702393,0.0,-0.006581923924386501
445.0,595.0,1.3412,0.2459,9.3631,-0.0099,-0.014,-0.1084,-1.8051930866637171,0.0065187388099730015,3.04697847366333,-1.7604426145553589,0.0030915725510567427,2.0065758228302,4.946156951576032,0.0006616614991798997,0.28824496269226074,-1.5873940626727503,-0.0,-0.007095860317349434,0.795326292514801,-0.0,-0.0008483983110636473,0.8481432199478149,5.88220646022819e-05,-0.04570808261632919
445.0,595.0,1.3412,0.2459,9.3631,-0.0099,-0.014,-0.1084,-1.8051654301085414,0.005657172296196222,3.022080421447754,-1.7605067491531372,0.004242291674017906,2.0360107421875,4.946161049395361,0.0005312380963005126,0.2943514585494995,-1.5873540083514612,-0.0,-0.029674993827939034,0.7953580617904663,-0.0,0.0088585764169693,0.8480995893478394,8.409594011027366e-05,-0.029000669717788696
445.0,595.0,1.3412,0.2459,9.3631,-0.0099,-0.014,-0.1084,-1.8051611385741175,0.0031869506929069757,3.071779489517212,-1.7604186534881592,0.0031592673622071743,2.0118765830993652,4.946105140238561,0.0003423976886551827,0.27909108996391296,-1.5873740355121058,-0.0,-0.0091674430295825,0.7953981757164001,-0.0,0.0036113872192800045,0.8481355905532837,0.0008305464871227741,0.010180054232478142
445.0,595.0,1.3412,0.2459,9.3631,-0.0099,-0.014,-0.1084,-1.805157323876852,0.001406532246619463,3.056750535964966,-1.7604228258132935,0.0016513423761352897,1.993351697921753,4.946140962630071,0.0002966489992104471,0.2848083972930908,-1.5873616377459925,-0.0,-0.027641817927360535,0.7953901290893555,-0.0,-0.0070119802840054035,0.8481433391571045,0.0008441358804702759,0.0016524065285921097
445.0,595.0,1.3412,0.2459,9.3631,-0.0099,-0.014,-0.1084,-1.8051697216429652,-9.83122517936863e-05,2.9879164695739746,-1.7604260444641113,0.0005737369647249579,1.9926401376724243,4.9461450455482385,0.00024764641420915723,0.29000821709632874,-1.5873659292804163,-0.0,-0.020248468965291977,0.7953660488128662,-0.0,-0.013358809053897858,0.8482444286346436,0.0009157384629361331,0.030440591275691986
445.0,595.0,1.3412,0.2459,9.3631,-0.0099,-0.014,-0.1084,-1.8052131138243617,-0.0002769628190435469,3.034435272216797,-1.760438323020935,0.0004347829381003976,2.004502296447754,4.946129041701116,0.00022308464394882321,0.2849355638027191,-1.587397877370016,-0.0,-0.016691720113158226,0.7954334616661072,-0.0,0.00036769756115972996,0.8482034206390381,0.0012311874888837337,0.007625618949532509
445.0,595.0,1.3412,0.2459,9.3631,-0.0099,-0.014,-0.1084,-1.8052054844298304,-0.00021176956943236291,3.042773723602295,-1.7604671716690063,0.0003501539467833936,2.028331995010376,4.946153107076444,0.0001677909167483449,0.28971582651138306,-1.5873296896563929,-0.0,-0.023028159514069557,0.7954216003417969,-0.0,-9.173090802505612e-06,0.8481593132019043,0.001375749590806663,0.04642409458756447
445.0,595.0,1.3412,0.2459,9.3631,-0.0099,-0.014,-0.1084,-1.8052131138243617,-0.00023145446903072298,3.1188364028930664,-1.7604221105575562,0.0002042621636064723,2.019698143005371,4.9461450455482385,0.00014301219198387116,0.282575786113739,-1.5873296896563929,-0.0,-0.014705035835504532,0.7954374551773071,-0.0,0.007072040345519781,0.8482239246368408,0.0018496327102184296,0.052966587245464325
445.0,595.0,1.3412,0.2459,9.3631,-0.0099,-0.014,-0.1084,-1.8052250347533167,-0.00019996937771793455,3.0169382095336914,-1.7604179382324219,0.0001766867790138349,1.9973573684692383,4.946161407023229,0.00011625827028183267,0.2720028758049011,-1.5873459021197718,-0.0,-0.01404996681958437,0.7953981757164001,-0.0,-0.010758829303085804,0.8482155203819275,0.0023180823773145676,0.008152680471539497
445.0,595.0,1.3412,0.2459,9.3631,-0.0099,-0.014,-0.1084,-1.805209299127096,-0.00017416608170606196,3.0591773986816406,-1.7604179382324219,-0.00011311264825053513,1.998653531074524,4.9461412755544565,9.262167441193014e-05,0.2894716262817383,-1.5873296896563929,-0.0,-0.017809554934501648,0.7953382730484009,-0.0,0.0027297050692141056,0.8482967019081116,0.0035230994690209627,-0.021224863827228546
445.0,595.0,1.3412,0.2459,9.3631,-0.0099,-0.014,-0.1084,-1.8051773510374964,-9.729193698149174e-05,3.0379838943481445,-1.7604550123214722,-9.52076879912056e-05,2.0000967979431152,4.9461331246192834,8.3919134340249e-05,0.2842905521392822,-1.5873740355121058,-0.0,-0.01710701361298561,0.7954176068305969,-0.0,-0.0017235493287444115,0.8483045101165771,0.004258754663169384,0.10416071116924286
445.0,595.0,1.3412,0.2459,9.3631,-0.0099,-0.014,-0.1084,-1.8052131138243617,-8.779136987868696e-05,3.0567171573638916,-1.76038658618927,-4.305797119741328e-05,2.0045909881591797,4.946137118130483,7.900733908172697e-05,0.29289156198501587,-1.5873616377459925,-0.0,-0.010684900917112827,0.7954216003417969,-0.0,-0.019081028178334236,0.8482959866523743,0.004113538656383753,0.018719660118222237
445.0,595.0,1.3412,0.2459,9.3631,-0.0099,-0.014,-0.1084,-1.8051816425719203,-7.658483809791505e-05,3.0375759601593018,-1.7604631185531616,-3.764682696782984e-05,2.0192129611968994,4.9461174485977075,7.263094448717311e-05,0.2709687650203705,-1.5873621145831507,-0.0,-0.010713422670960426,0.795350193977356,-0.0,-0.002364915329962969,0.8482959866523743,0.002884088782593608,0.018303493037819862
445.0,595.0,1.3412,0.2459,9.3631,-0.0099,-0.014,-0.1084,-1.8052054844298304,-7.057861512294039e-05,3.027280807495117,-1.7604424953460693,-3.4740289265755564e-05,2.0242533683776855,4.946069153934278,-6.874390237499028e-05,0.27308744192123413,-1.5873621145831507,-0.0,-0.020830653607845306,0.795362114906311,-0.0,-0.0028583682142198086,0.8483238816261292,0.0018438063561916351,-0.012081163004040718
445.0,595.0,1.3412,0.2459,9.3631,-0.0099,-0.014,-0.1084,-1.8052212200560511,-9.815044177230448e-05,2.977522850036621,-1.7603950500488281,-6.486331403721124e-05,2.0189294815063477,4.94609326401309,-0.0006332406192086637,0.2918044328689575,-1.5873621145831507,-0.0,-0.018986856564879417,0.7954020500183105,-0.0,-0.002375153824687004,0.8483238816261292,0.0013297350378707051,0.00702818064019084
445.0,595.0,1.3412,0.2459,9.3631,-0.0099,-0.014,-0.1084,-1.805265565911764,-0.00014745551743544638,3.0719351768493652,-1.76045823097229,-0.00015994245768524706,2.0149197578430176,4.946029010206022,-0.0011007372522726655,0.27520516514778137,-1.5873139540301722,-0.0,-0.01635223627090454,0.7953699827194214,-0.0,-0.00872175581753254,0.8482995629310608,0.0008553331717848778,-0.02776985429227352
445.0,595.0,1.3412,0.2459,9.3631,-0.0099,-0.014,-0.1084,-1.8052894077696742,-0.00024990091333165765,3.038698196411133,-1.7604384422302246,-0.00019068138499278575,1.9796664714813232,4.946069124131956,-0.0008940965053625405,0.2808474004268646,-1.58734637895693,-0.0,-0.02179299294948578,0.7954814434051514,-0.0,-0.006786740384995937,0.8483118414878845,0.0006151707493700087,-0.039901189506053925
445.0,595.0,1.3412,0.2459,9.3631,-0.0099,-0.014,-0.1084,-1.8052212200560511,-0.0020810181740671396,2.989626169204712,-1.7605311870574951,-0.0005482726846821606,2.031388282775879,4.946041258960523,-0.0007253971416503191,0.2794821262359619,-1.5873778502093714,-0.0,-0.010328994132578373,0.7954100370407104,-0.0,-0.013532420620322227,0.8483198285102844,0.0004694464150816202,-0.032155804336071014
445.0,595.0,1.3412,0.2459,9.3631,-0.0099,-0.014,-0.1084,-1.8052894077696742,-0.0020071223843842745,2.99971866607666,-1.7604342699050903,-0.0006077503203414381,2.0531485080718994,4.946033435850897,-0.0007043365621939301,0.2762702703475952,-1.5873377958880823,-0.0,-0.010058088228106499,0.7954176068305969,-0.0,-0.002084421692416072,0.8482877016067505,0.0004085468244738877,-0.016622086986899376
441.0,620.0,0.7795,0.3069,9.3368,-0.0308,0.0473,-0.1109,-1.8052731953062953,-0.0019399451557546854,3.0622000694274902,-1.760461449623108,-0.0008556438842788339,1.985213279724121,4.946045356779852,-0.0005175645346753299,0.28464648127555847,-1.5873621145831507,-0.0,-0.010901758447289467,0.7953699827194214,-0.0,-0.0026289408560842276,0.848315954208374,0.00036163488402962685,0.007491200231015682
441.0,620.0,0.7795,0.3069,9.3368,-0.0308,0.0473,-0.1109,-1.8053375683226527,-0.0015292343450710177,3.031440019607544,-1.7604663372039795,-0.0005809279973618686,2.0018396377563477,4.94610561707572,-0.00045351244625635445,0.2812013626098633,-1.5873420874225062,-0.0,-0.0015639814082533121,0.7953819632530212,-0.0,-0.00802665762603283,0.848267674446106,9.604195656720549e-05,0.020921871066093445
441.0,620.0,0.7795,0.3069,9.3368,-0.0308,0.0473,-0.1109,-1.8053413830199183,-0.0011494663776829839,3.0559046268463135,-1.7604384422302246,-0.000478027097415179,2.006915330886841,4.946077796607771,-0.0004526526608970016,0.2697380781173706,-1.5873220602618616,-0.0,-0.02476660907268524,0.7954020500183105,-0.0,0.0019546467810869217,0.8482838273048401,8.593367238063365e-05,0.05971501022577286
441.0,620.0,0.7795,0.3069,9.3368,-0.0308,0.0473,-0.1109,-1.8053094349303187,-0.000781018054112792,3.0391347408294678,-1.7604302167892456,-0.00037769271875731647,2.043231725692749,4.946033420949735,-0.0003727703879121691,0.27936995029449463,-1.5873339811908167,-0.0,-0.020024843513965607,0.7953780293464661,-0.0,-0.014268064871430397,0.848267674446106,7.516697223763913e-05,0.032208725810050964
441.0,620.0,0.7795,0.3069,9.3368,-0.0308,0.0473,-0.1109,-1.8053256473936976,-0.0006056723650544882,3.084749221801758,-1.7604705095291138,-0.00033133436227217317,1.9978079795837402,4.946057665138998,-0.00033331065787933767,0.2746540904045105,-1.5873258749591272,-0.0,-0.006924949586391449,0.7954139709472656,-0.0,0.0011922994162887335,0.8483321070671082,6.937271973583847e-05,0.026948856189846992
441.0,620.0,0.7795,0.3069,9.3368,-0.0308,0.0473,-0.1109,-1.805293699304098,-0.0004946521366946399,3.026690721511841,-1.7604260444641113,-0.00029511319007724524,2.0206849575042725,4.946021216898718,-0.00030140727176330984,0.27795785665512085,-1.5872939268695276,-0.0,-0.018074922263622284,0.7954418659210205,-0.0,0.006167207378894091,0.8482756018638611,6.440793367801234e-05,0.010247312486171722
441.0,620.0,0.7795,0.3069,9.3368,-0.0308,0.0473,-0.1109,-1.805305620233053,-0.0003879935247823596,2.9886231422424316,-1.7604467868804932,-0.00021130901586730033,2.02270245552063,4.946057277708807,-0.00026356964372098446,0.2918384075164795,-1.5873902479754847,-0.0,-0.020879331976175308,0.7953861951828003,-0.0,-0.012553363107144833,0.848259449005127,5.8163957874057814e-05,-0.005535012576729059
441.0,620.0,0.7795,0.3069,9.3368,-0.0308,0.0473,-0.1109,-1.805281778375143,-0.000339233927661553,3.000473976135254,-1.7604343891143799,-0.00016780364967416972,1.9931938648223877,4.946065443545141,-0.00024321494856849313,0.2869585156440735,-1.5873420874225062,-0.0,-0.017874639481306076,0.7954334616661072,-0.0,-0.01315438561141491,0.848307728767395,5.4633215768262744e-05,-0.026868466287851334
441.0,620.0,0.7795,0.3069,9.3368,-0.0308,0.0473,-0.1109,-1.8053175411620082,-0.0002854335180018097,2.9892725944519043,-1.7604663372039795,-0.00010405571083538234,2.0349791049957275,4.946097793966093,-0.00021796701184939593,0.27507704496383667,-1.5873296896563929,-0.0,-0.008832599967718124,0.795362114906311,-0.0,-0.009904486127197742,0.8482756018638611,5.0073642341885716e-05,-0.027028188109397888
441.0,620.0,0.7795,0.3069,9.3368,-0.0308,0.0473,-0.1109,-1.8053533039488734,-0.00030055755632929504,3.0049386024475098,-1.760459065437317,-9.541105828247964e-05,2.0134620666503906,4.946029338031568,-0.00020385907555464655,0.2940131425857544,-1.5873420874225062,-0.0,-0.012235397472977638,0.795394241809845,-0.0,-0.01036987453699112,0.848283588886261,4.743448880617507e-05,0.02950611151754856
441.0,620.0,0.7795,0.3069,9.3368,-0.0308,0.0473,-0.1109,-1.805333753625387,-0.0003135987790301442,3.0113070011138916,-1.76045823097229,-8.911250188248232e-05,2.0397069454193115,4.946061360626974,-0.00021697678312193602,0.28335532546043396,-1.5873177687274378,-0.0,0.0007136943750083447,0.7954615950584412,-0.0,0.008090026676654816,0.8483321070671082,4.505957986111753e-05,0.01003235299140215
441.0,620.0,0.7795,0.3069,9.3368,-0.0308,0.0473,-0.1109,-1.8053537807860316,-0.001409925171174109,2.998223304748535,-1.7605149745941162,-8.108418842311949e-05,2.069767951965332,4.946069124131956,-0.00020053370099049062,0.2724081873893738,-1.5873258749591272,-0.0,-0.016156719997525215,0.7953861951828003,-0.0,-0.0010988799622282386,0.8482877016067505,4.1912091546691954e-05,-0.029511306434869766
441.0,620.0,0.7795,0.3069,9.3368,-0.0308,0.0473,-0.1109,-1.80540194133901,-0.003108611097559333,3.0536723136901855,-1.7604745626449585,4.264719245838933e-05,2.0285463333129883,4.946061360626974,-0.00018995236314367503,0.28023791313171387,-1.5873258749591272,-0.0,-0.01017079409211874,0.7954020500183105,-0.0,-0.00656990148127079,0.8482999801635742,4.0047110815066844e-05,0.018879663199186325
441.0,620.0,0.7795,0.3069,9.3368,-0.0308,0.0473,-0.1109,-1.8053976498045863,-0.006585621740669012,3.048283100128174,-1.7604302167892456,7.989475125214085e-05,2.027520179748535,4.946033435850897,-0.0001760198938427493,0.29084688425064087,-1.587358299885885,-0.0,-0.0002359237987548113,0.7953978776931763,-0.0,0.0010988670401275158,0.8482756018638611,3.754142744583078e-05,0.017723560333251953
441.0,620.0,0.7795,0.3069,9.3368,-0.0308,0.0473,-0.1109,-1.805469652215475,-0.00829209666699171,3.0055792331695557,-1.7604737281799316,7.554332842119038e-05,2.0437746047973633,4.946029367833891,-0.00013045874948147684,0.2987622022628784,-1.5873220602618616,-0.0,-0.010673772543668747,0.7954374551773071,-0.0,-0.0022238222882151604,0.8483040928840637,3.603814184316434e-05,-0.016430016607046127
441.0,620.0,0.7795,0.3069,9.3368,-0.0308,0.0473,-0.1109,-1.8054901562132777,-0.009119920432567596,2.9585461616516113,-1.7604342699050903,9.534812124911696e-05,2.0527358055114746,4.9460855452115915,-0.00012273860920686275,0.29132241010665894,-1.587313477193014,-0.0,0.0015735215274617076,0.7954577207565308,-0.0,0.0031955144368112087,0.8482756018638611,3.4650696761673316e-05,-0.01237089466303587
441.0,620.0,0.7795,0.3069,9.3368,-0.0308,0.0473,-0.1109,-1.8056065044798792,-0.009850422851741314,2.925168991088867,-1.7604900598526,8.836298366077244e-05,2.0443315505981445,4.946057680040159,-0.00011345257371431217,0.27702969312667847,-1.5873096624957483,-0.0,0.009508953429758549,0.7954298853874207,-0.0,-0.006988790351897478,0.8483198285102844,3.2758824090706185e-05,-0.000757254078052938
441.0,620.0,0.7795,0.3069,9.3368,-0.0308,0.0473,-0.1109,-1.8056866131224574,-0.010782226920127869,2.9732823371887207,-1.7604589462280273,8.422825339948758e-05,2.0586395263671875,4.946005183249273,-0.00016028271056711674,0.26929354667663574,-1.5872896353351038,-0.0,0.017508644610643387,0.7954378128051758,-0.0,0.0019949255511164665,0.8482674360275269,4.7403871576534584e-05,-0.03399423137307167
441.0,620.0,0.7795,0.3069,9.3368,-0.0308,0.0473,-0.1109,-1.8056942425169886,-0.0113525390625,2.9614644050598145,-1.7604178190231323,0.00012390624033287168,1.9760421514511108,4.946058037668028,-0.0005694848368875682,0.2742292284965515,-1.5873106161700647,-0.0,0.012897532433271408,0.7953982353210449,-0.0,-0.0010943266097456217,0.848339855670929,6.046225826139562e-05,-0.020551465451717377
444.0,643.0,1.584,0.9452,9.4349,-0.0321,0.0122,-0.1356,-1.8057824573912562,-0.013164034113287926,2.8566994667053223,-1.7603909969329834,0.0001027535181492567,2.014648675918579,4.946017521410742,-0.002325616776943207,0.27013343572616577,-1.5873177687274378,-0.0,-0.0010588926961645484,0.7953862547874451,-1.7390986783993867e-07,0.019707517698407173,0.8483644127845764,7.451100827893242e-05,-0.06005494296550751
444.0,643.0,1.584,0.9452,9.4349,-0.0321,0.0122,-0.1356,-1.8058225117125453,-0.01424054428935051,2.934760093688965,-1.7604219913482666,9.22231120057404e-05,1.9727057218551636,4.946005615382948,-0.002686726627871394,0.27294960618019104,-1.587313477193014,-0.0,0.0018065858166664839,0.7954136729240417,-7.414051039766889e-10,0.0025916933082044125,0.8483313322067261,0.0012510186061263084,-0.15825530886650085
444.0,643.0,1.584,0.9452,9.4349,-0.0321,0.0122,-0.1356,-1.8059140644469203,-0.01369721069931984,2.87530517578125,-1.7604705095291138,7.993541657924652e-05,2.0330450534820557,4.945953163295545,-0.003831981448456645,0.26325345039367676,-1.587302033101217,-0.0,0.027041995897889137,0.7954133152961731,-2.063728419925137e-13,0.006078941747546196,0.8484046459197998,0.0019905862864106894,-0.12831473350524902
444.0,643.0,1.584,0.9452,9.4349,-0.0321,0.0122,-0.1356,-1.8059421978392542,-0.01203619223088026,2.930978298187256,-1.7603942155838013,7.34147397452034e-05,1.9969732761383057,4.9459251938159845,-0.005523676984012127,0.26356932520866394,-1.58734637895693,-0.0,0.0032132272608578205,0.7954497337341309,-8.797996756650041e-16,0.010842256247997284,0.8483877182006836,0.00244503584690392,-0.04460187256336212
444.0,643.0,1.584,0.9452,9.4349,-0.0321,0.0122,-0.1356,-1.8059741459288539,-0.010333267040550709,2.8801259994506836,-1.7604777812957764,6.787756137782708e-05,2.039698362350464,4.945897701173582,-0.006659605540335178,0.2527945339679718,-1.5872982184039515,-0.0,0.015285145491361618,0.7954259514808655,-3.750723928987983e-18,0.011310725472867489,0.848395824432373,0.002206276636570692,-0.10442657768726349
444.0,643.0,1.584,0.9452,9.4349,-0.0321,0.0122,-0.1356,-1.8060466251769007,-0.007292486727237701,2.8903603553771973,-1.7604260444641113,9.146748925559223e-05,2.016796112060547,4.9459058968122385,-0.0057114502415061,0.2679358422756195,-1.587273899708883,-0.0,0.015410272404551506,0.7953901886940002,-1.0440277468899728e-21,0.01434989832341671,0.8484122157096863,0.0016888004029169679,-0.08662214875221252
444.0,643.0,1.584,0.9452,9.4349,-0.0321,0.0122,-0.1356,-1.8060504398741664,-0.005313561763614416,2.8948545455932617,-1.7604137659072876,8.566402539145201e-05,2.0279321670532227,4.945914196759023,-0.0037635485641658306,0.271596759557724,-1.5872815291034144,-0.0,0.014552876353263855,0.7954981327056885,-4.450853412591912e-24,0.014227477833628654,0.848436176776886,0.0012016264954581857,-0.08299972116947174
444.0,643.0,1.584,0.9452,9.4349,-0.0321,0.0122,-0.1356,-1.8061105213561,-0.004094094503670931,2.9005990028381348,-1.7604424953460693,7.821881445124745e-05,2.01155424118042,4.945918220072546,-0.0016988295828923583,0.2523878216743469,-1.5873106161700647,-0.0,0.021587064489722252,0.7954419851303101,-1.2389116368464378e-27,0.003271154360845685,0.8484240770339966,0.0008001672104001045,-0.05968915671110153
444.0,643.0,1.584,0.9452,9.4349,-0.0321,0.0122,-0.1356,-1.8061229191222132,-0.0042714932933449745,2.917262077331543,-1.7604302167892456,7.39350653020665e-05,2.030855894088745,4.945869508176603,-0.0011520225089043379,0.24849209189414978,-1.5872777144061487,-0.0,0.016277505084872246,0.7954054474830627,-5.2816744172276705e-30,0.009406954050064087,0.8484160304069519,0.0004474543675314635,-0.08367747813463211
444.0,643.0,1.584,0.9452,9.4349,-0.0321,0.0122,-0.1356,-1.8061229191222132,-0.004423458594828844,2.888322591781616,-1.7604631185531616,7.009610999375582e-05,2.045182943344116,4.945861372142591,-0.0008720618207007647,0.2496163249015808,-1.587330166493551,0.00012465337931644171,0.013130598701536655,0.7954054474830627,-2.2516606044944425e-32,-0.0023136879317462444,0.8483717441558838,0.00025468034436926246,-0.10999683290719986
444.0,643.0,1.584,0.9452,9.4349,-0.0321,0.0122,-0.1356,-1.806190629998678,-0.005506180692464113,2.861096143722534,-1.7604631185531616,6.503114127554e-05,2.017451286315918,4.945934283524313,-0.0006393607473000884,0.257627010345459,-1.5872896353351038,0.00012143050116719678,0.02907809056341648,0.7954096794128418,-6.267579614748006e-36,-0.004472719039767981,0.8483476042747498,-0.00031697694794274867,-0.10612845420837402
444.0,643.0,1.584,0.9452,9.4349,-0.0321,0.0122,-0.1356,-1.806223054925436,-0.0057821557857096195,2.880638599395752,-1.760390043258667,6.204250530572608e-05,2.0291290283203125,4.945893767267027,-0.0005428590229712427,0.24565234780311584,-1.5873177687274378,0.00013785673945676535,0.03463917225599289,0.7954419851303101,-2.671967605545582e-38,0.01781512424349785,0.8483152985572815,-0.0012040045112371445,-0.1214570552110672
444.0,643.0,1.584,0.9452,9.4349,-0.0321,0.0122,-0.1356,-1.8062511883177699,-0.007375430781394243,2.8548734188079834,-1.7604426145553589,5.658455120283179e-05,2.048074245452881,4.945914166956701,-0.00044266777695156634,0.24099284410476685,-1.5873106161700647,0.00014960512635298073,0.02497480809688568,0.7954457998275757,-7.438092248636129e-42,0.009013012982904911,0.8482795357704163,-0.0018595345318317413,-0.11475414782762527
444.0,643.0,1.584,0.9452,9.4349,-0.0321,0.0122,-0.1356,-1.8062788448729457,-0.006439101416617632,2.8471217155456543,-1.7604384422302246,5.079082984593697e-05,2.005875825881958,4.9458698509033105,-0.00039417811785824597,0.24684365093708038,-1.5872815291034144,0.0001581403485033661,0.03814582899212837,0.795478105545044,-3.2229864679470793e-44,0.013611690141260624,0.8483610153198242,-0.002571557182818651,-0.1656988561153412
444.0,643.0,1.584,0.9452,9.4349,-0.0321,0.0122,-0.1356,-1.8062745533385218,-0.006578052416443825,2.901823043823242,-1.760406494140625,7.207682210719213e-05,2.0339229106903076,4.945905956416883,-0.00026556747616268694,0.24178755283355713,-1.5872533957110804,0.0002498319372534752,0.023535264655947685,0.7954419255256653,-0.0,0.011989593505859375,0.8483198285102844,-0.0026028594002127647,-0.1261647343635559
444.0,643.0,1.584,0.9452,9.4349,-0.0321,0.0122,-0.1356,-1.806331296960348,-0.004739524330943823,2.8513379096984863,-1.7604260444641113,6.676586781395599e-05,2.004690170288086,4.945921915560522,-0.00023216617410071194,0.2390802800655365,-1.5872982184039515,0.0003943124902434647,0.024585334584116936,0.7954698204994202,-0.0,0.008741246536374092,0.8482634425163269,-0.002836808795109391,-0.1804860681295395
444.0,643.0,1.584,0.9452,9.4349,-0.0321,0.0122,-0.1356,-1.806319376031393,-0.004155523609369993,2.8448638916015625,-1.7604105472564697,0.00010354303958592936,1.9980367422103882,4.945910069137373,-0.000222662347368896,0.2540781795978546,-1.5873144308673304,0.000803355302195996,0.03669852763414383,0.7954214811325073,-0.0,0.011643709614872932,0.8482882380485535,-0.002780285896733403,-0.17515738308429718
444.0,643.0,1.584,0.9452,9.4349,-0.0321,0.0122,-0.1356,-1.8063270054259242,-0.003121881280094385,2.8526973724365234,-1.7604146003723145,0.0005472933407872915,2.0417070388793945,4.945910143643179,-0.00023091514594852924,0.23598575592041016,-1.587261978779928,0.0008562614675611258,0.03799761086702347,0.7954378128051758,-0.0,-0.0010514699388295412,0.8482033610343933,-0.002689305692911148,-0.20227497816085815
444.0,643.0,1.584,0.9452,9.4349,-0.0321,0.0122,-0.1356,-1.8063389263548792,-0.002329461509361863,2.8619956970214844,-1.7603825330734253,0.0015783858252689242,2.0354273319244385,4.945857557445326,-0.00021539862791541964,0.2440667748451233,-1.5872939268695276,0.0008060938562266529,0.053119391202926636,0.7954739928245544,-0.0,0.009974376298487186,0.8481952548027039,-0.00280204089358449,-0.21426606178283691
444.0,643.0,1.584,0.9452,9.4349,-0.0321,0.0122,-0.1356,-1.8063389263548792,-0.0019395912531763315,2.8291776180267334,-1.7603907585144043,0.0021261631045490503,2.0579111576080322,4.945905926614561,-0.00020161204156465828,0.22947978973388672,-1.587290112172262,0.0007158107473514974,0.045411378145217896,0.7954575419425964,-0.0,0.01392330601811409,0.8481512069702148,-0.0035780237521976233,-0.18163225054740906
444.0,621.0,0.9188,-0.1418,9.5456,-0.0431,0.0121,-0.1145,-1.8063551388182582,-0.0018669675337150693,2.849776268005371,-1.7603379487991333,0.0031221655663102865,1.984600305557251,4.945930170803823,-0.00018395044025965035,0.23459389805793762,-1.5872862974749964,0.0005975409294478595,0.04615255817770958,0.7954337000846863,-0.0,0.007000071927905083,0.8481512069702148,-0.0045042322017252445,-0.19524964690208435
444.0,621.0,0.9188,-0.1418,9.5456,-0.0431,0.0121,-0.1145,-1.8063551388182582,-0.0019300763960927725,2.798379898071289,-1.7603338956832886,0.0036521409638226032,2.0806140899658203,4.945914181857862,-0.00017380010103806853,0.24114394187927246,-1.587302033101217,0.0005022185505367815,0.058206330984830856,0.7954378128051758,-0.0,0.018576977774500847,0.8481724262237549,-0.006178203038871288,-0.24185369908809662
444.0,621.0,0.9188,-0.1418,9.5456,-0.0431,0.0121,-0.1145,-1.8063909016051234,-0.002344130538403988,2.8422651290893555,-1.7603182792663574,0.003426378360018134,2.054863214492798,4.945885497122564,-0.00016051475540734828,0.23834851384162903,-1.5872862974749964,0.0004052362637594342,0.045223649591207504,0.7954456210136414,-0.0,0.01734175533056259,0.8481482863426208,-0.00650235079228878,-0.1953926384449005
444.0,621.0,0.9188,-0.1418,9.5456,-0.0431,0.0121,-0.1145,-1.8063551388182582,-0.0025001021567732096,2.84716534614563,-1.7603068351745605,0.00350334495306015,2.0300889015197754,4.945905956416883,-0.0001527315762359649,0.23065006732940674,-1.587290112172262,0.00035902642412111163,0.04070386663079262,0.7954174280166626,-0.0,0.016957005485892296,0.8480875492095947,-0.005793580785393715,-0.20270000398159027
444.0,621.0,0.9188,-0.1418,9.5456,-0.0431,0.0121,-0.1145,-1.8064514599242152,-0.0028792943339794874,2.7804312705993652,-1.7603232860565186,0.003391218138858676,2.065556049346924,4.945910084038534,-0.00014566848403774202,0.23943185806274414,-1.5873187224017542,0.0003222799568902701,0.04125342518091202,0.7954776287078857,-0.0,0.02056475728750229,0.8480797410011292,-0.004886495415121317,-0.1867855042219162
444.0,621.0,0.9188,-0.1418,9.5456,-0.0431,0.0121,-0.1145,-1.8063789806761683,-0.0026965078432112932,2.82987380027771,-1.7603356838226318,0.003807289758697152,2.0579190254211426,4.945921915560522,-0.00013621912512462586,0.24014043807983398,-1.587261978779928,0.0002793910098262131,0.03442196175456047,0.7954740524291992,-0.0,0.02754872292280197,0.8480720520019531,-0.004611019045114517,-0.2232699990272522
444.0,621.0,0.9188,-0.1418,9.5456,-0.0431,0.0121,-0.1145,-1.806467195550436,-0.0024104684125632048,2.780587673187256,-1.7602829933166504,0.0043561323545873165,2.0588648319244385,4.945921915560522,-0.00013057247269898653,0.23129504919052124,-1.5872858206378382,0.0002566234325058758,0.014465046115219593,0.7954419851303101,-0.0,0.005923180840909481,0.8480439186096191,-0.003950692713260651,-0.1857815384864807
444.0,621.0,0.9188,-0.1418,9.5456,-0.0431,0.0121,-0.1145,-1.806467195550436,-0.002169534796848893,2.790088415145874,-1.7602272033691406,0.004924785811454058,2.007829189300537,4.945897835284033,-0.00012537521251942962,0.2413337081670761,-1.587330166493551,0.00023728919040877372,0.032641634345054626,0.7954940795898438,-0.0,0.018784254789352417,0.8480232954025269,-0.002755148336291313,-0.17436081171035767
444.0,621.0,0.9188,-0.1418,9.5456,-0.0431,0.0121,-0.1145,-1.806450983087057,-0.002383876359090209,2.8326964378356934,-1.7602022886276245,0.0050558955408632755,2.0964648723602295,4.945889580040731,-0.00011831158917630091,0.2313883900642395,-1.5872896353351038,8.130469359457493e-05,0.035256464034318924,0.7954378128051758,-0.0,0.010807376354932785,0.8479993939399719,-0.0014580944553017616,-0.14415857195854187
444.0,621.0,0.9188,-0.1418,9.5456,-0.0431,0.0121,-0.1145,-1.8065034351744593,-0.003154262201860547,2.7813518047332764,-1.7602031230926514,0.004783604294061661,2.0545098781585693,4.945885512023725,-0.00011402885138522834,0.23077747225761414,-1.587306324635641,6.648543057963252e-05,0.016425279900431633,0.7954456806182861,-0.0,0.019012313336133957,0.8480032682418823,-0.0008097763638943434,-0.11901012808084488
444.0,621.0,0.9188,-0.1418,9.5456,-0.0431,0.0121,-0.1145,-1.8065115414061488,-0.0037531976122409105,2.8075919151306152,-1.7601752281188965,0.003969510085880756,2.0055930614471436,4.945910084038534,-0.00010815605492098257,0.24980558454990387,-1.587313477193014,3.093959094258025e-05,0.020775306969881058,0.7954616546630859,-0.0,0.04125859588384628,0.8480356335639954,-0.0005171489901840687,-0.07933153212070465
444.0,621.0,0.9188,-0.1418,9.5456,-0.0431,0.0121,-0.1145,-1.80651917080068,-0.004627050366252661,2.8073034286499023,-1.7601628303527832,0.00378349213860929,2.0465786457061768,4.945921915560522,-0.00010456565360073,0.24951213598251343,-1.5873258749591272,3.713357045853627e-06,0.018129654228687286,0.795473575592041,-0.0,0.020037200301885605,0.8480397462844849,-0.0003367980825714767,-0.11682397872209549
444.0,621.0,0.9188,-0.1418,9.5456,-0.0431,0.0121,-0.1145,-1.8065358601012171,-0.0054762656800448895,2.762887477874756,-1.7601028680801392,0.0037953259889036417,2.0069026947021484,4.945917832642355,-0.00010120612569153309,0.23955604434013367,-1.5873177687274378,1.5830623922852283e-08,0.010597143322229385,0.7953973412513733,-0.0,0.00553914625197649,0.8480720520019531,-0.0002150612126570195,-0.10074615478515625
444.0,621.0,0.9188,-0.1418,9.5456,-0.0431,0.0121,-0.1145,-1.8065792522826136,-0.0066390992142260075,2.7854695320129395,-1.7600542306900024,0.0044571044854819775,2.0449509620666504,4.9459059117134,-0.00010679430124582723,0.23719266057014465,-1.587334458027975,4.40651248129198e-12,0.0063232481479644775,0.7955099940299988,-0.0,0.025226077064871788,0.8480638265609741,0.00026153342332690954,-0.02112710475921631
444.0,621.0,0.9188,-0.1418,9.5456,-0.0431,0.0121,-0.1145,-1.8066321812071742,-0.00665136007592082,2.781705379486084,-1.7601356506347656,0.004497750662267208,2.0608136653900146,4.9458937523658655,-0.00010704928718041629,0.2483682632446289,-1.5873540083514612,1.8785652558268168e-14,-0.01094718649983406,0.795433759689331,-0.0,0.02482568472623825,0.8480314612388611,0.0002862468536477536,-0.04094793647527695
444.0,621.0,0.9188,-0.1418,9.5456,-0.0431,0.0121,-0.1145,-1.8066274128355921,-0.007111764047294855,2.739166021347046,-1.7600510120391846,0.004603437148034573,1.9887065887451172,4.945857557445326,-8.804509707260877e-05,0.2405552715063095,-1.5873821417437952,-0.0006096531869843602,-0.01680975966155529,0.7954534292221069,-0.0,0.02176889404654503,0.848087728023529,0.0006663231179118156,0.04049086198210716
444.0,621.0,0.9188,-0.1418,9.5456,-0.0431,0.0121,-0.1145,-1.8066350422301234,-0.007338097784668207,2.759847640991211,-1.7600115537643433,0.004791077226400375,2.0901663303375244,4.94587359109477,-0.00010126381675945595,0.23008017241954803,-1.5872939268695276,-0.0005938292015343904,-0.031175460666418076,0.7954378128051758,-0.0,0.03328780084848404,0.8480717539787292,0.0007126700947992504,0.07643850147724152
444.0,621.0,0.9188,-0.1418,9.5456,-0.0431,0.0121,-0.1145,-1.806716104547018,-0.008639156818389893,2.768439531326294,-1.759979486465454,0.00450937682762742,2.040095806121826,4.945897835284033,-0.00011374901077942923,0.24232089519500732,-1.5873296896563929,-0.0005622229655273259,-0.027043573558330536,0.7954415678977966,-0.0,0.019306078553199768,0.8480355739593506,0.0008954189834184945,0.1054106056690216
444.0,621.0,0.9188,-0.1418,9.5456,-0.0431,0.0121,-0.1145,-1.8067556820311488,-0.009614631533622742,2.7492806911468506,-1.75999915599823,0.004674355965107679,2.0282175540924072,4.945862132101812,-0.0008270732942037284,0.23526223003864288,-1.5873501936541956,-0.0005141872679814696,-0.035100631415843964,0.7954378128051758,-0.0,0.01748928800225258,0.8480474352836609,0.0006994823925197124,0.11243392527103424
463.0,602.0,0.8602,0.1238,9.1974,-0.0403,0.0063,-0.1084,-1.8067676029601039,-0.010143744759261608,2.7473549842834473,-1.760007381439209,0.004111368674784899,2.02321457862854,4.945869895606794,-0.002550341421738267,0.23563389480113983,-1.5873859564410608,-0.0004503658274188638,-0.044003695249557495,0.7954009771347046,-0.0,0.02815687283873558,0.8480556011199951,0.000573340046685189,0.16740044951438904
463.0,602.0,0.8602,0.1238,9.1974,-0.0403,0.0063,-0.1084,-1.806863924066061,-0.01262856274843216,2.7614927291870117,-1.7599835395812988,0.0030129989609122276,2.029747486114502,4.9458540109689615,-0.003180881729349494,0.2418404072523117,-1.5873501936541956,-0.0003495730634313077,-0.04292745515704155,0.7954256534576416,2.4854833213794336e-07,0.025600837543606758,0.8480355739593506,0.0004583178088068962,0.15848784148693085
463.0,602.0,0.8602,0.1238,9.1974,-0.0403,0.0063,-0.1084,-1.8069082699217738,-0.01418330054730177,2.731975793838501,-1.7599432468414307,0.0031192474998533726,2.015139102935791,4.945793720870771,-0.003250416601076722,0.2355348765850067,-1.5873258749591272,-0.0003025331243406981,-0.037405725568532944,0.7954857349395752,1.0596005184382307e-09,0.029059208929538727,0.848087728023529,0.0004566872084978968,0.1643056571483612
463.0,602.0,0.8602,0.1238,9.1974,-0.0403,0.0063,-0.1084,-1.8069921932616175,-0.015749674290418625,2.6822164058685303,-1.7599390745162964,0.003171009011566639,2.0806422233581543,4.945769551187315,-0.00351143185980618,0.23664787411689758,-1.5873501936541956,-0.0003197327896486968,-0.05020067095756531,0.7954698204994202,4.517243350210531e-12,0.032783109694719315,0.8480594754219055,0.000390611618058756,0.1713673174381256
463.0,602.0,0.8602,0.1238,9.1974,-0.0403,0.0063,-0.1084,-1.8070641956725062,-0.018497325479984283,2.703571081161499,-1.7599358558654785,0.0033083749003708363,2.0664939880371094,4.945758047490873,-0.004822899587452412,0.22871671617031097,-1.587358299885885,-0.00027167543885298073,-0.037817053496837616,0.7954616546630859,1.2573913993205654e-15,0.029200788587331772,0.8480151295661926,0.00042766923434101045,0.17270058393478394
463.0,602.0,0.8602,0.1238,9.1974,-0.0403,0.0063,-0.1084,-1.8071848354735316,-0.021107468754053116,2.707493305206299,-1.759916067123413,0.0029056845232844353,2.0513203144073486,4.94573429503993,-0.005286018829792738,0.21684159338474274,-1.58734637895693,-0.0002468317106831819,-0.036084603518247604,0.7954296469688416,5.360457519275884e-18,0.03149588778614998,0.8480677008628845,0.0005203571054153144,0.19243386387825012
463.0,602.0,0.8602,0.1238,9.1974,-0.0403,0.0063,-0.1084,-1.8073083362975062,-0.023333048447966576,2.7087507247924805,-1.75992751121521,0.0028285339940339327,2.0217108726501465,4.945750656514921,-0.0046040089800953865,0.2099490761756897,-1.5873540083514612,-0.00021705994731746614,-0.03951697796583176,0.7954616546630859,1.4921032654104042e-21,0.02626284584403038,0.8480720520019531,0.0005435759085230529,0.214036226272583
463.0,602.0,0.8602,0.1238,9.1974,-0.0403,0.0063,-0.1084,-1.807425161401266,-0.025425272062420845,2.683506727218628,-1.7598881721496582,0.002924232976511121,2.08417010307312,4.945698189526357,-0.0037087134551256895,0.21644937992095947,-1.5873377958880823,-0.0002332310687052086,-0.047306373715400696,0.7954858541488647,6.3610702338232765e-24,0.05018690228462219,0.8480595350265503,0.0008019289816729724,0.2022811770439148
463.0,602.0,0.8602,0.1238,9.1974,-0.0403,0.0063,-0.1084,-1.807432313958639,-0.02674010954797268,2.6959798336029053,-1.7598354816436768,0.0034198814537376165,2.0450685024261475,4.9456862834985635,-0.0024975205305963755,0.2236473560333252,-1.5873177687274378,-0.0002181500312872231,-0.05053897947072983,0.7954657673835754,2.711824301196309e-26,0.040485281497240067,0.8481159806251526,0.0008131833747029305,0.20871739089488983
463.0,602.0,0.8602,0.1238,9.1974,-0.0403,0.0063,-0.1084,-1.8076898060240687,-0.029054181650280952,2.657477378845215,-1.7598156929016113,0.003678421024233103,2.039599657058716,4.945682200580396,-0.0010033557191491127,0.23375669121742249,-1.5873420874225062,-0.00022582094243261963,-0.04985562711954117,0.795518159866333,7.548461988325105e-30,0.036725085228681564,0.8480672836303711,0.0008996192482300103,0.26012861728668213
463.0,602.0,0.8602,0.1238,9.1974,-0.0403,0.0063,-0.1084,-1.807809968987936,-0.030711697414517403,2.7043821811676025,-1.7598477602005005,0.0039047186728566885,2.0159361362457275,4.945670309453764,-0.000692464760504663,0.22026455402374268,-1.5872858206378382,-0.00021251999714877456,-0.05743492767214775,0.7954939007759094,3.2180280450865156e-32,0.03798988088965416,0.8480303883552551,0.0012289085425436497,0.24154770374298096
463.0,602.0,0.8602,0.1238,9.1974,-0.0403,0.0063,-0.1084,-1.8079735241331996,-0.033990561962127686,2.6448750495910645,-1.7597360610961914,0.004069426096975803,2.0352652072906494,4.945702391653814,-0.0004733647219836712,0.2145158350467682,-1.5873501936541956,-0.00017003505490720272,-0.07671624422073364,0.7954456806182861,8.957498694400667e-36,0.04364127665758133,0.8480755090713501,0.0013370543019846082,0.18694788217544556
463.0,602.0,0.8602,0.1238,9.1974,-0.0403,0.0063,-0.1084,-1.8081466160216273,-0.036281902343034744,2.6673269271850586,-1.759795904159546,0.004451657645404339,2.0876266956329346,4.9456620691116235,-0.00039099346031434834,0.23037594556808472,-1.5873740355121058,-0.00015663003432564437,-0.05459756404161453,0.7954452037811279,3.818722165643646e-38,0.044662900269031525,0.8481157422065735,0.0013439959147945046,0.26634934544563293
463.0,602.0,0.8602,0.1238,9.1974,-0.0403,0.0063,-0.1084,-1.8082786999144496,-0.03848225995898247,2.7089781761169434,-1.7597565650939941,0.004869199823588133,2.0346498489379883,4.945730614453115,-0.00033306374098174274,0.22553884983062744,-1.5873420874225062,-0.00014642853057011962,-0.05691919103264809,0.7955017685890198,0.0001570364838698879,0.02814655750989914,0.8481319546699524,0.0013394039124250412,0.2660285234451294
463.0,602.0,0.8602,0.1238,9.1974,-0.0403,0.0063,-0.1084,-1.808530946771139,-0.04197857156395912,2.714055061340332,-1.7597565650939941,0.0062729367054998875,2.0319082736968994,4.945694464236059,-0.00027251607389189303,0.22320060431957245,-1.5873497168170374,-0.00013340434816200286,-0.061369284987449646,0.795529305934906,0.00017167288751807064,0.03859558701515198,0.8481081128120422,0.0012942674802616239,0.2634595036506653
463.0,602.0,0.8602,0.1238,9.1974,-0.0403,0.0063,-0.1084,-1.808690687219137,-0.04274604469537735,2.731757164001465,-1.7596882581710815,0.006468909326940775,2.051443099975586,4.9456862834985635,-0.00024306408886332065,0.21785131096839905,-1.5873540083514612,-0.00012593701831065118,-0.061969298869371414,0.7955334782600403,0.00018813999486155808,0.039983153343200684,0.8480873107910156,0.0014548461185768247,0.27722394466400146
463.0,602.0,0.8602,0.1238,9.1974,-0.0403,0.0063,-0.1084,-1.8089429340758265,-0.0470634400844574,2.6859076023101807,-1.759608507156372,0.006812731269747019,2.0366225242614746,4.945694061904707,-0.0002091602946165949,0.2270430624485016,-1.5873420874225062,-0.00011618194548645988,-0.062087513506412506,0.7955740690231323,0.00019750994397327304,0.05594291910529137,0.8480995893478394,0.0016765136970207095,0.21446475386619568
463.0,602.0,0.8602,0.1238,9.1974,-0.0403,0.0063,-0.1084,-1.8091680012144984,-0.04918382689356804,2.7202019691467285,-1.7596405744552612,0.007961873896420002,2.0569074153900146,4.945686298399725,-0.00015442755830008537,0.23080936074256897,-1.5873702208148401,-0.00011047693260479718,-0.05745668709278107,0.7955498695373535,0.0004248759360052645,0.03805176168680191,0.848111629486084,0.0017998891416937113,0.2831551730632782
463.0,602.0,0.8602,0.1238,9.1974,-0.0403,0.0063,-0.1084,-1.8093601665892542,-0.0538492389023304,2.703592538833618,-1.7595877647399902,0.008684185333549976,2.0446524620056152,4.9457305548484705,-0.0001410968106938526,0.2341054379940033,-1.5873501936541956,-0.00010530608415137976,-0.06402430683374405,0.7955456972122192,0.0003981493355240673,0.053856752812862396,0.8481153845787048,0.0017750989645719528,0.20766191184520721
479.0,674.0,1.5338,-0.1531,9.6879,-0.0519,-0.0576,-0.1171,-1.809704443017477,-0.0591500885784626,2.660446882247925,-1.7595328092575073,0.011835235171020031,2.041701316833496,4.945738303452291,-9.496731217950583e-05,0.2410953938961029,-1.5873659292804163,-9.839777339948341e-05,-0.054568104445934296,0.7955456972122192,0.0003794717777054757,0.055141933262348175,0.8481276035308838,0.0014383390080183744,0.18154668807983398
479.0,674.0,1.5338,-0.1531,9.6879,-0.0519,-0.0576,-0.1171,-1.8099328480162562,-0.06080054119229317,2.7235264778137207,-1.759561538696289,0.012230940163135529,2.049708843231201,4.945718291192808,-8.847887511365116e-05,0.24072200059890747,-1.5873621145831507,-9.42748156376183e-05,-0.05593055486679077,0.7955136895179749,0.00033944647293537855,0.050686512142419815,0.8481597304344177,0.0009670661529526114,0.14981867372989655
479.0,674.0,1.5338,-0.1531,9.6879,-0.0519,-0.0576,-0.1171,-1.8102051220335902,-0.06267385184764862,2.6670994758605957,-1.7594735622406006,0.013022775761783123,2.126511335372925,4.945730152517118,-8.303504000650719e-05,0.23972541093826294,-1.58734637895693,-7.705767347943038e-05,-0.053037792444229126,0.7955219149589539,0.00030641918419860303,0.045953936874866486,0.8480955362319946,0.0005410399753600359,0.14878638088703156
479.0,674.0,1.5338,-0.1531,9.6879,-0.0519,-0.0576,-0.1171,-1.8105575046935023,-0.06454304605722427,2.687335252761841,-1.7593246698379517,0.013823169283568859,2.077937602996826,4.945753979473867,-7.602074765600264e-05,0.24141165614128113,-1.587313477193014,-6.826985190855339e-05,-0.05237869173288345,0.7954612374305725,0.00026739254826679826,0.061311349272727966,0.8480995893478394,0.00037267993320710957,0.19571667909622192
479.0,674.0,1.5338,-0.1531,9.6879,-0.0519,-0.0576,-0.1171,-1.8108746014037074,-0.06277196109294891,2.738809585571289,-1.7592201232910156,0.014608347788453102,2.0767486095428467,4.945705982833662,4.2930172639898956e-05,0.2436555176973343,-1.5873258749591272,-6.577387102879584e-05,-0.0488726943731308,0.795473575592041,0.00024646648671478033,0.05895818769931793,0.8481314778327942,0.0002315643650945276,0.12757809460163116
479.0,674.0,1.5338,-0.1531,9.6879,-0.0519,-0.0576,-0.1171,-1.8112670383849085,-0.06125649809837341,2.695784568786621,-1.7591971158981323,0.014078003354370594,2.104405403137207,4.945701989322462,4.717244883067906e-05,0.24651655554771423,-1.5873215834247034,-6.235604814719409e-05,-0.0330088809132576,0.7955219149589539,0.00022057445312384516,0.07469141483306885,0.8481235504150391,0.00018415621889289469,0.1389404833316803
479.0,674.0,1.5338,-0.1531,9.6879,-0.0519,-0.0576,-0.1171,-1.8115841350951136,-0.060072340071201324,2.6851701736450195,-1.7591215372085571,0.013441676273941994,2.087763786315918,4.945734622865476,4.482501753955148e-05,0.2489013373851776,-1.587334458027975,-6.026815390214324e-05,-0.040269508957862854,0.7954857349395752,0.0002061376435449347,0.05729363113641739,0.8480995893478394,-0.00013314966054167598,0.08372770249843597
479.0,674.0,1.5338,-0.1531,9.6879,-0.0519,-0.0576,-0.1171,-1.8117715320982875,-0.058773238211870193,2.6861696243286133,-1.7590739727020264,0.012014339677989483,2.0875120162963867,4.945714223175802,3.2204810850089416e-05,0.25619181990623474,-1.5873420874225062,-5.8315643400419503e-05,-0.04707072302699089,0.7954935431480408,0.00019347549823578447,0.05440901964902878,0.8481276035308838,-0.0001192472773254849,0.048370879143476486
479.0,674.0,1.5338,-0.1531,9.6879,-0.0519,-0.0576,-0.1171,-1.812160154382223,-0.05682529881596565,2.7214765548706055,-1.7590540647506714,0.009789588861167431,2.065598726272583,4.945702317148008,1.9933797375415452e-05,0.2480182945728302,-1.5873258749591272,-4.171381806372665e-05,-0.02232152596116066,0.7954575419425964,0.0001771525712683797,0.05786710977554321,0.8481273651123047,-9.947472426574677e-05,0.0017992309294641018
479.0,674.0,1.5338,-0.1531,9.6879,-0.0519,-0.0576,-0.1171,-1.8123847446837367,-0.0564827099442482,2.7163312435150146,-1.7590663433074951,0.007439620327204466,2.0450878143310547,4.945734622865476,1.9085453459410928e-05,0.24482300877571106,-1.5873106161700647,-4.045972673338838e-05,-0.017811855301260948,0.7954899072647095,0.00016771939408499748,0.05840117856860161,0.8481317162513733,-0.00013372751709539443,0.015778187662363052
479.0,674.0,1.5338,-0.1531,9.6879,-0.0519,-0.0576,-0.1171,-1.8127128086485804,-0.05943507328629494,2.712233304977417,-1.759006381034851,0.005726438481360674,2.1213364601135254,4.945714223175802,1.794383570086211e-05,0.24398308992385864,-1.587330166493551,4.1014132875716314e-05,-0.01224340870976448,0.795494019985199,0.00017747604579199106,0.0454886332154274,0.8481235504150391,-0.00015585172513965517,0.0006229870487004519
479.0,674.0,1.5338,-0.1531,9.6879,-0.0519,-0.0576,-0.1171,-1.8129612408080042,-0.05876316502690315,2.6534128189086914,-1.758957862854004,0.005349337588995695,2.0216541290283203,4.94573429503993,1.7255770217161626e-05,0.2502835988998413,-1.587306324635641,3.930952152586542e-05,-0.020533831790089607,0.7954895496368408,0.00016916067397687584,0.05346442013978958,0.8480873107910156,-0.00014345115050673485,-0.023881155997514725
