ramyac6/ROB537/final_project/csv/all/bad_4.csv
tof_0,tof_1,accelx,accely,accelz,gyrox,gyroy,gyroz,shoulder_lift_joint_position,shoulder_lift_joint_velocity,shoulder_lift_joint_effort,elbow_joint_position,elbow_joint_velocity,elbow_joint_effort,wrist_1_joint_position,wrist_1_joint_velocity,wrist_1_joint_effort,wrist_2_joint_position,wrist_2_joint_velocity,wrist_2_joint_effort,wrist_3_joint_position,wrist_3_joint_velocity,wrist_3_joint_effort,shoulder_pan_joint_position,shoulder_pan_joint_velocity,shoulder_pan_joint_effort
700.0,508.0,-0.0855,-3.7244,8.6716,-0.0444,0.0327,-0.1254,-1.7786432705321253,0.0,2.830305576324463,-1.86083984375,-0.0,1.922316312789917,-1.1299319428256531,-0.0,0.25336983799934387,-1.1723516623126429,-0.0,-0.06396858394145966,0.6248313188552856,0.0,-0.0012271752348169684,1.2409635782241821,0.0,-0.010819662362337112
700.0,508.0,-0.0855,-3.7244,8.6716,-0.0444,0.0327,-0.1254,-1.7786466083922328,0.0,2.84431529045105,-1.8607964515686035,-0.0,1.9207489490509033,-1.129908100967743,-0.0,0.2600497007369995,-1.1723273436175745,-0.0,-0.06444729119539261,0.6247550845146179,0.0,0.010836330242455006,1.240915060043335,0.0,0.009822746738791466
700.0,508.0,-0.0855,-3.7244,8.6716,-0.0444,0.0327,-0.1254,-1.7786795101561488,0.0,2.7488980293273926,-1.860799789428711,-0.0,1.9504141807556152,-1.1298801761916657,-0.0,0.24299345910549164,-1.1723955313311976,-0.0,-0.05862366780638695,0.624779224395752,0.0,-0.0021895086392760277,1.240983247756958,0.0,0.006389068439602852
700.0,508.0,-0.0855,-3.7244,8.6716,-0.0444,0.0327,-0.1254,-1.7785903416075648,0.0,2.8323702812194824,-1.8608317375183105,-0.0,1.9163532257080078,-1.1299080413630982,-0.0,0.2660027742385864,-1.172363583241598,-0.0,-0.0647173821926117,0.6248112320899963,0.0,0.0028748158365488052,1.2408909797668457,0.0,-0.012983899563550949
700.0,508.0,-0.0855,-3.7244,8.6716,-0.0444,0.0327,-0.1254,-1.7785984478392542,0.0,2.8424947261810303,-1.8608038425445557,-0.0,1.9592673778533936,-1.129908100967743,-0.0,0.2655814588069916,-1.1723559538470667,-0.0,-0.05578194558620453,0.6247550845146179,0.0,-0.005359485745429993,1.2409754991531372,0.0,0.0008158343844115734
700.0,508.0,-0.0855,-3.7244,8.6716,-0.0444,0.0327,-0.1254,-1.7785784206786097,0.0,2.8310060501098633,-1.860848307609558,-0.0,1.985109567642212,-1.129884199505188,-0.0,0.24959534406661987,-1.1723597685443323,-0.0,-0.07577082514762878,0.6247951984405518,0.0,-0.0030665388330817223,1.2409311532974243,0.0,0.0206761434674263
700.0,508.0,-0.0855,-3.7244,8.6716,-0.0444,0.0327,-0.1254,-1.7786313496031703,0.0,2.8167145252227783,-1.860848307609558,-0.0,1.931708574295044,-1.1298960608294983,-0.0,0.24565282464027405,-1.172347370778219,-0.0,-0.07366184145212173,0.6248394846916199,0.0,-0.004526806063950062,1.2409032583236694,0.0,0.046925149857997894
700.0,508.0,-0.0855,-3.7244,8.6716,-0.0444,0.0327,-0.1254,-1.7786313496031703,0.0,2.8241090774536133,-1.8608235120773315,-0.0,1.9568289518356323,-1.129904107456543,-0.0,0.2535804510116577,-1.1723273436175745,-0.0,-0.060734204947948456,0.6248074769973755,0.0,0.009124874137341976,1.240931510925293,0.0,-0.0030887711327522993
695.0,501.0,-0.0532,-3.6233,8.6596,-0.0466,0.0281,-0.1129,-1.7786270580687464,0.0,2.8597021102905273,-1.8608078956604004,-0.0,1.9245185852050781,-1.1299598079970856,-0.0,0.24932056665420532,-1.1723712126361292,-0.0,-0.07098960131406784,0.6247632503509521,0.0,0.005869321059435606,1.2408992052078247,0.0,-0.0033299310598522425
695.0,501.0,-0.0532,-3.6233,8.6596,-0.0466,0.0281,-0.1129,-1.7786508999266566,0.0,2.8630120754241943,-1.8608638048171997,-0.0,1.9073071479797363,-1.1299000841430207,-0.0,0.2550845742225647,-1.172375504170553,-0.0,-0.06833943724632263,0.6247271299362183,0.0,-0.0009201410575769842,1.2409553527832031,-0.0004097393830306828,-0.018885020166635513
695.0,501.0,-0.0532,-3.6233,8.6596,-0.0466,0.0281,-0.1129,-1.7786146603026332,0.0,2.8351047039031982,-1.860780119895935,-0.0,1.925016164779663,-1.1298801761916657,-0.0,0.25129854679107666,-1.172335449849264,-0.0,-0.05978919565677643,0.6247832775115967,0.0,0.013537649996578693,1.240951657295227,-0.00036783720133826137,-0.019387496635317802
695.0,501.0,-0.0532,-3.6233,8.6596,-0.0466,0.0281,-0.1129,-1.7786394558348597,0.0,2.8658862113952637,-1.8608202934265137,-0.0,1.9471638202667236,-1.1298961204341431,-0.0,0.251181036233902,-1.1723516623126429,-0.0,-0.06606045365333557,0.6247993111610413,0.0,0.017839692533016205,1.240987777709961,-0.0003557937452569604,0.05231871455907822
695.0,501.0,-0.0532,-3.6233,8.6596,-0.0466,0.0281,-0.1129,-1.7786146603026332,0.0,2.86159086227417,-1.8608202934265137,-0.0,1.9340609312057495,-1.129916028385498,-0.0,0.24771901965141296,-1.1723759810077112,-0.0,-0.0683869794011116,0.6248108148574829,0.0,-0.0009745515417307615,1.2409437894821167,-0.0003623825323302299,0.003245055675506592
695.0,501.0,-0.0532,-3.6233,8.6596,-0.0466,0.0281,-0.1129,-1.778635164300436,0.0,2.7896804809570312,-1.8608078956604004,-0.0,1.9322316646575928,-1.1298682552627106,-0.0,0.24578675627708435,-1.1723030249225062,-0.0,-0.0696156919002533,0.6248030662536621,0.0,0.00806778110563755,1.2409032583236694,-0.000404507591156289,0.018758922815322876
695.0,501.0,-0.0532,-3.6233,8.6596,-0.0466,0.0281,-0.1129,-1.7786513767638148,0.0,2.8392059803009033,-1.8608078956604004,-0.0,1.9556198120117188,-1.129916028385498,-0.0,0.23915256559848785,-1.1723397413836878,-0.0,-0.0704570859670639,0.624779224395752,0.0,0.012440785765647888,1.2409237623214722,-0.0003917127614840865,0.00830824114382267
695.0,501.0,-0.0532,-3.6233,8.6596,-0.0466,0.0281,-0.1129,-1.7786313496031703,0.0,2.7952494621276855,-1.8608357906341553,-0.0,1.9351985454559326,-1.1298841697028656,-0.0,0.26458606123924255,-1.1723273436175745,-0.0,-0.0671062171459198,0.6247710585594177,0.0,-0.00027299439534544945,1.2408831119537354,-0.000377311633201316,0.0093808863312006
695.0,501.0,-0.0532,-3.6233,8.6596,-0.0466,0.0281,-0.1129,-1.7786022625365199,0.0,2.8503637313842773,-1.8608440160751343,-0.0,1.9553449153900146,-1.1299598079970856,-0.0,0.25333377718925476,-1.1723516623126429,-0.0,-0.07182489335536957,0.6247751712799072,0.0,0.004183436278253794,1.2409237623214722,-0.00041305526974610984,0.026152756065130234
695.0,501.0,-0.0532,-3.6233,8.6596,-0.0466,0.0281,-0.1129,-1.7786556682982386,0.0,2.8147308826446533,-1.8608038425445557,-0.0,1.9538356065750122,-1.1299319726279755,-0.0,0.23720896244049072,-1.172335449849264,-0.0,-0.07277148216962814,0.6248108744621277,0.0,0.0005375717300921679,1.2408795356750488,-0.00038861940265633166,-0.015764011070132256
695.0,501.0,-0.0532,-3.6233,8.6596,-0.0466,0.0281,-0.1129,-1.7786313496031703,0.0,2.8111772537231445,-1.8608317375183105,-0.0,1.9221577644348145,-1.1299359959414979,-0.0,0.26622599363327026,-1.1723230520831507,-0.0,-0.06315900385379791,0.6247710585594177,0.0,-0.007240117061883211,1.240939736366272,-0.0003397170512471348,0.013338794931769371
695.0,501.0,-0.0532,-3.6233,8.6596,-0.0466,0.0281,-0.1129,-1.7785984478392542,0.0,2.8511576652526855,-1.860816240310669,-0.0,1.9764975309371948,-1.129904107456543,-0.0,0.26075801253318787,-1.1723559538470667,-0.0,-0.07745473086833954,0.6247910857200623,0.0,0.010326121002435684,1.2409032583236694,-0.00028577473131008446,0.010945980437099934
695.0,501.0,-0.0532,-3.6233,8.6596,-0.0466,0.0281,-0.1129,-1.7786714039244593,0.0,2.8386740684509277,-1.8608039617538452,-0.0,1.9153530597686768,-1.1299039882472535,-0.0,0.25080958008766174,-1.17230731645693,-0.0,-0.08744027465581894,0.6247307658195496,0.0,-0.0016979030333459377,1.2409355640411377,-0.0002466172445565462,0.026858225464820862
695.0,501.0,-0.0532,-3.6233,8.6596,-0.0466,0.0281,-0.1129,-1.778647085229391,0.0,2.765692710876465,-1.860791563987732,-0.0,1.9613676071166992,-1.129876123075821,-0.0,0.25369882583618164,-1.1723230520831507,-0.0,-0.07361167669296265,0.6247910857200623,0.0,0.002688188571482897,1.2409237623214722,-0.00021689805726055056,0.020984400063753128
695.0,501.0,-0.0532,-3.6233,8.6596,-0.0466,0.0281,-0.1129,-1.7786146603026332,0.0,2.809762954711914,-1.860780119895935,-0.0,1.9602364301681519,-1.129916028385498,-0.0,0.25234144926071167,-1.1723559538470667,-0.0,-0.06947145611047745,0.6248152852058411,0.0,0.013541821390390396,1.240947961807251,-0.00019357202108949423,0.0061807287856936455
695.0,501.0,-0.0532,-3.6233,8.6596,-0.0466,0.0281,-0.1129,-1.7786227665343226,0.0,2.8405141830444336,-1.8608357906341553,-0.0,1.9131990671157837,-1.1299678546241303,-0.0,0.2637900412082672,-1.1723397413836878,-0.0,-0.07054640352725983,0.6247631907463074,0.0,-0.001129752490669489,1.240919589996338,-0.0002035015495494008,0.032057542353868484
691.0,494.0,-0.1872,-3.7801,8.7051,-0.046,0.0284,-0.1141,-1.7786065540709437,0.0,2.8236632347106934,-1.8607553243637085,-0.0,1.9221765995025635,-1.129888044004776,-0.0,0.25562968850135803,-1.17230731645693,-0.0,-0.07512685656547546,0.6247951984405518,0.0,-0.001737315091304481,1.240919828414917,-0.0001858583855209872,0.039138924330472946
691.0,494.0,-0.1872,-3.7801,8.7051,-0.046,0.0284,-0.1141,-1.7786432705321253,0.0,2.827444553375244,-1.8608596324920654,-0.0,1.916500449180603,-1.1298960608294983,-0.0,0.25449252128601074,-1.1723678747760218,-0.0,-0.09437809884548187,0.6247594356536865,0.0,0.0010719540296122432,1.2409037351608276,-0.00017074658535420895,0.009107173420488834
691.0,494.0,-0.1872,-3.7801,8.7051,-0.046,0.0284,-0.1141,-1.778635164300436,0.0,2.8389339447021484,-1.86083984375,-0.0,1.9065613746643066,-1.1299359959414979,-0.0,0.24767783284187317,-1.172347370778219,-0.0,-0.07174982875585556,0.6248031258583069,0.0,0.010286163538694382,1.2409032583236694,-0.00016196702199522406,0.017268121242523193
691.0,494.0,-0.1872,-3.7801,8.7051,-0.046,0.0284,-0.1141,-1.7786227665343226,0.0,2.8210742473602295,-1.8607923984527588,-0.0,1.9703996181488037,-1.1299240750125428,-0.0,0.2563406229019165,-1.1723235289203089,-0.0,-0.06563220173120499,0.6247230768203735,0.0,0.0003056394343730062,1.2409114837646484,-0.00015036959666758776,0.040277618914842606
691.0,494.0,-0.1872,-3.7801,8.7051,-0.046,0.0284,-0.1141,-1.778647085229391,0.0,2.849635124206543,-1.8608283996582031,-0.0,1.9248182773590088,-1.1299120050719758,-0.0,0.24451863765716553,-1.1723273436175745,-0.0,-0.07687477022409439,0.6248353719711304,0.0,-0.0017406393308192492,1.2409114837646484,-0.00014032196486368775,0.045708831399679184
691.0,494.0,-0.1872,-3.7801,8.7051,-0.046,0.0284,-0.1141,-1.7786103687682093,0.0,2.8473901748657227,-1.860788345336914,-0.0,1.9021797180175781,-1.1299440127662201,-0.0,0.24842426180839539,-1.1722787062274378,-0.0,-0.06760755181312561,0.6247152090072632,0.0,-0.008584887720644474,1.2409594058990479,-0.00013153284089639783,0.010491546243429184
691.0,494.0,-0.1872,-3.7801,8.7051,-0.046,0.0284,-0.1141,-1.7785703144469203,0.0,2.781485080718994,-1.8608243465423584,-0.0,1.887702226638794,-1.1298722189715882,-0.0,0.2601472735404968,-1.1723397413836878,-0.0,-0.079880490899086,0.6247673034667969,0.0,-0.021974854171276093,1.2409114837646484,-0.00012377992970868945,-0.0071373190730810165
691.0,494.0,-0.1872,-3.7801,8.7051,-0.046,0.0284,-0.1141,-1.7786022625365199,0.0,2.794731616973877,-1.8608441352844238,-0.0,1.9394621849060059,-1.1299240750125428,-0.0,0.2507614195346832,-1.1723559538470667,-0.0,-0.08131606876850128,0.624739408493042,0.0,0.005269797518849373,1.2409074306488037,-0.00011689016537275165,0.029760055243968964
691.0,494.0,-0.1872,-3.7801,8.7051,-0.046,0.0284,-0.1141,-1.7786103687682093,0.0,2.816150665283203,-1.8608357906341553,-0.0,1.9137219190597534,-1.129904107456543,-0.0,0.233486607670784,-1.1723316351519983,-0.0,-0.08165750652551651,0.6248074173927307,0.0,0.01144595630466938,1.2409594058990479,-0.00011072693450842053,0.004627070855349302
691.0,494.0,-0.1872,-3.7801,8.7051,-0.046,0.0284,-0.1141,-1.7786389789977015,0.0,2.8223609924316406,-1.8608523607254028,-0.0,1.940278172492981,-1.1299279493144532,-0.0,0.23635482788085938,-1.1723149458514612,-0.0,-0.07008310407400131,0.6248193979263306,0.0,0.0003100926987826824,1.2409073114395142,-0.00010518117051105946,-0.010702675208449364
691.0,494.0,-0.1872,-3.7801,8.7051,-0.046,0.0284,-0.1141,-1.7786146603026332,0.0,2.7941205501556396,-1.860848307609558,-0.0,1.901790738105774,-1.1299000841430207,-0.0,0.25086069107055664,-1.1723149458514612,-0.0,-0.06997264921665192,0.6247833371162415,0.0,-0.006284129805862904,1.2409114837646484,-0.00010016433225246146,0.010146349668502808
691.0,494.0,-0.1872,-3.7801,8.7051,-0.046,0.0284,-0.1141,-1.7786103687682093,0.0,2.788750410079956,-1.86083984375,-0.0,1.9374936819076538,-1.129876123075821,-0.0,0.23380598425865173,-1.1723879019366663,-0.0,-0.07340885698795319,0.624791145324707,0.0,0.0047845072112977505,1.2409074306488037,-9.707750723464414e-05,-0.02472839131951332
691.0,494.0,-0.1872,-3.7801,8.7051,-0.046,0.0284,-0.1141,-1.7786432705321253,0.0,2.773921489715576,-1.8608235120773315,-0.0,1.9333938360214233,-1.1299359959414979,-0.0,0.2442006915807724,-1.172319237385885,-0.0,-0.08045761287212372,0.6247550845146179,0.0,0.0203523151576519,1.240919589996338,-9.278818470193073e-05,0.002794897183775902
691.0,494.0,-0.1872,-3.7801,8.7051,-0.046,0.0284,-0.1141,-1.7785984478392542,0.0,2.837399482727051,-1.8608843088150024,-0.0,1.9205429553985596,-1.129904107456543,-0.0,0.23470264673233032,-1.1723230520831507,-0.0,-0.08190681785345078,0.6247713565826416,0.0,0.001102056703530252,1.2409355640411377,-8.886191062629223e-05,0.007418245077133179
691.0,494.0,-0.1872,-3.7801,8.7051,-0.046,0.0284,-0.1141,-1.7786146603026332,0.0,2.782209634780884,-1.8607676029205322,-0.0,1.9164788722991943,-1.129947916870453,-0.0,0.22367402911186218,-1.1723597685443323,-0.0,-0.0802975594997406,0.6247915029525757,0.0,-0.002437745686620474,1.2409355640411377,-8.525446901330724e-05,0.009087974205613136
691.0,494.0,-0.1872,-3.7801,8.7051,-0.046,0.0284,-0.1141,-1.7786313496031703,0.0,2.8345091342926025,-1.8607677221298218,-0.0,1.9065945148468018,-1.1299240452102204,-0.0,0.23476320505142212,-1.1723879019366663,-0.0,-0.08032393455505371,0.6248071193695068,0.0,0.005568600259721279,1.240891456604004,-8.192841050913557e-05,0.019247910007834435
679.0,514.0,-0.0652,-3.7657,8.6489,-0.0434,0.0321,-0.1092,-1.7785827122130335,0.0,2.8165807723999023,-1.8607923984527588,-0.0,1.9201898574829102,-1.1299239260009308,-0.0,0.2474401295185089,-1.1723397413836878,-0.0,-0.08791371434926987,0.6247791647911072,0.0,0.007161872927099466,1.2409114837646484,-2.528125696699135e-05,-0.007581118494272232
679.0,514.0,-0.0652,-3.7657,8.6489,-0.0434,0.0321,-0.1092,-1.7785946331419886,0.0,2.8112387657165527,-1.8608357906341553,-0.0,1.9616596698760986,-1.1298801463893433,-0.0,0.2427607774734497,-1.172347370778219,-0.0,-0.08675851672887802,0.6248152852058411,0.0,-0.015568740665912628,1.2408992052078247,-2.4232445866800845e-05,-0.018762607127428055
679.0,514.0,-0.0652,-3.7657,8.6489,-0.0434,0.0321,-0.1092,-1.778635164300436,0.0,2.8265342712402344,-1.8608440160751343,-0.0,1.9375300407409668,-1.129916028385498,-0.0,0.23151442408561707,-1.172335449849264,-0.0,-0.08448579907417297,0.6248234510421753,0.0,-0.013137241825461388,1.2409634590148926,-2.329176822968293e-05,-0.006749940570443869
679.0,514.0,-0.0652,-3.7657,8.6489,-0.0434,0.0321,-0.1092,-1.778618951837057,0.0,2.7456841468811035,-1.8608317375183105,-0.0,1.9215917587280273,-1.129916028385498,-0.0,0.25040653347969055,-1.1723516623126429,-0.0,-0.07768720388412476,0.6247993111610413,0.0,-0.0021255433093756437,1.2408992052078247,-2.242137816210743e-05,0.0638497918844223
679.0,514.0,-0.0652,-3.7657,8.6489,-0.0434,0.0321,-0.1092,-1.7786146603026332,0.0,2.7845168113708496,-1.8608802556991577,-0.0,1.888806939125061,-1.1299359959414979,-0.0,0.227493554353714,-1.1723592917071741,-0.0,-0.0775703489780426,0.6247751712799072,0.0,0.0013554783072322607,1.2409515380859375,-2.1876394384889863e-05,0.033932384103536606
679.0,514.0,-0.0652,-3.7657,8.6489,-0.0434,0.0321,-0.1092,-1.7786389789977015,0.0,2.8549304008483887,-1.8608605861663818,-0.0,1.8701879978179932,-1.129916028385498,-0.0,0.2390621304512024,-1.172391716633932,-0.0,-0.0795719102025032,0.6247673034667969,0.0,-0.003412529593333602,1.2409355640411377,-2.1106854546815157e-05,-0.04336004704236984
679.0,514.0,-0.0652,-3.7657,8.6489,-0.0434,0.0321,-0.1092,-1.7786265812315882,0.0,2.7789242267608643,-1.8608119487762451,-0.0,1.9403769969940186,-1.1299319726279755,-0.0,0.23842263221740723,-1.1724041144000452,-0.0,-0.0779479593038559,0.6247673034667969,0.0,0.006657129619270563,1.2409274578094482,-2.038959792116657e-05,0.057687606662511826
679.0,514.0,-0.0652,-3.7657,8.6489,-0.0434,0.0321,-0.1092,-1.7786551914610804,0.0,2.80007004737854,-1.860799789428711,-0.0,1.9532338380813599,-1.1299279493144532,-0.0,0.23621833324432373,-1.1723106543170374,-0.0,-0.08290155231952667,0.6247788071632385,0.0,0.006233733147382736,1.2409234046936035,-3.971992725837481e-07,0.03627350181341171
679.0,514.0,-0.0652,-3.7657,8.6489,-0.0434,0.0321,-0.1092,-1.778586050073141,0.0,2.8517942428588867,-1.8608399629592896,-0.0,1.9178414344787598,-1.1298601788333436,-0.0,0.24702107906341553,-1.172335449849264,-0.0,-0.07334022223949432,0.6247673034667969,0.0,0.0072453999891877174,1.2409439086914062,-9.59189433609453e-13,0.026260126382112503
679.0,514.0,-0.0652,-3.7657,8.6489,-0.0434,0.0321,-0.1092,-1.7786556682982386,-1.774880686866709e-08,2.789424180984497,-1.8608441352844238,-0.0,1.9614965915679932,-1.1299279493144532,-0.0,0.2551518380641937,-1.1723435560809534,-0.0,-0.07984253764152527,0.6247710585594177,0.0,-0.006155024748295546,1.2409274578094482,-2.31632926070902e-18,0.052068088203668594
679.0,514.0,-0.0652,-3.7657,8.6489,-0.0434,0.0321,-0.1092,-1.7786146603026332,-4.286127998202362e-14,2.830178737640381,-1.860816240310669,-0.0,1.9084079265594482,-1.1299120050719758,-0.0,0.23434549570083618,-1.1723316351519983,-0.0,-0.08162377029657364,0.624791145324707,0.0,0.011104492470622063,1.2408910989761353,-5.59366240091975e-24,-0.013597676530480385
679.0,514.0,-0.0652,-3.7657,8.6489,-0.0434,0.0321,-0.1092,-1.7786995373167933,-1.035049549523955e-19,2.8078196048736572,-1.8607676029205322,-0.0,1.8959214687347412,-1.129916028385498,-0.0,0.25225239992141724,-1.17230731645693,-0.0,-0.06567978858947754,0.6247550845146179,0.0,0.0066942390985786915,1.2409836053848267,-1.3508037791061816e-29,-0.01875368505716324
679.0,514.0,-0.0652,-3.7657,8.6489,-0.0434,0.0321,-0.1092,-1.778675218621725,-1.8630524843161015e-23,2.868746280670166,-1.86083984375,-0.0,1.9577653408050537,-1.1299000841430207,-0.0,0.2377147674560547,-1.1723879019366663,-0.0,-0.07360784709453583,0.6247870922088623,0.0,-0.00040715793147683144,1.2409073114395142,-2.4313987600545582e-33,0.06270032376050949
679.0,514.0,-0.0652,-3.7657,8.6489,-0.0434,0.0321,-0.1092,-1.778618951837057,-4.4990526974784504e-29,2.8163862228393555,-1.86083984375,-0.0,1.8941500186920166,-1.129904107456543,-0.0,0.266110360622406,-1.1723516623126429,-0.0,-0.07633130997419357,0.6248517036437988,0.0,-0.0023246370255947113,1.2408872842788696,-5.871541459010415e-39,0.011393701657652855
679.0,514.0,-0.0652,-3.7657,8.6489,-0.0434,0.0321,-0.1092,-1.7786671123900355,-1.0864682172861394e-34,2.8093457221984863,-1.8608360290527344,-0.0,1.9219210147857666,-1.1299279493144532,-0.0,0.2515683174133301,-1.1723230520831507,-0.0,-0.07879665493965149,0.6247551441192627,0.0,-0.006551295053213835,1.2409237623214722,-1.401298464324817e-44,-0.023139506578445435
676.0,513.0,-0.0449,-3.8249,8.6907,-0.0499,0.0153,-0.1139,-1.778675218621725,-2.6236931537092847e-40,2.834764003753662,-1.8608719110488892,-0.0,1.9411907196044922,-1.1299519103816529,-0.0,0.24734847247600555,-1.1723435560809534,-0.0,-0.07065676897764206,0.6247951984405518,0.0,-0.0013373488327488303,1.2409113645553589,0.0,0.024586055427789688
676.0,513.0,-0.0449,-3.8249,8.6907,-0.0499,0.0153,-0.1139,-1.77868713955068,-0.0,2.8268837928771973,-1.860816240310669,-0.0,1.9072635173797607,-1.1299438935569306,-0.0,0.24770568311214447,-1.1723516623126429,-0.0,-0.06854372471570969,0.6247673034667969,0.0,-0.011885738000273705,1.240919589996338,0.0,0.014057604596018791
676.0,513.0,-0.0449,-3.8249,8.6907,-0.0499,0.0153,-0.1139,-1.778618951837057,0.0,2.8162755966186523,-1.8608481884002686,-0.0,1.9530740976333618,-1.1299002331546326,-0.0,0.25580063462257385,-1.1723440329181116,-0.0,-0.06266005337238312,0.624779224395752,0.0,0.0050587221048772335,1.2409553527832031,0.0,-0.01100701093673706
676.0,513.0,-0.0449,-3.8249,8.6907,-0.0499,0.0153,-0.1139,-1.778659006158346,0.0,2.856386661529541,-1.860791563987732,-0.0,1.9409805536270142,-1.1299039882472535,-0.0,0.26018500328063965,-1.172347370778219,-0.0,-0.06980283558368683,0.624779224395752,0.0,0.00565378600731492,1.2409558296203613,0.0,0.04436492547392845
676.0,513.0,-0.0449,-3.8249,8.6907,-0.0499,0.0153,-0.1139,-1.778630872766012,0.0,2.8279294967651367,-1.8608440160751343,-0.0,1.957112431526184,-1.1298960608294983,-0.0,0.2722129225730896,-1.1723397413836878,-0.0,-0.06764654815196991,0.6247951984405518,0.0,0.0010368544608354568,1.2409274578094482,0.0,0.016956910490989685
676.0,513.0,-0.0449,-3.8249,8.6907,-0.0499,0.0153,-0.1139,-1.7786551914610804,0.0,2.873065233230591,-1.860816240310669,-0.0,1.9590502977371216,-1.1299200516990204,-0.0,0.25553202629089355,-1.1723678747760218,-0.0,-0.062425896525382996,0.6247914433479309,0.0,-0.012450267560780048,1.2408992052078247,0.0,0.0202475618571043
676.0,513.0,-0.0449,-3.8249,8.6907,-0.0499,0.0153,-0.1139,-1.7786346874632777,0.0,2.8214645385742188,-1.8608120679855347,-0.0,1.9372868537902832,-1.1299200516990204,-0.0,0.2642659544944763,-1.1723716894732874,-0.0,-0.06354869157075882,0.624791145324707,0.0,-0.004678523633629084,1.2409156560897827,0.0,0.041652094572782516
676.0,513.0,-0.0449,-3.8249,8.6907,-0.0499,0.0153,-0.1139,-1.778675218621725,0.0,2.829817771911621,-1.8608202934265137,-0.0,1.9208869934082031,-1.1299039882472535,-0.0,0.26271557807922363,-1.1723111311541956,-0.0,-0.061181023716926575,0.6247673034667969,0.0,0.001450138632208109,1.2409113645553589,0.0,-0.000612565316259861
676.0,513.0,-0.0449,-3.8249,8.6907,-0.0499,0.0153,-0.1139,-1.7786466083922328,0.0,2.7957677841186523,-1.860791563987732,-0.0,1.8841638565063477,-1.1299279493144532,-0.0,0.2694566249847412,-1.1723559538470667,-0.0,-0.06765416264533997,0.6247993111610413,0.0,0.00729155819863081,1.2409114837646484,0.0,0.05048280209302902
676.0,513.0,-0.0449,-3.8249,8.6907,-0.0499,0.0153,-0.1139,-1.7786108456053675,0.0,2.864205837249756,-1.8608638048171997,-0.0,1.907117247581482,-1.1298841399005433,-0.0,0.25787681341171265,-1.1723921934710901,-0.0,-0.06144218146800995,0.6247989535331726,0.0,-0.014712994918227196,1.2409595251083374,0.0,-0.02323274500668049
676.0,513.0,-0.0449,-3.8249,8.6907,-0.0499,0.0153,-0.1139,-1.7786389789977015,0.0,2.849379062652588,-1.860848307609558,-0.0,1.9210060834884644,-1.1299559336951752,-0.0,0.26477116346359253,-1.1723435560809534,-0.0,-0.06460822373628616,0.624779224395752,0.0,0.0016400062013417482,1.240939736366272,0.0,0.008050283417105675
676.0,513.0,-0.0449,-3.8249,8.6907,-0.0499,0.0153,-0.1139,-1.7786675892271937,0.0,2.8616394996643066,-1.8607923984527588,-0.0,1.9631597995758057,-1.1299120050719758,-0.0,0.26797017455101013,-1.1723559538470667,-0.0,-0.05289129912853241,0.6247352957725525,0.0,-0.0057834601029753685,1.2409355640411377,0.0,-0.04695931077003479
676.0,513.0,-0.0449,-3.8249,8.6907,-0.0499,0.0153,-0.1139,-1.7786313496031703,0.0,2.8397014141082764,-1.8608357906341553,-0.0,1.919933557510376,-1.1299279493144532,-0.0,0.2569509446620941,-1.1723673979388636,-0.0,-0.06572367250919342,0.6247993111610413,0.0,0.004898499697446823,1.240943431854248,0.0,0.029613368213176727
676.0,513.0,-0.0449,-3.8249,8.6907,-0.0499,0.0153,-0.1139,-1.7786432705321253,0.0,2.854829788208008,-1.8607956171035767,-0.0,1.9308991432189941,-1.1299158197692414,-0.0,0.2707965672016144,-1.1723559538470667,-0.0,-0.04812002182006836,0.6247390508651733,0.0,-0.0014370071003213525,1.240931510925293,0.0,-0.02736719325184822
676.0,513.0,-0.0449,-3.8249,8.6907,-0.0499,0.0153,-0.1139,-1.7786346874632777,0.0,2.7841691970825195,-1.8608078956604004,-0.0,1.9044818878173828,-1.1299359959414979,-0.0,0.28104740381240845,-1.1723273436175745,-0.0,-0.05496609956026077,0.6247993111610413,0.0,0.002250468824058771,1.2408992052078247,0.0,-0.02024591900408268
676.0,513.0,-0.0449,-3.8249,8.6907,-0.0499,0.0153,-0.1139,-1.7786432705321253,0.0,2.8497374057769775,-1.8607964515686035,-0.0,1.9525924921035767,-1.129888044004776,-0.0,0.26144564151763916,-1.1723678747760218,-0.0,-0.05292850732803345,0.62469482421875,0.0,0.0011514299549162388,1.240943431854248,0.0,0.0009623914957046509
706.0,491.0,-0.0879,-3.7388,8.723,-0.0418,0.022,-0.1126,-1.7786952457823695,0.0,2.817783832550049,-1.860816240310669,-0.0,1.9564504623413086,-1.1299200516990204,-0.0,0.27180251479148865,-1.1723836104022425,-0.0,-0.05776764452457428,0.6247993111610413,0.0,0.002420589793473482,1.2409594058990479,0.0,-0.011373452842235565
706.0,491.0,-0.0879,-3.7388,8.723,-0.0418,0.022,-0.1126,-1.7786551914610804,0.0,2.8613967895507812,-1.8608638048171997,-0.0,1.936237096786499,-1.1298879545978089,-0.0,0.2629130482673645,-1.172347370778219,-0.0,-0.0568670928478241,0.624779224395752,0.0,-0.008702193386852741,1.240919589996338,0.0,0.015065127052366734
706.0,491.0,-0.0879,-3.7388,8.723,-0.0418,0.022,-0.1126,-1.778597971002096,0.0,2.8319525718688965,-1.8608564138412476,-0.0,1.9466034173965454,-1.129963831310608,-0.0,0.274873822927475,-1.172363583241598,-0.0,-0.04443839564919472,0.624791145324707,0.0,-0.0068594301119446754,1.2409074306488037,0.0,0.0049181533977389336
706.0,491.0,-0.0879,-3.7388,8.723,-0.0418,0.022,-0.1126,-1.7786389789977015,0.0,2.8318400382995605,-1.8608399629592896,-0.0,1.933079719543457,-1.1299319726279755,-0.0,0.26291269063949585,-1.172347370778219,-0.0,-0.04969868063926697,0.6247673034667969,0.0,-0.002750667743384838,1.2409557104110718,0.0,0.0005112290382385254
706.0,491.0,-0.0879,-3.7388,8.723,-0.0418,0.022,-0.1126,-1.7786466083922328,0.0,2.885866165161133,-1.8608283996582031,-0.0,1.9566848278045654,-1.129911945467331,-0.0,0.272012859582901,-1.1723797957049769,-0.0,-0.04208924621343613,0.624791145324707,0.0,0.0014765451196581125,1.2409155368804932,0.0,-0.005086034536361694
706.0,491.0,-0.0879,-3.7388,8.723,-0.0418,0.022,-0.1126,-1.7786389789977015,0.0,2.802394151687622,-1.86083984375,-0.0,1.9481217861175537,-1.1299558144858857,-0.0,0.2840206027030945,-1.1723955313311976,-0.0,-0.05264832079410553,0.6247910857200623,0.0,-0.009264582768082619,1.2408950328826904,0.0,0.011396016925573349
706.0,491.0,-0.0879,-3.7388,8.723,-0.0418,0.022,-0.1126,-1.7786346874632777,0.0,2.8884193897247314,-1.86083984375,-0.0,1.9124667644500732,-1.1299399596503754,-0.0,0.2681063413619995,-1.172335449849264,-0.0,-0.05309204012155533,0.6247951984405518,0.0,-0.0022772010415792465,1.2409114837646484,0.0,0.010777066461741924
706.0,491.0,-0.0879,-3.7388,8.723,-0.0418,0.022,-0.1126,-1.778618951837057,0.0,2.8426642417907715,-1.8608275651931763,-0.0,1.9301941394805908,-1.1299279493144532,-0.0,0.26965147256851196,-1.1723316351519983,-0.0,-0.06305636465549469,0.6248152852058411,0.0,0.010589607059955597,1.2409155368804932,0.0,-0.02674759179353714
706.0,491.0,-0.0879,-3.7388,8.723,-0.0418,0.022,-0.1126,-1.7786671123900355,0.0,2.851569652557373,-1.8608120679855347,-0.0,1.926034927368164,-1.1298881334117432,-0.0,0.27896374464035034,-1.1723273436175745,-0.0,-0.06446804851293564,0.6248071193695068,0.0,-0.008528577163815498,1.240979552268982,0.0,-0.04339788109064102
706.0,491.0,-0.0879,-3.7388,8.723,-0.0418,0.022,-0.1126,-1.7786346874632777,0.0,2.802273988723755,-1.860816240310669,-0.0,1.9910528659820557,-1.1298841399005433,-0.0,0.2655244469642639,-1.172347370778219,-0.0,-0.0601634718477726,0.6247993111610413,0.0,-0.00037688639713451266,1.2409113645553589,0.0,-0.002286784816533327
706.0,491.0,-0.0879,-3.7388,8.723,-0.0418,0.022,-0.1126,-1.7786227665343226,0.0,2.8214786052703857,-1.8608604669570923,-0.0,1.99537992477417,-1.1298759144595643,-0.0,0.2638355493545532,-1.1723998228656214,-0.0,-0.042486585676670074,0.624779224395752,0.0,0.004685592837631702,1.24089515209198,0.0,-0.00448121502995491
706.0,491.0,-0.0879,-3.7388,8.723,-0.0418,0.022,-0.1126,-1.7786227665343226,0.0,2.7876100540161133,-1.8607593774795532,-0.0,1.9177944660186768,-1.1299239260009308,-0.0,0.2688775658607483,-1.172319237385885,-0.0,-0.056195683777332306,0.6247870326042175,0.0,0.0014165404718369246,1.240931510925293,0.0,-0.005192397627979517
706.0,491.0,-0.0879,-3.7388,8.723,-0.0418,0.022,-0.1126,-1.7786022625365199,0.0,2.832714557647705,-1.8608357906341553,-0.0,1.923485517501831,-1.1299319726279755,-0.0,0.28933578729629517,-1.172335449849264,-0.0,-0.05862630903720856,0.6247952580451965,0.0,0.005716938059777021,1.2409355640411377,0.0,-0.02416960336267948
706.0,491.0,-0.0879,-3.7388,8.723,-0.0418,0.022,-0.1126,-1.7786389789977015,0.0,2.8478026390075684,-1.8608399629592896,-0.0,1.925558090209961,-1.129920021896698,-0.0,0.26389002799987793,-1.1724241415606897,-0.0,-0.05819409340620041,0.6247230172157288,0.0,-0.005995477084070444,1.2409355640411377,0.0,-0.05245567485690117
706.0,491.0,-0.0879,-3.7388,8.723,-0.0418,0.022,-0.1126,-1.7786508999266566,0.0,2.852306842803955,-1.8608720302581787,-0.0,1.9027845859527588,-1.1299359661391755,-0.0,0.2550925612449646,-1.1723516623126429,-0.0,-0.06371094286441803,0.6247714161872864,0.0,-0.003090485231950879,1.2409237623214722,0.0,-0.012797183357179165
709.0,490.0,-0.0467,-3.6365,8.6166,-0.0296,0.0203,-0.1168,-1.7786709270873011,-2.827829632678913e-07,2.883730411529541,-1.8608275651931763,-0.0,1.946948766708374,-1.1299279791167756,-0.0,0.2690221965312958,-1.1723316351519983,-0.0,-0.056627579033374786,0.6248112320899963,0.0,0.0005599805153906345,1.2409155368804932,0.0,-0.010023951530456543
709.0,490.0,-0.0467,-3.6365,8.6166,-0.0296,0.0203,-0.1168,-1.7786671123900355,-5.089993010409799e-11,2.846066951751709,-1.8608194589614868,-0.0,2.0060057640075684,-1.129959837799408,-0.0,0.2737138867378235,-1.1723111311541956,-0.0,-0.050532810389995575,0.6248152852058411,0.0,-0.006567719392478466,1.2409439086914062,0.0,-0.07547155022621155
709.0,490.0,-0.0467,-3.6365,8.6166,-0.0296,0.0203,-0.1168,-1.7786466083922328,-1.229173581943752e-16,2.8064205646514893,-1.8608078956604004,-0.0,1.9202775955200195,-1.1299399000457306,-0.0,0.27222728729248047,-1.1723516623126429,-0.0,-0.05546863377094269,0.6247472167015076,0.0,-0.005626086611300707,1.2408872842788696,0.0,-0.01107840333133936
709.0,490.0,-0.0467,-3.6365,8.6166,-0.0296,0.0203,-0.1168,-1.7786466083922328,-2.968309910729774e-22,2.8308990001678467,-1.8608523607254028,-0.0,1.9205349683761597,-1.1299239558032532,-0.0,0.25796282291412354,-1.1723397413836878,-0.0,-0.05509600788354874,0.6247591376304626,0.0,-0.0023127850145101547,1.240891456604004,0.0,-0.01382538117468357
709.0,490.0,-0.0467,-3.6365,8.6166,-0.0296,0.0203,-0.1168,-1.7786022625365199,-7.168120104462311e-28,2.852254867553711,-1.86083984375,-0.0,1.9439852237701416,-1.1299559336951752,-0.0,0.2758888304233551,-1.1723678747760218,-0.0,-0.05355524271726608,0.624779224395752,0.0,-0.006343521177768707,1.2408995628356934,0.0,-0.01072645653039217
709.0,490.0,-0.0467,-3.6365,8.6166,-0.0296,0.0203,-0.1168,-1.7786108456053675,-1.7310166343025845e-33,2.8297524452209473,-1.860848307609558,-0.0,1.9291309118270874,-1.1299319726279755,-0.0,0.2817268371582031,-1.172403637562887,-0.0,-0.05781552568078041,0.6247352957725525,0.0,-0.004825562238693237,1.2409032583236694,0.0,-0.03700868785381317
709.0,490.0,-0.0467,-3.6365,8.6166,-0.0296,0.0203,-0.1168,-1.778647085229391,-4.180202238539647e-39,2.8497262001037598,-1.8608202934265137,-0.0,1.975441813468933,-1.1299119752696534,-0.0,0.27711063623428345,-1.1723149458514612,-0.0,-0.0642351508140564,0.6248193979263306,0.0,-0.0004926626570522785,1.240939736366272,0.0,0.029081717133522034
709.0,490.0,-0.0467,-3.6365,8.6166,-0.0296,0.0203,-0.1168,-1.7786551914610804,-9.80908925027372e-45,2.825502872467041,-1.8608399629592896,-0.0,1.9564619064331055,-1.1299239260009308,-0.0,0.26869669556617737,-1.1723559538470667,-0.0,-0.05810476839542389,0.6247710585594177,0.0,-0.004110135603696108,1.2408872842788696,0.0,0.00400102324783802
709.0,490.0,-0.0467,-3.6365,8.6166,-0.0296,0.0203,-0.1168,-1.7785703144469203,0.0,2.8704721927642822,-1.860848307609558,-0.0,1.9640765190124512,-1.1299239558032532,-0.0,0.25759437680244446,-1.172335449849264,-0.0,-0.06377695500850677,0.6247710585594177,0.0,0.01382518745958805,1.2409114837646484,0.0,0.004353647120296955
709.0,490.0,-0.0467,-3.6365,8.6166,-0.0296,0.0203,-0.1168,-1.7786790333189906,0.0,2.86299204826355,-1.8608638048171997,-0.0,1.9602665901184082,-1.1299158197692414,-0.0,0.271714448928833,-1.172335449849264,-0.0,-0.06607545167207718,0.624791145324707,0.0,-0.00970696471631527,1.2409032583236694,0.0,0.02483866550028324
709.0,490.0,-0.0467,-3.6365,8.6166,-0.0296,0.0203,-0.1168,-1.7786508999266566,0.0,2.8822970390319824,-1.860816240310669,-0.0,1.9229974746704102,-1.1299279493144532,-0.0,0.2671199440956116,-1.1723678747760218,-0.0,-0.05208885669708252,0.6248071193695068,0.0,-0.005736793391406536,1.240927815437317,0.0,-0.012920473702251911
709.0,490.0,-0.0467,-3.6365,8.6166,-0.0296,0.0203,-0.1168,-1.778670450250143,0.0,2.821056604385376,-1.8608120679855347,-0.0,1.931753158569336,-1.129955844288208,-0.0,0.2782496213912964,-1.1723397413836878,-0.0,-0.06001924350857735,0.6247829794883728,0.0,0.0003754165954887867,1.2409521341323853,0.0,0.02104399912059307
709.0,490.0,-0.0467,-3.6365,8.6166,-0.0296,0.0203,-0.1168,-1.7786346874632777,0.0,2.8244738578796387,-1.860816240310669,-0.0,1.9437134265899658,-1.1299239260009308,-0.0,0.27047279477119446,-1.172319237385885,-0.0,-0.04716908559203148,0.6247472167015076,0.0,-0.00623176759108901,1.240891456604004,0.0,0.0020879339426755905
709.0,490.0,-0.0467,-3.6365,8.6166,-0.0296,0.0203,-0.1168,-1.7786828480162562,0.0,2.815610885620117,-1.8607511520385742,-0.0,1.9786837100982666,-1.1299279493144532,-0.0,0.2605760395526886,-1.1723068396197718,-0.0,-0.048986874520778656,0.6247553825378418,0.0,-0.016868561506271362,1.2408713102340698,0.0,-0.047557681798934937
709.0,490.0,-0.0467,-3.6365,8.6166,-0.0296,0.0203,-0.1168,-1.77868713955068,0.0,2.8618052005767822,-1.8607956171035767,-0.0,1.935621976852417,-1.1299120050719758,-0.0,0.2620479166507721,-1.172391716633932,-0.0,-0.05432259291410446,0.6247591376304626,0.0,0.0071172346360981464,1.2409237623214722,-0.00012451439397409558,-0.022110598161816597
709.0,490.0,-0.0467,-3.6365,8.6166,-0.0296,0.0203,-0.1168,-1.7786346874632777,0.0,2.8635072708129883,-1.8608317375183105,-0.0,1.9619183540344238,-1.1299319726279755,-0.0,0.25888291001319885,-1.1723797957049769,-0.0,-0.055569007992744446,0.6247550249099731,0.0,-0.0030669807456433773,1.2409318685531616,-0.00011602981248870492,0.012365292757749557
716.0,504.0,-0.125,-3.6018,8.7332,-0.0408,0.0232,-0.1254,-1.7786508999266566,0.0,2.822502613067627,-1.8608514070510864,-0.0,1.957305908203125,-1.1298880738070984,-0.0,0.26991504430770874,-1.1723597685443323,7.509464126087551e-07,-0.05546249449253082,0.6247832775115967,0.0,-0.011904311366379261,1.2409602403640747,-0.00012923467147629708,0.025513358414173126
716.0,504.0,-0.125,-3.6018,8.7332,-0.0408,0.0232,-0.1254,-1.7786184749998988,0.0,2.850313425064087,-1.8607882261276245,-0.0,1.9489463567733765,-1.1299079817584534,-0.0,0.26609525084495544,-1.1723435560809534,2.0902866937344555e-10,-0.05961793661117554,0.6247550845146179,0.0,0.003626932855695486,1.2408431768417358,-0.0001405835064360872,0.0018542876932770014
716.0,504.0,-0.125,-3.6018,8.7332,-0.0408,0.0232,-0.1254,-1.7786346874632777,0.0,2.8368210792541504,-1.8608523607254028,-0.0,1.956261396408081,-1.1299761992743989,-0.0,0.27502942085266113,-1.1723559538470667,8.911219743883148e-13,-0.045328788459300995,0.6247352957725525,0.0,-0.0006210184656083584,1.240891456604004,-0.0001346639182884246,-0.03380423039197922
716.0,504.0,-0.125,-3.6018,8.7332,-0.0408,0.0232,-0.1254,-1.7786790333189906,0.0,2.8238489627838135,-1.860848307609558,-0.0,1.9502912759780884,-1.1299199026874085,-0.0,0.2751646041870117,-1.172347370778219,2.4804708703763984e-16,-0.0759253278374672,0.6247832775115967,0.0,-0.0029156010132282972,1.240947961807251,-0.00014461739920079708,0.03554937243461609
716.0,504.0,-0.125,-3.6018,8.7332,-0.0408,0.0232,-0.1254,-1.7786628208556117,0.0,2.8099734783172607,-1.8608235120773315,-0.0,1.9230927228927612,-1.1299357873252411,-0.0,0.2613266110420227,-1.172347370778219,6.90448174285895e-20,-0.06170414388179779,0.6247754693031311,0.0,-0.020782310515642166,1.2408713102340698,-0.00023697952565271407,0.039049483835697174
716.0,504.0,-0.125,-3.6018,8.7332,-0.0408,0.0232,-0.1254,-1.7785898647704066,0.0,2.870274066925049,-1.860788345336914,-0.0,1.9591107368469238,-1.1299678546241303,-0.0,0.27066028118133545,-1.1723478476153772,1.9218880972102002e-23,-0.05072818696498871,0.6247352957725525,0.0,-0.00412542000412941,1.2408835887908936,-0.00021494337124750018,-0.00287824310362339
716.0,504.0,-0.125,-3.6018,8.7332,-0.0408,0.0232,-0.1254,-1.778659006158346,0.0,2.838134765625,-1.8607677221298218,-0.0,1.9619065523147583,-1.1299398702434083,-0.0,0.2620675265789032,-1.1723516623126429,5.349645976874703e-27,-0.05629074573516846,0.6247349977493286,0.0,-0.012764215469360352,1.2408877611160278,-0.00022559953504242003,-0.009394348599016666
716.0,504.0,-0.125,-3.6018,8.7332,-0.0408,0.0232,-0.1254,-1.7786709270873011,0.0,2.847536087036133,-1.8608802556991577,-0.0,1.9226305484771729,-1.1299319726279755,-0.0,0.27966171503067017,-1.1723592917071741,1.489093674130138e-30,-0.05286956951022148,0.624779224395752,0.0,-0.010827433317899704,1.2409074306488037,-0.0002338677877560258,-0.012669886462390423
716.0,504.0,-0.125,-3.6018,8.7332,-0.0408,0.0232,-0.1254,-1.778670450250143,0.0,2.8382105827331543,-1.8608243465423584,-0.0,1.9443004131317139,-1.1299279493144532,-0.0,0.2803734242916107,-1.172335449849264,4.14494690545545e-34,-0.05937058478593826,0.624803364276886,0.0,-0.00833125039935112,1.240891456604004,-0.00024046226462814957,0.02790798619389534
716.0,504.0,-0.125,-3.6018,8.7332,-0.0408,0.0232,-0.1254,-1.7786227665343226,0.0,2.785991668701172,-1.8608604669570923,-0.0,1.9575353860855103,-1.1299280685237427,-0.0,0.27359646558761597,-1.172335449849264,1.1537611084716268e-37,-0.05388505011796951,0.6247550845146179,0.0,-0.008967534638941288,1.240859031677246,-0.00028155872132629156,-0.003155152313411236
716.0,504.0,-0.125,-3.6018,8.7332,-0.0408,0.0232,-0.1254,-1.7786427936949671,0.0,2.8659701347351074,-1.8607759475708008,-0.0,1.967915654182434,-1.1299239558032532,-0.0,0.2660036087036133,-1.1723597685443323,3.211495820539616e-41,-0.05717010051012039,0.6247915029525757,0.0,-0.01550050638616085,1.2408995628356934,-0.00024345493875443935,-0.023210838437080383
716.0,504.0,-0.125,-3.6018,8.7332,-0.0408,0.0232,-0.1254,-1.7786671123900355,0.0,2.8838047981262207,-1.860788345336914,-0.0,1.923435926437378,-1.1299438637546082,-0.0,0.2670443654060364,-1.172335449849264,1.3732724950383207e-43,-0.05819249525666237,0.6247594356536865,0.0,-0.017931638285517693,1.2409156560897827,-0.00021968265355098993,-0.010196520015597343
716.0,504.0,-0.125,-3.6018,8.7332,-0.0408,0.0232,-0.1254,-1.7786427936949671,0.0,2.816269874572754,-1.8608275651931763,-0.0,1.9297332763671875,-1.1299040776542206,-0.0,0.27624642848968506,-1.1723397413836878,0.0,-0.05598749592900276,0.6247832775115967,0.0,-0.014990748837590218,1.240847110748291,-0.00022991849982645363,-0.024578718468546867
716.0,504.0,-0.125,-3.6018,8.7332,-0.0408,0.0232,-0.1254,-1.7786671123900355,-5.038796007283963e-05,2.8207614421844482,-1.860799789428711,-0.0,1.919301986694336,-1.1299199324897309,-0.0,0.2673211693763733,-1.1723559538470667,0.0,-0.05016396939754486,0.6247713565826416,0.0,-0.017554884776473045,1.2408311367034912,-0.00020389306882862002,0.03040941432118416
716.0,504.0,-0.125,-3.6018,8.7332,-0.0408,0.0232,-0.1254,-1.7786547146239222,-6.227116682566702e-05,2.887901782989502,-1.860799789428711,-0.0,1.9666202068328857,-1.1299120050719758,-0.0,0.2823222577571869,-1.1723516623126429,0.0,-0.061475954949855804,0.6247591376304626,0.0,-0.011111694388091564,1.240927815437317,-0.00021007366012781858,-0.04955385625362396
716.0,504.0,-0.125,-3.6018,8.7332,-0.0408,0.0232,-0.1254,-1.7786828480162562,-8.022594556678087e-05,2.852628231048584,-1.8608317375183105,-0.0,1.9722756147384644,-1.1299319428256531,-0.0,0.27763935923576355,-1.172335449849264,0.0,-0.05054526776075363,0.6248030662536621,0.0,-0.012214374728500843,1.2408632040023804,-0.00022151130542624742,-0.006290834862738848
697.0,488.0,-0.2758,-3.6927,8.9701,-0.0363,0.0296,-0.1133,-1.7786623440184535,-0.0006234438042156398,2.844381332397461,-1.860884428024292,-0.0,1.8947558403015137,-1.129972056751587,-0.0,0.2780715823173523,-1.1723397413836878,0.0,-0.044487401843070984,0.6248030662536621,0.0,-0.006803595460951328,1.2408918142318726,-0.00022084244119469076,0.009372235275804996
697.0,488.0,-0.2758,-3.6927,8.9701,-0.0363,0.0296,-0.1133,-1.778699060479635,-0.0005755924503318965,2.862459182739258,-1.8608357906341553,-0.0,1.9636712074279785,-1.1299239558032532,-0.0,0.26704102754592896,-1.1723030249225062,0.0,-0.05491986125707626,0.6247111558914185,0.0,-0.003606099635362625,1.240875482559204,-0.0002562690351624042,-0.037403933703899384
697.0,488.0,-0.2758,-3.6927,8.9701,-0.0363,0.0296,-0.1133,-1.7786580524840296,-0.0006244818214327097,2.800253391265869,-1.8608523607254028,-0.0,1.932307243347168,-1.129967824821808,-0.0,0.268880695104599,-1.1723597685443323,0.0,-0.060688041150569916,0.6247710585594177,0.0,-0.010068828240036964,1.240867257118225,-0.0002689509419724345,-0.058325354009866714
697.0,488.0,-0.2758,-3.6927,8.9701,-0.0363,0.0296,-0.1133,-1.7787109814085902,-0.0005884837009944022,2.8039488792419434,-1.8608235120773315,-0.0,1.9487829208374023,-1.1299841862967988,-0.0,0.2751503884792328,-1.1723397413836878,0.0,-0.0679541751742363,0.6247754096984863,0.0,-0.013462722301483154,1.2408918142318726,-0.0002537381951697171,-0.03128643333911896
697.0,488.0,-0.2758,-3.6927,8.9701,-0.0363,0.0296,-0.1133,-1.7786504230894984,-0.0005049195606261492,2.8473665714263916,-1.8608481884002686,-0.0,1.9429099559783936,-1.1299359959414979,-0.0,0.267026424407959,-1.1723435560809534,0.0,-0.061691366136074066,0.6247434616088867,0.0,-0.015585245564579964,1.240927815437317,-0.00022947677643969655,0.03329659625887871
697.0,488.0,-0.2758,-3.6927,8.9701,-0.0363,0.0296,-0.1133,-1.778699060479635,-0.00043548873509280384,2.8418688774108887,-1.8608357906341553,-0.0,1.9987432956695557,-1.1299319726279755,-0.0,0.2603444457054138,-1.1723836104022425,0.0,-0.05628985911607742,0.6247632503509521,0.0,-0.005545951891690493,1.2408596277236938,-0.00020944984862580895,0.000585409696213901
697.0,488.0,-0.2758,-3.6927,8.9701,-0.0363,0.0296,-0.1133,-1.778699060479635,-0.0003851715591736138,2.8162460327148438,-1.8608357906341553,-0.0,1.94792902469635,-1.1298960906318207,-0.0,0.2619531452655792,-1.1723397413836878,0.0,-0.05963487550616264,0.6248074173927307,0.0,-0.014101161621510983,1.2408632040023804,-0.00016867215163074434,0.002930221613496542
697.0,488.0,-0.2758,-3.6927,8.9701,-0.0363,0.0296,-0.1133,-1.7786828480162562,-0.00042305284296162426,2.8622140884399414,-1.8608275651931763,-0.0,1.9533307552337646,-1.1299558144858857,-0.0,0.2680564224720001,-1.1723316351519983,0.0,-0.04691270738840103,0.6247673034667969,0.0,-0.011427931487560272,1.2408872842788696,-0.0001560341042932123,-0.001636019442230463
697.0,488.0,-0.2758,-3.6927,8.9701,-0.0363,0.0296,-0.1133,-1.7787186108031214,-0.0008002584800124168,2.818770408630371,-1.8607758283615112,-0.0,1.947573184967041,-1.1299279493144532,-0.0,0.2744494676589966,-1.1723678747760218,0.0,-0.05545542389154434,0.6247472763061523,0.0,-0.029334109276533127,1.2408995628356934,-0.00014524224388878793,-0.02498956024646759
697.0,488.0,-0.2758,-3.6927,8.9701,-0.0363,0.0296,-0.1133,-1.778727193871969,-0.002434762194752693,2.8443264961242676,-1.8608523607254028,-0.0,1.9596211910247803,-1.1299040776542206,-0.0,0.26822328567504883,-1.1723597685443323,0.0,-0.05449860915541649,0.6247553825378418,0.0,-0.010497597977519035,1.2409318685531616,-6.518706504721195e-05,0.02302277460694313
697.0,488.0,-0.2758,-3.6927,8.9701,-0.0363,0.0296,-0.1133,-1.778755327264303,-0.005719174165278673,2.828284740447998,-1.860788345336914,-0.0,1.9490234851837158,-1.1299000841430207,-0.0,0.26673489809036255,-1.1723597685443323,0.0,-0.06438624113798141,0.6247673034667969,0.0,-0.01298960018903017,1.2409194707870483,-3.946525976061821e-05,0.001181227620691061
697.0,488.0,-0.2758,-3.6927,8.9701,-0.0363,0.0296,-0.1133,-1.7788030109801234,-0.008755607530474663,2.779034376144409,-1.860771656036377,-0.0,1.921388864517212,-1.1299240750125428,-0.0,0.2531470060348511,-1.172335449849264,0.0,-0.058566149324178696,0.6248071789741516,0.0,-0.016802463680505753,1.240891456604004,-2.6762503694044426e-05,0.014325762167572975
697.0,488.0,-0.2758,-3.6927,8.9701,-0.0363,0.0296,-0.1133,-1.7787991962828578,-0.007717950735241175,2.801016092300415,-1.86083984375,-0.0,1.9481042623519897,-1.1299081307700654,-0.0,0.2622321844100952,-1.1723392645465296,0.0,-0.0506092831492424,0.6247914433479309,0.0,-0.02465132251381874,1.240919589996338,-2.5260194888687693e-05,0.01053592562675476
697.0,488.0,-0.2758,-3.6927,8.9701,-0.0363,0.0296,-0.1133,-1.7788673839964808,-0.004616443067789078,2.808746814727783,-1.8607593774795532,-0.0,1.9405615329742432,-1.1299559634974976,-0.0,0.26880496740341187,-1.1723435560809534,0.0,-0.05844105780124664,0.6248233914375305,0.0,-0.010795113630592823,1.240927815437317,-1.2905607249535933e-08,-0.052465178072452545
697.0,488.0,-0.2758,-3.6927,8.9701,-0.0363,0.0296,-0.1133,-1.7789036236205042,-0.0032092498149722815,2.804316520690918,-1.8608275651931763,-0.0,1.9588913917541504,-1.1298922163299103,-0.0,0.2737356126308441,-1.172363583241598,0.0,-0.05051164701581001,0.6247754096984863,0.0,-0.007264561019837856,1.240927815437317,-3.1165523585235597e-14,0.0019809091463685036
720.0,509.0,-0.0837,-3.6873,8.6489,-0.0321,0.024,-0.1254,-1.7788831196227015,-0.0035421419888734818,2.810087203979492,-1.8607676029205322,6.485135963885114e-05,1.9266330003738403,-1.129944072370865,-0.0,0.261045902967453,-1.1723678747760218,0.0,-0.05192233622074127,0.6247833371162415,0.0,-0.006055094767361879,1.2409237623214722,-7.526108619427404e-20,-0.05035955458879471
720.0,509.0,-0.0837,-3.6873,8.6489,-0.0321,0.024,-0.1254,-1.7789513073363246,-0.004495434928685427,2.800919532775879,-1.860799789428711,5.983221853966825e-05,1.916254997253418,-1.1299239260009308,-0.0,0.2677375376224518,-1.1723592917071741,0.0,-0.05342920869588852,0.6247754096984863,0.0,-0.006577552296221256,1.2408992052078247,-1.8174666235595208e-25,-0.01513691060245037
720.0,509.0,-0.0837,-3.6873,8.6489,-0.0321,0.024,-0.1254,-1.7789832554259242,-0.005167369730770588,2.825826644897461,-1.860799789428711,5.440679524326697e-05,1.9068019390106201,-1.1298960012248536,-0.0,0.26642394065856934,-1.1723516623126429,0.0,-0.055437006056308746,0.6247472763061523,0.0,-0.003171685617417097,1.2409073114395142,-4.388968178145412e-31,-0.0070813982747495174
720.0,509.0,-0.0837,-3.6873,8.6489,-0.0321,0.024,-0.1254,-1.7789870701231898,-0.0041833436116576195,2.836214542388916,-1.8608523607254028,7.482487853849307e-05,1.9429391622543335,-1.129916028385498,-0.0,0.24358722567558289,-1.1723435560809534,0.0,-0.05715453624725342,0.6247676610946655,0.0,-0.013967804610729218,1.2409558296203613,0.0003410231147427112,-0.01710372045636177
720.0,509.0,-0.0837,-3.6873,8.6489,-0.0321,0.024,-0.1254,-1.7789951763548792,-0.0026968608144670725,2.7939276695251465,-1.8607758283615112,9.200017666444182e-05,1.9284018278121948,-1.1299400490573426,-0.0,0.2580055296421051,-1.1723955313311976,0.0,-0.06175628677010536,0.6247353553771973,0.0,-0.019464462995529175,1.2409558296203613,0.0004474345769267529,-0.034020550549030304
720.0,509.0,-0.0837,-3.6873,8.6489,-0.0321,0.024,-0.1254,-1.7790233097472132,-0.0020654292311519384,2.80800199508667,-1.860799789428711,8.762495417613536e-05,1.9671549797058105,-1.1298682254603882,-0.0,0.26474329829216003,-1.1723554770099085,0.0,-0.0450243279337883,0.6247754096984863,0.0,-0.022669117897748947,1.2409553527832031,0.00046723830746486783,-0.018461817875504494
720.0,509.0,-0.0837,-3.6873,8.6489,-0.0321,0.024,-0.1254,-1.779031892816061,-0.0014374252641573548,2.8174445629119873,-1.8608283996582031,8.166187035385519e-05,1.918237328529358,-1.1299440127662201,-0.0,0.2509152293205261,-1.1723998228656214,0.0,-0.05678071081638336,0.6247513294219971,0.0,-0.014403078705072403,1.2409512996673584,0.0005441238754428923,-0.014539709314703941
720.0,509.0,-0.0837,-3.6873,8.6489,-0.0321,0.024,-0.1254,-1.7790638409056605,-0.0016044876538217068,2.780052423477173,-1.860788345336914,5.958179463050328e-05,1.9463694095611572,-1.1299279493144532,-0.0,0.2592182457447052,-1.1723998228656214,0.0,-0.04944181814789772,0.6248152852058411,0.0,-0.011089957319200039,1.240951657295227,0.0003992345300503075,-0.010277928784489632
720.0,509.0,-0.0837,-3.6873,8.6489,-0.0321,0.024,-0.1254,-1.7790633640685023,-0.0023932664189487696,2.8090872764587402,-1.8608120679855347,-3.652226223493926e-05,1.901623010635376,-1.1298881632140656,-0.0,0.2591201663017273,-1.1723068396197718,0.0,-0.048891812562942505,0.6247513294219971,0.0,-0.008996237069368362,1.2409114837646484,0.00031529294210486114,-0.0137569485232234
720.0,509.0,-0.0837,-3.6873,8.6489,-0.0321,0.024,-0.1254,-1.779100080529684,-0.0036340467631816864,2.7808942794799805,-1.8608440160751343,-6.71247616992332e-05,1.9076611995697021,-1.129907951956131,-0.0,0.26063257455825806,-1.1723716894732874,0.0,-0.03922004625201225,0.6248152852058411,0.0,-0.010150001384317875,1.2409594058990479,0.00020842139201704413,-0.018284112215042114
720.0,509.0,-0.0837,-3.6873,8.6489,-0.0321,0.024,-0.1254,-1.779112001458639,-0.004283604212105274,2.7984695434570312,-1.8608481884002686,-6.037122511770576e-05,1.9328950643539429,-1.1298841399005433,-0.0,0.2480168342590332,-1.172335449849264,0.0,-0.04703338444232941,0.6247913837432861,0.0,-0.022276680916547775,1.240951657295227,0.00013318010314833373,-0.0031146197579801083
720.0,509.0,-0.0837,-3.6873,8.6489,-0.0321,0.024,-0.1254,-1.779123445550436,-0.004451431799679995,2.801607131958008,-1.8608202934265137,-2.742659671639558e-05,1.9223034381866455,-1.1298801463893433,-0.0,0.24924631416797638,-1.1723516623126429,0.0,-0.04682236909866333,0.624699056148529,0.0,-0.006771556567400694,1.240919589996338,-0.00010411672701593488,-0.04060502350330353
720.0,509.0,-0.0837,-3.6873,8.6489,-0.0321,0.024,-0.1254,-1.779107233087057,-0.0030629930552095175,2.793785810470581,-1.8608275651931763,-2.512867285986431e-05,1.9033557176589966,-1.1299081307700654,-0.0,0.2569940984249115,-1.172375504170553,0.0,-0.05006226524710655,0.624791145324707,0.0,-0.0008277905872091651,1.2409355640411377,-8.872347098076716e-05,0.011328085325658321
720.0,509.0,-0.0837,-3.6873,8.6489,-0.0321,0.024,-0.1254,-1.7791511021056117,-0.001941729336977005,2.8429341316223145,-1.8607758283615112,-2.3186514226836152e-05,1.9121840000152588,-1.1299279493144532,-0.0,0.26033759117126465,-1.172363583241598,0.0,-0.0566098690032959,0.6247751712799072,0.0,-0.011997027322649956,1.24089515209198,-3.918824586435221e-05,0.035097815096378326
720.0,509.0,-0.0837,-3.6873,8.6489,-0.0321,0.024,-0.1254,-1.7791997394957484,-0.0013885853113606572,2.8396196365356445,-1.8607800006866455,-2.2050364350434393e-05,1.9714243412017822,-1.1299120050719758,-0.0,0.2657945156097412,-1.172375504170553,0.0,-0.044270943850278854,0.6248033046722412,0.0,-0.009797594510018826,1.2409237623214722,-8.567921759095043e-05,-0.021061372011899948
720.0,509.0,-0.0837,-3.6873,8.6489,-0.0321,0.024,-0.1254,-1.7791553936400355,-0.0006895335973240435,2.7954025268554688,-1.8607923984527588,-2.054062315437477e-05,1.8898637294769287,-1.1299400490573426,-0.0,0.25914260745048523,-1.1723998228656214,0.0,-0.05194048210978508,0.624775230884552,0.0,-0.010770210064947605,1.2409237623214722,-1.7180756817225529e-09,0.022696442902088165
720.0,511.0,-0.1388,-3.1687,9.0305,-0.0344,0.024,-0.135,-1.7791677914061488,-0.0005337121547199786,2.828667640686035,-1.8607553243637085,-3.086327993173654e-08,1.9199864864349365,-1.1299081307700654,-0.0,0.26129820942878723,-1.172391716633932,0.0,-0.058827921748161316,0.624791145324707,0.0,-0.004297749605029821,1.2409274578094482,-4.14895033476817e-15,0.01975560002028942
720.0,511.0,-0.1388,-3.1687,9.0305,-0.0344,0.024,-0.135,-1.7791553936400355,-0.000494088395498693,2.8308606147766113,-1.8608243465423584,-7.453118119416305e-14,1.9144361019134521,-1.1298842889121552,-0.0,0.2648294270038605,-1.1723592917071741,0.0,-0.03781602531671524,0.6247353553771973,0.0,-0.004185593221336603,1.240919589996338,-1.0019225977342115e-20,0.011459922417998314
720.0,511.0,-0.1388,-3.1687,9.0305,-0.0344,0.024,-0.135,-1.7792116604247035,-0.00046705224667675793,2.828396797180176,-1.8607841730117798,-1.7998400643751706e-19,1.9291176795959473,-1.1298841399005433,-0.0,0.2508150637149811,-1.1724041144000452,0.0,-0.05132095143198967,0.6247751712799072,0.0,-0.009148785844445229,1.2409155368804932,-2.419524989090285e-26,-0.04846588522195816
720.0,511.0,-0.1388,-3.1687,9.0305,-0.0344,0.024,-0.135,-1.7792202434935511,-0.00045953263179399073,2.8373875617980957,-1.8608119487762451,-4.346402213676247e-25,1.9511902332305908,-1.1298841399005433,-0.0,0.2612496316432953,-1.1723836104022425,0.0,-0.03953457623720169,0.624751627445221,0.0,-0.00778224878013134,1.240891456604004,-5.842868139159106e-32,0.0023921909742057323
720.0,511.0,-0.1388,-3.1687,9.0305,-0.0344,0.024,-0.135,-1.7791115246214808,-0.0008728887187317014,2.8261477947235107,-1.8608119487762451,-1.0496051124593929e-30,1.9264647960662842,-1.129920319919922,-0.0,0.2602624297142029,-1.1723435560809534,0.0,-0.05752168595790863,0.6247310042381287,0.0,0.0038371810223907232,1.2409074306488037,-1.4109836787908445e-37,-0.0005103908479213715
720.0,511.0,-0.1388,-3.1687,9.0305,-0.0344,0.024,-0.135,-1.779203554193014,-0.0010221455013379455,2.807370662689209,-1.8608161211013794,-2.5346726083272047e-36,1.9937365055084229,-1.1298762422851105,-0.0,0.2448076754808426,-1.1723435560809534,0.0,-0.04555763304233551,0.6247751712799072,0.0,0.009008467197418213,1.240927815437317,-3.4051552683093055e-43,0.04838315024971962
720.0,511.0,-0.1388,-3.1687,9.0305,-0.0344,0.024,-0.135,-1.779247900048727,-0.0015010887291282415,2.8368124961853027,-1.860763430595398,-6.120871692170801e-42,1.928657054901123,-1.1299400490573426,-0.0,0.25934821367263794,-1.1723435560809534,0.0,-0.050790295004844666,0.6247673034667969,0.0,-0.004894834477454424,1.240939736366272,-9.281794336857274e-05,0.002067253924906254
720.0,511.0,-0.1388,-3.1687,9.0305,-0.0344,0.024,-0.135,-1.779219766656393,-0.0017492412589490414,2.800236940383911,-1.8608317375183105,-1.401298464324817e-45,1.930983304977417,-1.129892186527588,-0.0,0.25872814655303955,-1.172387425099508,0.0,-0.04537060111761093,0.624739408493042,0.0,-0.004483058117330074,1.2409237623214722,-8.41412038425915e-05,-0.03681231290102005
720.0,511.0,-0.1388,-3.1687,9.0305,-0.0344,0.024,-0.135,-1.7792355022826136,-0.002589457668364048,2.795667886734009,-1.8607964515686035,-0.0,1.9170087575912476,-1.1298800867846985,-0.0,0.25345301628112793,-1.1723516623126429,0.0,-0.05352451652288437,0.6247992515563965,0.0,-0.0007611180189996958,1.2409433126449585,-7.379217277048156e-05,-0.00789401214569807
720.0,511.0,-0.1388,-3.1687,9.0305,-0.0344,0.024,-0.135,-1.779231687585348,-0.003988412208855152,2.8235156536102295,-1.8608078956604004,-0.0,1.883497714996338,-1.1299000841430207,-0.0,0.2564122974872589,-1.1723516623126429,0.0,-0.04577939957380295,0.6247513294219971,0.0,0.0029051564633846283,1.2409355640411377,-6.571025005541742e-05,0.034672655165195465
720.0,511.0,-0.1388,-3.1687,9.0305,-0.0344,0.024,-0.135,-1.779344221154684,-0.006253918167203665,2.785628080368042,-1.8608119487762451,-0.0,1.909109115600586,-1.1298920077136536,-0.0,0.2609134316444397,-1.1723435560809534,0.0,-0.05162021890282631,0.6247870922088623,0.0,-0.006166883744299412,1.2409439086914062,-5.9223995776847005e-05,-0.011571010574698448
720.0,511.0,-0.1388,-3.1687,9.0305,-0.0344,0.024,-0.135,-1.779367586175436,-0.008071241900324821,2.820524215698242,-1.860824465751648,-0.0,1.94254469871521,-1.1298841399005433,-0.0,0.27112942934036255,-1.1723836104022425,0.0,-0.035663872957229614,0.6248311996459961,0.0,0.003575499402359128,1.2408630847930908,-2.707949170144275e-05,-0.030595747753977776
720.0,511.0,-0.1388,-3.1687,9.0305,-0.0344,0.024,-0.135,-1.7793756924071253,-0.009643961675465107,2.8156373500823975,-1.8608006238937378,-0.0,1.9458658695220947,-1.1299438935569306,-0.0,0.26913881301879883,-1.1723678747760218,0.0,-0.05506649240851402,0.6247591972351074,0.0,0.0003143693320453167,1.240891456604004,-2.4729897631914355e-05,-0.03416743129491806
720.0,511.0,-0.1388,-3.1687,9.0305,-0.0344,0.024,-0.135,-1.7794844112791957,-0.009740237146615982,2.8055386543273926,-1.8608046770095825,-0.0,1.9499905109405518,-1.1299400490573426,-0.0,0.272813618183136,-1.1723797957049769,0.0,-0.049137480556964874,0.6247631907463074,0.0,0.002055770717561245,1.240931510925293,-4.569301745505072e-05,-0.013034902513027191
720.0,511.0,-0.1388,-3.1687,9.0305,-0.0344,0.024,-0.135,-1.7795239887633265,-0.009508833289146423,2.8239657878875732,-1.8608119487762451,-0.0,1.9288904666900635,-1.1299239260009308,-0.0,0.24989426136016846,-1.1723955313311976,0.0,-0.04135138541460037,0.6247231960296631,0.0,-0.002193715423345566,1.2409237623214722,-6.365523586282507e-05,-0.010382184758782387
720.0,511.0,-0.1388,-3.1687,9.0305,-0.0344,0.024,-0.135,-1.7796203098692835,-0.009677952155470848,2.802804470062256,-1.8608119487762451,-0.0,1.975239872932434,-1.1299120050719758,-0.0,0.26361820101737976,-1.172387425099508,0.0,-0.05086025595664978,0.6248152256011963,0.0,-0.0019146696431562304,1.2409355640411377,-6.082004256313667e-05,-0.02863132953643799
721.0,525.0,-0.2016,-3.5779,8.458,-0.0293,0.0229,-0.1257,-1.7796889744200648,-0.009227951988577843,2.7998459339141846,-1.8608078956604004,0.0001631185004953295,1.9579564332962036,-1.1299719375422974,-0.0,0.2680777907371521,-1.1723836104022425,0.0,-0.0438510999083519,0.6248030662536621,0.0,-0.0037573836743831635,1.2409237623214722,-5.697019514627755e-05,-0.011010486632585526
721.0,525.0,-0.2016,-3.5779,8.458,-0.0293,0.0229,-0.1257,-1.7797371349730433,-0.009477228857576847,2.7540082931518555,-1.860771656036377,0.00017385669343639165,1.9518473148345947,-1.1299200815013428,-0.0,0.26028677821159363,-1.172347370778219,0.0,-0.04467535763978958,0.6248271465301514,0.0,-0.003022916615009308,1.240939736366272,-5.3578638471663e-05,-0.00033191475085914135
721.0,525.0,-0.2016,-3.5779,8.458,-0.0293,0.0229,-0.1257,-1.779776235620016,-0.010134483687579632,2.8088061809539795,-1.860763430595398,0.00017658289289101958,1.9610357284545898,-1.1299438935569306,-0.0,0.2695465087890625,-1.1723435560809534,0.0,-0.055225446820259094,0.6247232556343079,0.0,-0.011812158860266209,1.2409032583236694,-5.056826557847671e-05,0.07224205136299133
721.0,525.0,-0.2016,-3.5779,8.458,-0.0293,0.0229,-0.1257,-1.7798286877074183,-0.00972716137766838,2.84131121635437,-1.8607964515686035,0.00017131312051787972,1.9544872045516968,-1.1299840074828644,-0.0,0.2646319568157196,-1.1723592917071741,0.0,-0.052317339926958084,0.6248030662536621,0.0,0.0007527181878685951,1.2408909797668457,-4.787817670148797e-05,0.014927485957741737
721.0,525.0,-0.2016,-3.5779,8.458,-0.0293,0.0229,-0.1257,-1.7798644504942835,-0.010680054314434528,2.7876229286193848,-1.8607840538024902,0.0001598994858795777,1.9072868824005127,-1.1299039286426087,-9.086607910546718e-09,0.2612266540527344,-1.1723797957049769,0.0,-0.0699818953871727,0.6247473359107971,0.0,-0.0003290450549684465,1.240891456604004,-4.5459859393304214e-05,0.049003876745700836
721.0,525.0,-0.2016,-3.5779,8.458,-0.0293,0.0229,-0.1257,-1.7799445591368617,-0.011882530525326729,2.794327735900879,-1.8608119487762451,0.0002513134968467057,1.9654405117034912,-1.1299558144858857,-2.529290579061927e-12,0.27181679010391235,-1.1723592917071741,0.0,-0.04876845329999924,0.6248149871826172,0.0,0.008991586975753307,1.2409155368804932,-4.327407441451214e-05,0.0497649721801281
721.0,525.0,-0.2016,-3.5779,8.458,-0.0293,0.0229,-0.1257,-1.7800570927061976,-0.012010164558887482,2.784064292907715,-1.8607561588287354,0.0003028515784535557,1.9998503923416138,-1.1299558144858857,-7.040373744944214e-16,0.26000046730041504,-1.1723836104022425,0.0,-0.06667956709861755,0.624791145324707,0.0,0.003441594075411558,1.240943431854248,1.8351223843637854e-05,0.11519689857959747
721.0,525.0,-0.2016,-3.5779,8.458,-0.0293,0.0229,-0.1257,-1.7801171741881312,-0.010959556326270103,2.768876075744629,-1.8608161211013794,0.00030255195451900363,1.968290090560913,-1.129979894762375,-1.9597135265133277e-19,0.2637188136577606,-1.1723516623126429,0.0,-0.06000550836324692,0.6248514652252197,0.0,-0.0003458732971921563,1.240927815437317,1.754155891831033e-05,0.12369875609874725
721.0,525.0,-0.2016,-3.5779,8.458,-0.0293,0.0229,-0.1257,-1.780144830743307,-0.010085972025990486,2.7561821937561035,-1.8607593774795532,0.0002790960425045341,1.9815757274627686,-1.1298797887614747,-8.3545655862058855e-22,0.2591249346733093,-1.172403637562887,0.0,-0.06264375150203705,0.6247472763061523,0.0,0.011483898386359215,1.2408992052078247,1.6883430362213403e-05,0.11642283201217651
721.0,525.0,-0.2016,-3.5779,8.458,-0.0293,0.0229,-0.1257,-1.7802578411498011,-0.010622716508805752,2.788212299346924,-1.860779881477356,0.0002507563622202724,1.9797143936157227,-1.1299599272063752,-0.00034075952135026455,0.25282642245292664,-1.1723640600787562,0.0,-0.07784312218427658,0.6247830390930176,0.0,-0.02787286415696144,1.240947961807251,1.5983909179340117e-05,0.16885384917259216
721.0,525.0,-0.2016,-3.5779,8.458,-0.0293,0.0229,-0.1257,-1.7803174457945765,-0.010257139801979065,2.7351016998291016,-1.8608006238937378,0.0003615424211602658,2.0405726432800293,-1.129968063240387,-0.00038478182977996767,0.2535388171672821,-1.1723316351519983,0.0,-0.06557337194681168,0.6248312592506409,0.0,0.003768013557419181,1.240931510925293,1.5175375665421598e-05,0.14490854740142822
721.0,525.0,-0.2016,-3.5779,8.458,-0.0293,0.0229,-0.1257,-1.78037752727651,-0.009369113482534885,2.7499210834503174,-1.8607157468795776,0.0004001491761300713,2.0350148677825928,-1.1299758714488526,-0.0007920877542346716,0.2382604330778122,-1.1723836104022425,0.0,-0.0672784149646759,0.6247792840003967,3.1189573146406246e-09,-0.004295938182622194,1.2408872842788696,2.8822116291848943e-05,0.16385266184806824
721.0,525.0,-0.2016,-3.5779,8.458,-0.0293,0.0229,-0.1257,-1.780450006524557,-0.00900445505976677,2.751899242401123,-1.8607560396194458,0.0004992515896447003,2.0304789543151855,-1.1299718183330079,-0.0011619810247793794,0.22995305061340332,-1.1723435560809534,0.0,-0.07806737720966339,0.6247751712799072,8.681732633145089e-13,0.004016990773379803,1.2408872842788696,2.7562327886698768e-05,0.15283037722110748
721.0,525.0,-0.2016,-3.5779,8.458,-0.0293,0.0229,-0.1257,-1.7804533443846644,-0.00924735888838768,2.6950645446777344,-1.8608087301254272,0.0005219501908868551,2.018568515777588,-1.1300280851176758,-0.0014224015176296234,0.23026135563850403,-1.1723797957049769,0.0,-0.06855398416519165,0.624791145324707,2.4165921453570113e-16,-0.0035205106250941753,1.2409074306488037,2.635183591337409e-05,0.17272832989692688
721.0,525.0,-0.2016,-3.5779,8.458,-0.0293,0.0229,-0.1257,-1.7805501423277796,-0.009736706502735615,2.7020115852355957,-1.8607240915298462,0.0009642590302973986,2.0374269485473633,-1.1299958390048523,-0.0012008240446448326,0.22256803512573242,-1.1723797957049769,0.0,-0.07882124185562134,0.6248393654823303,6.726672161607288e-20,0.013341103680431843,1.2409113645553589,3.780610495596193e-05,0.15973183512687683
706.0,543.0,-0.1555,-3.6724,8.7541,-0.0348,0.0315,-0.1384,-1.7805859051146449,-0.01051625981926918,2.667668581008911,-1.8607488870620728,0.002262270310893655,2.0646331310272217,-1.1299836796573182,-0.0009692853200249374,0.22169438004493713,-1.172403637562887,0.0,-0.0771755576133728,0.624731183052063,1.8723941751557287e-23,-0.005872202105820179,1.2408711910247803,0.00016371165111195296,0.23268365859985352
706.0,543.0,-0.1555,-3.6724,8.7541,-0.0348,0.0315,-0.1384,-1.7806621990599574,-0.010720456019043922,2.610830307006836,-1.8607001304626465,0.0033052044454962015,1.994168758392334,-1.1299957794002076,-0.0014168829657137394,0.2221912443637848,-1.172335449849264,0.0,-0.07906558364629745,0.6247511506080627,5.211878430162851e-27,0.0018787025474011898,1.2408992052078247,0.00014893656771164387,0.21300458908081055
706.0,543.0,-0.1555,-3.6724,8.7541,-0.0348,0.0315,-0.1384,-1.780689378777975,-0.011745264753699303,2.651581048965454,-1.860655665397644,0.005808355286717415,2.0528552532196045,-1.130068228845932,-0.0014653406105935574,0.2038748860359192,-1.1723559538470667,0.0,-0.08055044710636139,0.6248030662536621,2.221905654534451e-29,0.011780688539147377,1.240927815437317,0.00013968927669338882,0.23469412326812744
706.0,543.0,-0.1555,-3.6724,8.7541,-0.0348,0.0315,-0.1384,-1.7808100185790003,-0.013799645937979221,2.6440577507019043,-1.860640048980713,0.009856785647571087,2.090383529663086,-1.1299710136703034,-0.0018299971707165241,0.20520538091659546,-1.1723998228656214,0.0,-0.07124683260917664,0.6248109340667725,6.184756262991953e-33,-0.010290887206792831,1.2409155368804932,0.00015334166528191417,0.2259465903043747
706.0,543.0,-0.1555,-3.6724,8.7541,-0.0348,0.0315,-0.1384,-1.7808739147581996,-0.015342481434345245,2.569929599761963,-1.860567569732666,0.010010754689574242,2.0431675910949707,-1.1300597947886963,-0.003354629036039114,0.2018660008907318,-1.1723797957049769,0.0,-0.08665958046913147,0.6247469782829285,1.7215496459073307e-36,-0.00478395726531744,1.2409237623214722,0.0001413082063663751,0.23245784640312195
706.0,543.0,-0.1555,-3.6724,8.7541,-0.0348,0.0315,-0.1384,-1.7810188732542933,-0.0190228670835495,2.5455167293548584,-1.8605002164840698,0.010745415464043617,2.079556941986084,-1.1301202040961762,-0.00408988818526268,0.1897517740726471,-1.1723392645465296,0.0,-0.09473653137683868,0.6248393058776855,4.7919923324822904e-40,-0.012715109623968601,1.2409074306488037,0.00013102227239869535,0.2961910367012024
706.0,543.0,-0.1555,-3.6724,8.7541,-0.0348,0.0315,-0.1384,-1.781130929986471,-0.021031973883509636,2.563250780105591,-1.8604556322097778,0.011813043616712093,2.0965933799743652,-1.1300917130759736,-0.003726155497133732,0.188798189163208,-1.1723516623126429,0.0,-0.08370335400104523,0.6248149871826172,1.3312335411085762e-43,0.00150757422670722,1.2409319877624512,0.00015587577945552766,0.29214394092559814
706.0,543.0,-0.1555,-3.6724,8.7541,-0.0348,0.0315,-0.1384,-1.7812792263426722,-0.02393966168165207,2.539900779724121,-1.8603274822235107,0.012426825240254402,2.0846967697143555,-1.1300594967654725,-0.0029700221493840218,0.1886783391237259,-1.1723559538470667,0.0,-0.08022373914718628,0.6248232126235962,0.0,-0.00740021700039506,1.240943431854248,0.0001524959079688415,0.27799955010414124
706.0,543.0,-0.1555,-3.6724,8.7541,-0.0348,0.0315,-0.1384,-1.7814198933043421,-0.027405913919210434,2.495971202850342,-1.8603404760360718,0.013876105658710003,2.1237854957580566,-1.1301318568042298,-0.0018597814487293363,0.18226781487464905,-1.1723106543170374,0.0,-0.09409382194280624,0.6247711777687073,0.0,-0.01064773928374052,1.2408992052078247,0.00018772862676996738,0.28904643654823303
706.0,543.0,-0.1555,-3.6724,8.7541,-0.0348,0.0315,-0.1384,-1.7815915546812953,-0.030289649963378906,2.490577459335327,-1.86024010181427,0.015036037191748619,2.0694680213928223,-1.1301276844790955,-0.0011183383176103234,0.18021804094314575,-1.1723597685443323,0.0,-0.10018034279346466,0.6248230934143066,0.0,0.0028900797478854656,1.2408992052078247,0.0002002160035772249,0.2750104069709778
706.0,543.0,-0.1555,-3.6724,8.7541,-0.0348,0.0315,-0.1384,-1.7817193470396937,-0.03364849463105202,2.4756693840026855,-1.8601160049438477,0.015962036326527596,2.1082587242126465,-1.1301276844790955,-0.0008250591345131397,0.17208310961723328,-1.1723559538470667,0.0,-0.08300960063934326,0.6247830986976624,0.0,0.00736376503482461,1.2408995628356934,0.00018639441987033933,0.33522069454193115
706.0,543.0,-0.1555,-3.6724,8.7541,-0.0348,0.0315,-0.1384,-1.7819444141783656,-0.038135506212711334,2.4592671394348145,-1.8600680828094482,0.01726079359650612,2.10117244720459,-1.130111740236618,-0.000676472787745297,0.1811048537492752,-1.1723559538470667,0.0,-0.08940528333187103,0.6247789859771729,0.0,-0.004276941530406475,1.240951657295227,0.00016890351253096014,0.3212113082408905
706.0,543.0,-0.1555,-3.6724,8.7541,-0.0348,0.0315,-0.1384,-1.7821766338744105,-0.04417746141552925,2.4840521812438965,-1.8598839044570923,0.018930774182081223,2.155435800552368,-1.130111740236618,-0.0003887514758389443,0.16406145691871643,-1.1723559538470667,0.0,-0.08623655140399933,0.6248149871826172,0.0,0.002816743217408657,1.2408992052078247,0.00015441383584402502,0.321209192276001
706.0,543.0,-0.1555,-3.6724,8.7541,-0.0348,0.0315,-0.1384,-1.782468935052389,-0.05142807587981224,2.401318311691284,-1.8598246574401855,0.020106574520468712,2.1498301029205322,-1.1300837856582184,-0.0003082713228650391,0.17134949564933777,-1.1723516623126429,0.0,-0.09158758819103241,0.6247870922088623,8.191225788323209e-05,-0.0019150972366333008,1.240919589996338,0.00014221377205103636,0.28686684370040894
706.0,543.0,-0.1555,-3.6724,8.7541,-0.0348,0.0315,-0.1384,-1.7828098736205042,-0.057887982577085495,2.4022469520568848,-1.8596962690353394,0.020856091752648354,2.107053518295288,-1.1300874513438721,-0.000280608277535066,0.1919650286436081,-1.1723678747760218,0.0,-0.0946066677570343,0.6248390674591064,8.271737897302955e-05,0.000945650041103363,1.2409113645553589,0.00013180062524043024,0.36094117164611816
706.0,543.0,-0.1555,-3.6724,8.7541,-0.0348,0.0315,-0.1384,-1.7831417522826136,-0.06326495856046677,2.4376728534698486,-1.8595480918884277,0.023810898885130882,2.1474552154541016,-1.1300755006125947,-0.0002621255407575518,0.17450007796287537,-1.1723435560809534,2.1554907903009735e-07,-0.09124794602394104,0.6247909069061279,7.839567115297541e-05,-0.005449154879897833,1.240931510925293,0.0001228081964654848,0.3524075746536255
757.0,535.0,-0.1382,-3.6084,8.3456,-0.0218,0.0119,-0.1219,-1.783522745172018,-0.06957383453845978,2.4304301738739014,-1.859412431716919,0.025710279121994972,2.1611242294311523,-1.1301239293864747,-0.00022880382311996073,0.17680904269218445,-1.1723879019366663,5.999887392471592e-11,-0.09986013174057007,0.6247828602790833,8.183873433154076e-05,0.0005353837041184306,1.2409032583236694,0.00011496465594973415,0.3205699324607849
757.0,535.0,-0.1382,-3.6084,8.3456,-0.0218,0.0119,-0.1219,-1.7839795551695765,-0.07674627006053925,2.4093804359436035,-1.8592320680618286,0.027510423213243484,2.1648788452148438,-1.13011987627063,-0.0002029955794569105,0.1692526787519455,-1.172335449849264,1.6700906269365677e-14,-0.09218332171440125,0.6248628497123718,8.516982052242383e-05,0.009352471679449081,1.2408671379089355,0.00010806281352415681,0.3014320731163025
757.0,535.0,-0.1382,-3.6084,8.3456,-0.0218,0.0119,-0.1219,-1.7845241032042445,-0.08432155847549438,2.354482650756836,-1.8590922355651855,0.029595207422971725,2.1723930835723877,-1.1300999087146302,-0.00018241994257550687,0.18613497912883759,-1.172375504170553,4.648758351270466e-18,-0.10140495747327805,0.6248230934143066,8.132380025926977e-05,-0.00016782089369371533,1.2409439086914062,0.00010194264905294403,0.3603285551071167
757.0,535.0,-0.1382,-3.6084,8.3456,-0.0218,0.0119,-0.1219,-1.7848288021483363,-0.08920097351074219,2.4093942642211914,-1.8589648008346558,0.02907465770840645,2.1203598976135254,-1.1301474434188385,-0.00017087375454138964,0.17694136500358582,-1.1723592917071741,1.9818389600002446e-20,-0.10706237703561783,0.6248312592506409,7.894598093116656e-05,0.00402777548879385,1.2408992052078247,8.188761421479285e-05,0.30597928166389465
757.0,535.0,-0.1382,-3.6084,8.3456,-0.0218,0.0119,-0.1219,-1.78540100673818,-0.09191389381885529,2.3885622024536133,-1.8587607145309448,0.029410019516944885,2.1569385528564453,-1.1300517481616517,-0.00015605779481120408,0.17933854460716248,-1.1723955313311976,5.5165216651504504e-24,-0.08992437273263931,0.6248390674591064,7.562899554613978e-05,0.008715186268091202,1.240927815437317,7.762519817333668e-05,0.33895164728164673
757.0,535.0,-0.1382,-3.6084,8.3456,-0.0218,0.0119,-0.1219,-1.7860070667662562,-0.09183720499277115,2.396101236343384,-1.858608365058899,0.028683174401521683,2.17681622505188,-1.1300876599601288,-0.00014360647764988244,0.1886078268289566,-1.1723836104022425,1.5355441372529376e-27,-0.09026895463466644,0.624763011932373,7.257950346684083e-05,0.0031572843436151743,1.240919589996338,8.83655811776407e-05,0.34245485067367554
757.0,535.0,-0.1382,-3.6084,8.3456,-0.0218,0.0119,-0.1219,-1.7865306339659632,-0.08943523466587067,2.4029064178466797,-1.8584364652633667,0.026120837777853012,2.133512496948242,-1.1300999087146302,-0.00013299523561727256,0.17983141541481018,-1.172347370778219,4.27424369108708e-31,-0.09192530810832977,0.6248393058776855,6.976637814659625e-05,-0.00669724028557539,1.240943431854248,8.441356476396322e-05,0.3351017236709595
757.0,535.0,-0.1382,-3.6084,8.3456,-0.0218,0.0119,-0.1219,-1.7870713673033656,-0.08890614658594131,2.4061107635498047,-1.8582521677017212,0.021410206332802773,2.179319381713867,-1.1301076871207734,-0.0001238443801412359,0.18731167912483215,-1.172387425099508,1.189751467217705e-34,-0.10677621513605118,0.6247949600219727,7.826060027582571e-05,0.0012646776158362627,1.2409237623214722,9.400839917361736e-05,0.335693359375
757.0,535.0,-0.1382,-3.6084,8.3456,-0.0218,0.0119,-0.1219,-1.7876330814757289,-0.08894676715135574,2.4170846939086914,-1.8581888675689697,0.015428063459694386,2.1556105613708496,-1.1300273698619385,-0.00014950150216463953,0.18333324790000916,-1.1723797957049769,3.3117166867081267e-38,-0.09616260975599289,0.6248071193695068,7.553852628916502e-05,0.001427392940968275,1.2409355640411377,0.00010139956430066377,0.3367661237716675
757.0,535.0,-0.1382,-3.6084,8.3456,-0.0218,0.0119,-0.1219,-1.7881537876524867,-0.09002328664064407,2.4374332427978516,-1.8581286668777466,0.010752099566161633,2.1498751640319824,-1.1300999087146302,-0.00012927725038025528,0.1963452696800232,-1.1723554770099085,9.217741298328647e-42,-0.09372541308403015,0.6247949004173279,7.291573274414986e-05,0.0020141382701694965,1.2409032583236694,8.780206553637981e-05,0.30635327100753784
757.0,535.0,-0.1382,-3.6084,8.3456,-0.0218,0.0119,-0.1219,-1.7886821232237757,-0.09641450643539429,2.433210849761963,-1.8580572605133057,0.006874245125800371,2.1140809059143066,-1.1301077169230958,-0.00010489125270396471,0.18522147834300995,-1.1723831335650843,2.802596928649634e-45,-0.1070769876241684,0.6248270273208618,7.046896644169465e-05,0.01353863999247551,1.240931510925293,8.255781722255051e-05,0.32464706897735596
757.0,535.0,-0.1382,-3.6084,8.3456,-0.0218,0.0119,-0.1219,-1.7890345058836878,-0.09879419952630997,2.4072425365448,-1.858048915863037,0.005661745090037584,2.1238951683044434,-1.1301077169230958,-9.03600302990526e-05,0.17744296789169312,-1.172335449849264,0.0,-0.09631849825382233,0.6248108744621277,4.5502238208428025e-06,-0.0024799753446131945,1.2408950328826904,9.555996803101152e-05,0.38451480865478516
757.0,535.0,-0.1382,-3.6084,8.3456,-0.0218,0.0119,-0.1219,-1.7895995579161585,-0.10455882549285889,2.3891801834106445,-1.8579847812652588,0.004738342482596636,2.102144241333008,-1.1300594967654725,-7.515375182265416e-05,0.17888355255126953,-1.172387425099508,-0.00011855851334985346,-0.11418411135673523,0.6248628497123718,1.2665712922910188e-09,0.010155098512768745,1.2409639358520508,9.074534318642691e-05,0.3424046039581299
757.0,535.0,-0.1382,-3.6084,8.3456,-0.0218,0.0119,-0.1219,-1.7902614078917445,-0.10351930558681488,2.4435815811157227,-1.8579039573669434,0.005675216671079397,2.102632761001587,-1.1300836366466065,-7.07218496245332e-05,0.18120577931404114,-1.1723836104022425,-0.00016432096890639514,-0.11159637570381165,0.6249028444290161,3.525548180217247e-13,0.008976574055850506,1.2409155368804932,0.00010078811465064064,0.3498595356941223
757.0,535.0,-0.1382,-3.6084,8.3456,-0.0218,0.0119,-0.1219,-1.7908536396422328,-0.10275392234325409,2.4334309101104736,-1.85795259475708,0.007394297979772091,2.1505842208862305,-1.1300755006125947,-5.009422602597624e-05,0.18435335159301758,-1.1723993460284632,-0.0005977049004286528,-0.10543424636125565,0.6248068809509277,9.813492116316809e-17,-0.0064567080698907375,1.240943431854248,0.0002834813203662634,0.37440288066864014
748.0,585.0,0.2225,-3.734,8.6219,-0.0261,-0.057,-0.1504,-1.7915064297118128,-0.10053884238004684,2.4646270275115967,-1.8578449487686157,0.005890599451959133,2.147458076477051,-1.130051777963974,-4.744850593851879e-05,0.1859738528728485,-1.1724112669574183,-0.0006219929782673717,-0.1239696741104126,0.6248272061347961,2.7316214781711646e-20,-0.0013939221389591694,1.2409753799438477,0.00035700129228644073,0.40787971019744873
748.0,585.0,0.2225,-3.734,8.6219,-0.0261,-0.057,-0.1504,-1.792147775689596,-0.1011030375957489,2.4323506355285645,-1.857840657234192,0.003912064246833324,2.134552478790283,-1.1300714176944275,-6.009193748468533e-05,0.19422505795955658,-1.1724231878863733,-0.0008593725506216288,-0.11593222618103027,0.624875009059906,7.6035683636048e-24,-0.010974263772368431,1.2409393787384033,0.0006402730359695852,0.41164618730545044
748.0,585.0,0.2225,-3.734,8.6219,-0.0261,-0.057,-0.1504,-1.792748590508932,-0.10180117934942245,2.4566197395324707,-1.85788094997406,0.0015879396814852953,2.188061237335205,-1.1300755006125947,-5.723017966374755e-05,0.19070741534233093,-1.1724069754229944,-0.0006992278504185379,-0.12741300463676453,0.6248670220375061,2.1164808753059257e-27,-0.0036160945892333984,1.2409833669662476,0.0004698965640272945,0.46132248640060425
748.0,585.0,0.2225,-3.734,8.6219,-0.0261,-0.057,-0.1504,-1.793349405328268,-0.10689137130975723,2.464982032775879,-1.8578646183013916,0.00046113537973724306,2.164029121398926,-1.1301158529571076,-5.462505578179844e-05,0.19611242413520813,-1.172415558491842,-0.0005305602098815143,-0.12824559211730957,0.624782919883728,5.891303090840953e-31,0.005801906809210777,1.2409274578094482,0.00035777242737822235,0.4306502938270569
748.0,585.0,0.2225,-3.734,8.6219,-0.0261,-0.057,-0.1504,-1.7939378223814906,-0.10699743032455444,2.444373607635498,-1.857840657234192,0.00040467260987497866,2.1514744758605957,-1.1301036936095734,-5.224671622272581e-05,0.1976603865623474,-1.1724312941180628,-0.00046507760998792946,-0.12234188616275787,0.6248270869255066,1.6398659324805694e-34,0.01125088706612587,1.240943431854248,0.0002888582239393145,0.4593513607978821
748.0,585.0,0.2225,-3.734,8.6219,-0.0261,-0.057,-0.1504,-1.7943664989867152,-0.10769212990999222,2.4771900177001953,-1.8578448295593262,0.0002026357251452282,2.186260223388672,-1.1301236611655732,-5.0772960094036534e-05,0.21663552522659302,-1.1723945776568812,-0.00040073582204058766,-0.13577108085155487,0.6248670220375061,6.991005395204122e-37,-0.005407055839896202,1.2409274578094482,0.00030108209466561675,0.4560615122318268
748.0,585.0,0.2225,-3.734,8.6219,-0.0261,-0.057,-0.1504,-1.79498352626943,-0.10788913816213608,2.4334611892700195,-1.8577837944030762,0.0025132750160992146,2.170003890991211,-1.1300836366466065,-3.9666912925895303e-05,0.20102852582931519,-1.1724231878863733,-0.00043312436901032925,-0.13788968324661255,0.6247710585594177,1.9459691644232302e-40,-0.00022009707754477859,1.2409393787384033,0.00030551766394637525,0.4704602360725403
748.0,585.0,0.2225,-3.734,8.6219,-0.0261,-0.057,-0.1504,-1.7956325016417445,-0.10426077246665955,2.4590094089508057,-1.8578178882598877,0.005317221861332655,2.155604124069214,-1.1300836366466065,-3.5109653254039586e-05,0.1999218761920929,-1.17247182527651,-0.00037986208917573094,-0.14700253307819366,0.6248430609703064,5.465064010866787e-44,0.012841667048633099,1.240979552268982,0.00030665728263556957,0.5208487510681152
748.0,585.0,0.2225,-3.734,8.6219,-0.0261,-0.057,-0.1504,-1.7962295017638148,-0.09803790599107742,2.4795031547546387,-1.8577888011932373,0.0069734458811581135,2.1881117820739746,-1.1300876599601288,-3.3790627639973536e-05,0.20972183346748352,-1.1724794546710413,-0.00042451490298844874,-0.1408126950263977,0.6248709559440613,0.0,6.97083305567503e-05,1.2409632205963135,0.0011237624567002058,0.5436388254165649
748.0,585.0,0.2225,-3.734,8.6219,-0.0261,-0.057,-0.1504,-1.7968017063536585,-0.09210093319416046,2.5332589149475098,-1.857708215713501,0.007761432323604822,2.1826703548431396,-1.130079523926117,-3.2567873859079555e-05,0.2083638608455658,-1.1724794546710413,-0.0004039380291942507,-0.1462743878364563,0.6248108744621277,0.0,-0.0019111937144771218,1.2409791946411133,0.0012969712261110544,0.5513483881950378
748.0,585.0,0.2225,-3.734,8.6219,-0.0261,-0.057,-0.1504,-1.7973586521544398,-0.09218637645244598,2.4892308712005615,-1.8576399087905884,0.00715744448825717,2.1944308280944824,-1.130111740236618,-3.143051071674563e-05,0.20965476334095,-1.1724556128131312,-0.00044146442087367177,-0.1550746113061905,0.6248749494552612,0.0,-0.010441054590046406,1.241019368171692,0.0014647797215729952,0.6138867139816284
748.0,585.0,0.2225,-3.734,8.6219,-0.0261,-0.057,-0.1504,-1.79795565227651,-0.09418074786663055,2.510838031768799,-1.8576490879058838,0.0067472257651388645,2.1790835857391357,-1.1300918024829407,-3.0369930755114183e-05,0.20725566148757935,-1.1724713484393519,-0.0004090646980330348,-0.16936762630939484,0.6248430609703064,0.0,-0.003175065852701664,1.2409632205963135,0.0018929603975266218,0.6122901439666748
748.0,585.0,0.2225,-3.734,8.6219,-0.0261,-0.057,-0.1504,-1.798448225060934,-0.08955715596675873,2.5529274940490723,-1.8575682640075684,0.006832966115325689,2.2075462341308594,-1.1301039320281525,-4.982829295840929e-07,0.21037650108337402,-1.1724675337420862,-0.00038509166915901005,-0.154794842004776,0.6248431205749512,0.0,0.007699184585362673,1.2410234212875366,0.003922510892152786,0.6522426605224609
748.0,585.0,0.2225,-3.734,8.6219,-0.0261,-0.057,-0.1504,-1.7989570103087367,-0.08581743389368057,2.46010422706604,-1.8575527667999268,0.008432745933532715,2.2172164916992188,-1.1300876897624512,-1.386988857099425e-10,0.2142733484506607,-1.1724837462054651,-0.0003281518875155598,-0.16090218722820282,0.6248552203178406,2.351569855818525e-05,0.009206259623169899,1.2410069704055786,0.007247727829962969,0.6036680340766907
748.0,585.0,0.2225,-3.734,8.6219,-0.0261,-0.057,-0.1504,-1.799281736413473,-0.08188537508249283,2.5206305980682373,-1.857520580291748,0.009761257097125053,2.262129306793213,-1.130079523926117,3.0716804758412763e-05,0.21566753089427948,-1.1724913755999964,-0.0003394388477317989,-0.15939432382583618,0.6248108744621277,1.0025111407685472e-07,0.016201790422201157,1.2410467863082886,0.008138319477438927,0.6643661856651306
748.0,585.0,0.2225,-3.734,8.6219,-0.0261,-0.057,-0.1504,-1.7997099361815394,-0.07587940990924835,2.584458827972412,-1.8574687242507935,0.01321239210665226,2.2263102531433105,-1.1300515693477173,2.9918986911070533e-05,0.2030535340309143,-1.1724913755999964,-0.0002979836717713624,-0.17210781574249268,0.6248511672019958,2.7905266639094428e-11,-0.008265094831585884,1.2411234378814697,0.0069533963687717915,0.6531411409378052
815.0,756.0,0.3009,-2.9725,9.3703,0.0276,-0.0496,-0.179,-1.8001905880370082,-0.07345322519540787,2.6048738956451416,-1.857327938079834,0.01634599268436432,2.258720636367798,-1.1300754708102723,2.8498134270193987e-05,0.20583093166351318,-1.1724513212787073,-0.00022780598374083638,-0.17670392990112305,0.6248068809509277,7.767534377744849e-15,0.0007328653009608388,1.2411552667617798,0.006414547562599182,0.6297805905342102
815.0,756.0,0.3009,-2.9725,9.3703,0.0276,-0.0496,-0.179,-1.8005954227843226,-0.07107449322938919,2.55918288230896,-1.8572564125061035,0.019626477733254433,2.2993545532226562,-1.1301039320281525,2.7205931473872624e-05,0.2323113977909088,-1.1724875609027308,-0.00023712340043857694,-0.165088951587677,0.6247909665107727,2.1621217014235155e-18,-0.008093181066215038,1.2411868572235107,0.005186085589230061,0.6522926092147827
815.0,756.0,0.3009,-2.9725,9.3703,0.0276,-0.0496,-0.179,-1.8009840450682582,-0.06679672747850418,2.6244680881500244,-1.8571288585662842,0.023646723479032516,2.2895894050598145,-1.1300917726806183,2.602582571853418e-05,0.22548073530197144,-1.172507111226217,-0.00024223125365097076,-0.17882677912712097,0.6248393058776855,6.018345306369465e-22,0.0023391228169202805,1.2411786317825317,0.0036428263410925865,0.669950544834137
815.0,756.0,0.3009,-2.9725,9.3703,0.0276,-0.0496,-0.179,-1.801380296746725,-0.06134587153792381,2.598989486694336,-1.8569289445877075,0.028751416131854057,2.2792928218841553,-1.1300794941237946,3.740172178368084e-05,0.21787148714065552,-1.1724751631366175,-0.0002190825471188873,-0.17017024755477905,0.6248029470443726,1.6752289626318668e-25,4.121381789445877e-05,1.2412068843841553,0.002353876829147339,0.6464443206787109
815.0,756.0,0.3009,-2.9725,9.3703,0.0276,-0.0496,-0.179,-1.8017612896361292,-0.05632451921701431,2.58911395072937,-1.8567736148834229,0.034639179706573486,2.236926555633545,-1.13007144749675,3.592238499550149e-05,0.21909673511981964,-1.1725314299212855,-0.00019838371372316033,-0.16777034103870392,0.6248471736907959,4.663061882276929e-29,-0.006260082125663757,1.2412109375,0.0016736568650230765,0.6529229879379272
815.0,756.0,0.3009,-2.9725,9.3703,0.0276,-0.0496,-0.179,-1.8020850620665492,-0.05624978989362717,2.5674891471862793,-1.8565291166305542,0.04075555503368378,2.259246349334717,-1.1300917726806183,3.4543645597295836e-05,0.21505498886108398,-1.172478977833883,-0.00020714483980555087,-0.16336408257484436,0.6247949600219727,1.2979805683043822e-32,0.003025559475645423,1.241222858428955,0.0010953687597066164,0.6038295030593872
815.0,756.0,0.3009,-2.9725,9.3703,0.0276,-0.0496,-0.179,-1.8023339710631312,-0.055300913751125336,2.6322388648986816,-1.8563085794448853,0.04625875502824783,2.277092456817627,-1.130067692404129,3.368179750395939e-05,0.2505427896976471,-1.172467056904928,-0.00019588074064813554,-0.16505716741085052,0.6248589754104614,5.53349501558947e-35,-0.003292487235739827,1.2412188053131104,0.0008813412860035896,0.6193572282791138
815.0,756.0,0.3009,-2.9725,9.3703,0.0276,-0.0496,-0.179,-1.8026424847044886,-0.056758616119623184,2.6264753341674805,-1.8560246229171753,0.05635563284158707,2.294156074523926,-1.1300958555987854,3.246675623813644e-05,0.24068544805049896,-1.172511402760641,-0.0001810992107493803,-0.15494713187217712,0.6248310804367065,1.54026873627807e-38,0.006040515378117561,1.2412307262420654,0.0007767017232254148,0.6525524854660034
815.0,756.0,0.3009,-2.9725,9.3703,0.0276,-0.0496,-0.179,-1.803019186059469,-0.05922986567020416,2.5908870697021484,-1.8556413650512695,0.06883731484413147,2.273670196533203,-1.1301236611655732,3.133633072138764e-05,0.23506836593151093,-1.1724994818316858,-0.000168391881743446,-0.16219623386859894,0.6248549222946167,4.28797330083394e-42,-0.008883883245289326,1.2412470579147339,0.0005936039378866553,0.6255431771278381
815.0,756.0,0.3009,-2.9725,9.3703,0.0276,-0.0496,-0.179,-1.80338778118276,-0.06148727983236313,2.610471248626709,-1.855181336402893,0.08148767799139023,2.338557481765747,-1.13011987627063,3.0281989893410355e-05,0.22515711188316345,-1.172478977833883,-0.00015735127090010792,-0.15249450504779816,0.624875009059906,1.401298464324817e-45,0.01414426974952221,1.2411704063415527,0.0004710974171757698,0.6649040579795837
815.0,756.0,0.3009,-2.9725,9.3703,0.0276,-0.0496,-0.179,-1.803655286828512,-0.06196882203221321,2.617652177810669,-1.8546209335327148,0.0981777235865593,2.337493658065796,-1.1301077169230958,2.5185548224726517e-07,0.24614018201828003,-1.1725471655475062,-0.0001476692850701511,-0.15738242864608765,0.6249066591262817,0.0,0.0029220841825008392,1.241222858428955,0.00043641412048600614,0.6528651714324951
815.0,756.0,0.3009,-2.9725,9.3703,0.0276,-0.0496,-0.179,-1.8041044674315394,-0.0625784769654274,2.6897153854370117,-1.8540012836456299,0.11398422718048096,2.3780133724212646,-1.1300876301578064,7.010488717318353e-11,0.23532749712467194,-1.172478977833883,-0.0001391097466694191,-0.1533263474702835,0.6248471736907959,0.0,0.006779253948479891,1.2412347793579102,0.00047360797179862857,0.5906811952590942
815.0,756.0,0.3009,-2.9725,9.3703,0.0276,-0.0496,-0.179,-1.8045293293394984,-0.06421533226966858,2.6678242683410645,-1.8533010482788086,0.12463237345218658,2.385286569595337,-1.1301077169230958,1.951395181510815e-14,0.22469738125801086,-1.172478977833883,-0.00013148810830898583,-0.17103531956672668,0.6248471736907959,0.0,0.006084002088755369,1.241194486618042,0.00037977867759764194,0.6732826828956604
815.0,756.0,0.3009,-2.9725,9.3703,0.0276,-0.0496,-0.179,-1.804917951623434,-0.06560325622558594,2.6414120197296143,-1.8524484634399414,0.13002163171768188,2.384625196456909,-1.1301555794528504,5.4317807540029626e-18,0.23645071685314178,-1.172478977833883,-0.000124658559798263,-0.1673227846622467,0.6248546838760376,0.0,-0.0056169661693274975,1.2412147521972656,0.00036364159313961864,0.6395584344863892
815.0,756.0,0.3009,-2.9725,9.3703,0.0276,-0.0496,-0.179,-1.8052898846068324,-0.06841352581977844,2.602725028991699,-1.8516807556152344,0.1377410739660263,2.399502754211426,-1.130143330698349,1.5119561049826562e-21,0.2271391749382019,-1.1725028196917933,-0.00011850326700368896,-0.16758686304092407,0.6248749494552612,0.0,0.012643144465982914,1.2412307262420654,0.00035293176188133657,0.6546614170074463
815.0,756.0,0.3009,-2.9725,9.3703,0.0276,-0.0496,-0.179,-1.8056146107115687,-0.06768736243247986,2.616891622543335,-1.8510770797729492,0.14559835195541382,2.3830459117889404,-1.1301514369300385,6.445706331483534e-24,0.23984268307685852,-1.1724751631366175,-0.0001147266011685133,-0.16694408655166626,0.6248466372489929,0.0,0.00230337493121624,1.241206407546997,0.00031737255631014705,0.6483608484268188
824.0,835.0,-0.0849,-3.8764,9.064,-0.0305,0.0583,-0.1045,-1.8059545956053675,-0.06203240528702736,2.640125274658203,-1.8502253293991089,0.15843911468982697,2.363945960998535,-1.1300999087146302,1.7941859361694492e-27,0.23230594396591187,-1.1724632422076624,-0.00010949260467896238,-0.1532515436410904,0.6247829794883728,0.0,0.00715941097587347,1.2412265539169312,0.0002757014590315521,0.6323683857917786
824.0,835.0,-0.0849,-3.8764,9.064,-0.0305,0.0583,-0.1045,-1.8063513241209925,-0.06040782853960991,2.607945203781128,-1.8492168188095093,0.17054831981658936,2.4902780055999756,-1.130135254268982,4.994183199609775e-31,0.24521002173423767,-1.1724708716021937,-0.00010471529822098091,-0.15799221396446228,0.6248192191123962,0.0,0.006974717136472464,1.2412670850753784,0.0002780341019388288,0.6426804065704346
824.0,835.0,-0.0849,-3.8764,9.064,-0.0305,0.0583,-0.1045,-1.8068286381163539,-0.06219574064016342,2.635962724685669,-1.848185420036316,0.18290352821350098,2.4816360473632812,-1.1301313203624268,1.3901492620095338e-34,0.2333395779132843,-1.172478977833883,-0.00010033745638793334,-0.15763308107852936,0.6248670220375061,0.0,-0.007510551251471043,1.2412588596343994,0.0002958138065878302,0.6359127759933472
824.0,835.0,-0.0849,-3.8764,9.064,-0.0305,0.0583,-0.1045,-1.807181020776266,-0.0687602087855339,2.635927677154541,-1.8469970226287842,0.18356677889823914,2.504180908203125,-1.130123184328415,3.869531286142214e-38,0.24635398387908936,-1.1724632422076624,-9.631099237594754e-05,-0.17376863956451416,0.6248390674591064,0.0,-0.005971016362309456,1.2412428855895996,0.001008235733024776,0.6498702764511108
824.0,835.0,-0.0849,-3.8764,9.064,-0.0305,0.0583,-0.1045,-1.8076135120787562,-0.07793217897415161,2.583313465118408,-1.8458832502365112,0.19008952379226685,2.4776322841644287,-1.1301394563964386,1.0770379996800544e-41,0.24459275603294373,-1.1724756399737757,-9.259526996174827e-05,-0.16424216330051422,0.6248430609703064,0.0,0.01092514768242836,1.2412707805633545,0.0008875078638084233,0.5821167826652527
824.0,835.0,-0.0849,-3.8764,9.064,-0.0305,0.0583,-0.1045,-1.8080860577025355,-0.0828281044960022,2.6486263275146484,-1.8445892333984375,0.20545774698257446,2.507725715637207,-1.130091742878296,2.802596928649634e-45,0.23552697896957397,-1.172511402760641,-8.91555318958126e-05,-0.14602750539779663,0.6248589158058167,0.0,-0.006868871860206127,1.2412184476852417,0.0006552134291268885,0.6332129240036011
824.0,835.0,-0.0849,-3.8764,9.064,-0.0305,0.0583,-0.1045,-1.8085223637022914,-0.08592468500137329,2.6053342819213867,-1.8433716297149658,0.21971869468688965,2.4940972328186035,-1.1301196378520508,0.0,0.24915359914302826,-1.1724870840655726,-8.596217230660841e-05,-0.15544864535331726,0.6248511672019958,0.0,-0.015828587114810944,1.2412388324737549,0.0005146649200469255,0.6503605842590332
824.0,835.0,-0.0849,-3.8764,9.064,-0.0305,0.0583,-0.1045,-1.809176584283346,-0.09239108115434647,2.649038314819336,-1.8419294357299805,0.2322438657283783,2.5141401290893555,-1.1300754708102723,0.0,0.24305076897144318,-1.172495190297262,-8.298971079057083e-05,-0.14947602152824402,0.6248708963394165,0.0,-0.0022475686855614185,1.2412465810775757,0.0004106892447452992,0.6469371318817139
824.0,835.0,-0.0849,-3.8764,9.064,-0.0305,0.0583,-0.1045,-1.8095690212645472,-0.10058274865150452,2.59704327583313,-1.8409957885742188,0.23772910237312317,2.5276029109954834,-1.130103663807251,0.0,0.22694189846515656,-1.172483269368307,-8.111971692414954e-05,-0.15285873413085938,0.6248192191123962,0.0,-0.005313989706337452,1.2412830591201782,0.00047090096632018685,0.5619508624076843
824.0,835.0,-0.0849,-3.8764,9.064,-0.0305,0.0583,-0.1045,-1.810197492639059,-0.11309283971786499,2.5908164978027344,-1.8394944667816162,0.24973779916763306,2.501833438873291,-1.130103663807251,0.0,0.23951083421707153,-1.1724994818316858,-2.625538854772458e-06,-0.16116388142108917,0.6248708963394165,0.0,-0.0028908743988722563,1.2412465810775757,0.0008342196815647185,0.5952804684638977
824.0,835.0,-0.0849,-3.8764,9.064,-0.0305,0.0583,-0.1045,-1.8109389744200648,-0.11906472593545914,2.5863003730773926,-1.837909460067749,0.2617190480232239,2.560793876647949,-1.130203829412796,0.0,0.25105762481689453,-1.1724875609027308,-7.308282867768412e-10,-0.1524486243724823,0.6248192191123962,0.0,0.010103343985974789,1.2412748336791992,0.000683351419866085,0.6512900590896606
824.0,835.0,-0.0849,-3.8764,9.064,-0.0305,0.0583,-0.1045,-1.811655660668844,-0.11949407309293747,2.577648639678955,-1.836307168006897,0.27267423272132874,2.5251212120056152,-1.1301475924304505,0.0,0.22901034355163574,-1.1724875609027308,-2.034287587557651e-13,-0.14599072933197021,0.6248627305030823,0.0,0.006377509329468012,1.241287112236023,0.0004654982185456902,0.6175464391708374
824.0,835.0,-0.0849,-3.8764,9.064,-0.0305,0.0583,-0.1045,-1.812465330163473,-0.11948889493942261,2.611575126647949,-1.8346824645996094,0.2814734876155853,2.559443235397339,-1.130143479709961,0.0,0.22525820136070251,-1.172455135975973,-5.662515175812994e-17,-0.15517356991767883,0.6248192191123962,0.0,0.0043501234613358974,1.2413032054901123,0.00038094265619292855,0.5829724073410034
824.0,835.0,-0.0849,-3.8764,9.064,-0.0305,0.0583,-0.1045,-1.8132544956602992,-0.12947525084018707,2.587310314178467,-1.8329498767852783,0.29088327288627625,2.622252941131592,-1.1301675301841279,0.0,0.2290496528148651,-1.1724394003497522,-2.0887846403638832e-05,-0.1448420286178589,0.6248868107795715,0.0,0.004214415326714516,1.2412912845611572,0.0003224440151825547,0.6062672138214111
824.0,835.0,-0.0849,-3.8764,9.064,-0.0305,0.0583,-0.1045,-1.8140431843199671,-0.14319297671318054,2.571011543273926,-1.831208348274231,0.29455551505088806,2.5780630111694336,-1.1301513475230713,-0.0013212374178692698,0.2376699447631836,-1.1724150816546839,-1.5099201846169308e-05,-0.1517713963985443,0.6248829364776611,0.0,0.018820086494088173,1.2412548065185547,0.00010450983245391399,0.6020227670669556
826.0,720.0,-0.7854,-3.3601,8.7141,-0.0418,0.1825,-0.0666,-1.8149005375304164,-0.15943960845470428,2.548440933227539,-1.8294157981872559,0.30400723218917847,2.568328857421875,-1.1301794809154053,-0.002266872441396117,0.22953316569328308,-1.17241079012026,-2.2827727264029818e-08,-0.14339816570281982,0.6248311996459961,0.0,0.003606111276894808,1.2412830591201782,7.48730144550791e-08,0.5797238349914551
826.0,720.0,-0.7854,-3.3601,8.7141,-0.0418,0.1825,-0.0666,-1.8155981502928675,-0.1654805839061737,2.4528884887695312,-1.8281536102294922,0.314953088760376,2.621283769607544,-1.1301794809154053,-0.00171106425113976,0.21096116304397583,-1.1724394003497522,-9.731817435243428e-11,-0.13138818740844727,0.6248271465301514,0.0,-0.006574228871613741,1.2412707805633545,1.3476877600004933e-11,0.5964183807373047
826.0,720.0,-0.7854,-3.3601,8.7141,-0.0418,0.1825,-0.0666,-1.8165637455382289,-0.16931237280368805,2.55389666557312,-1.826221227645874,0.32713794708251953,2.62052845954895,-1.1301835936358948,-0.0008174900431185961,0.21421775221824646,-1.1724637190448206,-2.7088872594713265e-14,-0.1480730026960373,0.6247989535331726,0.0,0.004842480178922415,1.2412428855895996,3.25450737850416e-17,0.5339114665985107
826.0,720.0,-0.7854,-3.3601,8.7141,-0.0418,0.1825,-0.0666,-1.817653318444723,-0.16425538063049316,2.534573554992676,-1.8242369890213013,0.33876797556877136,2.6111724376678467,-1.1301794213107605,-0.0005282280617393553,0.21186092495918274,-1.1724031607257288,-7.540286469277169e-18,-0.12112653255462646,0.6248151659965515,0.0,-0.004847650416195393,1.2412346601486206,7.859251435850137e-23,0.5204282402992249
826.0,720.0,-0.7854,-3.3601,8.7141,-0.0418,0.1825,-0.0666,-1.8186541996397914,-0.16493085026741028,2.5137038230895996,-1.8221694231033325,0.3542986810207367,2.6383872032165527,-1.1301992398551484,-0.0006469907239079475,0.20882070064544678,-1.1724231878863733,-2.0988665989831717e-21,-0.1225455179810524,0.6248546838760376,7.8863513408578e-06,-0.012576820328831673,1.2412428855895996,1.897916932234259e-28,0.5507692098617554
826.0,720.0,-0.7854,-3.3601,8.7141,-0.0418,0.1825,-0.0666,-1.819707532922262,-0.17395547032356262,2.4873762130737305,-1.8201088905334473,0.35601046681404114,2.623845100402832,-1.1302312475493927,-0.009468575939536095,0.19884945452213287,-1.1724637190448206,-5.84227280266867e-25,-0.13570895791053772,0.624835193157196,2.1951946926890287e-09,0.002154812915250659,1.2412707805633545,4.583245127016406e-34,0.5597319602966309
826.0,720.0,-0.7854,-3.3601,8.7141,-0.0418,0.1825,-0.0666,-1.8207770786681117,-0.19469572603702545,2.5043320655822754,-1.8178999423980713,0.3618670403957367,2.6321520805358887,-1.1303468507579346,-0.018646953627467155,0.17486383020877838,-1.17238694826235,-1.6262181708891525e-28,-0.11720669269561768,0.6248546838760376,6.110404608510034e-13,0.011029267683625221,1.241267204284668,-0.00032511440804228187,0.5824598073959351
826.0,720.0,-0.7854,-3.3601,8.7141,-0.0418,0.1825,-0.0666,-1.8219791851439417,-0.2122172713279724,2.480731964111328,-1.8156960010528564,0.36424753069877625,2.6448311805725098,-1.1305068594268342,-0.02139313891530037,0.189011812210083,-1.1723950544940394,-4.5266377271846206e-32,-0.1289292275905609,0.6247989535331726,1.7008535400918638e-16,0.01988689973950386,1.241166353225708,-0.001539990771561861,0.5301814675331116
826.0,720.0,-0.7854,-3.3601,8.7141,-0.0418,0.1825,-0.0666,-1.8232294521727503,-0.21440832316875458,2.4540674686431885,-1.8134403228759766,0.3682776987552643,2.6058189868927,-1.1305307906917115,-0.018535112962126732,0.17531704902648926,-1.172415558491842,-1.2600063966405672e-35,-0.11563677340745926,0.6248471140861511,4.7343892385799945e-20,0.0029151979833841324,1.241134762763977,-0.003865748643875122,0.5435503125190735
826.0,720.0,-0.7854,-3.3601,8.7141,-0.0418,0.1825,-0.0666,-1.824503561059469,-0.2105526328086853,2.4694910049438477,-1.8111358880996704,0.38293442130088806,2.646279811859131,-1.1306343537620087,-0.009962386451661587,0.19974428415298462,-1.1723831335650843,-3.5072748938969765e-39,-0.11227656900882721,0.6248151659965515,1.3178346617744916e-23,0.008270536549389362,1.2411589622497559,-0.0029031371232122183,0.47571608424186707
