ramyac6/ROB537/final_project/csv/all/bad_18.csv
tof_0,tof_1,accelx,accely,accelz,gyrox,gyroy,gyroz,shoulder_lift_joint_position,shoulder_lift_joint_velocity,shoulder_lift_joint_effort,elbow_joint_position,elbow_joint_velocity,elbow_joint_effort,wrist_1_joint_position,wrist_1_joint_velocity,wrist_1_joint_effort,wrist_2_joint_position,wrist_2_joint_velocity,wrist_2_joint_effort,wrist_3_joint_position,wrist_3_joint_velocity,wrist_3_joint_effort,shoulder_pan_joint_position,shoulder_pan_joint_velocity,shoulder_pan_joint_effort
272.0,372.0,-2.8313,0.3338,9.4857,-0.0321,0.0202,-0.1118,-2.157975812951559,0.0,4.303040027618408,-1.5058804750442505,-0.0,1.8858650922775269,5.423343407898702,-0.0,0.24051880836486816,-1.5866621176349085,0.0,-0.00454437592998147,0.864096462726593,0.0,-0.001689976081252098,0.8546485304832458,0.0,-0.0223676860332489
272.0,372.0,-2.8313,0.3338,9.4857,-0.0321,0.0202,-0.1118,-2.158008714715475,0.0,4.321051597595215,-1.5059128999710083,-0.0,1.8580267429351807,5.4234152911003015,-0.0,0.2519611120223999,-1.586670223866598,0.0,-0.022873710840940475,0.8640964031219482,0.0,0.0018388897879049182,0.8546687364578247,0.0,-0.033635322004556656
272.0,372.0,-2.8313,0.3338,9.4857,-0.0321,0.0202,-0.1118,-2.158008714715475,0.0,4.286508560180664,-1.5059006214141846,-0.0,1.889345407485962,5.423387038498678,-0.0,0.24733632802963257,-1.5866621176349085,0.0,-0.013728247955441475,0.8640722036361694,0.0,0.0036361052189022303,0.8546282649040222,0.0,-0.0007660393603146076
272.0,372.0,-2.8313,0.3338,9.4857,-0.0321,0.0202,-0.1118,-2.1579963169493617,0.0,4.3279128074646,-1.505908727645874,-0.0,1.8944332599639893,5.4233911512191675,-0.0,0.26147812604904175,-1.586654011403219,0.0,-0.00574764609336853,0.8640722632408142,0.0,0.0016414637211710215,0.8546485304832458,0.0,0.01947445049881935
272.0,372.0,-2.8313,0.3338,9.4857,-0.0321,0.0202,-0.1118,-2.157992025414938,0.0,4.292916774749756,-1.50591242313385,-0.0,1.9014952182769775,5.423407482891836,-0.0,0.24216963350772858,-1.586670223866598,0.0,-0.008487958461046219,0.8640236258506775,0.0,0.005972200073301792,0.8546282052993774,0.0,0.002473272616043687
272.0,372.0,-2.8313,0.3338,9.4857,-0.0321,0.0202,-0.1118,-2.1579839191832484,0.0,4.342996120452881,-1.5058804750442505,-0.0,1.895620346069336,5.423351156502523,-0.0,0.24179279804229736,-1.5866578261004847,0.0,-0.009203502908349037,0.8641968965530396,0.0,-0.002672240138053894,0.8546121120452881,0.0,0.010868142358958721
272.0,372.0,-2.8313,0.3338,9.4857,-0.0321,0.0202,-0.1118,-2.15802063564443,0.0,4.245691776275635,-1.5059244632720947,-0.0,1.9117717742919922,5.423339295178213,-0.0,0.24333623051643372,-1.5866459051715296,0.0,0.0019083642400801182,0.864088237285614,0.0,-0.005331599153578281,0.8546403646469116,0.0,0.014078876003623009
272.0,372.0,-2.8313,0.3338,9.4857,-0.0321,0.0202,-0.1118,-2.157975812951559,0.0,4.282527923583984,-1.5059573650360107,-0.0,1.8758139610290527,5.423415529518881,-0.0,0.26156431436538696,-1.5866902510272425,0.0,-0.00010565971024334431,0.8641202449798584,0.0,0.0011108502512797713,0.8546563386917114,0.0,-0.009120304137468338
270.0,358.0,-2.808,0.35,9.4211,-0.0348,0.0276,-0.1121,-2.157992025414938,0.0,4.3056511878967285,-1.505916714668274,-0.0,1.9229793548583984,5.423359441548147,-0.0,0.24585536122322083,-1.586698357258932,0.0,-0.0031786970794200897,0.864112377166748,0.0,0.010450860485434532,0.8546645641326904,0.0,0.01860693283379078
270.0,358.0,-2.808,0.35,9.4211,-0.0348,0.0276,-0.1121,-2.157948156396383,0.0,4.313565254211426,-1.50588858127594,-0.0,1.9157723188400269,5.423387038498678,-0.0,0.2589678168296814,-1.5866535345660608,0.0,-0.00877540372312069,0.8641644716262817,0.0,-0.00458492198958993,0.8547006845474243,0.0,-0.0020854605827480555
270.0,358.0,-2.808,0.35,9.4211,-0.0348,0.0276,-0.1121,-2.158008714715475,0.0,4.2963666915893555,-1.5058276653289795,-0.0,1.9315682649612427,5.423407482891836,-0.0,0.2583109140396118,-1.5866292158709925,0.0,-0.013391131535172462,0.8640758395195007,0.0,0.006935798563063145,0.8546159267425537,0.0,-0.024857932701706886
270.0,358.0,-2.808,0.35,9.4211,-0.0348,0.0276,-0.1121,-2.1579562626280726,0.0,4.269392967224121,-1.5058766603469849,-0.0,1.9090112447738647,5.423343407898702,-0.0,0.24292241036891937,-1.5866459051715296,0.0,-0.017392784357070923,0.8640964031219482,0.0,-0.001169184222817421,0.8546403646469116,0.0,0.013510666787624359
270.0,358.0,-2.808,0.35,9.4211,-0.0348,0.0276,-0.1121,-2.1579801044859828,0.0,4.280752182006836,-1.5059165954589844,-0.0,1.8736008405685425,5.423375117569723,-0.0,0.2511862814426422,-1.5866497198687952,0.0,-0.006372098810970783,0.8641164898872375,0.0,0.001960319932550192,0.8546282649040222,0.0,-0.003409765660762787
270.0,358.0,-2.808,0.35,9.4211,-0.0348,0.0276,-0.1121,-2.157988210717672,0.0,4.31609582901001,-1.5059165954589844,-0.0,1.8795291185379028,5.423366832524099,-0.0,0.24820548295974731,-1.5866296927081507,0.0,0.0003609452396631241,0.8641563653945923,0.0,0.011299559846520424,0.8546604514122009,0.0,0.005487404763698578
270.0,358.0,-2.808,0.35,9.4211,-0.0348,0.0276,-0.1121,-2.1579438648619593,0.0,4.3207316398620605,-1.505936861038208,-0.0,1.9248583316802979,5.423411416798391,-0.0,0.23929643630981445,-1.5866497198687952,0.0,0.002736341208219528,0.8641563653945923,0.0,-0.009950514882802963,0.8546320796012878,0.0,0.058498527854681015
270.0,358.0,-2.808,0.35,9.4211,-0.0348,0.0276,-0.1121,-2.1579319439330042,0.0,4.283261299133301,-1.5058804750442505,-0.0,1.9214093685150146,5.4233911512191675,-0.0,0.2506256103515625,-1.5866988340960901,0.0,-0.004210393410176039,0.8640923500061035,0.0,0.00925675593316555,0.8546323776245117,0.0,0.0349840484559536
270.0,358.0,-2.808,0.35,9.4211,-0.0348,0.0276,-0.1121,-2.1580168209471644,0.0,4.279767990112305,-1.5058846473693848,-0.0,1.898186206817627,5.423387098103323,-0.0,0.24698135256767273,-1.5866497198687952,0.0,-0.009238402359187603,0.8641083240509033,0.0,0.00991702638566494,0.8546563386917114,0.0,-0.03260663151741028
270.0,358.0,-2.808,0.35,9.4211,-0.0348,0.0276,-0.1121,-2.1580125294127406,0.0,4.251659393310547,-1.5059409141540527,-0.0,1.9191546440124512,5.423403429775991,-0.0,0.23853832483291626,-1.586670223866598,0.0,-0.013923145830631256,0.8640602231025696,0.0,0.008090066723525524,0.8545918464660645,0.0,0.013204124756157398
270.0,358.0,-2.808,0.35,9.4211,-0.0348,0.0276,-0.1121,-2.1580001316466273,0.0,4.274062633514404,-1.5058518648147583,-0.0,1.9220752716064453,5.423387038498678,-0.0,0.248835027217865,-1.5866296927081507,0.0,-0.01284400001168251,0.8641283512115479,0.0,-0.004374154377728701,0.8545876741409302,0.0,0.045498114079236984
270.0,358.0,-2.808,0.35,9.4211,-0.0348,0.0276,-0.1121,-2.1580406628050746,0.0,4.343177318572998,-1.5058964490890503,-0.0,1.8831324577331543,5.423407482891836,-0.0,0.2626710534095764,-1.5866339842425745,0.0,-0.012224098667502403,0.8641402721405029,0.0,0.002496925415471196,0.8546242117881775,0.0,0.046690233051776886
270.0,358.0,-2.808,0.35,9.4211,-0.0348,0.0276,-0.1121,-2.15802063564443,0.0,4.293149948120117,-1.5058600902557373,-0.0,1.9024449586868286,5.423387038498678,-0.0,0.24806034564971924,-1.5866621176349085,0.0,0.0028469632379710674,0.8641243577003479,0.0,0.0028097317554056644,0.8546522259712219,0.0,0.0028395489789545536
270.0,358.0,-2.808,0.35,9.4211,-0.0348,0.0276,-0.1121,-2.1580244503416957,0.0,4.2970991134643555,-1.5059367418289185,-0.0,1.87984037399292,5.423362839012899,-0.0,0.2593831419944763,-1.5866501967059534,0.0,-0.01721044071018696,0.864152193069458,0.0,0.00280218617990613,0.8546724915504456,0.0,0.030615270137786865
270.0,358.0,-2.808,0.35,9.4211,-0.0348,0.0276,-0.1121,-2.1580287418761195,0.0,4.301076889038086,-1.505953311920166,-0.0,1.8691306114196777,5.423411118775167,-0.0,0.25003641843795776,-1.5866745154010218,0.0,-0.00775532703846693,0.8640681505203247,0.0,0.0031242268159985542,0.8546481728553772,0.0,-0.0025634141638875008
277.0,368.0,-2.7565,0.326,9.3177,-0.0388,0.0293,-0.1188,-2.158008714715475,0.0,4.274416923522949,-1.505961537361145,-0.0,1.9314911365509033,5.423382866173544,-0.0,0.2478601485490799,-1.5866459051715296,0.0,0.007859735749661922,0.864128053188324,0.0,0.00989132933318615,0.8546321392059326,0.0,0.024129653349518776
277.0,368.0,-2.7565,0.326,9.3177,-0.0388,0.0293,-0.1188,-2.1580001316466273,0.0,4.325624942779541,-1.5059326887130737,-0.0,1.928681492805481,5.423379111080923,-0.0,0.24710845947265625,-1.5866902510272425,0.0,-0.01160379871726036,0.8640964031219482,0.0,-0.01010923646390438,0.8546444177627563,0.0,0.05575699731707573
277.0,368.0,-2.7565,0.326,9.3177,-0.0388,0.0293,-0.1188,-2.1579724750914515,0.0,4.300036430358887,-1.505908727645874,-0.0,1.922266960144043,5.423366832524099,-0.0,0.25488370656967163,-1.5866535345660608,0.0,-0.010167005471885204,0.8640800714492798,0.0,0.0005486682057380676,0.8546282649040222,0.0,0.023360952734947205
277.0,368.0,-2.7565,0.326,9.3177,-0.0388,0.0293,-0.1188,-2.15802063564443,0.0,4.297877311706543,-1.5059165954589844,-0.0,1.930285096168518,5.423366832524099,-0.0,0.2532009482383728,-1.586670223866598,0.0,0.001642910996451974,0.8640722036361694,0.0,-0.0030963215976953506,0.8546526432037354,0.0,-0.030504804104566574
277.0,368.0,-2.7565,0.326,9.3177,-0.0388,0.0293,-0.1188,-2.1579677067198695,0.0,4.304172992706299,-1.5059083700180054,-0.0,1.894810676574707,5.423415529518881,-0.0,0.2509213089942932,-1.5866902510272425,0.0,-0.0009279756341129541,0.8641811013221741,0.0,0.004495837260037661,0.8546481728553772,0.0,0.025256427004933357
277.0,368.0,-2.7565,0.326,9.3177,-0.0388,0.0293,-0.1188,-2.1579839191832484,0.0,4.256632328033447,-1.505953311920166,-0.0,1.9100897312164307,5.42341976144866,-0.0,0.2567133903503418,-1.5866459051715296,0.0,0.0009437656262889504,0.8641563653945923,0.0,0.0059280707500875,0.8546364903450012,0.0,-0.03438622131943703
277.0,368.0,-2.7565,0.326,9.3177,-0.0388,0.0293,-0.1188,-2.1579963169493617,0.0,4.283145427703857,-1.5059244632720947,-0.0,1.8918068408966064,5.423403370171346,-0.0,0.24737808108329773,-1.5866621176349085,0.0,-0.005292857997119427,0.8640763759613037,0.0,0.007806502282619476,0.8546485304832458,0.0,-0.0064658778719604015
277.0,368.0,-2.7565,0.326,9.3177,-0.0388,0.0293,-0.1188,-2.158008714715475,0.0,4.327648639678955,-1.50591242313385,-0.0,1.9035297632217407,5.423387038498678,-0.0,0.2518180012702942,-1.5866497198687952,0.0,-0.012083916924893856,0.8640644550323486,0.0,-0.004820381291210651,0.8546444177627563,0.0,-0.007647493854165077
277.0,368.0,-2.7565,0.326,9.3177,-0.0388,0.0293,-0.1188,-2.1579839191832484,0.0,4.337625026702881,-1.5059083700180054,-0.0,1.857800006866455,5.423395085125723,-0.0,0.25298774242401123,-1.5866416136371058,0.0,0.002230297774076462,0.8641001582145691,0.0,0.010746438056230545,0.8546444177627563,0.0,0.030917467549443245
277.0,368.0,-2.7565,0.326,9.3177,-0.0388,0.0293,-0.1188,-2.1580168209471644,0.0,4.261958122253418,-1.5059083700180054,-0.0,1.9267306327819824,5.423366832524099,-0.0,0.24575276672840118,-1.5866416136371058,0.0,-0.015692995861172676,0.8640923500061035,0.0,-0.002007177332416177,0.8547130227088928,0.0,0.0021343566477298737
277.0,368.0,-2.7565,0.326,9.3177,-0.0388,0.0293,-0.1188,-2.158004423181051,0.0,4.271355152130127,-1.5058845281600952,-0.0,1.9019460678100586,5.423391091614523,-0.0,0.2462717890739441,-1.5866535345660608,0.0,-0.005184081848710775,0.8641242980957031,0.0,0.005954883061349392,0.8546200394630432,0.0,0.002009711228311062
277.0,368.0,-2.7565,0.326,9.3177,-0.0388,0.0293,-0.1188,-2.158016344110006,0.0,4.310102939605713,-1.5058766603469849,-0.0,1.8660061359405518,5.423375117569723,-0.0,0.24334853887557983,-1.5866621176349085,0.0,-0.0036789143923670053,0.8641202449798584,0.0,0.001838988857343793,0.8546765446662903,0.0,0.004637962207198143
277.0,368.0,-2.7565,0.326,9.3177,-0.0388,0.0293,-0.1188,-2.157963892022604,0.0,4.30768346786499,-1.5058643817901611,-0.0,1.8936809301376343,5.423399197846212,-0.0,0.2562854588031769,-1.5866745154010218,0.0,-0.009608644992113113,0.8640762567520142,0.0,-0.0010587610304355621,0.8546241521835327,0.0,-0.06079944223165512
277.0,368.0,-2.7565,0.326,9.3177,-0.0388,0.0293,-0.1188,-2.157988210717672,0.0,4.331568717956543,-1.505928874015808,-0.0,1.919442892074585,5.423399197846212,-0.0,0.2637767493724823,-1.586670223866598,0.0,-0.019048163667321205,0.8641443848609924,0.0,0.005615460220724344,0.8546444177627563,0.0,-0.02162616141140461
277.0,368.0,-2.7565,0.326,9.3177,-0.0388,0.0293,-0.1188,-2.1580287418761195,0.0,4.329336166381836,-1.5059165954589844,-0.0,1.8992336988449097,5.423391091614523,-0.0,0.24063032865524292,-1.5866535345660608,0.0,-0.006655937060713768,0.8641202449798584,0.0,0.0023649451322853565,0.8546604514122009,0.0,-0.01886316016316414
269.0,368.0,-2.7733,0.384,9.3571,-0.026,0.0197,-0.1139,-2.1580125294127406,0.0,4.318976402282715,-1.5058850049972534,-0.0,1.9109022617340088,5.423371064453878,-0.0,0.25052011013031006,-1.5866459051715296,0.0,-0.015474310144782066,0.864112377166748,0.0,0.007317692041397095,0.8546203374862671,0.0,0.016114583238959312
269.0,368.0,-2.7733,0.384,9.3571,-0.026,0.0197,-0.1139,-2.1579801044859828,0.0,4.273101806640625,-1.5058923959732056,-0.0,1.9641579389572144,5.423411476403036,-0.0,0.24319295585155487,-1.5866864363299769,0.0,-0.019649863243103027,0.8641042709350586,0.0,0.0008835559710860252,0.8546282649040222,0.0,-0.025457849726080894
269.0,368.0,-2.7733,0.384,9.3571,-0.026,0.0197,-0.1139,-2.1579963169493617,0.0,4.307791709899902,-1.5059328079223633,-0.0,1.936811923980713,5.423375117569723,-0.0,0.24633225798606873,-1.5866535345660608,0.0,-0.012577413581311703,0.8641525506973267,0.0,-0.0039144717156887054,0.8546121120452881,0.0,-0.009336505085229874
269.0,368.0,-2.7733,0.384,9.3571,-0.026,0.0197,-0.1139,-2.158008714715475,0.0,4.279097557067871,-1.5058643817901611,-0.0,1.8972185850143433,5.423415529518881,-0.0,0.2456246316432953,-1.5866783300982874,0.0,-0.0106201758608222,0.8641358017921448,0.0,-0.004249138291925192,0.8546079993247986,0.0,-0.014283235184848309
269.0,368.0,-2.7733,0.384,9.3571,-0.026,0.0197,-0.1139,-2.1579801044859828,0.0,4.294216156005859,-1.5058845281600952,-0.0,1.9404423236846924,5.423367547779836,-0.0,0.25536081194877625,-1.5866578261004847,0.0,-0.014723077416419983,0.8641083240509033,0.0,0.005739463027566671,0.8546724915504456,0.0,0.010654056444764137
269.0,368.0,-2.7733,0.384,9.3571,-0.026,0.0197,-0.1139,-2.157992025414938,0.0,4.284419059753418,-1.505920648574829,-0.0,1.900153636932373,5.423379111080923,-0.0,0.2408822476863861,-1.586670223866598,0.0,-0.016024168580770493,0.8641283512115479,0.0,0.002097216434776783,0.8546282649040222,0.0,-0.016780193895101547
269.0,368.0,-2.7733,0.384,9.3571,-0.026,0.0197,-0.1139,-2.1579600773253382,0.0,4.285301208496094,-1.5059407949447632,-0.0,1.9299781322479248,5.423371064453878,-0.0,0.24673821032047272,-1.5866783300982874,0.0,-0.007134976796805859,0.8641202449798584,0.0,-0.0021672979928553104,0.8546282649040222,0.0,0.009862049482762814
269.0,368.0,-2.7733,0.384,9.3571,-0.026,0.0197,-0.1139,-2.1580001316466273,0.0,4.3337178230285645,-1.5059248208999634,-0.0,1.9210071563720703,5.423382866173544,-0.0,0.2566050589084625,-1.5866501967059534,0.0,0.007623746525496244,0.8640722632408142,0.0,-0.011476363055408001,0.8546000719070435,0.0,0.0033008181490004063
269.0,368.0,-2.7733,0.384,9.3571,-0.026,0.0197,-0.1139,-2.157948156396383,0.0,4.308213233947754,-1.5059289932250977,-0.0,1.9249898195266724,5.423395085125723,-0.0,0.23732292652130127,-1.5866945425616663,0.0,-0.003095270600169897,0.8641284108161926,0.0,-0.00885496661067009,0.8545876741409302,0.0,-0.019998803734779358
269.0,368.0,-2.7733,0.384,9.3571,-0.026,0.0197,-0.1139,-2.157975812951559,0.0,4.306606769561768,-1.5059006214141846,-0.0,1.9235565662384033,5.423419403820791,-0.0,0.24837008118629456,-1.586698357258932,0.0,-0.009382456541061401,0.8640841841697693,0.0,-0.004793720319867134,0.8546485304832458,0.0,0.004499729722738266
269.0,368.0,-2.7733,0.384,9.3571,-0.026,0.0197,-0.1139,-2.1579600773253382,0.0,4.270995140075684,-1.505908727645874,-0.0,1.9008022546768188,5.423387038498678,-0.0,0.2562687397003174,-1.5866416136371058,0.0,-0.00985968578606844,0.864088237285614,0.0,-0.00121539575047791,0.8546403050422668,0.0,0.010641919448971748
269.0,368.0,-2.7733,0.384,9.3571,-0.026,0.0197,-0.1139,-2.1579963169493617,0.0,4.2987284660339355,-1.5059165954589844,-0.0,1.9122041463851929,5.423375117569723,-0.0,0.24111105501651764,-1.586625878010885,0.0,0.001632958184927702,0.8641242980957031,0.0,0.015683069825172424,0.8546485304832458,0.0,0.0011369837448000908
269.0,368.0,-2.7733,0.384,9.3571,-0.026,0.0197,-0.1139,-2.157987733880514,0.0,4.292703628540039,-1.5058722496032715,-0.0,1.8819200992584229,5.423382866173544,-0.0,0.2654341757297516,-1.5866459051715296,0.0,-0.009116381406784058,0.8641321659088135,0.0,-0.006861619185656309,0.8546485304832458,0.0,-0.0130122946575284
269.0,368.0,-2.7733,0.384,9.3571,-0.026,0.0197,-0.1139,-2.1579843960204066,0.0,4.299508571624756,-1.5058766603469849,-0.0,1.9176280498504639,5.423395144730367,-0.0,0.24448509514331818,-1.5866535345660608,0.0,-0.004307174123823643,0.8641042709350586,0.0,-0.0012912091333419085,0.8546444177627563,0.0,-0.008622711524367332
269.0,368.0,-2.7733,0.384,9.3571,-0.026,0.0197,-0.1139,-2.1579963169493617,0.0,4.3246235847473145,-1.50591242313385,-0.0,1.9169820547103882,5.423407482891836,-0.0,0.2537447214126587,-1.5866416136371058,0.0,-0.0007666846504434943,0.8641242980957031,0.0,0.004139704164117575,0.8546724915504456,0.0,0.03185122460126877
269.0,357.0,-2.7476,0.3631,9.3601,-0.0298,0.0243,-0.122,-2.1579600773253382,0.0,4.303481101989746,-1.5059046745300293,-0.0,1.89924955368042,5.423391091614523,-0.0,0.26503729820251465,-1.5866377989398401,0.0,-0.002261660061776638,0.8641042709350586,0.0,-0.004593703895807266,0.8546526432037354,0.0,-0.018913540989160538
269.0,357.0,-2.7476,0.3631,9.3601,-0.0298,0.0243,-0.122,-2.157951971093649,0.0,4.269798755645752,-1.5059165954589844,-0.0,1.8654899597167969,5.423391091614523,-0.0,0.24015843868255615,-1.5866497198687952,0.0,-0.01200287789106369,0.8641202449798584,0.0,0.00795712135732174,0.8546848893165588,0.0,0.03300337493419647
269.0,357.0,-2.7476,0.3631,9.3601,-0.0298,0.0243,-0.122,-2.1579963169493617,0.0,4.2830095291137695,-1.5059289932250977,-0.0,1.904264211654663,5.4233553288276575,-0.0,0.25118425488471985,-1.586670223866598,0.0,-0.0056391130201518536,0.8641324639320374,0.0,0.01040592510253191,0.8546966910362244,0.0,-0.01966467685997486
269.0,357.0,-2.7476,0.3631,9.3601,-0.0298,0.0243,-0.122,-2.158060689965719,0.0,4.298426151275635,-1.5058927536010742,-0.0,1.9265040159225464,5.423399197846212,-0.0,0.2547965347766876,-1.5866416136371058,0.0,-0.01715632528066635,0.8641202449798584,0.0,-0.002896652091294527,0.8546603918075562,0.0,-0.04075486585497856
269.0,357.0,-2.7476,0.3631,9.3601,-0.0298,0.0243,-0.122,-2.1579958401122035,0.0,4.323623180389404,-1.5059046745300293,-0.0,1.9164862632751465,5.423371064453878,-0.0,0.2527073621749878,-1.5866459051715296,0.0,-0.006261046975851059,0.864172637462616,0.0,-0.0005971407517790794,0.8546364903450012,0.0,-0.014412491582334042
269.0,357.0,-2.7476,0.3631,9.3601,-0.0298,0.0243,-0.122,-2.1580001316466273,0.0,4.297292709350586,-1.5059285163879395,-0.0,1.885679006576538,5.423395144730367,-0.0,0.24938088655471802,-1.5866535345660608,0.0,-0.008219120092689991,0.8640804290771484,0.0,-0.002594603691250086,0.8546361923217773,0.0,0.027182381600141525
269.0,357.0,-2.7476,0.3631,9.3601,-0.0298,0.0243,-0.122,-2.157963892022604,0.0,4.303811073303223,-1.5058969259262085,-0.0,1.8839586973190308,5.423407482891836,-0.0,0.24044430255889893,-1.5866864363299769,0.0,-0.004035807680338621,0.86406409740448,0.0,-3.521330654621124e-05,0.8546603918075562,0.0,0.01238210964947939
269.0,357.0,-2.7476,0.3631,9.3601,-0.0298,0.0243,-0.122,-2.157988210717672,0.0,4.290224075317383,-1.5059728622436523,-0.0,1.899928331375122,5.423395144730367,-0.0,0.26061034202575684,-1.5866902510272425,0.0,-0.014899683184921741,0.8641083240509033,0.0,-0.004163875710219145,0.8546203374862671,0.0,-0.009175448678433895
269.0,357.0,-2.7476,0.3631,9.3601,-0.0298,0.0243,-0.122,-2.157963892022604,0.0,4.284024238586426,-1.5059006214141846,-0.0,1.9334385395050049,5.423387038498678,-0.0,0.23877976834774017,-1.5866902510272425,0.0,-0.00028323126025497913,0.8640763759613037,0.0,0.005430993624031544,0.8546323776245117,0.0,0.019438479095697403
269.0,357.0,-2.7476,0.3631,9.3601,-0.0298,0.0243,-0.122,-2.1580244503416957,0.0,4.307732105255127,-1.505920648574829,-0.0,1.9235997200012207,5.423371004849233,-0.0,0.237094908952713,-1.5867064634906214,0.0,0.00016604841221123934,0.8640763163566589,0.0,-0.0024082334712147713,0.8546323180198669,0.0,0.02107364498078823
269.0,357.0,-2.7476,0.3631,9.3601,-0.0298,0.0243,-0.122,-2.1580001316466273,0.0,4.308911323547363,-1.50591242313385,-0.0,1.901944637298584,5.423383223801412,-0.0,0.2672822177410126,-1.5866335074054163,0.0,-0.009241580963134766,0.8641283512115479,0.0,0.002375677926465869,0.8546444177627563,0.0,0.030226221308112144
269.0,357.0,-2.7476,0.3631,9.3601,-0.0298,0.0243,-0.122,-2.1579600773253382,0.0,4.252547264099121,-1.5059248208999634,-0.0,1.910609483718872,5.423403429775991,-0.0,0.2588520646095276,-1.5866454283343714,0.0,-0.004207830410450697,0.8640964031219482,0.0,0.009369617328047752,0.8546444177627563,0.0,0.004882873967289925
269.0,357.0,-2.7476,0.3631,9.3601,-0.0298,0.0243,-0.122,-2.1579719982542933,0.0,4.310072422027588,-1.5059326887130737,-0.0,1.9015092849731445,5.423318850785055,-0.0,0.25739532709121704,-1.5866578261004847,0.0,-0.012452978640794754,0.864100456237793,0.0,0.00654047355055809,0.8546603918075562,0.0,-0.03069121018052101
269.0,357.0,-2.7476,0.3631,9.3601,-0.0298,0.0243,-0.122,-2.157951971093649,0.0,4.318093299865723,-1.505928874015808,-0.0,1.9278550148010254,5.423387038498678,-0.0,0.24458655714988708,-1.5865896383868616,0.0,-0.020002365112304688,0.8640841841697693,0.0,-0.0002872955519706011,0.8546526432037354,0.0,-0.00114250008482486
269.0,357.0,-2.7476,0.3631,9.3601,-0.0298,0.0243,-0.122,-2.158008714715475,0.0,4.309956073760986,-1.5058923959732056,-0.0,1.9058603048324585,5.423371004849233,-0.0,0.24563823640346527,-1.5867107550250452,0.0,-0.0007510636933147907,0.8640882968902588,0.0,0.001486478024162352,0.8546361923217773,0.0,0.004143468104302883
267.0,367.0,-2.8905,0.3182,9.5372,-0.0308,0.0247,-0.1136,-2.1580120525755824,0.0,4.255940914154053,-1.5058927536010742,-0.0,1.9156091213226318,5.4233553288276575,-0.0,0.23962274193763733,-1.5866578261004847,0.0,-0.008553067222237587,0.8640801906585693,0.0,0.019963176921010017,0.8546241521835327,0.0,0.019572187215089798
267.0,367.0,-2.8905,0.3182,9.5372,-0.0308,0.0247,-0.1136,-2.1579719982542933,0.0,4.275142669677734,-1.5059247016906738,-0.0,1.9107069969177246,5.423387038498678,-0.0,0.2556202709674835,-1.5866902510272425,0.0,-0.006390226539224386,0.8641481399536133,0.0,0.0009227071423083544,0.8546241521835327,0.0,0.019384808838367462
267.0,367.0,-2.8905,0.3182,9.5372,-0.0308,0.0247,-0.1136,-2.158004423181051,0.0,4.299905776977539,-1.5059247016906738,-0.0,1.8895343542099,5.423387038498678,-0.0,0.26081281900405884,-1.5866826216327112,0.0,-0.012898189015686512,0.864112377166748,0.0,0.011978581547737122,0.8546203374862671,0.0,0.03405445069074631
267.0,367.0,-2.8905,0.3182,9.5372,-0.0308,0.0247,-0.1136,-2.1579963169493617,0.0,4.267520904541016,-1.5058964490890503,-0.0,1.910361886024475,5.423387038498678,-0.0,0.24901416897773743,-1.5866621176349085,0.0,-0.006757412571460009,0.8641443252563477,0.0,0.0027551858220249414,0.8546522259712219,0.0,0.02281063422560692
267.0,367.0,-2.8905,0.3182,9.5372,-0.0308,0.0247,-0.1136,-2.1579963169493617,0.0,4.327355861663818,-1.5059492588043213,-0.0,1.9320433139801025,5.423362779408254,-0.0,0.23678144812583923,-1.5866535345660608,0.0,-0.0012504014885053039,0.8641087412834167,0.0,-0.011880033649504185,0.8546159267425537,0.0,-0.017619401216506958
267.0,367.0,-2.8905,0.3182,9.5372,-0.0308,0.0247,-0.1136,-2.157975812951559,0.0,4.296020984649658,-1.5058726072311401,-0.0,1.9454784393310547,5.4234394309814355,-0.0,0.24787327647209167,-1.5866296927081507,0.0,-0.0070424871519207954,0.8641324043273926,0.0,0.0038387211970984936,0.8546323776245117,0.0,0.0034670599270612
267.0,367.0,-2.8905,0.3182,9.5372,-0.0308,0.0247,-0.1136,-2.157987733880514,0.0,4.271271705627441,-1.5058808326721191,-0.0,1.8873462677001953,5.423351216107168,-0.0,0.2455950230360031,-1.5866296927081507,0.0,0.0038391684647649527,0.8641161918640137,0.0,-0.00040986842941492796,0.8546364903450012,0.0,-0.02914726920425892
267.0,367.0,-2.8905,0.3182,9.5372,-0.0308,0.0247,-0.1136,-2.1579839191832484,0.0,4.292466163635254,-1.5059688091278076,-0.0,1.9077990055084229,5.423399197846212,-0.0,0.24350231885910034,-1.5866783300982874,0.0,-0.005627993494272232,0.8641402721405029,0.0,-0.005813556723296642,0.8546444177627563,0.0,-0.03233788162469864
267.0,367.0,-2.8905,0.3182,9.5372,-0.0308,0.0247,-0.1136,-2.1580363712706507,0.0,4.268037796020508,-1.5059165954589844,-0.0,1.9267594814300537,5.423366892128744,-0.0,0.23026688396930695,-1.5866578261004847,0.0,-0.012838523834943771,0.8641202449798584,0.0,0.01126948744058609,0.8546563386917114,0.0,0.03148119896650314
267.0,367.0,-2.8905,0.3182,9.5372,-0.0308,0.0247,-0.1136,-2.1579963169493617,0.0,4.249508857727051,-1.5059326887130737,-0.0,1.9250595569610596,5.423363435059347,-0.0,0.2516993284225464,-1.5866745154010218,0.0,-0.012320445850491524,0.864112377166748,0.0,0.009050428867340088,0.8546282649040222,0.0,0.02795596793293953
267.0,367.0,-2.8905,0.3182,9.5372,-0.0308,0.0247,-0.1136,-2.157963892022604,0.0,4.281680107116699,-1.505908727645874,-0.0,1.8964163064956665,5.423407423287191,-0.0,0.25528669357299805,-1.5866659323321741,0.0,-0.021890904754400253,0.8641242980957031,0.0,0.019657708704471588,0.8546323776245117,0.0,0.060388073325157166
267.0,367.0,-2.8905,0.3182,9.5372,-0.0308,0.0247,-0.1136,-2.157976289788717,0.0,4.2822675704956055,-1.505920648574829,-0.0,1.8933864831924438,5.423411476403036,-0.0,0.24875660240650177,-1.5866535345660608,0.0,-0.00020964071154594421,0.8641164302825928,0.0,-0.004120522178709507,0.8546603918075562,0.0,0.03307917341589928
267.0,367.0,-2.8905,0.3182,9.5372,-0.0308,0.0247,-0.1136,-2.157992025414938,0.0,4.269153594970703,-1.5058441162109375,-0.0,1.9002249240875244,5.423419403820791,-0.0,0.24640239775180817,-1.5866578261004847,0.0,-0.01568133383989334,0.8641161918640137,0.0,0.01190746109932661,0.8546485304832458,0.0,-0.042346082627773285
267.0,367.0,-2.8905,0.3182,9.5372,-0.0308,0.0247,-0.1136,-2.157987733880514,0.0,4.272233009338379,-1.5059165954589844,-0.0,1.9389899969100952,5.423411416798391,-0.0,0.2520208954811096,-1.5866864363299769,0.0,-0.007356622721999884,0.8641001582145691,0.0,0.0020011705346405506,0.8546521663665771,0.0,-0.010534577071666718
267.0,367.0,-2.8905,0.3182,9.5372,-0.0308,0.0247,-0.1136,-2.158008714715475,0.0,4.286114692687988,-1.5059006214141846,-0.0,1.9146250486373901,5.423399197846212,-0.0,0.2569684386253357,-1.5866907278644007,0.0,-0.004103913903236389,0.8641440868377686,0.0,0.010259215719997883,0.8546444177627563,0.0,0.048682935535907745
272.0,367.0,-2.6602,0.3984,9.1466,-0.0432,0.0286,-0.1229,-2.1579557857909144,0.0,4.305504322052002,-1.5059573650360107,-0.0,1.912975788116455,5.423351514130392,-0.0,0.25929099321365356,-1.5866864363299769,0.0,-0.006368700414896011,0.8641402721405029,0.0,-0.009795267134904861,0.8546521663665771,0.0,-0.014984212815761566
272.0,367.0,-2.6602,0.3984,9.1466,-0.0432,0.0286,-0.1229,-2.157987733880514,0.0,4.28773832321167,-1.505972981452942,-0.0,1.8599417209625244,5.423347461014547,-0.0,0.25282371044158936,-1.5866659323321741,0.0,-0.008378462865948677,0.8640924096107483,0.0,0.0002865106798708439,0.8546282052993774,0.0,0.010927729308605194
272.0,367.0,-2.6602,0.3984,9.1466,-0.0432,0.0286,-0.1229,-2.158008714715475,0.0,4.260652542114258,-1.5059006214141846,-0.0,1.9182733297348022,5.423415529518881,-0.0,0.23689110577106476,-1.5866902510272425,0.0,-0.012640915811061859,0.8640763759613037,0.0,0.00019972189329564571,0.8546282649040222,0.0,0.036986641585826874
272.0,367.0,-2.6602,0.3984,9.1466,-0.0432,0.0286,-0.1229,-2.157975812951559,0.0,4.299022674560547,-1.5058804750442505,-0.0,1.9430112838745117,5.423423456936636,-0.0,0.24214164912700653,-1.5866459051715296,0.0,-0.0033860797993838787,0.8641443252563477,0.0,0.007415424566715956,0.8546645641326904,0.0,-0.07171675562858582
272.0,367.0,-2.6602,0.3984,9.1466,-0.0432,0.0286,-0.1229,-2.1579839191832484,0.0,4.309968948364258,-1.505945086479187,-0.0,1.9393552541732788,5.423399197846212,-0.0,0.25340527296066284,-1.5866621176349085,0.0,0.0015051350928843021,0.8640763759613037,0.0,-0.003348147263750434,0.8546485304832458,0.0,-0.0017789802514016628
272.0,367.0,-2.6602,0.3984,9.1466,-0.0432,0.0286,-0.1229,-2.1579801044859828,0.0,4.268647193908691,-1.505928874015808,-0.0,1.900245189666748,5.423339354782858,-0.0,0.253113716840744,-1.5866578261004847,0.0,-0.013617517426609993,0.8640882968902588,0.0,-0.007441515102982521,0.8546403050422668,0.0,0.020680628716945648
272.0,367.0,-2.6602,0.3984,9.1466,-0.0432,0.0286,-0.1229,-2.1579801044859828,0.0,4.309558868408203,-1.505964756011963,-0.0,1.8627030849456787,5.423395144730367,-0.0,0.25558042526245117,-1.5866578261004847,0.0,-0.01421770453453064,0.8641402125358582,0.0,0.0042263418436050415,0.8546282649040222,0.0,0.032216060906648636
272.0,367.0,-2.6602,0.3984,9.1466,-0.0432,0.0286,-0.1229,-2.1579963169493617,0.0,4.283258438110352,-1.505993127822876,-0.0,1.893958568572998,5.423407423287191,-0.0,0.24766770005226135,-1.5866535345660608,0.0,-0.00124640972353518,0.8640845417976379,0.0,-0.012564484030008316,0.8546645045280457,0.0,-0.025027230381965637
272.0,367.0,-2.6602,0.3984,9.1466,-0.0432,0.0286,-0.1229,-2.1580287418761195,0.0,4.300633907318115,-1.5059367418289185,-0.0,1.9135029315948486,5.423391091614523,-0.0,0.2569164037704468,-1.5866459051715296,0.0,0.002870190190151334,0.8640964031219482,0.0,-0.0005433887708932161,0.8546282649040222,0.0,-0.00033241347409784794
272.0,367.0,-2.6602,0.3984,9.1466,-0.0432,0.0286,-0.1229,-2.157987733880514,0.0,4.262907981872559,-1.5059531927108765,-0.0,1.894491195678711,5.423375117569723,-0.0,0.24497254192829132,-1.586625878010885,0.0,0.000363223603926599,0.8640763759613037,0.0,0.0008175177499651909,0.8546244502067566,0.0,0.04862549155950546
272.0,367.0,-2.6602,0.3984,9.1466,-0.0432,0.0286,-0.1229,-2.157975812951559,0.0,4.303820610046387,-1.5059165954589844,-0.0,1.9334222078323364,5.423366832524099,-0.0,0.23557986319065094,-1.5866416136371058,0.0,-0.006591396871954203,0.8641242980957031,0.0,0.0036745877005159855,0.8546485304832458,0.0,-0.007646577898412943
272.0,367.0,-2.6602,0.3984,9.1466,-0.0432,0.0286,-0.1229,-2.1580001316466273,0.0,4.267027854919434,-1.50591242313385,-0.0,1.8877434730529785,5.4233553288276575,-0.0,0.24753695726394653,-1.5866745154010218,0.0,-0.02076650783419609,0.8641202449798584,0.0,0.009798751212656498,0.8546403050422668,0.0,0.015617676079273224
272.0,367.0,-2.6602,0.3984,9.1466,-0.0432,0.0286,-0.1229,-2.1579677067198695,0.0,4.27914571762085,-1.50591242313385,-0.0,1.8983838558197021,5.42344348409728,-0.0,0.24949920177459717,-1.5866339842425745,0.0,-0.012159605510532856,0.8641362190246582,0.0,-0.006668176036328077,0.8546522259712219,0.0,-0.022789180278778076
272.0,367.0,-2.6602,0.3984,9.1466,-0.0432,0.0286,-0.1229,-2.1579801044859828,0.0,4.266350269317627,-1.5058684349060059,-0.0,1.8751529455184937,5.423363435059347,-0.0,0.25675511360168457,-1.5866501967059534,0.0,-0.013484593480825424,0.8641042709350586,0.0,0.008762809447944164,0.8546403646469116,0.0,-0.03193012252449989
272.0,367.0,-2.6602,0.3984,9.1466,-0.0432,0.0286,-0.1229,-2.1579801044859828,0.0,4.310471534729004,-1.5059165954589844,-0.0,1.9193060398101807,5.423339354782858,-0.0,0.25165754556655884,-1.5866215864764612,0.0,-0.006087777204811573,0.8641481995582581,0.0,0.0005509972106665373,0.8546807169914246,0.0,0.008722771890461445
267.0,368.0,-3.0275,0.2267,9.926,-0.0298,0.0125,-0.1141,-2.157963892022604,0.0,4.284842491149902,-1.5058923959732056,-0.0,1.891256332397461,5.42344348409728,-0.0,0.24195173382759094,-1.5866659323321741,0.0,-0.006313477177172899,0.864112138748169,0.0,0.0022759800776839256,0.8546403646469116,0.0,0.034620270133018494
267.0,368.0,-3.0275,0.2267,9.926,-0.0298,0.0125,-0.1141,-2.1579801044859828,0.0,4.252676486968994,-1.505936861038208,-0.0,1.9100420475006104,5.423371600895681,-0.0,0.24797388911247253,-1.5866621176349085,0.0,0.002217451808974147,0.8640964031219482,0.0,-0.0058935233391821384,0.8546807765960693,0.0,0.028623150661587715
267.0,368.0,-3.0275,0.2267,9.926,-0.0298,0.0125,-0.1141,-2.1580001316466273,0.0,4.268953800201416,-1.5058923959732056,-0.0,1.8359280824661255,5.423343407898702,-0.0,0.265558123588562,-1.5866745154010218,0.0,-0.0008263826603069901,0.8640923500061035,0.0,0.005744384601712227,0.8546485304832458,0.0,0.014160169288516045
267.0,368.0,-3.0275,0.2267,9.926,-0.0298,0.0125,-0.1141,-2.1579438648619593,0.0,4.264457702636719,-1.5059165954589844,-0.0,1.9284837245941162,5.423371004849233,-0.0,0.2555868327617645,-1.5866745154010218,0.0,-0.0080189798027277,0.8641283512115479,0.0,0.00912079680711031,0.8546361923217773,0.0,0.012500819750130177
267.0,368.0,-3.0275,0.2267,9.926,-0.0298,0.0125,-0.1141,-2.157975812951559,0.0,4.2753520011901855,-1.5059367418289185,-0.0,1.910449504852295,5.423407482891836,-0.0,0.24803930521011353,-1.5866659323321741,0.0,-0.0016031337436288595,0.8641242980957031,0.0,0.0005123601295053959,0.8546485304832458,0.0,-0.039257243275642395
267.0,368.0,-3.0275,0.2267,9.926,-0.0298,0.0125,-0.1141,-2.1579963169493617,0.0,4.332051753997803,-1.50591242313385,-0.0,1.9282095432281494,5.423371004849233,-0.0,0.24025610089302063,-1.5866945425616663,0.0,-0.006597413681447506,0.8641321659088135,0.0,-0.0010071126744151115,0.8546724915504456,0.0,0.023592814803123474
267.0,368.0,-3.0275,0.2267,9.926,-0.0298,0.0125,-0.1141,-2.1579801044859828,0.0,4.304539680480957,-1.5059006214141846,-0.0,1.8898653984069824,5.423415231495657,-0.0,0.24886232614517212,-1.5866215864764612,0.0,-0.0006151789566501975,0.864112377166748,0.0,0.008808260783553123,0.8546603322029114,0.0,-0.022865019738674164
267.0,368.0,-3.0275,0.2267,9.926,-0.0298,0.0125,-0.1141,-2.1579719982542933,0.0,4.2918291091918945,-1.5059326887130737,-0.0,1.8848774433135986,5.423387038498678,-0.0,0.25397107005119324,-1.5866459051715296,0.0,-0.01304200291633606,0.8641083240509033,0.0,-0.0015539219602942467,0.8547049164772034,0.0,0.04298839345574379
267.0,368.0,-3.0275,0.2267,9.926,-0.0298,0.0125,-0.1141,-2.157975812951559,0.0,4.2786359786987305,-1.5059289932250977,-0.0,1.883737325668335,5.423383223801412,-0.0,0.264575332403183,-1.5866578261004847,0.0,-0.0036616353318095207,0.8641202449798584,0.0,0.004187923390418291,0.8546242117881775,0.0,0.04930473119020462
267.0,368.0,-3.0275,0.2267,9.926,-0.0298,0.0125,-0.1141,-2.157951971093649,0.0,4.290278434753418,-1.5059247016906738,-0.0,1.9159687757492065,5.423367547779836,-0.0,0.23901692032814026,-1.5866335074054163,0.0,-0.013064110651612282,0.8641809225082397,0.0,0.0030273140873759985,0.8546645641326904,0.0,-0.0054759494960308075
267.0,368.0,-3.0275,0.2267,9.926,-0.0298,0.0125,-0.1141,-2.158032556573385,0.0,4.255373477935791,-1.5059165954589844,-0.0,1.9073066711425781,5.423371004849233,-0.0,0.2352486252784729,-1.5866296927081507,0.0,0.0019047565292567015,0.8641892075538635,0.0,-0.004969452973455191,0.8546321392059326,0.0,-0.03208782523870468
267.0,368.0,-3.0275,0.2267,9.926,-0.0298,0.0125,-0.1141,-2.1579681835570277,0.0,4.290184020996094,-1.5058927536010742,-0.0,1.8808395862579346,5.423415529518881,-0.0,0.24705368280410767,-1.5866902510272425,0.0,-0.008974290452897549,0.8640723824501038,0.0,0.011920882388949394,0.8546323776245117,0.0,-0.010497945360839367
267.0,368.0,-3.0275,0.2267,9.926,-0.0298,0.0125,-0.1141,-2.1579801044859828,0.0,4.330914497375488,-1.505928874015808,-0.0,1.8928632736206055,5.423423456936636,-0.0,0.2496252954006195,-1.5866659323321741,0.0,-0.013707824982702732,0.8641642928123474,0.0,0.0016127631533890963,0.8546444773674011,0.0,-0.03017241135239601
267.0,368.0,-3.0275,0.2267,9.926,-0.0298,0.0125,-0.1141,-2.157975812951559,0.0,4.312175750732422,-1.5059407949447632,-0.0,1.8809814453125,5.423382866173544,-0.0,0.2482098937034607,-1.5866783300982874,0.0,0.0016161749372258782,0.8641042709350586,0.0,-0.001918124151416123,0.8546282649040222,0.0,0.026519931852817535
276.0,379.0,-2.7266,0.2955,9.3075,-0.04,0.0249,-0.1194,-2.1579600773253382,0.0,4.284541130065918,-1.5059409141540527,-0.0,1.9263278245925903,5.423335182457723,-0.0,0.2512282133102417,-1.586670223866598,0.0,-0.009302914142608643,0.8641562461853027,0.0,-0.004112472292035818,0.8546608686447144,0.0,-0.009952266700565815
276.0,379.0,-2.7266,0.2955,9.3075,-0.04,0.0249,-0.1194,-2.157963892022604,0.0,4.24920654296875,-1.5059367418289185,-0.0,1.8922557830810547,5.423387038498678,-0.0,0.23924091458320618,-1.5866902510272425,0.0,-0.01632486656308174,0.8641045093536377,0.0,0.0011558013502508402,0.8546848893165588,0.0,0.02007962390780449
276.0,379.0,-2.7266,0.2955,9.3075,-0.04,0.0249,-0.1194,-2.1579801044859828,0.0,4.263350009918213,-1.5059165954589844,-0.0,1.9204721450805664,5.423375117569723,-0.0,0.24228546023368835,-1.586726490651266,0.0,0.0035665419418364763,0.8641043305397034,0.0,-0.0027034184895455837,0.8546766042709351,0.0,0.0008166301995515823
276.0,379.0,-2.7266,0.2955,9.3075,-0.04,0.0249,-0.1194,-2.1579963169493617,0.0,4.289224624633789,-1.5059573650360107,-0.0,1.9363229274749756,5.423375117569723,-0.0,0.252341091632843,-1.5866497198687952,0.0,-0.0018544367048889399,0.8641202449798584,0.0,0.009250501170754433,0.8546725511550903,0.0,-0.030046304687857628
276.0,379.0,-2.7266,0.2955,9.3075,-0.04,0.0249,-0.1194,-2.1579801044859828,0.0,4.289945125579834,-1.50591242313385,-0.0,1.8470702171325684,5.423355388432302,-0.0,0.2465289831161499,-1.5866864363299769,0.0,-0.006247979588806629,0.8640519380569458,0.0,-0.014961585402488708,0.8546323776245117,0.0,-0.03447110205888748
276.0,379.0,-2.7266,0.2955,9.3075,-0.04,0.0249,-0.1194,-2.158004423181051,0.0,4.284439563751221,-1.5059328079223633,-0.0,1.8256808519363403,5.423391091614523,-0.0,0.24836072325706482,-1.5866454283343714,0.0,-0.02533426322042942,0.8641283512115479,0.0,0.004312749020755291,0.8546321392059326,0.0,-0.03368426859378815
276.0,379.0,-2.7266,0.2955,9.3075,-0.04,0.0249,-0.1194,-2.157987733880514,0.0,4.265611171722412,-1.50591242313385,-0.0,1.9176247119903564,5.423395085125723,-0.0,0.24516400694847107,-1.5866740385638636,0.0,-0.0125277079641819,0.8640843033790588,0.0,-0.0012580397306010127,0.8546440005302429,0.0,-0.0040016681887209415
276.0,379.0,-2.7266,0.2955,9.3075,-0.04,0.0249,-0.1194,-2.1579719982542933,0.0,4.318594932556152,-1.5059006214141846,-0.0,1.8907301425933838,5.423327135830679,-0.0,0.2561631500720978,-1.5867021719561976,0.0,-0.002343002939596772,0.8641242384910583,0.0,0.015413066372275352,0.8547089695930481,0.0,-0.05748378857970238
276.0,379.0,-2.7266,0.2955,9.3075,-0.04,0.0249,-0.1194,-2.157992502252096,0.0,4.283442497253418,-1.5059289932250977,-0.0,1.9120078086853027,5.423366892128744,-0.0,0.2526034712791443,-1.5867064634906214,0.0,-0.013173147104680538,0.8641202449798584,0.0,-0.007014404982328415,0.8546843528747559,0.0007095070322975516,0.008605137467384338
276.0,379.0,-2.7266,0.2955,9.3075,-0.04,0.0249,-0.1194,-2.157963892022604,0.0,4.312953948974609,-1.5059165954589844,-0.0,1.9108548164367676,5.423391091614523,-0.0,0.25187090039253235,-1.5866897741900843,0.0,-0.016572829335927963,0.8641398549079895,0.0,-0.002003130968660116,0.8546884059906006,0.0022195035126060247,0.020019911229610443
276.0,379.0,-2.7266,0.2955,9.3075,-0.04,0.0249,-0.1194,-2.1580001316466273,0.0,4.3031206130981445,-1.5058887004852295,-0.0,1.9169352054595947,5.423375117569723,-0.0,0.23784223198890686,-1.5867136160479944,0.0,-0.009187201969325542,0.8641441464424133,0.0,-0.00427411450073123,0.8547365069389343,0.0022031888365745544,-0.05795226991176605
276.0,379.0,-2.7266,0.2955,9.3075,-0.04,0.0249,-0.1194,-2.158008714715475,0.0,4.271463394165039,-1.505936861038208,-0.0,1.9280476570129395,5.423382866173544,-0.0,0.24733483791351318,-1.586722199116842,0.0,0.01269533857703209,0.8641480803489685,0.0,0.005312361288815737,0.8547565340995789,0.0023040934465825558,0.01687372475862503
276.0,379.0,-2.7266,0.2955,9.3075,-0.04,0.0249,-0.1194,-2.1579319439330042,0.0,4.328378200531006,-1.5059165954589844,-0.0,1.8772218227386475,5.423407423287191,-0.0,0.2431141883134842,-1.586694065724508,0.0,-0.014240393415093422,0.8641405701637268,0.0,0.003418929874897003,0.8547603487968445,0.0032852545846253633,-0.022496560588479042
276.0,379.0,-2.7266,0.2955,9.3075,-0.04,0.0249,-0.1194,-2.157963892022604,0.0,4.282444000244141,-1.5059010982513428,-0.0,1.9430956840515137,5.423359381943502,-0.0,0.2437804490327835,-1.5867059866534632,0.0,-0.012754345312714577,0.8641002178192139,0.0,0.012332860380411148,0.8547723889350891,0.004252277314662933,-0.0055047571659088135
276.0,379.0,-2.7266,0.2955,9.3075,-0.04,0.0249,-0.1194,-2.1579600773253382,0.0,4.3081817626953125,-1.5058766603469849,-0.0,1.9235410690307617,5.423387038498678,-0.0,0.22986337542533875,-1.5866778532611292,0.0,-0.007143732160329819,0.8640604615211487,0.0,0.023666391149163246,0.8547963500022888,0.0031088038813322783,-0.00669211195781827
268.0,371.0,-2.7482,0.5707,9.3817,-0.0391,0.0255,-0.1226,-2.1580525837340296,0.0,4.330478668212891,-1.5059165954589844,-0.0,1.9425179958343506,5.423379111080923,-0.0,0.2519935965538025,-1.5866535345660608,0.0,-0.010405283421278,0.8641045093536377,0.0,0.00014470075257122517,0.8548204302787781,0.001967761665582657,0.039559505879879
268.0,371.0,-2.7482,0.5707,9.3817,-0.0391,0.0255,-0.1226,-2.1579677067198695,0.0,4.304563522338867,-1.5059006214141846,-0.0,1.8695399761199951,5.423399197846212,-0.0,0.24187591671943665,-1.5867183844195765,0.0,-0.007968354970216751,0.8641606569290161,0.0,-0.004924776032567024,0.8547599911689758,0.0011934656649827957,0.016825512051582336
268.0,371.0,-2.7482,0.5707,9.3817,-0.0391,0.0255,-0.1226,-2.157975812951559,0.0,4.271579742431641,-1.5059449672698975,-0.0,1.8800764083862305,5.423363435059347,-0.0,0.24913634359836578,-1.5867021719561976,0.0,-0.0024493145756423473,0.8640803098678589,0.0,-0.00015227170661091805,0.854828953742981,0.000796838547103107,-0.0020090872421860695
268.0,371.0,-2.7482,0.5707,9.3817,-0.0391,0.0255,-0.1226,-2.1579719982542933,0.0,4.309935569763184,-1.5059893131256104,-0.0,1.8925106525421143,5.423359441548147,-0.0,0.23459413647651672,-1.5866497198687952,0.0,-0.009895404800772667,0.864068329334259,0.0,0.006604528520256281,0.8548409938812256,0.0005981515860185027,-0.004419224336743355
268.0,371.0,-2.7482,0.5707,9.3817,-0.0391,0.0255,-0.1226,-2.157975812951559,0.0,4.318058967590332,-1.5059083700180054,-0.0,1.9260849952697754,5.423359441548147,-0.0,0.23906263709068298,-1.5866864363299769,0.0,-0.0016927538672462106,0.8641202449798584,0.0,-0.004832829348742962,0.8547966480255127,0.00041924003744497895,0.053120024502277374
268.0,371.0,-2.7482,0.5707,9.3817,-0.0391,0.0255,-0.1226,-2.157987733880514,0.0,4.3296122550964355,-1.5059165954589844,-0.0,1.8970707654953003,5.423399197846212,-0.0,0.25505319237709045,-1.5867021719561976,0.0,-0.00954183004796505,0.8640883564949036,0.0,-0.007813866250216961,0.8548451662063599,0.00011361891665728763,0.03348306566476822
268.0,371.0,-2.7482,0.5707,9.3817,-0.0391,0.0255,-0.1226,-2.157963892022604,0.0,4.304038047790527,-1.5058600902557373,-0.0,1.9037755727767944,5.423407482891836,-0.0,0.23640775680541992,-1.5866416136371058,0.0,-0.0034083337523043156,0.8640883564949036,0.0,0.011559968814253807,0.8547561764717102,2.2837686231014231e-07,-0.0019469780381768942
268.0,371.0,-2.7482,0.5707,9.3817,-0.0391,0.0255,-0.1226,-2.157992025414938,0.0,4.295443534851074,-1.5059372186660767,-0.0,1.9190999269485474,5.423411178379812,-0.0,0.24775651097297668,-1.5866902510272425,0.0,-0.006353389006108046,0.8641282916069031,0.0,0.00256885914131999,0.8547925353050232,7.399119091402485e-15,0.026131851598620415
268.0,371.0,-2.7482,0.5707,9.3817,-0.0391,0.0255,-0.1226,-2.1579557857909144,0.0,4.289892196655273,-1.5059326887130737,-0.0,1.8778572082519531,5.423387038498678,-0.0,0.2464410662651062,-1.5866377989398401,0.0,-0.014090707525610924,0.8641042709350586,0.0,0.002964991144835949,0.8547765016555786,-0.0008626641938462853,0.02301785908639431
268.0,371.0,-2.7482,0.5707,9.3817,-0.0391,0.0255,-0.1226,-2.1579963169493617,0.0,4.302809715270996,-1.50591242313385,-0.0,1.895186185836792,5.423375117569723,-0.0,0.25120797753334045,-1.5866578261004847,0.0,0.0023827229160815477,0.8640760779380798,0.0,0.007303071673959494,0.854764461517334,-0.0007087489939294755,-0.018508993089199066
268.0,371.0,-2.7482,0.5707,9.3817,-0.0391,0.0255,-0.1226,-2.1579801044859828,0.0,4.325841426849365,-1.5059010982513428,-0.0,1.901869773864746,5.423415529518881,-0.0,0.24645206332206726,-1.5866621176349085,0.0,-0.014098660089075565,0.8641687631607056,0.0,0.001984979026019573,0.8547362685203552,-0.0005299472832120955,-0.01291499100625515
268.0,371.0,-2.7482,0.5707,9.3817,-0.0391,0.0255,-0.1226,-2.1580244503416957,0.0,4.313891887664795,-1.5058600902557373,-0.0,1.941493034362793,5.423387038498678,-0.0,0.24255496263504028,-1.5866745154010218,0.0,-0.011407522484660149,0.8641164302825928,0.0,0.007178886327892542,0.8547362685203552,-0.0004231380298733711,-0.03363047167658806
268.0,371.0,-2.7482,0.5707,9.3817,-0.0391,0.0255,-0.1226,-2.1579843960204066,0.0,4.307596683502197,-1.5059006214141846,0.0002584317699074745,1.8667219877243042,5.423387038498678,-0.0,0.25166183710098267,-1.5866578261004847,0.0,0.00701224897056818,0.8641083240509033,0.0,-0.0013614461058750749,0.8547362685203552,-0.0004024658410344273,0.05241483449935913
268.0,371.0,-2.7482,0.5707,9.3817,-0.0391,0.0255,-0.1226,-2.1579562626280726,0.0,4.314823150634766,-1.5058600902557373,1.1012160939571913e-05,1.8661305904388428,5.423435377865591,-0.0,0.24597468972206116,-1.5866745154010218,0.0,-0.005991019774228334,0.8641202449798584,0.0,0.004247089382261038,0.8547685742378235,-0.0003446690971031785,0.029262300580739975
268.0,371.0,-2.7482,0.5707,9.3817,-0.0391,0.0255,-0.1226,-2.1580125294127406,0.0,4.313677787780762,-1.5058927536010742,2.659307496433172e-11,1.9073784351348877,5.423399197846212,-0.0,0.254813551902771,-1.5866416136371058,0.0,-0.01125421840697527,0.8641324043273926,0.0,-0.00372250541113317,0.8547647595405579,-0.0002390929003013298,-0.007205701433122158
268.0,365.0,-2.8301,0.5067,9.2686,-0.0221,0.0258,-0.1202,-2.1580001316466273,0.0,4.311686992645264,-1.505908727645874,6.421914623739957e-17,1.903456211090088,5.423378753453054,-0.0,0.2498185932636261,-1.5866659323321741,0.0,-0.010172289796173573,0.8640645146369934,0.0,0.0004298989661037922,0.8547283411026001,-0.0001999946980504319,0.006315434351563454
268.0,365.0,-2.8301,0.5067,9.2686,-0.0221,0.0258,-0.1202,-2.1579281292357386,0.0,4.361437797546387,-1.5058685541152954,1.5508169835174282e-22,1.9265854358673096,5.423382866173544,-0.0,0.24023619294166565,-1.5866578261004847,0.0,-0.004338727332651615,0.8641045093536377,0.0,-0.0036322588566690683,0.8547362685203552,-0.000176465226104483,-0.02946295589208603
268.0,365.0,-2.8301,0.5067,9.2686,-0.0221,0.0258,-0.1202,-2.157951971093649,0.0,4.336215972900391,-1.50591242313385,3.745040351080221e-28,1.8977479934692383,5.423411476403036,-0.0,0.24510866403579712,-1.5866335074054163,0.0,-0.007885543629527092,0.8641323447227478,0.0,0.006889602169394493,0.8547727465629578,-0.00015788993914611638,0.020135218277573586
268.0,365.0,-2.8301,0.5067,9.2686,-0.0221,0.0258,-0.1202,-2.158004423181051,0.0,4.281061172485352,-1.5058969259262085,6.304830458248034e-05,1.8753774166107178,5.423387038498678,-0.0,0.26836851239204407,-1.5866783300982874,0.0,-0.009583573788404465,0.8640843033790588,0.0,-0.0014108337927609682,0.8547159433364868,-0.0001428528194082901,-0.014215927571058273
268.0,365.0,-2.8301,0.5067,9.2686,-0.0221,0.0258,-0.1202,-2.1579557857909144,0.0,4.292425632476807,-1.5058684349060059,5.261378828436136e-05,1.8905560970306396,5.4233911512191675,-0.0,0.2647605836391449,-1.5866864363299769,0.0,-0.0017932341434061527,0.8641121983528137,0.0,-0.0019371185917407274,0.8547362685203552,-0.00013043098442722112,0.012891228310763836
268.0,365.0,-2.8301,0.5067,9.2686,-0.0221,0.0258,-0.1202,-2.1579801044859828,0.0,4.299324989318848,-1.5058846473693848,4.476240064832382e-05,1.8892579078674316,5.423371004849233,-0.0,0.25386175513267517,-1.5866501967059534,0.0,-0.00506146065890789,0.8640764355659485,0.0,0.0001677027903497219,0.8547159433364868,-0.00011999669368378818,0.05040007829666138
268.0,365.0,-2.8301,0.5067,9.2686,-0.0221,0.0258,-0.1202,-2.1579843960204066,0.0,4.329980850219727,-1.5058684349060059,3.895033660228364e-05,1.9312913417816162,5.423322963505544,-0.0,0.25590503215789795,-1.5866578261004847,0.0,-0.001844962127506733,0.8640843033790588,0.0,0.005200056824833155,0.8547200560569763,-0.00011110820923931897,-0.003094506449997425
268.0,365.0,-2.8301,0.5067,9.2686,-0.0221,0.0258,-0.1202,-2.1579843960204066,0.0,4.293453693389893,-1.5059046745300293,3.447406197665259e-05,1.9339876174926758,5.423375117569723,-0.0,0.25326353311538696,-1.5866535345660608,0.0,-0.006152923684567213,0.8641202449798584,0.0,0.0053810132667422295,0.8547362685203552,-8.275708387373015e-05,0.0076636020094156265
268.0,365.0,-2.8301,0.5067,9.2686,-0.0221,0.0258,-0.1202,-2.1580168209471644,0.0,4.32314920425415,-1.505920648574829,5.976288353082282e-09,1.9356377124786377,5.423379111080923,-0.0,0.24418339133262634,-1.586670223866598,0.0,-0.001209586625918746,0.8640803098678589,0.0,-0.0009138361783698201,0.854764461517334,-7.741767331026495e-05,-0.010408936068415642
268.0,365.0,-2.8301,0.5067,9.2686,-0.0221,0.0258,-0.1202,-2.1579719982542933,0.0,4.291727066040039,-1.5059409141540527,1.443203365245494e-14,1.8974125385284424,5.423335182457723,-3.747823384969706e-08,0.23188665509223938,-1.5866945425616663,0.0,-0.011039957404136658,0.8640919923782349,0.0,0.007677718997001648,0.8547685742378235,-5.454559141071513e-05,0.01562061533331871
268.0,365.0,-2.8301,0.5067,9.2686,-0.0221,0.0258,-0.1202,-2.1580120525755824,0.0,4.319657325744629,-1.5058602094650269,3.4851658909833535e-20,1.9169381856918335,5.423339354782858,-1.0432202844634642e-11,0.2406352162361145,-1.5866621176349085,0.0,-0.0016450714319944382,0.8640804886817932,0.0,0.008109509944915771,0.8547441959381104,5.360135401133448e-05,-0.021018465980887413
268.0,365.0,-2.8301,0.5067,9.2686,-0.0221,0.0258,-0.1202,-2.158048292199606,-0.0006079460144974291,4.3050994873046875,-1.5059491395950317,8.416265785760809e-26,1.900090217590332,5.423355686455526,-0.0008432487375102937,0.25453758239746094,-1.5866864363299769,0.0,-0.005389978177845478,0.8640843033790588,0.0,0.006721526850014925,0.8548086881637573,7.402287883451208e-05,-0.01833495683968067
268.0,365.0,-2.8301,0.5067,9.2686,-0.0221,0.0258,-0.1202,-2.1580401859679164,-0.0006385328015312552,4.273092269897461,-1.505904197692871,-0.00042680525803007185,1.8942413330078125,5.423343467503347,-0.0008216255228035152,0.2359110414981842,-1.586710278187887,0.0,-0.011810863390564919,0.8641083240509033,0.0,-0.008468832820653915,0.854800820350647,9.119508467847481e-05,-0.015623727813363075
268.0,365.0,-2.8301,0.5067,9.2686,-0.0221,0.0258,-0.1202,-2.158060213128561,-0.0006540945032611489,4.320432662963867,-1.5059243440628052,-0.00040818197885528207,1.9011684656143188,5.423287141114034,-0.0006424202583730221,0.24604612588882446,-1.5867064634906214,0.0,-0.013298023492097855,0.8641282320022583,0.0,0.006148040294647217,0.8547806143760681,8.475531649310142e-05,-0.05054187402129173
268.0,365.0,-2.8301,0.5067,9.2686,-0.0221,0.0258,-0.1202,-2.158003946343893,-0.0003309889871161431,4.281428813934326,-1.5059367418289185,-0.0002616659621708095,1.9041012525558472,5.423351514130392,-0.0004360832099337131,0.2535741925239563,-1.5866745154010218,0.0,-0.0060126143507659435,0.8641321659088135,0.0,-0.0060961744748055935,0.8548328876495361,9.682223026175052e-05,0.021958352997899055
285.0,364.0,-2.8726,0.9063,9.2243,-0.0188,0.0247,-0.1222,-2.1579796276488246,-0.0001948618155438453,4.326501846313477,-1.505981206893921,-0.00014902549446560442,1.9053198099136353,5.423359441548147,-0.0003509885282255709,0.23775321245193481,-1.5866778532611292,0.0,-0.01419029664248228,0.8641044497489929,0.0,0.004262436181306839,0.8547801375389099,0.0003053467080462724,-0.019691091030836105
285.0,364.0,-2.8726,0.9063,9.2243,-0.0188,0.0247,-0.1222,-2.1580125294127406,0.00015703168173786253,4.32287073135376,-1.5059491395950317,-0.00011675325367832556,1.8630658388137817,5.423359441548147,-0.0002456332731526345,0.2378443330526352,-1.5866778532611292,0.0,-0.013494078069925308,0.864112138748169,0.0,-3.979261964559555e-05,0.8548405766487122,0.0010060645872727036,-0.04770898073911667
285.0,364.0,-2.8726,0.9063,9.2243,-0.0188,0.0247,-0.1222,-2.157987733880514,0.0002492885396350175,4.277287483215332,-1.505892276763916,0.00010722271690610796,1.8846120834350586,5.423375117569723,-0.00021040343563072383,0.2579207122325897,-1.586698357258932,0.0,-0.0001225729938596487,0.8641891479492188,0.0,-0.00828060507774353,0.8548246026039124,0.0009092388791032135,0.02033313736319542
285.0,364.0,-2.8726,0.9063,9.2243,-0.0188,0.0247,-0.1222,-2.1580125294127406,0.0005785125540569425,4.261242866516113,-1.5058887004852295,0.00013637154188472778,1.8827252388000488,5.423395144730367,-0.00016645733558107167,0.24363592267036438,-1.5866778532611292,0.0,-0.007846642285585403,0.8641848564147949,0.0,0.006440304219722748,0.8548245429992676,0.0009178606560453773,0.031157249584794044
285.0,364.0,-2.8726,0.9063,9.2243,-0.0188,0.0247,-0.1222,-2.158016344110006,0.00042529799975454807,4.285681247711182,-1.505953311920166,0.0001579704403411597,1.9278481006622314,5.423363494663992,-0.0001314463297603652,0.2299807220697403,-1.586710278187887,0.0,0.001818883465602994,0.864116370677948,0.0,0.0034009763039648533,0.8548447489738464,0.0007330072112381458,0.02095603570342064
285.0,364.0,-2.8726,0.9063,9.2243,-0.0188,0.0247,-0.1222,-2.157988210717672,0.0003313255147077143,4.28145170211792,-1.505908727645874,0.0001744410110404715,1.9334971904754639,5.423335182457723,-0.0001184635839308612,0.2566319406032562,-1.5866897741900843,0.0,-0.0050933463498950005,0.8641080856323242,0.0,-0.0017589280614629388,0.8548245429992676,0.0005614609108306468,0.05155722424387932
285.0,364.0,-2.8726,0.9063,9.2243,-0.0188,0.0247,-0.1222,-2.157975812951559,0.0002713712165132165,4.284422874450684,-1.505908727645874,0.0001563135301694274,1.8936073780059814,5.423339354782858,-0.00010800462769111618,0.2503511309623718,-1.5866897741900843,0.0,-0.007061675190925598,0.8641083240509033,0.0,0.007993935607373714,0.8548163175582886,0.0004549950535874814,0.010117590427398682
285.0,364.0,-2.8726,0.9063,9.2243,-0.0188,0.0247,-0.1222,-2.1580287418761195,0.00022979288769420236,4.254318714141846,-1.5059248208999634,0.00014156148245092481,1.915289282798767,5.423387038498678,-2.826706986525096e-05,0.23686560988426208,-1.5867016951190394,0.0,-0.017819905653595924,0.8641482591629028,0.0,-0.003423284739255905,0.8548083901405334,0.0003824743034783751,0.010897140018641949
285.0,364.0,-2.8726,0.9063,9.2243,-0.0188,0.0247,-0.1222,-2.1579801044859828,0.00019926397362723947,4.277751922607422,-1.5059326887130737,0.0001293536479352042,1.8895313739776611,5.423371720104971,-2.581496119091753e-05,0.24778108298778534,-1.5866659323321741,0.0,-0.011546570807695389,0.8640923500061035,0.0,0.015740009024739265,0.8548446893692017,0.0003298962546978146,0.01433245837688446
285.0,364.0,-2.8726,0.9063,9.2243,-0.0188,0.0247,-0.1222,-2.157948156396383,0.00017589620256330818,4.252501964569092,-1.5058642625808716,0.00011908428859896958,1.9575526714324951,5.423351514130392,-7.185689820943253e-09,0.2563630938529968,-1.586670223866598,0.0,-0.013402941636741161,0.8641482591629028,0.0,-0.001377828884869814,0.8548001050949097,0.00029002700466662645,-0.013516174629330635
285.0,364.0,-2.8726,0.9063,9.2243,-0.0188,0.0247,-0.1222,-2.157975812951559,0.00018886882753577083,4.271218299865723,-1.5058482885360718,0.0001600609830347821,1.9105627536773682,5.423395144730367,-2.0001630560151362e-12,0.24862635135650635,-1.5866659323321741,0.0,-0.010636793449521065,0.8641002774238586,0.0,-0.004382421728223562,0.8547840118408203,0.0002587564231362194,0.03113854117691517
285.0,364.0,-2.8726,0.9063,9.2243,-0.0188,0.0247,-0.1222,-2.157992502252096,0.00019942464132327586,4.279938697814941,-1.5058850049972534,0.0001796919823391363,1.9207719564437866,5.423383223801412,-5.567526915874427e-16,0.24014419317245483,-1.5866621176349085,0.0,-0.006448511965572834,0.8641083240509033,0.0,-0.004042421467602253,0.8547840118408203,0.00023357280588243157,-0.039217762649059296
285.0,364.0,-2.8726,0.9063,9.2243,-0.0188,0.0247,-0.1222,-2.157920023004049,0.0001671533682383597,4.254710674285889,-1.5059051513671875,0.00019100825011264533,1.871379017829895,5.423379111080923,-1.549741876922792e-19,0.24597696959972382,-1.5866859594928187,0.0,-0.007713761180639267,0.8640724420547485,0.0,0.003567192004993558,0.8548166155815125,0.00018732216267380863,0.007870957255363464
285.0,364.0,-2.8726,0.9063,9.2243,-0.0188,0.0247,-0.1222,-2.1579443416991175,0.00014593404193874449,4.304958343505859,-1.5058808326721191,0.00020009995205327868,1.9186952114105225,5.423347461014547,-4.313763744532975e-23,0.26493194699287415,-1.5866535345660608,0.0,-0.00045109132770448923,0.8641282916069031,0.0,-0.003125341609120369,0.8548083901405334,9.469257201999426e-05,-0.02780534327030182
285.0,364.0,-2.8726,0.9063,9.2243,-0.0188,0.0247,-0.1222,-2.1579605541624964,0.000107468047644943,4.259510040283203,-1.5058766603469849,0.0001847004023147747,1.9234297275543213,5.423379111080923,-1.2007518387073324e-26,0.24477100372314453,-1.5866497198687952,0.0,-0.010608461685478687,0.8641641736030579,0.0,0.006908413954079151,0.854756236076355,5.0272574299015105e-05,-0.014022412709891796
276.0,361.0,-2.9838,0.3613,9.0933,-0.037,0.0365,-0.1194,-2.157992025414938,9.773058263817802e-05,4.306517601013184,-1.5059289932250977,0.00017150216444861144,1.9105432033538818,5.4233911512191675,-3.3423370663936e-30,0.24489068984985352,-1.5866778532611292,0.0,-0.013472353108227253,0.8640764355659485,0.0,0.007370155770331621,0.8547843098640442,4.638585960492492e-05,-0.026458125561475754
276.0,361.0,-2.9838,0.3613,9.0933,-0.037,0.0365,-0.1194,-2.1579724750914515,9.03705513337627e-05,4.231215476989746,-1.5059372186660767,0.00016006392252165824,1.891897201538086,5.423347401409902,-9.303517997850151e-34,0.24090753495693207,-1.5866659323321741,0.0,-0.014763077720999718,0.8640683889389038,0.0,0.0008468669839203358,0.8548004627227783,2.156326263502706e-05,0.047973763197660446
276.0,361.0,-2.9838,0.3613,9.0933,-0.037,0.0365,-0.1194,-2.157975812951559,6.549337558681145e-05,4.332191467285156,-1.5059212446212769,0.00020205734472256154,1.8559136390686035,5.423415529518881,-2.5896681696450753e-37,0.2535371780395508,-1.5866659323321741,0.0,0.001960557419806719,0.8641202449798584,0.0,-0.005575750023126602,0.8548083901405334,2.0087085431441665e-05,-0.03920293226838112
276.0,361.0,-2.9838,0.3613,9.0933,-0.037,0.0365,-0.1194,-2.158004423181051,7.775396079523489e-05,4.3306427001953125,-1.5058684349060059,0.0011072593042626977,1.910300850868225,5.423423456936636,-7.208419430333291e-41,0.25911223888397217,-1.586682144795553,0.0,0.0007229913026094437,0.8641440868377686,0.0,0.007587646134197712,0.8548049330711365,1.8826536688720807e-05,0.026825319975614548
276.0,361.0,-2.9838,0.3613,9.0933,-0.037,0.0365,-0.1194,-2.1579801044859828,7.371616084128618e-05,4.334431171417236,-1.5057804584503174,0.003646831726655364,1.8788206577301025,5.423395085125723,-1.961817850054744e-44,0.2494877725839615,-1.5867064634906214,0.0,-0.004466542508453131,0.8641242980957031,0.0,-0.00015703844837844372,0.8548045754432678,1.7714841305860318e-05,0.03781742602586746
276.0,361.0,-2.9838,0.3613,9.0933,-0.037,0.0365,-0.1194,-2.157980581323141,6.944986671442166e-05,4.279089450836182,-1.5057886838912964,0.005068655591458082,1.8997430801391602,5.423382866173544,-0.0,0.2533125877380371,-1.5866535345660608,0.0,6.0572754591703415e-05,0.8641321659088135,0.0,0.009207367897033691,0.8548410534858704,1.6727117326809093e-05,-0.002720592077821493
276.0,361.0,-2.9838,0.3613,9.0933,-0.037,0.0365,-0.1194,-2.1580001316466273,6.447469786508009e-05,4.296539306640625,-1.5058133602142334,0.005539267789572477,1.92354154586792,5.423435377865591,-0.0,0.26012396812438965,-1.5866377989398401,0.0,-0.0140236122533679,0.8641768097877502,0.0,-0.0012151949340477586,0.8548245429992676,4.663623622036539e-05,0.0013461050111800432
276.0,361.0,-2.9838,0.3613,9.0933,-0.037,0.0365,-0.1194,-2.158004423181051,4.589323725667782e-05,4.3006978034973145,-1.5057532787322998,0.005236029624938965,1.952681303024292,5.423403370171346,-0.0,0.24981904029846191,-1.5866535345660608,0.0,0.0006131799891591072,0.8641481399536133,0.0,0.015285385772585869,0.8548286557197571,6.389643385773525e-05,-0.015829674899578094
276.0,361.0,-2.9838,0.3613,9.0933,-0.037,0.0365,-0.1194,-2.157987733880514,4.366404391475953e-05,4.250373363494873,-1.5057408809661865,0.004297517240047455,1.932093620300293,5.423359441548147,0.00011790532880695537,0.25822097063064575,-1.5866621176349085,0.0,-0.007826751098036766,0.8641198873519897,0.0,0.008853308856487274,0.8548889756202698,0.00014108345203567296,-0.05007052421569824
276.0,361.0,-2.9838,0.3613,9.0933,-0.037,0.0365,-0.1194,-2.1579963169493617,4.164369238424115e-05,4.287765979766846,-1.505684494972229,0.0032471795566380024,1.926600694656372,5.423395144730367,5.131285797688179e-05,0.25453507900238037,-1.5866745154010218,0.0,-0.0012596847955137491,0.8641564846038818,0.0,0.007135502062737942,0.8548323512077332,0.0009005629108287394,-0.027071941643953323
276.0,361.0,-2.9838,0.3613,9.0933,-0.037,0.0365,-0.1194,-2.157963892022604,3.980205292464234e-05,4.309059143066406,-1.5056849718093872,0.002315332880243659,1.9126743078231812,5.423343407898702,4.2529547499725595e-05,0.23866447806358337,-1.5866501967059534,0.0,-0.0008598114363849163,0.8641766309738159,0.0,0.014905769377946854,0.8548122644424438,0.0011793142184615135,0.04203635826706886
276.0,361.0,-2.9838,0.3613,9.0933,-0.037,0.0365,-0.1194,-2.158004423181051,3.811638453043997e-05,4.294204235076904,-1.5056126117706299,0.0026658298447728157,1.9412641525268555,5.423351514130392,1.1838253932694442e-08,0.25047576427459717,-1.5866783300982874,0.0,0.0010591876925900578,0.8641440868377686,8.931413617574435e-07,0.011771283112466335,0.8548728227615356,0.0011273330310359597,-0.02216065675020218
276.0,361.0,-2.9838,0.3613,9.0933,-0.037,0.0365,-0.1194,-2.1579801044859828,3.656772605609149e-05,4.310544967651367,-1.5056087970733643,0.004490641877055168,1.968980312347412,5.423351514130392,3.2952217343673595e-12,0.21536490321159363,-1.5866621176349085,0.0,0.007962225005030632,0.8641723990440369,2.486091887909936e-10,0.017974020913243294,0.8548845052719116,0.001105864648707211,0.028974808752536774
276.0,361.0,-2.9838,0.3613,9.0933,-0.037,0.0365,-0.1194,-2.1580001316466273,3.513999399729073e-05,4.281620979309082,-1.505568504333496,0.007259276695549488,1.9202277660369873,5.423311400204458,9.172371555051049e-16,0.2324499785900116,-1.5866745154010218,0.0,-0.0037520932964980602,0.864168643951416,6.920128397180578e-14,0.01915024220943451,0.8548768162727356,0.0012649139389395714,0.038134098052978516
276.0,361.0,-2.9838,0.3613,9.0933,-0.037,0.0365,-0.1194,-2.158032556573385,3.3819549571489915e-05,4.284482955932617,-1.5054810047149658,0.009850666858255863,1.9021944999694824,5.423343407898702,-0.0009232377633452415,0.2291262298822403,-1.5866501967059534,0.0,0.014841508120298386,0.8641484975814819,1.9262430847430473e-17,0.02069098874926567,0.8549250364303589,0.0013690521009266376,0.014817751944065094
272.0,358.0,-2.6369,0.3075,9.2782,-0.0524,0.0269,-0.1243,-2.1579562626280726,4.345382330939174e-05,4.24904727935791,-1.505397081375122,0.012625706382095814,1.965822458267212,5.423295485764303,-0.003206434892490506,0.2245972603559494,-1.5866497198687952,0.0,0.0032865440007299185,0.8641440272331238,0.00040923836058937013,0.027910271659493446,0.8548845052719116,0.0010787744540721178,-0.03173530101776123
272.0,358.0,-2.6369,0.3075,9.2782,-0.0524,0.0269,-0.1243,-2.1579801044859828,4.1940762457670644e-05,4.2356462478637695,-1.505300760269165,0.014904794283211231,2.0280959606170654,5.423283624439993,-0.005760235246270895,0.20926004648208618,-1.5866535345660608,0.0,0.002489417092874646,0.8641606569290161,0.00040396087570115924,0.019399389624595642,0.8548521399497986,0.0006653820164501667,0.016870930790901184
272.0,358.0,-2.6369,0.3075,9.2782,-0.0524,0.0269,-0.1243,-2.157988210717672,4.052443546243012e-05,4.258536338806152,-1.5052244663238525,0.017599744722247124,2.0151872634887695,5.423215794354238,-0.009143791161477566,0.2051624208688736,-1.586670223866598,0.0,-0.00112464081030339,0.8641483187675476,0.0003866890037897974,0.032982029020786285,0.8548643589019775,0.00046080630272626877,0.005362149327993393
272.0,358.0,-2.6369,0.3075,9.2782,-0.0524,0.0269,-0.1243,-2.157936235467428,1.3954050700704101e-05,4.24285364151001,-1.5051608085632324,0.018881674855947495,1.9777014255523682,5.423148262291708,-0.012898171320557594,0.21183083951473236,-1.5866783300982874,0.0,-0.0002791124861687422,0.8642162084579468,0.0004102353996131569,0.03761398047208786,0.854868471622467,0.0002819994406308979,-0.06328648328781128
272.0,358.0,-2.6369,0.3075,9.2782,-0.0524,0.0269,-0.1243,-2.157920023004049,1.3321465303306468e-05,4.195487976074219,-1.5049641132354736,0.019994867965579033,1.974090337753296,5.423015880375662,-0.01503677386790514,0.19127030670642853,-1.5866745154010218,0.0,0.02641463279724121,0.8642281293869019,0.0003823398146778345,0.0252886563539505,0.8548319935798645,-0.00020349719852674752,-0.029867948964238167
272.0,358.0,-2.6369,0.3075,9.2782,-0.0524,0.0269,-0.1243,-2.157976289788717,1.2755088391713798e-05,4.232632637023926,-1.5049049854278564,0.022306988015770912,2.0269062519073486,5.422892319947042,-0.016714289784431458,0.1822052299976349,-1.5866783300982874,0.0,0.008284348994493484,0.8641884326934814,0.00037393273669295013,0.015811365097761154,0.8548645377159119,-0.00030654302099719644,0.004269331227988005
272.0,358.0,-2.6369,0.3075,9.2782,-0.0524,0.0269,-0.1243,-2.157908102075094,2.441298966004979e-05,4.200373649597168,-1.5047650337219238,0.025191377848386765,2.0672669410705566,5.42282925823287,-0.017998605966567993,0.18751758337020874,-1.5866416136371058,0.0,0.007973853498697281,0.8641403317451477,0.00043170611024834216,0.03337075933814049,0.8548204302787781,-0.0007530396105721593,-0.051520321518182755
272.0,358.0,-2.6369,0.3075,9.2782,-0.0524,0.0269,-0.1243,-2.157867570916647,3.3895878004841506e-05,4.2098283767700195,-1.5045770406723022,0.028674142435193062,2.0683836936950684,5.422669219761648,-0.018582673743367195,0.17484420537948608,-1.5866578261004847,0.0,0.0006444398313760757,0.8641961216926575,0.0004174823989160359,0.04217339679598808,0.8548204302787781,-0.0009551244438625872,0.035954613238573074
272.0,358.0,-2.6369,0.3075,9.2782,-0.0524,0.0269,-0.1243,-2.1579162083067835,3.393669248907827e-05,4.1992597579956055,-1.5044293403625488,0.032353825867176056,2.0603981018066406,5.422549533634939,-0.017910586670041084,0.15935350954532623,-1.5866296927081507,0.0,0.005684192758053541,0.8641642332077026,0.00039860245306044817,0.0350366048514843,0.8548410534858704,-0.0010213337372988462,-0.033279187977313995
272.0,358.0,-2.6369,0.3075,9.2782,-0.0524,0.0269,-0.1243,-2.157924314538473,3.270355227869004e-05,4.19465970993042,-1.5041364431381226,0.03669422119855881,2.0850844383239746,5.422466265946188,-0.01767532154917717,0.15963175892829895,-1.5866058508502405,0.0,0.022356346249580383,0.8641723990440369,0.0003831649082712829,0.03834901005029678,0.8547966480255127,-0.001012096181511879,-0.012495627626776695
272.0,358.0,-2.6369,0.3075,9.2782,-0.0524,0.0269,-0.1243,-2.157980581323141,3.1556894100503996e-05,4.188991546630859,-1.50392484664917,0.04182998090982437,2.122921943664551,5.422314631729879,-0.017200887203216553,0.1465209275484085,-1.58661395708193,0.0,0.009644832462072372,0.8642082810401917,0.0004357618745416403,0.04813370853662491,0.8548248410224915,-0.0008816925692372024,-0.029905863106250763
272.0,358.0,-2.6369,0.3075,9.2782,-0.0524,0.0269,-0.1243,-2.157920023004049,3.048789585591294e-05,4.215545654296875,-1.5036535263061523,0.04761851578950882,2.1318039894104004,5.422174799233236,-0.018704399466514587,0.14774033427238464,-1.5866382757769983,0.0,0.010259648784995079,0.8642404675483704,0.00046193425077944994,0.05449996888637543,0.8547801971435547,-0.0006914621917530894,-0.02254641056060791
272.0,358.0,-2.6369,0.3075,9.2782,-0.0524,0.0269,-0.1243,-2.157964368859762,6.283902621362358e-05,4.2423882484436035,-1.5033127069473267,0.05345971882343292,2.1293933391571045,5.422055470734396,-0.020945018157362938,0.14891038835048676,-1.5866501967059534,0.0,0.02745632641017437,0.8642160892486572,0.0005141377914696932,0.03130533546209335,0.8547843098640442,-0.0005201253807172179,-0.03099212795495987
272.0,358.0,-2.6369,0.3075,9.2782,-0.0524,0.0269,-0.1243,-2.1579801044859828,5.6881744967540726e-05,4.2139892578125,-1.5030261278152466,0.05915850028395653,2.166386127471924,5.421899544983663,-0.02348264679312706,0.14975981414318085,-1.5866459051715296,0.0,0.039386093616485596,0.8642160892486572,0.0005277282907627523,0.05145438387989998,0.8547884225845337,-0.00041685154428705573,-0.10711868107318878
272.0,358.0,-2.6369,0.3075,9.2782,-0.0524,0.0269,-0.1243,-2.157976289788717,2.524930823710747e-05,4.232157230377197,-1.5024577379226685,0.06832187622785568,2.167052984237671,5.421680676728048,-0.02448430471122265,0.14278514683246613,-1.5866101423846644,1.8842849385691807e-05,0.03528404235839844,0.8642200827598572,0.00045817525824531913,0.030948642641305923,0.8547921776771545,-0.00032960445969365537,-0.10981281101703644
260.0,316.0,-2.7583,0.2907,9.8931,-0.0339,0.0909,-0.1237,-2.157948156396383,2.3289119781111367e-05,4.155591011047363,-1.502095103263855,0.07834811508655548,2.1239640712738037,5.4215367315109155,-0.02506554313004017,0.1521386057138443,-1.5866101423846644,0.00019838813750538975,0.025848492980003357,0.864236056804657,0.00038895339821465313,0.03831024467945099,0.8547921776771545,-0.00028488595853559673,-0.14162373542785645
260.0,316.0,-2.7583,0.2907,9.8931,-0.0339,0.0909,-0.1237,-2.157988210717672,2.1611400370602496e-05,4.174826622009277,-1.5014705657958984,0.08931789547204971,2.1925642490386963,5.42140560129241,-0.02630377747118473,0.1289956271648407,-1.5866339842425745,0.00017525613657198846,0.024628465995192528,0.8642479777336121,0.0003120772016700357,0.03457111865282059,0.8548245429992676,-8.471917681163177e-05,-0.12974385917186737
260.0,316.0,-2.7583,0.2907,9.8931,-0.0339,0.0909,-0.1237,-2.1579724750914515,3.7987542000905705e-09,4.145735263824463,-1.500967025756836,0.09777380526065826,2.2382571697235107,5.421234118729391,-0.025458600372076035,0.132793128490448,-1.5866826216327112,0.00015691909356974065,0.04313455894589424,0.8642280101776123,0.00025830831145867705,0.037911541759967804,0.8548323512077332,-1.508294644736452e-06,-0.15621432662010193
260.0,316.0,-2.7583,0.2907,9.8931,-0.0339,0.0909,-0.1237,-2.1580125294127406,9.173543848650049e-15,4.142812252044678,-1.500330924987793,0.1019466295838356,2.1942124366760254,5.420998382359304,-0.026856696233153343,0.1320713460445404,-1.5866263548480433,0.0001420565095031634,0.0324174128472805,0.8642160892486572,0.00022034907306078821,0.04567292332649231,0.8548726439476013,-3.6423542133789955e-12,-0.1435900628566742
260.0,316.0,-2.7583,0.2907,9.8931,-0.0339,0.0909,-0.1237,-2.157948156396383,2.215302933075094e-20,4.192667007446289,-1.4995903968811035,0.1043572723865509,2.2128124237060547,5.4208629606063745,-0.03041663020849228,0.12856566905975342,-1.5866058508502405,0.00015397387323901057,0.039680611342191696,0.864232063293457,0.00019211950711905956,0.03146973252296448,0.8548562526702881,-8.79585730362651e-18,-0.13396291434764862
260.0,316.0,-2.7583,0.2907,9.8931,-0.0339,0.0909,-0.1237,-2.157988210717672,5.349695974016059e-26,4.172527313232422,-1.4990116357803345,0.10913386195898056,2.223163604736328,5.420703577786245,-0.03632688149809837,0.11702985316514969,-1.586670223866598,0.00014331881538964808,0.036755360662937164,0.8642361164093018,0.000170303086633794,0.03325900435447693,0.8548562526702881,0.0011847208952531219,-0.15108191967010498
260.0,316.0,-2.7583,0.2907,9.8931,-0.0339,0.0909,-0.1237,-2.1579600773253382,1.2918887451553983e-31,4.1715874671936035,-1.498315691947937,0.1127409040927887,2.2242956161499023,5.420412349491873,-0.048980146646499634,0.11698774248361588,-1.5866263548480433,0.00013274908997118473,0.03581366688013077,0.8641802072525024,0.0001529364672023803,0.03770947828888893,0.8548845052719116,0.00078169273911044,-0.12464785575866699
260.0,316.0,-2.7583,0.2907,9.8931,-0.0339,0.0909,-0.1237,-2.1579319439330042,3.119758975793513e-37,4.129858016967773,-1.4976365566253662,0.11966216564178467,2.275240421295166,5.420113193779745,-0.06720855832099915,0.11127334833145142,-1.5866382757769983,0.00012363085988909006,0.037853606045246124,0.864212155342102,0.0001387846568832174,0.04577113687992096,0.8548845052719116,0.0007065664394758642,-0.11816459894180298
260.0,316.0,-2.7583,0.2907,9.8931,-0.0339,0.0909,-0.1237,-2.1579801044859828,7.538985738067516e-43,4.169063568115234,-1.4967797994613647,0.1273503601551056,2.281679153442383,5.419606017857351,-0.08740625530481339,0.10696140676736832,-1.58661395708193,0.00011568489571800455,0.04023140296339989,0.8642320036888123,0.00012703055108431727,0.036642640829086304,0.8548845052719116,0.0005863389815203846,-0.14467662572860718
260.0,316.0,-2.7583,0.2907,9.8931,-0.0339,0.0909,-0.1237,-2.1579963169493617,0.0,4.148555278778076,-1.496021032333374,0.13840439915657043,2.306354522705078,5.418971824436941,-0.10591941326856613,0.08848333358764648,-1.5866220633136194,0.00010869869583984837,0.04364802688360214,0.8641761541366577,0.00011711184197338298,0.04111791402101517,0.8548924922943115,0.0004966774140484631,-0.16827291250228882
260.0,316.0,-2.7583,0.2907,9.8931,-0.0339,0.0909,-0.1237,-2.157975812951559,0.0,4.178629398345947,-1.4951171875,0.1464850753545761,2.298892021179199,5.418310272484579,-0.11376675218343735,0.07980070263147354,-1.5866463820086878,0.00011845582048408687,0.04689779877662659,0.8642001152038574,0.00010863025818252936,0.03988388553261757,0.8549246191978455,0.00045411582686938345,-0.20530885457992554
260.0,316.0,-2.7583,0.2907,9.8931,-0.0339,0.0909,-0.1237,-2.1579963169493617,-4.0305858419742435e-05,4.15669059753418,-1.494269847869873,0.15250501036643982,2.2932591438293457,5.417624461441793,-0.10994087904691696,0.09192456305027008,-1.5866182486163538,0.00011314883158775046,0.03869761526584625,0.8641403913497925,0.00010129415022674948,0.019851502031087875,0.8548357486724854,0.00037336291279643774,-0.20797696709632874
260.0,316.0,-2.7583,0.2907,9.8931,-0.0339,0.0909,-0.1237,-2.1580406628050746,-7.100387301761657e-05,4.13749361038208,-1.4932456016540527,0.15682989358901978,2.2796478271484375,5.416902828007498,-0.11741551011800766,0.09169630706310272,-1.5866182486163538,0.000122697398182936,0.04298356920480728,0.8642281293869019,9.488629439147189e-05,0.018360767513513565,0.8548924326896667,0.00015287507267203182,-0.21182212233543396
260.0,316.0,-2.7583,0.2907,9.8931,-0.0339,0.0909,-0.1237,-2.158032556573385,-9.530362149234861e-05,4.162569522857666,-1.4923386573791504,0.16287827491760254,2.313502550125122,5.416056382447042,-0.148051917552948,0.07284034788608551,-1.5866463820086878,0.00010727759217843413,0.054331861436367035,0.8642244935035706,8.924095163820311e-05,0.024899723008275032,0.8548803925514221,6.112155097071081e-05,-0.21835726499557495
260.0,316.0,-2.7583,0.2907,9.8931,-0.0339,0.0909,-0.1237,-2.1579801044859828,-8.617933781351894e-05,4.180961608886719,-1.491299033164978,0.1683516502380371,2.279789924621582,5.415179598122396,-0.16722404956817627,0.059672802686691284,-1.586569611226217,0.0001187853267765604,0.05585743486881256,0.864236056804657,8.422973769484088e-05,0.027056504040956497,0.8548845052719116,3.4327760634056403e-09,-0.255828857421875
231.0,265.0,-3.7478,0.481,9.8321,-0.0327,0.0247,-0.126,-2.1579681835570277,-0.0001249391643796116,4.164403915405273,-1.490260124206543,0.17390143871307373,2.3346900939941406,5.414162862091818,-0.16384203732013702,0.05506150797009468,-1.586569611226217,0.0001405632501700893,0.06651078164577484,0.8642001748085022,7.975131302373484e-05,0.019165949895977974,0.8548808097839355,8.289752212583754e-15,-0.2888084053993225
231.0,265.0,-3.7478,0.481,9.8321,-0.0327,0.0247,-0.126,-2.1580001316466273,-0.00010389964882051572,4.187254428863525,-1.4891756772994995,0.1769874095916748,2.2965774536132812,5.413238096028127,-0.1715662032365799,0.05541553348302841,-1.5865863005267542,0.0004543898976407945,0.06696145981550217,0.8642041683197021,7.572521280962974e-05,0.030802784487605095,0.8548767566680908,-0.0009118589805439115,-0.3033718466758728
231.0,265.0,-3.7478,0.481,9.8321,-0.0327,0.0247,-0.126,-2.157948156396383,-4.4905820686835796e-05,4.169685363769531,-1.4881044626235962,0.18900178372859955,2.329249858856201,5.412161099701681,-0.19006003439426422,0.055817391723394394,-1.5865863005267542,0.00044267543125897646,0.07724814116954803,0.864196240901947,7.208601891761646e-05,0.02083347737789154,0.8548199534416199,-0.0007163418922573328,-0.3168978989124298
231.0,265.0,-3.7478,0.481,9.8321,-0.0327,0.0247,-0.126,-2.1580168209471644,-3.858522904920392e-05,4.1731061935424805,-1.4870092868804932,0.20005276799201965,2.3615529537200928,5.410984802037039,-0.1989097148180008,0.047682054340839386,-1.586597744618551,0.0004179091192781925,0.08129628002643585,0.8642160892486572,6.878055137349293e-05,0.026009222492575645,0.8548727631568909,-0.0006681123049929738,-0.36815232038497925
231.0,265.0,-3.7478,0.481,9.8321,-0.0327,0.0247,-0.126,-2.1580082378783167,-3.418778578634374e-05,4.158795356750488,-1.4857336282730103,0.20718227326869965,2.360456705093384,5.409744310169973,-0.21494150161743164,0.04196537286043167,-1.5865538755999964,0.0005148538621142507,0.07584434747695923,0.8642162084579468,6.576497253263369e-05,0.013678332790732384,0.8548323512077332,-0.0009256230550818145,-0.38918784260749817
231.0,265.0,-3.7478,0.481,9.8321,-0.0327,0.0247,-0.126,-2.1580001316466273,-6.138016760814935e-05,4.150430679321289,-1.4844708442687988,0.21658021211624146,2.3710808753967285,5.4082884071166895,-0.24221111834049225,0.024756507948040962,-1.5865619818316858,0.0007205777219496667,0.07666490972042084,0.8641642332077026,5.040940231992863e-05,0.0005721836350858212,0.8548485040664673,-0.0010066733229905367,-0.40248745679855347
231.0,265.0,-3.7478,0.481,9.8321,-0.0327,0.0247,-0.126,-2.157951971093649,-5.401290036388673e-05,4.218261241912842,-1.48271906375885,0.22623269259929657,2.4084653854370117,5.4062912342842,-0.25454390048980713,0.017923861742019653,-1.586573902760641,0.000606267829425633,0.0784626454114914,0.8642240762710571,4.772928514285013e-05,0.01108042523264885,0.8548567295074463,-0.001502700848504901,-0.38439279794692993
231.0,265.0,-3.7478,0.481,9.8321,-0.0327,0.0247,-0.126,-2.157987733880514,-7.432788697769865e-05,4.241645812988281,-1.48134446144104,0.23619498312473297,2.4118118286132812,5.404548394470968,-0.2790738046169281,-0.00025728472974151373,-1.5865619818316858,0.0005804592510685325,0.07200941443443298,0.8642001152038574,4.590347089106217e-05,0.019984401762485504,0.854812502861023,-0.003212671959772706,-0.41218721866607666
231.0,265.0,-3.7478,0.481,9.8321,-0.0327,0.0247,-0.126,-2.157992025414938,-7.710388308623806e-05,4.201500415802002,-1.4799089431762695,0.24537348747253418,2.4462223052978516,5.402857649117269,-0.2957087457180023,-0.0063308728858828545,-1.5865381399737757,0.0006000089924782515,0.09718332439661026,0.8641722798347473,4.4212232751306146e-05,0.0136973075568676,0.8547682762145996,-0.005168711766600609,-0.44223499298095703
231.0,265.0,-3.7478,0.481,9.8321,-0.0327,0.0247,-0.126,-2.158016344110006,-0.00015202767099253833,4.188043594360352,-1.4783490896224976,0.2453303188085556,2.446805953979492,5.400799619942465,-0.3360355496406555,-0.02478102594614029,-1.5865581671344202,0.0005344391684047878,0.08309144526720047,0.8641198873519897,4.2641229811124504e-05,0.0038831206038594246,0.854756236076355,-0.006275342311710119,-0.44384461641311646
231.0,265.0,-3.7478,0.481,9.8321,-0.0327,0.0247,-0.126,-2.1580082378783167,-0.0007091559818945825,4.203324317932129,-1.4768744707107544,0.25595274567604065,2.463376045227051,5.398694145470419,-0.3643781542778015,-0.03978423774242401,-1.5865381399737757,0.00043883867328986526,0.09871219098567963,0.8641723394393921,4.1177998355124146e-05,0.006104495842009783,0.8547123074531555,-0.0058907209895551205,-0.4752277731895447
231.0,265.0,-3.7478,0.481,9.8321,-0.0327,0.0247,-0.126,-2.1580406628050746,-0.00048156731645576656,4.1700520515441895,-1.4753472805023193,0.26781487464904785,2.455472707748413,5.396409201412954,-0.392466276884079,-0.06951383501291275,-1.586545769368307,0.0004306621558498591,0.09100604802370071,0.8642166256904602,3.051601925108116e-05,0.030467040836811066,0.8546961545944214,-0.003212727839127183,-0.47801870107650757
231.0,265.0,-3.7478,0.481,9.8321,-0.0327,0.0247,-0.126,-2.158032556573385,-0.00036449715844355524,4.199615478515625,-1.4737558364868164,0.2719278335571289,2.4698679447174072,5.393796431809225,-0.434885710477829,-0.08026646077632904,-1.5865500609027308,0.00036039462429471314,0.09735527634620667,0.864112138748169,8.494247083490336e-09,0.010514013469219208,0.8546966314315796,-0.00166010158136487,-0.4865427315235138
231.0,265.0,-3.7478,0.481,9.8321,-0.0327,0.0247,-0.126,-2.1580478153624476,-0.0004102251259610057,4.211524963378906,-1.4720449447631836,0.2756994366645813,2.5092625617980957,5.391145634442129,-0.46773505210876465,-0.09482267498970032,-1.5865057150470179,0.0003498278383631259,0.09564197063446045,0.8641723394393921,2.3644051126703314e-12,0.007979871705174446,0.8547084331512451,-0.0008582964073866606,-0.5040445327758789
231.0,265.0,-3.7478,0.481,9.8321,-0.0327,0.0247,-0.126,-2.1580282650389613,-0.0003818529949057847,4.139554977416992,-1.4703412055969238,0.2873794734477997,2.527872323989868,5.388206827431478,-0.5096220374107361,-0.1106041669845581,-1.5866110960589808,0.00034014659468084574,0.10014177858829498,0.8642041683197021,6.581408413078879e-16,-0.0006618460174649954,0.8547362685203552,-9.885642066365108e-05,-0.5057112574577332
203.0,226.0,-4.0845,0.8142,9.2513,-0.0388,-0.318,-0.14,-2.1580687961974085,-0.0013094065943732858,4.216309070587158,-1.4686145782470703,0.2927919626235962,2.4503066539764404,5.385000633984365,-0.5481339693069458,-0.11117126047611237,-1.5865543524371546,0.0003022576856892556,0.09355653077363968,0.864160418510437,1.8319589705727218e-19,0.015591353178024292,0.8547321557998657,-5.566737293349888e-09,-0.5036349892616272
203.0,226.0,-4.0845,0.8142,9.2513,-0.0388,-0.318,-0.14,-2.15807642559194,-0.003181133419275284,4.199662208557129,-1.4668511152267456,0.29075199365615845,2.531484365463257,5.381611215859213,-0.5858345627784729,-0.12750160694122314,-1.5865257422076624,0.00027626307564787567,0.10023248195648193,0.8642162084579468,5.0993259489927145e-23,0.010235920548439026,0.8547123670578003,-1.3443017654450086e-14,-0.5007339715957642
203.0,226.0,-4.0845,0.8142,9.2513,-0.0388,-0.318,-0.14,-2.158112188378805,-0.004191649612039328,4.239561557769775,-1.4649438858032227,0.2983991801738739,2.54233980178833,5.3780261156852625,-0.625097930431366,-0.13183408975601196,-1.5865219275103968,0.00025864405324682593,0.09277521073818207,0.8642041683197021,1.4194160697660282e-26,0.018752414733171463,0.8547238707542419,0.0009689393918961287,-0.458499014377594
203.0,226.0,-4.0845,0.8142,9.2513,-0.0388,-0.318,-0.14,-2.158116479913229,-0.003059121547266841,4.241934776306152,-1.4631649255752563,0.30520546436309814,2.5292580127716064,5.374014067440786,-0.6636412143707275,-0.13259629905223846,-1.5865138212787073,0.00028218506486155093,0.10484716296195984,0.864176332950592,3.9509967565036124e-30,-0.006886509247124195,0.8547441959381104,0.0008683328633196652,-0.4736235737800598
203.0,226.0,-4.0845,0.8142,9.2513,-0.0388,-0.318,-0.14,-2.1581198177733363,-0.0020196575205773115,4.23246431350708,-1.4613012075424194,0.30707553029060364,2.518036365509033,5.369760024338522,-0.6992726922035217,-0.1088344007730484,-1.5865581671344202,0.0003327341109979898,0.09779921174049377,0.8642479777336121,1.9715599819392082e-07,0.00830464344471693,0.8547685742378235,0.0006143116625025868,-0.5310173630714417
203.0,226.0,-4.0845,0.8142,9.2513,-0.0388,-0.318,-0.14,-2.1581317387022914,-0.0014308315003290772,4.201174259185791,-1.4594182968139648,0.30993494391441345,2.5702414512634277,5.365413415222921,-0.7417295575141907,-0.10727734863758087,-1.5865305105792444,0.0002760858624242246,0.08470720052719116,0.8642042279243469,5.487909432444482e-11,0.002733241766691208,0.8547966480255127,0.00047523778630420566,-0.541016697883606
203.0,226.0,-4.0845,0.8142,9.2513,-0.0388,-0.318,-0.14,-2.158196588555807,-0.0013337153941392899,4.221088409423828,-1.4576034545898438,0.312568724155426,2.5287044048309326,5.360846507340231,-0.7657192945480347,-0.11615239083766937,-1.5865824858294886,0.00023315563157666475,0.09177456796169281,0.8642124533653259,1.527579705253284e-14,0.009202854707837105,0.8547884225845337,0.0004282402223907411,-0.5145177841186523
203.0,226.0,-4.0845,0.8142,9.2513,-0.0388,-0.318,-0.14,-2.1581603489317835,-0.0019214232452213764,4.196673393249512,-1.4556443691253662,0.3213360905647278,2.5449719429016113,5.356065737992086,-0.8026444911956787,-0.11668572574853897,-1.5865381399737757,0.00024194926663767546,0.10373090952634811,0.8641359210014343,4.252073962353311e-18,0.002863824600353837,0.8547963500022888,0.0004057689511682838,-0.5062140226364136
203.0,226.0,-4.0845,0.8142,9.2513,-0.0388,-0.318,-0.14,-2.1581884823241175,-0.002603953704237938,4.162581443786621,-1.4537607431411743,0.32630684971809387,2.574995517730713,5.351224171906271,-0.8239918351173401,-0.09883446991443634,-1.5865381399737757,0.00021342243417166173,0.08728180080652237,0.8641564249992371,1.1835802450058969e-21,0.002980173099786043,0.8547884225845337,0.00038863273221068084,-0.48856720328330994
203.0,226.0,-4.0845,0.8142,9.2513,-0.0388,-0.318,-0.14,-2.1581670246519984,-0.0041615720838308334,4.180681228637695,-1.4517488479614258,0.32339906692504883,2.5507662296295166,5.346366929798879,-0.8523539900779724,-0.12060461938381195,-1.5865181128131312,0.00019079628691542894,0.09407449513673782,0.8641723394393921,3.2945387804400435e-25,-0.009527857415378094,0.8548166155815125,0.000334467418724671,-0.5516198873519897
203.0,226.0,-4.0845,0.8142,9.2513,-0.0388,-0.318,-0.14,-2.1582242451109828,-0.006049653515219688,4.203175067901611,-1.449818730354309,0.3338579535484314,2.554212808609009,5.3412067768867395,-0.8638921976089478,-0.09710727632045746,-1.5865619818316858,0.0001725082693155855,0.09151741862297058,0.8641684055328369,9.170468300889159e-29,0.008910412900149822,0.8547719717025757,0.00039515396929346025,-0.5408909916877747
203.0,226.0,-4.0845,0.8142,9.2513,-0.0388,-0.318,-0.14,-2.1582919559874476,-0.00782789010554552,4.171931266784668,-1.4478113651275635,0.33576667308807373,2.545786142349243,5.335989641934194,-0.8860718607902527,-0.10572831332683563,-1.5865300337420862,0.0001574197958689183,0.0818234533071518,0.864160418510437,2.5526338842053933e-32,0.003987864125519991,0.8547884225845337,0.0003294299531262368,-0.5355058908462524
203.0,226.0,-4.0845,0.8142,9.2513,-0.0388,-0.318,-0.14,-2.158323904077047,-0.009266580455005169,4.161661624908447,-1.4457833766937256,0.335570752620697,2.548729658126831,5.330607044487753,-0.8921197652816772,-0.08328938484191895,-1.5865543524371546,0.00012105186033295467,0.09151102602481842,0.8641485571861267,7.105350363378908e-36,0.01370635349303484,0.8547801375389099,0.0002784604439511895,-0.49601471424102783
203.0,226.0,-4.0845,0.8142,9.2513,-0.0388,-0.318,-0.14,-2.1584087810912074,-0.008972269482910633,4.162258625030518,-1.4430972337722778,0.35026323795318604,2.6381287574768066,5.323407757073202,-0.9005318880081177,-0.07969692349433899,-1.5865095297442835,0.00013071385910734534,0.07740779966115952,0.8642081618309021,1.2913665997985352e-40,-0.004319027066230774,0.8548004627227783,0.000230841149459593,-0.46330025792121887
203.0,226.0,-4.0845,0.8142,9.2513,-0.0388,-0.318,-0.14,-2.158476491967672,-0.010488083586096764,4.17913293838501,-1.4410418272018433,0.34823378920555115,2.5258355140686035,5.318026470928945,-0.9038249254226685,-0.09562891721725464,-1.5865338484393519,0.00010226135782431811,0.0894339308142662,0.8641843199729919,3.6433760072445244e-44,-0.010444196872413158,0.8548045754432678,0.00020460107771214098,-0.46237480640411377
185.0,231.0,-1.9848,0.332,9.2524,-0.0622,-0.5479,-0.1271,-2.1585809193053187,-0.012351623736321926,4.1104583740234375,-1.438934326171875,0.3505086600780487,2.589322805404663,5.312697577267446,-0.8976525664329529,-0.1049395352602005,-1.5864933172809046,9.512994438409805e-05,0.08232267200946808,0.8641766309738159,0.0,0.006849200464785099,0.8548045754432678,0.0001837176678236574,-0.52372807264328
185.0,231.0,-1.9848,0.332,9.2524,-0.0622,-0.5479,-0.1271,-2.1587096653380335,-0.014542147517204285,4.169525623321533,-1.4368153810501099,0.3455863893032074,2.5559520721435547,5.3072394011314294,-0.8999903202056885,-0.09352605789899826,-1.5865262190448206,8.94562472240068e-05,0.07065050303936005,0.864180326461792,0.0,0.007823205552995205,0.8548045754432678,0.00016670268087182194,-0.4348694682121277
185.0,231.0,-1.9848,0.332,9.2524,-0.0622,-0.5479,-0.1271,-2.1588040790953578,-0.016124868765473366,4.16910457611084,-1.4347368478775024,0.34106194972991943,2.57136869430542,5.301880585938253,-0.9008108973503113,-0.09505954384803772,-1.5865300337420862,8.44213500386104e-05,0.07075110077857971,0.864164412021637,0.0,-0.002532564103603363,0.8547682166099548,0.0001525723491795361,-0.4520372152328491
185.0,231.0,-1.9848,0.332,9.2524,-0.0622,-0.5479,-0.1271,-2.1588603458800257,-0.015574228949844837,4.128318786621094,-1.4326138496398926,0.3437409996986389,2.5576601028442383,5.296426284104147,-0.892399251461029,-0.06778670102357864,-1.5865262190448206,7.992313476279378e-05,0.07681730389595032,0.8641564846038818,0.0,-0.011782683432102203,0.8548369407653809,0.00014065031427890062,-0.48597991466522217
185.0,231.0,-1.9848,0.332,9.2524,-0.0622,-0.5479,-0.1271,-2.158908029595846,-0.011652009561657906,4.182898998260498,-1.4306195974349976,0.34304091334342957,2.601010322570801,5.291123735695638,-0.8820077180862427,-0.08229350298643112,-1.5865219275103968,7.588004518765956e-05,0.0694923922419548,0.864176332950592,0.0,-0.00520965876057744,0.8547843098640442,0.00013045653759036213,-0.45049694180488586
185.0,231.0,-1.9848,0.332,9.2524,-0.0622,-0.5479,-0.1271,-2.158959528008932,-0.008246498182415962,4.190239906311035,-1.42853581905365,0.3384664058685303,2.556291103363037,5.285911249905386,-0.8658312559127808,-0.0526604950428009,-1.5865219275103968,7.222631393233314e-05,0.06696213036775589,0.8641883134841919,0.0,0.0025452240370213985,0.8547760844230652,0.00012164065265096724,-0.45232558250427246
185.0,231.0,-1.9848,0.332,9.2524,-0.0622,-0.5479,-0.1271,-2.159043928185934,-0.007082060445100069,4.166199207305908,-1.4265210628509521,0.3343196213245392,2.557826042175293,5.280836450844564,-0.8478087782859802,-0.06648541241884232,-1.5865381399737757,6.89083244651556e-05,0.0637834370136261,0.8641565442085266,0.0,-0.002758760005235672,0.8547843098640442,0.0001139407540904358,-0.3987271189689636
185.0,231.0,-1.9848,0.332,9.2524,-0.0622,-0.5479,-0.1271,-2.1590634785094203,-0.00661390321329236,4.260613441467285,-1.424530267715454,0.33817413449287415,2.613191843032837,5.275750088482656,-0.8286387324333191,-0.05324147641658783,-1.5865424315081995,6.588178803212941e-05,0.06217077374458313,0.8641765713691711,0.0,-0.0037746240850538015,0.8548124432563782,0.00012477271957322955,-0.4235800504684448
185.0,231.0,-1.9848,0.332,9.2524,-0.0622,-0.5479,-0.1271,-2.15915646175527,-0.0066210185177624226,4.249953269958496,-1.4224863052368164,0.336006760597229,2.550577163696289,5.270945358067312,-0.8077059984207153,-0.07504039257764816,-1.5865381399737757,6.310990283964202e-05,0.05220433324575424,0.8641564846038818,0.0,-0.004670090042054653,0.8548004627227783,0.00012908526696264744,-0.3802699148654938
185.0,231.0,-1.9848,0.332,9.2524,-0.0622,-0.5479,-0.1271,-2.1591440639891566,-0.006460614502429962,4.183924198150635,-1.4205234050750732,0.32942071557044983,2.4992029666900635,5.266227173596182,-0.7818651795387268,-0.05126968398690224,-1.5865381399737757,6.056190613890067e-05,0.062276676297187805,0.8641440868377686,0.0,0.013362676836550236,0.8548327684402466,0.00010899836343014613,-0.3967432975769043
185.0,231.0,-1.9848,0.332,9.2524,-0.0622,-0.5479,-0.1271,-2.159191747704977,-0.005461528897285461,4.239154815673828,-1.4186128377914429,0.3338569700717926,2.568179130554199,5.2616702792938135,-0.7553105354309082,-0.051986292004585266,-1.586545769368307,4.659517071559094e-05,0.04002789407968521,0.8641883134841919,0.0,-0.016814716160297394,0.8548327684402466,0.0001301418524235487,-0.35303330421447754
185.0,231.0,-1.9848,0.332,9.2524,-0.0622,-0.5479,-0.1271,-2.1592561207213343,-0.004934611730277538,4.227949142456055,-1.416624903678894,0.32864221930503845,2.510631561279297,5.257302450924673,-0.724137008190155,-0.05332542210817337,-1.5865381399737757,4.4829579564975575e-05,0.05486822500824928,0.864140510559082,0.0,0.007073118817061186,0.8548405170440674,0.0008679728489369154,-0.40402349829673767
185.0,231.0,-1.9848,0.332,9.2524,-0.0622,-0.5479,-0.1271,-2.1593080959715785,-0.0062643480487167835,4.302448749542236,-1.414685845375061,0.3239276111125946,2.5379676818847656,5.253127383976736,-0.7021687626838684,-0.05069314315915108,-1.5865138212787073,3.2504442060599104e-05,0.05398954823613167,0.8641122579574585,0.0,-0.0036991797387599945,0.8548604249954224,0.0011612302623689175,-0.3499736785888672
185.0,231.0,-1.9848,0.332,9.2524,-0.0622,-0.5479,-0.1271,-2.159340044061178,-0.007155829109251499,4.253820419311523,-1.4128118753433228,0.32941851019859314,2.537670135498047,5.248946654587545,-0.6747045516967773,-0.044617556035518646,-1.5865500609027308,3.1284762371797115e-05,0.049407634884119034,0.8642123937606812,0.0,0.008468836545944214,0.8548968434333801,0.003051351523026824,-0.36111223697662354
185.0,231.0,-1.9848,0.332,9.2524,-0.0622,-0.5479,-0.1271,-2.1593719921507777,-0.006386062130331993,4.24318265914917,-1.410852074623108,0.32075244188308716,2.5360946655273438,5.244905280857839,-0.6494338512420654,-0.04146239161491394,-1.5865500609027308,-2.3348786271526478e-05,0.04893626272678375,0.8641564846038818,0.0,0.0063425879925489426,0.8548803925514221,0.004641685634851456,-0.3333633542060852
170.0,211.0,-0.9464,0.14,9.6808,-0.0608,-0.2531,-0.113,-2.159379621545309,-0.006747731473296881,4.27490234375,-1.408980369567871,0.31579485535621643,2.5278141498565674,5.241061258106985,-0.63022381067276,-0.03346507251262665,-1.5865700880633753,-2.253003003716003e-05,0.0465063750743866,0.8641843199729919,0.0,0.001849417109042406,0.8549043536186218,0.008109072223305702,-0.3967479169368744
170.0,211.0,-0.9464,0.14,9.6808,-0.0608,-0.2531,-0.113,-2.1594392261900843,-0.006633163895457983,4.239323616027832,-1.4070675373077393,0.316925585269928,2.517279624938965,5.237426984101095,-0.5991754531860352,-0.0209885872900486,-1.586573902760641,-3.2547959563089535e-05,0.04824410006403923,0.8642001152038574,0.0,0.0014451954048126936,0.8550412654876709,0.008301184512674809,-0.3436720073223114
170.0,211.0,-0.9464,0.14,9.6808,-0.0608,-0.2531,-0.113,-2.1594754658141078,-0.007481755688786507,4.259674549102783,-1.405202865600586,0.3055992126464844,2.5394062995910645,5.233844208508291,-0.5802850127220154,-0.012708811089396477,-1.5865381399737757,-3.1434356060344726e-05,0.05506070703268051,0.8641882538795471,0.0,-0.002809707773849368,0.8550931215286255,0.006211601663380861,-0.318676233291626
170.0,211.0,-0.9464,0.14,9.6808,-0.0608,-0.2531,-0.113,-2.1595193348326625,-0.0079263374209404,4.269287586212158,-1.4032981395721436,0.3002448081970215,2.4946255683898926,5.230504560261526,-0.5565140843391418,-0.010187995620071888,-1.5865424315081995,-3.0373517802217975e-05,0.03354933112859726,0.864160418510437,0.0,-0.0010524773970246315,0.8550968170166016,0.005167701281607151,-0.2983821630477905
170.0,211.0,-0.9464,0.14,9.6808,-0.0608,-0.2531,-0.113,-2.1595517597594203,-0.006854973267763853,4.253973960876465,-1.4014887809753418,0.29783234000205994,2.4610064029693604,5.227282333164968,-0.5295179486274719,-0.006070377770811319,-1.5865381399737757,-4.983408530279121e-07,0.04706742614507675,0.864200234413147,0.0,0.006146811880171299,0.8551651239395142,0.005266254302114248,-0.347838819026947
170.0,211.0,-0.9464,0.14,9.6808,-0.0608,-0.2531,-0.113,-2.159595628777975,-0.003703437279909849,4.269547462463379,-1.3991179466247559,0.2903655469417572,2.47792387008667,5.223291742592611,-0.49543604254722595,-0.021743064746260643,-1.5865300337420862,-9.057099688292158e-12,0.036984652280807495,0.864092230796814,0.0,-0.0052482932806015015,0.8551971912384033,0.00490827951580286,-0.3375281095504761
170.0,211.0,-0.9464,0.14,9.6808,-0.0608,-0.2531,-0.113,-2.1595832310118617,-0.0021644693333655596,4.293254852294922,-1.3974086046218872,0.28581318259239197,2.4880611896514893,5.220454621105947,-0.47422492504119873,-0.021022042259573936,-1.5865381399737757,-2.5210771004721775e-15,0.05858846753835678,0.8641359210014343,0.0,0.006138095632195473,0.855176568031311,0.004560729488730431,-0.32338273525238037
170.0,211.0,-0.9464,0.14,9.6808,-0.0608,-0.2531,-0.113,-2.1596557102599085,-0.001882991287857294,4.305717468261719,-1.3957792520523071,0.2798489034175873,2.4761452674865723,5.217694687634268,-0.4464013874530792,-0.008742058649659157,-1.5865500609027308,-7.017511320673376e-19,0.030417878180742264,0.8641080856323242,0.0,0.010203076526522636,0.8551563024520874,0.004236999899148941,-0.3187624216079712
170.0,211.0,-0.9464,0.14,9.6808,-0.0608,-0.2531,-0.113,-2.1596156559386195,-0.002083576051518321,4.2683916091918945,-1.3940774202346802,0.27621978521347046,2.4259347915649414,5.215077388077535,-0.42916619777679443,0.010299071669578552,-1.5866101423846644,-1.953350110475385e-22,0.039218418300151825,0.8641160726547241,0.0,-0.005580079276114702,0.8552205562591553,0.004073127172887325,-0.32909226417541504
170.0,211.0,-0.9464,0.14,9.6808,-0.0608,-0.2531,-0.113,-2.1596514187254847,-0.0024272415321320295,4.280549049377441,-1.392416000366211,0.2750075161457062,2.50801944732666,5.212591933995046,-0.4027901887893677,0.03370557725429535,-1.5865619818316858,-5.437221940343077e-26,0.03914117068052292,0.8641883134841919,0.0,4.038164479425177e-05,0.8552485108375549,0.004318992141634226,-0.28375476598739624
170.0,211.0,-0.9464,0.14,9.6808,-0.0608,-0.2531,-0.113,-2.1597000561156214,-0.002962378552183509,4.23236083984375,-1.39082932472229,0.2670837342739105,2.4784018993377686,5.210301655321874,-0.3779159486293793,0.048015814274549484,-1.586573902760641,-1.5134706810113887e-29,0.044012896716594696,0.8641843199729919,0.0,0.0016169953159987926,0.855280876159668,0.004126265645027161,-0.3577128052711487
170.0,211.0,-0.9464,0.14,9.6808,-0.0608,-0.2531,-0.113,-2.159715791741842,-0.0029942744877189398,4.251309394836426,-1.3892436027526855,0.26281023025512695,2.413749933242798,5.208099293499746,-0.3612896800041199,0.04383517801761627,-1.5865619818316858,-4.212801306666209e-33,0.05503356084227562,0.8641279935836792,0.0,0.011044731363654137,0.8553693294525146,0.004246867727488279,-0.3372459411621094
170.0,211.0,-0.9464,0.14,9.6808,-0.0608,-0.2531,-0.113,-2.1597353420653285,-0.002576855244114995,4.277593612670898,-1.3877543210983276,0.2648302912712097,2.488374710083008,5.206020700722494,-0.324772447347641,0.05686548724770546,-1.5865419546710413,-1.1726487956879155e-36,0.04166159778833389,0.8641319870948792,0.0,0.006325995083898306,0.8553491234779358,0.004938395693898201,-0.4050128161907196
