ramyac6/ROB537/final_project/csv/all/bad_13.csv
tof_0,tof_1,accelx,accely,accelz,gyrox,gyroy,gyroz,shoulder_lift_joint_position,shoulder_lift_joint_velocity,shoulder_lift_joint_effort,elbow_joint_position,elbow_joint_velocity,elbow_joint_effort,wrist_1_joint_position,wrist_1_joint_velocity,wrist_1_joint_effort,wrist_2_joint_position,wrist_2_joint_velocity,wrist_2_joint_effort,wrist_3_joint_position,wrist_3_joint_velocity,wrist_3_joint_effort,shoulder_pan_joint_position,shoulder_pan_joint_velocity,shoulder_pan_joint_effort
372.0,354.0,-4.2341,3.9679,8.1553,-0.0414,0.0224,-0.1074,-2.0470830402769984,0.0,3.8008780479431152,-1.6986485719680786,3.352557178004645e-05,1.7958691120147705,-0.7231816214374085,-0.0,0.24258391559123993,-2.0183680693255823,2.159918767574709e-05,0.0501251146197319,0.5559673309326172,-0.0,0.001413920195773244,1.065808892250061,0.0,-0.03240140527486801
372.0,354.0,-4.2341,3.9679,8.1553,-0.0414,0.0224,-0.1074,-2.0470711193480433,0.0,3.8116254806518555,-1.698693037033081,3.271321111242287e-05,1.8302128314971924,-0.7231291693500062,-0.0,0.22587233781814575,-2.0183194319354456,2.109299566654954e-05,0.05499371141195297,0.5559110641479492,-0.0,-0.0014563675504177809,1.065845012664795,0.0,-0.020395778119564056
372.0,354.0,-4.2341,3.9679,8.1553,-0.0414,0.0224,-0.1074,-2.047087331811422,0.0,3.770268440246582,-1.6986693143844604,3.156588354613632e-05,1.7707394361495972,-0.7231536668590088,-0.0,0.23891156911849976,-2.018351380025045,2.037665581156034e-05,0.03572554141283035,0.5559310913085938,-0.0,0.005667617078870535,1.065808892250061,0.0,-0.01802930235862732
372.0,354.0,-4.2341,3.9679,8.1553,-0.0414,0.0224,-0.1074,-2.047075410882467,0.0,3.7915287017822266,-1.698616623878479,3.0496286854031496e-05,1.7959070205688477,-0.7231455010226746,-0.0,0.2420234978199005,-2.018355671559469,2.566594275776879e-06,0.04875418543815613,0.5559751987457275,-0.0,0.00811471976339817,1.06585693359375,0.0,-0.027442805469036102
372.0,354.0,-4.2341,3.9679,8.1553,-0.0414,0.0224,-0.1074,-2.0470591984190882,0.0,3.805248260498047,-1.6986364126205444,2.9822627766407095e-05,1.8187929391860962,-0.7231692236712952,-0.0,0.22790643572807312,-2.0183842817889612,1.0941793249230614e-08,0.04591282457113266,0.5559388995170593,-0.0,-0.008942343294620514,1.0658937692642212,0.0,-0.0184523556381464
372.0,354.0,-4.2341,3.9679,8.1553,-0.0414,0.0224,-0.1074,-2.0470711193480433,0.0,3.745809555053711,-1.698684811592102,7.201812063373225e-11,1.78525972366333,-0.7231577795794983,-0.0,0.24446912109851837,-2.0183680693255823,3.0456882675611308e-12,0.04289749264717102,0.5559350848197937,-0.0,0.000509592005982995,1.065800666809082,0.0,0.015107296407222748
372.0,354.0,-4.2341,3.9679,8.1553,-0.0414,0.0224,-0.1074,-2.0470711193480433,0.0,3.7284200191497803,-1.698636770248413,1.739153061244253e-16,1.7846612930297852,-0.7231738728335877,-0.0,0.2287532091140747,-2.0183842817889612,8.477785480061209e-16,0.037757281213998795,0.5559792518615723,-0.0,-0.002186556812375784,1.0658528804779053,0.0,0.01533748209476471
372.0,354.0,-4.2341,3.9679,8.1553,-0.0414,0.0224,-0.1074,-2.047051569024557,0.0,3.758704662322998,-1.698636770248413,3.130413975653502e-20,1.8548589944839478,-0.7231655877879639,-0.0,0.23830470442771912,-2.0183919111834925,3.614213485317745e-18,0.04910626262426376,0.555971086025238,-0.0,-0.004551323130726814,1.0658290386199951,0.0,-0.006478449329733849
372.0,354.0,-4.2341,3.9679,8.1553,-0.0414,0.0224,-0.1074,-2.0470792255797328,0.0,3.792849540710449,-1.69870126247406,7.559581947915838e-26,1.7706996202468872,-0.7231614750674744,-0.0,0.23117581009864807,-2.018388096486227,1.0060295413976016e-21,0.05036759003996849,0.5559349060058594,-0.0,0.012042106129229069,1.0658491849899292,0.0,0.03362024948000908
376.0,354.0,-4.2562,3.801,8.0961,-0.0425,0.0325,-0.1135,-2.0470792255797328,0.0,3.7937674522399902,-1.69870126247406,1.8255498973425525e-31,1.8579119443893433,-0.7231655281833191,-0.0,0.24138566851615906,-2.0183842817889612,2.800320381547474e-25,0.04261215776205063,0.5559510588645935,-0.0,-0.0009346320293843746,1.0658208131790161,0.0,-0.0042179180309176445
376.0,354.0,-4.2562,3.801,8.0961,-0.0425,0.0325,-0.1135,-2.0471111736693324,0.0,3.781792640686035,-1.6986610889434814,3.2859257099995144e-35,1.820873737335205,-0.7231861513904114,-0.0,0.22939427196979523,-2.0183313528644007,1.19382051313398e-27,0.053103357553482056,0.555895209312439,-0.0,0.001331850653514266,1.0658409595489502,0.0,-0.024594957008957863
376.0,354.0,-4.2562,3.801,8.0961,-0.0425,0.0325,-0.1135,-2.0470553837218226,0.0,3.7757415771484375,-1.6986489295959473,7.935132813932142e-41,1.805002212524414,-0.7231655877879639,-0.0,0.22033235430717468,-2.0183637777911585,3.3230435365542315e-31,0.039868928492069244,0.5559191703796387,-0.0,0.007478503044694662,1.0658290386199951,0.0,-0.01914418302476406
376.0,354.0,-4.2562,3.801,8.0961,-0.0425,0.0325,-0.1135,-2.0470673046507777,0.0,3.8057546615600586,-1.6986970901489258,0.0,1.8517816066741943,-0.7231615346721192,-0.0,0.23424482345581055,-2.0183637777911585,9.249812944080069e-35,0.04877919703722,0.5559430122375488,-0.0,0.0023086329456418753,1.065845012664795,0.0,0.03521996736526489
376.0,354.0,-4.2562,3.801,8.0961,-0.0425,0.0325,-0.1135,-2.0470591984190882,0.0,3.7667479515075684,-1.6986693143844604,-0.0,1.7821229696273804,-0.7231496137431641,-0.0,0.239130437374115,-2.0183475653277796,2.5747197341989824e-38,0.04994213581085205,0.55588698387146,-0.0,-0.000553425052203238,1.065845012664795,0.0,0.020420750603079796
376.0,354.0,-4.2562,3.801,8.0961,-0.0425,0.0325,-0.1135,-2.0470673046507777,0.0,3.779846668243408,-1.6986567974090576,-0.0,1.872711420059204,-0.723213867550232,-0.0,0.24026238918304443,-2.018376175557272,1.0976370871056292e-40,0.05081871896982193,0.5559430122375488,-0.0,0.0007828566012904048,1.0658208131790161,0.0,0.015608897432684898
376.0,354.0,-4.2562,3.801,8.0961,-0.0425,0.0325,-0.1135,-2.0471068821349085,0.0,3.776688814163208,-1.698636770248413,-0.0,1.808284044265747,-0.7231131357005616,-0.0,0.23506025969982147,-2.018400017415182,3.0828566215145976e-44,0.04727208614349365,0.5559270977973938,-0.0,0.005837780889123678,1.0658290386199951,0.0,-0.014056894928216934
376.0,354.0,-4.2562,3.801,8.0961,-0.0425,0.0325,-0.1135,-2.0470711193480433,0.0,3.751354217529297,-1.6986690759658813,-0.0,1.75606107711792,-0.7231696409038086,-0.0,0.2488713413476944,-2.018351380025045,0.0,0.045941680669784546,0.5558992624282837,-0.0,0.011341165751218796,1.065845012664795,0.0,0.014753857627511024
376.0,354.0,-4.2562,3.801,8.0961,-0.0425,0.0325,-0.1135,-2.0470992527403773,0.0,3.790241241455078,-1.6986888647079468,-0.0,1.854278326034546,-0.7231696409038086,-0.0,0.2385924756526947,-2.0183799902545374,0.0,0.03957747295498848,0.5559673309326172,-0.0,0.0006902924505993724,1.0658330917358398,0.0,0.038766901940107346
376.0,354.0,-4.2562,3.801,8.0961,-0.0425,0.0325,-0.1135,-2.0470711193480433,0.0,3.7786953449249268,-1.6986969709396362,-0.0,1.818147897720337,-0.7231655877879639,-0.0,0.2282785326242447,-2.01833945909609,0.0,0.03327559307217598,0.5559151768684387,-0.0,-0.012669998221099377,1.0658208131790161,0.0,-0.046367622911930084
376.0,354.0,-4.2562,3.801,8.0961,-0.0425,0.0325,-0.1135,-2.0470792255797328,0.0,3.800477981567383,-1.6986733675003052,-0.0,1.7918143272399902,-0.7231456202319642,-0.0,0.23348049819469452,-2.018376175557272,0.0,0.032032039016485214,0.5559430122375488,-0.0,0.006739150267094374,1.0658490657806396,0.0,0.015780970454216003
376.0,354.0,-4.2562,3.801,8.0961,-0.0425,0.0325,-0.1135,-2.04703487972402,0.0,3.7621052265167236,-1.6986325979232788,-0.0,1.825448989868164,-0.7231696409038086,-0.0,0.2347344160079956,-2.018400017415182,0.0,0.0391717329621315,0.5559951663017273,-0.0,0.009262620471417904,1.0658528804779053,0.0,0.0026516402140259743
376.0,354.0,-4.2562,3.801,8.0961,-0.0425,0.0325,-0.1135,-2.0470591984190882,0.0,3.774664878845215,-1.6986489295959473,-0.0,1.8004579544067383,-0.7231856149486084,-0.0,0.23515251278877258,-2.018400017415182,0.0,0.04335976764559746,0.5559151768684387,-0.0,0.007149165496230125,1.0657767057418823,0.0,0.03246799856424332
376.0,354.0,-4.2562,3.801,8.0961,-0.0425,0.0325,-0.1135,-2.0470830402769984,0.0,3.764042377471924,-1.6986125707626343,-0.0,1.7928979396820068,-0.7231536668590088,-0.0,0.23209170997142792,-2.018372360860006,0.0,0.047737255692481995,0.5559870004653931,-0.0,-0.004443429410457611,1.065865159034729,0.0,-0.015082488767802715
376.0,354.0,-4.2562,3.801,8.0961,-0.0425,0.0325,-0.1135,-2.047075410882467,0.0,3.809983491897583,-1.6986570358276367,-0.0,1.8362840414047241,-0.7232021254352112,-0.0,0.23236046731472015,-2.0183356443988245,0.0,0.03413095325231552,0.5559031367301941,-0.0,0.006451579742133617,1.0658209323883057,0.0,0.007173836696892977
376.0,354.0,-4.2562,3.801,8.0961,-0.0425,0.0325,-0.1135,-2.047087331811422,0.0,3.8052854537963867,-1.6986489295959473,-0.0,1.7948557138442993,-0.7231655877879639,-0.0,0.23850996792316437,-2.0183475653277796,0.0,0.04035024717450142,0.5559268593788147,-0.0,0.00853140838444233,1.0658611059188843,0.0,0.015878111124038696
376.0,354.0,-4.2562,3.801,8.0961,-0.0425,0.0325,-0.1135,-2.0470949612059535,0.0,3.7626945972442627,-1.6986888647079468,-0.0,1.8270137310028076,-0.7231172484210511,-0.0,0.23661580681800842,-2.0183842817889612,0.0,0.041802503168582916,0.5559630990028381,-0.0,0.009598881006240845,1.0658249855041504,0.0,-0.008895259350538254
389.0,346.0,-4.2066,3.8393,8.1087,-0.0394,0.0244,-0.1171,-2.0470429859557093,0.0,3.781588077545166,-1.698636770248413,-0.0,1.816969394683838,-0.7231291693500062,-0.0,0.24972829222679138,-2.018388096486227,0.0,0.027211368083953857,0.5559671521186829,-0.0,0.005156178027391434,1.0657765865325928,0.0,-0.007188290357589722
389.0,346.0,-4.2066,3.8393,8.1087,-0.0394,0.0244,-0.1171,-2.0470110378661097,0.0,3.796820640563965,-1.6986608505249023,1.8101557088812115e-06,1.7870222330093384,-0.7231975954822083,-0.0,0.23459500074386597,-2.0183680693255823,0.0,0.033222101628780365,0.5559751987457275,-0.0,-0.003878433257341385,1.0658528804779053,0.0,-0.01243097148835659
389.0,346.0,-4.2066,3.8393,8.1087,-0.0394,0.0244,-0.1171,-2.047063489953512,0.0,3.7956621646881104,-1.6985887289047241,4.3713136409218034e-12,1.8236905336380005,-0.7231094998172303,-0.0,0.248414546251297,-2.018400017415182,0.0,0.04570113122463226,0.5559030771255493,-0.0,0.011640139855444431,1.0658409595489502,0.0,0.007447012700140476
389.0,346.0,-4.2066,3.8393,8.1087,-0.0394,0.0244,-0.1171,-2.0470429859557093,0.0,3.847740411758423,-1.698652744293213,1.0556207662160822e-17,1.8209995031356812,-0.7231496733478089,-0.0,0.24264295399188995,-2.0183680693255823,0.0,0.043499741703271866,0.5559792518615723,-0.0,6.269989535212517e-05,1.0658290386199951,0.0,-0.013729129917919636
389.0,346.0,-4.2066,3.8393,8.1087,-0.0394,0.0244,-0.1171,-2.047063489953512,0.0,3.8647048473358154,-1.6986088752746582,1.9000801132160122e-21,1.7822368144989014,-0.7231696409038086,-0.0,0.24097640812397003,-2.018388096486227,0.0,0.04640711098909378,0.5559511780738831,-0.0,-0.0002361563965678215,1.0658290386199951,0.0,-0.025459256023168564
389.0,346.0,-4.2066,3.8393,8.1087,-0.0394,0.0244,-0.1171,-2.0470673046507777,0.0,3.75954008102417,-1.6986485719680786,4.588469159046291e-27,1.862699031829834,-0.7231496137431641,-3.585479291245974e-08,0.22410911321640015,-2.01833945909609,0.0,0.035653818398714066,0.5559670925140381,-0.0,-0.018019847571849823,1.0658609867095947,0.0,0.01225962396711111
389.0,346.0,-4.2066,3.8393,8.1087,-0.0394,0.0244,-0.1171,-2.0470673046507777,0.0,3.791001796722412,-1.6986408233642578,1.1080613092350008e-32,1.8583192825317383,-0.7231295865825196,-9.980311715951373e-12,0.22794944047927856,-2.0183475653277796,0.0,0.025218956172466278,0.5559350848197937,-0.0,0.008456011302769184,1.065825343132019,0.0,0.007302434649318457
389.0,346.0,-4.2066,3.8393,8.1087,-0.0394,0.0244,-0.1171,-2.047046800652975,0.0,3.7759668827056885,-1.6986088752746582,1.9944711086574196e-36,1.804476261138916,-0.7231536668590088,-4.254762706978714e-14,0.23001936078071594,-2.0183756987201136,0.0,0.040092650800943375,0.5560190677642822,-0.0,-0.004272607155144215,1.0657967329025269,0.0,-0.012931471690535545
389.0,346.0,-4.2066,3.8393,8.1087,-0.0394,0.0244,-0.1171,-2.0470992527403773,0.0,3.7960567474365234,-1.698692798614502,4.816262821884396e-42,1.8189690113067627,-0.7231696409038086,-1.1843289114764757e-17,0.22846466302871704,-2.0184086004840296,0.0,0.03524722158908844,0.5559430122375488,-0.0,0.00815200712531805,1.0658650398254395,0.0,0.010436714626848698
389.0,346.0,-4.2066,3.8393,8.1087,-0.0394,0.0244,-0.1171,-2.047087331811422,0.0,3.8368191719055176,-1.6986325979232788,0.0,1.816171646118164,-0.723105327492096,-3.2966229142696053e-21,0.23465576767921448,-2.018359963093893,0.0,0.036674853414297104,0.5559350848197937,-0.0,0.01060077827423811,1.0658692121505737,0.0,-0.008634841069579124
389.0,346.0,-4.2066,3.8393,8.1087,-0.0394,0.0244,-0.1171,-2.0470949612059535,0.0,3.766899824142456,-1.6986690759658813,-0.0,1.796736240386963,-0.7231291693500062,-1.4054020876724595e-23,0.23621562123298645,-2.018411938344137,0.0,0.045937228947877884,0.5559511780738831,-0.0,-0.004089161287993193,1.0658208131790161,0.0,0.008825617842376232
389.0,346.0,-4.2066,3.8393,8.1087,-0.0394,0.0244,-0.1171,-2.0470549068846644,0.0,3.797760486602783,-1.6986048221588135,-0.0,1.8047394752502441,-0.7231172484210511,-3.91198780682423e-27,0.2293684482574463,-2.0183680693255823,0.0,0.04482701048254967,0.5559229850769043,-0.0,0.003690454876050353,1.0658574104309082,0.0,0.030553676187992096
389.0,346.0,-4.2066,3.8393,8.1087,-0.0394,0.0244,-0.1171,-2.0470711193480433,0.0,3.821870803833008,-1.6986651420593262,-0.0,1.7745568752288818,-0.7231696409038086,-1.088916182618688e-30,0.23827578127384186,-2.018372360860006,0.0,0.04320745915174484,0.5559070110321045,-0.0,-0.009061692282557487,1.06585693359375,0.0,0.0030684703961014748
389.0,346.0,-4.2066,3.8393,8.1087,-0.0394,0.0244,-0.1171,-2.0470553837218226,0.0,3.8055005073547363,-1.6986485719680786,-0.0,1.8323328495025635,-0.7231295865825196,-3.031038127122933e-34,0.2462957501411438,-2.0184243361102503,0.0,0.037245891988277435,0.5559471249580383,-0.0,0.0011827126145362854,1.0658248662948608,0.0,-0.031505975872278214
389.0,346.0,-4.2066,3.8393,8.1087,-0.0394,0.0244,-0.1171,-2.0470711193480433,0.0,3.8200416564941406,-1.6986693143844604,-0.0,1.787308692932129,-0.7231176656535645,-1.292179061437763e-36,0.2338699847459793,-2.018416229878561,0.0,0.023303024470806122,0.5559431910514832,-0.0,-0.009259582497179508,1.065848708152771,0.0,0.004326272755861282
389.0,346.0,-4.2066,3.8393,8.1087,-0.0394,0.0244,-0.1171,-2.0470391712584437,0.0,3.8003690242767334,-1.6986608505249023,-0.0,1.8029332160949707,-0.7231455010226746,-3.596824872259654e-40,0.2338433563709259,-2.018411938344137,0.0,0.037405118346214294,0.5559511780738831,-0.0,0.009286198765039444,1.0658693313598633,0.0,0.025299569591879845
383.0,332.0,-4.2658,3.6843,8.0764,-0.042,0.0217,-0.1127,-2.047091146508688,0.0,3.7525880336761475,-1.6986289024353027,-0.0,1.801516056060791,-0.723105327492096,-9.949219096706201e-44,0.24785743653774261,-2.0184081236468714,0.0,0.03341404348611832,0.5559750199317932,-0.0,-0.007152077741920948,1.0658528804779053,0.0,-0.028283974155783653
383.0,332.0,-4.2658,3.6843,8.0764,-0.042,0.0217,-0.1127,-2.0470429859557093,0.0,3.799696445465088,-1.6986408233642578,-0.0,1.8444759845733643,-0.7231415075114747,-0.0,0.24104803800582886,-2.0183919111834925,0.0,0.039521753787994385,0.5559751987457275,-0.0,0.011614629998803139,1.065865159034729,0.0,-0.04251004755496979
383.0,332.0,-4.2658,3.6843,8.0764,-0.042,0.0217,-0.1127,-2.0470992527403773,0.0,3.7519960403442383,-1.6985927820205688,-0.0,1.7830700874328613,-0.7230935257724305,-0.0,0.2391974776983261,-2.018395725880758,0.0,0.035062409937381744,0.5559872388839722,-0.0,0.0035330276004970074,1.0658007860183716,0.0,-0.04088550806045532
383.0,332.0,-4.2658,3.6843,8.0764,-0.042,0.0217,-0.1127,-2.0470591984190882,0.0,3.7965807914733887,-1.6986448764801025,-0.0,1.81927490234375,-0.7231496733478089,-0.0,0.2312447726726532,-2.018435780202047,0.0,0.04354046285152435,0.5559871792793274,-0.0,-0.00046992581337690353,1.065881371498108,0.0,0.0016238477546721697
383.0,332.0,-4.2658,3.6843,8.0764,-0.042,0.0217,-0.1127,-2.0470391712584437,0.0,3.789151668548584,-1.6986693143844604,-0.0,1.8018944263458252,-0.7231213611415406,-0.0,0.25021088123321533,-2.018383804951803,0.0,0.044753290712833405,0.5559509992599487,-0.0,0.01726449653506279,1.065845012664795,0.0,0.00551027012988925
383.0,332.0,-4.2658,3.6843,8.0764,-0.042,0.0217,-0.1127,-2.047063013116354,-1.1842513231385965e-05,3.7692184448242188,-1.6986289024353027,9.702053648652509e-05,1.8192031383514404,-0.7231419247439881,-0.0,0.23995867371559143,-2.018379513417379,0.0,0.033922627568244934,0.5559991598129272,-0.0,0.005036809481680393,1.0658249855041504,0.0,-0.0441071093082428
383.0,332.0,-4.2658,3.6843,8.0764,-0.042,0.0217,-0.1127,-2.0470792255797328,-2.8598278259406307e-11,3.746213912963867,-1.6986329555511475,0.00012484219041652977,1.8004590272903442,-0.723072962169983,-0.0,0.23792946338653564,-2.0184558073626917,0.0,0.0328802764415741,0.5559309720993042,-0.0,-0.013685658574104309,1.0658855438232422,0.0,-0.01768590696156025
383.0,332.0,-4.2658,3.6843,8.0764,-0.042,0.0217,-0.1127,-2.047018667260641,-5.147589050570308e-15,3.8033714294433594,-1.698613166809082,0.0009181342902593315,1.8260600566864014,-0.7230935853770752,-0.0,0.25005200505256653,-2.0184157530414026,0.0,0.030018826946616173,0.5559471845626831,-0.0,0.005112389102578163,1.065845012664795,0.0,0.049574241042137146
383.0,332.0,-4.2658,3.6843,8.0764,-0.042,0.0217,-0.1127,-2.047022958795065,-1.2430823393420017e-20,3.794154167175293,-1.6986173391342163,0.0015117631992325187,1.805295705795288,-0.723121778374054,-0.0,0.22914916276931763,-2.018435780202047,0.0,0.04254472255706787,0.5559670925140381,-0.0,-0.0027874824590981007,1.065881371498108,-5.039249462157613e-09,0.02523142099380493
383.0,332.0,-4.2658,3.6843,8.0764,-0.042,0.0217,-0.1127,-2.047063013116354,-3.0018980086585993e-26,3.8463897705078125,-1.69853675365448,0.00173841486684978,1.8212462663650513,-0.7231016916087647,-0.0,0.23693892359733582,-2.0184438864337366,0.0,0.03118617832660675,0.5559910535812378,-0.0,0.013129102997481823,1.0658771991729736,-1.216919360419455e-14,-0.006217080634087324
383.0,332.0,-4.2658,3.6843,8.0764,-0.042,0.0217,-0.1127,-2.04703487972402,-7.249229580482891e-32,3.8139047622680664,-1.6985244750976562,0.0025993185117840767,1.8026747703552246,-0.7231377524188538,-0.0,0.23093818128108978,-2.0184157530414026,0.0,0.03205122426152229,0.5559790134429932,-0.0,0.003379441797733307,1.0658773183822632,-2.938716807398899e-20,0.0127452053129673
383.0,332.0,-4.2658,3.6843,8.0764,-0.042,0.0217,-0.1127,-2.0470549068846644,-1.3048357505971278e-35,3.777186870574951,-1.6985247135162354,0.0037435174454003572,1.7914412021636963,-0.7230814856341858,-0.0,0.22674384713172913,-2.0184763113604944,0.0,0.04788017272949219,0.5559151768684387,-0.0,-0.008652977645397186,1.0658692121505737,-5.289586893101901e-24,0.005603346042335033
383.0,332.0,-4.2658,3.6843,8.0764,-0.042,0.0217,-0.1127,-2.0470110378661097,-3.1509597268807837e-41,3.8127317428588867,-1.6984845399856567,0.0049077426083385944,1.8311102390289307,-0.723101870422699,5.590657383436337e-05,0.23852422833442688,-2.0184477011310022,0.0,0.03516923636198044,0.5559909343719482,-0.0,-0.0022736042737960815,1.0659055709838867,-1.2773727346882804e-29,0.03319764509797096
383.0,332.0,-4.2658,3.6843,8.0764,-0.042,0.0217,-0.1127,-2.0470429859557093,-0.0,3.797173023223877,-1.6984683275222778,0.0058798035606741905,1.82918381690979,-0.7230411332896729,0.0003852753434330225,0.23381361365318298,-2.0184276739703577,0.0,0.024700000882148743,0.5559630990028381,-0.0,-0.0016205566935241222,1.0658973455429077,-3.0847052413536654e-35,-0.0019721481949090958
383.0,332.0,-4.2658,3.6843,8.0764,-0.042,0.0217,-0.1127,-2.0470391712584437,0.0,3.792975902557373,-1.6984527111053467,0.004250721540302038,1.8304762840270996,-0.7230895918658753,0.00039347304846160114,0.22855043411254883,-2.0184438864337366,0.0,0.026457946747541428,0.5559670925140381,-0.0,0.01468224823474884,1.0659338235855103,-5.55236070129883e-39,-0.026710085570812225
383.0,332.0,-4.2658,3.6843,8.0764,-0.042,0.0217,-0.1127,-2.0470272503294886,0.0,3.7769083976745605,-1.6984528303146362,0.002302436390891671,1.8184189796447754,-0.7231059235385437,0.00038028383278287947,0.24266260862350464,-2.0184438864337366,0.0,0.036166030913591385,0.5559750199317932,-0.0,-0.005546277388930321,1.0658409595489502,-1.401298464324817e-44,0.03327816724777222
383.0,332.0,-4.2658,3.6843,8.0764,-0.042,0.0217,-0.1127,-2.0470310650267542,0.0,3.7653496265411377,-1.6984773874282837,0.0011851554736495018,1.8107616901397705,-0.7230454248240967,0.0003282998804934323,0.23437128961086273,-2.0184319655047815,0.0,0.025777339935302734,0.5559391379356384,-0.0,0.01706506870687008,1.0658650398254395,0.0,0.01689426228404045
379.0,347.0,-4.1773,3.8345,8.004,-0.0418,0.0214,-0.1185,-2.047046800652975,0.0,3.7872276306152344,-1.698445439338684,0.0007805575150996447,1.8103911876678467,-0.7230575841716309,0.00030085715116001666,0.23645392060279846,-2.0184195677386683,0.0,0.02450060471892357,0.5559190511703491,-0.0,0.01184948068112135,1.065812587738037,0.0,0.01054677739739418
379.0,347.0,-4.1773,3.8345,8.004,-0.0418,0.0214,-0.1185,-2.0470153294005335,0.0,3.7916879653930664,-1.6983928680419922,0.0001834585564211011,1.7964844703674316,-0.7230454248240967,0.00028294420917518437,0.2281714826822281,-2.0184152762042444,0.0,0.02424492873251438,0.5559670925140381,-0.0,0.004266794305294752,1.06585693359375,0.0,0.012808273546397686
379.0,347.0,-4.1773,3.8345,8.004,-0.0418,0.0214,-0.1185,-2.0470549068846644,0.0,3.720093250274658,-1.698445439338684,0.00021051296789664775,1.8002989292144775,-0.7230452460101624,0.00023821603099349886,0.25480130314826965,-2.0184720198260706,0.0,0.03837432339787483,0.5559830069541931,-0.0,0.015556607395410538,1.065889596939087,0.0,5.5408570915460587e-05
379.0,347.0,-4.1773,3.8345,8.004,-0.0418,0.0214,-0.1185,-2.0470549068846644,0.0,3.8396098613739014,-1.6983680725097656,0.00018211048154626042,1.8238826990127563,-0.7230895918658753,0.00025552912848070264,0.23218883574008942,-2.018440071736471,0.0,0.030792847275733948,0.5559511780738831,-0.0,0.018791813403367996,1.0658774375915527,0.0,0.015434090979397297
379.0,347.0,-4.1773,3.8345,8.004,-0.0418,0.0214,-0.1185,-2.047022958795065,0.0,3.813347101211548,-1.6983762979507446,0.00015145829820539802,1.8027735948562622,-0.7230937045863648,0.0002260183828184381,0.2389393001794815,-2.0184033552752894,0.0,0.04447469860315323,0.555931031703949,-0.0,0.009356681257486343,1.065889596939087,0.0,0.03612327575683594
379.0,347.0,-4.1773,3.8345,8.004,-0.0418,0.0214,-0.1185,-2.0469676456847132,0.0,3.7357420921325684,-1.6984527111053467,0.0001296390692004934,1.823613166809082,-0.7230617564967652,0.00020080064132343978,0.2348693311214447,-2.018423382435934,0.0,0.024047156795859337,0.5559670925140381,-0.0,0.003541741520166397,1.0657966136932373,0.0,0.0197147186845541
379.0,347.0,-4.1773,3.8345,8.004,-0.0418,0.0214,-0.1185,-2.0470549068846644,0.0,3.769578456878662,-1.698445439338684,0.00015108725347090513,1.821952223777771,-0.7230171126178284,0.00020676437998190522,0.24476729333400726,-2.0184195677386683,0.0,0.03466080129146576,0.5560071468353271,-0.0,-0.0008501168340444565,1.065901517868042,0.0,-0.008217588067054749
379.0,347.0,-4.1773,3.8345,8.004,-0.0418,0.0214,-0.1185,-2.0469991169371546,0.0,3.7756597995758057,-1.698437213897705,0.00013938717893324792,1.8145179748535156,-0.7230534714511414,0.00019751822401303798,0.2352871298789978,-2.0184839407550257,0.0,0.034435372799634933,0.555971086025238,-0.0,-0.0013244427973404527,1.0658973455429077,0.0,-0.002717475639656186
379.0,347.0,-4.1773,3.8345,8.004,-0.0418,0.0214,-0.1185,-2.0470034084715785,0.0,3.7583072185516357,-1.6983928680419922,8.661115862196311e-05,1.8497934341430664,-0.7230735582164307,0.00018055074906442314,0.2356080412864685,-2.0183990637408655,0.0,0.03799092397093773,0.5559909343719482,-0.0,0.009249000810086727,1.0658609867095947,0.0,0.005148196592926979
379.0,347.0,-4.1773,3.8345,8.004,-0.0418,0.0214,-0.1185,-2.046991010705465,0.0,3.7506682872772217,-1.6983885765075684,7.566923886770383e-05,1.8208802938461304,-0.7230535310557862,0.00016625561693217605,0.22690343856811523,-2.0184195677386683,0.0,0.02595980279147625,0.5560111403465271,-0.0,0.004992338828742504,1.0658973455429077,0.0,0.010966676287353039
379.0,347.0,-4.1773,3.8345,8.004,-0.0418,0.0214,-0.1185,-2.047022958795065,0.0,3.7722830772399902,-1.6984609365463257,6.98004150763154e-05,1.8163440227508545,-0.723061279659607,0.00015792041085660458,0.2378467172384262,-2.0184033552752894,0.0,0.02945217303931713,0.5560269951820374,-0.0,-0.007845521904528141,1.0658692121505737,0.0,0.027038097381591797
379.0,347.0,-4.1773,3.8345,8.004,-0.0418,0.0214,-0.1185,-2.0469676456847132,0.0,3.7837753295898438,-1.6984128952026367,6.252624734770507e-05,1.8133645057678223,-0.7230575841716309,0.00014687464863527566,0.24600175023078918,-2.018463913594381,0.0,0.039056580513715744,0.555971086025238,-0.0,0.01692044921219349,1.0658732652664185,0.0,-0.02261073887348175
379.0,347.0,-4.1773,3.8345,8.004,-0.0418,0.0214,-0.1185,-2.047070642510885,0.0,3.7829980850219727,-1.6983928680419922,5.66251328564249e-05,1.8104867935180664,-0.7230777901462098,0.0001518174249213189,0.22544685006141663,-2.0184839407550257,0.0,0.02990354597568512,0.555971086025238,-0.0,0.01226760819554329,1.065885066986084,0.0,0.01141040027141571
379.0,347.0,-4.1773,3.8345,8.004,-0.0418,0.0214,-0.1185,-2.0469914875426234,0.0,3.773202419281006,-1.698445439338684,7.677823305130005e-05,1.812546968460083,-0.723077730541565,0.00015031064685899764,0.23674973845481873,-2.018463913594381,0.0,0.0281817764043808,0.5559670925140381,-0.0,-0.0018915424589067698,1.0658568143844604,0.0,0.058420199900865555
379.0,347.0,-4.1773,3.8345,8.004,-0.0418,0.0214,-0.1185,-2.047046800652975,0.0,3.8173727989196777,-1.6984206438064575,7.3393399361521e-05,1.7852656841278076,-0.7231304806521912,0.00014147070760373026,0.24595864117145538,-2.0184643904315394,0.0,0.03255869820713997,0.5559711456298828,-0.0,0.007640497758984566,1.065941572189331,0.0,-0.006523721385747194
379.0,347.0,-4.1773,3.8345,8.004,-0.0418,0.0214,-0.1185,-2.047019144097799,0.0,3.733104705810547,-1.698448657989502,5.298585892887786e-05,1.7730852365493774,-0.7230818432620545,0.00013359544391278177,0.23766851425170898,-2.0184438864337366,0.0,0.03556278720498085,0.555971086025238,-0.0,0.017828457057476044,1.0659091472625732,0.0,-0.006491764448583126
376.0,338.0,-4.2784,3.7789,8.0668,-0.0295,0.0345,-0.109,-2.047046800652975,0.0,3.7789692878723145,-1.6984331607818604,4.3075891881017014e-05,1.7997506856918335,-0.7230535310557862,0.00012881509610451758,0.2277146428823471,-2.0184596220599573,0.0,0.03214837238192558,0.5559391379356384,-0.0,0.0030512167140841484,1.0658730268478394,0.0,-0.010124904103577137
376.0,338.0,-4.2784,3.7789,8.0668,-0.0295,0.0345,-0.109,-2.047063013116354,0.0,3.7976348400115967,-1.6984527111053467,2.009477793762926e-05,1.8401808738708496,-0.7230937641910096,0.00010710445349104702,0.23575317859649658,-2.018390957509176,0.0,0.0516938641667366,0.5559471845626831,-0.0,0.009024307131767273,1.065921425819397,0.0,0.0460820347070694
376.0,338.0,-4.2784,3.7789,8.0668,-0.0295,0.0345,-0.109,-2.0470391712584437,0.0,3.7971010208129883,-1.6984084844589233,8.829711362068338e-08,1.760131597518921,-0.7230612200549622,0.00010178682714467868,0.22812150418758392,-2.0184477011310022,0.0,0.022797569632530212,0.5559509992599487,-0.0,0.013224986381828785,1.0658968687057495,0.0003028070495929569,0.05339287966489792
376.0,338.0,-4.2784,3.7789,8.0668,-0.0295,0.0345,-0.109,-2.0470711193480433,-9.832668183662463e-06,3.7537317276000977,-1.6984765529632568,2.132271274693856e-13,1.848893404006958,-0.7230654519847413,9.708119614515454e-05,0.22306206822395325,-2.018451992665426,0.0,0.04378020018339157,0.5559751391410828,-0.0,-0.0025545682292431593,1.0658808946609497,0.00025438732700422406,-0.03843323513865471
376.0,338.0,-4.2784,3.7789,8.0668,-0.0295,0.0345,-0.109,-2.0470391712584437,-2.5214492779923603e-05,3.834756374359131,-1.698437213897705,3.8380124939998866e-17,1.794548511505127,-0.7230813664248963,4.967667700839229e-05,0.2442205548286438,-2.0184925238238733,0.0,0.02524300292134285,0.555931031703949,-0.0,0.0012783048441633582,1.065873146057129,0.000274226360488683,-0.021422749385237694
376.0,338.0,-4.2784,3.7789,8.0668,-0.0295,0.0345,-0.109,-2.047075410882467,-3.6298199120210484e-05,3.760084867477417,-1.6984807252883911,9.26834823245829e-23,1.8371877670288086,-0.7230730813792725,3.239656507503241e-05,0.2403014600276947,-2.0184758345233362,0.0,0.04098622500896454,0.5559349656105042,-0.0,-0.0008606053306721151,1.065913200378418,0.00023798947222530842,0.009673455730080605
376.0,338.0,-4.2784,3.7789,8.0668,-0.0295,0.0345,-0.109,-2.0470673046507777,-4.652339339372702e-05,3.793210029602051,-1.6984405517578125,2.2381968551927796e-28,1.8505051136016846,-0.7231057447246094,3.073309926548973e-05,0.22895728051662445,-2.018451992665426,0.0,0.04249309003353119,0.5559470057487488,-0.0,0.0048273117281496525,1.0658968687057495,0.00021019653650000691,0.023860180750489235
376.0,338.0,-4.2784,3.7789,8.0668,-0.0295,0.0345,-0.109,-2.047091146508688,-4.535196421784349e-05,3.784346580505371,-1.6984890699386597,4.028675104162871e-32,1.8068931102752686,-0.723061279659607,2.9718235964537598e-05,0.24234071373939514,-2.0184882322894495,0.0,0.05062530189752579,0.5559909343719482,-0.0,0.0003123958595097065,1.0658767223358154,0.00019501349015627056,-0.042747266590595245
376.0,338.0,-4.2784,3.7789,8.0668,-0.0295,0.0345,-0.109,-2.0470591984190882,-5.4625295888399705e-05,3.784134864807129,-1.698448657989502,-0.0003252454334869981,1.768752098083496,-0.7230575841716309,2.8315751478658058e-05,0.2389557957649231,-2.018468205128805,0.0,0.056279804557561874,0.5559909343719482,-0.0,0.012537765316665173,1.0659255981445312,0.0001759503793437034,-0.014722319319844246
376.0,338.0,-4.2784,3.7789,8.0668,-0.0295,0.0345,-0.109,-2.0470549068846644,-5.2706163842231035e-05,3.801954507827759,-1.6984331607818604,-0.00026729333330877125,1.8211169242858887,-0.7230814260295411,1.441603853891138e-05,0.23181277513504028,-2.018423382435934,0.0,0.03959771990776062,0.5559830069541931,-0.0,0.0036329906433820724,1.065885066986084,0.00016028236132115126,0.013330280780792236
376.0,338.0,-4.2784,3.7789,8.0668,-0.0295,0.0345,-0.109,-2.0470830402769984,-5.149979187990539e-05,3.746495246887207,-1.6984405517578125,-0.00019115435134153813,1.785861849784851,-0.7230772537044068,1.3129302715242375e-05,0.23877614736557007,-2.01848012605776,0.0,0.044696908444166183,0.555959165096283,-0.0,0.004341751802712679,1.065933346748352,0.00015130051178857684,0.025027191266417503
376.0,338.0,-4.2784,3.7789,8.0668,-0.0295,0.0345,-0.109,-2.0470949612059535,-4.979035657015629e-05,3.7824766635894775,-1.698456883430481,-0.0001648651232244447,1.8417975902557373,-0.723061279659607,1.2575304936035536e-05,0.23539569973945618,-2.0184438864337366,0.0,0.053777944296598434,0.5559830665588379,-0.0,0.0063139027915894985,1.065885066986084,0.00013956885959487408,0.018847540020942688
376.0,338.0,-4.2784,3.7789,8.0668,-0.0295,0.0345,-0.109,-2.0470673046507777,-3.523148162098977e-10,3.772306442260742,-1.6984291076660156,-0.00014494979404844344,1.7938473224639893,-0.7231057447246094,1.2069383046764415e-05,0.2544895112514496,-2.018435303364889,0.0,0.03917897865176201,0.5559630990028381,-0.0,0.00028281169943511486,1.0658968687057495,0.00012952560791745782,0.04332825541496277
376.0,338.0,-4.2784,3.7789,8.0668,-0.0295,0.0345,-0.109,-2.0471111736693324,-6.341541874954615e-14,3.761584520339966,-1.698448657989502,-0.00013414659770205617,1.7821787595748901,-0.7230977577022095,1.1754134902730584e-05,0.23800376057624817,-2.018411461506979,0.0,0.03557240217924118,0.5559511780738831,-0.0,-0.0011872000759467483,1.065904974937439,0.00012359651736915112,-0.007730388082563877
376.0,338.0,-4.2784,3.7789,8.0668,-0.0295,0.0345,-0.109,-2.0470429859557093,-1.5314078063864662e-19,3.778503894805908,-1.698440432548523,-0.00012065780902048573,1.8510228395462036,-0.7231099170497437,1.1310964509902988e-05,0.24148553609848022,-2.018411461506979,0.0,0.0515608936548233,0.5559830069541931,-0.0,-0.0015515724662691355,1.065913200378418,0.00011565499153221026,-0.08429444581270218
376.0,338.0,-4.2784,3.7789,8.0668,-0.0295,0.0345,-0.109,-2.047087331811422,-3.6981695698767223e-25,3.7848281860351562,-1.6984528303146362,-0.00010963412933051586,1.7654547691345215,-0.7231018108180542,1.0900006600422785e-05,0.24663439393043518,-2.0184763113604944,0.0,0.04098612070083618,0.5559629797935486,-0.0,-0.0040066977962851524,1.0658973455429077,9.056383714778349e-05,0.010182755067944527
376.0,338.0,-4.2784,3.7789,8.0668,-0.0295,0.0345,-0.109,-2.047063489953512,-0.00012689889990724623,3.7911529541015625,-1.6984405517578125,-0.00010045620001619682,1.8141899108886719,-0.723061279659607,1.0517860573600046e-05,0.24152208864688873,-2.0184839407550257,0.0,0.04948318004608154,0.5559830069541931,-0.0,0.018496889621019363,1.0658568143844604,8.540432463632897e-05,0.04711674153804779
377.0,333.0,-4.2407,3.8429,8.0997,-0.0345,0.0203,-0.1151,-2.0470382175841273,-0.00013639444659929723,3.796154499053955,-1.6984692811965942,-9.514611156191677e-05,1.8391387462615967,-0.7231099170497437,1.0277637557010166e-05,0.2395068109035492,-2.018435303364889,0.0,0.03595270216464996,0.5559829473495483,-0.0,0.003497285069897771,1.065881371498108,8.228121441788971e-05,-0.027977904304862022
377.0,333.0,-4.2407,3.8429,8.0997,-0.0345,0.0203,-0.1151,-2.047103067437643,-0.0001338950969511643,3.7932848930358887,-1.6984652280807495,-8.815624460112303e-05,1.8340644836425781,-0.723089413051941,9.937212780641858e-06,0.2453383356332779,-2.018407646809713,0.0,0.04296969249844551,0.5559430122375488,-0.0,0.006965660024434328,1.065848708152771,7.800247840350494e-05,0.004719032905995846
377.0,333.0,-4.2407,3.8429,8.0997,-0.0345,0.0203,-0.1151,-2.047087331811422,-0.0001453941804356873,3.8085198402404785,-1.6984446048736572,-8.212323155021295e-05,1.8089760541915894,-0.7230855387500306,2.766059603587223e-09,0.2542683482170105,-2.018423382435934,0.0,0.050902582705020905,0.5559350252151489,-0.0,-0.0029125020373612642,1.0658891201019287,7.414675201289356e-05,0.009908823296427727
377.0,333.0,-4.2407,3.8429,8.0997,-0.0345,0.0203,-0.1151,-2.047087331811422,-0.0001389805693179369,3.8554840087890625,-1.6984362602233887,-7.853998977225274e-05,1.7919193506240845,-0.7230975788882752,1.1792144517797087e-11,0.2385525405406952,-2.0184033552752894,0.0,0.03768289461731911,0.5559910535812378,-0.0,0.01812988519668579,1.0658692121505737,7.178135274443775e-05,-0.0013098169583827257
377.0,333.0,-4.2407,3.8429,8.0997,-0.0345,0.0203,-0.1151,-2.0471111736693324,-0.0001489722344558686,3.7810096740722656,-1.698437213897705,-7.371536776190624e-05,1.8459274768829346,-0.7230935853770752,3.2823871370907904e-15,0.24925130605697632,-2.0184276739703577,0.0,0.03781602531671524,0.5559869408607483,-0.0,0.006642626132816076,1.0658891201019287,6.850319186924025e-05,-0.00612145708873868
377.0,333.0,-4.2407,3.8429,8.0997,-0.0345,0.0203,-0.1151,-2.047086854974264,-0.0002587599738035351,3.800412178039551,-1.6984570026397705,-6.94491682224907e-05,1.8376363515853882,-0.7231217187694092,9.136646203421312e-19,0.24923135340213776,-2.0184600988971155,0.0,0.036335915327072144,0.5559750199317932,-0.0,-0.009950334206223488,1.0658771991729736,6.551147089339793e-05,-0.029788266867399216
377.0,333.0,-4.2407,3.8429,8.0997,-0.0345,0.0203,-0.1151,-2.0470792255797328,-0.00027828887687064707,3.8046727180480957,-1.6984890699386597,-6.686917913611978e-05,1.8480334281921387,-0.7231057447246094,3.895095761490607e-21,0.2543366551399231,-2.0184720198260706,0.0,0.043594833463430405,0.5559910535812378,-0.0,-0.004361455794423819,1.0659255981445312,6.365799345076084e-05,0.01824990101158619
377.0,333.0,-4.2407,3.8429,8.0997,-0.0345,0.0203,-0.1151,-2.047103067437643,-0.0003184651432093233,3.803283452987671,-1.698493242263794,-6.333968485705554e-05,1.8180501461029053,-0.7231496733478089,1.0842141752250584e-24,0.25299155712127686,-2.0184276739703577,0.0,0.045678410679101944,0.5559592247009277,-0.0,0.006537351757287979,1.0658931732177734,6.106645741965622e-05,-0.023764654994010925
377.0,333.0,-4.2407,3.8429,8.0997,-0.0345,0.0203,-0.1151,-2.0471068821349085,-0.0007609929307363927,3.7679238319396973,-1.6984528303146362,-6.0164045862620696e-05,1.8119592666625977,-0.723113552933075,3.017949796965541e-28,0.23814599215984344,-2.0184038321124476,0.0,0.040355339646339417,0.5559630990028381,-0.0,-0.001096399617381394,1.0658931732177734,5.867767322342843e-05,-0.011305040679872036
377.0,333.0,-4.2407,3.8429,8.0997,-0.0345,0.0203,-0.1151,-2.0471679172911585,-0.001587863895110786,3.827476978302002,-1.6985013484954834,-5.8218196500092745e-05,1.8321905136108398,-0.7231176656535645,1.2865992556755681e-30,0.24766480922698975,-2.018407646809713,0.0,0.03497324883937836,0.5559349656105042,-0.0,0.002310575917363167,1.0658608675003052,5.7186327467206866e-05,0.027980171144008636
377.0,333.0,-4.2407,3.8429,8.0997,-0.0345,0.0203,-0.1151,-2.047138830224508,-0.002390838460996747,3.780877113342285,-1.698448657989502,-5.5524455092381686e-05,1.7994028329849243,-0.7231819790652771,3.5812966754699423e-34,0.24907666444778442,-2.0184038321124476,0.0,0.05228827893733978,0.555955171585083,-0.0,0.014419874176383018,1.065885066986084,5.5086278734961525e-05,0.017475740984082222
377.0,333.0,-4.2407,3.8429,8.0997,-0.0345,0.0203,-0.1151,-2.0471674404540003,-0.0029766953084617853,3.7938995361328125,-1.6984692811965942,-5.3069001296535134e-05,1.7951427698135376,-0.7231012147716065,9.96866911939103e-38,0.2446330487728119,-2.0184276739703577,0.0,0.05432180315256119,0.5560111403465271,-0.0,-0.000894665252417326,1.0659255981445312,5.31349542143289e-05,-0.038042277097702026
377.0,333.0,-4.2407,3.8429,8.0997,-0.0345,0.0203,-0.1151,-2.0471793613829554,-0.003753808792680502,3.7640557289123535,-1.6984291076660156,-5.082151619717479e-05,1.8277614116668701,-0.7230892938426514,2.774851219056003e-41,0.24930420517921448,-2.0184319655047815,0.0,0.05965661630034447,0.555915117263794,-0.0,0.007928462699055672,1.065921425819397,5.1317190809641033e-05,-0.010804908350110054
377.0,333.0,-4.2407,3.8429,8.0997,-0.0345,0.0203,-0.1151,-2.047182699243063,-0.003573222318664193,3.8077564239501953,-1.6984527111053467,-3.756164733204059e-05,1.8083099126815796,-0.7231456202319642,1.1770907100328463e-43,0.2539893388748169,-2.0184200445758265,-4.1557470353836834e-08,0.047902755439281464,0.5559870004653931,-0.0,0.001132678473368287,1.0659173727035522,5.0172864575870335e-05,-0.008457427844405174
377.0,333.0,-4.2407,3.8429,8.0997,-0.0345,0.0203,-0.1151,-2.047238966027731,-0.00325660384260118,3.804790496826172,-1.698448657989502,-3.5603145079221576e-05,1.8150794506072998,-0.7231255334666749,0.0,0.23191794753074646,-2.018383804951803,-1.1567673034729165e-11,0.045542530715465546,0.5559270977973938,-0.0,0.005024448968470097,1.0659050941467285,1.0108027304056577e-08,-0.0284038744866848
377.0,333.0,-4.2407,3.8429,8.0997,-0.0345,0.0203,-0.1151,-2.047222753564352,-0.0031638783402740955,3.8019955158233643,-1.6984610557556152,2.68107105512172e-05,1.8222999572753906,-0.7231177252582093,0.0,0.24607443809509277,-2.0183876196490687,-3.2199040576706825e-15,0.046024929732084274,0.5560028553009033,-0.0,-0.002352548995986581,1.0658968687057495,2.4409697218152546e-14,0.0067640189081430435
377.0,333.0,-4.2407,3.8429,8.0997,-0.0345,0.0203,-0.1151,-2.0472833118834437,-0.00332683976739645,3.817356586456299,-1.698400616645813,2.603557732072659e-05,1.8206310272216797,-0.7231254738620301,0.0,0.23817767202854156,-2.0184038321124476,-1.3726958040560313e-17,0.05029856041073799,0.5559512376785278,-0.0,0.008828180842101574,1.0659493207931519,4.3936595726718685e-18,0.046222422271966934
372.0,343.0,-4.2712,3.9559,8.065,-0.0356,0.0223,-0.1133,-2.0472833118834437,-0.0029688153881579638,3.8093619346618652,-1.698437213897705,3.7422469176817685e-05,1.8595969676971436,-0.7231213611415406,0.0,0.2568780779838562,-2.0183475653277796,-3.820950005567738e-21,0.04906437173485756,0.5559671521186829,-4.6219878413467086e-07,-0.00839358288794756,1.0658973455429077,1.0610170497752651e-23,0.04870760813355446
372.0,343.0,-4.2712,3.9559,8.065,-0.0356,0.0223,-0.1133,-2.0473185978331507,-0.0031733019277453423,3.8410463333129883,-1.6984331607818604,3.593480141717009e-05,1.768815517425537,-0.7231658858111878,0.0,0.24476078152656555,-2.0184081236468714,-1.0635754045769874e-24,0.043308429419994354,0.5559389591217041,-1.2865473963952212e-10,0.014049912802875042,1.065812587738037,2.5622316192557047e-29,0.009207835420966148
372.0,343.0,-4.2712,3.9559,8.065,-0.0356,0.0223,-0.1133,-2.047314783135885,-0.003300231182947755,3.7755661010742188,-1.6984610557556152,3.5003089578822255e-05,1.8340179920196533,-0.7231217187694092,0.0,0.26047518849372864,-2.0184081236468714,-4.534188749493681e-27,0.05070137605071068,0.5559591054916382,-5.48475327655229e-13,0.001971115591004491,1.0658973455429077,4.61192718917647e-33,0.01808270253241062
372.0,343.0,-4.2712,3.9559,8.065,-0.0356,0.0223,-0.1133,-2.047302385369772,-0.0034073670394718647,3.8311378955841064,-1.6985095739364624,3.3692744182189927e-05,1.838109016418457,-0.7231373351863404,0.0,0.2534692585468292,-2.0183799902545374,-1.262108160014604e-30,0.047781601548194885,0.5559390187263489,-1.5267014485540115e-16,0.010108856484293938,1.065885066986084,1.113726235553621e-38,-0.006601600907742977
372.0,343.0,-4.2712,3.9559,8.065,-0.0356,0.0223,-0.1133,-2.047330518762106,-0.003161763306707144,3.8287241458892822,-1.6984291076660156,3.2476946216775104e-05,1.7829160690307617,-0.7231295865825196,0.0,0.25842714309692383,-2.0183475653277796,-3.5131242020182403e-34,0.0430079847574234,0.5559470057487488,-4.249629734116096e-20,-0.0063139707781374454,1.0658568143844604,2.6624670822171524e-44,0.01725107803940773
372.0,343.0,-4.2712,3.9559,8.065,-0.0356,0.0223,-0.1133,-2.0473667583861292,-0.0036860834807157516,3.8040902614593506,-1.69846510887146,3.134584039798938e-05,1.848200798034668,-0.7231332820704957,0.0,0.24910882115364075,-2.0183919111834925,-9.778913128623563e-38,0.059943996369838715,0.5559472441673279,-1.1828998461642565e-23,0.018293529748916626,1.0658364295959473,0.0,0.01090922113507986
372.0,343.0,-4.2712,3.9559,8.065,-0.0356,0.0223,-0.1133,-2.047422548333639,-0.0039020534604787827,3.7556400299072266,-1.698437213897705,3.736087091965601e-05,1.794279932975769,-0.7231176656535645,0.0,0.2565346956253052,-2.0183475653277796,-4.1689049703202605e-40,0.05057574808597565,0.5559989213943481,-5.042887013857813e-26,0.00568916741758585,1.0658771991729736,0.0,0.0380435436964035
372.0,343.0,-4.2712,3.9559,8.065,-0.0356,0.0223,-0.1133,-2.04738249401235,-0.0036624183412641287,3.768845558166504,-1.698456883430481,4.600640750140883e-06,1.8359887599945068,-0.7231699985316773,0.0,0.25476911664009094,-2.0183842817889612,-1.1630777253895982e-43,0.04289954528212547,0.555927038192749,-1.403706065412961e-29,-0.010307718999683857,1.0659092664718628,0.0,0.038840118795633316
372.0,343.0,-4.2712,3.9559,8.065,-0.0356,0.0223,-0.1133,-2.04740633587026,-0.003424837486818433,3.8038806915283203,-1.6984446048736572,0.0001463178632548079,1.8054234981536865,-0.7231336396983643,0.0,0.24529656767845154,-2.0183356443988245,-0.0,0.04516197368502617,0.5559430122375488,-3.907267182342465e-33,-1.5003723092377186e-05,1.065848708152771,0.0,0.028641249984502792
372.0,343.0,-4.2712,3.9559,8.065,-0.0356,0.0223,-0.1133,-2.0473863087096156,-0.0033346903510391712,3.7908520698547363,-1.698445439338684,0.0001688480842858553,1.8538416624069214,-0.7231618922999878,0.0,0.2624043822288513,-2.0183804670916956,-0.0,0.04636368900537491,0.5559592247009277,-1.6657294484691742e-35,-0.007532198913395405,1.0658243894577026,1.4271676263888367e-05,-0.011280296370387077
372.0,343.0,-4.2712,3.9559,8.065,-0.0356,0.0223,-0.1133,-2.0474544964232386,-0.0026537489611655474,3.800543785095215,-1.698396921157837,0.0001812059635994956,1.8425302505493164,-0.7231660050204773,0.0,0.2591093182563782,-2.01833945909609,-0.0,0.045406274497509,0.5559592247009277,-4.6366191613548834e-39,0.004330413416028023,1.065881371498108,3.4464420900492954e-11,-0.025505993515253067
372.0,343.0,-4.2712,3.9559,8.065,-0.0356,0.0223,-0.1133,-2.047426839868063,-0.0019021984189748764,3.7693731784820557,-1.6984169483184814,0.00047982268733903766,1.7894091606140137,-0.7231176656535645,0.0,0.2561050057411194,-2.0183356443988245,-0.0,0.04954224079847336,0.5559751391410828,-1.2905958856431565e-42,-0.0056242914870381355,1.0658167600631714,8.322751848585173e-17,0.005333822686225176
372.0,343.0,-4.2712,3.9559,8.065,-0.0356,0.0223,-0.1133,-2.0474826298155726,-0.0017985838931053877,3.7896814346313477,-1.698453664779663,0.0005067286547273397,1.829930067062378,-0.7231136125377198,0.0,0.26531481742858887,-2.018348042164938,-0.0,0.04239000380039215,0.5559830665588379,-5.605193857299268e-45,0.00516504654660821,1.0658249855041504,1.498065933040301e-20,0.07143382728099823
372.0,343.0,-4.2712,3.9559,8.065,-0.0356,0.0223,-0.1133,-2.0474306545653285,-0.0014089473988860846,3.8097171783447266,-1.6983885765075684,0.0005254453863017261,1.8071975708007812,-0.7231700581363221,0.0,0.24328505992889404,-2.018348042164938,-0.0,0.03176470100879669,0.5559592247009277,-0.0,0.005269803572446108,1.0658249855041504,-0.0003660366637632251,0.01326584629714489
372.0,343.0,-4.2712,3.9559,8.065,-0.0356,0.0223,-0.1133,-2.0474544964232386,-0.0014365772949531674,3.8307957649230957,-1.6983968019485474,0.0006193217705003917,1.832481861114502,-0.7231455606273194,0.0,0.25186383724212646,-2.018343750630514,7.026940875221044e-05,0.044957712292671204,0.5559230446815491,-0.0,-0.00099533936008811,1.0658209323883057,-0.0003888314531650394,-0.009510727599263191
372.0,343.0,-4.2712,3.9559,8.065,-0.0356,0.0223,-0.1133,-2.0474702320494593,-0.0014957657549530268,3.7796084880828857,-1.6983606815338135,0.0005963956937193871,1.7770886421203613,-0.7231336396983643,0.0,0.25482505559921265,-2.018343750630514,0.00017234192637261003,0.0351097397506237,0.5559910535812378,-0.0,0.00566762313246727,1.0658167600631714,-0.0003964591887779534,-0.02233394980430603
362.0,351.0,-4.2293,3.7137,8.1464,-0.0362,0.0275,-0.1266,-2.0474707088866175,-0.0013572194147855043,3.7803537845611572,-1.698405146598816,0.0007295731920748949,1.8599693775177002,-0.7231496137431641,0.0,0.23865953087806702,-2.018331829701559,0.00015497971617151052,0.04983524605631828,0.5559670925140381,-0.0,-0.012682989239692688,1.0658290386199951,-0.0003805354645010084,-0.017762435600161552
362.0,351.0,-4.2293,3.7137,8.1464,-0.0362,0.0275,-0.1266,-2.0474988422789515,-0.0011651559034362435,3.7567813396453857,-1.698388934135437,0.00103157595731318,1.8201701641082764,-0.7230893534472962,0.0,0.25057733058929443,-2.0183518568622034,0.00014046524302102625,0.041681014001369476,0.5559349656105042,-0.0,0.01571245864033699,1.0658330917358398,-0.00032895489130169153,-0.0027822242118418217
362.0,351.0,-4.2293,3.7137,8.1464,-0.0362,0.0275,-0.1266,-2.0474544964232386,-0.0008612785604782403,3.786278009414673,-1.6983606815338135,0.0017622499726712704,1.8124167919158936,-0.7231537264636536,0.0,0.25162509083747864,-2.018303696309225,0.00014745883527211845,0.04752868413925171,0.5559389591217041,-0.0,0.004119508434087038,1.0658692121505737,-0.00028929958352819085,0.057107485830783844
362.0,351.0,-4.2293,3.7137,8.1464,-0.0362,0.0275,-0.1266,-2.0474664173521937,-0.0006541319889947772,3.786397933959961,-1.6983611583709717,0.002346001798287034,1.8414950370788574,-0.7231419247439881,0.0,0.2556331157684326,-2.018331829701559,0.00014577247202396393,0.046356942504644394,0.5558953285217285,-0.0,-0.0030095393303781748,1.0657967329025269,-0.00027000228874385357,-0.03759540617465973
362.0,351.0,-4.2293,3.7137,8.1464,-0.0362,0.0275,-0.1266,-2.0474945507445277,-0.0005596567061729729,3.8059635162353516,-1.6983294486999512,0.003891029627993703,1.8303046226501465,-0.7231255334666749,0.0,0.2546183466911316,-2.0183075110064905,0.00013487529940903187,0.04406388849020004,0.5559790730476379,-0.0,0.004695420153439045,1.0658130645751953,-0.00023004101240076125,0.03910789638757706
362.0,351.0,-4.2293,3.7137,8.1464,-0.0362,0.0275,-0.1266,-2.0475269756712855,-0.0005049873725511134,3.830634117126465,-1.698317050933838,0.004664609208703041,1.840437650680542,-0.7231255334666749,0.0,0.24030381441116333,-2.018348042164938,0.0001254730304935947,0.04701552540063858,0.5559430122375488,-0.0,0.006345221772789955,1.0658090114593506,-0.00019945038366131485,0.024990318343043327
362.0,351.0,-4.2293,3.7137,8.1464,-0.0362,0.0275,-0.1266,-2.0475064716734828,-0.0003655371256172657,3.8087496757507324,-1.6982166767120361,0.0049370089545845985,1.815654993057251,-0.7231332820704957,0.0,0.243394672870636,-2.018327538167135,0.00011990078928647563,0.05187596380710602,0.5559829473495483,-0.0,0.003020464675500989,1.0658130645751953,-0.00018320894741918892,0.03009270317852497
362.0,351.0,-4.2293,3.7137,8.1464,-0.0362,0.0275,-0.1266,-2.047462602654928,-0.0003526128421071917,3.821500778198242,-1.6982290744781494,0.0034467559307813644,1.860519528388977,-0.7231295865825196,0.0,0.24542957544326782,-2.0183361212359827,0.0001124125556088984,0.038460951298475266,0.5559430122375488,-0.0,0.007007899694144726,1.0658611059188843,-0.00016326663899235427,0.008308332413434982
362.0,351.0,-4.2293,3.7137,8.1464,-0.0362,0.0275,-0.1266,-2.0474664173521937,-0.00029486900893971324,3.8330724239349365,-1.6982413530349731,0.0021341717801988125,1.824776291847229,-0.7231094998172303,0.0,0.25231558084487915,-2.0183242003070276,0.00010580480011412874,0.06837514787912369,0.5559350252151489,-0.0,-0.0029509265441447496,1.0658732652664185,-0.00014723990170750767,-0.013596316799521446
362.0,351.0,-4.2293,3.7137,8.1464,-0.0362,0.0275,-0.1266,-2.047490259210104,-0.0002658339508343488,3.839536428451538,-1.6982249021530151,0.0012920454610139132,1.8201327323913574,-0.723105327492096,0.0,0.24539881944656372,-2.01831561723818,0.00010181473044212908,0.05059761554002762,0.5559670329093933,-0.0,0.0021202177740633488,1.0658130645751953,-0.00013819611922372133,0.05959311127662659
362.0,351.0,-4.2293,3.7137,8.1464,-0.0362,0.0275,-0.1266,-2.047490259210104,-0.00023162380966823548,3.8228707313537598,-1.6981680393218994,0.0007528052083216608,1.831446647644043,-0.7231176656535645,0.0,0.25372734665870667,-2.018331829701559,9.636142203817144e-05,0.04084709286689758,0.5559631586074829,-0.0,-0.009033986367285252,1.0658290386199951,-0.00012653801240958273,0.006677830591797829
362.0,351.0,-4.2293,3.7137,8.1464,-0.0362,0.0275,-0.1266,-2.047490259210104,-0.00020521495025604963,3.8390941619873047,-1.6982207298278809,0.0006178289768286049,1.8072423934936523,-0.7231456202319642,0.0,0.24508154392242432,-2.0183361212359827,9.146712545771152e-05,0.04650205373764038,0.5559231042861938,-0.0,0.01018486451357603,1.0658409595489502,-0.00011669378727674484,-0.001055775792337954
362.0,351.0,-4.2293,3.7137,8.1464,-0.0362,0.0275,-0.1266,-2.047446390191549,-0.00019071917631663382,3.7786693572998047,-1.6982414722442627,0.0005174049292691052,1.8616336584091187,-0.7230975788882752,0.0,0.253641277551651,-2.0183242003070276,9.573077841196209e-05,0.04681209474802017,0.5559271574020386,-0.0,-0.015275957994163036,1.0658290386199951,-0.0001109399163397029,0.013977802358567715
362.0,351.0,-4.2293,3.7137,8.1464,-0.0362,0.0275,-0.1266,-2.047474523583883,-0.00020078948000445962,3.7736129760742188,-1.6982166767120361,0.0004151067405473441,1.8052077293395996,-0.7231980723193665,0.0,0.25343167781829834,-2.0183399359332483,9.837771358434111e-05,0.044785141944885254,0.5559231042861938,-0.0,-0.005219404585659504,1.065780758857727,-0.00010329998622182757,-0.006713944021612406
362.0,351.0,-4.2293,3.7137,8.1464,-0.0362,0.0275,-0.1266,-2.0475226841368617,-0.0002108005719492212,3.8306469917297363,-1.6981968879699707,0.0003465862828306854,1.7731069326400757,-0.7231738728335877,0.0,0.25660789012908936,-2.018287483845846,9.397719986736774e-05,0.05170977860689163,0.5559271574020386,-0.0,0.002008122159168124,1.0657967329025269,-9.664435492595658e-05,0.05447601526975632
362.0,351.0,-4.2293,3.7137,8.1464,-0.0362,0.0275,-0.1266,-2.047502656976217,-0.00026439319481141865,3.8003768920898438,-1.6981885433197021,0.0002974829694721848,1.806011438369751,-0.7231176656535645,-1.8342565510920394e-07,0.2526451051235199,-2.0183637777911585,8.995169628178701e-05,0.03537138178944588,0.5559430122375488,-0.0,0.0019387751817703247,1.065845012664795,-9.079452865989879e-05,0.08460138738155365
362.0,351.0,-4.2293,3.7137,8.1464,-0.0362,0.0275,-0.1266,-2.0475264988341273,-0.001048437086865306,3.7687454223632812,-1.6981885433197021,0.00027181190671399236,1.7881414890289307,-0.7231336396983643,-7.819722647184335e-10,0.25420695543289185,-2.018344227467672,8.745428931433707e-05,0.04445347934961319,0.5559272170066833,-0.0,0.015830248594284058,1.0658212900161743,-8.727291424293071e-05,-0.014872794970870018
363.0,348.0,-4.2449,3.984,8.0644,-0.0231,0.0215,-0.1179,-2.047535081902975,-0.001333508756943047,3.7948291301727295,-1.6981885433197021,0.00027487523038871586,1.8226990699768066,-0.7231696409038086,-2.1766483472400455e-13,0.23728600144386292,-2.0183399359332483,8.395751501666382e-05,0.040658436715602875,0.5559271574020386,-0.0,-0.006225944496691227,1.0658735036849976,-8.247431105701253e-05,-0.033002134412527084
363.0,348.0,-4.2449,3.984,8.0644,-0.0231,0.0215,-0.1179,-2.0475064716734828,-0.0014133939985185862,3.768991470336914,-1.6982009410858154,0.00024676049361005425,1.7928532361984253,-0.7231295865825196,-6.058780349595707e-17,0.2444024533033371,-2.0183079878436487,9.20669044717215e-05,0.03526504710316658,0.5559512376785278,-0.0,-0.0005366427358239889,1.065825343132019,-9.381098789162934e-05,0.01705494150519371
363.0,348.0,-4.2449,3.984,8.0644,-0.0231,0.0215,-0.1179,-2.0475546322264613,-0.0014134778175503016,3.777522563934326,-1.6982290744781494,0.00023093086201697588,1.8155909776687622,-0.7231213611415406,-2.58295340527626e-19,0.23744112253189087,-2.01831561723818,8.995685493573546e-05,0.03601344674825668,0.5558993816375732,-0.0,0.0010662783170118928,1.0658212900161743,-0.00010400635801488534,0.027470748871564865
363.0,348.0,-4.2449,3.984,8.0644,-0.0231,0.0215,-0.1179,-2.047542711297506,-0.0011728133540600538,3.8170738220214844,-1.6982372999191284,0.0001404450595146045,1.8792545795440674,-0.7231856745532532,-7.189745816677789e-23,0.2396579086780548,-2.018303696309225,8.670772513141856e-05,0.053158801048994064,0.5558874607086182,-0.0,-0.003070760052651167,1.065808892250061,-0.00010069957352243364,0.06062152236700058
363.0,348.0,-4.2449,3.984,8.0644,-0.0231,0.0215,-0.1179,-2.0475741825499476,-0.0009419129928573966,3.772562265396118,-1.6982088088989258,0.0001540862867841497,1.8188207149505615,-0.7231536668590088,-2.0012918912598995e-26,0.2271192967891693,-2.0183242003070276,8.368442649953067e-05,0.05549526587128639,0.5559750199317932,-0.0,-0.003745666705071926,1.0658007860183716,-9.609186963643879e-05,-0.020893415436148643
363.0,348.0,-4.2449,3.984,8.0644,-0.0231,0.0215,-0.1179,-2.047518869439596,-0.0008360139327123761,3.7746427059173584,-1.6981606483459473,0.000170063620316796,1.8563436269760132,-0.723209874039032,-8.53182030168063e-29,0.22777172923088074,-2.0183122793780726,8.178334246622398e-05,0.03843293339014053,0.5559032559394836,-0.0,-0.004368634428828955,1.0658327341079712,-9.324736311100423e-05,0.01113928109407425
363.0,348.0,-4.2449,3.984,8.0644,-0.0231,0.0215,-0.1179,-2.047542234460348,-0.0007195359794422984,3.8070011138916016,-1.6981689929962158,0.00042876010411418974,1.8211512565612793,-0.723105327492096,-2.374863579656951e-32,0.24214375019073486,-2.01831561723818,2.0320279872976243e-05,0.03839613124728203,0.5559389591217041,-0.0,0.012820357456803322,1.0658130645751953,-8.928297029342502e-05,0.035808101296424866
363.0,348.0,-4.2449,3.984,8.0644,-0.0231,0.0215,-0.1179,-2.047546525994772,-0.0006937946891412139,3.780646324157715,-1.698156476020813,0.00047359324526041746,1.8367215394973755,-0.7231332224658509,-6.610519186135239e-36,0.24160270392894745,-2.0182998816119593,5.656225710026774e-09,0.04321204870939255,0.5559790730476379,-0.0,0.013763582333922386,1.06585693359375,-8.564193558413535e-05,-0.0021913438104093075
363.0,348.0,-4.2449,3.984,8.0644,-0.0231,0.0215,-0.1179,-2.0475622616209925,-0.0006614658050239086,3.7727854251861572,-1.6982372999191284,0.00047210263437591493,1.852865219116211,-0.7231496137431641,-2.8181681571852115e-38,0.24120163917541504,-2.0183242003070276,2.4113372756873197e-11,0.05198611691594124,0.5559033155441284,-0.0,0.0014323759824037552,1.065772533416748,-8.337516919709742e-05,0.033781543374061584
363.0,348.0,-4.2449,3.984,8.0644,-0.0231,0.0215,-0.1179,-2.047598978082174,-0.0009718780056573451,3.7777936458587646,-1.6981804370880127,0.0005076878005638719,1.8326821327209473,-0.7231738132289429,-0.00014253966219257563,0.22757649421691895,-2.01831561723818,6.712047045687739e-15,0.044419169425964355,0.555975079536438,-0.0,0.0016137538477778435,1.0658249855041504,-8.019139204407111e-05,0.013605640269815922
363.0,348.0,-4.2449,3.984,8.0644,-0.0231,0.0215,-0.1179,-2.0476070843138636,-0.0013441249029710889,3.7858901023864746,-1.6981606483459473,0.0005218707374297082,1.8183486461639404,-0.7231577795794983,-0.0001336836867267266,0.22621186077594757,-2.0182998816119593,1.8683230710714717e-18,0.03879143297672272,0.5559588670730591,-0.0,0.001989751122891903,1.0658208131790161,-7.72419007262215e-05,0.0257426667958498
363.0,348.0,-4.2449,3.984,8.0644,-0.0231,0.0215,-0.1179,-2.047642847100729,-0.0016130569856613874,3.788952350616455,-1.698144555091858,0.00048408244038000703,1.8007231950759888,-0.7231734556010743,-0.0001227444299729541,0.24041436612606049,-2.0183399359332483,5.200545701483581e-22,0.05359311401844025,0.5559033155441284,-0.0,0.0038301199674606323,1.0658409595489502,-7.450162229361013e-05,0.05236125737428665
363.0,348.0,-4.2449,3.984,8.0644,-0.0231,0.0215,-0.1179,-2.0475903950133265,-0.0019261533161625266,3.7927377223968506,-1.6981730461120605,0.00045757702901028097,1.8571416139602661,-0.7231332820704957,-0.00011639446165645495,0.24048885703086853,-2.0182912985431116,2.217074444246702e-24,0.06428885459899902,0.5558831691741943,-0.0,0.0014754901640117168,1.0658372640609741,-7.278034900082275e-05,0.0021733830217272043
363.0,348.0,-4.2449,3.984,8.0644,-0.0231,0.0215,-0.1179,-2.04762663463735,-0.0023201685398817062,3.794299602508545,-1.698128581047058,0.0005526950699277222,1.8414523601531982,-0.7231938999942322,-0.00012959014566149563,0.2306581437587738,-2.0183122793780726,6.171307394978574e-28,0.04917621612548828,0.5559508800506592,-0.0,0.0030105425976216793,1.0658327341079712,-7.034251029836014e-05,0.04894549027085304
363.0,348.0,-4.2449,3.984,8.0644,-0.0231,0.0215,-0.1179,-2.047638555566305,-0.0026714231353253126,3.752525806427002,-1.6981327533721924,0.0008172834059223533,1.8204216957092285,-0.7231738132289429,-0.00012090842938050628,0.23702473938465118,-2.0183079878436487,1.7178063185854482e-31,0.03468066826462746,0.555955171585083,-0.0,0.0002821325324475765,1.0658249855041504,-1.2521596204351226e-08,-0.0065064700320363045
363.0,348.0,-4.2449,3.984,8.0644,-0.0231,0.0215,-0.1179,-2.0476585827269496,-0.003039309987798333,3.7843894958496094,-1.6981730461120605,0.0007714267703704536,1.831221103668213,-0.7231536668590088,-0.00011572597577469423,0.22935304045677185,-2.018303696309225,7.32327700021256e-34,0.040375471115112305,0.5559829473495483,-0.0,-0.0019956757314503193,1.0658490657806396,-2.2538429456098186e-12,0.033100541681051254
363.0,348.0,-4.2449,3.984,8.0644,-0.0231,0.0215,-0.1179,-2.0476542911925257,-0.005028978921473026,3.7932043075561523,-1.698152780532837,0.0007470300770364702,1.8178908824920654,-0.7231738132289429,-0.00012684683315455914,0.22270822525024414,-2.0183280150042933,1.3063963422155211e-07,0.05021160468459129,0.5559430122375488,-0.0,-0.005603602156043053,1.0658936500549316,-5.442764885357054e-18,0.06567240506410599
369.0,340.0,-4.3717,3.518,8.1356,-0.048,0.0205,-0.1216,-2.0476824245848597,-0.006219879724085331,3.7344298362731934,-1.6981208324432373,0.0006942981272004545,1.8482732772827148,-0.7231532496264954,-0.00013642714475281537,0.2277962863445282,-2.0183079878436487,3.6364026373414404e-11,0.04649706929922104,0.555875301361084,-0.0,-0.008677978068590164,1.0658608675003052,-1.3143635949054287e-23,0.023602217435836792
369.0,340.0,-4.3717,3.518,8.1356,-0.048,0.0205,-0.1216,-2.0476824245848597,-0.007838979363441467,3.7078347206115723,-1.6981611251831055,0.0006023248424753547,1.8978674411773682,-0.7231655877879639,-0.00013171686441637576,0.22875040769577026,-2.0182955900775355,1.550255556521593e-13,0.04993718862533569,0.555975079536438,-0.0,-0.012644382193684578,1.0658572912216187,-2.3658082992323973e-27,0.009463591501116753
369.0,340.0,-4.3717,3.518,8.1356,-0.048,0.0205,-0.1216,-2.0477458439269007,-0.010529591701924801,3.758906602859497,-1.6981408596038818,0.001267783809453249,1.8383839130401611,-0.7231812042048951,-0.00012486526975408196,0.2211296260356903,-2.0183079878436487,4.315193467919272e-17,0.037017591297626495,0.5559231638908386,-0.0,0.0021480403374880552,1.0658167600631714,-5.713148296784036e-33,0.060052938759326935
369.0,340.0,-4.3717,3.518,8.1356,-0.048,0.0205,-0.1216,-2.0478345356383265,-0.011716666631400585,3.7055091857910156,-1.698096513748169,0.003912368789315224,1.8626539707183838,-0.7231894296458741,-0.00011868999717989936,0.2267111837863922,-2.0182555357562464,1.2011500176198885e-20,0.05946698784828186,0.555931031703949,-0.0,-0.0017853715689852834,1.0658490657806396,-1.379658212140249e-38,0.03481965512037277
369.0,340.0,-4.3717,3.518,8.1356,-0.048,0.0205,-0.1216,-2.0478583774962367,-0.012658638879656792,3.7411088943481445,-1.6980684995651245,0.010112904012203217,1.8595900535583496,-0.723201648598053,-0.00012531322136055678,0.23169071972370148,-2.0182998816119593,5.120691142205358e-23,0.049679189920425415,0.5560106635093689,-0.0,-0.01492505706846714,1.0658209323883057,-2.483100878783576e-42,-0.0033029643818736076
369.0,340.0,-4.3717,3.518,8.1356,-0.048,0.0205,-0.1216,-2.0479618511595667,-0.01506228931248188,3.7447385787963867,-1.6980006694793701,0.014493263326585293,1.89491868019104,-0.7231815618327637,-0.00012499721196945757,0.23632976412773132,-2.0182998816119593,1.425363341434296e-26,0.04594936966896057,0.5559350252151489,-0.0,0.0044440822675824165,1.0658209323883057,0.0,0.08036202192306519
369.0,340.0,-4.3717,3.518,8.1356,-0.048,0.0205,-0.1216,-2.0480901203551234,-0.01856902986764908,3.7175164222717285,-1.697912573814392,0.014313653111457825,1.8768525123596191,-0.7231651705554505,-0.0001153843550127931,0.24140134453773499,-2.0182955900775355,3.9675511023869206e-30,0.053080588579177856,0.5559033155441284,-0.0,0.001356164924800396,1.0658327341079712,0.0,0.03260398283600807
369.0,340.0,-4.3717,3.518,8.1356,-0.048,0.0205,-0.1216,-2.048214098016256,-0.021254492923617363,3.7705492973327637,-1.6978404521942139,0.015541456639766693,1.8569084405899048,-0.7232179802707215,-0.00010714216477936134,0.24083983898162842,-2.018303696309225,1.1043826363983009e-33,0.044391728937625885,0.5559389591217041,-0.0,-0.0025387946516275406,1.0658249855041504,0.0,-0.03793582320213318
369.0,340.0,-4.3717,3.518,8.1356,-0.048,0.0205,-0.1216,-2.0483066044249476,-0.02140379510819912,3.7079687118530273,-1.6977401971817017,0.01634468510746956,1.9025402069091797,-0.7231975954822083,-0.0001022719225147739,0.22487188875675201,-2.0182841459857386,4.7081569277298436e-36,0.05099114030599594,0.5559430122375488,-0.0,-0.01205082330852747,1.065865159034729,0.0,-0.01045572105795145
369.0,340.0,-4.3717,3.518,8.1356,-0.048,0.0205,-0.1216,-2.0484138927855433,-0.02093692496418953,3.7375283241271973,-1.6976524591445923,0.015417424961924553,1.8963221311569214,-0.723193423157074,-9.574366413289681e-05,0.22556591033935547,-2.018299404774801,1.3105321588951057e-39,0.04506200551986694,0.5559113025665283,-0.0,-0.00014535305672325194,1.0657967329025269,0.0,-0.044770415872335434
369.0,340.0,-4.3717,3.518,8.1356,-0.048,0.0205,-0.1216,-2.0485297642149867,-0.019300494343042374,3.7166619300842285,-1.697544813156128,0.015489351935684681,1.8857464790344238,-0.7231414479068299,-0.00010798846051329747,0.2261401265859604,-2.0182841459857386,3.643376007244524e-43,0.05773435905575752,0.5559191703796387,-0.0,0.014916344545781612,1.065873384475708,0.0,0.02300608716905117
369.0,340.0,-4.3717,3.518,8.1356,-0.048,0.0205,-0.1216,-2.048565527001852,-0.018293632194399834,3.737151861190796,-1.6974924802780151,0.014724934473633766,1.9134316444396973,-0.7232139271548768,-0.00010384504275862128,0.2292764037847519,-2.018344227467672,1.401298464324817e-45,0.04485767334699631,0.5559350252151489,-0.0,-0.0006382409483194351,1.0658774375915527,0.0,-0.07220809906721115
369.0,340.0,-4.3717,3.518,8.1356,-0.048,0.0205,-0.1216,-2.0487333736815394,-0.01820150949060917,3.7551755905151367,-1.6973966360092163,0.012770664878189564,1.8700122833251953,-0.7231770914844056,-0.00011032443580916151,0.22524824738502502,-2.0182998816119593,0.0,0.061233051121234894,0.5559192299842834,-0.0,0.0015287919668480754,1.065845012664795,0.0,0.017453830689191818
369.0,340.0,-4.3717,3.518,8.1356,-0.048,0.0205,-0.1216,-2.0488130054869593,-0.018020547926425934,3.742135763168335,-1.6973365545272827,0.011843106709420681,1.8536560535430908,-0.7232179802707215,-0.00010861831106012687,0.20493651926517487,-2.0182955900775355,0.0,0.04382069408893585,0.5558752417564392,-0.0,0.010391412302851677,1.0658090114593506,0.0,-0.021580886095762253
369.0,340.0,-4.3717,3.518,8.1356,-0.048,0.0205,-0.1216,-2.0488769016661585,-0.017466051504015923,3.7080025672912598,-1.6973286867141724,0.011112791486084461,1.906968116760254,-0.7232139271548768,-0.0001049988204613328,0.2204892635345459,-2.018331829701559,0.0,0.04416632652282715,0.5559508800506592,-0.0,-0.010312694124877453,1.0658290386199951,0.0,-0.040195614099502563
369.0,340.0,-4.3717,3.518,8.1356,-0.048,0.0205,-0.1216,-2.048980852166647,-0.01777697540819645,3.6911778450012207,-1.6972529888153076,0.009965705685317516,1.8480470180511475,-0.7231852573207398,-9.999892063206062e-05,0.22506365180015564,-2.018263641987936,0.0,0.04635116830468178,0.5558954477310181,-0.0,0.0009453899692744017,1.065845012664795,0.0,0.009379062801599503
369.0,340.0,-4.3717,3.518,8.1356,-0.048,0.0205,-0.1216,-2.0490929088988246,-0.01788508892059326,3.7409591674804688,-1.6971240043640137,0.008926798589527607,1.9324753284454346,-0.723177508716919,-9.545353532303125e-05,0.20841073989868164,-2.018344227467672,0.0,0.04923129454255104,0.5559192299842834,-0.0,0.002440043492242694,1.065845012664795,0.0,-0.0063280463218688965
366.0,337.0,-4.1665,3.734,8.0124,-0.0421,0.0209,-0.1167,-2.049181123773092,-0.017789261415600777,3.678196430206299,-1.6971690654754639,0.008903187699615955,1.9016751050949097,-0.7231655877879639,-0.00010247417958453298,0.21554554998874664,-2.0183242003070276,0.0,0.06521276384592056,0.5559191703796387,-0.0,-0.012138627469539642,1.0658693313598633,0.0,-0.01692606322467327
366.0,337.0,-4.1665,3.734,8.0124,-0.0421,0.0209,-0.1167,-2.049305101434225,-0.017944544553756714,3.7373404502868652,-1.6970967054367065,0.00856061838567257,1.8984665870666504,-0.7231975358775635,-0.00010140654194401577,0.21226754784584045,-2.0182717482196253,0.0,0.05148346349596977,0.5559670925140381,-0.0,0.008419987745583057,1.065780758857727,0.0,0.04397466406226158
366.0,337.0,-4.1665,3.734,8.0124,-0.0421,0.0209,-0.1167,-2.049397131005758,-0.01823008619248867,3.720548152923584,-1.6970127820968628,0.008647486567497253,1.9295973777770996,-0.7232217353633423,-9.729648445500061e-05,0.19350087642669678,-2.0182884375201624,0.0,0.045903146266937256,0.5559670925140381,-0.0,0.014207293279469013,1.0657967329025269,0.0,0.03020027093589306
366.0,337.0,-4.1665,3.734,8.0124,-0.0421,0.0209,-0.1167,-2.0494805775084437,-0.018443787470459938,3.7227683067321777,-1.6970086097717285,0.0077838110737502575,1.878957986831665,-0.7231652301600953,-0.00010123984247911721,0.21510979533195496,-2.0182798544513147,0.0,0.05271953344345093,0.5559508800506592,-0.0,0.0022602376993745565,1.0659055709838867,0.0,0.026636868715286255
366.0,337.0,-4.1665,3.734,8.0124,-0.0421,0.0209,-0.1167,-2.049572607079977,-0.01855432242155075,3.6846184730529785,-1.6969929933547974,0.00772307300940156,1.91197669506073,-0.7232093972018738,-9.744439739733934e-05,0.20471680164337158,-2.018283192311422,0.0,0.03768303990364075,0.5559310913085938,-0.0,0.003671522717922926,1.0658570528030396,0.0,0.03298734128475189
366.0,337.0,-4.1665,3.734,8.0124,-0.0421,0.0209,-0.1167,-2.049636026422018,-0.018808795139193535,3.7159171104431152,-1.6969609260559082,0.008024988695979118,1.9148300886154175,-0.7232543987086792,-9.150257392320782e-05,0.21113461256027222,-2.018348042164938,0.0,0.04572822153568268,0.5559868812561035,-0.0,-0.006381131708621979,1.0658528804779053,0.0,-0.011373469606041908
366.0,337.0,-4.1665,3.734,8.0124,-0.0421,0.0209,-0.1167,-2.049756189385885,-0.01859457977116108,3.680133819580078,-1.6968573331832886,0.008690833114087582,1.8853873014450073,-0.7231611174396058,-0.00010341339657315984,0.19557777047157288,-2.018287483845846,0.0,0.037957578897476196,0.5558633804321289,-0.0,0.002293018624186516,1.0658369064331055,0.0,0.02822871133685112
366.0,337.0,-4.1665,3.734,8.0124,-0.0421,0.0209,-0.1167,-2.0498844585814417,-0.01858234964311123,3.7296924591064453,-1.6968247890472412,0.009242299012839794,1.9194364547729492,-0.7231812042048951,-9.966923971660435e-05,0.1885545700788498,-2.0183079878436487,0.0,0.046819526702165604,0.5559790134429932,-0.0,0.007536478340625763,1.0658693313598633,-1.1619267326068439e-07,0.012360842898488045
366.0,337.0,-4.1665,3.734,8.0124,-0.0421,0.0209,-0.1167,-2.0499922237791957,-0.017747895792126656,3.635824680328369,-1.6967806816101074,0.010044442489743233,1.8929665088653564,-0.723189191227295,-9.444013267057016e-05,0.2043602168560028,-2.0183122793780726,0.0,0.03523014485836029,0.5559670329093933,-0.0,-0.0026452564634382725,1.0658732652664185,-2.805916035544115e-13,0.06585931032896042
366.0,337.0,-4.1665,3.734,8.0124,-0.0421,0.0209,-0.1167,-2.0500718555846156,-0.017727484926581383,3.7173750400543213,-1.696744441986084,0.011450043879449368,1.9251172542572021,-0.7231934827617188,-0.0001046788165695034,0.19946803152561188,-2.018316094075338,0.0,0.0405142717063427,0.5559592247009277,-0.0,0.005043591372668743,1.0658290386199951,-6.775957521207758e-19,0.056589603424072266
366.0,337.0,-4.1665,3.734,8.0124,-0.0421,0.0209,-0.1167,-2.0501157246031703,-0.017111223191022873,3.6697158813476562,-1.6966408491134644,0.012293427251279354,1.9360065460205078,-0.723193423157074,-0.00010132011084351689,0.201959490776062,-2.018316094075338,0.0,0.03082966059446335,0.5559231638908386,-0.0,0.005711108446121216,1.065848708152771,-1.2196483792313437e-22,0.06108756363391876
366.0,337.0,-4.1665,3.734,8.0124,-0.0421,0.0209,-0.1167,-2.0502878628172816,-0.01561712846159935,3.720900297164917,-1.6965765953063965,0.014970633201301098,1.8927651643753052,-0.7232057613185425,-9.665665857028216e-05,0.1846117377281189,-2.0183242003070276,0.0,0.03684783726930618,0.5559350252151489,-0.0,-0.005451386794447899,1.0657886266708374,-2.945306849099414e-28,0.03930002823472023
366.0,337.0,-4.1665,3.734,8.0124,-0.0421,0.0209,-0.1167,-2.050319810906881,-0.014428329654037952,3.7057151794433594,-1.6965008974075317,0.017543209716677666,1.9656955003738403,-0.7232015889934083,-9.240365034202114e-05,0.18755394220352173,-2.0183079878436487,0.0,0.03334704041481018,0.5559592247009277,-0.0,-0.001067508477717638,1.0658167600631714,-7.112568719472704e-34,0.045598044991493225
366.0,337.0,-4.1665,3.734,8.0124,-0.0421,0.0209,-0.1167,-2.0504161320128382,-0.013697327114641666,3.7353973388671875,-1.6963642835617065,0.020754773169755936,1.9063618183135986,-0.7232135099223633,-8.977027755463496e-05,0.2039777934551239,-2.0183079878436487,0.0,0.038618072867393494,0.5559670925140381,-0.0,0.004292812664061785,1.0658609867095947,-1.2802373752909903e-37,0.11746624112129211
366.0,337.0,-4.1665,3.734,8.0124,-0.0421,0.0209,-0.1167,-2.0504514179625453,-0.01286283414810896,3.674623966217041,-1.6962647438049316,0.024522235617041588,1.9294804334640503,-0.7232057017138978,-8.60901564010419e-05,0.18976496160030365,-2.018303696309225,0.0,0.03185434639453888,0.5559430122375488,-0.0,-0.0037313259672373533,1.0658814907073975,-3.0968696061578457e-43,0.03342558071017265
366.0,337.0,-4.1665,3.734,8.0124,-0.0421,0.0209,-0.1167,-2.050535341302389,-0.01333155483007431,3.728480339050293,-1.696152925491333,0.02863209880888462,1.980776071548462,-0.723209874039032,-8.269986574305221e-05,0.1978270709514618,-2.0183280150042933,0.0,0.03391827270388603,0.5558792352676392,-0.0,0.008429450914263725,1.0658855438232422,0.0,0.10607942938804626
376.0,347.0,-4.3681,3.8285,8.3563,-0.0394,0.0316,-0.118,-2.05059876064443,-0.013031509704887867,3.6760759353637695,-1.6958556175231934,0.03428107500076294,1.9809714555740356,-0.7232139271548768,-7.956651825224981e-05,0.19506819546222687,-2.0183122793780726,0.0,0.04176275432109833,0.5559310913085938,-0.0,0.004170368425548077,1.065845012664795,0.0,0.10083077102899551
376.0,347.0,-4.3681,3.8285,8.3563,-0.0394,0.0316,-0.118,-2.0506750545897425,-0.013107599690556526,3.676543951034546,-1.6957241296768188,0.037226270884275436,1.963914394378662,-0.7232057613185425,-7.76062734075822e-05,0.1964077651500702,-2.0182679335223597,0.0,0.01918054185807705,0.5559269785881042,-0.0,-0.0009055471746250987,1.065901517868042,0.0,0.10542084276676178
376.0,347.0,-4.3681,3.8285,8.3563,-0.0394,0.0316,-0.118,-2.050747057000631,-0.013788246549665928,3.732853889465332,-1.6954888105392456,0.043883275240659714,1.9989845752716064,-0.7231775683215638,-7.484048546757549e-05,0.19854728877544403,-2.0183079878436487,0.0,0.0280440766364336,0.555955171585083,-0.0,0.017718449234962463,1.0658209323883057,0.0,0.08799968659877777
376.0,347.0,-4.3681,3.8285,8.3563,-0.0394,0.0316,-0.118,-2.050875326196188,-0.014835027977824211,3.748281478881836,-1.695148229598999,0.0511176623404026,1.9543063640594482,-0.7231651705554505,-7.22651238902472e-05,0.1993054449558258,-2.0182798544513147,0.0,0.041153743863105774,0.5558993220329285,-0.0,0.006195550784468651,1.0658369064331055,0.0,0.06147576868534088
376.0,347.0,-4.3681,3.8285,8.3563,-0.0394,0.0316,-0.118,-2.0509354076781214,-0.014730578288435936,3.7229387760162354,-1.69503653049469,0.05669160559773445,1.9900290966033936,-0.7231852573207398,-7.064449891913682e-05,0.2049095332622528,-2.0183561483966272,0.0,0.043922267854213715,0.5559388399124146,-0.0,3.186892718076706e-05,1.0658650398254395,0.0,0.08619997650384903
376.0,347.0,-4.3681,3.8285,8.3563,-0.0394,0.0316,-0.118,-2.0510393581786097,-0.01601255126297474,3.697983503341675,-1.6946403980255127,0.06584623456001282,1.9908359050750732,-0.7231574219516297,-5.875397164345486e-07,0.2073947787284851,-2.0182717482196253,0.0,0.02851896733045578,0.5559310913085938,-0.0,-0.0002724521327763796,1.0658166408538818,0.0,0.10378797352313995
376.0,347.0,-4.3681,3.8285,8.3563,-0.0394,0.0316,-0.118,-2.0510465107359828,-0.016779420897364616,3.7207658290863037,-1.6941680908203125,0.07705533504486084,2.0065526962280273,-0.7232098144343873,-1.6354384513306286e-10,0.19408416748046875,-2.018263641987936,0.0,0.043108899146318436,0.5559511780738831,-0.0,0.006359450984746218,1.065889596939087,0.0,0.0912502259016037
376.0,347.0,-4.3681,3.8285,8.3563,-0.0394,0.0316,-0.118,-2.051094194451803,-0.019009385257959366,3.667874813079834,-1.6938557624816895,0.08621952682733536,1.9744422435760498,-0.7232057613185425,-6.97213174780803e-13,0.20362508296966553,-2.0182717482196253,0.0,0.04525114968419075,0.5559594035148621,-0.0,0.006799499969929457,1.0658369064331055,0.0,0.06186644360423088
376.0,347.0,-4.3681,3.8285,8.3563,-0.0394,0.0316,-0.118,-2.0512906513609828,-0.023404324427247047,3.6276087760925293,-1.6932710409164429,0.09836846590042114,2.006453514099121,-0.7231975358775635,-1.9407185800266027e-16,0.1910434365272522,-2.0183079878436487,0.0,0.0289175882935524,0.5559430122375488,-0.0,0.010659104213118553,1.0658732652664185,0.0,0.0814533680677414
376.0,347.0,-4.3681,3.8285,8.3563,-0.0394,0.0316,-0.118,-2.0514384708800257,-0.026999041438102722,3.66355037689209,-1.692651391029358,0.1087837815284729,2.0376620292663574,-0.723177508716919,-5.402060671581815e-20,0.2018062025308609,-2.018348042164938,0.0,0.05124212056398392,0.5559471249580383,-0.0,-0.008530467748641968,1.0658608675003052,0.0,0.10105112195014954
376.0,347.0,-4.3681,3.8285,8.3563,-0.0394,0.0316,-0.118,-2.0515667400755824,-0.030374709516763687,3.680860996246338,-1.6921913623809814,0.1139090284705162,2.0391461849212646,-0.723193423157074,-2.3029831086534346e-22,0.191491961479187,-2.0182955900775355,0.0,0.029135268181562424,0.5559753179550171,-0.0,0.003163359360769391,1.0658369064331055,0.0,0.08338035643100739
376.0,347.0,-4.3681,3.8285,8.3563,-0.0394,0.0316,-0.118,-2.0516940555968226,-0.03489677608013153,3.646169424057007,-1.6914232969284058,0.11894586682319641,2.0064635276794434,-0.72316928327594,-6.410438406519075e-26,0.19598132371902466,-2.0183079878436487,0.0,0.03920681029558182,0.5559511780738831,-0.0,-0.00563731137663126,1.065848708152771,0.0,0.05279285088181496
376.0,347.0,-4.3681,3.8285,8.3563,-0.0394,0.0316,-0.118,-2.0519100628294886,-0.03749158978462219,3.598893165588379,-1.6907156705856323,0.12772329151630402,2.0625782012939453,-0.7232057613185425,-1.7843691281866361e-29,0.19898688793182373,-2.0183122793780726,0.0,0.045323409140110016,0.5559388399124146,-0.0,0.0029277116991579533,1.0658608675003052,0.0,0.06276729702949524
376.0,347.0,-4.3681,3.8285,8.3563,-0.0394,0.0316,-0.118,-2.0521379909911097,-0.04008901119232178,3.6236109733581543,-1.689859390258789,0.1392415314912796,2.067223072052002,-0.7231975358775635,-4.966856688147721e-33,0.19025006890296936,-2.018276039754049,0.0,0.034097179770469666,0.5558950304985046,-0.0,-0.004775249864906073,1.0658369064331055,0.0,0.06293480098247528
376.0,347.0,-4.3681,3.8285,8.3563,-0.0394,0.0316,-0.118,-2.052293916741842,-0.042539846152067184,3.6187591552734375,-1.689339280128479,0.14658015966415405,2.0835824012756348,-0.7232098144343873,-2.1174488825203622e-35,0.18508949875831604,-2.018320385609762,0.0,0.04402434825897217,0.5559351444244385,-0.0,9.247474372386932e-05,1.0658445358276367,0.0,0.08451005816459656
376.0,347.0,-4.3681,3.8285,8.3563,-0.0394,0.0316,-0.118,-2.052605768243307,-0.04668499529361725,3.610642194747925,-1.6883995532989502,0.16094143688678741,2.149965763092041,-0.7231852573207398,-5.89399726690122e-39,0.21547365188598633,-2.018316094075338,0.0,0.035543493926525116,0.5558786988258362,-0.0,0.006985992193222046,1.0658568143844604,0.0,0.05512023717164993
376.0,347.0,-4.3681,3.8285,8.3563,-0.0394,0.0316,-0.118,-2.052852769891256,-0.052416373044252396,3.6536026000976562,-1.6873188018798828,0.17384952306747437,2.123852252960205,-0.7232015889934083,-1.6409205017243608e-42,0.20131659507751465,-2.0182998816119593,0.0,0.04626964405179024,0.555955171585083,-0.0,0.00954277440905571,1.0658608675003052,0.0,0.050270963460206985
357.0,340.0,-4.7874,4.1569,8.141,-0.0443,0.1168,-0.1545,-2.053152700463766,-0.05576024204492569,3.6400182247161865,-1.6865707635879517,0.17982065677642822,2.1431870460510254,-0.7232094568065186,-7.006492321624085e-45,0.19136720895767212,-2.0182912985431116,0.0,0.033806443214416504,0.5559028387069702,-0.0,0.0056822835467755795,1.065873146057129,0.0,0.060011375695466995
357.0,340.0,-4.7874,4.1569,8.141,-0.0443,0.1168,-0.1545,-2.0534402332701625,-0.062497761100530624,3.654416561126709,-1.6854462623596191,0.18655382096767426,2.1521360874176025,-0.7231975358775635,-5.2021132432855666e-05,0.19893747568130493,-2.0182912985431116,0.0,0.03903466463088989,0.5559871792793274,-0.0,-0.00016839310410432518,1.0658326148986816,0.0,0.07829216122627258
357.0,340.0,-4.7874,4.1569,8.141,-0.0443,0.1168,-0.1545,-2.053856512109274,-0.06478065252304077,3.612879753112793,-1.6843106746673584,0.19529293477535248,2.204547166824341,-0.7232135099223633,-5.18737178936135e-05,0.19596847891807556,-2.018320385609762,0.0,0.04366758465766907,0.555934727191925,-0.0,0.000643653329461813,1.0658369064331055,0.0,0.0741657242178917
357.0,340.0,-4.7874,4.1569,8.141,-0.0443,0.1168,-0.1545,-2.0540839634337367,-0.06609208881855011,3.6290299892425537,-1.6834776401519775,0.2031071037054062,2.152082920074463,-0.7232094568065186,-5.952523497398943e-05,0.19458824396133423,-2.0182955900775355,0.0,0.03491206839680672,0.5558584332466125,-0.0,0.004791371524333954,1.0658327341079712,0.0,0.0778074562549591
357.0,340.0,-4.7874,4.1569,8.141,-0.0443,0.1168,-0.1545,-2.0544916592040003,-0.0704927146434784,3.6439993381500244,-1.6822267770767212,0.2180738002061844,2.195218324661255,-0.7232175630382081,-1.9689923647092655e-06,0.19338029623031616,-2.0182717482196253,0.0,0.05043662339448929,0.5560073256492615,-0.0,0.004921830724924803,1.0658608675003052,0.0,0.08357466012239456
357.0,340.0,-4.7874,4.1569,8.141,-0.0443,0.1168,-0.1545,-2.05492701152944,-0.07482334226369858,3.6258740425109863,-1.6808463335037231,0.22697259485721588,2.188342809677124,-0.7232497495463868,-0.000334004609612748,0.18842405080795288,-2.0182674566852015,0.0,0.03672296553850174,0.5559310913085938,-0.0,-0.012819584459066391,1.0658650398254395,0.0,0.06590945273637772
357.0,340.0,-4.7874,4.1569,8.141,-0.0443,0.1168,-0.1545,-2.0552388630309046,-0.07408098876476288,3.607006072998047,-1.6798458099365234,0.23174160718917847,2.1759438514709473,-0.7232051652720948,-0.0004218757676426321,0.1934438943862915,-2.0183242003070276,0.0,0.036471888422966,0.5559753179550171,-0.0,-0.007814649492502213,1.0658931732177734,0.0,0.10112257301807404
357.0,340.0,-4.7874,4.1569,8.141,-0.0443,0.1168,-0.1545,-2.055658002892965,-0.07608558237552643,3.648512363433838,-1.6784703731536865,0.24456626176834106,2.239504337310791,-0.7232657235911866,-0.0006065972265787423,0.19019240140914917,-2.0183079878436487,0.0,0.040236201137304306,0.5559269785881042,-0.0,-0.0007129036821424961,1.065848708152771,0.0,0.05434296280145645
357.0,340.0,-4.7874,4.1569,8.141,-0.0443,0.1168,-0.1545,-2.0561334095396937,-0.07714357227087021,3.645449638366699,-1.6769055128097534,0.25564005970954895,2.272324323654175,-0.7232415837100525,-0.0016850943211466074,0.1789255142211914,-2.018287483845846,0.0,0.044221602380275726,0.5559593439102173,-0.0,-0.001493546413257718,1.065873146057129,0.0,0.0394098237156868
357.0,340.0,-4.7874,4.1569,8.141,-0.0443,0.1168,-0.1545,-2.0566655598082484,-0.0829029306769371,3.6367428302764893,-1.675402283668518,0.2620590031147003,2.25966739654541,-0.723346011047699,-0.003991773817688227,0.19799518585205078,-2.0182841459857386,0.0,0.042220987379550934,0.5559794306755066,-0.0,0.007035371847450733,1.065848708152771,0.0,0.11282335966825485
357.0,340.0,-4.7874,4.1569,8.141,-0.0443,0.1168,-0.1545,-2.0569569073119105,-0.08783570677042007,3.642728805541992,-1.674370288848877,0.2706891894340515,2.2976722717285156,-0.7233095926097413,-0.008409194648265839,0.1709161400794983,-2.0183079878436487,0.0,0.038016535341739655,0.5559110045433044,-0.0,-0.0031507492531090975,1.0658650398254395,0.0,0.06889808923006058
357.0,340.0,-4.7874,4.1569,8.141,-0.0443,0.1168,-0.1545,-2.0575767956175746,-0.09719211608171463,3.6468324661254883,-1.6727138757705688,0.2841360569000244,2.2588491439819336,-0.7234863799861451,-0.025929724797606468,0.16486716270446777,-2.0182884375201624,0.0,0.05056534335017204,0.5559110045433044,-0.0,0.003113668877631426,1.065848708152771,0.0,0.08314169943332672
357.0,340.0,-4.7874,4.1569,8.141,-0.0443,0.1168,-0.1545,-2.058075567285055,-0.10479987412691116,3.6060009002685547,-1.6709212064743042,0.2951747477054596,2.3108394145965576,-0.723597840671875,-0.024536479264497757,0.1649438738822937,-2.0183447043048304,1.3483174370776396e-05,0.05888368934392929,0.5559675097465515,-0.0,-0.00019585434347391129,1.065845012664795,0.0,0.04503408819437027
357.0,340.0,-4.7874,4.1569,8.141,-0.0443,0.1168,-0.1545,-2.058491369287008,-0.1136186495423317,3.5960869789123535,-1.6697492599487305,0.30045363306999207,2.3396799564361572,-0.7237342160991211,-0.0221481304615736,0.16174975037574768,-2.018219296132223,5.748087872348151e-08,0.05145972594618797,0.5559471249580383,-0.0,0.004757553804665804,1.0658774375915527,0.0,0.03524574264883995
357.0,340.0,-4.7874,4.1569,8.141,-0.0443,0.1168,-0.1545,-2.059214254418844,-0.12261343747377396,3.6602606773376465,-1.667876958847046,0.31666508316993713,2.359921932220459,-0.7238060396960755,-0.015110095962882042,0.17112082242965698,-2.0182436148272913,1.6000013813854963e-11,0.03895421326160431,0.5559068322181702,-0.0,0.0062293075025081635,1.0659174919128418,0.0,0.03418860584497452
357.0,340.0,-4.7874,4.1569,8.141,-0.0443,0.1168,-0.1545,-2.06002201656484,-0.12567174434661865,3.593512535095215,-1.6659126281738281,0.32990264892578125,2.35880708694458,-0.7238739293864747,-0.008738566190004349,0.1610957831144333,-2.0182717482196253,4.453662390729906e-15,0.056553930044174194,0.5559471249580383,-0.0,0.0077437288127839565,1.0658931732177734,0.0,0.05007301643490791
357.0,340.0,-4.7874,4.1569,8.141,-0.0443,0.1168,-0.1545,-2.0605174503722132,-0.12379597872495651,3.6599440574645996,-1.6646217107772827,0.33574408292770386,2.339552164077759,-0.7238333386233826,-0.005384671036154032,0.1878194510936737,-2.0182841459857386,1.8986662066095094e-17,0.053451575338840485,0.5559471249580383,-0.0,-0.007790897972881794,1.065901517868042,0.0,0.060144416987895966
402.0,321.0,-4.6558,3.6138,7.6558,-0.0696,0.2083,-0.2187,-2.061288972894186,-0.11992832273244858,3.6803765296936035,-1.6625607013702393,0.3521520793437958,2.406196355819702,-0.7239054602435608,-0.0022918584290891886,0.1870090365409851,-2.0182116667376917,5.285007587101529e-21,0.051962848752737045,0.5559511780738831,-0.0,-0.005559853743761778,1.065873384475708,0.0,0.05813227593898773
402.0,321.0,-4.6558,3.6138,7.6558,-0.0696,0.2083,-0.2187,-2.0621124706664027,-0.1261776089668274,3.6613712310791016,-1.6605045795440674,0.35882771015167236,2.422543525695801,-0.7239495676806946,-0.003722989233210683,0.18944185972213745,-2.018263641987936,1.4711013426446147e-24,0.050422847270965576,0.55592280626297,-0.0,0.004216467961668968,1.0658491849899292,2.635097553138621e-05,0.008416974917054176
402.0,321.0,-4.6558,3.6138,7.6558,-0.0696,0.2083,-0.2187,-2.0629030666747035,-0.14278745651245117,3.6713333129882812,-1.6583410501480103,0.3558483421802521,2.358271837234497,-0.7240019005588074,-0.009069313295185566,0.18900680541992188,-2.018292252217428,4.094864580990017e-28,0.04922846332192421,0.5559110045433044,-0.0,0.007153436075896025,1.0658491849899292,1.108774813474156e-05,0.012597709894180298
402.0,321.0,-4.6558,3.6138,7.6558,-0.0696,0.2083,-0.2187,-2.0634905300536097,-0.15587317943572998,3.6259970664978027,-1.6568174362182617,0.3596493601799011,2.3896853923797607,-0.7240013641170044,-0.011484399437904358,0.17755931615829468,-2.018235508595602,1.7457052193892202e-30,0.07031141221523285,0.5558950304985046,-0.0,-0.009719252586364746,1.0658409595489502,4.1429208863519307e-07,0.08294253796339035
402.0,321.0,-4.6558,3.6138,7.6558,-0.0696,0.2083,-0.2187,-2.0644294224181117,-0.16774332523345947,3.616528034210205,-1.6546220779418945,0.36891409754753113,2.417931318283081,-0.7241419714740296,-0.013292739167809486,0.19337120652198792,-2.018264118825094,4.859235129377652e-34,0.05572734773159027,0.5559670925140381,-0.0,-0.011047772131860256,1.0658414363861084,1.000466636619235e-12,0.06399375945329666
402.0,321.0,-4.6558,3.6138,7.6558,-0.0696,0.2083,-0.2187,-2.065396925012106,-0.17157772183418274,3.589930772781372,-1.652237892150879,0.3772556483745575,2.45344877243042,-0.7241494816592713,-0.013568535447120667,0.19343048334121704,-2.018247906361715,1.352585966588572e-37,0.05360383540391922,0.5560113787651062,-0.0,0.005908431019634008,1.0657609701156616,-0.0018558009760454297,-0.009678414091467857
402.0,321.0,-4.6558,3.6138,7.6558,-0.0696,0.2083,-0.2187,-2.066092153588766,-0.16320845484733582,3.6552982330322266,-1.6506822109222412,0.3896079361438751,2.4299440383911133,-0.7242507499507447,-0.012575767934322357,0.19274646043777466,-2.018264118825094,5.766287128758049e-40,0.05654872581362724,0.5559352040290833,-0.0,-0.002014043740928173,1.0658495426177979,-0.0016974377213045955,-0.055801086127758026
402.0,321.0,-4.6558,3.6138,7.6558,-0.0696,0.2083,-0.2187,-2.06705441097402,-0.15101678669452667,3.693896532058716,-1.6483107805252075,0.3979994058609009,2.443033218383789,-0.7243260902217408,-0.01355152390897274,0.20094817876815796,-2.0182159582721155,1.6114932339735396e-43,0.06113545969128609,0.5559347867965698,-0.0,0.004054118413478136,1.065825343132019,-0.0010312256636098027,-0.054765742272138596
402.0,321.0,-4.6558,3.6138,7.6558,-0.0696,0.2083,-0.2187,-2.0680414638915003,-0.1518261432647705,3.6821157932281494,-1.6459434032440186,0.40288957953453064,2.475660562515259,-0.7244585913470765,-0.019594945013523102,0.1725674718618393,-2.018276039754049,0.0,0.05852193385362625,0.5558868050575256,-0.0,0.006968670524656773,1.0658372640609741,-0.0006553603452630341,-0.03308549523353577
402.0,321.0,-4.6558,3.6138,7.6558,-0.0696,0.2083,-0.2187,-2.0687085590758265,-0.16066080331802368,3.7319135665893555,-1.6442832946777344,0.40264031291007996,2.3866899013519287,-0.72456248224292,-0.027328962460160255,0.19338446855545044,-2.018276039754049,0.0,0.07674194872379303,0.5559430122375488,-0.0,-0.0006095406133681536,1.0658774375915527,-0.0005272913840599358,-0.06794998049736023
402.0,321.0,-4.6558,3.6138,7.6558,-0.0696,0.2083,-0.2187,-2.069728036920065,-0.178575798869133,3.647446870803833,-1.6419039964675903,0.4090428352355957,2.4743523597717285,-0.7247182291797181,-0.040891166776418686,0.20192167162895203,-2.018247906361715,0.0,0.06467791646718979,0.5559675097465515,-0.0,-0.0019945481326431036,1.065825343132019,-0.0004077903286088258,-0.08248742669820786
402.0,321.0,-4.6558,3.6138,7.6558,-0.0696,0.2083,-0.2187,-2.0707580051817835,-0.1862010359764099,3.638998031616211,-1.6394206285476685,0.4140031337738037,2.486201524734497,-0.7250229877284546,-0.05984606221318245,0.1836862415075302,-2.0182841459857386,0.0001044018572429195,0.05900231748819351,0.5559430122375488,-0.0,0.007639819756150246,1.0657527446746826,-0.0005221954197622836,-0.09901491552591324
402.0,321.0,-4.6558,3.6138,7.6558,-0.0696,0.2083,-0.2187,-2.07150997738027,-0.18147481977939606,3.6836304664611816,-1.6377484798431396,0.41627079248428345,2.4496607780456543,-0.7252992552569886,-0.07194902747869492,0.1876295506954193,-2.018247906361715,0.00010048349213320762,0.09385187923908234,0.5558949708938599,-0.0,-0.0026120173279196024,1.0658012628555298,-0.0036438105162233114,-0.1316780000925064
402.0,321.0,-4.6558,3.6138,7.6558,-0.0696,0.2083,-0.2187,-2.07260861019277,-0.17332452535629272,3.715850830078125,-1.6352375745773315,0.43119320273399353,2.5237927436828613,-0.7257997554591675,-0.08666913211345673,0.18978044390678406,-2.018219772969381,0.00011299135803710669,0.06245145946741104,0.5559232234954834,-0.0,0.004860826767981052,1.065732717514038,-0.004188096150755882,-0.08293818682432175
402.0,321.0,-4.6558,3.6138,7.6558,-0.0696,0.2083,-0.2187,-2.0736471615233363,-0.17170663177967072,3.6789612770080566,-1.6326855421066284,0.43201521039009094,2.4709300994873047,-0.7263840001872559,-0.09679388254880905,0.17260798811912537,-2.0182555357562464,0.00010633641795720905,0.08339029550552368,0.5559593439102173,-0.0,-0.00026444916147738695,1.0657291412353516,-0.00287181930616498,-0.09205032140016556
402.0,321.0,-4.6558,3.6138,7.6558,-0.0696,0.2083,-0.2187,-2.074726720849508,-0.17370371520519257,3.717268705368042,-1.630094051361084,0.4411174952983856,2.528648853302002,-0.726972298031189,-0.09638369828462601,0.17938515543937683,-2.0182722250567835,0.00010040494817076251,0.078761987388134,0.55591881275177,-0.0,3.914115950465202e-06,1.0657451152801514,-0.0018641460919752717,-0.13019375503063202
471.0,302.0,-5.0118,3.7657,8.2834,-0.0712,0.2437,-0.2022,-2.07537378887319,-0.17975491285324097,3.7335050106048584,-1.628330111503601,0.4378465712070465,2.4909932613372803,-0.7273481053164979,-0.09292815625667572,0.18971997499465942,-2.01825982729067,9.680497169028968e-05,0.08470385521650314,0.5559110045433044,-0.0,0.0022704689763486385,1.065688967704773,-0.0016042263014242053,-0.15506748855113983
471.0,302.0,-5.0118,3.7657,8.2834,-0.0712,0.2437,-0.2022,-2.0765162907042445,-0.18717584013938904,3.7755722999572754,-1.6256146430969238,0.4400826692581177,2.5121288299560547,-0.7278359097293396,-0.09700590372085571,0.1733333021402359,-2.0182679335223597,9.186437091557309e-05,0.07292695343494415,0.555955171585083,-0.0,0.014033159241080284,1.0656931400299072,-0.0024038185365498066,-0.10593070089817047
471.0,302.0,-5.0118,3.7657,8.2834,-0.0712,0.2437,-0.2022,-2.0776754818358363,-0.19027724862098694,3.718416690826416,-1.6229426860809326,0.4405263662338257,2.513756275177002,-0.728585497742035,-0.12419454753398895,0.1810447871685028,-2.0182436148272913,8.74035176821053e-05,0.057751089334487915,0.5559794306755066,-0.0,0.006720767356455326,1.0656895637512207,-0.003260214813053608,-0.09409735351800919
471.0,302.0,-5.0118,3.7657,8.2834,-0.0712,0.2437,-0.2022,-2.0783425770201625,-0.19124023616313934,3.786496639251709,-1.621183156967163,0.4418262541294098,2.4353840351104736,-0.7291577619365235,-0.14291472733020782,0.16662824153900146,-2.0182436148272913,8.466292638331652e-05,0.07830911874771118,0.5559269785881042,-0.0,0.0079728402197361,1.0657297372817993,-0.004351532552391291,-0.07626576721668243
471.0,302.0,-5.0118,3.7657,8.2834,-0.0712,0.2437,-0.2022,-2.0794650516905726,-0.1877642273902893,3.747152805328369,-1.6184883117675781,0.44958293437957764,2.482691764831543,-0.7300540965846558,-0.15143218636512756,0.14403143525123596,-2.0182679335223597,8.08596596471034e-05,0.0723591074347496,0.5559675097465515,-0.0,-0.005025822669267654,1.0656453371047974,-0.005247799679636955,-0.12310977280139923
471.0,302.0,-5.0118,3.7657,8.2834,-0.0712,0.2437,-0.2022,-2.080583711663717,-0.1841178685426712,3.756030559539795,-1.6157642602920532,0.44963839650154114,2.505035161972046,-0.7309467953494568,-0.14369705319404602,0.16844958066940308,-2.018247906361715,7.738333806628361e-05,0.06759554147720337,0.5559191703796387,-0.0,0.0067670913413167,1.065621256828308,-0.006063914392143488,-0.11394964158535004
471.0,302.0,-5.0118,3.7657,8.2834,-0.0712,0.2437,-0.2022,-2.0812584362425746,-0.1795330047607422,3.7908217906951904,-1.6139967441558838,0.45049944519996643,2.4774997234344482,-0.7314497989467164,-0.14117564260959625,0.15681010484695435,-2.018252197896139,7.522736268583685e-05,0.06827516853809357,0.5559593439102173,-0.0,-0.0077509889379143715,1.0656089782714844,-0.005910337436944246,-0.13832223415374756
471.0,302.0,-5.0118,3.7657,8.2834,-0.0712,0.2437,-0.2022,-2.0823856792845667,-0.17589963972568512,3.8469791412353516,-1.6113176345825195,0.4545757472515106,2.5340559482574463,-0.7323671740344544,-0.1537548154592514,0.15751774609088898,-2.018296543751852,7.220948464237154e-05,0.082881860435009,0.5559110045433044,-0.0,-0.0034034629352390766,1.065589189529419,-0.005503417458385229,-0.13620057702064514
471.0,302.0,-5.0118,3.7657,8.2834,-0.0712,0.2437,-0.2022,-2.083432813683981,-0.17671267688274384,3.800348997116089,-1.608717679977417,0.4543994069099426,2.555237054824829,-0.7333633464625855,-0.16457775235176086,0.1511385142803192,-2.018252197896139,8.096948295133188e-05,0.07039504498243332,0.5558990836143494,-0.0,0.005101189017295837,1.0655691623687744,-0.0054796477779746056,-0.12355554103851318
471.0,302.0,-5.0118,3.7657,8.2834,-0.0712,0.2437,-0.2022,-2.084139963189596,-0.18196210265159607,3.8150134086608887,-1.6069144010543823,0.4512714743614197,2.486959934234619,-0.7340477269938965,-0.16206000745296478,0.14700111746788025,-2.0182116667376917,7.896474562585354e-05,0.06399816274642944,0.5558909773826599,-0.0,0.004356201738119125,1.0654685497283936,-0.006740210577845573,-0.09445150196552277
471.0,302.0,-5.0118,3.7657,8.2834,-0.0712,0.2437,-0.2022,-2.0852471790709437,-0.18447183072566986,3.8388547897338867,-1.6042108535766602,0.4549045264720917,2.5088050365448,-0.7349642676166077,-0.15659700334072113,0.16205959022045135,-2.0182440916644495,7.610316970385611e-05,0.06283746659755707,0.5559552907943726,-0.0,0.007306529209017754,1.0654653310775757,-0.008171092718839645,-0.14667117595672607
471.0,302.0,-5.0118,3.7657,8.2834,-0.0712,0.2437,-0.2022,-2.086282869378561,-0.1816573590040207,3.824493885040283,-1.6015042066574097,0.45288294553756714,2.463383913040161,-0.7359690827182312,-0.18180197477340698,0.1391027569770813,-2.0182278792010706,7.344166078837588e-05,0.0738358125090599,0.5559310913085938,-0.0,0.005064504686743021,1.0653928518295288,-0.009100321680307388,-0.14131128787994385
471.0,302.0,-5.0118,3.7657,8.2834,-0.0712,0.2437,-0.2022,-2.0873147449889125,-0.1733541041612625,3.83685564994812,-1.598796010017395,0.46207910776138306,2.5605690479278564,-0.7371372741511841,-0.1911444514989853,0.12770810723304749,-2.0182841459857386,7.09600790287368e-05,0.08051248639822006,0.5559834837913513,-0.0,0.005094639956951141,1.0653170347213745,-0.008916659280657768,-0.16003093123435974
471.0,302.0,-5.0118,3.7657,8.2834,-0.0712,0.2437,-0.2022,-2.0880514583983363,-0.16982430219650269,3.8452978134155273,-1.5969129800796509,0.4574964642524719,2.437351703643799,-0.7379375261119385,-0.18880856037139893,0.13456955552101135,-2.0183127562152308,3.5175700759282336e-05,0.06748030334711075,0.5559430122375488,-0.0,0.0052597494795918465,1.0653085708618164,-0.008700819686055183,-0.1453251838684082
471.0,302.0,-5.0118,3.7657,8.2834,-0.0712,0.2437,-0.2022,-2.0890633068480433,-0.17250052094459534,3.8142762184143066,-1.59419846534729,0.4552631080150604,2.5476980209350586,-0.7390784186175843,-0.19538404047489166,0.1379077136516571,-2.01825982729067,9.791286004201538e-09,0.08191949129104614,0.5559072494506836,-0.0,-0.0075720688328146935,1.0653014183044434,-0.008585603907704353,-0.18633881211280823
471.0,302.0,-5.0118,3.7657,8.2834,-0.0712,0.2437,-0.2022,-2.09014429668569,-0.18478178977966309,3.8058459758758545,-1.5914480686187744,0.45003071427345276,2.5126664638519287,-0.740274505024292,-0.20777791738510132,0.13453517854213715,-2.0182316938983362,2.7254405329801834e-12,0.07125484943389893,0.5559753179550171,-0.0,0.0046304017305374146,1.0651849508285522,-0.007680021692067385,-0.17484743893146515
471.0,302.0,-5.0118,3.7657,8.2834,-0.0712,0.2437,-0.2022,-2.0909248791136683,-0.1898490935564041,3.7985029220581055,-1.5896104574203491,0.4479982256889343,2.4932618141174316,-0.7411232155612488,-0.20160773396492004,0.1327844262123108,-2.018207375203268,1.1618980483415944e-14,0.07051224261522293,0.555878758430481,-0.0,0.005846080370247364,1.065169095993042,-0.007515141740441322,-0.15049904584884644
610.0,299.0,-4.6558,4.3173,7.9699,-0.02,0.0796,-0.1839,-2.0919887028136195,-0.18137124180793762,3.914327383041382,-1.5868878364562988,0.45035454630851746,2.485290050506592,-0.7422675055316468,-0.20158782601356506,0.13960149884223938,-2.018219772969381,3.2341856188052637e-18,0.0813734382390976,0.555927038192749,-0.0,0.0009296766947954893,1.0651007890701294,-0.009196148253977299,-0.1905916929244995
610.0,299.0,-4.6558,4.3173,7.9699,-0.02,0.0796,-0.1839,-2.0930572948851527,-0.16717027127742767,3.8913440704345703,-1.5842443704605103,0.44814127683639526,2.5351877212524414,-0.7435441774180909,-0.21267955005168915,0.1357845664024353,-2.0182278792010706,9.002474591930435e-22,0.06214851140975952,0.5558868646621704,-0.0,-0.00675681559368968,1.0650689601898193,-0.009917599149048328,-0.14269697666168213
610.0,299.0,-4.6558,4.3173,7.9699,-0.02,0.0796,-0.1839,-2.093773981133932,-0.16800624132156372,3.8614110946655273,-1.5824754238128662,0.4447527527809143,2.4735193252563477,-0.7444286507419129,-0.20948749780654907,0.13564734160900116,-2.018240276967184,3.8378962618911546e-24,0.07584521919488907,0.5559552311897278,-0.0,0.0022937594912946224,1.065049171447754,-0.009855631738901138,-0.12283097207546234
