ramyac6/ROB537/final_project/csv/all/bad_5.csv
tof_0,tof_1,accelx,accely,accelz,gyrox,gyroy,gyroz,shoulder_lift_joint_position,shoulder_lift_joint_velocity,shoulder_lift_joint_effort,elbow_joint_position,elbow_joint_velocity,elbow_joint_effort,wrist_1_joint_position,wrist_1_joint_velocity,wrist_1_joint_effort,wrist_2_joint_position,wrist_2_joint_velocity,wrist_2_joint_effort,wrist_3_joint_position,wrist_3_joint_velocity,wrist_3_joint_effort,shoulder_pan_joint_position,shoulder_pan_joint_velocity,shoulder_pan_joint_effort
328.0,806.0,-0.5264,5.1805,8.1864,-0.0408,0.0304,-0.1188,-1.7479568920531214,0.0,2.8081579208374023,-1.813998818397522,7.232915959320962e-05,2.092228889465332,-1.3995578002980729,0.0,0.289056658744812,-2.0702407995807093,8.224813063861802e-05,0.036889128386974335,0.3942967653274536,0.0,0.016352396458387375,1.0778048038482666,-0.00024347033468075097,-0.15520869195461273
328.0,806.0,-0.5264,5.1805,8.1864,-0.0408,0.0304,-0.1188,-1.7479526005186976,0.0,2.8050642013549805,-1.8140184879302979,7.04421108821407e-05,2.115114212036133,-1.399513141517975,0.0,0.30358946323394775,-2.0702407995807093,8.015520870685577e-05,0.05420125275850296,0.3943086862564087,0.0,0.0380559042096138,1.07774817943573,-0.0002280521730426699,-0.14784066379070282
328.0,806.0,-0.5264,5.1805,8.1864,-0.0408,0.0304,-0.1188,-1.7479201755919398,0.0,2.8115158081054688,-1.8140192031860352,8.008674922166392e-05,2.059638023376465,-1.3995376688293,0.0,0.287139356136322,-2.0702694098102015,7.816622382961214e-05,0.04823051393032074,0.3942844569683075,0.0,0.03571995347738266,1.077768325805664,-0.00021446567552629858,-0.16843706369400024
328.0,806.0,-0.5264,5.1805,8.1864,-0.0408,0.0304,-0.1188,-1.7479931316771449,0.0,2.767582416534424,-1.8140144348144531,7.715052925050259e-05,2.1255645751953125,-1.3995495450547715,0.0,0.3054696023464203,-2.0702407995807093,7.536114571848884e-05,0.05478355288505554,0.39428046345710754,0.0,0.013956679031252861,1.0777806043624878,-0.00019687310850713402,-0.12903237342834473
328.0,806.0,-0.5264,5.1805,8.1864,-0.0408,0.0304,-0.1188,-1.747932573358053,0.0,2.79662823677063,-1.8140349388122559,8.604721369920298e-05,2.0835323333740234,-1.3995172393373032,0.0,0.2943390905857086,-2.070277516041891,7.360040035564452e-05,0.053150877356529236,0.39427223801612854,0.0,0.019356658682227135,1.0777642726898193,-0.0001735649857437238,-0.15274062752723694
328.0,806.0,-0.5264,5.1805,8.1864,-0.0408,0.0304,-0.1188,-1.7479688129820765,0.0,2.798978328704834,-1.8140110969543457,8.405472908634692e-05,2.0859193801879883,-1.3995659363320847,0.0,0.2835160493850708,-2.0702651182757776,7.191994518507272e-05,0.05196012929081917,0.3943127691745758,0.0,0.021410685032606125,1.0777802467346191,-0.00015524450282100588,-0.14671726524829865
328.0,806.0,-0.5264,5.1805,8.1864,-0.0408,0.0304,-0.1188,-1.7479120693602503,0.0,2.7727134227752686,-1.8139946460723877,8.121060818666592e-05,2.069138765335083,-1.3995094758323212,0.0,0.28349950909614563,-2.0702818075763147,6.953845149837434e-05,0.039326488971710205,0.3943004608154297,0.0,0.03099636733531952,1.0777926445007324,-0.000140683026984334,-0.15460649132728577
328.0,806.0,-0.5264,5.1805,8.1864,-0.0408,0.0304,-0.1188,-1.7479444942870082,0.0,2.786198139190674,-1.8140628337860107,7.9419078247156e-05,2.1672515869140625,-1.3994892996600647,0.0,0.2793135643005371,-2.070249382649557,2.9645332233485533e-07,0.052084095776081085,0.3943045437335968,0.0,0.021234281361103058,1.077731966972351,-0.0001578175142640248,-0.13800229132175446
328.0,806.0,-0.5264,5.1805,8.1864,-0.0408,0.0304,-0.1188,-1.7479201755919398,0.0,2.791632652282715,-1.8140069246292114,1.9178771071270972e-10,2.113115072250366,-1.3994929951480408,0.0,0.28009822964668274,-2.070261303578512,8.251885286192362e-11,0.05103214830160141,0.39428046345710754,0.0,0.029999688267707825,1.0777482986450195,-0.00014599751739297062,-0.07946678251028061
328.0,806.0,-0.5264,5.1805,8.1864,-0.0408,0.0304,-0.1188,-1.7479120693602503,0.0,2.7997426986694336,-1.8140184879302979,3.452111236841929e-14,2.1196112632751465,-1.3995778423598786,0.0,0.29078102111816406,-2.070245091115133,3.517908349608828e-13,0.06108389422297478,0.39430907368659973,0.0,0.03543565049767494,1.0777400732040405,-0.00016148369468282908,-0.13592210412025452
332.0,814.0,-0.5444,4.9908,8.2475,-0.0461,0.0203,-0.1081,-1.7479526005186976,0.0,2.8043832778930664,-1.8140184879302979,6.213678191102387e-18,2.0866525173187256,-1.399517224436142,0.0,0.2811414301395416,-2.0702818075763147,1.4997397016286375e-15,0.059525266289711,0.3942927122116089,0.0,0.0360044501721859,1.0777323246002197,-0.00017536371888127178,-0.18675005435943604
332.0,814.0,-0.5444,4.9908,8.2475,-0.0461,0.0203,-0.1081,-1.747988840142721,0.0,2.7904701232910156,-1.8139780759811401,1.5005301931443372e-23,2.1342010498046875,-1.3995094758323212,0.0,0.3001992106437683,-2.0702651182757776,4.1745804772444694e-19,0.04526189714670181,0.39427638053894043,0.0,0.027127854526042938,1.077764630317688,-0.0002489575126674026,-0.12343086302280426
332.0,814.0,-0.5444,4.9908,8.2475,-0.0461,0.0203,-0.1081,-1.747972150842184,0.0,2.7855043411254883,-1.8139946460723877,7.985111005837098e-05,2.0884594917297363,-1.399529443388321,0.0,0.3028393089771271,-2.070228878651754,1.779688983379034e-21,0.0424906387925148,0.39427220821380615,0.0,0.028690263628959656,1.077768325805664,-0.0002749290724750608,-0.1463506519794464
332.0,814.0,-0.5444,4.9908,8.2475,-0.0461,0.0203,-0.1081,-1.7480093441405238,0.0,2.8270342350006104,-1.8140184879302979,7.595914212288335e-05,2.1463186740875244,-1.3995417666486283,0.0,0.2845628559589386,-2.070257012044088,4.953829548039018e-25,0.02977127395570278,0.39424020051956177,0.0,0.02835305593907833,1.0777199268341064,-0.000282549619441852,-0.1274872124195099
332.0,814.0,-0.5444,4.9908,8.2475,-0.0461,0.0203,-0.1081,-1.7479764423766078,0.0,2.7815911769866943,-1.8140184879302979,7.347856444539502e-05,2.124603271484375,-1.399505303507187,0.0,0.29295384883880615,-2.0702737013446253,2.111895428701334e-27,0.04263530671596527,0.3942844569683075,0.0,0.03144002705812454,1.077728271484375,-0.0002597685088403523,-0.1447748839855194
332.0,814.0,-0.5444,4.9908,8.2475,-0.0461,0.0203,-0.1081,-1.7479483089842738,0.0,2.768983840942383,-1.8140267133712769,7.115490006981418e-05,2.0991668701171875,-1.3995213073543091,0.0,0.2921346426010132,-2.0702818075763147,9.003340313286988e-30,0.043878693133592606,0.39428046345710754,0.0,0.020426221191883087,1.0777360200881958,-0.0002399771474301815,-0.0989176481962204
332.0,814.0,-0.5444,4.9908,8.2475,-0.0461,0.0203,-0.1081,-1.7479688129820765,0.0,2.778512954711914,-1.8140027523040771,6.793249485781416e-05,2.058856248855591,-1.3994852614453812,0.0,0.2880803346633911,-2.070245091115133,2.5061129973218305e-33,0.05198086425662041,0.3942849040031433,0.0,0.025450635701417923,1.0777605772018433,-0.00024612617562524974,-0.07286456227302551
332.0,814.0,-0.5444,4.9908,8.2475,-0.0461,0.0203,-0.1081,-1.7479807339110316,0.0,2.780397891998291,-1.8140267133712769,7.759097206871957e-05,2.0496370792388916,-1.3994971078685303,0.0,0.29161086678504944,-2.070277516041891,1.0683953647239499e-35,0.027596771717071533,0.39425620436668396,0.0,0.03408888354897499,1.0777360200881958,-0.00023038021754473448,-0.10522754490375519
332.0,814.0,-0.5444,4.9908,8.2475,-0.0461,0.0203,-0.1081,-1.7479244671263636,0.0,2.8138484954833984,-1.8140110969543457,7.579781959066167e-05,2.109203815460205,-1.3995295625976105,0.0,0.28973978757858276,-2.070245091115133,2.973918277599522e-39,0.0366375669836998,0.39422449469566345,0.0,0.03024231642484665,1.0777605772018433,-0.000210202531889081,-0.10880172997713089
332.0,814.0,-0.5444,4.9908,8.2475,-0.0461,0.0203,-0.1081,-1.7479483089842738,0.0,2.794808864593506,-1.8140233755111694,8.60137733980082e-05,2.1099486351013184,-1.3994892847589036,0.0,0.29413849115371704,-2.0702369848834437,1.2678948505210945e-41,0.04252712428569794,0.39428043365478516,0.0,0.020936721935868263,1.0777239799499512,-0.00019860573229379952,-0.12871046364307404
332.0,814.0,-0.5444,4.9908,8.2475,-0.0461,0.0203,-0.1081,-1.7479244671263636,0.0,2.818060874938965,-1.8140069246292114,9.567213419359177e-05,2.0749778747558594,-1.399557815199234,0.0,0.2851964235305786,-2.0702369848834437,5.465064010866787e-44,0.04928739368915558,0.394296795129776,0.0,0.024614281952381134,1.0777523517608643,-0.00018822180572897196,-0.11782775819301605
332.0,814.0,-0.5444,4.9908,8.2475,-0.0461,0.0203,-0.1081,-1.7479483089842738,0.0,2.8246614933013916,-1.8139986991882324,0.00019327907648403198,2.104320764541626,-1.3995135587504883,0.0,0.2892633080482483,-2.0702250639544886,0.0,0.03922749310731888,0.394296795129776,0.0,0.016722537577152252,1.0777442455291748,-0.00017453389591537416,-0.1147918701171875
332.0,814.0,-0.5444,4.9908,8.2475,-0.0461,0.0203,-0.1081,-1.7479526005186976,0.0,2.7799057960510254,-1.8140110969543457,0.00021357310470193624,2.0995302200317383,-1.3995295625976105,0.0,0.2731079161167145,-2.070233170186178,0.0,0.03425147384405136,0.3942967355251312,0.0,0.036431893706321716,1.0777846574783325,-0.00016646352014504373,-0.15816956758499146
332.0,814.0,-0.5444,4.9908,8.2475,-0.0461,0.0203,-0.1081,-1.7479568920531214,0.0,2.8332653045654297,-1.8140389919281006,0.00019093540322501212,2.0875191688537598,-1.399517224436142,0.0,0.3016519844532013,-2.0702407995807093,0.0,0.041792601346969604,0.39430052042007446,0.0,0.016532039269804955,1.0776880979537964,-0.00015229130804073066,-0.10213612020015717
332.0,814.0,-0.5444,4.9908,8.2475,-0.0461,0.0203,-0.1081,-1.7479688129820765,0.0,2.7655134201049805,-1.8140389919281006,0.00017832472804002464,2.1041505336761475,-1.399557815199234,0.0,0.2893297076225281,-2.070249382649557,0.0,0.034798189997673035,0.39427638053894043,0.0,0.03189394623041153,1.0777802467346191,-0.0001426368107786402,-0.11380668729543686
332.0,814.0,-0.5444,4.9908,8.2475,-0.0461,0.0203,-0.1081,-1.7479483089842738,0.0,2.825657844543457,-1.813970685005188,0.00019511075515765697,2.049722671508789,-1.3995418113521119,0.0,0.2929867208003998,-2.070257012044088,0.0,0.028789371252059937,0.39426809549331665,0.0,0.02749093994498253,1.0777688026428223,-0.00013413329725153744,-0.07188467681407928
332.0,814.0,-0.5444,4.9908,8.2475,-0.0461,0.0203,-0.1081,-1.7479402027525843,0.0,2.8139004707336426,-1.8139946460723877,0.00020371806749608368,2.080460548400879,-1.3995418113521119,0.0,0.28790655732154846,-2.070228878651754,0.0,0.04170355945825577,0.39439308643341064,0.0,0.028638597577810287,1.0777523517608643,-0.00012312302715145051,-0.09468084573745728
332.0,814.0,-0.5444,4.9908,8.2475,-0.0461,0.0203,-0.1081,-1.7479564152159632,0.0,2.7472357749938965,-1.8140349388122559,0.00019312291988171637,2.0854651927948,-1.3995094758323212,0.0,0.2862233519554138,-2.070245091115133,0.0,0.05257008224725723,0.3942122757434845,0.0,0.03555368632078171,1.0777442455291748,-0.00011673520202748477,-0.09876156598329544
332.0,814.0,-0.5444,4.9908,8.2475,-0.0461,0.0203,-0.1081,-1.7480088673033656,0.0,2.805753231048584,-1.8140389919281006,0.00023420940851792693,2.1031508445739746,-1.399533526306488,0.0,0.30283820629119873,-2.070228878651754,0.0,0.0295867919921875,0.39426037669181824,0.0,0.01880609802901745,1.0777605772018433,-0.00010830636892933398,-0.0643845945596695
330.0,854.0,-0.454,5.2469,7.9244,-0.042,0.0252,-0.119,-1.7479640446104945,0.0,2.790958881378174,-1.8139305114746094,0.0002495224180165678,2.1074705123901367,-1.3994892698577424,0.0,0.2826912999153137,-2.0702369848834437,0.0,0.05505102872848511,0.39433252811431885,0.0,0.028142906725406647,1.0777039527893066,-0.00010333229874959216,-0.10055656731128693
330.0,854.0,-0.454,5.2469,7.9244,-0.042,0.0252,-0.119,-1.7479931316771449,0.0,2.766019821166992,-1.8139829635620117,0.00023262175091076642,2.0363361835479736,-1.3995295625976105,0.0,0.28999313712120056,-2.07029372850527,0.0,0.04307123273611069,0.3942681550979614,0.0,0.04059780761599541,1.077756404876709,-9.879517165245488e-05,-0.10553131997585297
330.0,854.0,-0.454,5.2469,7.9244,-0.042,0.0252,-0.119,-1.7479964695372523,-8.841578846841003e-07,2.762962818145752,-1.8140069246292114,0.0002059990947600454,2.1401727199554443,-1.3995254796794434,0.0,0.2948814034461975,-2.070245091115133,0.0,0.03888571634888649,0.39428046345710754,0.0,0.027470499277114868,1.0777605772018433,-9.269025031244382e-05,-0.08546838909387589
330.0,854.0,-0.454,5.2469,7.9244,-0.042,0.0252,-0.119,-1.7479602299132289,-1.5914528028737607e-10,2.7771480083465576,-1.813962459564209,0.00022314295347314328,2.1337225437164307,-1.3995295625976105,0.0,0.2999488413333893,-2.0702737013446253,0.0,0.04046700894832611,0.3943004608154297,0.0,0.03669920191168785,1.0777080059051514,-8.902292756829411e-05,-0.1401120275259018
330.0,854.0,-0.454,5.2469,7.9244,-0.042,0.0252,-0.119,-1.7480007610716761,-3.8431713878698084e-16,2.80745267868042,-1.8139582872390747,0.00020183341985102743,2.054248332977295,-1.3995418113521119,0.0,0.2793915271759033,-2.070245091115133,0.0,0.04512758180499077,0.39424845576286316,0.0,0.03648369014263153,1.077784776687622,-8.403555693803355e-05,-0.14682506024837494
330.0,854.0,-0.454,5.2469,7.9244,-0.042,0.0252,-0.119,-1.7479845486082972,-0.0006796875968575478,2.7831602096557617,-1.8139666318893433,0.00018967976211570203,2.09639835357666,-1.3995135587504883,0.0,0.28787752985954285,-2.070245091115133,0.0,0.02987838163971901,0.3942885398864746,0.0,0.027090299874544144,1.0777240991592407,-8.100994455162436e-05,-0.09431453049182892
330.0,854.0,-0.454,5.2469,7.9244,-0.042,0.0252,-0.119,-1.747972150842184,-0.0007046079845167696,2.7841544151306152,-1.8139822483062744,0.00017890632443595678,2.133549690246582,-1.399545894270279,0.0,0.2906785309314728,-2.0702407995807093,0.0,0.0462040975689888,0.3942844867706299,0.0,0.034322768449783325,1.0777523517608643,-7.819461461622268e-05,-0.12749260663986206
330.0,854.0,-0.454,5.2469,7.9244,-0.042,0.0252,-0.119,-1.7479807339110316,-0.0009552029659971595,2.768561363220215,-1.8139584064483643,0.00018808826280292124,2.0750436782836914,-1.399557815199234,0.0,0.2792206108570099,-2.070245091115133,0.0,0.041700005531311035,0.3942967653274536,0.0,0.03440334275364876,1.0777846574783325,-7.432039274135605e-05,-0.08952561765909195
330.0,854.0,-0.454,5.2469,7.9244,-0.042,0.0252,-0.119,-1.7480246029295863,-0.001206318149343133,2.783834457397461,-1.8139863014221191,0.00017904221022035927,2.1069703102111816,-1.3995418113521119,0.0,0.29132989048957825,-2.070261303578512,0.0,0.03977936878800392,0.39432084560394287,0.0,0.030317354947328568,1.0777842998504639,-7.194401405286044e-05,-0.08547236025333405
330.0,854.0,-0.454,5.2469,7.9244,-0.042,0.0252,-0.119,-1.7480689487852992,-0.001639450783841312,2.7679734230041504,-1.813951015472412,0.00019319872080814093,2.11073637008667,-1.3995213073543091,0.0,0.2840349078178406,-2.0702818075763147,0.0,0.04139844328165054,0.3943127989768982,0.0,0.028653031215071678,1.077756404876709,-6.865139584988356e-05,-0.0687701553106308
330.0,854.0,-0.454,5.2469,7.9244,-0.042,0.0252,-0.119,-1.7480808697142542,-0.002183633390814066,2.7891664505004883,-1.8139584064483643,0.00022093630104791373,2.1145527362823486,-1.3995176416686554,0.0,0.2880133092403412,-2.070261303578512,0.0,0.032658785581588745,0.3943045437335968,0.0,0.018138283863663673,1.077756404876709,-6.661876977887005e-05,-0.10276082158088684
330.0,854.0,-0.454,5.2469,7.9244,-0.042,0.0252,-0.119,-1.7480079136290492,-0.0026398508343845606,2.7753357887268066,-1.8139264583587646,0.0002379795623710379,2.1017773151397705,-1.3995016378215333,0.0,0.29079240560531616,-2.070204559956686,0.0,0.036914192140102386,0.39426037669181824,0.0,0.03411643207073212,1.0777807235717773,-6.470306107075885e-05,-0.06549012660980225
330.0,854.0,-0.454,5.2469,7.9244,-0.042,0.0252,-0.119,-1.7480727634825648,-0.0037731658667325974,2.790858030319214,-1.8139830827713013,0.0007746279588900506,2.1008870601654053,-1.3995336604169388,0.0,0.2845093011856079,-2.070261303578512,0.0,0.03296526148915291,0.39426812529563904,0.0,0.031439390033483505,1.0777723789215088,-6.20275386609137e-05,-0.1224951446056366
330.0,854.0,-0.454,5.2469,7.9244,-0.042,0.0252,-0.119,-1.7480727634825648,-0.004669548477977514,2.7817461490631104,-1.813987135887146,0.001403852365911007,2.1539647579193115,-1.3995335561088105,0.0,0.2986094653606415,-2.0702407995807093,0.0,0.04385388642549515,0.39428460597991943,0.0,0.03224491700530052,1.0777240991592407,-6.0363428929122165e-05,-0.10688528418540955
330.0,854.0,-0.454,5.2469,7.9244,-0.042,0.0252,-0.119,-1.74810852626943,-0.005557729862630367,2.808966636657715,-1.813918948173523,0.002207439625635743,2.0945472717285156,-1.3995418113521119,0.0,0.2921029329299927,-2.0702818075763147,0.0,0.04743041843175888,0.39428046345710754,0.0,0.027544844895601273,1.0777323246002197,-5.8028283092426136e-05,-0.115724578499794
330.0,854.0,-0.454,5.2469,7.9244,-0.042,0.0252,-0.119,-1.7481323681273402,-0.006294864229857922,2.829679489135742,-1.8139065504074097,0.00250518461689353,2.0872974395751953,-1.399557815199234,0.0,0.3058236539363861,-2.070245091115133,0.0,0.03973967581987381,0.39422041177749634,0.0,0.03098083660006523,1.0777482986450195,-5.6569348089396954e-05,-0.09029214829206467
330.0,854.0,-0.454,5.2469,7.9244,-0.042,0.0252,-0.119,-1.748192926446432,-0.006047444883733988,2.7965188026428223,-1.813894271850586,0.0029008358251303434,2.1060361862182617,-1.3995135587504883,0.0,0.27823972702026367,-2.0702737013446253,0.0,0.033605143427848816,0.39432430267333984,0.0,0.03717401623725891,1.077784776687622,-5.518203761312179e-05,-0.10815740376710892
330.0,854.0,-0.454,5.2469,7.9244,-0.042,0.0252,-0.119,-1.748232980767721,-0.006596858147531748,2.7851271629333496,-1.8138909339904785,0.0028425054624676704,2.0821022987365723,-1.399505303507187,0.0,0.29618483781814575,-2.070257012044088,0.0,0.02884022891521454,0.3942521810531616,0.0,0.021462272852659225,1.0777240991592407,-5.3224062867229804e-05,-0.10256689786911011
330.0,854.0,-0.454,5.2469,7.9244,-0.042,0.0252,-0.119,-1.7482811413206996,-0.006039782892912626,2.799117088317871,-1.8139311075210571,0.0027339605148881674,2.054779291152954,-1.3995499920896073,0.0,0.30427688360214233,-2.0702407995807093,0.0,0.047590404748916626,0.39430490136146545,0.0,0.0359756276011467,1.0777807235717773,-5.199414590606466e-05,-0.11350198090076447
330.0,854.0,-0.454,5.2469,7.9244,-0.042,0.0252,-0.119,-1.7482482395567835,-0.005847920197993517,2.7980592250823975,-1.8138062953948975,0.0022580688819289207,2.055809736251831,-1.399517224436142,0.0,0.2951233386993408,-2.070233170186178,0.0,0.027112528681755066,0.3943087160587311,0.0,0.022692885249853134,1.0777723789215088,-5.9903173678321764e-05,-0.07766132801771164
324.0,834.0,-0.4445,5.3821,8.0758,-0.0344,0.0194,-0.1174,-1.7483331165709437,-0.005549371708184481,2.807124376296997,-1.8138670921325684,0.0018760242965072393,2.1148622035980225,-1.3995213073543091,0.0,0.2955211400985718,-2.070249382649557,0.0,0.033744633197784424,0.39426812529563904,0.0,0.015959663316607475,1.077720046043396,-8.000319553502777e-07,-0.1242426186800003
324.0,834.0,-0.4445,5.3821,8.0758,-0.0344,0.0194,-0.1174,-1.748312612573141,-0.0052778227254748344,2.780233860015869,-1.8139146566390991,0.001384498318657279,2.076035976409912,-1.3995295625976105,0.0,0.29347315430641174,-2.0702818075763147,0.0,0.03428054600954056,0.39425626397132874,0.0,0.03119760937988758,1.077708125114441,-1.4400292069893794e-10,-0.09643200039863586
324.0,834.0,-0.4445,5.3821,8.0758,-0.0344,0.0194,-0.1174,-1.7483655414977015,-0.004811788909137249,2.8261899948120117,-1.8139106035232544,0.00105510582216084,2.0995590686798096,-1.3995418113521119,0.0,0.29559266567230225,-2.070257012044088,0.0,0.04354100301861763,0.3942967653274536,0.0,0.03441794961690903,1.077748417854309,-3.4775009117930225e-16,-0.07310298085212708
324.0,834.0,-0.4445,5.3821,8.0758,-0.0344,0.0194,-0.1174,-1.7484499416747035,-0.004811382386833429,2.7646632194519043,-1.8139030933380127,0.000763012794777751,2.1019070148468018,-1.3995254796794434,0.0,0.29927682876586914,-2.070261303578512,0.0,0.036580927670001984,0.3942641615867615,0.0,0.04455810412764549,1.0777240991592407,-6.25937909276533e-20,-0.0925273448228836
324.0,834.0,-0.4445,5.3821,8.0758,-0.0344,0.0194,-0.1174,-1.7484289608397425,-0.004144906997680664,2.7871251106262207,-1.8138474225997925,0.0004926898400299251,2.0737829208374023,-1.3995536428740998,0.0,0.3003295660018921,-2.070261303578512,0.0,0.04296662658452988,0.3943447470664978,0.0,0.029399266466498375,1.077776551246643,-1.5115662092969594e-25,-0.12157022953033447
324.0,834.0,-0.4445,5.3821,8.0758,-0.0344,0.0194,-0.1174,-1.7484408817686976,-0.004523675423115492,2.774449348449707,-1.8138432502746582,0.0004848328826483339,2.054105758666992,-1.3995495599559327,0.0,0.290902704000473,-2.0702489058123987,0.0,0.04124011844396591,0.3943086862564087,0.0,0.027734439820051193,1.0777723789215088,-2.720765746334155e-29,-0.1448553502559662
324.0,834.0,-0.4445,5.3821,8.0758,-0.0344,0.0194,-0.1174,-1.7485133610167445,-0.004399803467094898,2.7766923904418945,-1.8138556480407715,0.0004767619539052248,2.1017446517944336,-1.3995135587504883,0.0,0.3025921881198883,-2.070257012044088,0.0,0.033334940671920776,0.3943086862564087,0.0,0.03307301178574562,1.0777400732040405,-4.8972824836004114e-33,-0.09392853081226349
324.0,834.0,-0.4445,5.3821,8.0758,-0.0344,0.0194,-0.1174,-1.7484647236266078,-0.004506726283580065,2.7939581871032715,-1.8138867616653442,0.00044611384510062635,2.106187343597412,-1.3995131266168137,0.0,0.2987217307090759,-2.0702694098102015,0.0,0.02980131283402443,0.3942927122116089,0.0,0.03621596097946167,1.07771635055542,-1.1826362085755654e-38,-0.12026990950107574
324.0,834.0,-0.4445,5.3821,8.0758,-0.0344,0.0194,-0.1174,-1.7484933338561,-0.004244104493409395,2.778613567352295,-1.8138474225997925,0.00036676257150247693,2.137147903442383,-1.399537743335106,0.0,0.29298490285873413,-2.070245091115133,0.0,0.04516284167766571,0.3943086862564087,0.0,0.03130846843123436,1.0777605772018433,-2.128572367309397e-42,-0.1111430823802948
324.0,834.0,-0.4445,5.3821,8.0758,-0.0344,0.0194,-0.1174,-1.7485534153380335,-0.004105328116565943,2.808826208114624,-1.8138948678970337,0.0004689254565164447,2.0882270336151123,-1.3995254796794434,0.0,0.2869959771633148,-2.070233170186178,0.0,0.04129131883382797,0.39424020051956177,0.0,0.030148793011903763,1.0777400732040405,0.0,-0.08053272217512131
324.0,834.0,-0.4445,5.3821,8.0758,-0.0344,0.0194,-0.1174,-1.7485534153380335,-0.003841542871668935,2.7592029571533203,-1.8138145208358765,0.000848360825330019,2.120394706726074,-1.399557815199234,0.0,0.293594628572464,-2.0702527205096644,0.0,0.03904113173484802,0.39427220821380615,0.0,0.028138944879174232,1.0777122974395752,0.0,-0.10035280138254166
324.0,834.0,-0.4445,5.3821,8.0758,-0.0344,0.0194,-0.1174,-1.7485891781248988,-0.0038160085678100586,2.7939538955688477,-1.8138514757156372,0.000852550845593214,2.0877275466918945,-1.3995254796794434,0.0,0.28574755787849426,-2.070261303578512,0.0,0.03334426507353783,0.3942521810531616,0.0,0.035900577902793884,1.0777565240859985,0.0,-0.07899454236030579
324.0,834.0,-0.4445,5.3821,8.0758,-0.0344,0.0194,-0.1174,-1.7486134968199671,-0.003473075572401285,2.809154987335205,-1.8138266801834106,0.0009493827819824219,2.071139335632324,-1.39948524654422,0.0,0.29860544204711914,-2.0702369848834437,0.0,0.03400905430316925,0.3943406939506531,0.0,0.03449241816997528,1.0777482986450195,0.0,-0.10485619306564331
324.0,834.0,-0.4445,5.3821,8.0758,-0.0344,0.0194,-0.1174,-1.7486173115172328,-0.003702663816511631,2.7555689811706543,-1.8138225078582764,0.0009594741277396679,2.1165454387664795,-1.3995094758323212,0.0,0.2976728677749634,-2.0702407995807093,0.0,0.03996385633945465,0.39433252811431885,0.0,0.04451386630535126,1.0777605772018433,0.0,-0.09974031150341034
324.0,834.0,-0.4445,5.3821,8.0758,-0.0344,0.0194,-0.1174,-1.7486373386778773,-0.0029512597247958183,2.817996025085449,-1.8137626647949219,0.0009773116325959563,2.104011058807373,-1.399505303507187,0.0,0.3049939274787903,-2.0702531973468226,0.0,0.050657760351896286,0.3943128287792206,0.0,0.040708061307668686,1.077728271484375,0.0,-0.16046248376369476
324.0,834.0,-0.4445,5.3821,8.0758,-0.0344,0.0194,-0.1174,-1.748685976068014,-0.0024604222271591425,2.8255858421325684,-1.8137544393539429,0.001163268694654107,2.056345224380493,-1.3994934570840378,0.0,0.28343063592910767,-2.070228878651754,0.0,0.029085105285048485,0.3943045437335968,0.0,0.02531839907169342,1.0777523517608643,0.0,-0.11279480159282684
324.0,834.0,-0.4445,5.3821,8.0758,-0.0344,0.0194,-0.1174,-1.748608728448385,-0.002085024956613779,2.8063831329345703,-1.8137986660003662,0.0011894600465893745,2.142514228820801,-1.3995094758323212,0.0,0.29235947132110596,-2.070216957722799,0.0,0.05458713695406914,0.3942641615867615,0.0,0.038615234196186066,1.0777400732040405,0.0,-0.0637507364153862
324.0,834.0,-0.4445,5.3821,8.0758,-0.0344,0.0194,-0.1174,-1.7486854992308558,-0.0018855935195460916,2.774700880050659,-1.8138025999069214,0.0012241178192198277,2.1151113510131836,-1.3995418113521119,0.0,0.2813516855239868,-2.07023269334902,0.0,0.049427520483732224,0.39425212144851685,0.0,0.03778764232993126,1.0776962041854858,0.0,-0.12351373583078384
324.0,834.0,-0.4445,5.3821,8.0758,-0.0344,0.0194,-0.1174,-1.7486854992308558,-0.0016858909511938691,2.781630039215088,-1.8137872219085693,0.0013220972614362836,2.111546516418457,-1.3995135587504883,0.0,0.2822871208190918,-2.0702250639544886,0.0,0.05200227349996567,0.3942927122116089,0.0,0.02608327940106392,1.0777966976165771,0.0,-0.1132824644446373
325.0,830.0,-0.5145,5.2624,8.1087,-0.0458,0.0322,-0.1268,-1.7486854992308558,-0.0013374220579862595,2.804384708404541,-1.813791275024414,0.0018575361464172602,2.0815162658691406,-1.399485633974411,0.0,0.2855103611946106,-2.0702088514911097,0.0,0.052060648798942566,0.3943362236022949,0.0,0.027143433690071106,1.0777240991592407,0.0,-0.11066776514053345
325.0,830.0,-0.5145,5.2624,8.1087,-0.0458,0.0322,-0.1268,-1.7486773929991664,-0.0012207848485559225,2.8018312454223633,-1.8137986660003662,0.0022196811623871326,2.127551555633545,-1.3995418113521119,0.0,0.28866034746170044,-2.070277516041891,0.0,0.03440620005130768,0.39426812529563904,0.0,0.03379295766353607,1.077764630317688,0.0,-0.12770189344882965
325.0,830.0,-0.5145,5.2624,8.1087,-0.0458,0.0322,-0.1268,-1.748697420159811,-0.0011914919596165419,2.756650686264038,-1.8137634992599487,0.002429910935461521,2.110265016555786,-1.3995536428740998,0.0,0.29401686787605286,-2.0702651182757776,0.0,0.04957128316164017,0.3942725658416748,0.0,0.03124944120645523,1.0777240991592407,0.0,-0.10895732045173645
325.0,830.0,-0.5145,5.2624,8.1087,-0.0458,0.0322,-0.1268,-1.7487174473204554,-0.0014007451245561242,2.7578177452087402,-1.8137757778167725,0.0032335396390408278,2.1329376697540283,-1.399545894270279,0.0,0.28649088740348816,-2.070261303578512,0.0,0.05125143378973007,0.39427220821380615,0.0,0.02663857862353325,1.0777158737182617,0.0,-0.13689541816711426
325.0,830.0,-0.5145,5.2624,8.1087,-0.0458,0.0322,-0.1268,-1.7487017116942347,-0.0015158364549279213,2.8242931365966797,-1.813750982284546,0.003248204942792654,2.1135880947113037,-1.399557815199234,0.0,0.2852431535720825,-2.070277516041891,0.0,0.049705009907484055,0.3942841589450836,0.0,0.05499570071697235,1.077764630317688,0.0,-0.1453084796667099
325.0,830.0,-0.5145,5.2624,8.1087,-0.0458,0.0322,-0.1268,-1.748709341088766,-0.001515587093308568,2.817922592163086,-1.8137354850769043,0.0038106809370219707,2.154421806335449,-1.399517224436142,0.0,0.2863445281982422,-2.0702407995807093,0.0,0.02971348538994789,0.3942927122116089,0.0,0.04475213587284088,1.0777239799499512,-6.735573765404013e-10,-0.17803749442100525
325.0,830.0,-0.5145,5.2624,8.1087,-0.0458,0.0322,-0.1268,-1.7487050495543421,-0.0014786272076889873,2.801626682281494,-1.81365168094635,0.00483708968386054,2.1067962646484375,-1.3995295625976105,0.0,0.295391321182251,-2.0702250639544886,0.0,0.0479399636387825,0.3943045437335968,0.0,0.0314018577337265,1.0776597261428833,-1.2123793993474435e-13,-0.13451024889945984
325.0,830.0,-0.5145,5.2624,8.1087,-0.0458,0.0322,-0.1268,-1.7487455807127894,-0.0015896557597443461,2.7756783962249756,-1.8136433362960815,0.005460019689053297,2.1300764083862305,-1.3995254796794434,0.0,0.29585975408554077,-2.0702407995807093,0.0,0.04982965812087059,0.39430490136146545,0.0,0.02249538153409958,1.0777360200881958,-2.1822399333326933e-17,-0.16950708627700806
325.0,830.0,-0.5145,5.2624,8.1087,-0.0458,0.0322,-0.1268,-1.7487498722472132,-0.0017042154213413596,2.8231945037841797,-1.8136111497879028,0.007141548208892345,2.14221453666687,-1.3995295625976105,0.0,0.28424322605133057,-2.070277516041891,0.0,0.05258313566446304,0.3943004906177521,0.0,0.028289098292589188,1.0777770280838013,-5.26985243315253e-23,-0.17066171765327454
325.0,830.0,-0.5145,5.2624,8.1087,-0.0458,0.0322,-0.1268,-1.7487255535521449,-0.0018838269170373678,2.8218884468078613,-1.8136069774627686,0.006884552538394928,2.136342763900757,-1.3995737892440339,0.0,0.30391761660575867,-2.070249382649557,0.0,0.0538686141371727,0.39422041177749634,0.0,0.03413020819425583,1.0777565240859985,-9.485547791637238e-27,-0.14880360662937164
325.0,830.0,-0.5145,5.2624,8.1087,-0.0458,0.0322,-0.1268,-1.748749395410055,-0.0022916921880096197,2.8005270957946777,-1.8135470151901245,0.00801208708435297,2.1109185218811035,-1.39944543064151,0.0,0.2938777804374695,-2.070245091115133,0.0,0.03557206690311432,0.3943202495574951,0.0,0.02433617413043976,1.07771635055542,-2.2906480786913715e-32,-0.17235518991947174
325.0,830.0,-0.5145,5.2624,8.1087,-0.0458,0.0322,-0.1268,-1.7487818203368128,-0.0023523340933024883,2.7929787635803223,-1.8134952783584595,0.008715862408280373,2.105286121368408,-1.3995135587504883,0.0,0.299591064453125,-2.070257012044088,0.0,0.04335193336009979,0.3943045437335968,0.0,0.034092240035533905,1.0777244567871094,-4.123085896073929e-36,-0.1251813918352127
325.0,830.0,-0.5145,5.2624,8.1087,-0.0458,0.0322,-0.1268,-1.7487694225706996,-0.0028172731399536133,2.8042683601379395,-1.8134394884109497,0.010054931975901127,2.161515235900879,-1.3994975549033661,0.0,0.2902662754058838,-2.0702407995807093,0.0,0.03544788062572479,0.3943003714084625,0.0,0.024880604818463326,1.0777204036712646,-7.42140278392602e-40,-0.16941839456558228
325.0,830.0,-0.5145,5.2624,8.1087,-0.0458,0.0322,-0.1268,-1.748850008050436,-0.003064035205170512,2.817356586456299,-1.8134276866912842,0.012187005020678043,2.1543822288513184,-1.3995700788548966,0.0,0.2874758839607239,-2.070249382649557,0.0,0.027722563594579697,0.3942927122116089,0.0,0.039846621453762054,1.0777323246002197,-1.401298464324817e-45,-0.20884841680526733
325.0,830.0,-0.5145,5.2624,8.1087,-0.0458,0.0322,-0.1268,-1.7488376102843226,-0.003454366233199835,2.8622493743896484,-1.8133955001831055,0.012373698875308037,2.1171891689300537,-1.3994934570840378,0.0,0.29055318236351013,-2.0702574888812464,0.0,0.05460046976804733,0.3942927122116089,0.0,0.03868906944990158,1.077728271484375,-3.3118009014287964e-05,-0.15637284517288208
325.0,830.0,-0.5145,5.2624,8.1087,-0.0458,0.0322,-0.1268,-1.748850008050436,-0.0032788957469165325,2.7527689933776855,-1.8132994174957275,0.014138368889689445,2.1696348190307617,-1.3995176416686554,0.0,0.3038675785064697,-2.0702012220965784,0.0,0.050936564803123474,0.3942885398864746,0.0,0.0301372017711401,1.0777240991592407,-0.000169619990629144,-0.17741453647613525
325.0,830.0,-0.5145,5.2624,8.1087,-0.0458,0.0322,-0.1268,-1.7488538227477015,-0.003104870906099677,2.8362202644348145,-1.8131834268569946,0.016110701486468315,2.1745715141296387,-1.399557815199234,0.0,0.3060132563114166,-2.0702489058123987,0.0,0.04517921805381775,0.39424026012420654,0.0,0.03783321753144264,1.0777807235717773,-0.00015772956248838454,-0.15551814436912537
325.0,830.0,-0.5145,5.2624,8.1087,-0.0458,0.0322,-0.1268,-1.7489186726012171,-0.003078606678172946,2.7894582748413086,-1.8132163286209106,0.017241254448890686,2.121049642562866,-1.3994852018407364,0.0,0.29515355825424194,-2.0702369848834437,0.0,0.047887131571769714,0.3943045437335968,0.0,0.01825733110308647,1.077728271484375,-0.00014739613106939942,-0.17502206563949585
325.0,830.0,-0.5145,5.2624,8.1087,-0.0458,0.0322,-0.1268,-1.74890198330068,-0.002656729891896248,2.794321298599243,-1.8130558729171753,0.019965885207057,2.1900582313537598,-1.3995094758323212,0.0,0.30647850036621094,-2.0702531973468226,0.0,0.048922859132289886,0.39425623416900635,0.0,0.03357461839914322,1.0777405500411987,-0.00016104421229101717,-0.18361970782279968
331.0,811.0,-0.451,5.2193,7.8168,-0.048,0.0579,-0.1373,-1.7488895855345667,-0.002503623254597187,2.7870469093322754,-1.8129605054855347,0.02168073132634163,2.1532206535339355,-1.3994934868863602,0.0,0.2971866726875305,-2.070245091115133,0.0,0.059333886951208115,0.3942927122116089,0.0,0.04743659123778343,1.0777084827423096,-0.00015198397159110755,-0.1744695007801056
331.0,811.0,-0.451,5.2193,7.8168,-0.048,0.0579,-0.1373,-1.7489620647826136,-0.002431511180475354,2.796419382095337,-1.8128361701965332,0.024624956771731377,2.1887264251708984,-1.3995418113521119,0.0,0.3055883049964905,-2.070221249257223,0.0,0.05632253736257553,0.3942927122116089,0.0,0.03433854132890701,1.0777199268341064,-0.00014015001943334937,-0.17352578043937683
331.0,811.0,-0.451,5.2193,7.8168,-0.048,0.0579,-0.1373,-1.7489215336241664,-0.002597518963739276,2.780250072479248,-1.812725305557251,0.02637609653174877,2.181001663208008,-1.3995336902192612,0.0,0.3029891848564148,-2.0702407995807093,0.0,0.04183352738618851,0.39427638053894043,0.0,0.0372886098921299,1.0776962041854858,-0.00013323425082489848,-0.18040382862091064
331.0,811.0,-0.451,5.2193,7.8168,-0.048,0.0579,-0.1373,-1.7489377460875453,-0.002785426564514637,2.848745346069336,-1.8126330375671387,0.027985837310552597,2.1486334800720215,-1.3995176416686554,0.0,0.30947285890579224,-2.070221249257223,0.0,0.049578871577978134,0.39426812529563904,0.0,0.02746381051838398,1.0777363777160645,-0.0001481262588640675,-0.12955939769744873
331.0,811.0,-0.451,5.2193,7.8168,-0.048,0.0579,-0.1373,-1.7489739857115687,-0.002746991813182831,2.793492317199707,-1.812441349029541,0.03300812840461731,2.1835575103759766,-1.3995135587504883,0.0,0.29340749979019165,-2.0702207724200647,0.0,0.055455245077610016,0.3942641317844391,0.0,0.03325321525335312,1.0777287483215332,-0.00015734486805740744,-0.18867623805999756
331.0,811.0,-0.451,5.2193,7.8168,-0.048,0.0579,-0.1373,-1.7489658794798792,-0.0028701843693852425,2.7859511375427246,-1.8122456073760986,0.034598082304000854,2.187427520751953,-1.399505303507187,0.0,0.29271358251571655,-2.0702412764178675,0.0,0.04824031889438629,0.39426037669181824,0.0,0.02739330753684044,1.0777240991592407,-0.00017501029651612043,-0.1604938507080078
331.0,811.0,-0.451,5.2193,7.8168,-0.048,0.0579,-0.1373,-1.7489901981749476,-0.002931225346401334,2.783074140548706,-1.8120012283325195,0.03897719830274582,2.163766622543335,-1.3995094758323212,0.0,0.29011932015419006,-2.0702531973468226,7.783291948726401e-07,0.050458602607250214,0.39428824186325073,0.0,0.045879561454057693,1.0777363777160645,-0.0001999244122998789,-0.18555830419063568
331.0,811.0,-0.451,5.2193,7.8168,-0.048,0.0579,-0.1373,-1.7490059338011683,-0.0032865761313587427,2.8184404373168945,-1.8119025230407715,0.03872006759047508,2.2084808349609375,-1.3995336604169388,0.0,0.2937288284301758,-2.0702737013446253,3.318139762953365e-09,0.0653548315167427,0.39432093501091003,0.0,0.02767200395464897,1.0777244567871094,-0.00021689444838557392,-0.19228914380073547
331.0,811.0,-0.451,5.2193,7.8168,-0.048,0.0579,-0.1373,-1.7489811382689417,-0.003085389034822583,2.802943229675293,-1.8117544651031494,0.040237732231616974,2.178194522857666,-1.3995176416686554,0.0,0.2975066006183624,-2.070216957722799,1.4145749675786856e-11,0.06894958019256592,0.3942398428916931,0.0,0.024909235537052155,1.0777084827423096,-0.0002032995835179463,-0.15525448322296143
331.0,811.0,-0.451,5.2193,7.8168,-0.048,0.0579,-0.1373,-1.749009748498434,-0.002709586638957262,2.87829852104187,-1.8114911317825317,0.04052966088056564,2.1653151512145996,-1.3995254796794434,0.0,0.2959361672401428,-2.070249382649557,3.937521170254603e-15,0.06891636550426483,0.39427635073661804,0.0,0.02205430343747139,1.0777002573013306,-0.00021183420903980732,-0.1984821856021881
331.0,811.0,-0.451,5.2193,7.8168,-0.048,0.0579,-0.1373,-1.7490703068175257,-0.0026171833742409945,2.7818965911865234,-1.8112871646881104,0.03928369656205177,2.231616497039795,-1.3995254051736374,0.0,0.3055253326892853,-2.0702651182757776,1.678627064683666e-17,0.05615327134728432,0.3943127989768982,0.0,0.03145822510123253,1.0777405500411987,-0.00036687517422251403,-0.19876116514205933
331.0,811.0,-0.451,5.2193,7.8168,-0.048,0.0579,-0.1373,-1.7490297756590785,-0.0020558719988912344,2.8136954307556152,-1.811063289642334,0.03735585883259773,2.241948127746582,-1.3994975549033661,0.0,0.28846707940101624,-2.0702412764178675,4.672519925390793e-21,0.06784584373235703,0.3942885398864746,0.0,0.03053823672235012,1.0776880979537964,-0.00029497320065274835,-0.22181624174118042
331.0,811.0,-0.451,5.2193,7.8168,-0.048,0.0579,-0.1373,-1.7490502796568812,-0.0016145939007401466,2.819065570831299,-1.8109524250030518,0.036489516496658325,2.210191011428833,-1.3995577555945893,0.0,0.3060295879840851,-2.0702131430255335,1.9919682912195003e-23,0.06849793344736099,0.3943365812301636,0.0,0.03295893594622612,1.0777002573013306,-0.00026077908114530146,-0.19843034446239471
331.0,811.0,-0.451,5.2193,7.8168,-0.048,0.0579,-0.1373,-1.7490502796568812,-0.0010132755851373076,2.8095102310180664,-1.8107805252075195,0.03549935668706894,2.224695920944214,-1.3995738339475174,0.0,0.2996264100074768,-2.070233170186178,8.492072853562219e-26,0.07631610333919525,0.39436060190200806,0.0,0.02468172088265419,1.07771635055542,-0.00023369077825918794,-0.23977628350257874
331.0,811.0,-0.451,5.2193,7.8168,-0.048,0.0579,-0.1373,-1.7490297756590785,-0.0008035152568481863,2.8308308124542236,-1.8106093406677246,0.035225845873355865,2.2367591857910156,-1.3995458793691178,0.0,0.30976128578186035,-2.070237461720602,2.363799445966842e-29,0.0574096217751503,0.39424437284469604,0.0,0.03195200115442276,1.0777084827423096,-0.00024262449005618691,-0.21814090013504028
331.0,811.0,-0.451,5.2193,7.8168,-0.048,0.0579,-0.1373,-1.7490698299803675,-0.0007287849439308047,2.8023605346679688,-1.8104281425476074,0.0347074456512928,2.203841209411621,-1.3995012503913422,0.0,0.3169748783111572,-2.0702574888812464,1.0077246232381834e-31,0.05750307813286781,0.3942681550979614,0.0,0.03294341266155243,1.0777084827423096,-0.00022261895355768502,-0.21245867013931274
331.0,811.0,-0.451,5.2193,7.8168,-0.048,0.0579,-0.1373,-1.7490536175169886,-0.0005644288612529635,2.7913053035736084,-1.8101692199707031,0.03462785482406616,2.263794422149658,-1.3995135587504883,0.0,0.30454114079475403,-2.0701893011676233,2.80503889188966e-35,0.06584833562374115,0.3943079710006714,0.0,0.03028665855526924,1.0777405500411987,-0.00019811544916592538,-0.23435883224010468
331.0,811.0,-0.451,5.2193,7.8168,-0.048,0.0579,-0.1373,-1.7490817509093226,-0.0010204948484897614,2.8031153678894043,-1.8100531101226807,0.03405344486236572,2.2519354820251465,-1.3995418113521119,0.0,0.289188951253891,-2.0701726118670862,1.1958320120063579e-37,0.06518770754337311,0.39424392580986023,0.0,0.02656428888440132,1.0777126550674438,-0.00018457179248798639,-0.25934675335884094
331.0,811.0,-0.451,5.2193,7.8168,-0.048,0.0579,-0.1373,-1.749110837975973,-0.0016897182213142514,2.861617088317871,-1.8099255561828613,0.03353949636220932,2.2351431846618652,-1.3995376390269776,0.0,0.3121686279773712,-2.070225540791647,5.098021904106187e-40,0.06389383226633072,0.39424848556518555,0.0,0.04002150520682335,1.0777565240859985,-0.00017276176367886364,-0.2307785600423813
336.0,796.0,-0.4917,5.3504,8.0758,-0.0516,0.0472,-0.1347,-1.7490817509093226,-0.0029921468812972307,2.8092193603515625,-1.8097586631774902,0.0331241711974144,2.20870041847229,-1.3995335561088105,0.0,0.31079208850860596,-2.0702293554889124,1.4153114489680652e-43,0.06408826261758804,0.39434850215911865,0.0,0.028817281126976013,1.0777002573013306,-0.00018377951346337795,-0.22218181192874908
336.0,796.0,-0.4917,5.3504,8.0758,-0.0516,0.0472,-0.1347,-1.7491017780699671,-0.003597473492845893,2.861663818359375,-1.8096137046813965,0.03191984444856644,2.2487943172454834,-1.3995458346656342,0.0,0.3052935004234314,-2.070197407399313,7.094509055605158e-05,0.06030365824699402,0.3942481577396393,0.0,0.039397675544023514,1.0777204036712646,-0.0001737592538120225,-0.26519104838371277
336.0,796.0,-0.4917,5.3504,8.0758,-0.0516,0.0472,-0.1347,-1.74914612392568,-0.003926127217710018,2.8198447227478027,-1.8094427585601807,0.03308165445923805,2.2445757389068604,-1.3995417964509507,0.0,0.3022001385688782,-2.0701611677752894,0.00012190602865302935,0.0652092918753624,0.39423608779907227,0.0,0.0271294042468071,1.0777286291122437,-0.00016076765314210206,-0.3042098581790924
336.0,796.0,-0.4917,5.3504,8.0758,-0.0516,0.0472,-0.1347,-1.7491542301573695,-0.0038065428379923105,2.7939271926879883,-1.8093152046203613,0.03201466426253319,2.2436013221740723,-1.3995176416686554,0.0,0.30317676067352295,-2.070209805165426,0.00013799805310554802,0.0707767903804779,0.3942927122116089,0.0,0.03768940269947052,1.0776921510696411,-0.00017681722238194197,-0.2771523594856262
336.0,796.0,-0.4917,5.3504,8.0758,-0.0516,0.0472,-0.1347,-1.7491780720152796,-0.0033313389867544174,2.8101887702941895,-1.8091506958007812,0.03146493434906006,2.2379870414733887,-1.399469257598259,0.0,0.30256596207618713,-2.0702293554889124,0.00013199797831475735,0.0654001533985138,0.39421647787094116,0.0,0.028547966852784157,1.0776679515838623,-0.0001937059423653409,-0.2265925407409668
336.0,796.0,-0.4917,5.3504,8.0758,-0.0516,0.0472,-0.1347,-1.749214311639303,-0.00289062294177711,2.8270137310028076,-1.8089878559112549,0.032298021018505096,2.2231802940368652,-1.3995172393373032,0.0,0.30563342571258545,-2.070209328328268,0.00014210959488991648,0.07141078263521194,0.3943008482456207,0.0,0.026635829359292984,1.0777084827423096,-0.0004586853610817343,-0.3585253059864044
336.0,796.0,-0.4917,5.3504,8.0758,-0.0516,0.0472,-0.1347,-1.7492104969420375,-0.0024325354024767876,2.7883212566375732,-1.8088282346725464,0.03294495493173599,2.2694621086120605,-1.3995536428740998,0.0,0.3066561222076416,-2.070197407399313,0.00013722236326429993,0.06361328065395355,0.3942885398864746,0.0,0.03593209385871887,1.0777405500411987,-0.0005645026685670018,-0.3067097067832947
336.0,796.0,-0.4917,5.3504,8.0758,-0.0516,0.0472,-0.1347,-1.749218603173727,-0.0017486077267676592,2.809683084487915,-1.808676838874817,0.033371247351169586,2.276577949523926,-1.399553657775261,0.0,0.3033555746078491,-2.070193115864889,0.00014479825040325522,0.07448330521583557,0.39432021975517273,0.0,0.04112669825553894,1.07771635055542,-0.0005788292037323117,-0.24774572253227234
336.0,796.0,-0.4917,5.3504,8.0758,-0.0516,0.0472,-0.1347,-1.7492181263365687,-0.0014280714094638824,2.833054304122925,-1.8084957599639893,0.0346381776034832,2.2681381702423096,-1.3995336306146164,0.0,0.2923397123813629,-2.0702016989337366,0.00014141839346848428,0.08728627860546112,0.39427220821380615,0.0,0.03763413429260254,1.0777208805084229,-0.0008552144281566143,-0.3401327133178711
336.0,796.0,-0.4917,5.3504,8.0758,-0.0516,0.0472,-0.1347,-1.7492457828917445,-0.001262592850252986,2.8046250343322754,-1.8083930015563965,0.03527186065912247,2.291086435317993,-1.3995856058648606,0.0,0.3051622211933136,-2.07021409669985,0.00013608239532914013,0.06387288868427277,0.3943045437335968,0.0,0.032082799822092056,1.077744722366333,-0.0012586043449118733,-0.3525203466415405
336.0,796.0,-0.4917,5.3504,8.0758,-0.0516,0.0472,-0.1347,-1.7492624721922816,-0.0015151913976296782,2.815439224243164,-1.808173418045044,0.03867316246032715,2.2974841594696045,-1.3995458793691178,0.0,0.3211524188518524,-2.0701687971698206,0.00020326241792645305,0.08450192213058472,0.39424845576286316,0.0,0.03222984820604324,1.0777292251586914,-0.0018355519277974963,-0.3486570119857788
336.0,796.0,-0.4917,5.3504,8.0758,-0.0516,0.0472,-0.1347,-1.7492701015868128,-0.001815791125409305,2.8169569969177246,-1.8079652786254883,0.040375351905822754,2.303661823272705,-1.3995815378478547,0.0,0.2995965778827667,-2.0701773802386683,0.0002212140243500471,0.08921700716018677,0.3942641615867615,0.0,0.0262775719165802,1.0777004957199097,-0.002180061535909772,-0.37436044216156006
336.0,796.0,-0.4917,5.3504,8.0758,-0.0516,0.0472,-0.1347,-1.7492619953551234,-0.002364811720326543,2.8500990867614746,-1.8076937198638916,0.0437542088329792,2.3367362022399902,-1.3995335561088105,0.0,0.31667354702949524,-2.0702055136310022,0.00019901075575035065,0.0820024311542511,0.39428046345710754,0.0,0.04000582918524742,1.0776196718215942,-0.003323829034343362,-0.3283553123474121
336.0,796.0,-0.4917,5.3504,8.0758,-0.0516,0.0472,-0.1347,-1.749282022515768,-0.0033212832640856504,2.8393075466156006,-1.8075982332229614,0.044872406870126724,2.311657667160034,-1.399553657775261,0.0,0.3005748391151428,-2.0701611677752894,0.00020820758072659373,0.08016037940979004,0.39428845047950745,0.0,0.023034509271383286,1.0776481628417969,-0.004286294337362051,-0.32478219270706177
336.0,796.0,-0.4917,5.3504,8.0758,-0.0516,0.0472,-0.1347,-1.7493144474425257,-0.0049690501764416695,2.7936506271362305,-1.8073580265045166,0.04670008271932602,2.2902920246124268,-1.3995573681643982,0.0,0.2983105778694153,-2.0701492468463343,0.00020231292000971735,0.09074097871780396,0.39425620436668396,0.0,0.041508257389068604,1.0776280164718628,-0.005597011186182499,-0.33205971121788025
336.0,796.0,-0.4917,5.3504,8.0758,-0.0516,0.0472,-0.1347,-1.749338289300436,-0.00985271017998457,2.803253650665283,-1.8070420026779175,0.048672422766685486,2.293637752532959,-1.3996053648046036,0.0,0.30237263441085815,-2.0701807180987757,0.00018456176621839404,0.08653495460748672,0.394296795129776,0.0,0.032242558896541595,1.0775800943374634,-0.00616097217425704,-0.3726109564304352
336.0,796.0,-0.4917,5.3504,8.0758,-0.0516,0.0472,-0.1347,-1.7494107685484828,-0.010903525166213512,2.798772096633911,-1.8068513870239258,0.05040377750992775,2.335163116455078,-1.3995974671891709,0.0,0.31186532974243164,-2.0701568762408655,0.0001743458560667932,0.09079333394765854,0.3942844569683075,0.0,0.04331149905920029,1.0775842666625977,-0.005369243677705526,-0.34683406352996826
336.0,796.0,-0.4917,5.3504,8.0758,-0.0516,0.0472,-0.1347,-1.749502798120016,-0.009804600849747658,2.779435157775879,-1.8065158128738403,0.052690837532281876,2.301839828491211,-1.3995536130717774,0.0,0.3193280100822449,-2.0701568762408655,0.00018392463971395046,0.09335722774267197,0.39429226517677307,0.0,0.04708915948867798,1.0775322914123535,-0.004734234418720007,-0.3512609601020813
336.0,796.0,-0.4917,5.3504,8.0758,-0.0516,0.0472,-0.1347,-1.7495023212828578,-0.008226335048675537,2.7849020957946777,-1.8063321113586426,0.05402902886271477,2.34078049659729,-1.399581493144371,0.0,0.31483420729637146,-2.0701530615436,0.00017503173148725182,0.0841217115521431,0.39426037669181824,0.0,0.04221054166555405,1.077568769454956,-0.004610381554812193,-0.3592861592769623
321.0,778.0,-0.5198,4.9418,8.0991,-0.0606,0.067,-0.1484,-1.7495552502074183,-0.007894784212112427,2.8468267917633057,-1.8061208724975586,0.05441707745194435,2.3442111015319824,-1.3995495599559327,0.0,0.3211720883846283,-2.070165459309713,0.00016691598284523934,0.10510250926017761,0.3942885398864746,0.0,0.04423941671848297,1.0774760246276855,-0.003979315049946308,-0.3588065803050995
321.0,778.0,-0.5198,4.9418,8.0991,-0.0606,0.067,-0.1484,-1.749566217462057,-0.007734842598438263,2.833113670349121,-1.8057726621627808,0.053347740322351456,2.3238017559051514,-1.3995815825513382,0.0,0.31606313586235046,-2.07021409669985,0.00015608208195772022,0.10506468266248703,0.3942885398864746,0.0,0.024128707125782967,1.0775209665298462,-0.0032231099903583527,-0.4041789770126343
321.0,778.0,-0.5198,4.9418,8.0991,-0.0606,0.067,-0.1484,-1.749622484246725,-0.008802908472716808,2.8060102462768555,-1.8055860996246338,0.052641794085502625,2.3371973037719727,-1.3995856803706666,0.0,0.29222920536994934,-2.0701330343829554,0.00015704581164754927,0.09661182761192322,0.39432021975517273,0.0,0.035185523331165314,1.0775084495544434,-0.0027363181579858065,-0.3683670163154602
321.0,778.0,-0.5198,4.9418,8.0991,-0.0606,0.067,-0.1484,-1.749706884423727,-0.009427715092897415,2.8003766536712646,-1.8052297830581665,0.053145818412303925,2.361787796020508,-1.3995578301003953,0.0,0.2947072982788086,-2.070165459309713,0.00014220499724615365,0.09206123650074005,0.39436084032058716,0.0,0.02887829579412937,1.0774924755096436,-0.0022562930826097727,-0.37271249294281006
321.0,778.0,-0.5198,4.9418,8.0991,-0.0606,0.067,-0.1484,-1.7496944866576136,-0.0091615691781044,2.824791431427002,-1.8050669431686401,0.05451176315546036,2.308109998703003,-1.399553657775261,0.0,0.3127838373184204,-2.0701730887042444,0.00013375072740018368,0.0979434996843338,0.3942600190639496,0.0,0.0532073937356472,1.0774638652801514,-0.00222403765656054,-0.42157232761383057
321.0,778.0,-0.5198,4.9418,8.0991,-0.0606,0.067,-0.1484,-1.7497345409789027,-0.008620566688477993,2.7784781455993652,-1.8048596382141113,0.055765219032764435,2.310591459274292,-1.3995815378478547,0.0,0.2921444773674011,-2.0701492468463343,0.00012624560622498393,0.09327977895736694,0.39432430267333984,0.0,0.041643429547548294,1.0774365663528442,-0.0021499136928468943,-0.3738369643688202
321.0,778.0,-0.5198,4.9418,8.0991,-0.0606,0.067,-0.1484,-1.7498146496214808,-0.008370363153517246,2.8371009826660156,-1.8044143915176392,0.05799638107419014,2.3135952949523926,-1.3995655489018937,0.0,0.31190550327301025,-2.0701568762408655,0.00011644444020930678,0.08974055200815201,0.3943445086479187,0.0,0.04542526230216026,1.07743239402771,-0.0024039526470005512,-0.42067402601242065
321.0,778.0,-0.5198,4.9418,8.0991,-0.0606,0.067,-0.1484,-1.7498465977110804,-0.008866004645824432,2.8354952335357666,-1.8041833639144897,0.058801453560590744,2.3950929641723633,-1.3994889122298737,0.0,0.2918701171875,-2.070169274006979,0.00011071433982579038,0.0983838438987732,0.3942681849002838,0.0,0.05151413381099701,1.077444314956665,-0.002223249990493059,-0.4105883836746216
321.0,778.0,-0.5198,4.9418,8.0991,-0.0606,0.067,-0.1484,-1.7499190769591273,-0.008926518261432648,2.767897129058838,-1.8038763999938965,0.0597524456679821,2.3734068870544434,-1.399545894270279,0.0,0.3100890815258026,-2.070141140614645,0.000122346609714441,0.10914754867553711,0.3943086862564087,0.0,0.04316597059369087,1.0774128437042236,-0.002224259776994586,-0.40192848443984985
321.0,778.0,-0.5198,4.9418,8.0991,-0.0606,0.067,-0.1484,-1.7499305210509242,-0.008920589461922646,2.8096890449523926,-1.8036682605743408,0.06055145338177681,2.301450252532959,-1.3995815378478547,0.0,0.31084144115448,-2.0701449553119105,0.00011829754657810554,0.09992703795433044,0.39427220821380615,0.0,0.03625128045678139,1.0773839950561523,-0.0020597437396645546,-0.4135502874851227
321.0,778.0,-0.5198,4.9418,8.0991,-0.0606,0.067,-0.1484,-1.7499953709044398,-0.009312329813838005,2.79600191116333,-1.8033894300460815,0.06088998168706894,2.335886001586914,-1.3995454472354432,0.0,0.29849928617477417,-2.070165459309713,0.000113337067887187,0.10697857290506363,0.39423617720603943,0.0,0.03917907178401947,1.0774005651474,-0.001938671455718577,-0.43166664242744446
321.0,778.0,-0.5198,4.9418,8.0991,-0.0606,0.067,-0.1484,-1.7500630817809046,-0.00938329566270113,2.8223655223846436,-1.8029699325561523,0.06345583498477936,2.36051869392395,-1.3995811653188248,0.0,0.3057835102081299,-2.070148770009176,0.00010662346903700382,0.1017758697271347,0.3942480683326721,0.0,0.039636146277189255,1.077359914779663,-0.0017276258440688252,-0.4319383502006531
321.0,778.0,-0.5198,4.9418,8.0991,-0.0606,0.067,-0.1484,-1.750099321404928,-0.009487154893577099,2.8306241035461426,-1.8027657270431519,0.06496570259332657,2.3586034774780273,-1.3995774549296875,0.0,0.30429279804229736,-2.0701292196856897,0.00010257280518999323,0.08698512613773346,0.3943406939506531,0.0,0.049049802124500275,1.0773924589157104,-0.0016197150107473135,-0.39561694860458374
321.0,778.0,-0.5198,4.9418,8.0991,-0.0606,0.067,-0.1484,-1.7501474819579066,-0.011209364980459213,2.817701816558838,-1.8023751974105835,0.06715252995491028,2.400988817214966,-1.3995614659837265,0.0,0.3083544373512268,-2.0701449553119105,0.0001126703355112113,0.09827691316604614,0.3943604528903961,0.0,0.04569115489721298,1.077392339706421,-0.001345779630355537,-0.4190232753753662
321.0,778.0,-0.5198,4.9418,8.0991,-0.0606,0.067,-0.1484,-1.7501918278136195,-0.011458594352006912,2.8098244667053223,-1.8021159172058105,0.0686449408531189,2.370887279510498,-1.3995495450547715,0.0,0.31199052929878235,-2.070169274006979,0.00010928605479421094,0.0918813943862915,0.3943004608154297,0.0,0.04423786699771881,1.077376365661621,-0.0010714096715673804,-0.4342641234397888
321.0,778.0,-0.5198,4.9418,8.0991,-0.0606,0.067,-0.1484,-1.750223299066061,-0.012669187039136887,2.7708396911621094,-1.8018403053283691,0.07013235241174698,2.3333141803741455,-1.3995373410037537,0.0,0.3134687542915344,-2.070153538380758,0.0001056237451848574,0.10129529982805252,0.39429646730422974,0.0,0.047310970723629,1.0774005651474,-0.0010217915987595916,-0.404201477766037
321.0,778.0,-0.5198,4.9418,8.0991,-0.0606,0.067,-0.1484,-1.750331541100973,-0.013841905631124973,2.8098409175872803,-1.801377296447754,0.07071781158447266,2.3984591960906982,-1.3995975863984604,0.0,0.3052487075328827,-2.070169274006979,0.00011491578334243968,0.09072329103946686,0.3943365216255188,0.0,0.0343332476913929,1.0773521661758423,-0.0008396655321121216,-0.44940733909606934
321.0,778.0,-0.5198,4.9418,8.0991,-0.0606,0.067,-0.1484,-1.7503553829588832,-0.015334620140492916,2.789032220840454,-1.8011294603347778,0.07057860493659973,2.3836863040924072,-1.3995734018138428,0.0,0.3112599551677704,-2.070141617451803,0.00011805415124399588,0.09935544431209564,0.39432021975517273,0.0,0.03539937734603882,1.0773444175720215,-0.0008177963318303227,-0.37938350439071655
321.0,778.0,-0.5198,4.9418,8.0991,-0.0606,0.067,-0.1484,-1.7504798374571742,-0.018144071102142334,2.852677345275879,-1.8006178140640259,0.07022712379693985,2.384416103363037,-1.3995733869126816,0.0,0.3099796772003174,-2.070141617451803,0.00013211714394856244,0.09996236860752106,0.39429983496665955,0.0,0.042064107954502106,1.0773640871047974,-0.0008688938687555492,-0.45411115884780884
321.0,778.0,-0.5198,4.9418,8.0991,-0.0606,0.067,-0.1484,-1.7505556545653285,-0.019857920706272125,2.779433250427246,-1.800350546836853,0.07092801481485367,2.3922958374023438,-1.399537281399109,0.0,0.30773675441741943,-2.0701454321490687,0.00014716516307089478,0.11751648783683777,0.3942926824092865,0.0,0.050301533192396164,1.077376365661621,-0.0012381672859191895,-0.4557906687259674
335.0,706.0,-1.2191,4.8652,7.7444,-0.0585,0.0658,-0.1461,-1.7506519756712855,-0.020753823220729828,2.8156871795654297,-1.8000954389572144,0.07236260920763016,2.429003953933716,-1.3995294582894822,0.0,0.3183766305446625,-2.0701010862933558,0.00016069902630988508,0.10723301768302917,0.39429646730422974,0.0,0.05302606150507927,1.0773805379867554,-0.0012092548422515392,-0.4324025511741638
335.0,706.0,-1.2191,4.8652,7.7444,-0.0585,0.0658,-0.1461,-1.7507840595641078,-0.024137524887919426,2.796637535095215,-1.7996158599853516,0.07599792629480362,2.385390281677246,-1.3995611381581803,0.0,0.30593058466911316,-2.070141617451803,0.000422387762228027,0.10954409837722778,0.3942641019821167,0.0,0.038256336003541946,1.077364444732666,-0.0019228443270549178,-0.4345548748970032
335.0,706.0,-1.2191,4.8652,7.7444,-0.0585,0.0658,-0.1461,-1.7508846722044886,-0.027050796896219254,2.7671873569488525,-1.7993558645248413,0.08256887644529343,2.437664747238159,-1.3995893907598038,0.0,0.3151146471500397,-2.0700810591327112,0.0004276336112525314,0.10988673567771912,0.3943009376525879,0.0,0.03618006035685539,1.0773484706878662,-0.002362637547776103,-0.4841802716255188
335.0,706.0,-1.2191,4.8652,7.7444,-0.0585,0.0658,-0.1461,-1.7510768375792445,-0.03154706582427025,2.819241762161255,-1.7988532781600952,0.0849020704627037,2.4068822860717773,-1.39957748473201,0.0,0.32673323154449463,-2.070096794758932,0.0004569393931888044,0.11569074541330338,0.3943045437335968,0.0,0.03660103678703308,1.07735276222229,-0.0029284541960805655,-0.4167425036430359
335.0,706.0,-1.2191,4.8652,7.7444,-0.0585,0.0658,-0.1461,-1.7512008152403773,-0.036918602883815765,2.7601146697998047,-1.7984740734100342,0.08861926198005676,2.430267810821533,-1.39957748473201,0.0,0.30779433250427246,-2.070096794758932,0.00047916630865074694,0.1219550371170044,0.39429229497909546,0.0,0.03733593225479126,1.0773084163665771,-0.0035213639494031668,-0.4826544225215912
335.0,706.0,-1.2191,4.8652,7.7444,-0.0585,0.0658,-0.1461,-1.7513328991331996,-0.04254608228802681,2.785691738128662,-1.798117756843567,0.09261107444763184,2.40885853767395,-1.3995495599559327,0.0,0.30117732286453247,-2.070113484059469,0.00047616069787181914,0.113326296210289,0.39432018995285034,0.0,0.03414209932088852,1.077260136604309,-0.004283119458705187,-0.4612278938293457
335.0,706.0,-1.2191,4.8652,7.7444,-0.0585,0.0658,-0.1461,-1.7516738377013148,-0.04969872906804085,2.8010053634643555,-1.7975633144378662,0.098467156291008,2.491482734680176,-1.3995852929404755,0.0,0.32018977403640747,-2.070113484059469,0.00045475916704162955,0.1321111023426056,0.3943202793598175,0.0,0.030985310673713684,1.0772643089294434,-0.004769360180944204,-0.4858202338218689
335.0,706.0,-1.2191,4.8652,7.7444,-0.0585,0.0658,-0.1461,-1.7518865070738734,-0.05423228070139885,2.838040351867676,-1.7971839904785156,0.10390448570251465,2.4288201332092285,-1.399537281399109,0.0,0.31650829315185547,-2.070096794758932,0.0005298394826240838,0.11437460780143738,0.3943202793598175,0.0,0.03564019501209259,1.0772607326507568,-0.005637866444885731,-0.4738253355026245
335.0,706.0,-1.2191,4.8652,7.7444,-0.0585,0.0658,-0.1461,-1.7522384128966273,-0.06197125464677811,2.7655818462371826,-1.7965457439422607,0.1064864918589592,2.4418892860412598,-1.3995573979667206,0.0,0.32337844371795654,-2.070096794758932,0.0006014975951984525,0.1273805797100067,0.39426812529563904,0.0,0.03087887167930603,1.0772525072097778,-0.007367599755525589,-0.5091102719306946
335.0,706.0,-1.2191,4.8652,7.7444,-0.0585,0.0658,-0.1461,-1.7524625263609828,-0.06514604389667511,2.7832536697387695,-1.7960422039031982,0.10909373313188553,2.4717748165130615,-1.3995573979667206,0.0,0.322033554315567,-2.070069138203756,0.0007909753476269543,0.11677122116088867,0.39427220821380615,0.0,0.027664171531796455,1.0771644115447998,-0.00790871400386095,-0.5203773379325867
335.0,706.0,-1.2191,4.8652,7.7444,-0.0585,0.0658,-0.1461,-1.7527877293028773,-0.0712873786687851,2.7358944416046143,-1.795650601387024,0.1104903519153595,2.510957956314087,-1.3995774698308487,0.0,0.3115836977958679,-2.070117775593893,0.0009744517155922949,0.12985651195049286,0.3942926526069641,0.0,0.03552327677607536,1.0771164894104004,-0.0079208267852664,-0.5398427248001099
335.0,706.0,-1.2191,4.8652,7.7444,-0.0585,0.0658,-0.1461,-1.753195425073141,-0.07704541832208633,2.734957695007324,-1.794916033744812,0.11165319383144379,2.4748339653015137,-1.3995413792184372,0.0,0.3147165775299072,-2.0700891653644007,0.0019324814202263951,0.12497509270906448,0.3943406641483307,0.0,0.035568445920944214,1.0771046876907349,-0.008280759677290916,-0.499324768781662
335.0,706.0,-1.2191,4.8652,7.7444,-0.0585,0.0658,-0.1461,-1.7535602054991664,-0.08109474927186966,2.725924491882324,-1.7945085763931274,0.1158023327589035,2.4720656871795654,-1.3995734018138428,0.0,0.31652623414993286,-2.070109192525045,0.004667479544878006,0.1269080936908722,0.39426037669181824,0.0,0.04540666192770004,1.0770363807678223,-0.008830967359244823,-0.48204463720321655
335.0,706.0,-1.2191,4.8652,7.7444,-0.0585,0.0658,-0.1461,-1.754073282281393,-0.08740723133087158,2.7227821350097656,-1.793793797492981,0.12398312240839005,2.494384765625,-1.3995614808848877,0.0,0.32252126932144165,-2.0699928442584437,0.019734229892492294,0.1335664540529251,0.3943244218826294,0.0,0.03278487175703049,1.0769602060317993,-0.009715482592582703,-0.5342280268669128
335.0,706.0,-1.2191,4.8652,7.7444,-0.0585,0.0658,-0.1461,-1.75443758587026,-0.08888117223978043,2.768319606781006,-1.7932343482971191,0.12861017882823944,2.4843125343322754,-1.3996016097119828,0.0,0.32057279348373413,-2.069981877003805,0.022561630234122276,0.12102705985307693,0.39426812529563904,0.0,0.03210799768567085,1.0769684314727783,-0.010785720311105251,-0.5338776707649231
335.0,706.0,-1.2191,4.8652,7.7444,-0.0585,0.0658,-0.1461,-1.7548061809935511,-0.08822392672300339,2.74482798576355,-1.7927193641662598,0.13446471095085144,2.4282803535461426,-1.3995853078416367,0.0,0.32079729437828064,-2.069800678883688,0.018813099712133408,0.1420545130968094,0.39436858892440796,0.0,0.03244759887456894,1.0768963098526,-0.011244342662394047,-0.49768680334091187
335.0,706.0,-1.2191,4.8652,7.7444,-0.0585,0.0658,-0.1461,-1.7553707561888636,-0.0885327011346817,2.764244794845581,-1.7919379472732544,0.14329957962036133,2.4312245845794678,-1.3995975863984604,0.0,0.31375813484191895,-2.069801632558004,0.00668952614068985,0.11695942282676697,0.3943168520927429,0.0,0.025011077523231506,1.0768481492996216,-0.012407584115862846,-0.48664748668670654
335.0,706.0,-1.2191,4.8652,7.7444,-0.0585,0.0658,-0.1461,-1.7556983433165492,-0.09056190401315689,2.752626419067383,-1.7913700342178345,0.14803574979305267,2.521075963973999,-1.399585322742798,0.0,0.31837359070777893,-2.0698087851153772,0.0024794270284473896,0.12072877585887909,0.3943168520927429,0.0,0.035694822669029236,1.0768084526062012,-0.013495927676558495,-0.4957481026649475
335.0,706.0,-1.2191,4.8652,7.7444,-0.0585,0.0658,-0.1461,-1.7563196621336878,-0.09303931146860123,2.766834259033203,-1.7905246019363403,0.14335662126541138,2.5099546909332275,-1.399609164600708,-7.445477967849001e-05,0.3184453845024109,-2.0697935263263147,1.3879179050491075e-06,0.11481287330389023,0.3942641317844391,0.0,0.027546513825654984,1.0766524076461792,-0.016407813876867294,-0.5379387736320496
318.0,653.0,-0.1735,5.0225,8.3121,-0.0544,0.0014,-0.1793,-1.7567244968810023,-0.09574851393699646,2.7656455039978027,-1.789936900138855,0.14051565527915955,2.465688705444336,-1.39960132658992,-7.916697359178215e-05,0.30009591579437256,-2.0698497931109827,5.916912293457699e-09,0.1211521178483963,0.3942885398864746,0.0,0.04286370426416397,1.0766363143920898,-0.01821838691830635,-0.5103342533111572
318.0,653.0,-0.1735,5.0225,8.3121,-0.0544,0.0014,-0.1793,-1.757052560845846,-0.10106783360242844,2.754725933074951,-1.7893134355545044,0.14099256694316864,2.5323915481567383,-1.3996054244092484,-6.417318218154833e-05,0.31883472204208374,-2.0698140303241175,2.5224725086481214e-11,0.12135033309459686,0.3943365216255188,0.0,0.04129010811448097,1.0765364170074463,-0.020059823989868164,-0.4854589104652405
318.0,653.0,-0.1735,5.0225,8.3121,-0.0544,0.0014,-0.1793,-1.7577020130553187,-0.10676829516887665,2.7689523696899414,-1.78852379322052,0.14858028292655945,2.5570616722106934,-1.3995652210763474,-6.14887903793715e-05,0.3240399956703186,-2.0697973410235804,7.021394912969797e-15,0.13791581988334656,0.39431214332580566,0.0,0.048210468143224716,1.0764566659927368,-0.0250390637665987,-0.5244917273521423
318.0,653.0,-0.1735,5.0225,8.3121,-0.0544,0.0014,-0.1793,-1.7580658398070277,-0.11085374653339386,2.8137102127075195,-1.7879124879837036,0.15250903367996216,2.5224812030792236,-1.3996255111745377,-5.985313327983022e-05,0.3115406632423401,-2.0698140303241175,2.993330724918707e-17,0.13255730271339417,0.39429646730422974,0.0,0.041135162115097046,1.076364517211914,-0.026865703985095024,-0.5450699329376221
318.0,653.0,-0.1735,5.0225,8.3121,-0.0544,0.0014,-0.1793,-1.7587067089476527,-0.11582336574792862,2.7346367835998535,-1.7869902849197388,0.16092470288276672,2.5723795890808105,-1.3995812398246308,-5.7556455431040376e-05,0.31125208735466003,-2.069789234791891,8.332045715198164e-21,0.13284075260162354,0.39429229497909546,0.0,0.04947943240404129,1.0761725902557373,-0.0303611122071743,-0.5214905142784119
318.0,653.0,-0.1735,5.0225,8.3121,-0.0544,0.0014,-0.1793,-1.7592236004271449,-0.11889123171567917,2.777588129043579,-1.7863436937332153,0.16913709044456482,2.499556541442871,-1.3995931607535859,-5.61209162697196e-05,0.3228096663951874,-2.069761101399557,3.5520819373960857e-23,0.1208496019244194,0.39434850215911865,0.0,0.024565834552049637,1.0760444402694702,-0.03244640678167343,-0.5658339858055115
318.0,653.0,-0.1735,5.0225,8.3121,-0.0544,0.0014,-0.1793,-1.7596880398192347,-0.11812079697847366,2.740182399749756,-1.7855762243270874,0.17427204549312592,2.574322462081909,-1.3995894205621262,-4.523166353465058e-05,0.30462321639060974,-2.0697653929339808,1.5143081172401846e-25,0.14111582934856415,0.3942885398864746,0.0,0.0212191641330719,1.0759201049804688,-0.034147441387176514,-0.5837339162826538
318.0,653.0,-0.1735,5.0225,8.3121,-0.0544,0.0014,-0.1793,-1.7604252300658167,-0.11849690228700638,2.7334208488464355,-1.7845420837402344,0.17443032562732697,2.4805874824523926,-1.3995733720115204,-4.3176252802368253e-05,0.3233867585659027,-2.069784943257467,4.2151330078565455e-29,0.11599522829055786,0.3943079710006714,0.0,0.026925738900899887,1.075679898262024,-0.03643208369612694,-0.5892288088798523
318.0,653.0,-0.1735,5.0225,8.3121,-0.0544,0.0014,-0.1793,-1.7609297237791957,-0.11750055849552155,2.76119327545166,-1.7839035987854004,0.17552173137664795,2.5355615615844727,-1.3995771271041413,-7.05548700352665e-07,0.3181311786174774,-2.0697973410235804,1.7969772737065503e-31,0.1427185833454132,0.39425623416900635,0.0,0.017376158386468887,1.0755600929260254,-0.03802363947033882,-0.5695260167121887
318.0,653.0,-0.1735,5.0225,8.3121,-0.0544,0.0014,-0.1793,-1.761606832543844,-0.1206786260008812,2.7825093269348145,-1.782801866531372,0.17899788916110992,2.5723118782043457,-1.3995931607535859,-1.9639209702937421e-10,0.31792694330215454,-2.0697692076312464,5.001952311770718e-35,0.1379091739654541,0.39428046345710754,0.0,0.03309638425707817,1.0752239227294922,-0.04226621612906456,-0.5777711272239685
318.0,653.0,-0.1735,5.0225,8.3121,-0.0544,0.0014,-0.1793,-1.762151380578512,-0.12420494854450226,2.7306437492370605,-1.7820765972137451,0.1819564551115036,2.592538356781006,-1.3996251684478302,-8.372503536822895e-13,0.3183023929595947,-2.069773022328512,2.1324108040628757e-37,0.1269305944442749,0.39428454637527466,0.0,0.024821247905492783,1.075156331062317,-0.04670313745737076,-0.6052689552307129
318.0,653.0,-0.1735,5.0225,8.3121,-0.0544,0.0014,-0.1793,-1.7626120052733363,-0.12756523489952087,2.7400617599487305,-1.781378149986267,0.1846708208322525,2.57120418548584,-1.399645597939827,-3.569329500610315e-15,0.30695560574531555,-2.0697935263263147,9.090797670445462e-40,0.13464850187301636,0.39429646730422974,0.0,0.016380589455366135,1.07494056224823,-0.04900386556982994,-0.6423236727714539
318.0,653.0,-0.1735,5.0225,8.3121,-0.0544,0.0014,-0.1793,-1.7633606396117152,-0.13321714103221893,2.7273318767547607,-1.7801845073699951,0.18800288438796997,2.563070297241211,-1.399625153546669,-9.935360429169093e-19,0.31411075592041016,-2.0697653929339808,2.536350220427919e-43,0.11918335407972336,0.39428046345710754,0.0,0.05290091410279274,1.0746084451675415,-0.05503462627530098,-0.6446845531463623
318.0,653.0,-0.1735,5.0225,8.3121,-0.0544,0.0014,-0.1793,-1.7638570270934046,-0.13633595407009125,2.755747079849243,-1.779435157775879,0.18806958198547363,2.6153531074523926,-1.399613232617714,-4.235599733107302e-21,0.3251038193702698,-2.069817845021383,1.401298464324817e-45,0.13820990920066833,0.39427638053894043,0.0,0.03168303146958351,1.0743842124938965,-0.05607634410262108,-0.6443408131599426
318.0,653.0,-0.1735,5.0225,8.3121,-0.0544,0.0014,-0.1793,-1.764641901055807,-0.1385989785194397,2.8066294193267822,-1.77827787399292,0.1929916888475418,2.5730838775634766,-1.399565265779831,-1.1789947283036183e-24,0.3143654763698578,-2.0697854200946253,0.0,0.14594745635986328,0.39427220821380615,0.0,0.03203767538070679,1.074020266532898,-0.06029173359274864,-0.661099910736084
318.0,653.0,-0.1735,5.0225,8.3121,-0.0544,0.0014,-0.1793,-1.7651387653746546,-0.13895055651664734,2.7701098918914795,-1.777524471282959,0.196910098195076,2.5846972465515137,-1.3995931309512635,-5.026239583567321e-27,0.3256455063819885,-2.069721047078268,0.0,0.1417597383260727,0.39434075355529785,0.0,0.031742922961711884,1.0737677812576294,-0.06396441161632538,-0.6267492771148682
318.0,653.0,-0.1735,5.0225,8.3121,-0.0544,0.0014,-0.1793,-1.7657643757262171,-0.1332579404115677,2.7668673992156982,-1.7766903638839722,0.2009837031364441,2.649717330932617,-1.399597243671753,-2.1427646792212723e-29,0.3170481026172638,-2.0697572867022913,0.0,0.13673916459083557,0.39425620436668396,0.0,0.024730823934078217,1.0735243558883667,-0.06734819710254669,-0.617646336555481
318.0,653.0,-0.1735,5.0225,8.3121,-0.0544,0.0014,-0.1793,-1.7665087185301722,-0.1334095448255539,2.786257028579712,-1.7754374742507935,0.2059868723154068,2.5819272994995117,-1.399617315535881,-5.964464213544041e-33,0.31144776940345764,-2.069761101399557,0.0,0.13425341248512268,0.3943079710006714,0.0,0.022300416603684425,1.0731160640716553,-0.06925417482852936,-0.6734204292297363
318.0,653.0,-0.1735,5.0225,8.3121,-0.0544,0.0014,-0.1793,-1.7670651874937953,-0.13440550863742828,2.786655902862549,-1.774571418762207,0.2069142460823059,2.5957818031311035,-1.3996091496995469,-2.542744374467641e-35,0.3142458498477936,-2.069777313862936,0.0,0.1369866132736206,0.39434075355529785,0.0,0.02251340076327324,1.0728240013122559,-0.0682775229215622,-0.6004979610443115
302.0,572.0,-1.1366,5.5819,8.059,-0.0438,0.0826,-0.2231,-1.7678824863829554,-0.13766911625862122,2.7587430477142334,-1.773358702659607,0.20872923731803894,2.6011102199554443,-1.3995812398246308,-7.077822617353612e-39,0.3254631757736206,-2.0697973410235804,0.0,0.13079579174518585,0.39427638053894043,0.0,0.030386803671717644,1.0724284648895264,-0.06529778987169266,-0.6293755173683167
302.0,572.0,-1.1366,5.5819,8.059,-0.0438,0.0826,-0.2231,-1.7684270344176234,-0.14071156084537506,2.7688307762145996,-1.7725443840026855,0.2074478417634964,2.5954246520996094,-1.3996415001204987,-3.0174159832306286e-41,0.3031325936317444,-2.0697653929339808,0.0,0.13806259632110596,0.3943045437335968,0.0,0.031122401356697083,1.0721367597579956,-0.06457414478063583,-0.5961660742759705
302.0,572.0,-1.1366,5.5819,8.059,-0.0438,0.0826,-0.2231,-1.7689148388304652,-0.14216390252113342,2.7753260135650635,-1.7717070579528809,0.20809844136238098,2.5936741828918457,-1.399609164600708,-1.2891945871788317e-43,0.31362617015838623,-2.0697816053973597,0.0,0.13106293976306915,0.39426809549331665,0.0,0.025105910375714302,1.071852445602417,-0.06236560642719269,-0.5894133448600769
302.0,572.0,-1.1366,5.5819,8.059,-0.0438,0.0826,-0.2231,-1.7698012791075648,-0.14458830654621124,2.768005609512329,-1.770402193069458,0.2123752236366272,2.575521230697632,-1.3995934587768097,-5.608700303127989e-05,0.3286612927913666,-2.0697291533099573,0.0,0.1254214495420456,0.3942926228046417,0.0,0.02066672407090664,1.0714564323425293,-0.062373094260692596,-0.6261014938354492
302.0,572.0,-1.1366,5.5819,8.059,-0.0438,0.0826,-0.2231,-1.7702933750548304,-0.14237818121910095,2.743217706680298,-1.7696003913879395,0.21518787741661072,2.6142940521240234,-1.3995611381581803,-5.287849126034416e-05,0.32159116864204407,-2.069789234791891,0.0,0.1366948038339615,0.394240140914917,0.0,0.023045063018798828,1.071232557296753,-0.06351188570261002,-0.6458501815795898
302.0,572.0,-1.1366,5.5819,8.059,-0.0438,0.0826,-0.2231,-1.7711340389647425,-0.13632018864154816,2.8048653602600098,-1.7682636976242065,0.21928726136684418,2.589901924133301,-1.3996173453382035,-4.859574983129278e-05,0.32374826073646545,-2.0697248617755335,0.0,0.1304616630077362,0.3943128287792206,0.0,0.02694571763277054,1.0708482265472412,-0.0653313472867012,-0.5962085723876953
302.0,572.0,-1.1366,5.5819,8.059,-0.0438,0.0826,-0.2231,-1.771658559838766,-0.13574503362178802,2.8410353660583496,-1.7673983573913574,0.22421181201934814,2.5632476806640625,-1.3995890629342576,-4.610608812072314e-05,0.3005909323692322,-2.0697935263263147,0.0,0.1493770033121109,0.39426809549331665,0.0,0.02997906506061554,1.0705921649932861,-0.06399378925561905,-0.6094119548797607
302.0,572.0,-1.1366,5.5819,8.059,-0.0438,0.0826,-0.2231,-1.7722236118712367,-0.14082886278629303,2.841190814971924,-1.7665526866912842,0.2296205312013626,2.5837149620056152,-1.3995931607535859,-4.3859079596586525e-05,0.31345218420028687,-2.0697291533099573,0.0,0.126950204372406,0.3943161964416504,0.0,0.02719411998987198,1.0703485012054443,-0.06426896899938583,-0.6235178112983704
302.0,572.0,-1.1366,5.5819,8.059,-0.0438,0.0826,-0.2231,-1.7731086216368617,-0.14696641266345978,2.794351816177368,-1.7651715278625488,0.229897603392601,2.6248021125793457,-1.399657518868782,-6.128347740741447e-05,0.3116878569126129,-2.0697529951678675,0.0,0.1313573718070984,0.39431214332580566,0.0,0.04475763440132141,1.069923996925354,-0.06430522352457047,-0.6430390477180481
302.0,572.0,-1.1366,5.5819,8.059,-0.0438,0.0826,-0.2231,-1.7737251720824183,-0.15246088802814484,2.7861149311065674,-1.7642180919647217,0.22769467532634735,2.5874972343444824,-1.3996169132045289,-5.8643639931688085e-05,0.3134576678276062,-2.069733444844381,0.0,0.12455246597528458,0.3942480981349945,0.0,0.04015548899769783,1.0696884393692017,-0.06345000863075256,-0.6316944360733032
302.0,572.0,-1.1366,5.5819,8.059,-0.0438,0.0826,-0.2231,-1.7746101818480433,-0.1538853645324707,2.804229974746704,-1.762833595275879,0.23187023401260376,2.5883371829986572,-1.39960132658992,7.075635949149728e-05,0.3307230472564697,-2.0697696844684046,0.0,0.14143526554107666,0.3942967653274536,0.0,0.023823369294404984,1.0693409442901611,-0.062378183007240295,-0.6006720066070557
302.0,572.0,-1.1366,5.5819,8.059,-0.0438,0.0826,-0.2231,-1.7752682171263636,-0.15156517922878265,2.815262794494629,-1.761887550354004,0.2394893318414688,2.6262078285217285,-1.399597243671753,8.60562504385598e-05,0.309306800365448,-2.069789234791891,0.0,0.12419681251049042,0.39427638053894043,0.0,0.02408294752240181,1.0690646171569824,-0.06258055567741394,-0.6300391554832458
302.0,572.0,-1.1366,5.5819,8.059,-0.0438,0.0826,-0.2231,-1.7758165798582972,-0.14458145201206207,2.8360419273376465,-1.7610068321228027,0.24501708149909973,2.626188278198242,-1.399609164600708,3.949877282138914e-05,0.3254067897796631,-2.069761101399557,0.0,0.1271684616804123,0.3942599892616272,0.0,0.02011108584702015,1.0687921047210693,-0.06385272741317749,-0.5976194143295288
302.0,572.0,-1.1366,5.5819,8.059,-0.0438,0.0826,-0.2231,-1.7767054043211878,-0.14546869695186615,2.8279595375061035,-1.7594860792160034,0.24532093107700348,2.6280484199523926,-1.3996292662671586,8.208634483253263e-08,0.3185848593711853,-2.0697086493121546,0.0,0.1088981032371521,0.39432021975517273,0.0,0.028989825397729874,1.068395972251892,-0.06720173358917236,-0.5828632116317749
302.0,572.0,-1.1366,5.5819,8.059,-0.0438,0.0826,-0.2231,-1.7773791752257289,-0.15113681554794312,2.7899460792541504,-1.7585166692733765,0.24172590672969818,2.5894031524658203,-1.399621070628502,3.4994693254297715e-10,0.2969508767127991,-2.0697973410235804,0.0,0.13603225350379944,0.39429229497909546,0.0,0.0348701998591423,1.068164587020874,-0.06789306551218033,-0.5960947871208191
302.0,572.0,-1.1366,5.5819,8.059,-0.0438,0.0826,-0.2231,-1.7782679996886195,-0.1596856415271759,2.7741565704345703,-1.7570961713790894,0.2468937337398529,2.615072727203369,-1.399629221563675,9.740901932720619e-14,0.31203770637512207,-2.0697410742389124,0.0,0.12435279786586761,0.39428824186325073,0.0,0.02661314234137535,1.067696213722229,-0.06781382113695145,-0.6057523488998413
302.0,572.0,-1.1366,5.5819,8.059,-0.0438,0.0826,-0.2231,-1.7789532146849574,-0.16710714995861053,2.7910609245300293,-1.7560786008834839,0.25319546461105347,2.623370885848999,-1.3996210557273407,4.152698667318007e-16,0.3146412968635559,-2.069777313862936,0.0,0.13617539405822754,0.3942599892616272,0.0,0.020475275814533234,1.0674320459365845,-0.06899480521678925,-0.6130824089050293
302.0,572.0,-1.1366,5.5819,8.059,-0.0438,0.0826,-0.2231,-1.7795659504332484,-0.17035546898841858,2.8194007873535156,-1.7551053762435913,0.25897645950317383,2.6327266693115234,-1.3995931607535859,1.770360484717123e-18,0.3111145496368408,-2.069749180470602,0.0,0.13373199105262756,0.3943447470664978,0.0,0.03329646587371826,1.067156434059143,-0.06867972761392593,-0.6185238361358643
302.0,572.0,-1.1366,5.5819,8.059,-0.0438,0.0826,-0.2231,-1.7806035480894984,-0.16558058559894562,2.7761077880859375,-1.7534570693969727,0.25852441787719727,2.620687484741211,-1.3995972585729142,4.927864380670286e-22,0.305977463722229,-2.069777313862936,0.0,0.12901131808757782,0.39432021975517273,0.0,0.02812870219349861,1.0667279958724976,-0.068670354783535,-0.58489990234375
295.0,506.0,-0.8118,4.9143,8.9946,-0.0748,0.0574,-0.2178,-1.7813049755492152,-0.1581629365682602,2.822493553161621,-1.7524323463439941,0.26086947321891785,2.645707607269287,-1.3995771569064637,2.100825534670618e-24,0.32814279198646545,-2.069761101399557,0.0,0.14039573073387146,0.3942967653274536,0.0,0.03529229015111923,1.0664559602737427,-0.06624066829681396,-0.5732246041297913
295.0,506.0,-0.8118,4.9143,8.9946,-0.0748,0.0574,-0.2178,-1.7819448910155238,-0.15807510912418365,2.806863307952881,-1.7513833045959473,0.2659500539302826,2.623216152191162,-1.399597243671753,8.95614970926803e-27,0.3159908652305603,-2.069716755543844,0.0,0.1359373778104782,0.3943045437335968,0.0,0.016826346516609192,1.066208004951477,-0.0667325109243393,-0.5345677137374878
295.0,506.0,-0.8118,4.9143,8.9946,-0.0748,0.0574,-0.2178,-1.7830029926695765,-0.16726860404014587,2.8132171630859375,-1.7498197555541992,0.27111735939979553,2.673617362976074,-1.3996132475188752,2.492976570240851e-30,0.32107239961624146,-2.069801632558004,5.69934600207489e-05,0.12513215839862823,0.3942681550979614,0.0,0.012782751582562923,1.0658282041549683,-0.06496209651231766,-0.6069640517234802
295.0,506.0,-0.8118,4.9143,8.9946,-0.0748,0.0574,-0.2178,-1.7836958370604457,-0.1760297268629074,2.8432374000549316,-1.7487295866012573,0.26623624563217163,2.6751677989959717,-1.3996774417212983,1.0627949319631546e-32,0.30068063735961914,-2.0697572867022913,0.00019746948964893818,0.12911973893642426,0.39432844519615173,0.0,0.026182223111391068,1.0656085014343262,-0.0667041540145874,-0.5335455536842346
295.0,506.0,-0.8118,4.9143,8.9946,-0.0748,0.0574,-0.2178,-1.7847935161986292,-0.19091548025608063,2.8004703521728516,-1.747138500213623,0.25822246074676514,2.5897951126098633,-1.3996169132045289,-0.001278198091313243,0.31188493967056274,-2.0697696844684046,0.00012032238737447187,0.13033095002174377,0.39428046345710754,0.0,0.02182222157716751,1.0651804208755493,-0.06804617494344711,-0.5603703856468201
295.0,506.0,-0.8118,4.9143,8.9946,-0.0748,0.0574,-0.2178,-1.7855950794615687,-0.1939428150653839,2.8153061866760254,-1.746061086654663,0.2600482404232025,2.6638026237487793,-1.3996653270772477,-0.0006117174052633345,0.3085431456565857,-2.0697534720050257,0.00018618041940499097,0.12772099673748016,0.3943324089050293,0.0,0.019819267094135284,1.064911961555481,-0.06724207103252411,-0.6213150024414062
295.0,506.0,-0.8118,4.9143,8.9946,-0.0748,0.0574,-0.2178,-1.7863360844054164,-0.19008813798427582,2.850735664367676,-1.744912028312683,0.26534736156463623,2.6676406860351562,-1.399633304481842,0.00014318927424028516,0.31416118144989014,-2.069749180470602,0.00023425374820362777,0.13355132937431335,0.39427220821380615,0.0,0.01481867115944624,1.0646238327026367,-0.0649094432592392,-0.62050861120224
295.0,506.0,-0.8118,4.9143,8.9946,-0.0748,0.0574,-0.2178,-1.7874824009337367,-0.1789422482252121,2.8311495780944824,-1.743315577507019,0.26716965436935425,2.640768527984619,-1.399596856241562,1.5257680388458539e-05,0.3101266622543335,-2.0697816053973597,0.0004609693423844874,0.1472846269607544,0.39424023032188416,0.0,0.03413433954119682,1.0642726421356201,-0.06091691553592682,-0.6522296071052551
295.0,506.0,-0.8118,4.9143,8.9946,-0.0748,0.0574,-0.2178,-1.7881704769530238,-0.17344559729099274,2.8582704067230225,-1.7422780990600586,0.2670396864414215,2.662055015563965,-1.39961692810569,6.504588867528582e-08,0.32508569955825806,-2.069761578236715,0.00046509093954227865,0.1357472985982895,0.3942885398864746,0.0,0.022733144462108612,1.0640287399291992,-0.057285960763692856,-0.6026217341423035
295.0,506.0,-0.8118,4.9143,8.9946,-0.0748,0.0574,-0.2178,-1.789260049859518,-0.17937956750392914,2.853983163833618,-1.740694522857666,0.26278719305992126,2.6120829582214355,-1.3996411126903077,1.8105761681597166e-11,0.3171546757221222,-2.069716755543844,0.00043850031215697527,0.13651201128959656,0.39425215125083923,0.0,0.013609861955046654,1.0637006759643555,-0.053350355476140976,-0.5902367234230042
295.0,506.0,-0.8118,4.9143,8.9946,-0.0748,0.0574,-0.2178,-1.7899533710875453,-0.18892502784729004,2.879575729370117,-1.7395970821380615,0.2603611648082733,2.6498303413391113,-1.399716855292656,-0.0011480924440547824,0.3061062693595886,-2.069737259541647,0.0003910805389750749,0.13891258835792542,0.39426812529563904,0.0,0.029463905841112137,1.0634968280792236,-0.053025610744953156,-0.6202325820922852
295.0,506.0,-0.8118,4.9143,8.9946,-0.0748,0.0574,-0.2178,-1.7907549343504847,-0.19693446159362793,2.817605972290039,-1.7386043071746826,0.2580723464488983,2.5660736560821533,-1.3996768456748505,-0.0018240346107631922,0.3091387152671814,-2.0697653929339808,0.0004260928835719824,0.1446264237165451,0.3943080008029938,0.0,0.03247026354074478,1.0632845163345337,-0.05011133477091789,-0.5971168875694275
295.0,506.0,-0.8118,4.9143,8.9946,-0.0748,0.0574,-0.2178,-1.791835447350973,-0.19671539962291718,2.861543655395508,-1.7370160818099976,0.25787878036499023,2.6233983039855957,-1.399673418407776,-0.0012745020212605596,0.3154523968696594,-2.0697458426104944,0.00039829022716730833,0.14073176681995392,0.39427632093429565,0.0,0.031728409230709076,1.0629724264144897,-0.04996570572257042,-0.625302791595459
295.0,506.0,-0.8118,4.9143,8.9946,-0.0748,0.0574,-0.2178,-1.7926536999144496,-0.1933567076921463,2.790522575378418,-1.7360180616378784,0.2603229880332947,2.6163647174835205,-1.3996735227159043,-0.0008254077984020114,0.3085416555404663,-2.069716755543844,0.00040392231312580407,0.12854047119617462,0.39427638053894043,0.0,0.021364428102970123,1.0627846717834473,-0.04983385652303696,-0.6367549896240234
295.0,506.0,-0.8118,4.9143,8.9946,-0.0748,0.0574,-0.2178,-1.7937833271422328,-0.1849103420972824,2.8834829330444336,-1.734475016593933,0.26397693157196045,2.6802382469177246,-1.3996570867351075,-0.0006636281032115221,0.31847137212753296,-2.06977349916567,0.000388743937946856,0.13861201703548431,0.39424407482147217,0.0,0.017422495409846306,1.0624523162841797,-0.049752309918403625,-0.6079735159873962
295.0,506.0,-0.8118,4.9143,8.9946,-0.0748,0.0574,-0.2178,-1.794523378411764,-0.1844811737537384,2.830864429473877,-1.73347806930542,0.2590354084968567,2.6314985752105713,-1.399689109330513,-0.0004348473157733679,0.32620230317115784,-2.06977349916567,0.000350894988514483,0.1306971311569214,0.3943045139312744,0.0,0.039109982550144196,1.0622917413711548,-0.046786654740571976,-0.5707595348358154
295.0,506.0,-0.8118,4.9143,8.9946,-0.0748,0.0574,-0.2178,-1.7953211269774378,-0.18740849196910858,2.835306406021118,-1.7324522733688354,0.2543594539165497,2.6865594387054443,-1.3996891242316742,-0.0004901912179775536,0.3047659695148468,-2.069721047078268,0.00031972344731912017,0.14422157406806946,0.3943447768688202,0.0,0.018808381631970406,1.062124252319336,-0.044814981520175934,-0.584506630897522
295.0,506.0,-0.8118,4.9143,8.9946,-0.0748,0.0574,-0.2178,-1.796398778954977,-0.19151464104652405,2.826817512512207,-1.7308647632598877,0.2590057849884033,2.657697916030884,-1.3996529144099732,-0.00040400109719485044,0.3052695393562317,-2.06977349916567,0.00028213029145263135,0.13532531261444092,0.3943080008029938,0.0,0.03564372658729553,1.0618603229522705,-0.04011830314993858,-0.5995363593101501
295.0,506.0,-0.8118,4.9143,8.9946,-0.0748,0.0574,-0.2178,-1.7971679172911585,-0.19036585092544556,2.8958992958068848,-1.729814052581787,0.2599537968635559,2.668137788772583,-1.399661124949791,-0.00040911411633715034,0.3140857219696045,-2.0697696844684046,0.00026162428548559546,0.1391475945711136,0.39427250623703003,0.0,0.033840522170066833,1.0617849826812744,-0.03873959183692932,-0.5617773532867432
295.0,506.0,-0.8118,4.9143,8.9946,-0.0748,0.0574,-0.2178,-1.7982574901976527,-0.1900952011346817,2.914883613586426,-1.7283425331115723,0.25533607602119446,2.6616883277893066,-1.3997210723212739,-0.00211897399276495,0.3136110305786133,-2.0697653929339808,0.00023590463388245553,0.12652462720870972,0.39428049325942993,0.0,0.039062030613422394,1.0615172386169434,-0.03861132264137268,-0.5425549745559692
284.0,453.0,-0.7771,4.4812,7.8401,-0.0732,0.0454,-0.1703,-1.799058576623434,-0.19110310077667236,2.840505838394165,-1.7272814512252808,0.2498486042022705,2.563737392425537,-1.399721087222435,-0.0038513876497745514,0.3145560622215271,-2.069789711629049,0.00022139496286399662,0.1504819244146347,0.39432433247566223,0.0,0.03387743979692459,1.0613930225372314,-0.03869277611374855,-0.532380223274231
284.0,453.0,-0.7771,4.4812,7.8401,-0.0732,0.0454,-0.1703,-1.7997995815672816,-0.19089414179325104,2.870022773742676,-1.7262792587280273,0.25155121088027954,2.6051502227783203,-1.3997128766826172,-0.004243183881044388,0.31138110160827637,-2.0697534720050257,0.00020856755145359784,0.12567582726478577,0.3943484127521515,0.0,0.04235759377479553,1.06122887134552,-0.038456499576568604,-0.529494047164917
284.0,453.0,-0.7771,4.4812,7.8401,-0.0732,0.0454,-0.1703,-1.800852438012594,-0.19117854535579681,2.8699560165405273,-1.7248802185058594,0.25285598635673523,2.6065540313720703,-1.3997448545745392,-0.004723001271486282,0.3033529222011566,-2.069777790700094,0.00019189025624655187,0.14966458082199097,0.39438074827194214,0.0,0.03286277502775192,1.0610010623931885,-0.03825376555323601,-0.53941410779953
284.0,453.0,-0.7771,4.4812,7.8401,-0.0732,0.0454,-0.1703,-1.801662107507223,-0.18715213239192963,2.910425901412964,-1.7238783836364746,0.25127866864204407,2.621342658996582,-1.3997965616038819,-0.005964649375528097,0.2865994870662689,-2.0697696844684046,0.0001821790647227317,0.1315029114484787,0.3942926824092865,0.0,0.011536534875631332,1.0608367919921875,-0.03886743634939194,-0.5194900035858154
284.0,453.0,-0.7771,4.4812,7.8401,-0.0732,0.0454,-0.1703,-1.8028246364989222,-0.18541082739830017,2.9336485862731934,-1.7223820686340332,0.23915503919124603,2.58425235748291,-1.3998044592193146,-0.005677514709532261,0.306973934173584,-2.069761101399557,0.0001693254307610914,0.1279180496931076,0.39430391788482666,0.0,0.02464788407087326,1.0606130361557007,-0.03972867131233215,-0.49858617782592773
284.0,453.0,-0.7771,4.4812,7.8401,-0.0732,0.0454,-0.1703,-1.803448339501852,-0.1894703358411789,2.8682312965393066,-1.7214144468307495,0.23316854238510132,2.5761053562164307,-1.399812565451004,-0.003206433728337288,0.31061115860939026,-2.069765869771139,0.000161718504386954,0.12668921053409576,0.3942885398864746,0.0,0.022340334951877594,1.0604568719863892,-0.037801846861839294,-0.5231826305389404
284.0,453.0,-0.7771,4.4812,7.8401,-0.0732,0.0454,-0.1703,-1.8042336903014125,-0.19182796776294708,2.903817653656006,-1.7205233573913574,0.23117060959339142,2.554656744003296,-1.3998248887113114,-0.0010696781100705266,0.300321102142334,-2.0697935263263147,0.00015476581756956875,0.12965473532676697,0.39427223801612854,0.0,0.02859032154083252,1.0602927207946777,-0.03618442267179489,-0.5067360401153564
284.0,453.0,-0.7771,4.4812,7.8401,-0.0732,0.0454,-0.1703,-1.8053676090636195,-0.19016583263874054,2.866882801055908,-1.7190665006637573,0.232323557138443,2.5684592723846436,-1.3997720193913956,-0.00014149562048260123,0.3080000877380371,-2.069716755543844,0.0001453900767955929,0.11350160837173462,0.3943086862564087,0.0,0.022369354963302612,1.0600565671920776,-0.0332583449780941,-0.5543955564498901
284.0,453.0,-0.7771,4.4812,7.8401,-0.0732,0.0454,-0.1703,-1.8061849079527796,-0.18426690995693207,2.866677761077881,-1.7180982828140259,0.23364116251468658,2.5677108764648438,-1.3998203736594697,-0.00010740347352111712,0.3173660635948181,-2.0697415510760706,0.00013974617468193173,0.13498051464557648,0.39427635073661804,0.0,0.025235481560230255,1.0599654912948608,-0.032050345093011856,-0.4927930533885956
284.0,453.0,-0.7771,4.4812,7.8401,-0.0732,0.0454,-0.1703,-1.8072864017882289,-0.17991586029529572,2.9515738487243652,-1.7167823314666748,0.22366133332252502,2.5370748043060303,-1.3998084527305146,-7.905493839643896e-05,0.3036923110485077,-2.069737259541647,0.0001320566952927038,0.1318858563899994,0.39428451657295227,0.0,0.026548616588115692,1.0597609281539917,-0.029861794784665108,-0.4728577733039856
284.0,453.0,-0.7771,4.4812,7.8401,-0.0732,0.0454,-0.1703,-1.8080398044981898,-0.18298275768756866,2.919604778289795,-1.715907335281372,0.21981990337371826,2.559074878692627,-1.3998125505498429,-0.0001252647489309311,0.31322360038757324,-2.0697816053973597,0.0001273837551707402,0.11814193427562714,0.3942885100841522,0.0,0.03164424002170563,1.059648871421814,-0.026709485799074173,-0.48871564865112305
284.0,453.0,-0.7771,4.4812,7.8401,-0.0732,0.0454,-0.1703,-1.808817525903219,-0.1869579702615738,2.934225082397461,-1.7150593996047974,0.21590162813663483,2.58803653717041,-1.3998084527305146,-0.00011693706619553268,0.2978712022304535,-2.0697577635394495,0.00012303044786676764,0.11562016606330872,0.3943285048007965,0.0,0.023364871740341187,1.0595366954803467,-0.022653456777334213,-0.5204696655273438
284.0,453.0,-0.7771,4.4812,7.8401,-0.0732,0.0454,-0.1703,-1.8099385700621546,-0.19806627929210663,2.922454833984375,-1.71373450756073,0.21170255541801453,2.5384654998779297,-1.3998125356486817,-0.00014679369633086026,0.3020698130130768,-2.0697854200946253,0.00011703103518811986,0.13328054547309875,0.3942967355251312,0.0,0.02112169936299324,1.059449553489685,-0.019077328965067863,-0.5150101184844971
284.0,453.0,-0.7771,4.4812,7.8401,-0.0732,0.0454,-0.1703,-1.8107558689513148,-0.2028624415397644,2.879643440246582,-1.712918996810913,0.2076846808195114,2.5883350372314453,-1.3997880232385178,-0.00013241852866485715,0.31184959411621094,-2.0697653929339808,9.942006727214903e-05,0.11817263066768646,0.39428824186325073,0.0,0.023144416511058807,1.0593366622924805,-0.016902713105082512,-0.4397198259830475
284.0,453.0,-0.7771,4.4812,7.8401,-0.0732,0.0454,-0.1703,-1.8119813404478968,-0.19598348438739777,2.9062042236328125,-1.7115706205368042,0.20451173186302185,2.5207161903381348,-1.3998044592193146,8.337530016433448e-05,0.31461861729621887,-2.0697577635394495,9.470536315348e-05,0.11464233696460724,0.39430394768714905,0.0,0.02934296801686287,1.0592448711395264,-0.013334499672055244,-0.46023306250572205
284.0,453.0,-0.7771,4.4812,7.8401,-0.0732,0.0454,-0.1703,-1.8127910099425257,-0.1889224648475647,2.9221184253692627,-1.7108025550842285,0.20619316399097443,2.54382586479187,-1.3998248887113114,0.00012145032815169543,0.31252866983413696,-2.0697410742389124,9.841175051406026e-05,0.12040318548679352,0.39432430267333984,0.0,0.03692355751991272,1.0592572689056396,-0.011640345677733421,-0.4988820552825928
284.0,453.0,-0.7771,4.4812,7.8401,-0.0732,0.0454,-0.1703,-1.8135677776732386,-0.18389159440994263,2.9628071784973145,-1.710062861442566,0.2029973417520523,2.5229291915893555,-1.3998528134873887,0.0002587868657428771,0.31127166748046875,-2.0697291533099573,0.00010206722072325647,0.12163744121789932,0.39434027671813965,0.0,0.020786046981811523,1.0591648817062378,-0.008883115835487843,-0.46306899189949036
284.0,453.0,-0.7771,4.4812,7.8401,-0.0732,0.0454,-0.1703,-1.814737459222311,-0.19181492924690247,2.944613456726074,-1.708858847618103,0.19832958281040192,2.555853843688965,-1.3998687130263825,3.072530319059297e-07,0.2921904921531677,-2.0697453657733362,9.78274765657261e-05,0.13155338168144226,0.3943086564540863,0.0,0.022107642143964767,1.0591611862182617,-0.005654443986713886,-0.4453221261501312
284.0,453.0,-0.7771,4.4812,7.8401,-0.0732,0.0454,-0.1703,-1.8155023060240687,-0.20186996459960938,2.9064724445343018,-1.708094835281372,0.19440989196300507,2.514190912246704,-1.3998527091792603,1.3098677698053507e-09,0.2997297942638397,-2.0697653929339808,8.347100083483383e-05,0.11860917508602142,0.3943401873111725,0.0,0.026153281331062317,1.0590890645980835,-0.0047146594151854515,-0.5131055116653442
273.0,469.0,-0.1472,4.8562,7.3113,0.0067,0.0035,-0.109,-1.816723485986227,-0.20754098892211914,2.9660558700561523,-1.7069950103759766,0.18304358422756195,2.4710960388183594,-1.3998363775065918,3.6460651121547616e-13,0.3084123730659485,-2.0697248617755335,8.061320841079578e-05,0.11007123440504074,0.3943004608154297,0.0,0.032259996980428696,1.0591132640838623,-0.003491964191198349,-0.46992915868759155
273.0,469.0,-0.1472,4.8562,7.3113,0.0067,0.0035,-0.109,-1.8175488911070765,-0.20125934481620789,2.95930552482605,-1.706210732460022,0.18145468831062317,2.504669189453125,-1.399780200128891,1.5543748090341976e-15,0.30843910574913025,-2.06971246400942,8.922804408939555e-05,0.12279137969017029,0.3942722678184509,0.0,0.03059270605444908,1.059041142463684,-0.003703576512634754,-0.42965954542160034
273.0,469.0,-0.1472,4.8562,7.3113,0.0067,0.0035,-0.109,-1.8183704815306605,-0.1937098503112793,2.989647150039673,-1.7055591344833374,0.18415768444538116,2.528400421142578,-1.3998285394958039,-0.00019183941185474396,0.3079695701599121,-2.069749180470602,8.724856888875365e-05,0.1218738704919815,0.3943004608154297,0.0,0.024751782417297363,1.0591013431549072,-0.0037496222648769617,-0.4345233738422394
273.0,469.0,-0.1472,4.8562,7.3113,0.0067,0.0035,-0.109,-1.819535871545309,-0.18469946086406708,2.931750774383545,-1.7044434547424316,0.186863511800766,2.516918897628784,-1.3998810660890122,-0.000216242071473971,0.3073137402534485,-2.0697653929339808,8.41888613649644e-05,0.11640308797359467,0.39432016015052795,0.0,0.02654990181326866,1.0590572357177734,-0.0025945589877665043,-0.4495636224746704
273.0,469.0,-0.1472,4.8562,7.3113,0.0067,0.0035,-0.109,-1.8202969036498011,-0.18658575415611267,2.9708943367004395,-1.7037513256072998,0.17970503866672516,2.5453271865844727,-1.3998805594495316,-0.00025481119519099593,0.3130752742290497,-2.0697816053973597,7.719460700172931e-05,0.13311508297920227,0.3942723274230957,0.0,0.01954498514533043,1.059029221534729,-0.00172082195058465,-0.47749239206314087
273.0,469.0,-0.1472,4.8562,7.3113,0.0067,0.0035,-0.109,-1.8214107952513636,-0.19712980091571808,2.9563703536987305,-1.7027473449707031,0.16767938435077667,2.4749510288238525,-1.3998798888972779,-0.0025671490002423525,0.3115764856338501,-2.0697854200946253,6.959785969229415e-05,0.11910755932331085,0.3942964971065521,0.0,0.0339878685772419,1.059004306793213,-0.0011191627709195018,-0.4592493176460266
273.0,469.0,-0.1472,4.8562,7.3113,0.0067,0.0035,-0.109,-1.8221994839110316,-0.19800762832164764,2.932680606842041,-1.70208740234375,0.15870757400989532,2.4596545696258545,-1.3998798888972779,-0.0027756805066019297,0.30934470891952515,-2.0697248617755335,2.9670658818758966e-07,0.13192324340343475,0.3943161368370056,0.0,0.02741970866918564,1.059049367904663,-0.0008256717119365931,-0.47376686334609985
273.0,469.0,-0.1472,4.8562,7.3113,0.0067,0.0035,-0.109,-1.822949071923727,-0.1962032914161682,2.961010217666626,-1.7013788223266602,0.15576189756393433,2.457319736480713,-1.3998723787120362,-0.0011515934020280838,0.31941211223602295,-2.0697816053973597,1.2649067349101983e-09,0.13217377662658691,0.3943086862564087,0.0,0.01961798220872879,1.059049367904663,-0.0006540982285514474,-0.442668080329895
273.0,469.0,-0.1472,4.8562,7.3113,0.0067,0.0035,-0.109,-1.824066778222555,-0.18520060181617737,2.9701147079467773,-1.7005116939544678,0.15729719400405884,2.476431131362915,-1.3998203736594697,-7.818388212399441e-07,0.2988826036453247,-2.0697577635394495,3.5209145711825873e-13,0.12070103734731674,0.3942883014678955,0.0,0.020795142278075218,1.0590778589248657,-0.0005695823347195983,-0.47202688455581665
273.0,469.0,-0.1472,4.8562,7.3113,0.0067,0.0035,-0.109,-1.8247796497740687,-0.18013682961463928,2.9596590995788574,-1.6998714208602905,0.15753881633281708,2.485640048980713,-1.399848536854126,-3.3331013504778184e-09,0.302497923374176,-2.069801632558004,1.5010211565987149e-15,0.12351538240909576,0.39437270164489746,0.0,0.028601692989468575,1.0589770078659058,-0.0003590216510929167,-0.4550674557685852
273.0,469.0,-0.1472,4.8562,7.3113,0.0067,0.0035,-0.109,-1.8258692226805628,-0.1772216558456421,3.017606019973755,-1.6989753246307373,0.15192942321300507,2.4529659748077393,-1.3999163967422028,-9.277811808747205e-13,0.28246232867240906,-2.069749180470602,4.1781471766482215e-19,0.12413844466209412,0.39426419138908386,0.0,0.026414839550852776,1.0590612888336182,-0.00034609338035807014,-0.4752751886844635
273.0,469.0,-0.1472,4.8562,7.3113,0.0067,0.0035,-0.109,-1.8265820942320765,-0.17905424535274506,3.026383399963379,-1.6983273029327393,0.14841827750205994,2.466552734375,-1.399879903798439,-3.955276674894948e-15,0.3074684739112854,-2.069737259541647,1.7812096547688106e-21,0.1295735239982605,0.39431214332580566,0.0,0.0030923045706003904,1.0590736865997314,-0.0003067661018576473,-0.44659775495529175
273.0,469.0,-0.1472,4.8562,7.3113,0.0067,0.0035,-0.109,-1.8272787533202113,-0.17737606167793274,2.9821724891662598,-1.6977351903915405,0.1464075744152069,2.4814815521240234,-1.3998758059791108,-1.6861964290330162e-17,0.29544106125831604,-2.0697854200946253,7.593575862518365e-24,0.12390543520450592,0.3943364918231964,0.0,0.01769189164042473,1.0590617656707764,-0.00027546475757844746,-0.46776700019836426
273.0,469.0,-0.1472,4.8562,7.3113,0.0067,0.0035,-0.109,-1.8283406696715296,-0.17640328407287598,3.0174272060394287,-1.6969276666641235,0.1356252133846283,2.4359092712402344,-1.3999003928950806,-4.693590008894237e-21,0.2979321777820587,-2.0697291533099573,2.1136998324662305e-27,0.1316063553094864,0.39434072375297546,0.0,0.03240780904889107,1.0590167045593262,-0.00026500827516429126,-0.4580765962600708
273.0,469.0,-0.1472,4.8562,7.3113,0.0067,0.0035,-0.109,-1.828989168206686,-0.1755896806716919,3.047787666320801,-1.6964080333709717,0.1297348141670227,2.4712393283843994,-1.399912254219391,-2.000951208119433e-23,0.319256991147995,-2.0697653929339808,9.011033500635154e-30,0.13428615033626556,0.39423614740371704,0.0,0.027667410671710968,1.0590333938598633,-0.00028005315107293427,-0.4863623380661011
273.0,469.0,-0.1472,4.8562,7.3113,0.0067,0.0035,-0.109,-1.8300353489317835,-0.16963143646717072,3.025737762451172,-1.6956677436828613,0.12465263903141022,2.4276022911071777,-1.3999163967422028,-5.569721221247855e-27,0.3221292495727539,-2.06977349916567,2.5082544174212425e-33,0.12828943133354187,0.3942641019821167,0.0,0.0193270705640316,1.0590131282806396,-0.0004273878876119852,-0.5426316261291504
273.0,469.0,-0.1472,4.8562,7.3113,0.0067,0.0035,-0.109,-1.830639501611227,-0.1649537980556488,3.0687386989593506,-1.6951192617416382,0.12395968288183212,2.4728410243988037,-1.3998481941274186,-2.3744593177457485e-29,0.30101755261421204,-2.0697129408465784,1.0693083386994268e-35,0.12811866402626038,0.3943324089050293,0.0,0.012101796455681324,1.0590291023254395,-0.0015818644315004349,-0.4697059094905853
273.0,469.0,-0.1472,4.8562,7.3113,0.0067,0.0035,-0.109,-1.8313528499998988,-0.15940728783607483,3.1039090156555176,-1.6946437358856201,0.12350860238075256,2.4740257263183594,-1.3999203753522416,-1.0122692019478975e-31,0.3070150315761566,-2.069749180470602,4.558629054543807e-38,0.12851759791374207,0.39435675740242004,0.0,0.022360455244779587,1.0589971542358398,-0.0018133872654289007,-0.49653106927871704
