ramyac6/ROB537/final_project/csv/all/bad_21.csv
tof_0,tof_1,accelx,accely,accelz,gyrox,gyroy,gyroz,shoulder_lift_joint_position,shoulder_lift_joint_velocity,shoulder_lift_joint_effort,elbow_joint_position,elbow_joint_velocity,elbow_joint_effort,wrist_1_joint_position,wrist_1_joint_velocity,wrist_1_joint_effort,wrist_2_joint_position,wrist_2_joint_velocity,wrist_2_joint_effort,wrist_3_joint_position,wrist_3_joint_velocity,wrist_3_joint_effort,shoulder_pan_joint_position,shoulder_pan_joint_velocity,shoulder_pan_joint_effort
260.0,346.0,2.5304,0.4804,9.1113,-0.0385,0.0232,-0.1173,-1.7652341328062953,0.0,2.9224963188171387,-1.6565730571746826,-0.0,2.1321306228637695,4.658631010646484,0.0,0.3014335334300995,-1.6243584791766565,-0.0,-0.0035167180467396975,0.8570107221603394,0.0,-0.0090658999979496,0.8259355425834656,0.0,-0.03536473587155342
260.0,346.0,2.5304,0.4804,9.1113,-0.0385,0.0232,-0.1173,-1.7652341328062953,0.0,2.9603445529937744,-1.6565768718719482,-0.0,2.1263201236724854,4.658627195949219,0.0,0.29513049125671387,-1.6243298689471644,-0.0,-0.00978146307170391,0.8570066690444946,0.0,-0.010852625593543053,0.8259070515632629,0.0,0.029783539474010468
260.0,346.0,2.5304,0.4804,9.1113,-0.0385,0.0232,-0.1173,-1.7652341328062953,0.0,2.9797797203063965,-1.656500220298767,-0.0,2.1192965507507324,4.658643885249756,0.0,0.3044740557670593,-1.6243417898761194,-0.0,-0.0018277729395776987,0.8569425940513611,0.0,-0.006811979692429304,0.8259355425834656,0.0,0.00126953748986125
260.0,346.0,2.5304,0.4804,9.1113,-0.0385,0.0232,-0.1173,-1.765266557733053,0.0,2.9733543395996094,-1.6565648317337036,-0.0,2.118997573852539,4.658643885249756,0.0,0.29275959730148315,-1.6243460814105433,-0.0,-0.009298844262957573,0.8570107221603394,0.0,0.002426369581371546,0.8259314298629761,0.0,-0.008244200609624386
260.0,346.0,2.5304,0.4804,9.1113,-0.0385,0.0232,-0.1173,-1.7652255497374476,0.0,2.943267822265625,-1.6565728187561035,-0.0,2.101223945617676,4.658583326930664,0.0,0.301322340965271,-1.6243308226214808,-0.0,0.001476610777899623,0.8570471405982971,0.0,0.01035615336149931,0.8259314298629761,0.0,0.02207908034324646
260.0,346.0,2.5304,0.4804,9.1113,-0.0385,0.0232,-0.1173,-1.7652298412718714,0.0,2.9764957427978516,-1.656628966331482,-0.0,2.145905017852783,4.658615751857422,0.0,0.29518944025039673,-1.6243904272662562,-0.0,0.0023684834595769644,0.8569463491439819,0.0,-0.004661200102418661,0.8259475827217102,0.0,-0.029331699013710022
260.0,346.0,2.5304,0.4804,9.1113,-0.0385,0.0232,-0.1173,-1.7652694187560023,0.0,2.9548168182373047,-1.656572699546814,-0.0,2.1187119483947754,4.658563776607178,0.0,0.29995980858802795,-1.6243417898761194,-0.0,-0.012320765294134617,0.8569504618644714,0.0,0.00050287542399019,0.8259599208831787,0.0,-0.008144083432853222
260.0,346.0,2.5304,0.4804,9.1113,-0.0385,0.0232,-0.1173,-1.765177389184469,0.0,2.943429946899414,-1.656661868095398,-0.0,2.135329246520996,4.658611937160156,0.0,0.2952958941459656,-1.6243541876422327,-0.0,0.0009158672182820737,0.8569586277008057,0.0,-0.007472580298781395,0.8259396553039551,0.0,-0.001281356904655695
260.0,346.0,2.5304,0.4804,9.1113,-0.0385,0.0232,-0.1173,-1.7652536831297816,0.0,2.968083381652832,-1.656516432762146,-0.0,2.152892827987671,4.658607168788574,0.0,0.30558308959007263,-1.6243866125689905,-0.0,0.003855267772451043,0.85699063539505,0.0,-0.006927979178726673,0.8259273171424866,0.0,-0.002084778156131506
253.0,341.0,2.5729,0.4959,8.9611,-0.035,0.0243,-0.1126,-1.7652660808958949,0.0,2.9751901626586914,-1.6565206050872803,-0.0,2.1665120124816895,4.658647699947021,0.0,0.2919071316719055,-1.6243584791766565,-0.0,0.003147192532196641,0.8569545745849609,0.0,-0.0076768239960074425,0.8259314298629761,0.0,0.04651672765612602
253.0,341.0,2.5729,0.4959,8.9611,-0.035,0.0243,-0.1126,-1.7652341328062953,0.0,2.9568464756011963,-1.6566128730773926,-0.0,2.139634609222412,4.658631010646484,0.0,0.28751036524772644,-1.6243627707110804,-0.0,-0.009534248150885105,0.8570066690444946,0.0,-0.002253561047837138,0.8259273171424866,0.0,0.006406090222299099
253.0,341.0,2.5729,0.4959,8.9611,-0.035,0.0243,-0.1126,-1.7652341328062953,0.0,2.97774600982666,-1.6565771102905273,-0.0,2.1158595085144043,4.658643408412598,0.0,0.2959318459033966,-1.6243346373187464,-0.0,-0.0068673025816679,0.856873631477356,0.0,-0.0037800134159624577,0.8259434700012207,0.0,-0.004683777689933777
253.0,341.0,2.5729,0.4959,8.9611,-0.035,0.0243,-0.1126,-1.7651692829527796,0.0,2.9456121921539307,-1.656589150428772,-0.0,2.138258695602417,4.658595247859619,0.0,0.29581406712532043,-1.624378506337301,-0.0,0.0016473771538585424,0.8569783568382263,0.0,-0.011155880056321621,0.8259396553039551,0.0,-0.004354964476078749
253.0,341.0,2.5729,0.4959,8.9611,-0.035,0.0243,-0.1126,-1.7652012310423792,0.0,2.9881134033203125,-1.6566170454025269,-0.0,2.0773468017578125,4.658647699947021,0.0,0.3063296973705292,-1.6243627707110804,-0.0,-0.011852370575070381,0.8570029139518738,0.0,-0.005715788807719946,0.8259353041648865,0.0,-0.02680022642016411
253.0,341.0,2.5729,0.4959,8.9611,-0.035,0.0243,-0.1126,-1.7652131519713343,0.0,2.967958688735962,-1.6565525531768799,-0.0,2.1302969455718994,4.658631010646484,0.0,0.30370908975601196,-1.6243417898761194,-0.0,0.001042535062879324,0.8569746613502502,0.0,0.0003822611179202795,0.8259273171424866,0.0,-0.03685659170150757
253.0,341.0,2.5729,0.4959,8.9611,-0.035,0.0243,-0.1126,-1.7652417622008265,0.0,2.9923222064971924,-1.6565850973129272,-0.0,2.129502296447754,4.658675356502197,0.0,0.2992730140686035,-1.6243460814105433,-0.0,1.7689773812890053e-05,0.8569586277008057,0.0,0.01131388172507286,0.8259434700012207,0.0,-0.04834602028131485
253.0,341.0,2.5729,0.4959,8.9611,-0.035,0.0243,-0.1126,-1.765233655969137,0.0,2.986163377761841,-1.6566331386566162,-0.0,2.1406826972961426,4.658623858089111,0.0,0.30838820338249207,-1.6243866125689905,-0.0,-0.006328355986624956,0.8569545745849609,0.0,-0.002882726024836302,0.8259516954421997,0.0,-0.0016091736033558846
253.0,341.0,2.5729,0.4959,8.9611,-0.035,0.0243,-0.1126,-1.7652341328062953,0.0,2.986189365386963,-1.6565607786178589,-0.0,2.1607506275177,4.658655806178711,0.0,0.30539482831954956,-1.624382797871725,-0.0,-0.0023237180430442095,0.856966495513916,0.0,-0.004675891250371933,0.8259434700012207,0.0,0.02065243385732174
253.0,341.0,2.5729,0.4959,8.9611,-0.035,0.0243,-0.1126,-1.765221735040182,0.0,2.972308397293091,-1.6565648317337036,-0.0,2.1439740657806396,4.658611937160156,0.0,0.3023040294647217,-1.6243742148028772,-0.0,-0.0012358155800029635,0.8569865822792053,0.0,-0.0031297507230192423,0.8258946537971497,0.0,-0.01974158175289631
253.0,341.0,2.5729,0.4959,8.9611,-0.035,0.0243,-0.1126,-1.7652579746642054,0.0,2.9219298362731934,-1.6566128730773926,-0.0,2.067105770111084,4.658615751857422,0.0,0.2960682511329651,-1.624350372944967,-0.0,0.005861406680196524,0.8569504618644714,0.0,-0.006591102108359337,0.8259193897247314,0.0,-0.01742817647755146
253.0,341.0,2.5729,0.4959,8.9611,-0.035,0.0243,-0.1126,-1.7652579746642054,0.0,2.97684383392334,-1.6566128730773926,-0.0,2.12611985206604,4.658627195949219,0.0,0.30086714029312134,-1.624354664479391,-0.0,-0.0028134763706475496,0.8569705486297607,0.0,-0.016333606094121933,0.8259553909301758,0.0,-0.027300231158733368
253.0,341.0,2.5729,0.4959,8.9611,-0.035,0.0243,-0.1126,-1.7651931248106898,0.0,2.9653735160827637,-1.6566051244735718,-0.0,2.1181273460388184,4.658579512233398,0.0,0.29247814416885376,-1.6243417898761194,-0.0,0.007589080836623907,0.8569710850715637,0.0,0.001601969706825912,0.8258949518203735,0.0,-0.00900929607450962
253.0,341.0,2.5729,0.4959,8.9611,-0.035,0.0243,-0.1126,-1.7652374706664027,0.0,2.9169249534606934,-1.6565968990325928,-0.0,2.1368324756622314,4.658631010646484,0.0,0.2989177703857422,-1.6243379751788538,-0.0,-0.0011946163140237331,0.8569946885108948,0.0,0.011116661131381989,0.8259676694869995,0.0,-0.004575331229716539
253.0,341.0,2.5729,0.4959,8.9611,-0.035,0.0243,-0.1126,-1.765221735040182,0.0,2.984206199645996,-1.656569004058838,-0.0,2.143433094024658,4.658615751857422,0.0,0.3040601909160614,-1.6243584791766565,-0.0,0.005807126872241497,0.8569545745849609,0.0,0.0061098141595721245,0.8259838223457336,0.0,0.04833529517054558
253.0,341.0,2.5729,0.4959,8.9611,-0.035,0.0243,-0.1126,-1.7651893101134242,0.0,2.9923720359802246,-1.6566091775894165,-0.0,2.113858222961426,4.658595247859619,0.0,0.29020819067955017,-1.6243179480182093,-0.0,-0.005010720808058977,0.8569386005401611,0.0,-0.0006017074920237064,0.8259070515632629,0.0,-0.0035590892657637596
253.0,341.0,2.5729,0.4959,8.9611,-0.035,0.0243,-0.1126,-1.7652050457396449,0.0,2.9186882972717285,-1.6566128730773926,-0.0,2.125237464904785,4.6586596208759765,0.0,0.2881559729576111,-1.6243098417865198,-0.0,-0.0038764209020882845,0.8569824695587158,0.0,0.011744532734155655,0.8259353041648865,0.0,0.00550448801368475
259.0,338.0,2.7655,0.5563,8.5872,-0.0373,0.0351,-0.1258,-1.7652093372740687,0.0,2.956923484802246,-1.656580924987793,-0.0,2.132688045501709,4.658623381251953,0.0,0.28869467973709106,-1.624350372944967,-0.0,0.0018146769143640995,0.8569504618644714,0.0,-0.013755708932876587,0.8259232640266418,0.0,0.06662072986364365
259.0,338.0,2.7655,0.5563,8.5872,-0.0373,0.0351,-0.1258,-1.7652579746642054,0.0,3.008187770843506,-1.6565932035446167,-0.0,2.157050132751465,4.658571406001709,0.0,0.2944779396057129,-1.6243746916400355,-0.0,0.006830439902842045,0.8569422960281372,0.0,-0.00533429766073823,0.8259152173995972,0.0,-0.016888614743947983
259.0,338.0,2.7655,0.5563,8.5872,-0.0373,0.0351,-0.1258,-1.765261789361471,0.0,2.9563827514648438,-1.656541109085083,-0.0,2.118684768676758,4.658639593715332,0.0,0.3059648871421814,-1.624350372944967,-0.0,-0.0051227351650595665,0.8569746017456055,0.0,-0.003543666796758771,0.8259434103965759,0.0,0.03043227083981037
259.0,338.0,2.7655,0.5563,8.5872,-0.0373,0.0351,-0.1258,-1.765249868432516,0.0,2.9315810203552246,-1.6565648317337036,-0.0,2.1516366004943848,4.658615751857422,0.0,0.289400577545166,-1.6243627707110804,-0.0,0.004571374040096998,0.856966495513916,0.0,0.0009366882732138038,0.8259111046791077,0.0,-0.013950206339359283
259.0,338.0,2.7655,0.5563,8.5872,-0.0373,0.0351,-0.1258,-1.7651931248106898,0.0,2.9600439071655273,-1.6565369367599487,-0.0,2.1160085201263428,4.658611937160156,0.0,0.3016132414340973,-1.6243460814105433,-0.0,0.0017053589690476656,0.8569746017456055,0.0,-0.00786647479981184,0.8259434700012207,0.0,0.018727216869592667
259.0,338.0,2.7655,0.5563,8.5872,-0.0373,0.0351,-0.1258,-1.7652136288084925,0.0,2.987257480621338,-1.6565768718719482,-0.0,2.1205551624298096,4.658567591304443,0.0,0.30258750915527344,-1.624322239552633,-0.0,-0.0024600489996373653,0.8569743037223816,0.0,0.0014111908385530114,0.8259152770042419,0.0,0.04015262797474861
259.0,338.0,2.7655,0.5563,8.5872,-0.0373,0.0351,-0.1258,-1.7651974163451136,0.0,2.924173355102539,-1.6565287113189697,-0.0,2.1180953979492188,4.658647699947021,0.0,0.29068756103515625,-1.624378506337301,-0.0,-0.008291767910122871,0.8569018244743347,0.0,-0.006921611726284027,0.8259353041648865,0.0,-0.013787382282316685
259.0,338.0,2.7655,0.5563,8.5872,-0.0373,0.0351,-0.1258,-1.7652093372740687,0.0,2.963031768798828,-1.656580924987793,-0.0,2.122133731842041,4.6586195665546875,0.0,0.30918440222740173,-1.6243308226214808,-0.0,0.003631365718320012,0.8569545149803162,0.0,-0.0014898693189024925,0.82596355676651,0.0,0.07786189019680023
259.0,338.0,2.7655,0.5563,8.5872,-0.0373,0.0351,-0.1258,-1.7652131519713343,0.0,2.9871737957000732,-1.6565687656402588,-0.0,2.13992977142334,4.6586596208759765,0.0,0.2995615005493164,-1.624326531087057,-0.0,0.0035854873713105917,0.8569865822792053,0.0,-0.0005890525062568486,0.8259755969047546,0.0,0.007206454873085022
259.0,338.0,2.7655,0.5563,8.5872,-0.0373,0.0351,-0.1258,-1.7652174435057582,0.0,2.948002338409424,-1.6566128730773926,-0.0,2.1058216094970703,4.658651514644287,0.0,0.29068127274513245,-1.6243417898761194,-0.0,-0.004800471011549234,0.8569705486297607,0.0,-0.0013126814737915993,0.8259434700012207,0.0,0.008508296683430672
259.0,338.0,2.7655,0.5563,8.5872,-0.0373,0.0351,-0.1258,-1.7652579746642054,0.0,2.9837121963500977,-1.6565850973129272,-0.0,2.14640474319458,4.658679648036621,0.0,0.29621201753616333,-1.624382797871725,-0.0,-0.009044474922120571,0.8570103645324707,0.0,-0.01598421297967434,0.8258868455886841,0.0,0.03724556788802147
259.0,338.0,2.7655,0.5563,8.5872,-0.0373,0.0351,-0.1258,-1.7652541599669398,0.0,2.9468748569488525,-1.656580924987793,-0.0,2.134005069732666,4.658603830928467,0.0,0.30114954710006714,-1.6243417898761194,-0.0,0.0034410611260682344,0.8569626808166504,0.0,0.010577775537967682,0.8259957432746887,0.0,0.009863929823040962
259.0,338.0,2.7655,0.5563,8.5872,-0.0373,0.0351,-0.1258,-1.7652579746642054,0.0,2.9549708366394043,-1.6565524339675903,-0.0,2.1447949409484863,4.658663435573242,0.0,0.2948983907699585,-1.6243541876422327,-0.0,-0.0043874140828847885,0.8568900227546692,0.0,-0.018628094345331192,0.8258908987045288,0.0,-0.03589753806591034
259.0,338.0,2.7655,0.5563,8.5872,-0.0373,0.0351,-0.1258,-1.765237947503561,0.0,2.9702749252319336,-1.656589150428772,-0.0,2.1246721744537354,4.658535643214844,0.0,0.30330151319503784,-1.624350372944967,-0.0,0.009386660531163216,0.8569905757904053,0.0,-0.007315421476960182,0.8259193897247314,0.0,-0.018845105543732643
259.0,338.0,2.7655,0.5563,8.5872,-0.0373,0.0351,-0.1258,-1.7652698955931605,0.0,3.0018234252929688,-1.656580924987793,-0.0,2.13502836227417,4.658639593715332,0.0,0.298382431268692,-1.6243584791766565,-0.0,-0.006518235895782709,0.8570345640182495,0.0,0.0034725351724773645,0.8259797096252441,0.0,0.03647412359714508
259.0,338.0,2.7655,0.5563,8.5872,-0.0373,0.0351,-0.1258,-1.7652579746642054,0.0,2.963712215423584,-1.6565850973129272,-0.0,2.1061315536499023,4.658647699947021,0.0,0.29124951362609863,-1.6243627707110804,-0.0,0.0011804834939539433,0.8569984436035156,0.0,-0.00561849819496274,0.825939416885376,0.0,-0.0076210591942071915
259.0,338.0,2.7655,0.5563,8.5872,-0.0373,0.0351,-0.1258,-1.7652174435057582,0.0,2.958834409713745,-1.6565850973129272,-0.0,2.1367926597595215,4.658611937160156,0.0,0.2905156910419464,-1.6243379751788538,-0.0,-0.002607211470603943,0.8569344878196716,0.0,-0.003112452570348978,0.8259071111679077,0.0,-0.029850367456674576
259.0,338.0,2.7655,0.5563,8.5872,-0.0373,0.0351,-0.1258,-1.7652579746642054,0.0,2.949686050415039,-1.6565370559692383,-0.0,2.126216173171997,4.658631010646484,0.0,0.2927485704421997,-1.6243379751788538,-0.0,0.006937854457646608,0.8570188879966736,0.0,-0.0002580357249826193,0.82596355676651,0.0,-0.007629933767020702
257.0,335.0,2.5065,0.4983,9.0084,-0.0319,0.0261,-0.1184,-1.7652131519713343,0.0,3.020186424255371,-1.6565768718719482,-0.0,2.0861096382141113,4.658595247859619,0.0,0.2989075779914856,-1.6243627707110804,-0.0,-0.008389742113649845,0.85699462890625,0.0,0.010333654470741749,0.8259516954421997,0.0,-0.003323191776871681
257.0,335.0,2.5065,0.4983,9.0084,-0.0319,0.0261,-0.1184,-1.765237947503561,0.0,2.9769434928894043,-1.6566091775894165,-0.0,2.1337618827819824,4.658595247859619,0.0,0.2948654592037201,-1.6243346373187464,-0.0,-0.0031038031447678804,0.8569903373718262,0.0,-0.009735509753227234,0.82596355676651,0.0,-0.006701739504933357
257.0,335.0,2.5065,0.4983,9.0084,-0.0319,0.0261,-0.1184,-1.765249868432516,0.0,2.912425994873047,-1.6565968990325928,-0.0,2.1453299522399902,4.658627195949219,0.0,0.2970595955848694,-1.624366585408346,-0.0,-0.011059095151722431,0.8569626808166504,0.0,0.0019668256863951683,0.8259595036506653,0.0,0.029701031744480133
257.0,335.0,2.5065,0.4983,9.0084,-0.0319,0.0261,-0.1184,-1.765165468255514,0.0,3.0075464248657227,-1.6565968990325928,-0.0,2.0571281909942627,4.658583326930664,0.0,0.3057231307029724,-1.6244028250323694,-0.0,0.00399008858948946,0.8569987416267395,0.0,-0.006389613263309002,0.8259434103965759,0.0,0.025128038600087166
257.0,335.0,2.5065,0.4983,9.0084,-0.0319,0.0261,-0.1184,-1.765205522576803,0.0,2.9544506072998047,-1.6565525531768799,-0.0,2.0841989517211914,4.6586033540913085,0.0,0.2977951765060425,-1.6243746916400355,-0.0,-0.0026852916926145554,0.8569545745849609,0.0,-0.012514556758105755,0.8259152770042419,0.0,0.020244408398866653
257.0,335.0,2.5065,0.4983,9.0084,-0.0319,0.0261,-0.1184,-1.7652460537352503,0.0,2.9235148429870605,-1.6565730571746826,-0.0,2.1398961544036865,4.6586033540913085,0.0,0.30539363622665405,-1.6243622938739222,-0.0,-0.004085201304405928,0.8569705486297607,0.0,-0.0032343852799385786,0.8259314298629761,0.0,0.055419549345970154
257.0,335.0,2.5065,0.4983,9.0084,-0.0319,0.0261,-0.1184,-1.7651893101134242,0.0,2.9450695514678955,-1.656569004058838,-0.0,2.127734661102295,4.658615751857422,0.0,0.29390594363212585,-1.62433368364443,-0.0,-0.009632807224988937,0.8570106029510498,0.0,-0.0010187977459281683,0.8259797096252441,0.0,0.009910613298416138
257.0,335.0,2.5065,0.4983,9.0084,-0.0319,0.0261,-0.1184,-1.7651974163451136,0.0,2.9578795433044434,-1.6565525531768799,-0.0,2.1180410385131836,4.6586033540913085,0.0,0.29568976163864136,-1.6243417898761194,-0.0,0.0020127955358475447,0.8569307327270508,0.0,0.008196884766221046,0.8259314298629761,0.0,-0.006182379554957151
257.0,335.0,2.5065,0.4983,9.0084,-0.0319,0.0261,-0.1184,-1.765261789361471,0.0,2.955265522003174,-1.6565443277359009,-0.0,2.1225032806396484,4.6586596208759765,0.0,0.29283320903778076,-1.6243141333209437,-0.0,0.004659723956137896,0.8569586277008057,0.0,0.007570128422230482,0.8259273171424866,0.0,-0.018777133896946907
257.0,335.0,2.5065,0.4983,9.0084,-0.0319,0.0261,-0.1184,-1.7651611767210902,0.0,2.9526522159576416,-1.656589150428772,-0.0,2.1532576084136963,4.658631010646484,0.0,0.3045034110546112,-1.6243460814105433,-0.0,-0.005496487952768803,0.8569943904876709,0.0,-0.007595628499984741,0.8259191513061523,0.0,-0.040513139218091965
257.0,335.0,2.5065,0.4983,9.0084,-0.0319,0.0261,-0.1184,-1.7652422390379847,0.0,2.9478845596313477,-1.656580924987793,-0.0,2.095090866088867,4.658631010646484,0.0,0.30621105432510376,-1.6243909041034144,-0.0,0.010392148047685623,0.8569626808166504,0.0,0.001981914509087801,0.8259553909301758,0.0,0.043233923614025116
257.0,335.0,2.5065,0.4983,9.0084,-0.0319,0.0261,-0.1184,-1.7651893101134242,0.0,2.9667892456054688,-1.6565204858779907,-0.0,2.1309304237365723,4.658607645625732,0.0,0.2908251881599426,-1.624378506337301,-0.0,-0.008531882427632809,0.8569467067718506,0.0,0.010331595316529274,0.825939416885376,0.0,-0.035864099860191345
257.0,335.0,2.5065,0.4983,9.0084,-0.0319,0.0261,-0.1184,-1.7651854954161585,0.0,2.9830098152160645,-1.656541109085083,-0.0,2.151346206665039,4.658587618465088,0.0,0.29072409868240356,-1.6243823210345667,-0.0,-0.004608174320310354,0.8569303750991821,0.0,-0.007223148830235004,0.8259232640266418,0.0,-0.024392414838075638
257.0,335.0,2.5065,0.4983,9.0084,-0.0319,0.0261,-0.1184,-1.7652131519713343,0.0,2.9273552894592285,-1.656541109085083,-0.0,2.0795280933380127,4.658647699947021,0.0,0.3003809452056885,-1.624382797871725,-0.0,0.006124538369476795,0.8569824695587158,0.0,-0.01255605649203062,0.8259717226028442,0.0,-0.009191854856908321
257.0,335.0,2.5065,0.4983,9.0084,-0.0319,0.0261,-0.1184,-1.7652174435057582,0.0,2.960606336593628,-1.6565968990325928,-0.0,2.1059393882751465,4.658631010646484,0.0,0.2815423011779785,-1.6243904272662562,-0.0,-0.005962728057056665,0.8569905757904053,0.0,0.008280943147838116,0.8259755969047546,0.0,0.03078891523182392
257.0,335.0,2.5065,0.4983,9.0084,-0.0319,0.0261,-0.1184,-1.7652255497374476,0.0,2.9512758255004883,-1.6565768718719482,-0.0,2.161440849304199,4.658599539394043,0.0,0.2939506471157074,-1.624326531087057,-0.0,-0.01207524724304676,0.8569340705871582,0.0,-0.00202333927154541,0.8259273171424866,0.0,-0.040660589933395386
257.0,335.0,2.5065,0.4983,9.0084,-0.0319,0.0261,-0.1184,-1.7652174435057582,0.0,2.948462724685669,-1.6565686464309692,-0.0,2.159628391265869,4.658611937160156,0.0,0.2931269109249115,-1.624382797871725,-0.0,-0.005363682750612497,0.8569705486297607,0.0,-0.012767805717885494,0.8259755969047546,0.0,0.002976852934807539
253.0,339.0,2.4461,0.4696,9.1478,-0.038,0.0226,-0.1092,-1.7651893101134242,0.0,2.9845237731933594,-1.6565648317337036,-0.0,2.0969793796539307,4.658607645625732,0.0,0.3079436719417572,-1.6243584791766565,-0.0,-0.004787962883710861,0.856978714466095,0.0,-0.010978421196341515,0.8258991837501526,0.0,0.03523372486233711
253.0,339.0,2.4461,0.4696,9.1478,-0.038,0.0226,-0.1092,-1.7652255497374476,0.0,2.9488186836242676,-1.656569004058838,-0.0,2.158635139465332,4.658620043391846,0.0,0.28673478960990906,-1.6243627707110804,-0.0,-0.01574130728840828,0.8570267558097839,0.0,-0.0035145110450685024,0.8259152770042419,0.0,-0.009228521957993507
253.0,339.0,2.4461,0.4696,9.1478,-0.038,0.0226,-0.1092,-1.7652131519713343,0.0,2.9199984073638916,-1.656589150428772,-0.0,2.1441874504089355,4.658615751857422,0.0,0.29583054780960083,-1.6243141333209437,-0.0,-0.01711135543882847,0.8569783568382263,0.0,0.0014179162681102753,0.8259152770042419,0.0,0.002981424331665039
253.0,339.0,2.4461,0.4696,9.1478,-0.038,0.0226,-0.1092,-1.7651893101134242,0.0,2.9709606170654297,-1.6566015481948853,-0.0,2.1171789169311523,4.658647699947021,0.0,0.28668391704559326,-1.624326531087057,-0.0,0.006922281812876463,0.8569303750991821,0.0,-0.011276227422058582,0.8259273171424866,0.0,-0.01090099848806858
253.0,339.0,2.4461,0.4696,9.1478,-0.038,0.0226,-0.1092,-1.7652050457396449,0.0,2.966546058654785,-1.6566051244735718,-0.0,2.1569504737854004,4.658599539394043,0.0,0.28950926661491394,-1.624350372944967,-0.0,-0.002464309800416231,0.8569140434265137,0.0,-0.005305955186486244,0.8259273171424866,0.0,-0.004795157350599766
253.0,339.0,2.4461,0.4696,9.1478,-0.038,0.0226,-0.1092,-1.7651850185790003,0.0,2.942193031311035,-1.6566052436828613,-0.0,2.1434178352355957,4.6586033540913085,0.0,0.2834485173225403,-1.6243746916400355,-0.0,-0.012677805498242378,0.8569179773330688,0.0,-0.006055248435586691,0.8259112238883972,0.0,-0.02417673170566559
253.0,339.0,2.4461,0.4696,9.1478,-0.038,0.0226,-0.1092,-1.7652341328062953,0.0,2.964322090148926,-1.6565370559692383,-0.0,2.1689295768737793,4.658663435573242,0.0,0.2857779264450073,-1.6243303457843226,-0.0,-0.0027482770383358,0.8569667935371399,0.0,0.01986781321465969,0.8259073495864868,0.0,-0.03842596709728241
253.0,339.0,2.4461,0.4696,9.1478,-0.038,0.0226,-0.1092,-1.7652255497374476,0.0,2.9561405181884766,-1.6565768718719482,-0.0,2.1377696990966797,4.658635302180908,0.0,0.29584628343582153,-1.624354664479391,-0.0,0.005440005101263523,0.856918454170227,0.0,-0.01057446375489235,0.8258910179138184,0.0,0.025494955480098724
253.0,339.0,2.4461,0.4696,9.1478,-0.038,0.0226,-0.1092,-1.7652131519713343,0.0,2.92773699760437,-1.6565730571746826,-0.0,2.1332192420959473,4.658599539394043,0.0,0.287352979183197,-1.6243746916400355,-0.0,0.0020613751839846373,0.8569946885108948,0.0,0.0026286409702152014,0.8259676098823547,0.0,0.006106208078563213
253.0,339.0,2.4461,0.4696,9.1478,-0.038,0.0226,-0.1092,-1.7652012310423792,0.0,2.9694008827209473,-1.6565525531768799,-0.0,2.0918049812316895,4.658595247859619,0.0,0.28479066491127014,-1.6243622938739222,-0.0,-0.0017111042980104685,0.8569545745849609,0.0,-0.006601225584745407,0.8259193897247314,0.0,0.013986922800540924
253.0,339.0,2.4461,0.4696,9.1478,-0.038,0.0226,-0.1092,-1.7651692829527796,0.0,2.9606966972351074,-1.6566210985183716,-0.0,2.1256825923919678,4.658583326930664,0.0,0.28972363471984863,-1.6243541876422327,-0.0,0.011803414672613144,0.8569422960281372,0.0,0.014227641746401787,0.8259193897247314,0.0,-0.056047096848487854
253.0,339.0,2.4461,0.4696,9.1478,-0.038,0.0226,-0.1092,-1.7652174435057582,0.0,2.953097343444824,-1.6565968990325928,-0.0,2.1181535720825195,4.6586314874836425,0.0,0.2938138246536255,-1.6243460814105433,-0.0,0.002781967166811228,0.8570147752761841,0.0,-0.004373093601316214,0.8259475827217102,0.0,0.0002763546071946621
253.0,339.0,2.4461,0.4696,9.1478,-0.038,0.0226,-0.1092,-1.7652131519713343,0.0,2.9837160110473633,-1.656577229499817,-0.0,2.1030025482177734,4.658599062556885,0.0,0.2872809171676636,-1.6243379751788538,-0.0,0.008143468759953976,0.8569582104682922,0.0,-0.005483459681272507,0.8259273171424866,0.0,0.022070087492465973
253.0,339.0,2.4461,0.4696,9.1478,-0.038,0.0226,-0.1092,-1.7652131519713343,0.0,3.0067014694213867,-1.656500220298767,-0.0,2.147332191467285,4.658627195949219,0.0,0.2911286950111389,-1.62433368364443,-0.0,0.001235178904607892,0.8569946885108948,0.0,-0.0021948483772575855,0.8259717226028442,0.0,-0.006315548904240131
253.0,339.0,2.4461,0.4696,9.1478,-0.038,0.0226,-0.1092,-1.7652341328062953,0.0,2.9747629165649414,-1.656549334526062,-0.0,2.0855133533477783,4.658615751857422,0.0,0.29270249605178833,-1.6244147459613245,-0.0,-0.008766569197177887,0.8569307923316956,0.0,-0.014735549688339233,0.8259837627410889,0.0,0.025679558515548706
253.0,339.0,2.4461,0.4696,9.1478,-0.038,0.0226,-0.1092,-1.765221735040182,0.0,2.925140142440796,-1.6565122604370117,-0.0,2.1579549312591553,4.658599539394043,0.0,0.29677847027778625,-1.6244104544269007,-0.0,-0.0035673605743795633,0.8570350408554077,0.0,0.008012283593416214,0.8259273171424866,0.0,0.027822155505418777
253.0,339.0,2.4461,0.4696,9.1478,-0.038,0.0226,-0.1092,-1.7652417622008265,0.0,2.9394078254699707,-1.6565648317337036,-0.0,2.118997097015381,4.658579512233398,0.0,0.2935362458229065,-1.6243184248553675,-0.0,-0.01085200347006321,0.8568940758705139,0.0,-0.01225021481513977,0.8259152770042419,0.0,-0.002430044813081622
257.0,351.0,2.4538,0.451,9.1502,-0.0435,0.0156,-0.1133,-1.7652255497374476,0.0,2.9366648197174072,-1.6565443277359009,-0.0,2.1103291511535645,4.658575697536133,0.0,0.2999623119831085,-1.6243184248553675,-0.0,-0.005649587605148554,0.8570025563240051,0.0,-0.001714300480671227,0.8259314298629761,0.0,0.039313726127147675
257.0,351.0,2.4538,0.451,9.1502,-0.0435,0.0156,-0.1133,-1.765188833276266,0.0,2.9449410438537598,-1.6566247940063477,-0.0,2.1535162925720215,4.658651514644287,0.0,0.2960931062698364,-1.6243460814105433,-0.0,-0.0008333772420883179,0.8569504618644714,0.0,-0.007802011910825968,0.8258991837501526,0.0,0.022588780149817467
257.0,351.0,2.4538,0.451,9.1502,-0.0435,0.0156,-0.1133,-1.7652298412718714,0.0,2.9343318939208984,-1.656532883644104,-0.0,2.1118595600128174,4.658615751857422,0.0,0.2968568205833435,-1.6243417898761194,-0.0,-0.00555751658976078,0.8569464087486267,0.0,-0.0016431014519184828,0.8259355425834656,0.0,0.007074916735291481
257.0,351.0,2.4538,0.451,9.1502,-0.0435,0.0156,-0.1133,-1.7652660808958949,0.0,2.9561071395874023,-1.6565648317337036,-0.0,2.1165366172790527,4.658599539394043,0.0,0.29557010531425476,-1.6243460814105433,-0.0,-4.662317223846912e-06,0.8569303750991821,0.0,-0.002141097793355584,0.825903058052063,0.0,0.02010166272521019
257.0,351.0,2.4538,0.451,9.1502,-0.0435,0.0156,-0.1133,-1.7652660808958949,0.0,2.9633970260620117,-1.656508445739746,-0.0,2.134601354598999,4.6586596208759765,0.0,0.29543107748031616,-1.6243866125689905,-0.0,0.0005301868659444153,0.8570754528045654,0.0,-0.0062050484120845795,0.8258991837501526,0.0,-0.008347093127667904
257.0,351.0,2.4538,0.451,9.1502,-0.0435,0.0156,-0.1133,-1.7652298412718714,0.0,2.9572529792785645,-1.6566051244735718,-0.0,2.111130714416504,4.658635302180908,0.0,0.3011210262775421,-1.624382797871725,-0.0,-0.013066532090306282,0.8569701910018921,0.0,0.0035324268974363804,0.8259395956993103,0.0,-0.01100754365324974
257.0,351.0,2.4538,0.451,9.1502,-0.0435,0.0156,-0.1133,-1.7652536831297816,0.0,2.950669050216675,-1.656589150428772,-0.0,2.1321632862091064,4.658615751857422,0.0,0.30220574140548706,-1.6243417898761194,-0.0,-0.008155563846230507,0.8569542765617371,0.0,0.00040393578819930553,0.8259314298629761,0.0,-0.013604016974568367
257.0,351.0,2.4538,0.451,9.1502,-0.0435,0.0156,-0.1133,-1.765177389184469,0.0,2.9652488231658936,-1.6565850973129272,-0.0,2.1376893520355225,4.658607645625732,0.0,0.2944428324699402,-1.624366585408346,-0.0,0.004434091039001942,0.8569865822792053,0.0,-0.005946007557213306,0.8259516358375549,0.0,0.02956518717110157
257.0,351.0,2.4538,0.451,9.1502,-0.0435,0.0156,-0.1133,-1.7651812038817347,0.0,2.981088161468506,-1.6565525531768799,-0.0,2.125552177429199,4.658675356502197,0.0,0.2798914313316345,-1.6243379751788538,-0.0,0.0010915345046669245,0.8570305109024048,0.0,0.004186885431408882,0.8259314298629761,0.0,0.005659902468323708
257.0,351.0,2.4538,0.451,9.1502,-0.0435,0.0156,-0.1133,-1.7652012310423792,0.0,3.0065906047821045,-1.6565525531768799,-0.0,2.1526944637298584,4.658667727107666,0.0,0.292470782995224,-1.6243909041034144,-0.0,-4.653935320675373e-06,0.8569385409355164,0.0,0.00047398669994436204,0.8259193897247314,0.0,0.05565951392054558
257.0,351.0,2.4538,0.451,9.1502,-0.0435,0.0156,-0.1133,-1.7652460537352503,0.0,2.969426155090332,-1.6566051244735718,-0.0,2.166045904159546,4.658622904414795,0.0,0.297667920589447,-1.6243627707110804,-0.0,0.00608846265822649,0.8569179773330688,0.0,0.0008710459806025028,0.8259475827217102,0.0,-0.008306083269417286
257.0,351.0,2.4538,0.451,9.1502,-0.0435,0.0156,-0.1133,-1.7652174435057582,0.0,3.0048389434814453,-1.6565204858779907,-0.0,2.1525795459747314,4.658627672786377,0.0,0.2858556807041168,-1.6243584791766565,-0.0,-0.0020357700996100903,0.8569505214691162,0.0,-0.007169972639530897,0.8259153366088867,0.0,-0.011818699538707733
257.0,351.0,2.4538,0.451,9.1502,-0.0435,0.0156,-0.1133,-1.7652255497374476,0.0,2.9951252937316895,-1.656601071357727,-0.0,2.1035518646240234,4.658579512233398,0.0,0.2932879626750946,-1.6243303457843226,-0.0,0.004438567906618118,0.8569464087486267,0.0,-0.011037884280085564,0.8259516358375549,0.0,0.010900712572038174
257.0,351.0,2.4538,0.451,9.1502,-0.0435,0.0156,-0.1133,-1.7652298412718714,0.0,2.9692864418029785,-1.6565525531768799,-0.0,2.1503477096557617,4.658635302180908,0.0,0.28633278608322144,-1.624298397694723,-0.0,0.007864652201533318,0.8569422960281372,0.0,-0.004620237275958061,0.8259676098823547,0.0,0.0176813043653965
257.0,351.0,2.4538,0.451,9.1502,-0.0435,0.0156,-0.1133,-1.7652174435057582,0.0,2.9555678367614746,-1.6565607786178589,-0.0,2.1334917545318604,4.658615751857422,0.0,0.29908838868141174,-1.624326531087057,-0.0,-0.007463660091161728,0.8569426536560059,0.0,-3.086857032030821e-05,0.825939416885376,0.0,-0.04249344393610954
257.0,351.0,2.4538,0.451,9.1502,-0.0435,0.0156,-0.1133,-1.7652341328062953,0.0,2.967219829559326,-1.6565728187561035,-0.0,2.1180052757263184,4.658607645625732,0.0,0.2908015847206116,-1.6243417898761194,-0.0,0.0002778812777251005,0.8570066690444946,0.0,0.004755966365337372,0.82596355676651,0.0,0.034250229597091675
257.0,351.0,2.4538,0.451,9.1502,-0.0435,0.0156,-0.1133,-1.765249868432516,0.0,2.9260592460632324,-1.6565850973129272,-0.0,2.1456074714660645,4.658647699947021,0.0,0.30862241983413696,-1.6243823210345667,-0.0,-0.009235121309757233,0.8569586277008057,0.0,0.0017445471603423357,0.8259475827217102,0.0,-0.00013104057870805264
253.0,342.0,2.461,0.4516,9.2536,-0.0377,0.0254,-0.1107,-1.7651812038817347,0.0,2.9369044303894043,-1.65664541721344,-0.0,2.1277008056640625,4.658583326930664,0.0,0.28194737434387207,-1.6243346373187464,-0.0,-0.008771669119596481,0.8569623827934265,0.0,-0.01060993131250143,0.8259673714637756,0.0,-0.0005885511636734009
253.0,342.0,2.461,0.4516,9.2536,-0.0377,0.0254,-0.1107,-1.7652298412718714,0.0,3.026399612426758,-1.656541109085083,-0.0,2.13714599609375,4.658623858089111,0.0,0.2966010868549347,-1.6243584791766565,-0.0,0.006339148618280888,0.8569426536560059,0.0,-0.009689821861684322,0.8259676098823547,0.0,-0.04755506291985512
253.0,342.0,2.461,0.4516,9.2536,-0.0377,0.0254,-0.1107,-1.765221735040182,0.0,2.9787142276763916,-1.6565730571746826,-0.0,2.1235804557800293,4.6586596208759765,0.0,0.3064511716365814,-1.6243417898761194,-0.0,-0.0029088491573929787,0.8569348454475403,0.0,0.009523254819214344,0.8259153366088867,0.0,-0.028672683984041214
253.0,342.0,2.461,0.4516,9.2536,-0.0377,0.0254,-0.1107,-1.7652255497374476,0.0,2.9223575592041016,-1.656516432762146,-0.0,2.0772299766540527,4.658615751857422,0.0,0.29231446981430054,-1.6243627707110804,-0.0,-0.020916573703289032,0.857006311416626,0.0,-0.012335601262748241,0.8259112238883972,0.0,-0.03657867759466171
253.0,342.0,2.461,0.4516,9.2536,-0.0377,0.0254,-0.1107,-1.765205522576803,0.0,2.9374542236328125,-1.6565730571746826,-0.0,2.135904550552368,4.658611937160156,0.0,0.2885693311691284,-1.6243627707110804,-1.1150295131656662e-09,-0.001026681624352932,0.8569591641426086,0.0,-0.0013312315568327904,0.8259594440460205,0.0,0.02360132336616516
253.0,342.0,2.461,0.4516,9.2536,-0.0377,0.0254,-0.1107,-1.7652131519713343,0.0,2.9785637855529785,-1.6565533876419067,-0.0,2.1067955493927,4.658667727107666,0.0,0.2987312376499176,-1.6243904272662562,-4.753545647384616e-12,-0.006257564760744572,0.8569746613502502,0.0,-0.0027432949282228947,0.8259111642837524,0.0,0.022569406777620316
253.0,342.0,2.461,0.4516,9.2536,-0.0377,0.0254,-0.1107,-1.7652579746642054,0.0,2.9403467178344727,-1.6565483808517456,-0.0,2.0934743881225586,4.658655806178711,0.0,0.3103409707546234,-1.6243985334979456,-1.3231670016857692e-15,0.007842523977160454,0.8569504618644714,0.0,-0.004965572152286768,0.8259273171424866,0.0,0.007745503447949886
253.0,342.0,2.461,0.4516,9.2536,-0.0377,0.0254,-0.1107,-1.7652298412718714,0.0,3.0021724700927734,-1.6565730571746826,-0.0,2.170933723449707,4.658620043391846,0.0,0.3006333112716675,-1.6243823210345667,-7.977650238899514e-05,0.0033231722190976143,0.8570550680160522,0.0,-0.006114489398896694,0.8259191513061523,0.0,0.003536052070558071
253.0,342.0,2.461,0.4516,9.2536,-0.0377,0.0254,-0.1107,-1.765237947503561,0.0,2.9398913383483887,-1.6565566062927246,-0.0,2.1181185245513916,4.658611937160156,0.0,0.28475746512413025,-1.6243661085711878,-7.204334542620927e-05,-0.017925556749105453,0.8570025563240051,0.0,0.005749939940869808,0.8259475827217102,0.0,-0.02343575656414032
253.0,342.0,2.461,0.4516,9.2536,-0.0377,0.0254,-0.1107,-1.7652341328062953,0.0,2.932220458984375,-1.656589150428772,-0.0,2.139329671859741,4.658635302180908,0.0,0.30015671253204346,-1.6243661085711878,-5.8101373724639416e-05,0.00326963746920228,0.8569784164428711,0.0,-0.01046350784599781,0.8259232640266418,0.0,-0.008638270199298859
253.0,342.0,2.461,0.4516,9.2536,-0.0377,0.0254,-0.1107,-1.7652093372740687,0.0,2.9681620597839355,-1.6565771102905273,-0.0,2.1238090991973877,4.658607645625732,0.0,0.2978592813014984,-1.6243417898761194,-4.867079769610427e-05,-0.013220420107245445,0.8569586277008057,0.0,-0.005352874286472797,0.8259355425834656,0.0,0.02597574144601822
253.0,342.0,2.461,0.4516,9.2536,-0.0377,0.0254,-0.1107,-1.7652341328062953,0.0,2.973358631134033,-1.6565206050872803,-0.0,2.1552162170410156,4.658579512233398,0.0,0.2969701588153839,-1.6243985334979456,-4.391909169498831e-05,-0.00023389747366309166,0.8569627404212952,0.0,-0.006053543649613857,0.8259112238883972,0.0,-0.0010995343327522278
253.0,342.0,2.461,0.4516,9.2536,-0.0377,0.0254,-0.1107,-1.765193601647848,0.0,2.931185483932495,-1.6565850973129272,-0.0,2.116894006729126,4.658611937160156,0.0,0.2948773205280304,-1.6243746916400355,-3.830929199466482e-05,-0.0035718136932700872,0.8569746613502502,0.0,0.002462628297507763,0.8259353041648865,0.0,0.0315733440220356
253.0,342.0,2.461,0.4516,9.2536,-0.0377,0.0254,-0.1107,-1.765205522576803,0.0,2.9392898082733154,-1.656532883644104,-0.0,2.1275744438171387,4.658663435573242,0.0,0.2944689989089966,-1.624350372944967,-3.530331014189869e-05,-0.005453929305076599,0.856966495513916,0.0,-0.004765218123793602,0.8259674310684204,0.0,-0.02376045286655426
253.0,342.0,2.461,0.4516,9.2536,-0.0377,0.0254,-0.1107,-1.7652298412718714,0.0,2.957322120666504,-1.6565483808517456,-0.0,2.134577751159668,4.658611937160156,0.0,0.29531797766685486,-1.624326531087057,-3.158569597871974e-05,-0.015284206718206406,0.8569463491439819,0.0,-0.00921870768070221,0.8259152770042419,0.0,-0.001800389727577567
253.0,342.0,2.461,0.4516,9.2536,-0.0377,0.0254,-0.1107,-1.7652012310423792,0.0,2.986522674560547,-1.6565443277359009,-0.0,2.1389551162719727,4.658627672786377,0.0,0.30140167474746704,-1.6243460814105433,-2.8576630938914604e-05,-0.013005497865378857,0.8570148348808289,0.0,-0.002313986187800765,0.8259558081626892,0.0,0.03374436870217323
253.0,342.0,2.461,0.4516,9.2536,-0.0377,0.0254,-0.1107,-1.7652541599669398,0.0,2.9733195304870605,-1.6565483808517456,-0.0,2.1251108646392822,4.658635302180908,0.0,0.3042411208152771,-1.6243704001056116,-2.6870096917264163e-05,0.001040173228830099,0.8569947481155396,0.0,0.004057122860103846,0.8259516358375549,0.0,-0.04405509680509567
253.0,342.0,2.461,0.4516,9.2536,-0.0377,0.0254,-0.1107,-1.765249868432516,0.0,2.9590420722961426,-1.6565850973129272,-0.0,2.0618410110473633,4.658647699947021,0.0,0.30155110359191895,-1.6243303457843226,-2.4661090719746426e-05,-0.0067527214996516705,0.8569266200065613,0.0,-0.0036373811308294535,0.8259634971618652,0.0,-0.005842845421284437
256.0,334.0,2.4592,0.4756,8.8863,-0.0383,0.0266,-0.118,-1.765237947503561,0.0,2.96286940574646,-1.6565526723861694,-0.0,2.1336488723754883,4.6585914331623535,0.0,0.29459863901138306,-1.6243627707110804,-2.278772444697097e-05,-0.0007224821019917727,0.8569585680961609,0.0,-0.005972015671432018,0.8259112238883972,0.0,0.020985286682844162
256.0,334.0,2.4592,0.4756,8.8863,-0.0383,0.0266,-0.118,-1.7652741871275843,0.0,2.959024429321289,-1.6565648317337036,-0.0,2.13010311126709,4.658627195949219,0.0,0.29105377197265625,-1.6243541876422327,-2.1689358618459664e-05,-0.0012709181755781174,0.8569746613502502,0.0,-0.0022810185328125954,0.8259475827217102,0.0,0.012134547345340252
256.0,334.0,2.4592,0.4756,8.8863,-0.0383,0.0266,-0.118,-1.7652579746642054,0.0,2.966978073120117,-1.6565483808517456,-0.0,2.1200613975524902,4.658615751857422,0.0,0.30285465717315674,-1.624406639729635,-2.022692933678627e-05,-0.01336972787976265,0.856926679611206,0.0,-0.002672723028808832,0.82596355676651,0.0,-0.0069763995707035065
256.0,334.0,2.4592,0.4756,8.8863,-0.0383,0.0266,-0.118,-1.7651812038817347,0.0,2.943997859954834,-1.656580924987793,-0.0,2.113400936126709,4.658643408412598,0.0,0.303300142288208,-1.6243417898761194,-1.8949247532873414e-05,-0.010332290083169937,0.8569504618644714,0.0,0.004748612642288208,0.8259553909301758,0.0,-0.0257728211581707
256.0,334.0,2.4592,0.4756,8.8863,-0.0383,0.0266,-0.118,-1.7651649914183558,0.0,2.9670443534851074,-1.6565932035446167,-0.0,2.1353647708892822,4.658631010646484,0.0,0.3020346760749817,-1.624326531087057,-1.8183536667493172e-05,0.010403970256447792,0.8570024967193604,0.0,0.006682390812784433,0.8259314298629761,0.0,-0.033073339611291885
256.0,334.0,2.4592,0.4756,8.8863,-0.0383,0.0266,-0.118,-1.7652341328062953,0.0,3.0043721199035645,-1.6565768718719482,-0.0,2.1274731159210205,4.658619089717529,0.0,0.3094831109046936,-1.6243704001056116,-1.7144348021247424e-05,0.004873126745223999,0.8570066690444946,0.0,0.0020714011043310165,0.8259434103965759,0.0,0.038740359246730804
256.0,334.0,2.4592,0.4756,8.8863,-0.0383,0.0266,-0.118,-1.7652255497374476,0.0,3.0046873092651367,-1.656569004058838,-0.0,2.1103296279907227,4.658611937160156,0.0,0.29184597730636597,-1.6243904272662562,-1.6217543816310354e-05,0.004138198681175709,0.8569870591163635,0.0,-0.010046051815152168,0.8259153366088867,0.0,0.0033757081255316734
256.0,334.0,2.4592,0.4756,8.8863,-0.0383,0.0266,-0.118,-1.76527800182485,0.0,2.9717512130737305,-1.656601071357727,-0.0,2.112724781036377,4.658647699947021,0.0,0.2974012494087219,-1.624382797871725,-1.5653407899662852e-05,0.007650511339306831,0.8570225834846497,0.0,-0.005146864335983992,0.8259516358375549,0.0,-0.011851690709590912
256.0,334.0,2.4592,0.4756,8.8863,-0.0383,0.0266,-0.118,-1.7652050457396449,0.0,2.9188756942749023,-1.656569004058838,-0.0,2.120598793029785,4.658607168788574,0.0,0.29205286502838135,-1.6243584791766565,-1.4877142348268535e-05,-0.009109933860599995,0.8569585680961609,0.0,0.008510461077094078,0.8259071111679077,0.0,0.003654804779216647
256.0,334.0,2.4592,0.4756,8.8863,-0.0383,0.0266,-0.118,-1.7652050457396449,0.0,2.945955753326416,-1.6565402746200562,-0.0,2.131883144378662,4.6586033540913085,0.0,0.2920590043067932,-1.6243746916400355,-1.4174228454066906e-05,0.001232837443239987,0.8569504618644714,0.0,-0.013267600908875465,0.82596355676651,0.0,0.008136382326483727
256.0,334.0,2.4592,0.4756,8.8863,-0.0383,0.0266,-0.118,-1.7652255497374476,0.0,2.9343461990356445,-1.656580924987793,-0.0,2.131181240081787,4.658647699947021,0.0,0.2830702066421509,-1.6243417898761194,-1.3741392649535555e-05,0.0005002528196200728,0.8570102453231812,0.0,-0.009134783409535885,0.8258988857269287,0.0,0.013618414290249348
256.0,334.0,2.4592,0.4756,8.8863,-0.0383,0.0266,-0.118,-1.7652341328062953,0.0,2.9401512145996094,-1.656589150428772,-0.0,2.1739084720611572,4.658615751857422,0.0,0.298213928937912,-1.6243298689471644,-1.3139542716089636e-05,0.004075884819030762,0.85699063539505,0.0,0.005746019072830677,0.8259112238883972,0.0,-0.014339440502226353
256.0,334.0,2.4592,0.4756,8.8863,-0.0383,0.0266,-0.118,-1.7652298412718714,0.0,2.966095209121704,-1.6565288305282593,-0.0,2.1142961978912354,4.658620043391846,0.0,0.30245286226272583,-1.6243704001056116,-1.2588195204443764e-05,0.0030084194149821997,0.8569783568382263,0.0,-0.004323057364672422,0.8259352445602417,0.0,0.010415120050311089
256.0,334.0,2.4592,0.4756,8.8863,-0.0383,0.0266,-0.118,-1.765249868432516,0.0,2.9496426582336426,-1.656580924987793,-0.0,2.112740993499756,4.658631010646484,0.0,0.2893756926059723,-1.6243417898761194,-1.2245641300978605e-05,-0.00013466086238622665,0.8570144772529602,0.0,0.00012688362039625645,0.8259796500205994,0.0,0.004436852410435677
256.0,334.0,2.4592,0.4756,8.8863,-0.0383,0.0266,-0.118,-1.7652455768980921,0.0,2.9791455268859863,-1.656580924987793,-0.0,2.127699851989746,4.658631010646484,0.0,0.29450997710227966,-1.6243746916400355,-1.1765395356633235e-05,-0.006646513007581234,0.8569742441177368,0.0,-0.011623343452811241,0.825955331325531,0.0,0.02053365483880043
256.0,334.0,2.4592,0.4756,8.8863,-0.0383,0.0266,-0.118,-1.7651893101134242,0.0,2.9415197372436523,-1.6566411256790161,-0.0,2.1374127864837646,4.658595247859619,0.0,0.29367876052856445,-1.6243541876422327,-1.1465624083939474e-05,-0.008489120751619339,0.8569623231887817,0.0,-0.011467072181403637,0.8259273767471313,0.0,0.024061618372797966
256.0,334.0,2.4592,0.4756,8.8863,-0.0383,0.0266,-0.118,-1.7652174435057582,0.0,3.002518653869629,-1.6565606594085693,-0.0,2.183157205581665,4.658627195949219,0.0,0.30142906308174133,-1.624378506337301,-1.1043553058698308e-05,0.001163342734798789,0.8570185899734497,0.0,0.00474938377737999,0.82596355676651,0.0,-0.022850140929222107
254.0,346.0,2.3563,0.533,9.1137,-0.0365,0.0318,-0.1167,-1.7652341328062953,0.0,2.9856019020080566,-1.6565288305282593,-0.0,2.127063035964966,4.658603830928467,0.0,0.2958269417285919,-1.62439471880068,-1.8565002392278984e-05,0.009310545399785042,0.856982409954071,0.0,-0.010486050508916378,0.8259956240653992,0.0,-0.00977375078946352
254.0,346.0,2.3563,0.533,9.1137,-0.0365,0.0318,-0.1167,-1.7652541599669398,0.0,3.0048911571502686,-1.656564712524414,-0.0,2.1416103839874268,4.658671541804932,0.0,0.2897596061229706,-1.6243904272662562,-2.0798674086108804e-05,-0.00631021149456501,0.8569668531417847,0.0,-0.01061245333403349,0.825939416885376,0.0,0.013695809058845043
254.0,346.0,2.3563,0.533,9.1137,-0.0365,0.0318,-0.1167,-1.765237947503561,0.0,2.9801018238067627,-1.656532883644104,-0.0,2.146350622177124,4.6586596208759765,0.0,0.3009451627731323,-1.62439471880068,-2.0112762285862118e-05,0.0008249836973845959,0.8569504618644714,0.0,-0.007689851336181164,0.8259355425834656,0.0,-0.004756445065140724
254.0,346.0,2.3563,0.533,9.1137,-0.0365,0.0318,-0.1167,-1.765193601647848,0.0,2.968439817428589,-1.6565607786178589,-0.0,2.11631441116333,4.658611937160156,0.0,0.30049580335617065,-1.6243780295001429,-8.479636193214901e-08,0.002928260015323758,0.8569463491439819,0.0,-0.005020241253077984,0.8259715437889099,0.0,-0.02435820735991001
254.0,346.0,2.3563,0.533,9.1137,-0.0365,0.0318,-0.1167,-1.765205522576803,0.0,2.9546279907226562,-1.6565850973129272,-0.0,2.115156650543213,4.658647699947021,0.0,0.3027805685997009,-1.6243904272662562,-3.615002464041339e-10,0.0023885215632617474,0.85699063539505,0.0,-0.00063101458363235,0.8259758949279785,0.0,0.0069175525568425655
254.0,346.0,2.3563,0.533,9.1137,-0.0365,0.0318,-0.1167,-1.765205522576803,0.0,2.9916672706604004,-1.656564712524414,-0.0,2.1138522624969482,4.658655329341553,0.0,0.30460718274116516,-1.6243541876422327,-1.0062491204859692e-13,0.0033509929198771715,0.8569865226745605,0.0,-0.015038213692605495,0.8259714841842651,0.0,-0.005929870530962944
254.0,346.0,2.3563,0.533,9.1137,-0.0365,0.0318,-0.1167,-1.7652012310423792,0.0,2.9421725273132324,-1.6565730571746826,-0.0,2.1605923175811768,4.658619089717529,0.0,0.28643104434013367,-1.6243422667132776,-2.800931492289078e-17,-0.0012589616235345602,0.8569344282150269,0.0,0.002295567188411951,0.8259878754615784,0.0,0.023817306384444237
254.0,346.0,2.3563,0.533,9.1137,-0.0365,0.0318,-0.1167,-1.765233655969137,0.0,2.9275219440460205,-1.6565566062927246,-0.0,2.1162095069885254,4.658620043391846,0.0,0.301087886095047,-1.6243985334979456,-1.194081096894898e-19,-0.0020682618487626314,0.856910228729248,0.0,0.0036143315955996513,0.8259396553039551,0.0,-0.003890265943482518
254.0,346.0,2.3563,0.533,9.1137,-0.0365,0.0318,-0.1167,-1.7652131519713343,0.0,2.9710683822631836,-1.6565483808517456,-0.0,2.154254913330078,4.658607645625732,0.0,0.2951139807701111,-1.6243780295001429,-3.323768867573934e-23,-0.010403146967291832,0.8569307327270508,0.0,-0.010424032807350159,0.8259475827217102,0.0,0.021675799041986465
254.0,346.0,2.3563,0.533,9.1137,-0.0365,0.0318,-0.1167,-1.7652298412718714,0.0,2.9783263206481934,-1.656569004058838,-0.0,2.1147842407226562,4.658635779018066,0.0,0.29065829515457153,-1.6243379751788538,-9.251833881769913e-27,-0.007706806529313326,0.8569504618644714,0.0,-0.015500220470130444,0.8259071111679077,0.0,-0.01721029169857502
254.0,346.0,2.3563,0.533,9.1137,-0.0365,0.0318,-0.1167,-1.7651893101134242,0.0,2.9136571884155273,-1.6565287113189697,-0.0,2.1158978939056396,4.658595247859619,0.0,0.2825757563114166,-1.6243866125689905,-3.9442019101502096e-29,0.00377464247867465,0.8569623827934265,0.0,-0.008818017318844795,0.8259352445602417,0.0,-0.0028798929415643215
254.0,346.0,2.3563,0.533,9.1137,-0.0365,0.0318,-0.1167,-1.765205522576803,0.0,2.9745898246765137,-1.6565768718719482,-0.0,2.1059372425079346,4.658647699947021,0.0,0.30541104078292847,-1.6243541876422327,-1.0978830709932152e-32,-0.000631533155683428,0.8569178581237793,0.0,0.001083465525880456,0.8259475827217102,0.0,-0.006463902536779642
254.0,346.0,2.3563,0.533,9.1137,-0.0365,0.0318,-0.1167,-1.7652050457396449,0.0,2.9617903232574463,-1.6566091775894165,-0.0,2.1718673706054688,4.658599539394043,0.0,0.29522979259490967,-1.6244023481952112,-3.055997967480047e-36,-0.0003820287238340825,0.8569586873054504,0.0,0.008733129128813744,0.8259755969047546,0.0,0.007630529813468456
254.0,346.0,2.3563,0.533,9.1137,-0.0365,0.0318,-0.1167,-1.765249868432516,0.0,2.958484649658203,-1.656601071357727,-0.0,2.1058907508850098,4.658627195949219,0.0,0.2974986732006073,-1.6243780295001429,-1.3028198325370012e-38,-0.007744595408439636,0.8569504618644714,0.0,-0.012999116443097591,0.8259594440460205,0.0,-0.04024060443043709
254.0,346.0,2.3563,0.533,9.1137,-0.0365,0.0318,-0.1167,-1.7651974163451136,0.0,2.9656219482421875,-1.6566051244735718,-0.0,2.1132218837738037,4.658611937160156,0.0,0.2911739945411682,-1.6243823210345667,-3.6265604256726266e-42,-0.0060006072744727135,0.8569225668907166,0.0,0.004089302383363247,0.8259273171424866,0.0,0.03450215980410576
254.0,346.0,2.3563,0.533,9.1137,-0.0365,0.0318,-0.1167,-1.7652174435057582,0.0,2.92610502243042,-1.6565648317337036,-0.0,2.1206202507019043,4.658611937160156,0.0,0.28622347116470337,-1.6243866125689905,-1.5414283107572988e-44,-0.009248620830476284,0.8569504618644714,0.0,-0.01046516839414835,0.8259029984474182,0.0,0.01489571575075388
254.0,346.0,2.3563,0.533,9.1137,-0.0365,0.0318,-0.1167,-1.765209814111227,0.0,2.923953056335449,-1.6565443277359009,-0.0,2.1738944053649902,4.658579512233398,0.0,0.3072768747806549,-1.6243460814105433,-0.0,-0.009904351085424423,0.85699063539505,0.0,-0.00010350067168474197,0.8259314298629761,0.0,-0.005499935708940029
256.0,335.0,2.3737,0.3218,9.2925,-0.0415,0.0345,-0.1159,-1.7651931248106898,0.0,3.018601179122925,-1.6565730571746826,-0.0,2.1445770263671875,4.658647699947021,0.0,0.2964298725128174,-1.6243541876422327,-0.0,0.0038836372550576925,0.8569664359092712,0.0,0.008492641150951385,0.825955331325531,0.0,-0.02111794985830784
256.0,335.0,2.3737,0.3218,9.2925,-0.0415,0.0345,-0.1159,-1.7652298412718714,0.0,2.96144437789917,-1.656589150428772,-0.0,2.101339101791382,4.658619089717529,0.0,0.29449984431266785,-1.6243661085711878,-0.0,-0.02031617984175682,0.8570144772529602,0.0,-0.023455910384655,0.8259715437889099,0.0,-0.043610963970422745
256.0,335.0,2.3737,0.3218,9.2925,-0.0415,0.0345,-0.1159,-1.765237947503561,0.0,2.9218220710754395,-1.6565648317337036,1.8363274989496858e-07,2.0888595581054688,4.65861098348584,0.0,0.300368070602417,-1.6243417898761194,-0.0,-0.0017647224012762308,0.8569746613502502,0.0,0.0012954778503626585,0.8259232640266418,0.0,-0.0031610485166311264
256.0,335.0,2.3737,0.3218,9.2925,-0.0415,0.0345,-0.1159,-1.765209814111227,0.0,2.9582419395446777,-1.6565492153167725,4.4345145502715233e-13,2.104353427886963,4.658631010646484,0.0,0.29232490062713623,-1.6243985334979456,-0.0,-0.009721387177705765,0.85699063539505,0.0,-0.005320282652974129,0.8259475827217102,0.0,-0.018447037786245346
256.0,335.0,2.3737,0.3218,9.2925,-0.0415,0.0345,-0.1159,-1.7651812038817347,0.0,2.953979730606079,-1.656564712524414,7.981968656336596e-17,2.133405923843384,4.658663435573242,0.0,0.304201602935791,-1.6243584791766565,-0.0,0.006078221835196018,0.8569505214691162,0.0,-0.0007598400115966797,0.825939416885376,0.0,0.058351047337055206
256.0,335.0,2.3737,0.3218,9.2925,-0.0415,0.0345,-0.1159,-1.7652579746642054,0.0,2.9341654777526855,-1.6565204858779907,1.5971234006428858e-06,2.1249547004699707,4.658647699947021,0.0,0.29829543828964233,-1.6243379751788538,-0.0,-0.006497863680124283,0.8570107221603394,0.0,0.00317843584343791,0.8259834051132202,0.0,-0.0034932284615933895
256.0,335.0,2.3737,0.3218,9.2925,-0.0415,0.0345,-0.1159,-1.7652012310423792,0.0,2.95131516456604,-1.656569004058838,0.00020796617900487036,2.120438575744629,4.658667727107666,0.0,0.2947602868080139,-1.6243584791766565,-0.0,0.009309932589530945,0.85699063539505,0.0,0.00729065015912056,0.825931191444397,0.0,0.007232360541820526
256.0,335.0,2.3737,0.3218,9.2925,-0.0415,0.0345,-0.1159,-1.7652131519713343,0.0,2.984175682067871,-1.6565451622009277,0.00020031901658512652,2.1789393424987793,4.658631010646484,0.0,0.2961671054363251,-1.6243580023394983,-0.0,0.006479238159954548,0.8570552468299866,0.0,0.001904358621686697,0.8259472250938416,0.0,-0.021231098100543022
256.0,335.0,2.3737,0.3218,9.2925,-0.0415,0.0345,-0.1159,-1.7652579746642054,0.0,2.9576239585876465,-1.656541109085083,0.00021846186427865177,2.119501829147339,4.658575220698975,0.0,0.3007064461708069,-1.6243985334979456,-0.0,-0.0011638185242190957,0.8569824695587158,0.0,-0.0041658226400613785,0.825995683670044,0.0,-0.004978999495506287
256.0,335.0,2.3737,0.3218,9.2925,-0.0415,0.0345,-0.1159,-1.7652660808958949,0.0,2.986240863800049,-1.6566251516342163,0.00018481283041182905,2.1032071113586426,4.658595247859619,0.0,0.29370659589767456,-1.6243541876422327,-0.0,-0.0022020614705979824,0.8569988012313843,0.0,-0.009020472876727581,0.8259879350662231,0.0,0.00939803384244442
256.0,335.0,2.3737,0.3218,9.2925,-0.0415,0.0345,-0.1159,-1.7651854954161585,0.0,2.9631948471069336,-1.6565043926239014,0.00012577227607835084,2.101492404937744,4.658627195949219,0.0,0.2932756245136261,-1.6243627707110804,-0.0,-0.018472496420145035,0.8569985032081604,0.0,-0.011251052841544151,0.8259028792381287,1.848214196797926e-05,0.013553515076637268
256.0,335.0,2.3737,0.3218,9.2925,-0.0415,0.0345,-0.1159,-1.7652131519713343,0.0,2.9178545475006104,-1.6565730571746826,0.00011029587039956823,2.1411044597625732,4.658620043391846,0.0,0.28758159279823303,-1.624406639729635,-0.0,0.0004533412866294384,0.8569545745849609,0.0,-0.0015045830514281988,0.8259232640266418,2.2005075152264908e-05,0.02047201432287693
256.0,335.0,2.3737,0.3218,9.2925,-0.0415,0.0345,-0.1159,-1.765261789361471,0.0,2.9531993865966797,-1.6565566062927246,9.825446613831446e-05,2.133314609527588,4.658639593715332,0.0,0.28735050559043884,-1.62433368364443,-0.0,0.0035739517770707607,0.8569746017456055,0.0,0.004497090354561806,0.8259512782096863,2.1226620447123423e-05,0.01945239119231701
256.0,335.0,2.3737,0.3218,9.2925,-0.0415,0.0345,-0.1159,-1.7652341328062953,0.0,2.969943046569824,-1.6564925909042358,0.00012169366527814418,2.1411545276641846,4.658639593715332,0.0,0.2897074520587921,-1.624350372944967,-0.0,-0.008912436664104462,0.85699063539505,0.0,-0.002069848822429776,0.8259838223457336,2.0737537852255628e-05,0.015338060446083546
256.0,335.0,2.3737,0.3218,9.2925,-0.0415,0.0345,-0.1159,-1.765221735040182,0.0,2.9637317657470703,-1.6565483808517456,0.00011083791468990967,2.105386972427368,4.658579512233398,0.0,0.29693251848220825,-1.6243866125689905,-0.0,-0.014828860759735107,0.8569422960281372,0.0,0.0006754879141226411,0.8259193897247314,3.006707993336022e-05,-0.036439452320337296
256.0,335.0,2.3737,0.3218,9.2925,-0.0415,0.0345,-0.1159,-1.7652131519713343,0.0,2.9355640411376953,-1.6565606594085693,0.00010440870391903445,2.099893569946289,4.658603830928467,0.0,0.30149632692337036,-1.6243661085711878,-0.0,0.0009825556771829724,0.856966495513916,0.0,-0.006337887141853571,0.8259232640266418,1.3614622673685517e-07,-0.023062823340296745
256.0,335.0,2.3737,0.3218,9.2925,-0.0415,0.0345,-0.1159,-1.765237947503561,0.0,2.9477698802948,-1.6565327644348145,9.605137893231586e-05,2.11863374710083,4.658571406001709,0.0,0.29289376735687256,-1.6243584791766565,-0.0,-0.002459560986608267,0.8570025563240051,0.0,0.0019041993655264378,0.825939416885376,3.287771530718908e-13,0.004221966490149498
251.0,341.0,2.5232,0.2489,9.0018,-0.0484,0.0199,-0.1231,-1.7651692829527796,0.0,2.935741424560547,-1.6565206050872803,8.89329458004795e-05,2.136585235595703,4.658627195949219,0.0,0.29592767357826233,-1.6243904272662562,-0.0,-0.008350043557584286,0.8569665551185608,0.0,-0.003915066830813885,0.8259553909301758,7.939580406231776e-19,-0.02910306304693222
251.0,341.0,2.5232,0.2489,9.0018,-0.0484,0.0199,-0.1231,-1.7652131519713343,0.0,2.948503255844116,-1.6564929485321045,8.474596688756719e-05,2.133439540863037,4.658627195949219,0.0,0.306395560503006,-1.6243541876422327,-0.0,-0.011629830114543438,0.85699063539505,0.0,0.007608668878674507,0.825939416885376,1.429096503148295e-22,0.001641525886952877
251.0,341.0,2.5232,0.2489,9.0018,-0.0484,0.0199,-0.1231,-1.7652341328062953,0.0,2.9454028606414795,-1.6565287113189697,7.915584137663245e-05,2.1465423107147217,4.658619089717529,0.0,0.2928009629249573,-1.62439471880068,-0.0,-0.018098920583724976,0.8569705486297607,0.0,-0.0047371163964271545,0.8259516954421997,3.451099867401737e-28,0.012106288224458694
251.0,341.0,2.5232,0.2489,9.0018,-0.0484,0.0199,-0.1231,-1.7652298412718714,0.0,2.9625637531280518,-1.6565126180648804,4.498945054365322e-05,2.153886318206787,4.658663435573242,0.0,0.30021172761917114,-1.6243184248553675,-0.0,-0.013022168539464474,0.8569701910018921,0.0,-0.007236763834953308,0.8258950114250183,8.3339996446507e-34,0.010110115632414818
251.0,341.0,2.5232,0.2489,9.0018,-0.0484,0.0199,-0.1231,-1.7652131519713343,0.0,2.9464268684387207,-1.6565483808517456,4.28473977081012e-05,2.1451096534729004,4.658595247859619,0.0,0.29431411623954773,-1.62433368364443,-0.0,-0.000573738943785429,0.8569746613502502,0.0,-0.014315018430352211,0.82596355676651,-3.081409158767201e-05,-0.027487188577651978
251.0,341.0,2.5232,0.2489,9.0018,-0.0484,0.0199,-0.1231,-1.7652174435057582,0.0,2.9598093032836914,-1.6565443277359009,3.9991507946979254e-05,2.115373134613037,4.658631010646484,0.0,0.28163182735443115,-1.6243661085711878,-0.0,-0.004908638074994087,0.8569743037223816,0.0,-0.008241264149546623,0.82596355676651,-2.8128237318014726e-05,0.01414558943361044
251.0,341.0,2.5232,0.2489,9.0018,-0.0484,0.0199,-0.1231,-1.765237947503561,0.0,2.96199369430542,-1.6565606594085693,3.7492543924599886e-05,2.11126446723938,4.658643885249756,0.0,0.2963345944881439,-1.6243823210345667,-0.0,-0.01619713008403778,0.8569988012313843,0.0,-0.005767058581113815,0.8259434700012207,-2.5716941308928654e-05,0.012132104486227036
251.0,341.0,2.5232,0.2489,9.0018,-0.0484,0.0199,-0.1231,-1.765209814111227,0.0,2.9722142219543457,-1.656524896621704,3.5993140045320615e-05,2.090536594390869,4.658595247859619,0.0,0.28330889344215393,-1.6243584791766565,-0.0,0.005100183188915253,0.8569865822792053,0.0,-0.005470148287713528,0.8259797096252441,-2.4326713173650205e-05,-0.010630767792463303
251.0,341.0,2.5232,0.2489,9.0018,-0.0484,0.0199,-0.1231,-1.7652255497374476,0.0,2.9171876907348633,-1.6565730571746826,3.3956199331441894e-05,2.1529135704040527,4.658635779018066,0.0,0.2877303659915924,-1.624322239552633,-0.0,-0.0031650601886212826,0.8569586277008057,0.0,0.00604295777156949,0.8259152770042419,-2.250203579023946e-05,0.04588936269283295
251.0,341.0,2.5232,0.2489,9.0018,-0.0484,0.0199,-0.1231,-1.7651812038817347,0.0,2.925464630126953,-1.6565287113189697,3.2137439120560884e-05,2.1334333419799805,4.658631010646484,0.0,0.3085937201976776,-1.6243746916400355,-0.0,-0.007138535380363464,0.8569984436035156,0.0,0.006541783921420574,0.8259838819503784,-2.0932000552420504e-05,0.03438098356127739
251.0,341.0,2.5232,0.2489,9.0018,-0.0484,0.0199,-0.1231,-1.7651893101134242,0.0,2.9455323219299316,-1.6565287113189697,3.1029427191242576e-05,2.1265954971313477,4.658631010646484,0.0,0.2904694080352783,-1.624366585408346,-0.0,0.0005206171190366149,0.8569746017456055,0.0,0.002808162709698081,0.8259553909301758,-2.000160384341143e-05,0.04175860807299614
251.0,341.0,2.5232,0.2489,9.0018,-0.0484,0.0199,-0.1231,-1.7652174435057582,0.0,3.0085623264312744,-1.6565289497375488,2.9503671612474136e-05,2.122227191925049,4.658587618465088,0.0,0.2895173132419586,-1.624354664479391,-0.0,-8.457491640001535e-05,0.8569902777671814,0.0,-0.010106044821441174,0.825939416885376,-1.8751394236460328e-05,-0.00662650540471077
251.0,341.0,2.5232,0.2489,9.0018,-0.0484,0.0199,-0.1231,-1.7652131519713343,0.0,2.956483840942383,-1.656564712524414,2.8120879505877383e-05,2.1470372676849365,4.658635779018066,0.0,0.29268762469291687,-1.6243904272662562,-0.0,0.01444199774414301,0.8569746613502502,0.0,-0.005396907217800617,0.8259232044219971,-1.764831176842563e-05,-0.012323448434472084
251.0,341.0,2.5232,0.2489,9.0018,-0.0484,0.0199,-0.1231,-1.7652174435057582,0.0,2.9225378036499023,-1.656541109085083,2.726889397308696e-05,2.1448163986206055,4.658595247859619,0.0,0.2955179810523987,-1.6243627707110804,-0.0,-0.002027265727519989,0.8569508194923401,0.0,0.00011614078539423645,0.8258827924728394,-1.6982305169221945e-05,0.020104672759771347
251.0,341.0,2.5232,0.2489,9.0018,-0.0484,0.0199,-0.1231,-1.7652174435057582,0.0,2.959685802459717,-1.6565369367599487,2.608345494081732e-05,2.1134660243988037,4.658635302180908,0.0,0.3040040135383606,-1.6243904272662562,-0.0,-0.004484669771045446,0.8569344878196716,0.0,0.0020597425755113363,0.8259715437889099,-3.507507617683814e-10,0.02076338417828083
251.0,341.0,2.5232,0.2489,9.0018,-0.0484,0.0199,-0.1231,-1.7652698955931605,0.0,2.9276859760284424,-1.6566014289855957,2.5348821509396657e-05,2.119450092315674,4.658647699947021,0.0,0.29887655377388,-1.6243866125689905,-0.0,-0.00045402394607663155,0.85699063539505,0.0,0.00741887092590332,0.8259353041648865,-6.313389887919671e-14,0.007047454826533794
251.0,341.0,2.5232,0.2489,9.0018,-0.0484,0.0199,-0.1231,-1.7652093372740687,0.0,2.9653615951538086,-1.6566128730773926,2.4321316232089885e-05,2.134620189666748,4.658639116878174,0.0,0.29447343945503235,-1.6243904272662562,-0.0,-0.006674567237496376,0.8569422960281372,0.0,0.004009541589766741,0.8259921073913574,-1.5246095449740167e-19,-0.0005717840977013111
251.0,341.0,2.5232,0.2489,9.0018,-0.0484,0.0199,-0.1231,-1.7652374706664027,0.0,2.989312171936035,-1.6565648317337036,1.1693252417899203e-05,2.111604928970337,4.658619089717529,0.0,0.3007380962371826,-1.6243746916400355,-0.0,-0.007723936811089516,0.85689777135849,0.0,-0.005168495699763298,0.825995683670044,-3.681751895324876e-25,-0.027344757691025734
246.0,349.0,2.4526,0.396,9.0634,-0.037,0.0324,-0.1179,-1.765221735040182,0.0,2.9480433464050293,-1.6565245389938354,1.1391097359592095e-05,2.1335864067077637,4.658627195949219,0.0,0.29040560126304626,-1.6243584791766565,-0.0,-0.005525069776922464,0.8569947481155396,0.0,-0.008347246795892715,0.8259273767471313,-6.627023225461291e-29,0.025225594639778137
246.0,349.0,2.4526,0.396,9.0634,-0.037,0.0324,-0.1179,-1.7652012310423792,0.0,2.9386658668518066,-1.656580924987793,1.0974408723996021e-05,2.1312923431396484,4.658643885249756,0.0,0.2861781716346741,-1.6243704001056116,-1.3311003499438812e-07,-0.003968182951211929,0.85699063539505,0.0,-0.0008955993689596653,0.8259352445602417,-1.600348085334454e-34,-0.010093720629811287
246.0,349.0,2.4526,0.396,9.0634,-0.037,0.0324,-0.1179,-1.7652174435057582,0.0,3.008110523223877,-1.656541109085083,1.0587124052108265e-05,2.1397478580474854,4.658611937160156,0.0,0.30265218019485474,-1.6243704001056116,-3.705166728984466e-11,-0.008607925847172737,0.8569705486297607,0.0,-0.0047951326705515385,0.8259594440460205,-3.864655047746056e-40,-0.007659573573619127
246.0,349.0,2.4526,0.396,9.0634,-0.037,0.0324,-0.1179,-1.7652174435057582,0.0,2.989264488220215,-1.6565648317337036,1.8098831787938252e-05,2.120175361633301,4.658611460322998,2.5575197923899395e-06,0.2971682846546173,-1.624350372944967,-1.5795706214370708e-13,-0.004043009132146835,0.8569663763046265,0.0,0.0029751493129879236,0.8259594440460205,-7.006492321624085e-44,0.006511824205517769
246.0,349.0,2.4526,0.396,9.0634,-0.037,0.0324,-0.1179,-1.7652460537352503,0.0,2.942274570465088,-1.6565566062927246,1.7101925550377928e-05,2.101550817489624,4.658647223109863,7.118950984263961e-10,0.2957543730735779,-1.624326531087057,-4.396793842730893e-17,0.0018366726581007242,0.8570267558097839,0.0,0.009129097685217857,0.825939416885376,0.0,0.08777593076229095
246.0,349.0,2.4526,0.396,9.0634,-0.037,0.0324,-0.1179,-1.765209814111227,0.0,2.9622631072998047,-1.6565566062927246,1.617959060240537e-05,2.096843719482422,4.6586314874836425,1.9815864173069325e-13,0.298528790473938,-1.6243584791766565,-1.2238636379146417e-20,-0.005136470310389996,0.8569344282150269,0.0,-0.011813238263130188,0.8259874582290649,0.0,0.009617306292057037
246.0,349.0,2.4526,0.396,9.0634,-0.037,0.0324,-0.1179,-1.765221735040182,0.0,3.013601779937744,-1.6566051244735718,1.561807221150957e-05,2.1050803661346436,4.658611937160156,8.447814807409392e-16,0.29270854592323303,-1.6243661085711878,-5.217523187232513e-23,0.012644367292523384,0.8569824695587158,0.0,-0.0026095935609191656,0.8259594440460205,0.0,-0.030758805572986603
246.0,349.0,2.4526,0.396,9.0634,-0.037,0.0324,-0.1179,-1.765237947503561,0.0,2.939096450805664,-1.6565451622009277,1.4845229088678025e-05,2.1437008380889893,4.6586596208759765,2.3514800940443077e-19,0.29543036222457886,-1.6244023481952112,-1.4523166539687976e-26,-0.0004121735692024231,0.8569865822792053,0.0,-0.013565591536462307,0.825939416885376,0.0,-0.00028762780129909515
246.0,349.0,2.4526,0.396,9.0634,-0.037,0.0324,-0.1179,-1.7651611767210902,1.5070438230679883e-09,2.969148874282837,-1.6565370559692383,1.414527741872007e-05,2.1096391677856445,4.658647699947021,6.54543199719713e-23,0.3017331659793854,-1.624350372944967,-4.4125961721874774e-05,-0.002899166662245989,0.8569743037223816,0.0,0.0027589285746216774,0.8259434700012207,0.0,0.018204640597105026
246.0,349.0,2.4526,0.396,9.0634,-0.037,0.0324,-0.1179,-1.765237947503561,2.7126258596125996e-13,2.984647750854492,-1.6565245389938354,1.3714198757952545e-05,2.119601249694824,4.658635779018066,2.7904199306679176e-25,0.29318076372146606,-1.6243661085711878,-4.025908492621966e-05,-0.0050524212419986725,0.8569783568382263,0.0,-0.002658950863406062,0.8259273171424866,0.0,0.014125192537903786
246.0,349.0,2.4526,0.396,9.0634,-0.037,0.0324,-0.1179,-1.7651893101134242,6.55067281342741e-19,2.895860195159912,-1.6565369367599487,1.3114680768921971e-05,2.1462831497192383,4.658623381251953,7.767237548967942e-29,0.3056831657886505,-1.6243780295001429,-3.549510074662976e-05,-0.0016027756500989199,0.8569664359092712,0.0,0.0011166452895849943,0.8259516954421997,0.0,0.0006866343319416046
246.0,349.0,2.4526,0.396,9.0634,-0.037,0.0324,-0.1179,-1.765177389184469,1.5819106618487472e-24,2.972679615020752,-1.6565451622009277,2.4630213374621235e-05,2.1275627613067627,4.658614798183105,2.1620388580726374e-32,0.30107229948043823,-1.6244261900531214,-3.17392114084214e-05,-0.005869923625141382,0.8569746613502502,0.0,0.008728766813874245,0.8259029984474182,0.0,0.011317119002342224
246.0,349.0,2.4526,0.396,9.0634,-0.037,0.0324,-0.1179,-1.7652017078795375,0.000367229338735342,2.9865052700042725,-1.656516671180725,3.52464739989955e-05,2.150127649307251,4.658651514644287,0.00016331598453689367,0.2963753044605255,-1.6243942419635218,-5.159289503353648e-05,-0.008407771587371826,0.8569623827934265,0.0,-0.007194702513515949,0.8259312510490417,0.0,0.03275609388947487
246.0,349.0,2.4526,0.396,9.0634,-0.037,0.0324,-0.1179,-1.7651330433287562,0.0009245270630344748,2.9523191452026367,-1.6565208435058594,0.00014550444029737264,2.1432971954345703,4.658667727107666,0.00020028436847496778,0.2996715307235718,-1.6244142691241663,-8.001599053386599e-05,0.002285448368638754,0.8569263219833374,0.0,-0.005388086661696434,0.8259512782096863,0.0,-0.028198709711432457
246.0,349.0,2.4526,0.396,9.0634,-0.037,0.0324,-0.1179,-1.7651530704894007,0.001601518364623189,2.9380712509155273,-1.6565245389938354,0.00023041322128847241,2.120309352874756,4.658663435573242,0.00021038170962128788,0.29824328422546387,-1.6243942419635218,-9.890636283671483e-05,-0.017985718324780464,0.8569385409355164,0.0,0.006622396409511566,0.8259674906730652,0.0,-0.014934682287275791
246.0,349.0,2.4526,0.396,9.0634,-0.037,0.0324,-0.1179,-1.7651740513243617,0.0017810413846746087,2.9349138736724854,-1.6564806699752808,0.0012712113093584776,2.1312036514282227,4.658651514644287,0.00019724051526281983,0.3016480505466461,-1.6243980566607874,-0.00021989186643622816,-0.010051276534795761,0.8569304347038269,0.0,-0.008863557130098343,0.8259751796722412,0.0,-0.028382491320371628
246.0,349.0,2.4526,0.396,9.0634,-0.037,0.0324,-0.1179,-1.765125413934225,0.0015009099151939154,2.999696731567383,-1.656533122062683,0.00140347087290138,2.1378273963928223,4.658655329341553,0.0002060465485556051,0.2812402546405792,-1.624458138142721,-0.00030162493931129575,0.0024902743753045797,0.8570266962051392,0.0,-0.008742655627429485,0.8259873986244202,0.0005157333798706532,-0.03458978980779648
264.0,325.0,2.6142,1.2754,8.7326,-0.0012,0.0061,-0.1121,-1.7651292286314906,0.0012844388838857412,2.956195831298828,-1.656444787979126,0.0013201595284044743,2.1470577716827393,4.6586314874836425,0.0001949047000380233,0.29876649379730225,-1.6244743506061,-0.0009840992279350758,-0.00474433321505785,0.8569947481155396,0.0,-0.01049499399960041,0.8260236978530884,0.0007864728104323149,0.03363238275051117
264.0,325.0,2.6142,1.2754,8.7326,-0.0012,0.0061,-0.1121,-1.7651292286314906,0.0008451400208286941,2.969727039337158,-1.6564644575119019,0.0009617256582714617,2.0860137939453125,4.6586829858967285,0.0002589070063550025,0.28947713971138,-1.624458138142721,-0.002260456560179591,0.00016357190907001495,0.8569344282150269,0.0,-0.008569980971515179,0.8260637521743774,0.0013236403465270996,0.03949928283691406
264.0,325.0,2.6142,1.2754,8.7326,-0.0012,0.0061,-0.1121,-1.7651573620238246,0.000624953827355057,2.938788414001465,-1.6564888954162598,0.0007034337031655014,2.136843681335449,4.658659144038818,0.0002301959611941129,0.3103339374065399,-1.6244338194476526,-0.0022130501456558704,-0.0025782864540815353,0.8569426536560059,0.0,-0.0006860887515358627,0.826031506061554,0.002497933804988861,0.007533480413258076
264.0,325.0,2.6142,1.2754,8.7326,-0.0012,0.0061,-0.1121,-1.7651573620238246,0.0005324850790202618,2.942996025085449,-1.6565289497375488,0.0005579650751315057,2.1157355308532715,4.658655329341553,0.00020882805984001607,0.30182936787605286,-1.6244662443744105,-0.0019134548492729664,-0.015711916610598564,0.8569225668907166,0.0,-0.010155431926250458,0.8260154724121094,0.002959816949442029,-0.0013419182505458593
264.0,325.0,2.6142,1.2754,8.7326,-0.0012,0.0061,-0.1121,-1.7651530704894007,0.00043577959877438843,2.9351606369018555,-1.656509280204773,0.00042589259101077914,2.1233794689178467,4.658667727107666,0.0001833028654800728,0.2900257706642151,-1.624441925679342,-0.0012235499452799559,-0.008209869265556335,0.8569824695587158,0.0,-0.011193161830306053,0.8260270953178406,0.0026742229238152504,0.0025630611926317215
264.0,325.0,2.6142,1.2754,8.7326,-0.0012,0.0061,-0.1121,-1.7651859722533167,0.00036880499101243913,2.949167251586914,-1.6565371751785278,0.0003443885943852365,2.1303963661193848,4.658667727107666,0.00016333899111486971,0.29243674874305725,-1.6244376341449183,-0.0007737340638414025,-0.005097003187984228,0.8569386005401611,0.0,0.005533277988433838,0.8260192275047302,0.0017205339390784502,0.010666810907423496
264.0,325.0,2.6142,1.2754,8.7326,-0.0012,0.0061,-0.1121,-1.7651573620238246,0.0003345303703099489,2.939026355743408,-1.6565011739730835,0.000254531332757324,2.0995945930480957,4.658667727107666,0.00012287568824831396,0.29985344409942627,-1.624486271535055,-0.0006209308048710227,-0.006391542963683605,0.8569425940513611,0.0,-0.006296193692833185,0.8260635733604431,0.0012856849934905767,0.009878541342914104
264.0,325.0,2.6142,1.2754,8.7326,-0.0012,0.0061,-0.1121,-1.765181680718893,0.0002569036732893437,2.951535940170288,-1.6565492153167725,0.00017428738647140563,2.178884506225586,4.658651514644287,0.00011059711687266827,0.27862417697906494,-1.624441925679342,-0.00047911060391925275,0.0011133251246064901,0.8569984436035156,0.0,-0.003966981545090675,0.8260555863380432,0.0007326312479563057,0.034145232290029526
264.0,325.0,2.6142,1.2754,8.7326,-0.0012,0.0061,-0.1121,-1.7651530704894007,4.011823330074549e-05,2.9842169284820557,-1.6564929485321045,0.00011407912097638473,2.1180615425109863,4.658639593715332,7.638831448275596e-05,0.3008924722671509,-1.624458138142721,-0.00039006135193631053,0.001028739963658154,0.8570066690444946,0.0,-0.00562832597643137,0.8260396718978882,3.987874606536934e-06,0.06336583197116852
264.0,325.0,2.6142,1.2754,8.7326,-0.0012,0.0061,-0.1121,-1.765181680718893,1.596949346094334e-07,2.9948670864105225,-1.656512975692749,-0.00010849137470358983,2.1514482498168945,4.65857903539624,7.190392352640629e-05,0.29027026891708374,-1.624441925679342,-0.00034787613549269736,-0.00445712311193347,0.8569827675819397,0.0,-0.00701301172375679,0.8259833455085754,7.178033722965438e-10,0.020733270794153214
264.0,325.0,2.6142,1.2754,8.7326,-0.0012,0.0061,-0.1121,-1.765221735040182,3.8564447859060214e-13,2.9483890533447266,-1.6565089225769043,-0.00014416147314477712,2.1196367740631104,4.658631010646484,-7.322611782001331e-05,0.29937517642974854,-1.6243980566607874,-9.489354852121323e-05,-0.0052092596888542175,0.8569746613502502,0.0,-0.005389999132603407,0.8259915709495544,-0.0018600665498524904,0.004244747571647167
264.0,325.0,2.6142,1.2754,8.7326,-0.0012,0.0061,-0.1121,-1.7652093372740687,-0.0013172603212296963,2.9966182708740234,-1.6565533876419067,-0.0001608945894986391,2.10788631439209,4.6586033540913085,-6.532749102916569e-05,0.3094494640827179,-1.6243942419635218,-4.641593841370195e-05,0.006046753376722336,0.8569303750991821,0.0,-0.0037150902207940817,0.825967013835907,-0.0021312199532985687,0.03539292886853218
264.0,325.0,2.6142,1.2754,8.7326,-0.0012,0.0061,-0.1121,-1.7652579746642054,-0.001016663620248437,2.9712347984313965,-1.6564970016479492,-0.00012133967538829893,2.158220052719116,4.658635302180908,-8.930089097702876e-05,0.2924913763999939,-1.6244104544269007,-3.754975477932021e-05,0.003148823045194149,0.8569140434265137,0.0,-0.007944617420434952,0.8260319828987122,-0.002344842767342925,0.01611149311065674
264.0,325.0,2.6142,1.2754,8.7326,-0.0012,0.0061,-0.1121,-1.7651854954161585,-0.00048722143401391804,2.9381041526794434,-1.656512975692749,-0.00010919439228018746,2.120166540145874,4.658631010646484,-8.293826977023855e-05,0.30831092596054077,-1.6244424025165003,-3.3353477192576975e-05,0.001475694589316845,0.8570266962051392,0.0,0.011656816117465496,0.8259751796722412,-0.002809664001688361,-0.005440644919872284
264.0,325.0,2.6142,1.2754,8.7326,-0.0012,0.0061,-0.1121,-1.7651692829527796,-0.00034633793984539807,2.9729151725769043,-1.656524896621704,-5.894531568628736e-05,2.1480860710144043,4.658639593715332,-7.59399845264852e-05,0.297828733921051,-1.6243580023394983,-1.8196413265059164e-08,-0.004670477006584406,0.8570351004600525,0.0,-0.0050537255592644215,0.8259677290916443,-0.0018433959921821952,-0.03594864532351494
264.0,325.0,2.6142,1.2754,8.7326,-0.0012,0.0061,-0.1121,-1.7652174435057582,-0.0002904333814512938,2.9939911365509033,-1.6564850807189941,-1.0609947587170154e-08,2.149587631225586,4.658611460322998,-6.012547601130791e-05,0.30627062916755676,-1.6243622938739222,-7.75741554326359e-11,0.00017834967002272606,0.8569266200065613,0.0,-0.009754566475749016,0.8259797692298889,-0.0010994398035109043,-0.03773863613605499
264.0,325.0,2.6142,1.2754,8.7326,-0.0012,0.0061,-0.1121,-1.7651893101134242,-0.00023382672225125134,2.901381254196167,-1.656416416168213,0.002073003211989999,2.1506102085113525,4.658615751857422,-4.438789255800657e-05,0.3019726872444153,-1.6244023481952112,-2.1593050088318348e-14,-0.007747289724647999,0.8569746613502502,0.0,-0.00936009082943201,0.8259755969047546,-0.0005686884978786111,0.0212886743247509
259.0,336.0,2.6973,0.7543,9.1292,0.014,-0.0397,-0.1066,-1.765221735040182,-0.0002069402689812705,2.9520092010498047,-1.6564327478408813,0.004679773468524218,2.1617069244384766,4.658627195949219,-4.2298383050365373e-05,0.3182702362537384,-1.6243704001056116,-9.20545480908623e-17,0.0013492507860064507,0.8569705486297607,0.0,-0.004202151671051979,0.825995683670044,-0.00027418453828431666,-0.0557522252202034
259.0,336.0,2.6973,0.7543,9.1292,0.014,-0.0397,-0.1066,-1.7652737102904261,-0.0001450537529308349,2.9891750812530518,-1.6563562154769897,0.010760345496237278,2.102077007293701,4.658675833339355,-3.951276812586002e-05,0.3121122419834137,-1.6243584791766565,-2.5623720853484323e-20,-0.006999761797487736,0.8570030927658081,0.0,-0.019257472828030586,0.8259915113449097,0.002098160795867443,0.014879655092954636
259.0,336.0,2.6973,0.7543,9.1292,0.014,-0.0397,-0.1066,-1.7652980289854945,-0.0028985466342419386,3.008775234222412,-1.6562964916229248,0.01182433683425188,2.150864839553833,4.658623858089111,-3.7071367842145264e-05,0.3184971809387207,-1.6243460814105433,-7.132456686702285e-24,0.0021099718287587166,0.8569425940513611,0.0,-0.0020292859990149736,0.8260435461997986,0.003978554159402847,0.002287900075316429
259.0,336.0,2.6973,0.7543,9.1292,0.014,-0.0397,-0.1066,-1.7653185329832972,-0.004036256577819586,2.9363951683044434,-1.6562567949295044,0.00985177606344223,2.1466152667999268,4.65857903539624,-3.560473123798147e-05,0.30953463912010193,-1.6244185606585901,-3.0406782258699896e-26,-0.013685327023267746,0.8569743037223816,0.0,0.005425154231488705,0.8260921239852905,0.006157995667308569,0.011584043502807617
259.0,336.0,2.6973,0.7543,9.1292,0.014,-0.0397,-0.1066,-1.765301366845602,-0.00213096896186471,2.947659969329834,-1.6562168598175049,0.007243617437779903,2.117966890335083,4.6586033540913085,-3.361022754688747e-05,0.31313347816467285,-1.6243541876422327,-8.46383843529913e-30,-0.011779939755797386,0.8569783568382263,0.0,-0.007674209773540497,0.8261680603027344,0.00621601240709424,0.059553589671850204
259.0,336.0,2.6973,0.7543,9.1292,0.014,-0.0397,-0.1066,-1.7653056583800257,-0.0009840780403465033,2.9324889183044434,-1.6562416553497314,0.0036312045995146036,2.135498523712158,4.658615751857422,-4.772284228238277e-05,0.3212341368198395,-1.6243661085711878,-2.3559408389393985e-33,-0.0030294726602733135,0.8569499254226685,0.0,-0.00040555093437433243,0.8261436820030212,0.0048874192871153355,-0.03628522902727127
259.0,336.0,2.6973,0.7543,9.1292,0.014,-0.0397,-0.1066,-1.7653094730772914,-0.0007209539762698114,2.933070182800293,-1.656212568283081,0.0018164311768487096,2.1390490531921387,4.6586033540913085,-4.6110249968478456e-05,0.3069036900997162,-1.6243580023394983,-1.0043744727183289e-35,-0.006815675646066666,0.85699063539505,0.0,0.0003305483842268586,0.8261716365814209,0.003542662598192692,0.025108015164732933
259.0,336.0,2.6973,0.7543,9.1292,0.014,-0.0397,-0.1066,-1.7653056583800257,-0.0005146691109985113,2.96364688873291,-1.6561930179595947,0.0007553459145128727,2.1433143615722656,4.6586033540913085,-4.386306318338029e-05,0.3037736713886261,-1.6243823210345667,-2.7957137505928706e-39,-0.005579954944550991,0.8569422960281372,0.0,-0.008675606921315193,0.8261917233467102,0.0018664519302546978,-0.029323793947696686
259.0,336.0,2.6973,0.7543,9.1292,0.014,-0.0397,-0.1066,-1.7653380833067835,-0.00040020086453296244,2.977895736694336,-1.6562167406082153,0.0007015270530246198,2.083390474319458,4.658611937160156,-4.1824627260211855e-05,0.2975773811340332,-1.6243866125689905,-7.777206477002735e-43,-0.007376948371529579,0.8569583296775818,0.0,0.005282382480800152,0.8261637091636658,0.0006629498675465584,0.025436963886022568
259.0,336.0,2.6973,0.7543,9.1292,0.014,-0.0397,-0.1066,-1.7653056583800257,-0.0003485297493170947,2.9404163360595703,-1.656241536140442,0.000572996330447495,2.103865623474121,4.658651991481445,-2.79415980912745e-05,0.304897665977478,-1.6243460814105433,-2.802596928649634e-45,0.00216521299444139,0.8570185899734497,0.0,-0.00748793501406908,0.8261435031890869,0.00048031931510195136,0.0330638661980629
259.0,336.0,2.6973,0.7543,9.1292,0.014,-0.0397,-0.1066,-1.765390535394186,-0.000340648228302598,2.936128616333008,-1.6561123132705688,0.0017871918389573693,2.143784523010254,4.658579512233398,-2.587895141914487e-05,0.30514979362487793,-1.624389950429098,-0.0,0.000613256124779582,0.8570267558097839,0.0,-0.0012986731017008424,0.8261195421218872,0.0002573703823145479,-0.03695385530591011
259.0,336.0,2.6973,0.7543,9.1292,0.014,-0.0397,-0.1066,-1.765358110467428,-0.0003093212435487658,2.9470341205596924,-1.6561247110366821,0.002273891121149063,2.1501333713531494,4.658635779018066,-2.4808688976918347e-05,0.31202971935272217,-1.6243541876422327,-0.0,-0.011372114531695843,0.8569582104682922,5.526512580900089e-09,-0.0021207439713180065,0.826163649559021,-0.0004134878981858492,-0.010447430424392223
259.0,336.0,2.6973,0.7543,9.1292,0.014,-0.0397,-0.1066,-1.7653738460936488,-0.0018554958514869213,2.8832478523254395,-1.6560966968536377,0.0018183300271630287,2.149097204208374,4.6586033540913085,-2.414317350485362e-05,0.3125179708003998,-1.6243985334979456,-0.0,-0.00945383869111538,0.8569943904876709,2.3560389750265642e-11,0.010913457721471786,0.8261395692825317,-0.0011255464050918818,-0.06107164919376373
259.0,336.0,2.6973,0.7543,9.1292,0.014,-0.0397,-0.1066,-1.7653900585570277,-0.0026168881449848413,2.9269566535949707,-1.6560719013214111,0.0010030865669250488,2.168057918548584,4.6586033540913085,-2.3209277060232125e-05,0.3162647485733032,-1.6244061628924769,-0.0,-0.013650177977979183,0.8569824695587158,6.558119983347951e-15,-0.00246088276617229,0.8261477947235107,-0.0010145343840122223,-0.03695419058203697
259.0,336.0,2.6973,0.7543,9.1292,0.014,-0.0397,-0.1066,-1.7654224834837855,-0.0026016675401479006,2.9479904174804688,-1.6561814546585083,0.0006786311860196292,2.1592962741851807,4.658631964320801,-2.234492239949759e-05,0.31015756726264954,-1.6243942419635218,-0.0,-0.014501843601465225,0.8570389747619629,1.82547676970245e-18,0.004571857862174511,0.82607501745224,-0.001567914616316557,-0.06625008583068848
259.0,336.0,2.6973,0.7543,9.1292,0.014,-0.0397,-0.1066,-1.7654100857176722,-0.0021646269597113132,2.9251303672790527,-1.6561245918273926,0.0001926502591231838,2.1462178230285645,4.658639116878174,-2.180360388592817e-05,0.31485435366630554,-1.6243942419635218,-0.0,-0.016288112848997116,0.8570104241371155,7.782292917483613e-21,0.012320850975811481,0.826115608215332,-0.0018730442970991135,-0.07597247511148453
259.0,336.0,2.6973,0.7543,9.1292,0.014,-0.0397,-0.1066,-1.7653571567931117,-0.0012772316113114357,2.8702828884124756,-1.656084418296814,0.00021811839542351663,2.1137566566467285,4.658615751857422,-2.6225423425785266e-05,0.316392719745636,-1.6243580023394983,-0.0,-0.01704862155020237,0.8570585250854492,2.1662295978920396e-24,0.009087995626032352,0.8260635137557983,-0.0017193809617310762,-0.042536452412605286
255.0,326.0,1.8221,0.0413,9.2644,-0.0447,0.0747,-0.1318,-1.7653981647887171,-0.0010381188476458192,2.8680267333984375,-1.6561611890792847,0.00018780463142320514,2.106966972351074,4.658599062556885,-3.081498289247975e-05,0.3073250949382782,-1.6244185606585901,-0.0,-0.007005881052464247,0.8570549488067627,9.234975831780703e-27,0.00524564553052187,0.8261442184448242,-0.0013533656019717455,-0.10847490280866623
255.0,326.0,1.8221,0.0413,9.2644,-0.0447,0.0747,-0.1318,-1.7654100857176722,-0.0007245121523737907,2.903932571411133,-1.6561365127563477,0.0001933473686221987,2.1430230140686035,4.6586033540913085,-2.9816088499501348e-05,0.3097805976867676,-1.6243460814105433,-0.0,-0.008573336526751518,0.8570306301116943,0.0002220561436843127,0.005732213146984577,0.8260511159896851,-0.001020439900457859,-0.06147840619087219
255.0,326.0,1.8221,0.0413,9.2644,-0.0447,0.0747,-0.1318,-1.7653895817198695,-0.0005564610473811626,2.840028762817383,-1.6561452150344849,0.0003544465871527791,2.122910261154175,4.658620043391846,-8.299418929880176e-09,0.31586742401123047,-1.6243823210345667,-0.0,-0.017038632184267044,0.8570306301116943,0.00023222900927066803,-0.006827984936535358,0.8260635137557983,-0.0008366188849322498,-0.08633723855018616
255.0,326.0,1.8221,0.0413,9.2644,-0.0447,0.0747,-0.1318,-1.7654224834837855,-0.0004819490422960371,2.866924285888672,-1.6560884714126587,0.0011202380992472172,2.1529905796051025,4.658643885249756,-3.538172532735473e-11,0.3185601830482483,-1.6243661085711878,-0.0,-0.009072261862456799,0.8570058345794678,0.0002141309523722157,-0.008169492706656456,0.8260270357131958,-0.0008519446128048003,-0.08693791180849075
255.0,326.0,1.8221,0.0413,9.2644,-0.0447,0.0747,-0.1318,-1.7653738460936488,-0.0004013408033642918,2.883789539337158,-1.6561492681503296,0.0025602655950933695,2.150461196899414,4.658627195949219,-9.84863418980941e-15,0.31813687086105347,-1.6243460814105433,-0.0,-0.0009826060850173235,0.857005774974823,0.00022297058603726327,0.0020732441917061806,0.8260435461997986,-0.0008727496606297791,-0.05157400667667389
255.0,326.0,1.8221,0.0413,9.2644,-0.0447,0.0747,-0.1318,-1.765397687951559,-0.00034383710590191185,2.875680446624756,-1.6561089754104614,0.002850929507985711,2.1543095111846924,4.658615751857422,-2.7414033154296075e-18,0.30430054664611816,-1.6243985334979456,-0.0,-0.0073667243123054504,0.8569697141647339,0.00022681431437376887,-0.0009700289228931069,0.8260716795921326,-0.0007859955076128244,-0.11753712594509125
255.0,326.0,1.8221,0.0413,9.2644,-0.0447,0.0747,-0.1318,-1.7654262981810511,-0.00031385780312120914,2.8626718521118164,-1.6560686826705933,0.003348388010635972,2.150312662124634,4.658651991481445,-1.1687032926369991e-20,0.31319373846054077,-1.624350372944967,-0.0,-0.00915974099189043,0.857050359249115,0.0002173695102101192,0.007322853896766901,0.8260675668716431,-0.0006722893449477851,-0.13903069496154785
255.0,326.0,1.8221,0.0413,9.2644,-0.0447,0.0747,-0.1318,-1.76538147548818,-0.00018889455532189459,2.848167896270752,-1.656012773513794,0.0037685956340283155,2.157292366027832,4.658615751857422,-3.2531286612080177e-24,0.31071534752845764,-1.6243780295001429,-0.0,-0.009338069707155228,0.8570905923843384,0.00029678113060072064,0.00011799484491348267,0.826103925704956,-0.00046419198042713106,-0.055336251854896545
255.0,326.0,1.8221,0.0413,9.2644,-0.0447,0.0747,-0.1318,-1.765414377252096,-0.00022953598818276078,2.856823444366455,-1.6560086011886597,0.003461633576080203,2.2063841819763184,4.658623858089111,-9.055202597423798e-28,0.3057275414466858,-1.624406639729635,-0.0,-0.0028252825140953064,0.8570224642753601,0.0002944663865491748,-0.0004485459066927433,0.8260473608970642,-0.00028653477784246206,-0.11563094705343246
255.0,326.0,1.8221,0.0413,9.2644,-0.0447,0.0747,-0.1318,-1.765414377252096,-0.00024946636403910816,2.8374600410461426,-1.6560453176498413,0.004182867240160704,2.123159408569336,4.658635302180908,-3.860374981772732e-30,0.3066447973251343,-1.62439471880068,-0.0,-0.0051832846365869045,0.8570663928985596,0.00027405942091718316,0.011469893157482147,0.8260555863380432,-0.0002449657185934484,-0.13288135826587677
255.0,326.0,1.8221,0.0413,9.2644,-0.0447,0.0747,-0.1318,-1.76538147548818,-0.0013644058490172029,2.787745952606201,-1.6559888124465942,0.004476310219615698,2.158313035964966,4.658599062556885,-1.0745496918003851e-33,0.30072468519210815,-1.6243942419635218,-0.0,7.95852392911911e-05,0.8571224212646484,0.0002769088023342192,0.003537254873663187,0.8260758519172668,-0.00020343036158010364,-0.10501116514205933
255.0,326.0,1.8221,0.0413,9.2644,-0.0447,0.0747,-0.1318,-1.7654382191100062,-0.002084732288494706,2.8217263221740723,-1.655956745147705,0.004721654113382101,2.139815330505371,4.658635302180908,-2.9910480302871214e-37,0.3020423650741577,-1.6243460814105433,-0.0,-0.007033525034785271,0.8570745587348938,0.0003117360465694219,0.023352038115262985,0.8260432481765747,-0.00013052785652689636,-0.11101847887039185
255.0,326.0,1.8221,0.0413,9.2644,-0.0447,0.0747,-0.1318,-1.765393396417135,-0.0030141137540340424,2.786953926086426,-1.655913233757019,0.004841007757931948,2.1308345794677734,4.658631010646484,-1.2751311557908678e-39,0.31039923429489136,-1.6243661085711878,-0.0,-0.006164245773106813,0.8570619821548462,0.0002822758397087455,0.02958599291741848,0.826075553894043,-0.00011895873467437923,-0.0868634283542633
255.0,326.0,1.8221,0.0413,9.2644,-0.0447,0.0747,-0.1318,-1.765482564965719,-0.0037345236632972956,2.8076424598693848,-1.6558760404586792,0.004781655035912991,2.1737382411956787,4.6585914331623535,-3.545285114741787e-43,0.2957494556903839,-1.6243942419635218,-0.0,-0.00756382942199707,0.8571263551712036,0.0002842422400135547,0.020038843154907227,0.8260432481765747,0.00012667216651607305,-0.11136145889759064
255.0,326.0,1.8221,0.0413,9.2644,-0.0447,0.0747,-0.1318,-1.7655140362181605,-0.004559074994176626,2.7934441566467285,-1.6558645963668823,0.004547476302832365,2.1590309143066406,4.658599062556885,-0.0,0.2968596816062927,-1.6243661085711878,-0.0,-0.001429359195753932,0.8571140766143799,0.00028164073592051864,0.02498675137758255,0.8260833621025085,0.00015284493565559387,-0.09065074473619461
255.0,326.0,1.8221,0.0413,9.2644,-0.0447,0.0747,-0.1318,-1.7654897175230921,-0.005551059730350971,2.7564239501953125,-1.655844807624817,0.004287608899176121,2.1425087451934814,4.658583326930664,-0.0,0.3028950095176697,-1.6243661085711878,-0.0,-0.0029712338000535965,0.8571301102638245,0.00026311271358281374,0.012254878878593445,0.8261038064956665,0.00017523724818602204,-0.1468435376882553
255.0,326.0,1.8221,0.0413,9.2644,-0.0447,0.0747,-0.1318,-1.7655583820738734,-0.006350446026772261,2.752777338027954,-1.6557806730270386,0.003613285254687071,2.152001142501831,4.658620043391846,-0.0,0.3008332848548889,-1.6243904272662562,-0.0,-0.003064746968448162,0.8571539521217346,0.0002671566908247769,0.010617850348353386,0.8260430097579956,0.00015805552538949996,-0.16469988226890564
253.0,337.0,2.3737,0.3948,8.9073,-0.0324,0.0102,-0.1173,-1.7656308613219203,-0.007233900483697653,2.7718019485473633,-1.6558012962341309,0.0029710319358855486,2.132261276245117,4.658615751857422,-0.0,0.304541677236557,-1.624378506337301,-0.0,0.006724311970174313,0.857153594493866,0.00031267048325389624,0.029985656961798668,0.826111912727356,0.00038902624510228634,-0.10438886284828186
253.0,337.0,2.3737,0.3948,8.9073,-0.0324,0.0102,-0.1173,-1.765618463555807,-0.0077450936660170555,2.72200870513916,-1.6557888984680176,0.002635430311784148,2.1802430152893066,4.658671541804932,-0.0,0.29159390926361084,-1.62433368364443,-0.0,-0.0008010586025193334,0.8571699261665344,0.00032758404267951846,0.0085292411968112,0.826115608215332,0.00040139214252121747,-0.16469629108905792
253.0,337.0,2.3737,0.3948,8.9073,-0.0324,0.0102,-0.1173,-1.7656341991820277,-0.009305199608206749,2.7385129928588867,-1.6557444334030151,0.0020739398896694183,2.172337770462036,4.658623858089111,-0.0,0.2924426794052124,-1.6243417898761194,-0.0,0.010002922266721725,0.8571219444274902,0.0003343784192111343,0.029135093092918396,0.8260955810546875,0.000386954314308241,-0.12700162827968597
253.0,337.0,2.3737,0.3948,8.9073,-0.0324,0.0102,-0.1173,-1.7657023868956507,-0.010281288996338844,2.7363030910491943,-1.6557526588439941,0.0017272478435188532,2.1464948654174805,4.658587618465088,-0.0,0.28721991181373596,-1.6243704001056116,-0.0,-0.002156620379537344,0.8571814894676208,0.0005430442397482693,0.032283734530210495,0.8260831832885742,0.0004810336686205119,-0.1430874913930893
253.0,337.0,2.3737,0.3948,8.9073,-0.0324,0.0102,-0.1173,-1.7657820187010707,-0.012102599255740643,2.6870975494384766,-1.6558012962341309,0.0012149650137871504,2.081308126449585,4.658587618465088,-0.0,0.3041495382785797,-1.6243942419635218,-0.0,0.0035262578167021275,0.8571577072143555,0.0005583610618487,0.02973136678338051,0.8261598944664001,0.0005070504266768694,-0.1885826289653778
253.0,337.0,2.3737,0.3948,8.9073,-0.0324,0.0102,-0.1173,-1.7658425770201625,-0.014770930632948875,2.7090189456939697,-1.6557371616363525,0.000864962232299149,2.137220621109009,4.658551378841064,-0.0,0.29081082344055176,-1.624350372944967,-0.0,-0.011298570781946182,0.8571416735649109,0.0006662484956905246,0.024803761392831802,0.8261475563049316,0.000598818704020232,-0.1825246959924698
253.0,337.0,2.3737,0.3948,8.9073,-0.0324,0.0102,-0.1173,-1.7659102878966273,-0.016667110845446587,2.6226372718811035,-1.6557568311691284,0.0007491529104299843,2.1300125122070312,4.6586033540913085,-0.0,0.28242236375808716,-1.6243904272662562,-0.0,0.00954420305788517,0.8571856021881104,0.0006445489707402885,0.03272537887096405,0.8261677622795105,0.0006564573850482702,-0.239100843667984
253.0,337.0,2.3737,0.3948,8.9073,-0.0324,0.0102,-0.1173,-1.7660390339293421,-0.0192002784460783,2.657989501953125,-1.655728816986084,0.0008124383166432381,2.090588092803955,4.658543272609375,-0.0,0.2764628231525421,-1.6244223753558558,6.009006625617985e-08,0.011923611164093018,0.8572424054145813,0.0008167682099156082,0.04472476616501808,0.8261475563049316,0.0007954835309647024,-0.21231094002723694
253.0,337.0,2.3737,0.3948,8.9073,-0.0324,0.0102,-0.1173,-1.7661425075926722,-0.021598663181066513,2.5608677864074707,-1.6557371616363525,0.00141159538179636,2.1124267578125,4.658639593715332,-0.0,0.29834356904029846,-1.6243622938739222,1.6726288756818697e-11,0.012919805943965912,0.8571974635124207,0.0012395038502290845,0.03823158144950867,0.8261716365814209,0.0007958805072121322,-0.20079252123832703
253.0,337.0,2.3737,0.3948,8.9073,-0.0324,0.0102,-0.1173,-1.7662226162352503,-0.022531820461153984,2.557903289794922,-1.6557732820510864,0.0018399386899545789,2.0916295051574707,4.658651991481445,-0.0,0.2920599579811096,-1.6243661085711878,7.130679103824547e-14,0.01378326304256916,0.8571810126304626,0.0019199710804969072,0.04409103840589523,0.8261595964431763,0.0007278500706888735,-0.19429151713848114
253.0,337.0,2.3737,0.3948,8.9073,-0.0324,0.0102,-0.1173,-1.7663785419859828,-0.024323968216776848,2.642427921295166,-1.655716896057129,0.0020772882271558046,2.134268283843994,4.658582850093506,-0.0,0.28263741731643677,-1.6243541876422327,1.9848508163758994e-17,0.029929423704743385,0.8572657704353333,0.006698826793581247,0.03852897137403488,0.8262037634849548,0.000774623011238873,-0.18518470227718353
253.0,337.0,2.3737,0.3948,8.9073,-0.0324,0.0102,-0.1173,-1.7665559254088343,-0.026373468339443207,2.61008882522583,-1.655716896057129,0.0019465473014861345,2.146637439727783,4.6586639124104,-0.0,0.2748839259147644,-1.6243704001056116,5.524906120613246e-21,0.020861826837062836,0.8573697805404663,0.020259646698832512,0.047175198793411255,0.8261955976486206,0.000788516947068274,-0.25723108649253845
253.0,337.0,2.3737,0.3948,8.9073,-0.0324,0.0102,-0.1173,-1.7666675053038539,-0.027945872396230698,2.585649013519287,-1.6557127237319946,0.0015470738289877772,2.1038198471069336,4.6586033540913085,-0.0,0.2939792573451996,-1.6243622938739222,2.3553540695381195e-23,0.013906119391322136,0.8574259877204895,0.022716611623764038,0.05196315795183182,0.8262037634849548,0.0006201965734362602,-0.2601478695869446
253.0,337.0,2.3737,0.3948,8.9073,-0.0324,0.0102,-0.1173,-1.766815801660055,-0.03099793754518032,2.60036039352417,-1.655680775642395,0.0012122576590627432,2.1128346920013428,4.658651991481445,-0.0,0.2839418649673462,-1.6243742148028772,6.556214509200074e-27,0.01869300566613674,0.8575093746185303,0.015995195135474205,0.043010808527469635,0.8261915445327759,0.0005380755173973739,-0.24431851506233215
253.0,337.0,2.3737,0.3948,8.9073,-0.0324,0.0102,-0.1173,-1.7669879398741664,-0.033318113535642624,2.571220874786377,-1.6556811332702637,0.0008619763539172709,2.091519832611084,4.658615751857422,-0.0,0.28605034947395325,-1.6243460814105433,1.8249467041713716e-30,0.0230460986495018,0.8575528264045715,0.006161211524158716,0.0525854155421257,0.8262074589729309,0.0004894774174317718,-0.23257067799568176
253.0,337.0,2.3737,0.3948,8.9073,-0.0324,0.0102,-0.1173,-1.7671762905516566,-0.03463180735707283,2.5484044551849365,-1.655685305595398,0.0007355627603828907,2.122826337814331,4.658615751857422,-0.0,0.292493999004364,-1.624378506337301,7.780033605488296e-33,0.013666912913322449,0.8575448989868164,0.0023735177237540483,0.05653122812509537,0.8261352181434631,0.00043089158134534955,-0.23015639185905457
253.0,337.0,2.3737,0.3948,8.9073,-0.0324,0.0102,-0.1173,-1.7673727474608363,-0.038058213889598846,2.5760231018066406,-1.6556729078292847,0.0006463560275733471,2.1107888221740723,4.658622904414795,-0.0,0.28325730562210083,-1.6243746916400355,2.1656009953955298e-36,0.013291957788169384,0.8575447201728821,2.921240820796811e-06,0.05309126153588295,0.8262361288070679,0.0003652980085462332,-0.2644232511520386
253.0,337.0,2.3737,0.3948,8.9073,-0.0324,0.0102,-0.1173,-1.7675730190672816,-0.039964158087968826,2.571476459503174,-1.6557536125183105,0.0006994372233748436,2.120094060897827,4.658631010646484,-0.0,0.2832685112953186,-1.6244185606585901,6.028035668909282e-40,0.024342849850654602,0.8576133847236633,8.131380568876523e-10,0.049012456089258194,0.8262037634849548,0.00031703757122159004,-0.21384048461914062
258.0,365.0,2.0483,0.536,9.2291,-0.0367,-0.0087,-0.1234,-1.7677089176573695,-0.04096836596727371,2.5512871742248535,-1.6557095050811768,0.0012206047540530562,2.0894904136657715,4.658615751857422,-0.0,0.2782650887966156,-1.6244185606585901,2.5699813835717145e-42,0.019365377724170685,0.8575490117073059,3.4665350017587526e-12,0.056305401027202606,0.8261794447898865,0.0002913762000389397,-0.23313778638839722
258.0,365.0,2.0483,0.536,9.2291,-0.0367,-0.0087,-0.1234,-1.7679406605162562,-0.04357311502099037,2.5308451652526855,-1.6556974649429321,0.0024797008372843266,2.070589065551758,4.658590956325195,-0.0,0.2856583893299103,-1.6243746916400355,1.401298464324817e-45,0.008233418688178062,0.8576052188873291,9.64922781094917e-16,0.06702867895364761,0.8261794447898865,0.00025982968509197235,-0.24393966794013977
258.0,365.0,2.0483,0.536,9.2291,-0.0367,-0.0087,-0.1234,-1.7681900463499964,-0.0452466681599617,2.5537328720092773,-1.6556293964385986,0.0029808038379997015,2.132667303085327,4.658607645625732,-0.0,0.29118984937667847,-1.6243704001056116,0.0,0.025952845811843872,0.8576093316078186,4.1136167491114284e-18,0.05306040495634079,0.8262197375297546,0.0002423381811240688,-0.2639111280441284
258.0,365.0,2.0483,0.536,9.2291,-0.0367,-0.0087,-0.1234,-1.7684585056700648,-0.04716205224394798,2.5055484771728516,-1.6556293964385986,0.004308191128075123,2.174863815307617,4.658635302180908,-0.0,0.28514426946640015,-1.6243379751788538,0.0,0.01982198841869831,0.8576290607452393,1.1450404139268881e-21,0.07505761086940765,0.8261955976486206,0.00022011213877703995,-0.2261815369129181
258.0,365.0,2.0483,0.536,9.2291,-0.0367,-0.0087,-0.1234,-1.7687589130797328,-0.05008728802204132,2.511120080947876,-1.6556613445281982,0.004978151060640812,2.1544880867004395,4.6586314874836425,-0.0,0.2797319293022156,-1.6243704001056116,0.0,0.001204387517645955,0.8575690984725952,3.1872623254961367e-25,0.05772818252444267,0.8261753916740417,0.0001774327683961019,-0.24579589068889618
258.0,365.0,2.0483,0.536,9.2291,-0.0367,-0.0087,-0.1234,-1.7689348659911097,-0.05032135546207428,2.5302417278289795,-1.6555449962615967,0.005387686658650637,2.131132125854492,4.658611937160156,-0.0,0.2832387089729309,-1.6243823210345667,0.0,0.01637338474392891,0.8576614856719971,1.3587799758411438e-27,0.06545858830213547,0.8261753916740417,0.00016706153110135347,-0.20074617862701416
258.0,365.0,2.0483,0.536,9.2291,-0.0367,-0.0087,-0.1234,-1.769235750237936,-0.05532284080982208,2.4876413345336914,-1.655532956123352,0.006444990169256926,2.113182783126831,4.658631010646484,-0.0,0.2743082046508789,-1.6243823210345667,0.0,0.0006907247006893158,0.8576372265815735,3.782214199476953e-31,0.05757053941488266,0.8261595964431763,0.00015475058171432465,-0.32367151975631714
258.0,365.0,2.0483,0.536,9.2291,-0.0367,-0.0087,-0.1234,-1.7695356808104457,-0.05691879615187645,2.544928789138794,-1.6554971933364868,0.007413923740386963,2.0966532230377197,4.658651991481445,-0.0,0.2780510187149048,-1.624389950429098,0.0,0.013839837163686752,0.8576692342758179,1.0527930591999656e-34,0.0782577320933342,0.8261352181434631,4.63606120320037e-05,-0.19551138579845428
258.0,365.0,2.0483,0.536,9.2291,-0.0367,-0.0087,-0.1234,-1.7697354755797328,-0.05765318498015404,2.4791650772094727,-1.6554491519927979,0.007693900726735592,2.1161885261535645,4.6586596208759765,-0.0,0.2869151830673218,-1.6243622938739222,0.0,0.012694566510617733,0.8575888872146606,4.488222214502271e-37,0.06608229130506516,0.8262402415275574,4.404078208608553e-05,-0.3119191825389862
258.0,365.0,2.0483,0.536,9.2291,-0.0367,-0.0087,-0.1234,-1.7701522312560023,-0.057404376566410065,2.5210280418395996,-1.6554014682769775,0.008200334385037422,2.1452975273132324,4.658639593715332,-0.0,0.28649449348449707,-1.6244104544269007,0.0,0.0050412570126354694,0.8576453924179077,1.2493136328841474e-40,0.062468238174915314,0.8262037634849548,4.102917228010483e-05,-0.24875208735466003
258.0,365.0,2.0483,0.536,9.2291,-0.0367,-0.0087,-0.1234,-1.77050842861318,-0.05617307499051094,2.5628185272216797,-1.6554055213928223,0.008128974586725235,2.1311099529266357,4.658615751857422,-0.0,0.28691738843917847,-1.6243780295001429,0.0,-0.006439005956053734,0.8576290607452393,3.5032461608120427e-44,0.08037301152944565,0.8262197375297546,3.8403100916184485e-05,-0.26680564880371094
258.0,365.0,2.0483,0.536,9.2291,-0.0367,-0.0087,-0.1234,-1.770668169061178,-0.05650252476334572,2.496082305908203,-1.65535306930542,0.00817098282277584,2.1100990772247314,4.658595247859619,-9.021514557616683e-08,0.2883152961730957,-1.6243942419635218,0.0,0.010354027152061462,0.8576011657714844,0.0,0.07230761647224426,0.8261794447898865,5.524383595911786e-05,-0.28902655839920044
