ramyac6/ROB537/final_project/csv/all/bad_117.csv
tof_0,tof_1,accelx,accely,accelz,gyrox,gyroy,gyroz,shoulder_lift_joint_position,shoulder_lift_joint_velocity,shoulder_lift_joint_effort,elbow_joint_position,elbow_joint_velocity,elbow_joint_effort,wrist_1_joint_position,wrist_1_joint_velocity,wrist_1_joint_effort,wrist_2_joint_position,wrist_2_joint_velocity,wrist_2_joint_effort,wrist_3_joint_position,wrist_3_joint_velocity,wrist_3_joint_effort,shoulder_pan_joint_position,shoulder_pan_joint_velocity,shoulder_pan_joint_effort
410.0,397.0,3.4481,-0.055,8.7679,-0.0353,0.0305,-0.1222,-1.5583258534646411,0.0,2.1560282707214355,-1.490781307220459,-0.0,2.1705102920532227,4.15709559499707,-0.0,0.2904890179634094,-1.5691669623004358,-0.0,-0.014402489177882671,0.7702053189277649,-0.0,-0.006926402449607849,0.8836176991462708,0.0,0.0014150221832096577
410.0,397.0,3.4481,-0.055,8.7679,-0.0353,0.0305,-0.1222,-1.5582254829681297,0.0,2.163494348526001,-1.4907574653625488,-0.0,2.1749887466430664,4.15710370122876,-0.0,0.2995504140853882,-1.5691097418414515,-0.0,-0.00787852331995964,0.7701812982559204,-0.0,0.0003237905912101269,0.8835892081260681,0.0,0.038817450404167175
410.0,397.0,3.4481,-0.055,8.7679,-0.0353,0.0305,-0.1222,-1.5582976464978238,0.0,2.124295473098755,-1.490821361541748,-0.0,2.199643850326538,4.157091780299805,-0.0,0.28941234946250916,-1.5690940062152308,-0.0,-0.006326449103653431,0.7702013850212097,-0.0,0.00725953932851553,0.8836255073547363,0.0,0.03464420512318611
410.0,397.0,3.4481,-0.055,8.7679,-0.0353,0.0305,-0.1222,-1.5582857265001913,0.0,2.125063896179199,-1.490781307220459,-0.0,2.2286643981933594,4.15709559499707,-0.0,0.2994533181190491,-1.5691426436053675,-0.0,-0.005851538386195898,0.7702417373657227,-0.0,-0.012852799147367477,0.8836095333099365,0.0,0.0005952392239123583
410.0,397.0,3.4481,-0.055,8.7679,-0.0353,0.0305,-0.1222,-1.5583020907691498,0.0,2.164693593978882,-1.4907729625701904,-0.0,2.2098493576049805,4.157115622157715,-0.0,0.2906210124492645,-1.5691307226764124,-0.0,0.0042172265239059925,0.7702053189277649,-0.0,-0.006781955249607563,0.883605420589447,0.0,-0.028673049062490463
410.0,397.0,3.4481,-0.055,8.7679,-0.0353,0.0305,-0.1222,-1.5583017564243455,0.0,2.1752853393554688,-1.4907772541046143,-0.0,2.2139341831207275,4.157099886531494,-0.0,0.29973453283309937,-1.5691383520709437,-0.0,-0.013444606214761734,0.7702533602714539,-0.0,0.00706304470077157,0.883577287197113,0.0,-0.010354377329349518
410.0,397.0,3.4481,-0.055,8.7679,-0.0353,0.0305,-0.1222,-1.5582613575137039,0.0,2.1623687744140625,-1.490764856338501,-0.0,2.2444722652435303,4.157107515926025,-0.0,0.29393717646598816,-1.5691140333758753,-0.0,0.002027072012424469,0.7702370285987854,-0.0,0.0013888620305806398,0.8836414217948914,0.0,0.00683841947466135
410.0,397.0,3.4481,-0.055,8.7679,-0.0353,0.0305,-0.1222,-1.5582613817280908,0.0,2.148026466369629,-1.4908008575439453,-0.0,2.230520248413086,4.157107515926025,-0.0,0.30361825227737427,-1.5690901915179651,-0.0,-0.016391098499298096,0.770261287689209,-0.0,-0.0026996396481990814,0.8836336135864258,0.0,0.005465641617774963
410.0,397.0,3.4481,-0.055,8.7679,-0.0353,0.0305,-0.1222,-1.5583055776408692,0.0,2.1174135208129883,-1.490781307220459,-0.0,2.1724321842193604,4.1571313577839355,-0.0,0.29284799098968506,-1.5691097418414515,-0.0,-0.02080577053129673,0.7702693343162537,-0.0,0.012534333392977715,0.8835933208465576,0.0,0.02743019349873066
393.0,393.0,3.4941,-0.0012,8.6411,-0.0321,0.0215,-0.1185,-1.5582775392434378,0.0,2.1481683254241943,-1.4907608032226562,-0.0,2.221320867538452,4.157087488765381,-0.0,0.28118669986724854,-1.569134537373678,-0.0,-0.01425887644290924,0.7702452540397644,-0.0,-0.00332996086217463,0.8835932612419128,0.0,0.016124779358506203
393.0,393.0,3.4941,-0.0012,8.6411,-0.0321,0.0215,-0.1185,-1.558285709736385,0.0,2.1634178161621094,-1.4907894134521484,-0.0,2.1729204654693604,4.157075567836426,-0.0,0.29894697666168213,-1.5691097418414515,-0.0,-0.012831746600568295,0.7703057527542114,-0.0,-0.0036652199923992157,0.8835892081260681,0.0,-0.012191255576908588
393.0,393.0,3.4941,-0.0012,8.6411,-0.0321,0.0215,-0.1185,-1.5583178897253056,0.0,2.149578094482422,-1.4907772541046143,-0.0,2.1928889751434326,4.157051725978516,-0.0,0.2893172800540924,-1.5690739790545862,-0.0,-0.013597647659480572,0.7702176570892334,-0.0,0.002631857991218567,0.8836014270782471,0.0,-0.0020388581324368715
393.0,393.0,3.4941,-0.0012,8.6411,-0.0321,0.0215,-0.1185,-1.5583058095401903,0.0,2.135018825531006,-1.4907689094543457,-0.0,2.1879429817199707,4.157087488765381,-0.0,0.291095107793808,-1.5691097418414515,-0.0,-0.01019799243658781,0.7702452540397644,-0.0,-0.006991285365074873,0.8835932612419128,0.0,0.004214030224829912
393.0,393.0,3.4941,-0.0012,8.6411,-0.0321,0.0215,-0.1185,-1.5583138198456545,0.0,2.0955095291137695,-1.4907894134521484,-0.0,2.1879334449768066,4.15709559499707,-0.0,0.29157695174217224,-1.5690777937518519,-0.0,-0.020127326250076294,0.7702977657318115,-0.0,-0.00585394911468029,0.8836455345153809,0.0,-0.008577442727982998
393.0,393.0,3.4941,-0.0012,8.6411,-0.0321,0.0215,-0.1185,-1.5582695438391347,0.0,2.1718831062316895,-1.4907411336898804,-0.0,2.181889772415161,4.157111330623291,-0.0,0.30170539021492004,-1.5691183249102991,-0.0,-0.0024842852726578712,0.7702136635780334,-0.0,-0.0038910452276468277,0.8836095333099365,0.0,0.007111737504601479
393.0,393.0,3.4941,-0.0012,8.6411,-0.0321,0.0215,-0.1185,-1.5582333032837887,0.0,2.1384172439575195,-1.4908008575439453,-0.0,2.1894407272338867,4.157091780299805,-0.0,0.29121315479278564,-1.5691183249102991,-0.0,-0.009649311192333698,0.7702693939208984,-0.0,-0.015497108921408653,0.8835852146148682,0.0,-0.01808381825685501
393.0,393.0,3.4941,-0.0012,8.6411,-0.0321,0.0215,-0.1185,-1.558229225953557,0.0,2.161292791366577,-1.4907853603363037,-0.0,2.162076473236084,4.157063646907471,-0.0,0.29947972297668457,-1.5690820852862757,-0.0,-0.013102011755108833,0.7702853679656982,-0.0,-0.01050774659961462,0.8836014866828918,0.0,-0.03833729773759842
393.0,393.0,3.4941,-0.0012,8.6411,-0.0321,0.0215,-0.1185,-1.5582536033219476,0.0,2.103083372116089,-1.4907689094543457,-0.0,2.2005128860473633,4.1570679384418945,-0.0,0.27621927857398987,-1.5690978209124964,-0.0,-0.001539648394100368,0.7702411413192749,-0.0,0.0017420889344066381,0.8836176991462708,0.0,-0.011168831959366798
393.0,393.0,3.4941,-0.0012,8.6411,-0.0321,0.0215,-0.1185,-1.5583381003564973,0.0,2.1344125270843506,-1.4908090829849243,-0.0,2.193617105484009,4.157107515926025,-0.0,0.3015913963317871,-1.5690978209124964,-0.0,-0.016181297600269318,0.7702856659889221,-0.0,0.0013314933748915792,0.8836054801940918,0.0,0.015240596607327461
393.0,393.0,3.4941,-0.0012,8.6411,-0.0321,0.0215,-0.1185,-1.558277528067567,0.0,2.156038284301758,-1.4907853603363037,-0.0,2.2265539169311523,4.15709559499707,-0.0,0.3153614401817322,-1.5691097418414515,-0.0,-0.012052565813064575,0.7702452540397644,-0.0,-0.014303477481007576,0.8836176991462708,0.0,0.02400999329984188
393.0,393.0,3.4941,-0.0012,8.6411,-0.0321,0.0215,-0.1185,-1.5582613826594134,0.0,2.150625705718994,-1.49077308177948,-0.0,2.2014737129211426,4.157051725978516,-0.0,0.28696632385253906,-1.569150749837057,-0.0,-0.01488526351749897,0.7702493667602539,-0.0,-0.004460791125893593,0.883613646030426,0.0,0.0030859429389238358
393.0,393.0,3.4941,-0.0012,8.6411,-0.0321,0.0215,-0.1185,-1.5582815998098631,0.0,2.148566961288452,-1.490781307220459,-0.0,2.202302932739258,4.157091780299805,-0.0,0.293056458234787,-1.5690978209124964,-0.0,-0.009893784299492836,0.7702493667602539,-0.0,-0.007403149269521236,0.8836655020713806,0.0,-0.008002887479960918
393.0,393.0,3.4941,-0.0012,8.6411,-0.0321,0.0215,-0.1185,-1.5582893996364255,0.0,2.1459693908691406,-1.4907729625701904,-0.0,2.2022061347961426,4.157107515926025,-0.0,0.29654476046562195,-1.569134537373678,-0.0,-0.011049591936171055,0.7702370882034302,-0.0,-0.001305209007114172,0.8836176991462708,0.0,-0.014807628467679024
393.0,393.0,3.4941,-0.0012,8.6411,-0.0321,0.0215,-0.1185,-1.5583017396605392,0.0,2.1238226890563965,-1.4908374547958374,-0.0,2.191814422607422,4.157083674068115,-0.0,0.30032169818878174,-1.5691097418414515,-0.0,-0.0074385073967278,0.7702493667602539,-0.0,-0.008644761517643929,0.8835813999176025,0.0,0.009745018556714058
393.0,393.0,3.4941,-0.0012,8.6411,-0.0321,0.0215,-0.1185,-1.5582613817280908,0.0,2.0998754501342773,-1.4908174276351929,-0.0,2.217228412628174,4.157099886531494,-0.0,0.2955581545829773,-1.569146458302633,-0.0,-0.007349926978349686,0.7702296376228333,-0.0,-0.0035520654637366533,0.8835932612419128,0.0,0.0500016063451767
393.0,393.0,3.4941,-0.0012,8.6411,-0.0321,0.0215,-0.1185,-1.558317926046886,0.0,2.1604068279266357,-1.49077308177948,-0.0,2.168919563293457,4.157091780299805,-0.0,0.2867124676704407,-1.5691583792315882,-0.0,-0.007514004595577717,0.7702574729919434,-0.0,0.009420481510460377,0.8836176991462708,0.0,-0.03771284222602844
407.0,400.0,3.4379,-0.0843,8.6943,-0.0341,0.029,-0.122,-1.5582692355713625,0.0,2.108705520629883,-1.4907772541046143,-0.0,2.210728168487549,4.15709559499707,-0.0,0.29861536622047424,-1.5690978209124964,-0.0,-0.0272152628749609,0.7702411413192749,-0.0,-0.0024718428030610085,0.8835813999176025,0.0,-0.02166498452425003
407.0,400.0,3.4379,-0.0843,8.6943,-0.0341,0.029,-0.122,-1.5582572028836985,0.0,2.1005403995513916,-1.4907894134521484,-0.0,2.1743531227111816,4.15709559499707,-0.0,0.2969737648963928,-1.5691583792315882,-0.0,-0.023647580295801163,0.7702376842498779,-0.0,-0.015233587473630905,0.8835892081260681,0.0,0.02480779029428959
407.0,400.0,3.4379,-0.0843,8.6943,-0.0341,0.029,-0.122,-1.5582654553330322,0.0,2.1430482864379883,-1.490756630897522,-0.0,2.2429423332214355,4.157111330623291,-0.0,0.2936435341835022,-1.5691183249102991,-0.0,-0.02211892232298851,0.7702013850212097,-0.0,-0.006118040066212416,0.8836054801940918,0.0,-0.004180606454610825
407.0,400.0,3.4379,-0.0843,8.6943,-0.0341,0.029,-0.122,-1.5582939649796863,0.0,2.153738021850586,-1.4907885789871216,-0.0,2.219154119491577,4.15709559499707,-0.0,0.2966051697731018,-1.5690858999835413,-0.0,-0.001267698360607028,0.7702376842498779,-0.0,-0.016115665435791016,0.8836095333099365,0.0,-0.034239135682582855
407.0,400.0,3.4379,-0.0843,8.6943,-0.0341,0.029,-0.122,-1.5582655000365158,0.0,2.146202564239502,-1.4907894134521484,-0.0,2.1957738399505615,4.157091780299805,-0.0,0.29463618993759155,-1.5691140333758753,-0.0,-0.008034644648432732,0.7702533602714539,-0.0,-0.012521293014287949,0.883613646030426,0.0,0.02965851128101349
407.0,400.0,3.4379,-0.0843,8.6943,-0.0341,0.029,-0.122,-1.5582775439000507,0.0,2.155696392059326,-1.4907968044281006,-0.0,2.2215042114257812,4.15712754308667,-0.0,0.3055652678012848,-1.5691307226764124,-0.0,-0.008838409557938576,0.7702296376228333,-0.0,-0.01702163927257061,0.8836374282836914,0.0,-0.03169646114110947
407.0,400.0,3.4379,-0.0843,8.6943,-0.0341,0.029,-0.122,-1.558229225953557,0.0,2.120823621749878,-1.4907968044281006,-0.0,2.1813793182373047,4.157075567836426,-0.0,0.2850940525531769,-1.569089714680807,-0.0,-0.009335455484688282,0.7702693343162537,-0.0,-0.000312679709168151,0.8835732936859131,0.0,-0.04345247521996498
407.0,400.0,3.4379,-0.0843,8.6943,-0.0341,0.029,-0.122,-1.5582494607991357,0.0,2.150509834289551,-1.4907208681106567,-0.0,2.2361528873443604,4.157099886531494,-0.0,0.2935439646244049,-1.569101635609762,-0.0,-0.003909008577466011,0.7702856659889221,-0.0,-0.010755161754786968,0.8835492730140686,0.0,-0.05741921812295914
407.0,400.0,3.4379,-0.0843,8.6943,-0.0341,0.029,-0.122,-1.5582857339507719,0.0,2.139157295227051,-1.4907608032226562,-0.0,2.161447525024414,4.15710370122876,-0.0,0.28822439908981323,-1.5691264311419886,-0.0,-0.014426669105887413,0.770261287689209,-0.0,0.005825859494507313,0.8836214542388916,0.0,-0.0028170072473585606
407.0,400.0,3.4379,-0.0843,8.6943,-0.0341,0.029,-0.122,-1.5583017722568293,0.0,2.138214349746704,-1.4908093214035034,-0.0,2.1465001106262207,4.157107515926025,-0.0,0.2793959081172943,-1.5691097418414515,-0.0,-0.01278270035982132,0.7702053189277649,-0.0,0.0081741102039814,0.8836054801940918,0.0,0.0455658845603466
407.0,400.0,3.4379,-0.0843,8.6943,-0.0341,0.029,-0.122,-1.5583017396605392,0.0,2.144834041595459,-1.4907894134521484,-0.0,2.1957240104675293,4.157091780299805,-0.0,0.29811838269233704,-1.5690820852862757,-0.0,-0.027805063873529434,0.7702734470367432,-0.0,-0.006321234628558159,0.8836095333099365,0.0,0.00028563174419105053
407.0,400.0,3.4379,-0.0843,8.6943,-0.0341,0.029,-0.122,-1.5582530817813058,0.0,2.1265780925750732,-1.4908133745193481,-0.0,2.190866231918335,4.15709559499707,-0.0,0.2881949543952942,-1.5691140333758753,-0.0,0.004385720938444138,0.7702410817146301,-0.0,-0.006834422238171101,0.8835732936859131,0.0,0.019176337867975235
407.0,400.0,3.4379,-0.0843,8.6943,-0.0341,0.029,-0.122,-1.5582412185943504,0.0,2.1521832942962646,-1.490813136100769,-0.0,2.2286880016326904,4.157091780299805,-0.0,0.29620009660720825,-1.5690940062152308,-0.0,-0.007972764782607555,0.7702654004096985,-0.0,-0.0197858065366745,0.883561372756958,0.0,-0.008565319702029228
407.0,400.0,3.4379,-0.0843,8.6943,-0.0341,0.029,-0.122,-1.558249444966652,0.0,2.1090471744537354,-1.4908133745193481,-0.0,2.2316505908966064,4.157079382533691,-0.0,0.29640546441078186,-1.5690858999835413,-0.0,-0.014330263249576092,0.770233690738678,-0.0,-0.003813264425843954,0.8836535811424255,0.0,0.02065877988934517
407.0,400.0,3.4379,-0.0843,8.6943,-0.0341,0.029,-0.122,-1.5582250238261004,0.0,2.1411309242248535,-1.4907968044281006,-0.0,2.1908276081085205,4.157079382533691,-0.0,0.2918541729450226,-1.5691221396075647,-0.0,-0.016589835286140442,0.7702295780181885,-0.0,-0.0015281355008482933,0.883613646030426,0.0,0.02636461704969406
407.0,400.0,3.4379,-0.0843,8.6943,-0.0341,0.029,-0.122,-1.5582576145282765,0.0,2.1883983612060547,-1.4907327890396118,-0.0,2.175071954727173,4.157059832210205,-0.0,0.29190003871917725,-1.5691097418414515,-0.0,-0.014573736116290092,0.7702776193618774,-0.0,-0.003990803845226765,0.883577287197113,0.0,-0.010146809741854668
407.0,400.0,3.4379,-0.0843,8.6943,-0.0341,0.029,-0.122,-1.5582494365847488,0.0,2.1397476196289062,-1.4907410144805908,-0.0,2.1471433639526367,4.1571313577839355,-0.0,0.29799559712409973,-1.5691183249102991,-0.0,-0.0054286448284983635,0.7702693939208984,-0.0,-0.006020507775247097,0.8836257457733154,0.0,-0.024451376870274544
435.0,388.0,3.4917,0.0144,8.549,-0.0458,0.0246,-0.1231,-1.5583017890206357,0.0,2.1311769485473633,-1.4908133745193481,-0.0,2.217597007751465,4.157059832210205,-0.0,0.30589255690574646,-1.5691140333758753,-0.0,-0.0153892757371068,0.7702935338020325,-0.0,0.013388747349381447,0.8835813999176025,0.0,-0.011024288833141327
435.0,388.0,3.4917,0.0144,8.549,-0.0458,0.0246,-0.1231,-1.5582734144157548,0.0,2.125965118408203,-1.4907927513122559,-0.0,2.1485111713409424,4.157111330623291,-0.0,0.2929283380508423,-1.5690978209124964,-0.0,-0.008349474519491196,0.7702053785324097,-0.0,-0.0020476095378398895,0.8836014866828918,0.0,-0.007183298468589783
435.0,388.0,3.4917,0.0144,8.549,-0.0458,0.0246,-0.1231,-1.5582695764354249,0.0,2.1260199546813965,-1.490745186805725,-0.0,2.1657211780548096,4.15711943685498,-0.0,0.29406052827835083,-1.5691097418414515,-0.0,-0.014269613660871983,0.7702897787094116,-0.0,0.00816145446151495,0.8836176991462708,0.0,0.018793120980262756
435.0,388.0,3.4917,0.0144,8.549,-0.0458,0.0246,-0.1231,-1.558322088127472,0.0,2.144083023071289,-1.4908050298690796,-0.0,2.1513450145721436,4.15707175313916,-0.0,0.29124003648757935,-1.5691340605365198,-0.0,-0.005441438872367144,0.770261287689209,-0.0,-0.005848505534231663,0.8836374282836914,0.0,-0.015564103610813618
435.0,388.0,3.4917,0.0144,8.549,-0.0458,0.0246,-0.1231,-1.5582654553330322,0.0,2.1384544372558594,-1.490764856338501,-0.0,2.1939375400543213,4.157079382533691,-0.0,0.2946934103965759,-1.5691264311419886,-0.0,-0.008463229984045029,0.7702693343162537,-0.0,-0.0016123694367706776,0.883613646030426,0.0,-0.0007638810202479362
435.0,388.0,3.4917,0.0144,8.549,-0.0458,0.0246,-0.1231,-1.558261365895607,0.0,2.1371450424194336,-1.490764856338501,-0.0,2.232708215713501,4.157075567836426,-0.0,0.2969263195991516,-1.5690940062152308,-0.0,-0.0032155609223991632,0.7702533602714539,-0.0,-0.02277548611164093,0.8836054801940918,0.0,-0.013800895772874355
435.0,388.0,3.4917,0.0144,8.549,-0.0458,0.0246,-0.1231,-1.5582654264620324,0.0,2.116725206375122,-1.490756630897522,-0.0,2.19193959236145,4.157111330623291,-0.0,0.2877389192581177,-1.5691221396075647,-0.0,-0.0065269689075648785,0.7702136635780334,-0.0,-0.006878881249576807,0.8836296200752258,0.0,-0.0027190898545086384
435.0,388.0,3.4917,0.0144,8.549,-0.0458,0.0246,-0.1231,-1.5582976148328562,0.0,2.152189016342163,-1.490745186805725,-0.0,2.1927199363708496,4.157099886531494,-0.0,0.2900253236293793,-1.5691140333758753,-0.0,-0.01543649286031723,0.7702574729919434,-0.0,-0.009831113740801811,0.8836255073547363,0.0,-0.013396041467785835
435.0,388.0,3.4917,0.0144,8.549,-0.0458,0.0246,-0.1231,-1.5582976148328562,0.0,2.1365785598754883,-1.49077308177948,-0.0,2.2284436225891113,4.157087488765381,-0.0,0.30098626017570496,-1.5691502729998987,-0.0,-0.011904092505574226,0.7702533602714539,-0.0,-0.011823732405900955,0.8835892081260681,0.0,0.015828212723135948
435.0,388.0,3.4917,0.0144,8.549,-0.0458,0.0246,-0.1231,-1.5583017564243455,0.0,2.1260366439819336,-1.4908374547958374,-0.0,2.1698074340820312,4.157063646907471,-0.0,0.30700767040252686,-1.5691140333758753,-0.0,-0.007110226899385452,0.7702693343162537,-0.0,-0.0082068657502532,0.8836214542388916,0.0,0.019160311669111252
435.0,388.0,3.4917,0.0144,8.549,-0.0458,0.0246,-0.1231,-1.5582736537656565,0.0,2.1447677612304688,-1.4907411336898804,-0.0,2.230534553527832,4.15712754308667,-0.0,0.29928112030029297,-1.5691264311419886,-0.0,-0.004005621653050184,0.7702816724777222,-0.0,0.0011005279375240207,0.883605420589447,0.0,-0.01719829812645912
435.0,388.0,3.4917,0.0144,8.549,-0.0458,0.0246,-0.1231,-1.5582617933726688,0.0,2.1412465572357178,-1.4907370805740356,-0.0,2.2088379859924316,4.157099886531494,-0.0,0.2904529869556427,-1.5690940062152308,-0.0,-0.00242099491879344,0.7702817320823669,-0.0,-0.00849524512887001,0.8836095333099365,0.0,-0.01560264267027378
435.0,388.0,3.4917,0.0144,8.549,-0.0458,0.0246,-0.1231,-1.5582736686668177,0.0,2.139244318008423,-1.4908252954483032,-0.0,2.172487735748291,4.157111330623291,-0.0,0.2967187166213989,-1.5691264311419886,-0.0,-0.009313514456152916,0.7702094316482544,-0.0,0.00046889251098036766,0.8836095333099365,0.0,0.015005373395979404
435.0,388.0,3.4917,0.0144,8.549,-0.0458,0.0246,-0.1231,-1.5582695764354249,0.0,2.1680893898010254,-1.490829348564148,-0.0,2.23769211769104,4.157059832210205,-0.0,0.3033142685890198,-1.5691140333758753,-0.0,-0.02231573313474655,0.7702136039733887,-0.0,-0.012588386423885822,0.8835892081260681,0.0,-0.002804348710924387
435.0,388.0,3.4917,0.0144,8.549,-0.0458,0.0246,-0.1231,-1.5582654301873227,0.0,2.1549646854400635,-1.4907689094543457,-0.0,2.200045347213745,4.157075567836426,-0.0,0.30698350071907043,-1.5690458456622522,-0.0,-0.009275203570723534,0.7702053785324097,-0.0,-0.013005868531763554,0.8836255073547363,0.0,-0.013743783347308636
435.0,388.0,3.4917,0.0144,8.549,-0.0458,0.0246,-0.1231,-1.5582857544398685,0.0,2.100625514984131,-1.4908256530761719,-0.0,2.223055601119995,4.157011194820068,-0.0,0.28361228108406067,-1.5691307226764124,-0.0,0.0058333976194262505,0.7702493667602539,-0.0,-0.01621294394135475,0.883577287197113,0.0,-0.005044455640017986
435.0,388.0,3.4917,0.0144,8.549,-0.0458,0.0246,-0.1231,-1.558224963290133,0.0,2.1249728202819824,-1.4908008575439453,-0.0,2.168192148208618,4.157123728389404,-0.0,0.2883552312850952,-1.5691264311419886,-0.0,-0.0015704964753240347,0.7701812982559204,-0.0,-0.021653015166521072,0.8836095333099365,0.0,-0.005292407236993313
419.0,403.0,3.4516,-0.0167,8.7135,-0.0408,0.0142,-0.1191,-1.5582371133244415,0.0,2.1503753662109375,-1.49077308177948,-0.0,2.1970126628875732,4.157111807460449,-0.0,0.3015364408493042,-1.569146458302633,-0.0,-0.007442254573106766,0.770261287689209,-0.0,0.010828879661858082,0.8836054801940918,0.0,0.027640625834465027
419.0,403.0,3.4516,-0.0167,8.7135,-0.0408,0.0142,-0.1191,-1.558305812334158,0.0,2.1523990631103516,-1.4907608032226562,-0.0,2.2280428409576416,4.157063646907471,-0.0,0.3084772229194641,-1.5690777937518519,-0.0,-0.019738787785172462,0.770261287689209,-0.0,-0.025086991488933563,0.8836095333099365,0.0,-0.00595749169588089
419.0,403.0,3.4516,-0.0167,8.7135,-0.0408,0.0142,-0.1191,-1.558309707125165,0.0,2.135768413543701,-1.4907772541046143,-0.0,2.206596612930298,4.15710370122876,-0.0,0.29960229992866516,-1.5691388289081019,-0.0,-0.010761389508843422,0.7702977061271667,-0.0,-0.012665972113609314,0.8836414217948914,0.0,-0.017478864639997482
419.0,403.0,3.4516,-0.0167,8.7135,-0.0408,0.0142,-0.1191,-1.5583017890206357,0.0,2.1411631107330322,-1.490748405456543,-0.0,2.1990065574645996,4.15709559499707,-0.0,0.307803750038147,-1.5691264311419886,-0.0,-0.009781800210475922,0.7701972723007202,-0.0,-0.0013929646229371428,0.8836255073547363,0.0,0.01789536327123642
419.0,403.0,3.4516,-0.0167,8.7135,-0.0408,0.0142,-0.1191,-1.5582816165736695,0.0,2.1181087493896484,-1.4907689094543457,-0.0,2.218606472015381,4.157091780299805,-0.0,0.2817123234272003,-1.5690739790545862,-0.0,-0.01231972873210907,0.7702935934066772,-0.0,-0.004800902679562569,0.8836376667022705,0.0,-0.017286065965890884
419.0,403.0,3.4516,-0.0167,8.7135,-0.0408,0.0142,-0.1191,-1.5583017722568293,0.0,2.145763397216797,-1.4908133745193481,-0.0,2.1636722087860107,4.157111807460449,-0.0,0.29227501153945923,-1.5691059271441858,-0.0,-0.02119392901659012,0.7702776193618774,-0.0,-0.0002897433005273342,0.8836495876312256,0.0,-0.03804667294025421
419.0,403.0,3.4516,-0.0167,8.7135,-0.0408,0.0142,-0.1191,-1.5582654590583225,0.0,2.1447012424468994,-1.490736961364746,-0.0,2.1740612983703613,4.157079382533691,-0.0,0.3030606508255005,-1.5691059271441858,-0.0,-0.012889828532934189,0.770293653011322,-0.0,-0.00457481574267149,0.8836095333099365,0.0,0.003553141374140978
419.0,403.0,3.4516,-0.0167,8.7135,-0.0408,0.0142,-0.1191,-1.5582695764354249,0.0,2.1584558486938477,-1.4907606840133667,-0.0,2.266988754272461,4.15711943685498,-0.0,0.29899030923843384,-1.5691307226764124,-0.0,-0.005453558638691902,0.7702574133872986,-0.0,-0.0057543073780834675,0.8836054801940918,0.0,0.006625859532505274
419.0,403.0,3.4516,-0.0167,8.7135,-0.0408,0.0142,-0.1191,-1.5582613575137039,0.0,2.1715333461761475,-1.4908093214035034,-0.0,2.1591968536376953,4.157099409694336,-0.0,0.2865942418575287,-1.5690858999835413,-0.0,-0.014675270766019821,0.7702370882034302,-0.0,-0.002913511823862791,0.8836374282836914,0.0,0.0012334100902080536
419.0,403.0,3.4516,-0.0167,8.7135,-0.0408,0.0142,-0.1191,-1.5582536079785605,0.0,2.17252779006958,-1.4907525777816772,-0.0,2.237813711166382,4.157139464015625,-0.0,0.29262617230415344,-1.5691264311419886,-0.0,-0.0054788608103990555,0.7702693939208984,-0.0,-0.006969901733100414,0.8835892081260681,0.0,-0.034658800810575485
419.0,403.0,3.4516,-0.0167,8.7135,-0.0408,0.0142,-0.1191,-1.5583017154461523,0.0,2.120303153991699,-1.4907608032226562,-0.0,2.1953704357147217,4.157087488765381,-0.0,0.29228758811950684,-1.569089714680807,-0.0,0.0014915335923433304,0.7702258229255676,-0.0,0.0033787512220442295,0.8836014270782471,0.0,0.017434338107705116
419.0,403.0,3.4516,-0.0167,8.7135,-0.0408,0.0142,-0.1191,-1.5582816165736695,0.0,2.1191959381103516,-1.4907885789871216,-0.0,2.1780290603637695,4.157123251552246,-0.0,0.28874993324279785,-1.5691097418414515,-0.0,-0.01403835229575634,0.7702776193618774,-0.0,-0.010941395536065102,0.8836014270782471,0.0,-0.02731914445757866
419.0,403.0,3.4516,-0.0167,8.7135,-0.0408,0.0142,-0.1191,-1.558229138409235,0.0,2.133492946624756,-1.4907894134521484,-0.0,2.1731579303741455,4.157091780299805,-0.0,0.3043813109397888,-1.5691140333758753,-0.0,-0.007724192924797535,0.7703015804290771,-0.0,-0.016683081164956093,0.8835932612419128,0.0,0.0027138865552842617
419.0,403.0,3.4516,-0.0167,8.7135,-0.0408,0.0142,-0.1191,-1.5582898587784548,0.0,2.1566073894500732,-1.4907968044281006,-0.0,2.1913092136383057,4.157099886531494,-0.0,0.2940891683101654,-1.5691097418414515,-0.0,-0.0038117629010230303,0.7702776193618774,-0.0,-0.00904340110719204,0.8836174011230469,0.0,0.0012799249961972237
419.0,403.0,3.4516,-0.0167,8.7135,-0.0408,0.0142,-0.1191,-1.5582857581651588,0.0,2.1409239768981934,-1.4907608032226562,-0.0,2.1805896759033203,4.15707175313916,-0.0,0.288741797208786,-1.5691426436053675,-0.0,-0.0015121250180527568,0.7702656984329224,-0.0,0.004522842820733786,0.8836255073547363,0.0,0.06228024140000343
419.0,403.0,3.4516,-0.0167,8.7135,-0.0408,0.0142,-0.1191,-1.558273405102529,0.0,2.0856101512908936,-1.4907772541046143,-0.0,2.1932477951049805,4.157087488765381,-0.0,0.29541081190109253,-1.5690858999835413,-0.0,-0.004895963706076145,0.7703136801719666,-0.0,0.006371120922267437,0.8836095333099365,0.0,-0.010376609861850739
419.0,403.0,3.4516,-0.0167,8.7135,-0.0408,0.0142,-0.1191,-1.5583219670555373,0.0,2.148186206817627,-1.490781307220459,-0.0,2.182650327682495,4.157115622157715,-0.0,0.298789918422699,-1.5690940062152308,-0.0,-0.019397931173443794,0.770261287689209,-0.0,0.004509392194449902,0.8835973739624023,0.0,-0.03828394412994385
424.0,394.0,3.3984,-0.0664,8.8211,-0.0324,0.0244,-0.121,-1.5583137965625902,0.0,2.19246244430542,-1.4907772541046143,-0.0,2.1724491119384766,4.157123251552246,-0.0,0.2898558974266052,-1.5691097418414515,-0.0,-0.0016060636844485998,0.7703099250793457,-0.0,-0.0026387274265289307,0.8836176991462708,0.0,-0.0030183843336999416
424.0,394.0,3.3984,-0.0664,8.8211,-0.0324,0.0244,-0.121,-1.558261365895607,0.0,2.1355605125427246,-1.4907608032226562,-0.0,2.2137537002563477,4.15707175313916,-0.0,0.3043394684791565,-1.5691383520709437,-0.0,-0.012326491065323353,0.7702493667602539,-0.0,-0.007060794159770012,0.8835773468017578,0.0,-0.02123090997338295
424.0,394.0,3.3984,-0.0664,8.8211,-0.0324,0.0244,-0.121,-1.5582613817280908,0.0,2.1247174739837646,-1.490764856338501,-0.0,2.1959621906280518,4.15709559499707,-0.0,0.289090633392334,-1.5691097418414515,-0.0,-0.0040117297321558,0.7702693343162537,-0.0,-0.009249086491763592,0.8836176991462708,0.0,-0.02936212345957756
424.0,394.0,3.3984,-0.0664,8.8211,-0.0324,0.0244,-0.121,-1.558277528067567,0.0,2.1505110263824463,-1.49080491065979,-0.0,2.2298474311828613,4.157171412105225,-0.0,0.288597047328949,-1.5691426436053675,-0.0,-0.0037674615159630775,0.7702053785324097,-0.0,-0.0005635395646095276,0.8835654854774475,0.0,0.013189663179218769
424.0,394.0,3.3984,-0.0664,8.8211,-0.0324,0.0244,-0.121,-1.5582695764354249,0.0,2.124553918838501,-1.49077308177948,-0.0,2.2130022048950195,4.157111330623291,-0.0,0.30481383204460144,-1.5691059271441858,-0.0,-0.02314412035048008,0.7702411413192749,-0.0,-0.00934647861868143,0.8836336135864258,0.0,0.04460572078824043
424.0,394.0,3.3984,-0.0664,8.8211,-0.0324,0.0244,-0.121,-1.558293488142528,0.0,2.10760498046875,-1.4908010959625244,-0.0,2.1565308570861816,4.157075567836426,-0.0,0.2935587763786316,-1.569146458302633,-0.0,0.0009750521276146173,0.7702295780181885,-0.0,0.006412978284060955,0.8835932612419128,0.0,-0.0008104504086077213
424.0,394.0,3.3984,-0.0664,8.8211,-0.0324,0.0244,-0.121,-1.5582733892700453,0.0,2.107452630996704,-1.4907732009887695,-0.0,2.2072956562042236,4.157099886531494,-0.0,0.28720349073410034,-1.5691140333758753,-0.0,-0.0021401101257652044,0.7702377438545227,-0.0,-0.005907733924686909,0.8836376667022705,0.0,0.04440320283174515
424.0,394.0,3.3984,-0.0664,8.8211,-0.0324,0.0244,-0.121,-1.5582935375026246,0.0,2.1394340991973877,-1.4907853603363037,-0.0,2.191063404083252,4.157079382533691,-0.0,0.2884977161884308,-1.5691307226764124,-0.0,-0.01505747064948082,0.7701971530914307,-0.0,-0.0024244908709079027,0.883561372756958,0.0,0.0017743021016940475
424.0,394.0,3.3984,-0.0664,8.8211,-0.0324,0.0244,-0.121,-1.5582898354953905,0.0,2.1633739471435547,-1.49077308177948,-0.0,2.209399461746216,4.157139464015625,-0.0,0.3159927725791931,-1.569162670766012,-0.0,-0.0064391884952783585,0.7702897787094116,-0.0,-0.005918495357036591,0.8836416602134705,0.0,0.03546261042356491
424.0,394.0,3.3984,-0.0664,8.8211,-0.0324,0.0244,-0.121,-1.5582935049063344,0.0,2.155698776245117,-1.4908133745193481,-0.0,2.2055299282073975,4.157107515926025,-0.0,0.30015209317207336,-1.5690940062152308,-0.0,-0.01328344363719225,0.7702653408050537,-0.0,-0.0020933880005031824,0.8836095333099365,0.0,0.04113110899925232
424.0,394.0,3.3984,-0.0664,8.8211,-0.0324,0.0244,-0.121,-1.5583258283189316,0.0,2.17764949798584,-1.4907535314559937,-0.0,2.1832172870635986,4.157079382533691,-0.0,0.29344651103019714,-1.569106403981344,-0.0,-0.004649682901799679,0.7703017592430115,-0.0,-0.010758748278021812,0.8835813999176025,0.0,-0.03277239203453064
424.0,394.0,3.3984,-0.0664,8.8211,-0.0324,0.0244,-0.121,-1.5582736649415274,0.0,2.174736261367798,-1.4907845258712769,-0.0,2.2470717430114746,4.157115622157715,-0.0,0.28448307514190674,-1.569089714680807,-0.0,-0.02274550125002861,0.770261287689209,-0.0,-0.008895499631762505,0.8836014866828918,0.0,-0.039694204926490784
424.0,394.0,3.3984,-0.0664,8.8211,-0.0324,0.0244,-0.121,-1.5582935375026246,0.0,2.1864137649536133,-1.490756630897522,-0.0,2.1730871200561523,4.157091780299805,-0.0,0.29194021224975586,-1.5691664854632776,-0.0,-0.011349411681294441,0.7702177166938782,-0.0,-0.01697530969977379,0.8835695385932922,0.0,-0.0011657504364848137
424.0,394.0,3.3984,-0.0664,8.8211,-0.0324,0.0244,-0.121,-1.5583220145529886,0.0,2.1487350463867188,-1.490781307220459,-0.0,2.17920184135437,4.157139940852783,-0.0,0.28209152817726135,-1.5690940062152308,-0.0,-0.01678169146180153,0.7702693939208984,-0.0,-0.006778111681342125,0.8836455345153809,0.0,-0.01230219379067421
424.0,394.0,3.3984,-0.0664,8.8211,-0.0324,0.0244,-0.121,-1.5582412660918017,0.0,2.118673324584961,-1.490781307220459,-0.0,2.219721794128418,4.157063646907471,-0.0,0.3046585023403168,-1.5690577665912073,-0.0,-0.006345904432237148,0.7702654004096985,-0.0,0.002110882196575403,0.883577287197113,0.0,0.03291860222816467
424.0,394.0,3.3984,-0.0664,8.8211,-0.0324,0.0244,-0.121,-1.5582572196475049,0.0,2.127838611602783,-1.4908093214035034,-0.0,2.1726884841918945,4.157115622157715,-0.0,0.3037041127681732,-1.5690978209124964,-0.0,-0.011022628284990788,0.7702213525772095,-0.0,-0.0015387393068522215,0.8836296200752258,0.0,0.03560046851634979
424.0,394.0,3.3984,-0.0664,8.8211,-0.0324,0.0244,-0.121,-1.558309974414744,0.0,2.107844352722168,-1.4908133745193481,-0.0,2.209144115447998,4.15707175313916,-0.0,0.302586168050766,-1.569106403981344,-0.0,-0.0076934099197387695,0.770233690738678,-0.0,-0.003813403658568859,0.8835811614990234,0.0,-0.005594952031970024
428.0,401.0,3.5599,-0.0371,8.7356,-0.0405,0.0185,-0.1182,-1.5582695764354249,0.0,2.1224136352539062,-1.4908051490783691,-0.0,2.1809756755828857,4.157155199641846,-0.0,0.29681503772735596,-1.5691264311419886,-0.0,-0.021764054894447327,0.7702894806861877,-0.0,-0.005869975313544273,0.8836296200752258,0.0,-0.018247853964567184
428.0,401.0,3.5599,-0.0371,8.7356,-0.0405,0.0185,-0.1182,-1.5582494607991357,0.0,2.16361927986145,-1.490837574005127,-0.0,2.242901086807251,4.15711943685498,-0.0,0.2932026982307434,-1.5691264311419886,-0.0,-0.002965007908642292,0.7701853513717651,-0.0,-0.01642010174691677,0.8836214542388916,0.0,0.022089503705501556
428.0,401.0,3.5599,-0.0371,8.7356,-0.0405,0.0185,-0.1182,-1.5582411869293828,0.0,2.098921298980713,-1.4907565116882324,-0.0,2.181334972381592,4.157111330623291,-0.0,0.2961665987968445,-1.5691307226764124,-0.0,-0.013044998049736023,0.7701893448829651,-0.0,0.004674166906625032,0.883613646030426,0.0,-0.0278962142765522
428.0,401.0,3.5599,-0.0371,8.7356,-0.0405,0.0185,-0.1182,-1.5583017322099586,0.0,2.173893451690674,-1.490781307220459,-0.0,2.155308485031128,4.15711943685498,-0.0,0.29762810468673706,-1.5691097418414515,-0.0,-0.014465535059571266,0.7702337503433228,-0.0,-0.00282276701182127,0.883629322052002,0.0,0.0010123960673809052
428.0,401.0,3.5599,-0.0371,8.7356,-0.0405,0.0185,-0.1182,-1.5582695764354249,0.0,2.1574785709381104,-1.49077308177948,-0.0,2.222933769226074,4.15710370122876,-0.0,0.2883545458316803,-1.5690940062152308,-0.0,-0.018781844526529312,0.7702534198760986,-0.0,-0.007716336287558079,0.8836054801940918,0.0,0.04046943783760071
428.0,401.0,3.5599,-0.0371,8.7356,-0.0405,0.0185,-0.1182,-1.5582733743688841,0.0,2.1353282928466797,-1.4907689094543457,-0.0,2.165349006652832,4.157079382533691,-0.0,0.2906951308250427,-1.5690940062152308,-0.0,-0.004779717419296503,0.7702734470367432,-0.0,-0.0037673451006412506,0.8836336135864258,0.0,0.012210356071591377
428.0,401.0,3.5599,-0.0371,8.7356,-0.0405,0.0185,-0.1182,-1.5582654264620324,0.0,2.160461664199829,-1.4907894134521484,-0.0,2.196213722229004,4.15709559499707,-0.0,0.30141183733940125,-1.5691097418414515,-0.0,-0.0009447706397622824,0.7702776193618774,-0.0,0.001897112000733614,0.883613646030426,0.0,0.02663516439497471
428.0,401.0,3.5599,-0.0371,8.7356,-0.0405,0.0185,-0.1182,-1.5582857460579653,0.0,2.1378536224365234,-1.4907968044281006,-0.0,2.172762870788574,4.157059832210205,-0.0,0.30538976192474365,-1.5691140333758753,-0.0,-0.005179563537240028,0.770233690738678,-0.0,0.0005809771828353405,0.883613646030426,0.0,-0.020665651187300682
428.0,401.0,3.5599,-0.0371,8.7356,-0.0405,0.0185,-0.1182,-1.5583017564243455,0.0,2.128631591796875,-1.4908132553100586,-0.0,2.205817461013794,4.157091780299805,-0.0,0.2983587086200714,-1.569134537373678,-0.0,-0.01633969135582447,0.7702940106391907,-0.0,-0.009382706135511398,0.8835732936859131,0.0,-0.010172435082495213
428.0,401.0,3.5599,-0.0371,8.7356,-0.0405,0.0185,-0.1182,-1.5582777627608557,0.0,2.146463632583618,-1.4907525777816772,-0.0,2.2402329444885254,4.15710370122876,-0.0,0.28653407096862793,-1.5691388289081019,-0.0,-0.00032314856071025133,0.7702296376228333,-0.0,-0.012187905609607697,0.883577287197113,0.0,-0.04406879469752312
428.0,401.0,3.5599,-0.0371,8.7356,-0.0405,0.0185,-0.1182,-1.5582695931992312,0.0,2.169642925262451,-1.4907927513122559,-0.0,2.2238917350769043,4.15709559499707,-0.0,0.3026084005832672,-1.5691383520709437,-0.0,-0.01441267691552639,0.7702533602714539,-0.0,-0.0017693059053272009,0.8836214542388916,0.0,0.013214383274316788
428.0,401.0,3.5599,-0.0371,8.7356,-0.0405,0.0185,-0.1182,-1.5582654385692258,0.0,2.1673920154571533,-1.4908252954483032,-0.0,2.1904032230377197,4.157091780299805,-0.0,0.2946537137031555,-1.569089714680807,-0.0,-0.009909405373036861,0.7702452540397644,-0.0,0.002584633184596896,0.8836176991462708,0.0,-0.023857058957219124
428.0,401.0,3.5599,-0.0371,8.7356,-0.0405,0.0185,-0.1182,-1.5582535670003672,0.0,2.146596908569336,-1.4907608032226562,-0.0,2.174980401992798,4.157043619746826,-0.0,0.2983075976371765,-1.5691097418414515,-0.0,-0.010197371244430542,0.7702452540397644,-0.0,0.0010634019272401929,0.8835732936859131,0.0,0.005193149670958519
428.0,401.0,3.5599,-0.0371,8.7356,-0.0405,0.0185,-0.1182,-1.5582291300273319,0.0,2.15960693359375,-1.4908008575439453,-0.0,2.1575088500976562,4.157079382533691,-0.0,0.29535815119743347,-1.5691183249102991,-0.0,-0.015122106298804283,0.7702533602714539,-0.0,-0.000531413359567523,0.883613646030426,0.0,-0.02853487990796566
428.0,401.0,3.5599,-0.0371,8.7356,-0.0405,0.0185,-0.1182,-1.5582654385692258,0.0,2.1359314918518066,-1.4908215999603271,-0.0,2.1891987323760986,4.157067461604736,-0.0,0.298502653837204,-1.5691388289081019,-0.0,-0.011483388021588326,0.770293653011322,-0.0,-0.00447639636695385,0.8836095333099365,0.0,0.04171798378229141
428.0,401.0,3.5599,-0.0371,8.7356,-0.0405,0.0185,-0.1182,-1.5582415054417034,0.0,2.1055614948272705,-1.4907493591308594,-0.0,2.216421604156494,4.157063646907471,-0.0,0.29431697726249695,-1.5691307226764124,-0.0,-0.004989066161215305,0.770233690738678,-0.0,-0.001961686182767153,0.8835813999176025,0.0,-0.022572314366698265
428.0,401.0,3.5599,-0.0371,8.7356,-0.0405,0.0185,-0.1182,-1.558273690087237,0.0,2.0850470066070557,-1.4908051490783691,-0.0,2.170844554901123,4.157063646907471,-0.0,0.2858802378177643,-1.5691140333758753,-0.0,-0.010359037667512894,0.7702775597572327,-0.0,-0.01208082027733326,0.883617639541626,0.0,0.0036418279632925987
437.0,379.0,3.6173,-0.1771,8.6973,-0.0362,0.0136,-0.1081,-1.5582296916148444,0.0,2.13905930519104,-1.4907729625701904,-0.0,2.2522470951080322,4.157083674068115,-0.0,0.2764962911605835,-1.5691388289081019,-0.0,-0.010032689198851585,0.7702254056930542,-0.0,-0.0015678873751312494,0.883589506149292,0.0,-0.022163722664117813
437.0,379.0,3.6173,-0.1771,8.6973,-0.0362,0.0136,-0.1081,-1.5583219670555373,0.0,2.150150775909424,-1.490728735923767,-0.0,2.214639663696289,4.157083674068115,-0.0,0.2952711880207062,-1.5691383520709437,-0.0,-0.006938300561159849,0.7702417373657227,-0.0,-0.010315243154764175,0.8836336135864258,0.0,0.017383702099323273
437.0,379.0,3.6173,-0.1771,8.6973,-0.0362,0.0136,-0.1081,-1.5582415222055097,0.0,2.123507261276245,-1.4907927513122559,-0.0,2.181931257247925,4.157075567836426,-0.0,0.29683971405029297,-1.569134537373678,-0.0,-0.01324180793017149,0.7702493667602539,-0.0,-0.01745467074215412,0.8836014866828918,0.0,-0.0012601828202605247
437.0,379.0,3.6173,-0.1771,8.6973,-0.0362,0.0136,-0.1081,-1.5582535465112706,0.0,2.128891944885254,-1.4907935857772827,-0.0,2.25136137008667,4.15709559499707,-0.0,0.2886491119861603,-1.5691140333758753,-0.0,0.007518500089645386,0.7702817320823669,-0.0,-0.005365594290196896,0.8836216926574707,0.0,0.038074102252721786
437.0,379.0,3.6173,-0.1771,8.6973,-0.0362,0.0136,-0.1081,-1.5582736453837533,0.0,2.128911256790161,-1.4908090829849243,-0.0,2.1536784172058105,4.157115622157715,-0.0,0.2775595188140869,-1.5690940062152308,-0.0,-0.011802200227975845,0.7702613472938538,-0.0,-0.0026409332640469074,0.8835852146148682,0.0,0.01404029130935669
437.0,379.0,3.6173,-0.1771,8.6973,-0.0362,0.0136,-0.1081,-1.5582576312920828,0.0,2.1698288917541504,-1.4907772541046143,-0.0,2.227415084838867,4.157099886531494,-0.0,0.2958369851112366,-1.569085423146383,-0.0,-0.014143354259431362,0.7702453136444092,-0.0,-0.0019777368288487196,0.8836573958396912,0.0,-0.031077871099114418
437.0,379.0,3.6173,-0.1771,8.6973,-0.0362,0.0136,-0.1081,-1.5582654590583225,0.0,2.1378049850463867,-1.4908050298690796,-0.0,2.214294672012329,4.157031698817871,-0.0,0.3022651672363281,-1.5691183249102991,-0.0,-0.019191907718777657,0.7702177166938782,-0.0,-0.002476348541676998,0.8836255073547363,0.0,-0.05899157375097275
437.0,379.0,3.6173,-0.1771,8.6973,-0.0362,0.0136,-0.1081,-1.5583017890206357,0.0,2.144566774368286,-1.4908093214035034,-0.0,2.2043044567108154,4.157091780299805,-0.0,0.29241943359375,-1.5691097418414515,-0.0,-0.006751805543899536,0.770289421081543,-0.0,-0.011113127693533897,0.883577287197113,0.0,-0.0207704808562994
437.0,379.0,3.6173,-0.1771,8.6973,-0.0362,0.0136,-0.1081,-1.5582897945171972,0.0,2.1309542655944824,-1.4907772541046143,-0.0,2.21730375289917,4.1570398050495605,-0.0,0.28004348278045654,-1.569174591694967,-0.0,-0.006604236550629139,0.7702693343162537,-0.0,-0.0022471232805401087,0.8836095333099365,-1.227813961612867e-09,0.0080356290563941
437.0,379.0,3.6173,-0.1771,8.6973,-0.0362,0.0136,-0.1081,-1.5582736081308504,0.0,2.139157772064209,-1.49077308177948,-0.0,2.1657214164733887,4.157087488765381,-0.0,0.283724844455719,-1.5691750685321253,-0.0,-0.005149457603693008,0.7702453136444092,-0.0,0.0037283459678292274,0.8836054801940918,-2.210021716412408e-13,0.006460490170866251
437.0,379.0,3.6173,-0.1771,8.6973,-0.0362,0.0136,-0.1081,-1.5582531460425635,0.0,2.1429028511047363,-1.4907689094543457,-0.0,2.182640314102173,4.157087488765381,-0.0,0.2966229021549225,-1.5690940062152308,-0.0,-0.012243123725056648,0.7702298760414124,-0.0,2.405722625553608e-05,0.8836333751678467,-5.336942945810109e-19,-0.024384763091802597
437.0,379.0,3.6173,-0.1771,8.6973,-0.0362,0.0136,-0.1081,-1.558237363850214,0.0,2.1529150009155273,-1.49077308177948,-0.0,2.1999967098236084,4.15707175313916,-0.0,0.2922825813293457,-1.5691383520709437,-0.0,-0.007627776823937893,0.7702296376228333,-0.0,-0.021145477890968323,0.8836533427238464,-1.2888088008682013e-24,-0.009004895575344563
437.0,379.0,3.6173,-0.1771,8.6973,-0.0362,0.0136,-0.1081,-1.558253558618464,0.0,2.167494773864746,-1.4907968044281006,-0.0,2.162745475769043,4.157079382533691,-0.0,0.2876240313053131,-1.5691183249102991,-0.0,-0.025558246299624443,0.7702453136444092,-0.0,0.004414243623614311,0.8836333751678467,6.5016793087124825e-06,-0.04422660171985626
437.0,379.0,3.6173,-0.1771,8.6973,-0.0362,0.0136,-0.1081,-1.558281641719379,0.0,2.1167397499084473,-1.4907885789871216,-0.0,2.13031268119812,4.157087488765381,-0.0,0.29560333490371704,-1.5691259543048304,-2.724627620409592e-06,-0.01025955006480217,0.7702734470367432,-0.0,0.0004815137363038957,0.8836214542388916,0.0003662910603452474,-0.024614810943603516
437.0,379.0,3.6173,-0.1771,8.6973,-0.0362,0.0136,-0.1081,-1.5582980059883376,0.0,2.129028081893921,-1.4907368421554565,-0.0,2.2270493507385254,4.15709559499707,-0.0,0.295426607131958,-1.5690935293780726,-7.584101680002675e-10,-0.011468581855297089,0.7702653408050537,-0.0,-0.0020520316902548075,0.8836173415184021,0.00039057471440173686,0.012221602723002434
437.0,379.0,3.6173,-0.1771,8.6973,-0.0362,0.0136,-0.1081,-1.558309974414744,-1.0723571336468396e-11,2.1906158924102783,-1.490764856338501,-0.0,2.2377023696899414,4.15709559499707,-0.0,0.2870364487171173,-1.5691421667682093,-2.1110622473209661e-13,-0.002842457266524434,0.7702493667602539,-0.0,-0.003942369017750025,0.8836897015571594,0.0005531624774448574,0.007384996861219406
437.0,379.0,3.6173,-0.1771,8.6973,-0.0362,0.0136,-0.1081,-1.5582494607991357,-1.9302049159177067e-15,2.1370978355407715,-1.4907286167144775,-0.0,2.2093918323516846,4.15711943685498,-0.0,0.28778350353240967,-1.5691664854632776,-8.99978965083917e-16,-0.014507683925330639,0.7701931595802307,-0.0,0.012377132661640644,0.8836655616760254,0.0005350248538888991,0.01362194400280714
398.0,383.0,3.0371,-0.5952,8.9952,-0.0444,0.0252,-0.1151,-1.5582736817053338,-4.661218085595647e-21,2.093296527862549,-1.4907606840133667,-0.0,2.2328343391418457,4.15709559499707,-0.0,0.2870272994041443,-1.5691741148578089,-2.50512475692297e-19,-0.005042371340095997,0.7702411413192749,-0.0,-0.0034362543374300003,0.8836451768875122,0.0005492318887263536,-0.017508970573544502
398.0,383.0,3.0371,-0.5952,8.9952,-0.0444,0.0252,-0.1151,-1.5582737059197207,-1.125629323445355e-26,2.1570684909820557,-1.4907853603363037,-0.0,2.1930387020111084,4.157087488765381,-0.0,0.299696147441864,-1.5691621939288538,-0.00030178463202901185,-0.00027236033929511905,0.7702977061271667,-0.0,-0.0035970513708889484,0.8836737275123596,0.0004951365408487618,-0.01768137887120247
398.0,383.0,3.0371,-0.5952,8.9952,-0.0444,0.0252,-0.1151,-1.5582736695981403,-2.718262507604192e-32,2.1102232933044434,-1.4907853603363037,-0.0,2.2167489528656006,4.157143755550049,-0.0,0.29468026757240295,-1.5691340605365198,-0.0002667056687641889,-0.013023152016103268,0.7702370285987854,-0.0,-0.006362096406519413,0.8836897015571594,0.00037224648986011744,0.0017965491861104965
398.0,383.0,3.0371,-0.5952,8.9952,-0.0444,0.0252,-0.1151,-1.5582898112810035,-4.892776049797176e-36,2.1243531703948975,-1.490716814994812,-0.0,2.154374122619629,4.157099886531494,-0.0,0.3035125732421875,-1.5691540876971644,-0.00023843582312110811,-0.012211572378873825,0.7702453136444092,-0.0,-0.005623818375170231,0.8836493492126465,0.00031939029577188194,0.017504001036286354
398.0,383.0,3.0371,-0.5952,8.9952,-0.0444,0.0252,-0.1151,-1.5582414979911228,-1.1815748651186858e-41,2.144503116607666,-1.4907408952713013,-0.0,2.1999590396881104,4.157148047084473,-0.0,0.2999989092350006,-1.5691865126239222,-0.00020572500943671912,-0.002561451867222786,0.7702254056930542,-0.0,-0.0024911300279200077,0.8836656212806702,0.00021065454347990453,0.028833579272031784
398.0,383.0,3.0371,-0.5952,8.9952,-0.0444,0.0252,-0.1151,-1.558237420660891,-0.0,2.1477787494659424,-1.490764856338501,-0.0,2.2390265464782715,4.15710370122876,-0.0,0.30305880308151245,-1.5691383520709437,-0.00018090780940838158,-0.005268075503408909,0.7702897787094116,-0.0,-0.0049357106909155846,0.8836492896080017,0.0001343938783975318,0.03335609659552574
398.0,383.0,3.0371,-0.5952,8.9952,-0.0444,0.0252,-0.1151,-1.5582818484729906,0.0,2.1675302982330322,-1.4907935857772827,-0.0,2.1668927669525146,4.15711943685498,-0.0,0.28086334466934204,-1.5691583792315882,-0.0001674423983786255,-0.01769694685935974,0.7702530026435852,-0.0,-0.013054726645350456,0.8836696147918701,-0.00012100209278287366,-0.020636489614844322
398.0,383.0,3.0371,-0.5952,8.9952,-0.0444,0.0252,-0.1151,-1.55823369443927,0.0,2.0879127979278564,-1.4908050298690796,-0.0,2.201592206954956,4.157051725978516,-0.0,0.29480716586112976,-1.5691621939288538,-0.00015062608872540295,0.0030757542699575424,0.7702053785324097,-0.0,0.0035535236820578575,0.8836214542388916,-0.0001511574228061363,-0.00388321653008461
398.0,383.0,3.0371,-0.5952,8.9952,-0.0444,0.0252,-0.1151,-1.558277827953436,0.0,2.1040549278259277,-1.4907207489013672,-0.0,2.1912994384765625,4.157107515926025,-0.0,0.2962319850921631,-1.5691664854632776,-0.00010951973672490567,-0.012685740366578102,0.7702370285987854,-0.0,-0.009549942798912525,0.8836573958396912,-0.00017082267731893808,0.03413737565279007
398.0,383.0,3.0371,-0.5952,8.9952,-0.0444,0.0252,-0.1151,-1.5582494701123615,0.0,2.14284086227417,-1.490756630897522,-0.0,2.1678662300109863,4.157055540675781,-0.0,0.30532610416412354,-1.5691583792315882,-0.0001003457437036559,-0.006784940138459206,0.7702452540397644,-0.0,0.003886648453772068,0.8836252689361572,-0.00015088493819348514,0.02307153306901455
398.0,383.0,3.0371,-0.5952,8.9952,-0.0444,0.0252,-0.1151,-1.5583260602182527,0.0,2.127054452896118,-1.4907772541046143,-0.0,2.184013843536377,4.157099886531494,-0.0,0.2797854244709015,-1.569145981465475,-9.504672198090702e-05,-0.002379742683842778,0.7703014016151428,-0.0,-0.007836719043552876,0.8836656212806702,-0.00017401156947016716,0.04054443910717964
398.0,383.0,3.0371,-0.5952,8.9952,-0.0444,0.0252,-0.1151,-1.5582816165736695,0.0,2.1126625537872314,-1.4907853603363037,-0.0,2.2204031944274902,4.1571313577839355,-0.0,0.2907254695892334,-1.5691426436053675,-8.807054837234318e-05,-0.009404748678207397,0.770261287689209,-0.0,0.007583915255963802,0.8836214542388916,-0.00015592793351970613,0.005616235546767712
398.0,383.0,3.0371,-0.5952,8.9952,-0.0444,0.0252,-0.1151,-1.5582775196856637,0.0,2.1386237144470215,-1.490745186805725,-0.0,2.191638946533203,4.157083674068115,-0.0,0.30505141615867615,-1.5691059271441858,-8.204852201743051e-05,-0.007403836119920015,0.7702217102050781,-0.0,-0.0034162511583417654,0.8836573362350464,-0.00014124499284662306,-0.04312616586685181
398.0,383.0,3.0371,-0.5952,8.9952,-0.0444,0.0252,-0.1151,-1.5582370555824419,0.0,2.1824758052825928,-1.4907608032226562,-0.0,2.189662456512451,4.157139464015625,-0.0,0.2919769287109375,-1.569146458302633,-7.847155211493373e-05,-0.020716361701488495,0.770225465297699,-0.0,-0.008392445743083954,0.8836336135864258,-0.00013290171045809984,-0.005820471327751875
398.0,383.0,3.0371,-0.5952,8.9952,-0.0444,0.0252,-0.1151,-1.5583016828498621,0.0,2.138920307159424,-1.4907885789871216,-0.0,2.202831268310547,4.157031698817871,-0.0,0.3167523145675659,-1.5690973440753382,-7.365489000221714e-05,-0.00018258544150739908,0.7702935934066772,-0.0,0.0003138352185487747,0.8836374282836914,-0.00018913811072707176,0.05140402913093567
398.0,383.0,3.0371,-0.5952,8.9952,-0.0444,0.0252,-0.1151,-1.558317926046886,0.0,2.102416515350342,-1.4908008575439453,-0.0,2.1863439083099365,4.157064123744629,-0.0,0.28266000747680664,-1.5691097418414515,-6.93954061716795e-05,-0.009081510826945305,0.7702410817146301,-0.0,-0.003968570381402969,0.8836333751678467,-0.0002001896355068311,-0.018776001408696175
398.0,383.0,3.0371,-0.5952,8.9952,-0.0444,0.0252,-0.1151,-1.5582733976519485,-0.0006848471821285784,2.114457130432129,-1.490756630897522,-0.0,2.217864751815796,4.157007856959961,-0.0,0.28368717432022095,-1.5691264311419886,-6.560153269674629e-05,0.0019568197894841433,0.7702693939208984,-0.0,-0.006331019569188356,0.8836014866828918,-0.00020790548296645284,-0.00023923302069306374
419.0,384.0,3.2967,0.0054,8.5944,-0.0228,0.0362,-0.1228,-1.5583134920201083,-0.000738628557883203,2.1244187355041504,-1.4907729625701904,-0.0,2.2244608402252197,4.157044096583984,-0.0,0.283820241689682,-1.5691021124469202,-6.329479947453365e-05,-0.006518830545246601,0.7702571153640747,-0.0,9.0740155428648e-05,0.8836011290550232,-0.00019816063286270946,-0.007067845202982426
419.0,384.0,3.2967,0.0054,8.5944,-0.0228,0.0362,-0.1228,-1.558329538708069,-0.001332016079686582,2.1230578422546387,-1.490821123123169,-0.0,2.1393816471099854,4.157083674068115,-0.0,0.31399986147880554,-1.5691059271441858,-6.0123493312858045e-05,-0.012709472328424454,0.7702453136444092,-0.0,-0.006556909531354904,0.8836696743965149,-0.000205899981665425,-0.01797058805823326
419.0,384.0,3.2967,0.0054,8.5944,-0.0228,0.0362,-0.1228,-1.558365798821189,-0.0013438540045171976,2.1585984230041504,-1.490764856338501,-0.0,2.177781343460083,4.157035513515137,-0.0,0.2886820435523987,-1.569150749837057,-5.7254852436017245e-05,-0.009498865343630314,0.7702489495277405,-0.0,-0.001723426510579884,0.8836174011230469,-0.0001905147364595905,-0.03804348036646843
419.0,384.0,3.2967,0.0054,8.5944,-0.0228,0.0362,-0.1228,-1.5583534997752686,-0.0013051617424935102,2.1426281929016113,-1.4908093214035034,-0.0,2.17451548576355,4.157047434444092,-0.0,0.29971224069595337,-1.5690978209124964,-4.167836959823035e-05,-0.005407762248069048,0.7702776193618774,-0.0,-0.011489798314869404,0.8836214542388916,-0.00024269611458294094,-0.010674403980374336
419.0,384.0,3.2967,0.0054,8.5944,-0.0228,0.0362,-0.1228,-1.558337490340211,-0.0008318506879732013,2.131305456161499,-1.4907772541046143,-0.0,2.1778955459594727,4.157059832210205,-0.0,0.2832806408405304,-1.5691307226764124,-3.977795859100297e-05,-0.0071751126088202,0.7702135443687439,-0.0,-0.009111642837524414,0.8835892081260681,-0.00020960209076292813,-0.0022550709545612335
419.0,384.0,3.2967,0.0054,8.5944,-0.0228,0.0362,-0.1228,-1.5583493451452632,-0.000534909195266664,2.1519579887390137,-1.4908008575439453,-0.0,2.2058675289154053,4.157063646907471,-0.0,0.2999904751777649,-1.5690858999835413,-3.809429472312331e-05,-0.015547653660178185,0.7702411413192749,-0.0,-0.016769355162978172,0.8835852146148682,-0.00018390272452961653,-0.003304306883364916
419.0,384.0,3.2967,0.0054,8.5944,-0.0228,0.0362,-0.1228,-1.558337490340211,-0.00039424444548785686,2.1598753929138184,-1.4907327890396118,-0.0,2.2037129402160645,4.15710370122876,-0.0,0.29220151901245117,-1.5691221396075647,-3.65473169949837e-05,-0.005331945139914751,0.7702776193618774,-0.0,-0.012594866566359997,0.8835932612419128,-0.00019658106612041593,0.023127702996134758
419.0,384.0,3.2967,0.0054,8.5944,-0.0228,0.0362,-0.1228,-1.558345696223416,-0.0002683720667846501,2.1291604042053223,-1.490745186805725,-0.0,2.1848127841949463,4.157075567836426,-0.0,0.28992363810539246,-1.5690978209124964,-3.558399112080224e-05,-0.009394836612045765,0.7702410817146301,-0.0,-0.000449879327788949,0.8836333751678467,-0.00015271663141902536,-0.023218194022774696
419.0,384.0,3.2967,0.0054,8.5944,-0.0228,0.0362,-0.1228,-1.5582812580144783,-0.00021930519142188132,2.111116409301758,-1.4907689094543457,-0.0,2.194446086883545,4.157051725978516,-0.0,0.2939102351665497,-1.5691140333758753,-3.427132105571218e-05,-0.010285030119121075,0.7702776193618774,-0.0,-0.01113976165652275,0.8835652470588684,-0.00013859053433407098,0.010581007227301598
419.0,384.0,3.2967,0.0054,8.5944,-0.0228,0.0362,-0.1228,-1.5582850186950346,-0.00018541507597547024,2.1698625087738037,-1.4907450675964355,-0.0,2.1781363487243652,4.157059832210205,-0.0,0.302972674369812,-1.5691140333758753,2.6075951609527692e-05,-0.003938897512853146,0.7702776193618774,-0.0,0.000923485029488802,0.8836255073547363,-0.0001268685591639951,-0.015954744070768356
419.0,384.0,3.2967,0.0054,8.5944,-0.0228,0.0362,-0.1228,-1.5583335862359782,-5.6211549235740677e-05,2.132016181945801,-1.490756630897522,-0.0,2.1901397705078125,4.15707175313916,-0.0,0.28770193457603455,-1.569089714680807,2.535781095502898e-05,-0.021028025075793266,0.7702652812004089,-0.0,-0.011469423770904541,0.8836373686790466,-9.619092452339828e-05,0.021381530910730362
419.0,384.0,3.2967,0.0054,8.5944,-0.0228,0.0362,-0.1228,-1.558349328381457,-8.260730828624219e-05,2.138159990310669,-1.4907937049865723,-0.0,2.2327194213867188,4.15707175313916,-0.0,0.2855531871318817,-1.5691183249102991,2.432964538456872e-05,-0.013257833197712898,0.7702611684799194,-0.0,-0.021982664242386818,0.8836656212806702,-6.682120874756947e-05,-0.02556631714105606
419.0,384.0,3.2967,0.0054,8.5944,-0.0228,0.0362,-0.1228,-1.5583655566773196,-0.0006908856448717415,2.1291298866271973,-1.490789532661438,-0.0,2.196988582611084,4.157091780299805,-0.0,0.29071375727653503,-1.5690901915179651,3.5068929719273e-05,0.004111930727958679,0.7702533602714539,-0.0,0.002158678602427244,0.8835932612419128,2.394323564658407e-05,-0.027346843853592873
419.0,384.0,3.2967,0.0054,8.5944,-0.0228,0.0362,-0.1228,-1.5584097274443884,-0.0020312436390668154,2.1508712768554688,-1.4908133745193481,-0.0,2.197282314300537,4.157056017512939,-0.0,0.30115628242492676,-1.5691021124469202,4.211578198010102e-05,-0.003700715722516179,0.7703136801719666,-0.0,-0.016458619385957718,0.883633017539978,6.187493272591382e-05,-0.0018774662166833878
419.0,384.0,3.2967,0.0054,8.5944,-0.0228,0.0362,-0.1228,-1.5583734384602685,-0.002959863981232047,2.1394588947296143,-1.4907968044281006,-0.0,2.1959314346313477,4.157091780299805,-0.0,0.2851523160934448,-1.5691221396075647,4.389879177324474e-05,-0.0013042466016486287,0.7702652812004089,-0.0,-0.0036436733789741993,0.8836534023284912,8.682582847541198e-05,0.015074748545885086
419.0,384.0,3.2967,0.0054,8.5944,-0.0228,0.0362,-0.1228,-1.5584172590500494,-0.0035617020912468433,2.0926733016967773,-1.4907894134521484,-0.0,2.141925811767578,4.157043619746826,-0.0,0.2934069335460663,-1.5690739790545862,4.2361050873296335e-05,0.006792244501411915,0.7702530026435852,-0.0,-0.01133702788501978,0.8836174011230469,7.919964991742745e-05,0.06101275980472565
419.0,384.0,3.2967,0.0054,8.5944,-0.0228,0.0362,-0.1228,-1.5584457845291873,-0.004176260903477669,2.1027913093566895,-1.4907532930374146,-0.0,2.1926157474517822,4.157059832210205,-0.0,0.28654348850250244,-1.5690982977496546,5.1140010327799246e-05,-0.005576533265411854,0.7703017592430115,-0.0,-0.0057514747604727745,0.8836252093315125,7.279380224645138e-05,0.002840240951627493
425.0,388.0,3.1095,-0.0909,8.7183,-0.0289,0.0029,-0.1258,-1.5584775249338527,-0.003988059237599373,2.0932674407958984,-1.490745186805725,-0.0,2.168522834777832,4.157019301051758,-0.0,0.2816213369369507,-1.569094483052389,0.00015184105723164976,-0.0013003324856981635,0.7702857255935669,-0.0,-0.011122867465019226,0.8836014866828918,6.906951603014022e-05,-0.046494416892528534
425.0,388.0,3.1095,-0.0909,8.7183,-0.0289,0.0029,-0.1258,-1.5584854644588013,-0.004438354168087244,2.062866449356079,-1.4907408952713013,-0.0,2.1510112285614014,4.157027407283447,-0.0002565056784078479,0.28490859270095825,-1.5690620581256312,0.0001670921774348244,-0.0033789309673011303,0.7702894806861877,-0.0,-0.0036649242974817753,0.883629322052002,6.414668314391747e-05,-0.025928005576133728
425.0,388.0,3.1095,-0.0909,8.7183,-0.0289,0.0029,-0.1258,-1.5585655898651858,-0.006103265564888716,2.0898704528808594,-1.490764856338501,-0.0,2.169687032699585,4.157063646907471,-0.00022585711849387735,0.26927387714385986,-1.569094483052389,0.00018015145906247199,0.01362569723278284,0.7702296376228333,-0.0,0.0022582532837986946,0.8836170434951782,3.992296842625365e-05,-0.0276486799120903
425.0,388.0,3.1095,-0.0909,8.7183,-0.0289,0.0029,-0.1258,-1.5585772081143041,-0.0085991146042943,2.0652549266815186,-1.4907937049865723,-0.0,2.1392807960510254,4.157063646907471,-0.00019629513553809375,0.26264676451683044,-1.569094483052389,0.00019106925174128264,0.01088682096451521,0.7702530026435852,-0.0,-0.018650252372026443,0.8835933208465576,3.742902117664926e-05,-0.028638705611228943
425.0,388.0,3.1095,-0.0909,8.7183,-0.0289,0.0029,-0.1258,-1.5586132093197484,-0.010299687273800373,2.0319008827209473,-1.4907493591308594,-0.0,2.148768424987793,4.157031221980713,-0.00018054110114462674,0.2749117314815521,-1.5690744558917444,0.00020614151435438544,0.01730332151055336,0.7702897787094116,-0.0,0.006138368509709835,0.8836737275123596,3.593457950046286e-05,-0.07629616558551788
425.0,388.0,3.1095,-0.0909,8.7183,-0.0289,0.0029,-0.1258,-1.5587054735845705,-0.012544209137558937,2.0019750595092773,-1.4907491207122803,-0.0,2.1540074348449707,4.15709559499707,-0.00016114223399199545,0.27489978075027466,-1.5690906683551233,0.0003729437303263694,0.006948200985789299,0.7702370285987854,-0.0,-0.00037925352808088064,0.8836615681648254,3.390407073311508e-05,-0.04213792830705643
425.0,388.0,3.1095,-0.0909,8.7183,-0.0289,0.0029,-0.1258,-1.558801338342466,-0.01436674315482378,1.982302188873291,-1.490744948387146,-0.0,2.140000820159912,4.157084150905273,-0.00014550880587194115,0.27355772256851196,-1.5690625349627894,0.0003595234884414822,0.01592254638671875,0.7702376842498779,-0.0,-0.0025817235000431538,0.8836333751678467,1.6070984202087857e-05,-0.0691850483417511
425.0,388.0,3.1095,-0.0909,8.7183,-0.0289,0.0029,-0.1258,-1.5589054257473727,-0.01676810160279274,1.9907455444335938,-1.4907853603363037,-0.0,2.1954078674316406,4.157063646907471,-0.00013264056178741157,0.26311007142066956,-1.5690949598895472,0.00035212369402870536,0.031606968492269516,0.7702571153640747,-0.0,-0.014438011683523655,0.8836493492126465,2.697664785955567e-05,-0.03755144029855728
425.0,388.0,3.1095,-0.0909,8.7183,-0.0289,0.0029,-0.1258,-1.559005489838757,-0.01843075640499592,1.9837779998779297,-1.4907290935516357,-0.0,2.1463866233825684,4.157063646907471,-0.0001252559304703027,0.2610013484954834,-1.5690339247332972,0.0003209151327610016,0.01782871037721634,0.7702176570892334,-0.0,-0.004867402836680412,0.8836818933486938,2.5450950488448143e-05,-0.09835603833198547
425.0,388.0,3.1095,-0.0909,8.7183,-0.0289,0.0029,-0.1258,-1.5590687732077022,-0.02098313346505165,1.9779434204101562,-1.4907408952713013,-0.0,2.135939359664917,4.157075567836426,-0.00011560195707716048,0.2587529718875885,-1.5690587202655237,0.0003254330367781222,0.021203435957431793,0.7702296376228333,-0.0,0.009379192255437374,0.8836574554443359,2.346063411096111e-05,-0.09486570954322815
425.0,388.0,3.1095,-0.0909,8.7183,-0.0289,0.0029,-0.1258,-1.5592085786959906,-0.025098280981183052,1.979384183883667,-1.4907166957855225,-0.0,2.156226634979248,4.157056017512939,-0.0001073297971743159,0.2702198028564453,-1.5690014998065394,0.0003137668245472014,0.021722964942455292,0.7702370285987854,-0.0,-0.004044005647301674,0.8836252093315125,2.175900954171084e-05,-0.10201115906238556
425.0,388.0,3.1095,-0.0909,8.7183,-0.0289,0.0029,-0.1258,-1.5593568778461595,-0.02715555764734745,1.999147653579712,-1.4907493591308594,-0.0,2.116006851196289,4.15707175313916,-0.00010244288569083437,0.2765428125858307,-1.5690668264972132,0.0002868490410037339,0.020542241632938385,0.770261287689209,-0.0,-0.005343067459762096,0.8836614489555359,2.075541124213487e-05,-0.0908135175704956
425.0,388.0,3.1095,-0.0909,8.7183,-0.0289,0.0029,-0.1258,-1.559561153208353,-0.03119926154613495,1.9557764530181885,-1.49080491065979,-0.0,2.07666015625,4.15704791128125,-0.00011498685489641502,0.2620708644390106,-1.5690258185016077,0.000288292852928862,0.020534902811050415,0.7702212929725647,-0.0,0.008491476997733116,0.8836615085601807,1.9412376786931418e-05,-0.10212717950344086
425.0,388.0,3.1095,-0.0909,8.7183,-0.0289,0.0029,-0.1258,-1.5597000869787117,-0.03474339470267296,1.9417433738708496,-1.4907326698303223,-0.0,2.113192558288574,4.1570188242146,-0.00011702564370352775,0.2613441050052643,-1.5690181891070765,0.0002887714363168925,0.01772928610444069,0.7702054381370544,-0.0,0.0011852472089231014,0.8836696147918701,1.8232594811706804e-05,-0.10787318646907806
425.0,388.0,3.1095,-0.0909,8.7183,-0.0289,0.0029,-0.1258,-1.559972390798368,-0.041320960968732834,1.9410688877105713,-1.4907811880111694,-0.0,2.1148014068603516,4.157104178065918,-0.0001273966918233782,0.2437044084072113,-1.569010082875387,0.0002587565977592021,0.02011202834546566,0.7702212929725647,-0.0,-0.010652735829353333,0.8836533427238464,1.7188005585921928e-05,-0.17355455458164215
425.0,388.0,3.1095,-0.0909,8.7183,-0.0289,0.0029,-0.1258,-1.5601527768052001,-0.04410113766789436,1.8929598331451416,-1.4907937049865723,-0.0,2.0468058586120605,4.15704791128125,-0.00013104565732646734,0.24313566088676453,-1.5690344015704554,0.00024865070008672774,0.022256357595324516,0.770289421081543,-0.0,-0.0065051233395934105,0.8836818933486938,1.655565392866265e-05,-0.13911199569702148
424.0,379.0,3.6371,-0.0006,8.9258,-0.0348,-0.1017,-0.1231,-1.5603839487633486,-0.04993099719285965,1.866713285446167,-1.4907011985778809,-0.0,2.0614895820617676,4.1570398050495605,-0.0001242937141796574,0.2513138949871063,-1.5689662138568323,0.0002449090243317187,0.0343264639377594,0.7702734470367432,-0.0,0.005989832803606987,0.8836737275123596,1.5689809515606612e-05,-0.10499321669340134
424.0,379.0,3.6371,-0.0006,8.9258,-0.0348,-0.1017,-0.1231,-1.5607121785036107,-0.054401908069849014,1.8033041954040527,-1.4907371997833252,-0.0,2.0455591678619385,4.15707175313916,-0.00011817361519206315,0.25224006175994873,-1.5690344015704554,0.00022417629952542484,0.049488432705402374,0.7703256607055664,-0.0,-0.00896038394421339,0.8836129903793335,1.4910046047589276e-05,-0.18781855702400208
424.0,379.0,3.6371,-0.0006,8.9258,-0.0348,-0.1017,-0.1231,-1.5609440880692382,-0.05611398071050644,1.7891348600387573,-1.4907252788543701,5.714899089070968e-05,2.069960355758667,4.157075567836426,-9.560767648508772e-05,0.24038609862327576,-1.5689657370196741,0.0002368997666053474,0.0501793697476387,0.7702693939208984,-0.0,0.0034783773589879274,0.8836452960968018,7.853006245284178e-09,-0.15418878197669983
424.0,379.0,3.6371,-0.0006,8.9258,-0.0348,-0.1017,-0.1231,-1.561308891778328,-0.05982797592878342,1.7890276908874512,-1.4907252788543701,5.52194906049408e-05,2.0597119331359863,4.157051725978516,-8.960063860286027e-05,0.2350081205368042,-1.5690181891070765,0.0002165773621527478,0.04528266564011574,0.7702370285987854,-0.0,-0.005801807623356581,0.8836533427238464,1.8964086824870864e-14,-0.1978415697813034
424.0,379.0,3.6371,-0.0006,8.9258,-0.0348,-0.1017,-0.1231,-1.5616958022913714,-0.06209501996636391,1.7923290729522705,-1.4906933307647705,5.325890742824413e-05,2.033010244369507,4.157043619746826,-0.00010144055704586208,0.24573151767253876,-1.568970028554098,0.00022434181300923228,0.05211623013019562,0.770293653011322,-0.0,-0.008676827885210514,0.8836696147918701,4.5796043589257163e-20,-0.21836638450622559
424.0,379.0,3.6371,-0.0006,8.9258,-0.0348,-0.1017,-0.1231,-1.562110992414393,-0.06547383219003677,1.7168296575546265,-1.4907450675964355,5.143280577613041e-05,2.023930072784424,4.157063646907471,-0.00011151332000736147,0.23968902230262756,-1.568970028554098,0.00023236972629092634,0.049923401325941086,0.7702452540397644,-0.0,-0.010073889046907425,0.883629322052002,1.1059206198045395e-25,-0.20052570104599
424.0,379.0,3.6371,-0.0006,8.9258,-0.0348,-0.1017,-0.1231,-1.5624350731125851,-0.06695935130119324,1.7566554546356201,-1.4907935857772827,4.022858047392219e-05,2.0305428504943848,4.157059832210205,-0.0001234766241395846,0.22153069078922272,-1.5689824263202112,0.00021906557958573103,0.06412581354379654,0.7702574729919434,-0.0,0.009769988246262074,0.8836656212806702,1.9906181696372805e-29,-0.22100858390331268
424.0,379.0,3.6371,-0.0006,8.9258,-0.0348,-0.1017,-0.1231,-1.5627782598933955,-0.06778029352426529,1.7303062677383423,-1.4907249212265015,-0.00010143079271074384,2.0694570541381836,4.157019777888916,-0.00043753752834163606,0.21437129378318787,-1.5689781347857874,0.00022807909408584237,0.04696705937385559,0.7702411413192749,-0.0,0.010556414723396301,0.8836615681648254,4.8071089573752654e-35,-0.1981574296951294
424.0,379.0,3.6371,-0.0006,8.9258,-0.0348,-0.1017,-0.1231,-1.5632298377207299,-0.06790975481271744,1.729972243309021,-1.4907853603363037,-0.0001474535238230601,2.0069353580474854,4.157051725978516,-0.0010570971062406898,0.22264833748340607,-1.5689380804644983,0.00020347388635855168,0.06266292184591293,0.770225465297699,-0.0,-0.00991928018629551,0.8836574554443359,1.160863673815965e-40,-0.2155773937702179
424.0,379.0,3.6371,-0.0006,8.9258,-0.0348,-0.1017,-0.1231,-1.5635619515417893,-0.06972433626651764,1.7334816455841064,-1.4907771348953247,-0.00017728906823322177,2.059264659881592,4.15702406942334,-0.0012756874784827232,0.23020029067993164,-1.568970028554098,0.00021656524040736258,0.06618522107601166,0.7703218460083008,-0.0,0.0006714503979310393,0.8836815357208252,2.1019476964872256e-44,-0.1753029078245163
424.0,379.0,3.6371,-0.0006,8.9258,-0.0348,-0.1017,-0.1231,-1.5639976926944037,-0.07682202756404877,1.7007044553756714,-1.4907368421554565,-0.0005104437004774809,2.012845993041992,4.157008333797119,-0.001380578032694757,0.21882343292236328,-1.5690024534808558,0.0001997473882511258,0.0737643837928772,0.7702817916870117,-0.0,-0.0018001818098127842,0.8836855888366699,0.0,-0.22685369849205017
424.0,379.0,3.6371,-0.0006,8.9258,-0.0348,-0.1017,-0.1231,-1.564429349531867,-0.08735689520835876,1.6320750713348389,-1.490764856338501,-0.0003382275172043592,1.9828786849975586,4.157027884120605,-0.0010564901167526841,0.21487578749656677,-1.5689457098590296,0.00020756205776706338,0.06932281702756882,0.7702453136444092,-0.0,-0.005114723462611437,0.8836574554443359,0.0,-0.28784307837486267
424.0,379.0,3.6371,-0.0006,8.9258,-0.0348,-0.1017,-0.1231,-1.564960616906621,-0.09528645128011703,1.642113447189331,-1.490761637687683,-0.00018542255565989763,1.948836326599121,4.156984015102051,-0.0006417722324840724,0.19161778688430786,-1.5689743200885218,0.00019179443188477308,0.0841866135597229,0.7702533602714539,-0.0,-0.005323788151144981,0.8836655616760254,-0.00037646235432475805,-0.2631552517414093
424.0,379.0,3.6371,-0.0006,8.9258,-0.0348,-0.1017,-0.1231,-1.5653923808461805,-0.10186118632555008,1.601285696029663,-1.4907294511795044,0.00030704951495863497,1.9382178783416748,4.157039328212402,-0.0004959725774824619,0.21585068106651306,-1.5689657370196741,0.0001820926700020209,0.08916015923023224,0.770261287689209,-0.0,-0.0075015779584646225,0.8836656212806702,-0.0004501206276472658,-0.27877694368362427
424.0,379.0,3.6371,-0.0006,8.9258,-0.0348,-0.1017,-0.1231,-1.5659436069293697,-0.10699205845594406,1.5865883827209473,-1.4906851053237915,0.0011017362121492624,2.002466917037964,4.15702406942334,-0.0002980997378472239,0.19909651577472687,-1.568941895161764,0.00018388242460787296,0.08898503333330154,0.7702653408050537,-0.0,-0.0059498674236238,0.8836252093315125,-0.0011733660940080881,-0.3047058582305908
424.0,379.0,3.6371,-0.0006,8.9258,-0.0348,-0.1017,-0.1231,-1.5665952505408605,-0.11187546700239182,1.5639015436172485,-1.490693211555481,0.0013757292181253433,1.9468188285827637,4.157076044673584,-0.00023872751626186073,0.20906731486320496,-1.5689662138568323,0.00016382041212636977,0.08187691867351532,0.7702370882034302,-0.0,-0.006318559404462576,0.8836493492126465,-0.0012952795950695872,-0.31278932094573975
424.0,379.0,3.6371,-0.0006,8.9258,-0.0348,-0.1017,-0.1231,-1.5670787580641736,-0.11359236389398575,1.596235752105713,-1.4907212257385254,0.0010690900962799788,1.9606435298919678,4.157031221980713,-0.0002107609179802239,0.21026858687400818,-1.5689461866961878,0.0001527007989352569,0.08595502376556396,0.7702613472938538,-0.0,-9.356648661196232e-06,0.8836414813995361,-0.0011180929141119123,-0.29268550872802734
407.0,359.0,2.0417,-0.2614,8.5807,-0.0428,-0.0202,-0.1235,-1.5677663146382947,-0.11095203459262848,1.6259100437164307,-1.4907171726226807,0.0007083214004524052,1.984724521636963,4.15704791128125,-0.00013602526450995356,0.21084049344062805,-1.5689218680011194,0.00013859066530130804,0.09395137429237366,0.7702452540397644,-0.0,-0.012393899261951447,0.883621096611023,-0.000692645669914782,-0.3380163013935089
407.0,359.0,2.0417,-0.2614,8.5807,-0.0428,-0.0202,-0.1235,-1.5684658713037898,-0.10669921338558197,1.5985511541366577,-1.4907290935516357,1.2032339327561203e-05,1.9642665386199951,4.156975908870361,-0.00015593512216582894,0.19903773069381714,-1.5689623991595667,0.00012686778791248798,0.08997581899166107,0.7702136039733887,-0.0,-0.012385299429297447,0.8836656212806702,-0.0005000914679840207,-0.2768559157848358
407.0,359.0,2.0417,-0.2614,8.5807,-0.0428,-0.0202,-0.1235,-1.5691332093304773,-0.11241821199655533,1.6463756561279297,-1.4908339977264404,2.9056680672656654e-11,1.954127550125122,4.157036467189453,-4.716271359939128e-05,0.20672765374183655,-1.5689743200885218,0.0001403544592903927,0.09094223380088806,0.7703057527542114,-0.0,-0.004859335720539093,0.8836452960968018,-0.0003913316468242556,-0.2797473073005676
407.0,359.0,2.0417,-0.2614,8.5807,-0.0428,-0.0202,-0.1235,-1.5696169971818854,-0.12117369472980499,1.6008042097091675,-1.4907327890396118,-0.0018738943617790937,1.9837586879730225,4.157012148494385,-0.00014122339780442417,0.20510496199131012,-1.5689623991595667,0.00013343097816687077,0.08485090732574463,0.7702734470367432,-0.0,0.009040018543601036,0.883621096611023,-0.0003417826956138015,-0.26807135343551636
407.0,359.0,2.0417,-0.2614,8.5807,-0.0428,-0.0202,-0.1235,-1.5703443638088466,-0.13203245401382446,1.5709388256072998,-1.4907853603363037,-0.0013805684866383672,1.9651272296905518,4.156963987941406,-0.001499500940553844,0.20655885338783264,-1.568953816090719,0.00012422222062014043,0.10047274827957153,0.7702897787094116,-0.0,-0.006814202293753624,0.883621096611023,-0.0003294111229479313,-0.3217487633228302
407.0,359.0,2.0417,-0.2614,8.5807,-0.0428,-0.0202,-0.1235,-1.5710836849608363,-0.1444646716117859,1.5217645168304443,-1.4907689094543457,-6.195455353008583e-05,1.997798204421997,4.157008810634277,-0.0036415045615285635,0.1948697715997696,-1.568970028554098,0.0001162025291705504,0.08768931776285172,0.7702295780181885,-0.0,-0.005495955236256123,0.8836656212806702,-0.00028557656332850456,-0.3306763172149658
407.0,359.0,2.0417,-0.2614,8.5807,-0.0428,-0.0202,-0.1235,-1.5716468296446742,-0.1479446142911911,1.5701842308044434,-1.4907212257385254,-1.1151601420067436e-08,2.012462854385376,4.156980677241943,-0.004980404861271381,0.19644689559936523,-1.5689824263202112,0.00012981299369130284,0.0949721708893776,0.7702571153640747,-0.0,0.005111268255859613,0.8835613131523132,-0.002053429139778018,-0.3274543285369873
407.0,359.0,2.0417,-0.2614,8.5807,-0.0428,-0.0202,-0.1235,-1.5724460087218226,-0.1486404687166214,1.5861320495605469,-1.4906654357910156,0.0019188628066331148,1.955348253250122,4.156959696406982,-0.008798631839454174,0.19057881832122803,-1.5689423719989222,0.0001223994913743809,0.09237591922283173,0.7702856659889221,-0.0,-0.011410623788833618,0.8835694789886475,-0.0038640841376036406,-0.33654868602752686
407.0,359.0,2.0417,-0.2614,8.5807,-0.0428,-0.0202,-0.1235,-1.573373933831686,-0.1424485743045807,1.5261151790618896,-1.490693211555481,0.0022075315937399864,1.9482395648956299,4.156911535854004,-0.006902840454131365,0.1961512267589569,-1.5689423719989222,0.00013162272807676345,0.09050311148166656,0.7703057527542114,-0.0,-0.005997761618345976,0.88357013463974,-0.0051705013029277325,-0.412416934967041
407.0,359.0,2.0417,-0.2614,8.5807,-0.0428,-0.0202,-0.1235,-1.5742413006224574,-0.1355838179588318,1.5454766750335693,-1.4907336235046387,0.001093945698812604,1.9652626514434814,4.156856222743652,-0.0014167831977829337,0.1961156129837036,-1.5689623991595667,0.00012528072693385184,0.09092800319194794,0.7702897787094116,-0.0,0.0013194849016144872,0.8835330605506897,-0.004458409734070301,-0.3353952169418335
407.0,359.0,2.0417,-0.2614,8.5807,-0.0428,-0.0202,-0.1235,-1.5747963390746058,-0.13621819019317627,1.5695959329605103,-1.4907134771347046,0.0004301601438783109,1.9951246976852417,4.156935854549072,0.00038779311580583453,0.20082756876945496,-1.5689099470721644,0.00012106765643693507,0.0923081561923027,0.7703136801719666,-0.0,-0.0018909275531768799,0.883521318435669,-0.003438639221712947,-0.3306577205657959
407.0,359.0,2.0417,-0.2614,8.5807,-0.0428,-0.0202,-0.1235,-1.5756761036314906,-0.142043337225914,1.5618975162506104,-1.4907252788543701,-0.002113032853230834,1.9051846265792847,4.1568967539021,3.9507569454144686e-05,0.19461092352867126,-1.5689342657672327,0.00011525360605446622,0.08476567268371582,0.7703016996383667,-0.0,0.005810704547911882,0.8835494518280029,-0.0012266110861673951,-0.38961535692214966
407.0,359.0,2.0417,-0.2614,8.5807,-0.0428,-0.0202,-0.1235,-1.57653870205068,-0.15421542525291443,1.5974018573760986,-1.4907130002975464,-0.0020698250737041235,2.005742311477661,4.156904383296631,1.0997076138608008e-08,0.20634251832962036,-1.5689504782306116,0.00010997249773936346,0.11154717206954956,0.7702295780181885,-0.0,-0.006799271330237389,0.8835372924804688,-0.0005188948125578463,-0.33304187655448914
407.0,359.0,2.0417,-0.2614,8.5807,-0.0428,-0.0202,-0.1235,-1.5771657429137171,-0.16370704770088196,1.5737669467926025,-1.4906727075576782,-0.001426410861313343,1.974658489227295,4.1568848329731445,4.688226543092533e-11,0.20095294713974,-1.5689342657672327,0.0001067126213456504,0.09171351790428162,0.7702490091323853,-0.0,-0.016055889427661896,0.8835620284080505,-0.0004078514175489545,-0.3463745713233948
407.0,359.0,2.0417,-0.2614,8.5807,-0.0428,-0.0202,-0.1235,-1.5781456432738246,-0.16815580427646637,1.6076855659484863,-1.4907010793685913,-0.00024145538918673992,1.960505723953247,4.156843824977539,-0.0009030412184074521,0.19235259294509888,-1.5689705053912562,0.00010216981172561646,0.10531298071146011,0.7702213525772095,-0.0,-0.014757471159100533,0.8834683299064636,-0.00022915558656677604,-0.346201628446579
407.0,359.0,2.0417,-0.2614,8.5807,-0.0428,-0.0202,-0.1235,-1.5790931187071742,-0.1688203662633896,1.5689668655395508,-1.4906851053237915,-3.272776272211786e-09,1.9824951887130737,4.15688864767041,-0.0007245657034218311,0.2019740343093872,-1.5689061323748987,9.79979959083721e-05,0.10351245105266571,0.7701972723007202,-0.0,-0.0058155241422355175,0.8835498690605164,-0.0009800459956750274,-0.3791173994541168
407.0,359.0,2.0417,-0.2614,8.5807,-0.0428,-0.0202,-0.1235,-1.5800701580443324,-0.16938214004039764,1.5592033863067627,-1.490693211555481,0.0010642989072948694,1.9531121253967285,4.156892462367676,-0.0004868909018114209,0.1914185881614685,-1.5689423719989222,8.421391248703003e-05,0.10591544210910797,0.7702094316482544,-0.0,-0.01226070150732994,0.8834977746009827,-0.0017512055346742272,-0.37234365940093994
345.0,327.0,3.6963,-0.3129,7.4847,-0.042,-0.1681,-0.1205,-1.5807110271849574,-0.16989700496196747,1.4749479293823242,-1.4907294511795044,0.0011358424089848995,1.9908699989318848,4.156924410457275,-0.00042164826299995184,0.1814265102148056,-1.5689061323748987,7.982686656760052e-05,0.09690797328948975,0.7702013850212097,-0.0,-0.0017013144679367542,0.8834571242332458,-0.0018290606094524264,-0.3449265956878662
345.0,327.0,3.6963,-0.3129,7.4847,-0.042,-0.1681,-0.1205,-1.5817910633482875,-0.16990956664085388,1.5604019165039062,-1.4906890392303467,0.0008398488280363381,2.022507905960083,4.156895800227783,-9.975130524253473e-05,0.19093605875968933,-1.5689504782306116,7.578769145766273e-05,0.09802255034446716,0.7702053189277649,-0.0,-0.009875668212771416,0.8835054636001587,-0.0014643233735114336,-0.3710883855819702
345.0,327.0,3.6963,-0.3129,7.4847,-0.042,-0.1681,-0.1205,-1.5828100643553675,-0.16944418847560883,1.5574636459350586,-1.4906809329986572,0.0005385726108215749,1.9621164798736572,4.156904383296631,-5.393731044023298e-05,0.20833250880241394,-1.5689662138568323,7.214264041977003e-05,0.08744652569293976,0.770261287689209,-0.0,-0.015253114514052868,0.8834571242332458,-0.0009306343854404986,-0.3720332086086273
345.0,327.0,3.6963,-0.3129,7.4847,-0.042,-0.1681,-0.1205,-1.5834971867003382,-0.1708742082118988,1.5484325885772705,-1.49070143699646,0.00043450488010421395,1.9956949949264526,4.156888170833252,-4.815461943508126e-05,0.2107829451560974,-1.5689180533038538,6.99013180565089e-05,0.09916709363460541,0.770233690738678,-0.0,-0.00844873208552599,0.8834611773490906,-0.0006919301813468337,-0.3815547525882721
345.0,327.0,3.6963,-0.3129,7.4847,-0.042,-0.1681,-0.1205,-1.5845562420287074,-0.17552787065505981,1.6166211366653442,-1.4907455444335938,0.0002776140463538468,2.0203757286071777,4.15691248952832,-4.1492352465866134e-05,0.20710240304470062,-1.5689504782306116,6.678886711597443e-05,0.08950921893119812,0.770165205001831,-0.0,-0.007799719460308552,0.8834853172302246,-0.0004997148062102497,-0.33643537759780884
345.0,327.0,3.6963,-0.3129,7.4847,-0.042,-0.1681,-0.1205,-1.585595270196432,-0.18311110138893127,1.5887455940246582,-1.4906246662139893,0.00022007201914675534,1.998185634613037,4.156892462367676,-3.644989192252979e-05,0.20891590416431427,-1.5688980261432093,6.39418576611206e-05,0.09228585660457611,0.7702295780181885,-0.0,-0.004094722680747509,0.8834853172302246,-0.00039110149373300374,-0.30396518111228943
345.0,327.0,3.6963,-0.3129,7.4847,-0.042,-0.1681,-0.1205,-1.5867382488646449,-0.19207051396369934,1.6010454893112183,-1.490684986114502,0.00018588481179904193,2.0432183742523193,4.156872435207031,-3.250046938774176e-05,0.20483753085136414,-1.5689266363727015,6.13275624345988e-05,0.0862693265080452,0.7702656984329224,-0.0,-0.012378199025988579,0.8834893703460693,-0.00032128079328686,-0.3407464027404785
345.0,327.0,3.6963,-0.3129,7.4847,-0.042,-0.1681,-0.1205,-1.5875054798521937,-0.1943420171737671,1.6074175834655762,-1.4907175302505493,0.00010458869655849412,1.9831585884094238,4.156952543849609,-3.031093001482077e-05,0.205092191696167,-1.5689504782306116,5.970033453195356e-05,0.09067249298095703,0.7702376842498779,-0.0,-0.0022684920113533735,0.8834212422370911,-0.00033428528695367277,-0.3568725287914276
345.0,327.0,3.6963,-0.3129,7.4847,-0.042,-0.1681,-0.1205,-1.5886641941466273,-0.18564704060554504,1.6208688020706177,-1.4906408786773682,0.0016270753694698215,2.033468246459961,4.156896277064941,-2.4530092446184426e-07,0.19781449437141418,-1.5689504782306116,5.7415192713961005e-05,0.10139186680316925,0.7702653408050537,-0.0,-0.0009323544800281525,0.8834611773490906,-0.0002487356832716614,-0.35817980766296387
345.0,327.0,3.6963,-0.3129,7.4847,-0.042,-0.1681,-0.1205,-1.5898038349547328,-0.18098752200603485,1.6336588859558105,-1.4906611442565918,0.004404135979712009,2.0226588249206543,4.156900091762207,-6.828042298234749e-11,0.20686239004135132,-1.5689299742328089,5.5298569350270554e-05,0.10121509432792664,0.7702817320823669,-0.0,-0.0005621821037493646,0.8834893703460693,-0.0002463727432768792,-0.33176034688949585
345.0,327.0,3.6963,-0.3129,7.4847,-0.042,-0.1681,-0.1205,-1.5905748806395472,-0.18685708940029144,1.5789794921875,-1.4906253814697266,0.003728898474946618,2.0283114910125732,4.15692059576001,-2.910901500310231e-13,0.21305620670318604,-1.5689623991595667,5.3972104069544e-05,0.08629955351352692,0.7702533602714539,-0.0,-0.013128808699548244,0.8834571242332458,-0.00022577257186640054,-0.32669657468795776
345.0,327.0,3.6963,-0.3129,7.4847,-0.042,-0.1681,-0.1205,-1.5918146572508753,-0.1996484249830246,1.5245987176895142,-1.4906011819839478,0.001667917356826365,2.044325351715088,4.156924410457275,-8.10260070640439e-17,0.20756570994853973,-1.5689380804644983,5.2097562729613855e-05,0.09983306378126144,0.7702493667602539,-0.0,-0.000593127217143774,0.8834971785545349,-0.0001671808131504804,-0.2947714626789093
345.0,327.0,3.6963,-0.3129,7.4847,-0.042,-0.1681,-0.1205,-1.5930973492064417,-0.21098442375659943,1.6241745948791504,-1.4905526638031006,0.000860389496665448,2.0367090702056885,4.1569482523151855,-2.255388881041238e-20,0.21143847703933716,-1.5689623991595667,5.034887362853624e-05,0.09798629581928253,0.7702417373657227,-0.0,-0.010984648019075394,0.8834853172302246,-0.00015041058941278607,-0.3047961890697479
345.0,327.0,3.6963,-0.3129,7.4847,-0.042,-0.1681,-0.1205,-1.5943371258177699,-0.20849137008190155,1.6528964042663574,-1.4905928373336792,0.000511795049533248,1.9973514080047607,4.156900091762207,-6.277956637710096e-24,0.2072848379611969,-1.5689266363727015,4.187656941212481e-07,0.1027778834104538,0.7701288461685181,-0.0,0.008597539737820625,0.8834652304649353,-0.0001639983820496127,-0.34200242161750793
345.0,327.0,3.6963,-0.3129,7.4847,-0.042,-0.1681,-0.1205,-1.5952240429320277,-0.20432128012180328,1.6247031688690186,-1.4906010627746582,0.0005573568632826209,2.0271544456481934,4.156923933620117,-2.6763915043026594e-26,0.22394046187400818,-1.5689423719989222,1.7852638256599107e-09,0.11527067422866821,0.770233690738678,-0.0,-0.011028040200471878,0.8834733963012695,-0.00018040706345345825,-0.3879672884941101
345.0,327.0,3.6963,-0.3129,7.4847,-0.042,-0.1681,-0.1205,-1.5964952907957972,-0.2096325308084488,1.7006946802139282,-1.4906253814697266,0.000762025301810354,2.0092124938964844,4.15692059576001,-7.449833310313712e-30,0.21759098768234253,-1.5689504782306116,4.969347416200476e-13,0.09459540992975235,0.7702417373657227,-0.0,-0.01595715619623661,0.8834812045097351,-0.00018988183001056314,-0.38169345259666443
345.0,327.0,3.6963,-0.3129,7.4847,-0.042,-0.1681,-0.1205,-1.5978223286070765,-0.2219378650188446,1.6247353553771973,-1.490621566772461,0.00041849748231470585,1.9865610599517822,4.156908674831055,-2.0736886659306358e-33,0.21218720078468323,-1.5688818136798304,1.3832360372062025e-16,0.10678074508905411,0.7702653408050537,-0.0,0.004155800677835941,0.8834934234619141,-0.0002009814779739827,-0.3669006824493408
315.0,291.0,3.4032,0.0269,8.3898,-0.0408,-0.1955,-0.1281,-1.598696847955221,-0.2259272187948227,1.6068618297576904,-1.4906010627746582,0.00033951300429180264,2.0476865768432617,4.1568800646015625,-8.840460094265817e-36,0.21689921617507935,-1.5689423719989222,5.896952492314635e-19,0.09305213391780853,0.7701890468597412,-0.0,-0.007304280996322632,0.8835175633430481,-0.0002213401166955009,-0.31076711416244507
315.0,291.0,3.4032,0.0269,8.3898,-0.0408,-0.1955,-0.1281,-1.6000811062254847,-0.22185896337032318,1.607734203338623,-1.4906299114227295,0.00026461988454684615,2.040343999862671,4.15693633138623,-2.4607739903514885e-39,0.22304674983024597,-1.5689423719989222,1.6414384213010868e-22,0.08796365559101105,0.7702257633209229,-3.360002409635854e-08,-0.016142163425683975,0.8834574222564697,-0.0007159017841331661,-0.35131528973579407
315.0,291.0,3.4032,0.0269,8.3898,-0.0408,-0.1955,-0.1281,-1.6013857326903285,-0.2232598215341568,1.6234829425811768,-1.4906134605407715,0.00016483869694638997,2.0536437034606934,4.156896277064941,-6.8523494905483555e-43,0.21982857584953308,-1.5688861052142542,4.5690044013959516e-26,0.11303061246871948,0.7702493667602539,-9.35269049706644e-12,-0.010562781244516373,0.883453369140625,-0.0017617202829569578,-0.390330046415329
315.0,291.0,3.4032,0.0269,8.3898,-0.0408,-0.1955,-0.1281,-1.6027690372862757,-0.2329835742712021,1.5848627090454102,-1.4906615018844604,-0.00012391162454150617,2.043581008911133,4.156892462367676,-0.0,0.2013833224773407,-1.568958584462301,1.271799273985156e-29,0.10722102224826813,0.7702693939208984,-2.603355763386092e-15,-0.009355761110782623,0.8834575414657593,-0.0014476962387561798,-0.4016000032424927
315.0,291.0,3.4032,0.0269,8.3898,-0.0408,-0.1955,-0.1281,-1.6037222347655238,-0.24214434623718262,1.5412745475769043,-1.4906253814697266,-0.0001099186556530185,2.0058937072753906,4.156892462367676,-0.0,0.22687414288520813,-1.5689180533038538,5.421880118838665e-32,0.10093742609024048,0.7702296376228333,-1.1098512234834262e-17,-0.02543860673904419,0.8834693431854248,-0.0009901392040774226,-0.36191242933273315
315.0,291.0,3.4032,0.0269,8.3898,-0.0408,-0.1955,-0.1281,-1.6051250896849574,-0.2444821298122406,1.6075235605239868,-1.4906052350997925,-5.5319874263659585e-06,2.031388282775879,4.15692059576001,-0.0,0.20671561360359192,-1.5689342657672327,1.5092002935497234e-35,0.10685823857784271,0.7702615857124329,-3.089311984938853e-21,-0.011776557192206383,0.8834253549575806,-0.0012472515227273107,-0.32958316802978516
315.0,291.0,3.4032,0.0269,8.3898,-0.0408,-0.1955,-0.1281,-1.6065474949278773,-0.241648867726326,1.6146597862243652,-1.4906134605407715,-1.3359099416965226e-11,2.0332419872283936,4.156895800227783,2.8327147447271273e-05,0.21548156440258026,-1.5689743200885218,4.2009148311408323e-39,0.09442035108804703,0.770233690738678,-8.599213969557074e-25,-0.031481850892305374,0.8834213018417358,-0.0031668860465288162,-0.3857841491699219
315.0,291.0,3.4032,0.0269,8.3898,-0.0408,-0.1955,-0.1281,-1.6074630222716273,-0.23946388065814972,1.653314232826233,-1.4905606508255005,0.0012056384002789855,2.0149779319763184,4.156908197993896,2.902141750382725e-05,0.21182748675346375,-1.5689061323748987,1.7908594374071162e-41,0.11941485106945038,0.7702493667602539,-3.665979915749904e-27,-0.01638779602944851,0.883377194404602,-0.004270166624337435,-0.38470423221588135
315.0,291.0,3.4032,0.0269,8.3898,-0.0408,-0.1955,-0.1281,-1.6089426479735316,-0.24235500395298004,1.6561983823776245,-1.490560531616211,0.0014457519864663482,2.08003306388855,4.156972094173096,5.247977969702333e-05,0.22092288732528687,-1.5689461866961878,5.605193857299268e-45,0.11348496377468109,0.7702376842498779,-1.0204388406663383e-30,-0.0019579872023314238,0.8833897709846497,-0.004580455832183361,-0.3466634750366211
315.0,291.0,3.4032,0.0269,8.3898,-0.0408,-0.1955,-0.1281,-1.6103688679137171,-0.24040073156356812,1.7178670167922974,-1.4905441999435425,0.0009484699694439769,2.0469207763671875,4.156892462367676,7.255034142872319e-05,0.2313203662633896,-1.5689342657672327,0.0,0.0866062194108963,0.7702897787094116,-2.8404289630722143e-34,-0.011332837864756584,0.8833172917366028,-0.00452190637588501,-0.3619331419467926
315.0,291.0,3.4032,0.0269,8.3898,-0.0408,-0.1955,-0.1281,-1.6117755375304164,-0.24516692757606506,1.6417713165283203,-1.4906175136566162,0.00012920463632326573,2.054405450820923,4.156923933620117,6.74999100738205e-05,0.224155455827713,-1.5689385573016565,0.0,0.0966954231262207,0.7702217102050781,-7.90643814501847e-38,-0.014921502210199833,0.8833335041999817,-0.004611734300851822,-0.37555181980133057
315.0,291.0,3.4032,0.0269,8.3898,-0.0408,-0.1955,-0.1281,-1.612803121606344,-0.24873526394367218,1.6879279613494873,-1.4905524253845215,9.915381815517321e-05,2.072218894958496,4.156896277064941,6.428560300264508e-05,0.21742033958435059,-1.5689461866961878,0.0,0.10142356157302856,0.7702136039733887,-3.3706412871329852e-40,-0.024440936744213104,0.8832769393920898,-0.004557576961815357,-0.3523557186126709
315.0,291.0,3.4032,0.0269,8.3898,-0.0408,-0.1955,-0.1281,-1.6142660580077113,-0.25004538893699646,1.7154452800750732,-1.4905928373336792,2.394448250786496e-10,2.0662903785705566,4.15692059576001,7.737253326922655e-05,0.2272808849811554,-1.5689223448382776,0.0,0.08902165293693542,0.7702856659889221,-9.388699710976274e-44,-0.018024960532784462,0.8832571506500244,-0.004773035179823637,-0.36715471744537354
315.0,291.0,3.4032,0.0269,8.3898,-0.0408,-0.1955,-0.1281,-1.6157094440855921,-0.24827690422534943,1.758748173713684,-1.490605115890503,5.782310648496476e-16,2.096036195755005,4.156935854549072,0.0002160674484912306,0.22705022990703583,-1.568958584462301,0.0,0.09677699208259583,0.7702176570892334,-0.0,-0.025593958795070648,0.8832132816314697,-0.004982321988791227,-0.3226662874221802
315.0,291.0,3.4032,0.0269,8.3898,-0.0408,-0.1955,-0.1281,-1.616659780541891,-0.24985572695732117,1.6583985090255737,-1.4905648231506348,1.0407956113478429e-19,2.1054069995880127,4.156908197993896,0.0002554919046815485,0.23349934816360474,-1.5689461866961878,0.0,0.1056591123342514,0.7702013850212097,-0.0,-0.014280321076512337,0.8831971883773804,-0.00575996795669198,-0.3407495617866516
315.0,291.0,3.4032,0.0269,8.3898,-0.0408,-0.1955,-0.1281,-1.6182195148863734,-0.24981406331062317,1.7273437976837158,-1.4905730485916138,2.5133988513288823e-25,2.0667154788970947,4.156935854549072,0.0002914931974373758,0.2268928587436676,-1.568941895161764,0.0,0.0888138860464096,0.7701972126960754,-0.0,-0.03007461503148079,0.8831651210784912,-0.00571562210097909,-0.3843347430229187
315.0,291.0,3.4032,0.0269,8.3898,-0.0408,-0.1955,-0.1281,-1.6196981869139613,-0.24417971074581146,1.7423943281173706,-1.4905730485916138,0.0015671950532123446,2.104377269744873,4.156932039851807,0.0006261204835027456,0.24877043068408966,-1.5689266363727015,0.0,0.10467113554477692,0.7702177166938782,-0.0,-0.03241155669093132,0.8831093907356262,-0.006174242123961449,-0.36017900705337524
276.0,253.0,4.7288,-0.4343,8.2995,-0.0487,-0.2706,-0.1257,-1.6212336025633753,-0.23768925666809082,1.855165958404541,-1.4905606508255005,0.0031323705334216356,2.148743152618408,4.156980200404785,0.0006231609731912613,0.239411860704422,-1.5689061323748987,0.0,0.09317891299724579,0.7701815962791443,-0.0,-0.019034909084439278,0.8831052780151367,-0.005920270923525095,-0.3376028537750244
276.0,253.0,4.7288,-0.4343,8.2995,-0.0487,-0.2706,-0.1257,-1.6221806011595667,-0.24165000021457672,1.729520559310913,-1.4906176328659058,0.0031754416413605213,2.1391348838806152,4.15694443761792,0.0005332713481038809,0.24275514483451843,-1.5689542929278772,0.0,0.08726118505001068,0.7702013850212097,-0.0,-0.014027111232280731,0.8830931186676025,-0.005066213198006153,-0.3119440972805023
276.0,253.0,4.7288,-0.4343,8.2995,-0.0487,-0.2706,-0.1257,-1.6237107716002406,-0.24521031975746155,1.837733507156372,-1.4905295372009277,0.001939905108883977,2.1883535385131836,4.156967802638672,0.0004362814361229539,0.2483765333890915,-1.5689380804644983,0.0,0.07444915175437927,0.7702299356460571,-0.0,-0.021372495219111443,0.8831376433372498,-0.003701896406710148,-0.2561464309692383
276.0,253.0,4.7288,-0.4343,8.2995,-0.0487,-0.2706,-0.1257,-1.6251737080016078,-0.24392114579677582,1.8556506633758545,-1.4904768466949463,0.0008771284483373165,2.118971109390259,4.156972094173096,0.0003691489400807768,0.253198504447937,-1.5689461866961878,0.0,0.07182437181472778,0.7702099084854126,-0.0,-0.02024967409670353,0.8830811977386475,-0.0031396904960274696,-0.34228193759918213
276.0,253.0,4.7288,-0.4343,8.2995,-0.0487,-0.2706,-0.1257,-1.626580377618307,-0.23502647876739502,1.849811315536499,-1.4905418157577515,0.0007606748258695006,2.1682469844818115,4.156943960780762,0.00028405158082023263,0.25979873538017273,-1.5689623991595667,0.0,0.08060241490602493,0.7702533602714539,-0.0,-0.013290630653500557,0.8830211162567139,-0.003320657880976796,-0.32776767015457153
276.0,253.0,4.7288,-0.4343,8.2995,-0.0487,-0.2706,-0.1257,-1.6275879345335902,-0.23624597489833832,1.8199925422668457,-1.490509271621704,0.0006214661989361048,2.134108781814575,4.1569201189228515,0.00021467922488227487,0.2560279071331024,-1.5689662138568323,0.0,0.07147414237260818,0.7701693773269653,-0.0,-0.012804641388356686,0.8830252289772034,-0.0033116221893578768,-0.31218355894088745
276.0,253.0,4.7288,-0.4343,8.2995,-0.0487,-0.2706,-0.1257,-1.6290465794005335,-0.24191921949386597,1.8295872211456299,-1.4904850721359253,0.00048028980381786823,2.151757001876831,4.156940146083496,0.0001724799512885511,0.25931739807128906,-1.5689504782306116,0.0,0.08194132894277573,0.7701893448829651,-0.0,-0.009667996317148209,0.8830012083053589,-0.0028585761319845915,-0.2810634672641754
276.0,253.0,4.7288,-0.4343,8.2995,-0.0487,-0.2706,-0.1257,-1.6304618320860804,-0.2398158758878708,1.856943130493164,-1.4904969930648804,0.00021353494958020747,2.1692774295806885,4.156932039851807,0.00015079675358720124,0.25757473707199097,-1.5689423719989222,0.0,0.08241104334592819,0.7702257633209229,-0.0,-0.018999537453055382,0.8829488754272461,-0.002907662885263562,-0.3136976361274719
276.0,253.0,4.7288,-0.4343,8.2995,-0.0487,-0.2706,-0.1257,-1.6313725910582484,-0.22837893664836884,1.9295322895050049,-1.490517258644104,0.00018661731155589223,2.0889430046081543,4.156964941615723,0.0001391379628330469,0.2581595480442047,-1.5689342657672327,0.0,0.08232277631759644,0.7702099084854126,-0.0,-0.024572119116783142,0.8829900622367859,-0.003043345408514142,-0.301687091588974
276.0,253.0,4.7288,-0.4343,8.2995,-0.0487,-0.2706,-0.1257,-1.6327277622618617,-0.22360746562480927,1.8808097839355469,-1.4905213117599487,0.00015456245455425233,2.194418430328369,4.1569482523151855,0.00012467945634853095,0.24713629484176636,-1.5689223448382776,0.0,0.0759059339761734,0.7702616453170776,-0.0,-0.01953938417136669,0.8829044699668884,-0.002963095670565963,-0.28247183561325073
276.0,253.0,4.7288,-0.4343,8.2995,-0.0487,-0.2706,-0.1257,-1.6341148815550746,-0.22922712564468384,1.9011445045471191,-1.4905327558517456,-0.00015510080265812576,2.1163973808288574,4.156908197993896,0.00011294314754195511,0.23700332641601562,-1.5689542929278772,0.0,0.0885375440120697,0.7702458500862122,-0.0,-0.039474327117204666,0.8829329013824463,-0.002143753692507744,-0.25774717330932617
276.0,253.0,4.7288,-0.4343,8.2995,-0.0487,-0.2706,-0.1257,-1.6354419193663539,-0.22924169898033142,1.9003546237945557,-1.490533709526062,-8.717107266420498e-05,2.1569557189941406,4.1569763857075195,0.00010322670277673751,0.25590085983276367,-1.5689299742328089,0.0,0.0824817419052124,0.7701933979988098,-0.0,-0.029920479282736778,0.8829212188720703,-0.0015621576458215714,-0.26659095287323
276.0,253.0,4.7288,-0.4343,8.2995,-0.0487,-0.2706,-0.1257,-1.6362811527647914,-0.2222238928079605,1.9831010103225708,-1.4904965162277222,-1.956937921931967e-05,2.1647233963012695,4.156932516688965,9.76274095592089e-05,0.24945001304149628,-1.5688899199115198,0.0,0.07373267412185669,0.7702339887619019,-0.0,-0.0224321149289608,0.8828647136688232,-0.0018823968712240458,-0.31828248500823975
276.0,253.0,4.7288,-0.4343,8.2995,-0.0487,-0.2706,-0.1257,-1.6375957928099574,-0.21151266992092133,1.9238348007202148,-1.4905295372009277,-4.725774285785356e-11,2.075348138809204,4.156960650081299,9.028209024108946e-05,0.2528443932533264,-1.5689104239093226,0.0,0.07906474173069,0.7702016234397888,-0.0,-0.040959011763334274,0.8829212784767151,-0.0032528527081012726,-0.3108760416507721
276.0,253.0,4.7288,-0.4343,8.2995,-0.0487,-0.2706,-0.1257,-1.6387988529601039,-0.2048594206571579,1.9995570182800293,-1.490509271621704,-1.1412188718409476e-16,2.1672921180725098,4.156924410457275,8.396457269554958e-05,0.25699055194854736,-1.5689461866961878,0.0,0.08369146287441254,0.770165205001831,-0.0,-0.022789498791098595,0.8828607797622681,-0.0037471565883606672,-0.28033143281936646
276.0,253.0,4.7288,-0.4343,8.2995,-0.0487,-0.2706,-0.1257,-1.639613767663473,-0.20422139763832092,1.9615554809570312,-1.4905129671096802,-2.0541537710242726e-20,2.1707372665405273,4.1569482523151855,8.022230031201616e-05,0.2562035322189331,-1.5689261595355433,0.0,0.07208992540836334,0.7702257633209229,-0.0,-0.033312950283288956,0.8828244209289551,-0.0034180732909590006,-0.3132432699203491
276.0,253.0,4.7288,-0.4343,8.2995,-0.0487,-0.2706,-0.1257,-1.6408254108824671,-0.19751682877540588,1.9312660694122314,-1.4905295372009277,0.00022247301239985973,2.181776762008667,4.157000704402588,7.519524660892785e-05,0.24716559052467346,-1.5688980261432093,0.0,0.07802499085664749,0.7702136039733887,-0.0,-0.033110104501247406,0.8828614950180054,-0.0031946192029863596,-0.29555386304855347
242.0,240.0,5.0201,-0.1262,7.943,-0.0446,-0.1909,-0.1245,-1.6419884167113246,-0.19364066421985626,1.9784281253814697,-1.4905129671096802,8.114345837384462e-05,2.1682233810424805,4.156892462367676,7.076099427649751e-05,0.251213401556015,-1.5688980261432093,0.0,0.08548140525817871,0.7702257633209229,-0.0,-0.030392631888389587,0.882800817489624,-0.0037601354997605085,-0.2919531464576721
242.0,240.0,5.0201,-0.1262,7.943,-0.0446,-0.1909,-0.1245,-1.6431075535216273,-0.19292646646499634,1.9683727025985718,-1.4905409812927246,2.6584409624774707e-06,2.0889108180999756,4.156876249904297,5.0120437663281336e-05,0.2457866072654724,-1.5689180533038538,0.0,0.07630758732557297,0.7701897025108337,-0.0,-0.035250090062618256,0.8827723264694214,-0.004257895052433014,-0.33578649163246155
242.0,240.0,5.0201,-0.1262,7.943,-0.0446,-0.1909,-0.1245,-1.6438914738097132,-0.19135220348834991,1.9454467296600342,-1.4905688762664795,4.785100649051799e-10,2.1378872394561768,4.156928225154541,4.8321708163712174e-05,0.26001569628715515,-1.5689542929278772,0.0,0.08652306348085403,0.7701815962791443,-0.0,-0.029145337641239166,0.8827492594718933,-0.005046730395406485,-0.37681859731674194
242.0,240.0,5.0201,-0.1262,7.943,-0.0446,-0.1909,-0.1245,-1.6449867687621058,-0.18863552808761597,1.9064197540283203,-1.4905171394348145,1.1555453224130108e-15,2.1282057762145996,4.156943960780762,4.585939313983545e-05,0.2554863691329956,-1.5688779989825647,0.0,0.08885104954242706,0.7702540755271912,-0.0,-0.0386376827955246,0.8827202320098877,-0.006375147495418787,-0.3142874538898468
242.0,240.0,5.0201,-0.1262,7.943,-0.0446,-0.1909,-0.1245,-1.6460615597166957,-0.18129311501979828,1.9891231060028076,-1.4905492067337036,2.790505913351143e-21,2.0843429565429688,4.156968756312988,4.363591142464429e-05,0.24621155858039856,-1.5689180533038538,0.0,0.09430883824825287,0.7702094316482544,-1.0577780784615243e-07,-0.028850266709923744,0.882648229598999,-0.008705482818186283,-0.3266599476337433
242.0,240.0,5.0201,-0.1262,7.943,-0.0446,-0.1909,-0.1245,-1.6468087635436,-0.17786715924739838,1.9875870943069458,-1.490509271621704,5.02281148989607e-25,2.0988621711730957,4.156935854549072,4.226963210385293e-05,0.24338805675506592,-1.5689104239093226,0.0,0.08033864945173264,0.7702136039733887,-4.50947362784504e-10,-0.02893487922847271,0.8825926184654236,-0.009665284305810928,-0.32609158754348755
242.0,240.0,5.0201,-0.1262,7.943,-0.0446,-0.1909,-0.1245,-1.6478239498534144,-0.17498919367790222,1.9754753112792969,-1.490525484085083,1.2129499266586966e-30,2.1567230224609375,4.1569482523151855,4.03734520659782e-05,0.2273429036140442,-1.5689223448382776,0.0,0.09959081560373306,0.7702615857124329,-1.2552285599820578e-13,-0.029537126421928406,0.882604718208313,-0.011097809299826622,-0.36962395906448364
242.0,240.0,5.0201,-0.1262,7.943,-0.0446,-0.1909,-0.1245,-1.6488586864867152,-0.17573733627796173,1.933305263519287,-1.490557312965393,2.929131354960461e-36,2.1096625328063965,4.156956835384033,3.864006430376321e-05,0.24711452424526215,-1.568902317677633,0.0,0.07943935692310333,0.7702299356460571,-3.4939751732215266e-17,-0.022632434964179993,0.8825005888938904,-0.012076710350811481,-0.36679166555404663
242.0,240.0,5.0201,-0.1262,7.943,-0.0446,-0.1909,-0.1245,-1.6499177418150843,-0.17637097835540771,1.912907600402832,-1.4905451536178589,7.073754647911677e-42,2.1098737716674805,4.15693633138623,-2.9699996957788244e-05,0.24177904427051544,-1.568890396748678,0.0,0.08294814079999924,0.770141065120697,-9.725607556041334e-21,-0.043080396950244904,0.8824162483215332,-0.01374613307416439,-0.39087149500846863
242.0,240.0,5.0201,-0.1262,7.943,-0.0446,-0.1909,-0.1245,-1.6506854496397914,-0.17281872034072876,1.9554747343063354,-1.4904810190200806,1.401298464324817e-45,2.15390682220459,4.156896277064941,-2.983168451464735e-05,0.2370987981557846,-1.5689104239093226,0.0,0.0920708030462265,0.7702574133872986,-4.1461790804609094e-23,-0.0344073586165905,0.8823401927947998,-0.015087761916220188,-0.40902167558670044
242.0,240.0,5.0201,-0.1262,7.943,-0.0446,-0.1909,-0.1245,-1.651684423486227,-0.16374622285366058,1.9327967166900635,-1.4904969930648804,-0.0,2.095707893371582,4.156904383296631,-2.8423170078895055e-05,0.2393002063035965,-1.5688985029803675,0.0,0.08521586656570435,0.7702422142028809,-1.1541043517475158e-26,-0.03997083380818367,0.882280707359314,-0.01765267550945282,-0.3547712564468384
