ramyac6/ROB537/final_project/csv/all/bad_141.csv
tof_0,tof_1,accelx,accely,accelz,gyrox,gyroy,gyroz,shoulder_lift_joint_position,shoulder_lift_joint_velocity,shoulder_lift_joint_effort,elbow_joint_position,elbow_joint_velocity,elbow_joint_effort,wrist_1_joint_position,wrist_1_joint_velocity,wrist_1_joint_effort,wrist_2_joint_position,wrist_2_joint_velocity,wrist_2_joint_effort,wrist_3_joint_position,wrist_3_joint_velocity,wrist_3_joint_effort,shoulder_pan_joint_position,shoulder_pan_joint_velocity,shoulder_pan_joint_effort
663.0,865.0,1.6457,0.3643,9.2734,-0.0333,0.0205,-0.1213,-1.5637049165419121,0.0,2.006596565246582,-1.9478602409362793,2.1018227195414117e-21,2.08058500289917,4.79040393510417,-0.0,0.28333473205566406,-1.5969622770892542,0.0,0.002852370962500572,0.7428219318389893,-0.0,-0.0015804078429937363,0.8581308722496033,0.0,0.008578836917877197
663.0,865.0,1.6457,0.3643,9.2734,-0.0333,0.0205,-0.1213,-1.563712775507458,0.0,2.0224785804748535,-1.9477837085723877,3.7832063102692186e-25,2.061821222305298,4.790468054800787,-0.0,0.28637823462486267,-1.596973721181051,0.0,-0.01364745944738388,0.7427857518196106,-0.0,0.011686975136399269,0.8580788969993591,0.0,0.01674722693860531
663.0,865.0,1.6457,0.3643,9.2734,-0.0333,0.0205,-0.1213,-1.563668834777065,0.0,2.061415433883667,-1.9478765726089478,9.135997577924177e-31,2.1007773876190186,4.79045199134902,-0.0,0.29048264026641846,-1.596973721181051,0.0,-0.0031105440575629473,0.742721438407898,-0.0,-0.007816378958523273,0.8581029176712036,0.0,-0.01955614797770977
663.0,865.0,1.6457,0.3643,9.2734,-0.0333,0.0205,-0.1213,-1.563692787928023,0.0,2.060338258743286,-1.9478683471679688,2.206235691318593e-36,2.068474531173706,4.790440308838644,-0.0,0.2969543933868408,-1.5969417730914515,0.0,-0.004615332931280136,0.7427898645401001,-0.0,-0.008966944180428982,0.858090877532959,0.0,-0.00616774708032608
663.0,865.0,1.6457,0.3643,9.2734,-0.0333,0.0205,-0.1213,-1.563700870876648,0.0,2.0398361682891846,-1.947900414466858,3.971139718050099e-40,2.0220372676849365,4.790460149734773,-0.0,0.2876303195953369,-1.5969622770892542,0.0,-0.009403664618730545,0.7427657842636108,-0.0,-0.004961182363331318,0.8581108450889587,0.0,0.02975049987435341
663.0,865.0,1.6457,0.3643,9.2734,-0.0333,0.0205,-0.1213,-1.5637288613109668,0.0,2.0067944526672363,-1.9478890895843506,1.401298464324817e-45,2.0732407569885254,4.790428164392271,-0.0,0.2897654175758362,-1.596949879323141,0.0,-0.019253896549344063,0.7427697777748108,-0.0,-0.001585258636623621,0.85804682970047,0.0,0.005862466059625149
663.0,865.0,1.6457,0.3643,9.2734,-0.0333,0.0205,-0.1213,-1.5637127433768292,0.0,1.9999581575393677,-1.9478518962860107,-0.0,2.0473179817199707,4.7904363227780244,-0.0,0.3035507798194885,-1.5969813505755823,0.0,-0.007828287780284882,0.7427818775177002,-0.0,-0.0035330448299646378,0.8580989837646484,7.793976131154068e-09,-0.02107972279191017
663.0,865.0,1.6457,0.3643,9.2734,-0.0333,0.0205,-0.1213,-1.563712775507458,0.0,1.9905340671539307,-1.94789719581604,-0.0,2.0606307983398438,4.790407980769434,-0.0,0.3025999963283539,-1.5969622770892542,0.0,-0.013000931590795517,0.7427858114242554,-0.0,-0.010669426061213017,0.8581148386001587,1.4028882222572037e-12,-0.03951020911335945
663.0,865.0,1.6457,0.3643,9.2734,-0.0333,0.0205,-0.1213,-1.5637088811821123,0.0,2.0516233444213867,-1.9478437900543213,-0.0,2.041220188140869,4.790452043503084,-0.0,0.29196831583976746,-1.5969579855548304,0.0,-0.006017862819135189,0.7427337765693665,-0.0,-0.003179886844009161,0.8581268787384033,3.3878104293492245e-18,0.029737403616309166
644.0,859.0,1.6253,0.341,9.3434,-0.0302,0.025,-0.1211,-1.563748912220337,0.0,2.0470142364501953,-1.9478363990783691,-0.0,2.1121788024902344,4.790472011059084,-0.0,0.2982098162174225,-1.5969861189471644,0.0,-0.0014963281573727727,0.7427377700805664,-0.0,-0.0025894322898238897,0.8581267595291138,8.181162063215856e-24,-0.0036292001605033875
644.0,859.0,1.6253,0.341,9.3434,-0.0302,0.025,-0.1211,-1.563740881425776,0.0,2.007579803466797,-1.947796106338501,-0.0,2.0874242782592773,4.790404054313459,-0.0,0.30056101083755493,-1.5969856421100062,0.0,-0.011318515986204147,0.7427494525909424,-0.0,-0.0032362770289182663,0.8581069111824036,1.9756541453592224e-29,-0.0034724827855825424
644.0,859.0,1.6253,0.341,9.3434,-0.0302,0.025,-0.1211,-1.5637168090655287,0.0,2.0520834922790527,-1.9478726387023926,-0.0,2.066227912902832,4.790444466262617,-0.0,0.29878613352775574,-1.5969856421100062,0.0,-0.004238275345414877,0.7427494525909424,-0.0,-0.011998220346868038,0.8580989837646484,3.556107714159492e-33,0.00428648479282856
644.0,859.0,1.6253,0.341,9.3434,-0.0302,0.025,-0.1211,-1.563680763622262,0.0,2.0291781425476074,-1.9478363990783691,-0.0,2.0849757194519043,4.790428127139368,-0.0,0.28699570894241333,-1.596949879323141,0.0,-0.015407178550958633,0.7427738308906555,-0.0,-0.0013639285461977124,0.8581348061561584,8.587582984115634e-39,0.03590480610728264
644.0,859.0,1.6253,0.341,9.3434,-0.0302,0.025,-0.1211,-1.563728853394725,0.0,2.0003063678741455,-1.9478561878204346,-0.0,2.044712781906128,4.79040806272582,-0.0,0.29032018780708313,-1.5969937483416956,0.0,0.010621113702654839,0.7427616119384766,-0.0,0.0032077780924737453,0.8581269383430481,2.1019476964872256e-44,-0.007800326216965914
644.0,859.0,1.6253,0.341,9.3434,-0.0302,0.025,-0.1211,-1.563728889250644,0.0,2.0497469902038574,-1.9478363990783691,-0.0,2.039036989212036,4.790391984372892,-0.0,0.2957609295845032,-1.5969775358783167,0.0,0.007461113855242729,0.7426931858062744,-0.0,0.00280071422457695,0.8581348061561584,0.0,-0.004711860790848732
644.0,859.0,1.6253,0.341,9.3434,-0.0302,0.025,-0.1211,-1.563728889250644,0.0,2.0362095832824707,-1.9478363990783691,-0.0,2.0212931632995605,4.790444488614359,-0.0,0.28148603439331055,-1.59698993364443,0.0,0.0037053008563816547,0.7428058385848999,-0.0,-0.013669362291693687,0.8580989837646484,0.0,-0.014065297320485115
644.0,859.0,1.6253,0.341,9.3434,-0.0302,0.025,-0.1211,-1.5637049281834443,0.0,2.0170178413391113,-1.9478518962860107,-0.0,2.075493335723877,4.790419998555937,-0.0,0.2992827594280243,-1.5969818274127405,0.0,-0.001436476712115109,0.7427615523338318,-0.0,0.0023295932915061712,0.8581148386001587,0.0,0.0684293881058693
644.0,859.0,1.6253,0.341,9.3434,-0.0302,0.025,-0.1211,-1.5637408451041956,0.0,2.0403027534484863,-1.9477838277816772,-0.0,2.0756735801696777,4.790480266302385,-0.0,0.29955199360847473,-1.5969775358783167,0.0,-0.0042649488896131516,0.7427657246589661,-0.0,0.0002445228165015578,0.8580989837646484,0.0,0.010331245139241219
644.0,859.0,1.6253,0.341,9.3434,-0.0302,0.025,-0.1211,-1.5636729041910549,0.0,2.0547525882720947,-1.947771430015564,-0.0,2.061143398284912,4.790432224958696,-0.0,0.2902544140815735,-1.5970099608050745,0.0,-0.007479487918317318,0.742805540561676,-0.0,-0.0037436215206980705,0.8581148386001587,0.0,0.009939134120941162
644.0,859.0,1.6253,0.341,9.3434,-0.0302,0.025,-0.1211,-1.5636648375405748,0.0,1.9846491813659668,-1.9478363990783691,-0.0,2.0850093364715576,4.790436300426283,-0.0,0.2932360768318176,-1.59698993364443,0.0,-0.001030149171128869,0.7427657842636108,-0.0,-0.0033166753128170967,0.8580829501152039,0.0,0.03912749141454697
644.0,859.0,1.6253,0.341,9.3434,-0.0302,0.025,-0.1211,-1.5636888954653223,0.0,2.0712952613830566,-1.9478405714035034,-0.0,2.0956945419311523,4.790447915881433,-0.0,0.2948057949542999,-1.597001854573385,0.0,-0.011982901021838188,0.7427895069122314,-0.0,0.0007763674948364496,0.8581187725067139,0.0,0.03442421555519104
644.0,859.0,1.6253,0.341,9.3434,-0.0302,0.025,-0.1211,-1.5636766983992239,0.0,2.0548532009124756,-1.947796106338501,-0.0,2.115405559539795,4.790444466262617,-0.0,0.2992973327636719,-1.5970137755023401,0.0,-0.005964817479252815,0.7426772117614746,-0.0,-0.006312043406069279,0.858086884021759,0.0,0.01118752546608448
644.0,859.0,1.6253,0.341,9.3434,-0.0302,0.025,-0.1211,-1.5636608403040846,0.0,2.047670602798462,-1.9478405714035034,-0.0,2.065760612487793,4.790436330228605,-0.0,0.29239481687545776,-1.5969694296466272,0.0,-0.009358217008411884,0.7427735924720764,-0.0,-0.02398534305393696,0.8580790162086487,0.0,0.00967587810009718
644.0,859.0,1.6253,0.341,9.3434,-0.0302,0.025,-0.1211,-1.5637049281834443,0.0,2.0058536529541016,-1.9478157758712769,-0.0,2.0862557888031006,4.7904240293200395,-0.0,0.29126402735710144,-1.59698993364443,0.0,-0.007963506504893303,0.7427694201469421,-0.0,-0.003334540408104658,0.8580869436264038,0.0,0.012678448110818863
644.0,859.0,1.6253,0.341,9.3434,-0.0302,0.025,-0.1211,-1.5636928521892806,0.0,2.029606580734253,-1.9478117227554321,-0.0,2.0281994342803955,4.7904239920671365,-0.0,0.3009563088417053,-1.5969660917865198,0.0,0.00797035451978445,0.7427657842636108,-0.0,-0.0015454260865226388,0.8581069111824036,0.0,-0.012126748450100422
708.0,866.0,1.6253,0.3338,9.3727,-0.0403,0.0214,-0.1162,-1.5636648258990427,0.0,2.049119710922241,-1.9478766918182373,-0.0,2.077204465866089,4.79045199134902,-0.0,0.2956086993217468,-1.5969937483416956,0.0,-0.008871924132108688,0.7427094578742981,-0.0,-0.009732874110341072,0.8580989837646484,0.0,-0.029894927516579628
708.0,866.0,1.6253,0.3338,9.3727,-0.0403,0.0214,-0.1162,-1.5636888549527903,0.0,2.025171995162964,-1.9478241205215454,-0.0,2.085862874984741,4.79045199134902,-0.0,0.29261302947998047,-1.5970056692706507,0.0,-0.00414249487221241,0.7428014874458313,-0.0,-0.002416705247014761,0.858090877532959,0.0,-0.051054004579782486
708.0,866.0,1.6253,0.3338,9.3727,-0.0403,0.0214,-0.1162,-1.5636648533730586,0.0,2.062729597091675,-1.9478446245193481,-0.0,2.051941394805908,4.790460142284193,-0.0,0.2948753833770752,-1.5969660917865198,0.0,-0.0005184630863368511,0.7427412271499634,-0.0,-0.012039346620440483,0.8581069111824036,0.0,-0.007723845541477203
708.0,866.0,1.6253,0.3338,9.3727,-0.0403,0.0214,-0.1162,-1.5636888307384034,0.0,2.0603795051574707,-1.947872519493103,-0.0,2.0832860469818115,4.79046011248187,-0.0,0.29728394746780396,-1.5969579855548304,0.0,-0.0011413930915296078,0.7427055239677429,-0.0,-3.297626972198486e-05,0.8580710291862488,0.0,0.03679473698139191
708.0,866.0,1.6253,0.3338,9.3727,-0.0403,0.0214,-0.1162,-1.563712791805603,0.0,2.091771364212036,-1.9478363990783691,-0.0,2.0817971229553223,4.790419998555937,-0.0,0.29519593715667725,-1.5969379583941858,0.0,0.0020296797156333923,0.7427694201469421,-0.0,-5.37186861038208e-05,0.8580909967422485,0.0,0.03604859858751297
708.0,866.0,1.6253,0.3338,9.3727,-0.0403,0.0214,-0.1162,-1.5637168169817706,0.0,2.0079405307769775,-1.947872519493103,-0.0,2.051217555999756,4.790460142284193,-0.0,0.2935974597930908,-1.5969622770892542,0.0,-0.011814050376415253,0.7427534461021423,-0.0,-0.003766721347346902,0.8580829501152039,0.0,0.0215230081230402
708.0,866.0,1.6253,0.3338,9.3727,-0.0403,0.0214,-0.1162,-1.563692787928023,0.0,2.0269222259521484,-1.9478405714035034,-0.0,2.085495948791504,4.790411758213796,-0.0,0.29534435272216797,-1.59698993364443,0.0,-0.0030587194487452507,0.7427412271499634,-0.0,-0.0004359997110441327,0.8581227660179138,0.0,-0.02757943607866764
708.0,866.0,1.6253,0.3338,9.3727,-0.0403,0.0214,-0.1162,-1.563668834777065,0.0,2.041682481765747,-1.9478117227554321,-0.0,2.091702938079834,4.79045199134902,-0.0,0.29327380657196045,-1.5970061461078089,0.0,-0.012305697426199913,0.7427616119384766,-0.0,-0.007055835798382759,0.8581108450889587,0.0,0.04367178678512573
708.0,866.0,1.6253,0.3338,9.3727,-0.0403,0.0214,-0.1162,-1.5637289260378857,0.0,2.040524959564209,-1.9477838277816772,-0.0,2.042112112045288,4.790444466262617,-0.0,0.2926103472709656,-1.5970137755023401,0.0,0.010638594627380371,0.7427615523338318,-0.0,-0.003361990675330162,0.8580949902534485,0.0,0.03013387694954872
708.0,866.0,1.6253,0.3338,9.3727,-0.0403,0.0214,-0.1162,-1.5637089459090312,0.0,2.0231571197509766,-1.9478157758712769,-0.0,2.0684738159179688,4.7904322547610185,-0.0,0.3031725585460663,-1.597001854573385,0.0,-0.006134851835668087,0.7427217960357666,-0.0,-0.00240499759092927,0.8580670952796936,0.0,-0.0027779568918049335
708.0,866.0,1.6253,0.3338,9.3727,-0.0403,0.0214,-0.1162,-1.5636888386546453,0.0,2.031282424926758,-1.947787880897522,-0.0,2.071160316467285,4.790419998555937,-0.0,0.29508790373802185,-1.59698993364443,0.0,-0.006196480244398117,0.7427411675453186,-0.0,-0.007023591548204422,0.8581029176712036,0.0,0.023727713152766228
708.0,866.0,1.6253,0.3338,9.3727,-0.0403,0.0214,-0.1162,-1.563700870876648,0.0,2.0136311054229736,-1.9478683471679688,-0.0,2.065321683883667,4.79045199134902,-0.0,0.28970474004745483,-1.5969298521624964,0.0,-0.0038750506937503815,0.7427371144294739,-0.0,-0.002387518994510174,0.8581227660179138,0.0,0.035974953323602676
708.0,866.0,1.6253,0.3338,9.3727,-0.0403,0.0214,-0.1162,-1.5637489406256755,0.0,2.0485453605651855,-1.9478363990783691,-0.0,2.0769214630126953,4.790387998312273,-0.0,0.3036738336086273,-1.5969660917865198,0.0,-0.006661458872258663,0.7427858114242554,-0.0,-0.003845624392852187,0.858086884021759,0.0,0.0295722596347332
708.0,866.0,1.6253,0.3338,9.3727,-0.0403,0.0214,-0.1162,-1.5636968815563996,0.0,2.023508071899414,-1.947856068611145,-0.0,2.0858869552612305,4.790444466262617,-0.0,0.28786802291870117,-1.5969694296466272,0.0,-0.014010574668645859,0.7427977919578552,-0.0,-0.0074372729286551476,0.8581268787384033,0.0,-0.019854547455906868
708.0,866.0,1.6253,0.3338,9.3727,-0.0403,0.0214,-0.1162,-1.563700870876648,0.0,2.003480911254883,-1.9478282928466797,-0.0,2.041337013244629,4.79042814949111,-0.0,0.3013436496257782,-1.5969622770892542,0.0,0.00021792366169393063,0.7427575588226318,-0.0,0.010787644423544407,0.8581029176712036,0.0,0.039330460131168365
708.0,866.0,1.6253,0.3338,9.3727,-0.0403,0.0214,-0.1162,-1.5636848372272034,0.0,2.076780319213867,-1.9478117227554321,-0.0,2.035870313644409,4.7904239920671365,-0.0,0.29498615860939026,-1.5969813505755823,0.0,-0.021823644638061523,0.7427854537963867,-0.0,0.002489985665306449,0.858086884021759,0.0,-0.024896638467907906
708.0,866.0,1.6253,0.3338,9.3727,-0.0403,0.0214,-0.1162,-1.5636766900173207,0.0,2.036587953567505,-1.947824239730835,-0.0,2.0636518001556396,4.790440308838644,-0.0,0.3108534514904022,-1.5969579855548304,0.0,0.0012323318514972925,0.7426972389221191,-0.0,-0.007520818151533604,0.858090877532959,0.0,-0.008347162976861
650.0,865.0,1.7503,0.3535,9.1184,-0.0386,0.0203,-0.1167,-1.5636847934550424,0.0,2.0358057022094727,-1.9478157758712769,-0.0,2.0741515159606934,4.7904239920671365,-0.0,0.29764464497566223,-1.5969813505755823,0.0,7.495842146454379e-05,0.742793619632721,-0.0,-0.0022053862921893597,0.8580829501152039,0.0,0.011043750680983067
650.0,865.0,1.7503,0.3535,9.1184,-0.0386,0.0203,-0.1167,-1.5636769098094483,0.0,2.037444591522217,-1.9478518962860107,-0.0,2.070373058319092,4.790403994708814,-0.0,0.2931623160839081,-1.5969775358783167,0.0,-0.0035264051984995604,0.7427697777748108,-0.0,0.003405077615752816,0.8581148386001587,0.0,0.0010223807767033577
650.0,865.0,1.7503,0.3535,9.1184,-0.0386,0.0203,-0.1167,-1.5636766821010788,0.0,2.0386712551116943,-1.9478890895843506,-0.0,2.073143243789673,4.7903998894389055,-0.0,0.28651681542396545,-1.5969541708575647,0.0,0.004519178066402674,0.7427657842636108,-0.0,0.003591574262827635,0.8581308722496033,0.0,-0.053590431809425354
650.0,865.0,1.7503,0.3535,9.1184,-0.0386,0.0203,-0.1167,-1.5636928037605067,0.0,2.0421533584594727,-1.9478806257247925,-0.0,2.0755176544189453,4.79045199134902,-0.0,0.28865915536880493,-1.596945587788717,0.0,-0.001710203941911459,0.7427858114242554,-0.0,0.007075837813317776,0.8580829501152039,0.0,-0.013719608075916767
650.0,865.0,1.7503,0.3535,9.1184,-0.0386,0.0203,-0.1167,-1.5637167811258514,0.0,2.0598533153533936,-1.9478363990783691,-0.0,2.088416814804077,4.790436315327444,-0.0,0.30853286385536194,-1.5969575087176722,0.0,-0.010205697268247604,0.7428058385848999,-0.0,-0.00017697224393486977,0.8580829501152039,0.0,-0.0051066819578409195
650.0,865.0,1.7503,0.3535,9.1184,-0.0386,0.0203,-0.1167,-1.5636927716298779,0.0,2.0442733764648438,-1.9477962255477905,-0.0,2.1059868335723877,4.79045598486022,-0.0,0.29318296909332275,-1.5969937483416956,0.0,0.002065339358523488,0.7427973747253418,-0.0,-0.009772242978215218,0.8580909967422485,0.0,-0.010624727234244347
650.0,865.0,1.7503,0.3535,9.1184,-0.0386,0.0203,-0.1167,-1.56364880016584,0.0,2.033045768737793,-1.947888970375061,-0.0,2.0252151489257812,4.7904239920671365,-0.0,0.30771172046661377,-1.5969813505755823,0.0,-0.008280593901872635,0.7427135705947876,-0.0,-0.0024766162969172,0.8581187725067139,0.0,-0.03831511735916138
650.0,865.0,1.7503,0.3535,9.1184,-0.0386,0.0203,-0.1167,-1.563680763622262,0.0,2.0442073345184326,-1.9478117227554321,-0.0,2.0672831535339355,4.790436307876863,-0.0,0.2752137780189514,-1.5969980398761194,0.0,-0.0016181663377210498,0.7427217364311218,-0.0,-0.007148792967200279,0.858126699924469,0.0,0.04420597851276398
650.0,865.0,1.7503,0.3535,9.1184,-0.0386,0.0203,-0.1167,-1.5636968457004805,0.0,2.028717041015625,-1.9478487968444824,-0.0,2.0256524085998535,4.790468010097303,-0.0,0.30320635437965393,-1.597001854573385,0.0,-0.013108126819133759,0.7427452802658081,-0.0,-0.018123481422662735,0.8581069111824036,0.0,-0.028440512716770172
650.0,865.0,1.7503,0.3535,9.1184,-0.0386,0.0203,-0.1167,-1.5637168090655287,0.0,2.023411989212036,-1.9478602409362793,-0.0,2.078674554824829,4.790448541730203,-0.0,0.28323739767074585,-1.5969856421100062,0.0,-0.010776338167488575,0.7428178191184998,-0.0,-0.0045993756502866745,0.8581108450889587,0.0,-0.024562345817685127
650.0,865.0,1.7503,0.3535,9.1184,-0.0386,0.0203,-0.1167,-1.5637168374708672,0.0,2.062203884124756,-1.9477920532226562,-0.0,2.0582759380340576,4.790375995426931,-0.0,0.2982482612133026,-1.596933666859762,0.0,-0.013654329814016819,0.7427657842636108,-0.0,-0.009184499271214008,0.858090877532959,0.0,-0.008090212009847164
650.0,865.0,1.7503,0.3535,9.1184,-0.0386,0.0203,-0.1167,-1.5637450393154104,0.0,2.038930892944336,-1.9478726387023926,-0.0,2.046627998352051,4.790448534279623,-0.0,0.29788878560066223,-1.5969536940204065,0.0,-0.003695950610563159,0.7427935600280762,-0.0,0.0018250001594424248,0.8581467866897583,0.0,0.04590141028165817
650.0,865.0,1.7503,0.3535,9.1184,-0.0386,0.0203,-0.1167,-1.5636728925495227,0.0,2.085578441619873,-1.9478518962860107,-0.0,2.0325441360473633,4.790436345129766,-0.0,0.3002084493637085,-1.5969622770892542,0.0,-0.00607316754758358,0.7427738308906555,-0.0,-0.0038833566941320896,0.8581148386001587,0.0,0.010822833515703678
650.0,865.0,1.7503,0.3535,9.1184,-0.0386,0.0203,-0.1167,-1.563700870876648,0.0,2.0321717262268066,-1.9478363990783691,-0.0,2.0811424255371094,4.790447915881433,-0.0,0.2885674238204956,-1.5969861189471644,0.0,-0.003956791944801807,0.7426972389221191,-0.0,0.0028483974747359753,0.8581507802009583,0.0,0.01844472438097
650.0,865.0,1.7503,0.3535,9.1184,-0.0386,0.0203,-0.1167,-1.5636887059411784,0.0,2.0452566146850586,-1.9478198289871216,-0.0,2.077423572540283,4.790460134833612,-0.0,0.29019081592559814,-1.5969861189471644,0.0,-0.007167074363678694,0.7427296042442322,-0.0,0.006047985516488552,0.858090877532959,0.0,-0.019402924925088882
650.0,865.0,1.7503,0.3535,9.1184,-0.0386,0.0203,-0.1167,-1.5637288692272087,0.0,2.0462117195129395,-1.9478766918182373,-0.0,2.0873007774353027,4.790407950967111,-0.0,0.28854578733444214,-1.5969856421100062,0.0,0.004921570885926485,0.7427371144294739,-0.0,-0.008997668512165546,0.8581069111824036,0.0,0.01940784603357315
650.0,865.0,1.7503,0.3535,9.1184,-0.0386,0.0203,-0.1167,-1.563692780011781,0.0,2.0428967475891113,-1.9478117227554321,-0.0,2.0972814559936523,4.790436292975702,-0.0,0.2977274954319,-1.5970175901996058,0.0,-0.00880272313952446,0.7427657842636108,-0.0,-0.006584922783076763,0.8580670952796936,0.0,-0.0012888815253973007
686.0,818.0,1.6654,0.3308,9.2524,-0.0356,0.0237,-0.115,-1.5637208589217444,0.0,2.010716438293457,-1.947847843170166,-0.0,2.044846534729004,4.790440308838644,-0.0,0.29407405853271484,-1.5969622770892542,0.0,-0.006745634134858847,0.7427255511283875,-0.0,-0.01171574555337429,0.8580948114395142,0.0,0.007441864348948002
686.0,818.0,1.6654,0.3308,9.2524,-0.0356,0.0237,-0.115,-1.563680787836649,0.0,2.0302813053131104,-1.9478323459625244,-0.0,2.0585594177246094,4.790420013457098,-0.0,0.2936510443687439,-1.5969379583941858,0.0,-0.013912767171859741,0.7427178025245667,-0.0,-0.00436145905405283,0.8581108450889587,0.0,0.039273038506507874
686.0,818.0,1.6654,0.3308,9.2524,-0.0356,0.0237,-0.115,-1.5637127838893612,0.0,2.019619941711426,-1.9478363990783691,-0.0,2.1155319213867188,4.7904239920671365,-0.0,0.3009696900844574,-1.5970056692706507,0.0,-0.011571492999792099,0.7427534461021423,-0.0,-0.012533877044916153,0.858154833316803,0.0,0.025329777970910072
686.0,818.0,1.6654,0.3308,9.2524,-0.0356,0.0237,-0.115,-1.5636847771568974,0.0,2.045966386795044,-1.9477920532226562,-0.0,2.0629844665527344,4.790447923332014,-0.0,0.29683923721313477,-1.5970099608050745,0.0,-0.009266017004847527,0.7427330613136292,-0.0,-0.002953126560896635,0.8581069111824036,0.0,0.020122379064559937
686.0,818.0,1.6654,0.3308,9.2524,-0.0356,0.0237,-0.115,-1.563704932374396,0.0,2.0565638542175293,-1.9478323459625244,-0.0,2.092618465423584,4.790444466262617,-0.0,0.30388662219047546,-1.5970099608050745,0.0,-0.012002515606582165,0.7427616119384766,-0.0,0.003515357617288828,0.8581187725067139,0.0,0.006104087457060814
686.0,818.0,1.6654,0.3308,9.2524,-0.0356,0.0237,-0.115,-1.5637168216383834,0.0,2.016451597213745,-1.9478363990783691,-0.0,2.0691046714782715,4.79045199134902,-0.0,0.29532602429389954,-1.5970056692706507,0.0,0.00037622544914484024,0.7427412271499634,-0.0,-0.001128151547163725,0.8581227660179138,0.0,-0.02100662887096405
686.0,818.0,1.6654,0.3308,9.2524,-0.0356,0.0237,-0.115,-1.5637049402906378,0.0,2.0265729427337646,-1.9478518962860107,-0.0,2.0545990467071533,4.790423977165975,-0.0,0.28713876008987427,-1.5969980398761194,0.0,0.003531577531248331,0.7426772117614746,-0.0,-0.008255318738520145,0.8581069111824036,0.0,-0.004534776322543621
686.0,818.0,1.6654,0.3308,9.2524,-0.0356,0.0237,-0.115,-1.5637167732096096,0.0,2.0439035892486572,-1.9478241205215454,-0.0,2.0907301902770996,4.790460127383032,-0.0,0.3059234321117401,-1.5969861189471644,0.0,0.0057273684069514275,0.7427451610565186,-0.0,0.003353837179020047,0.8580909371376038,0.0,-0.024298859760165215
686.0,818.0,1.6654,0.3308,9.2524,-0.0356,0.0237,-0.115,-1.5636888470365484,0.0,2.0624775886535645,-1.9478849172592163,-0.0,2.077378034591675,4.790420006006517,-0.0,0.29858335852622986,-1.5969775358783167,0.0,0.00022055844601709396,0.7427418231964111,-0.0,0.004282380919903517,0.8580989837646484,0.0,0.009448844939470291
686.0,818.0,1.6654,0.3308,9.2524,-0.0356,0.0237,-0.115,-1.5637288776091118,0.0,2.006330966949463,-1.947888970375061,-0.0,2.054394245147705,4.790419968753614,-0.0,0.2879570722579956,-1.5970256964312952,0.0,-0.00168907199986279,0.7427775859832764,-0.0,-0.0014090822078287601,0.8581308126449585,0.0,0.031846169382333755
686.0,818.0,1.6654,0.3308,9.2524,-0.0356,0.0237,-0.115,-1.5637167848511417,0.0,2.0385689735412598,-1.9478323459625244,-0.0,2.0606563091278076,4.7904239920671365,-0.0,0.30298131704330444,-1.5969579855548304,0.0,-0.003104560077190399,0.7427177429199219,-0.0,-0.012887796387076378,0.8581426739692688,0.0,0.001001126365736127
686.0,818.0,1.6654,0.3308,9.2524,-0.0356,0.0237,-0.115,-1.5636728925495227,0.0,2.0606696605682373,-1.947924256324768,-0.0,2.0845370292663574,4.790395672410288,-0.0,0.3013080656528473,-1.596973721181051,0.0,0.0019407386425882578,0.7427697777748108,-0.0,0.0015653949230909348,0.8581069111824036,0.0,0.0011966887395828962
686.0,818.0,1.6654,0.3308,9.2524,-0.0356,0.0237,-0.115,-1.5636807398735364,0.0,2.053579807281494,-1.9478765726089478,-0.0,2.0995023250579834,4.790468010097303,-0.0,0.2878362536430359,-1.5969775358783167,0.0,0.004292317200452089,0.7427493929862976,-0.0,-0.00015349779278039932,0.8581187725067139,0.0,-0.009433173574507236
686.0,818.0,1.6654,0.3308,9.2524,-0.0356,0.0237,-0.115,-1.5636968536167224,0.0,2.050556182861328,-1.9478437900543213,-0.0,2.064333438873291,4.790456014662542,-0.0,0.2850300371646881,-1.5969980398761194,0.0,0.007625916972756386,0.7426972389221191,-0.0,0.003271934110671282,0.8580830097198486,0.0,-0.01918909326195717
686.0,818.0,1.6654,0.3308,9.2524,-0.0356,0.0237,-0.115,-1.5636968536167224,0.0,2.041853904724121,-1.9478282928466797,-0.0,2.0719964504241943,4.790403964906492,-0.0,0.3027268350124359,-1.5969622770892542,0.0,-0.00476096011698246,0.7427735924720764,-0.0,-0.016079938039183617,0.8581187725067139,0.0,-0.024483200162649155
686.0,818.0,1.6654,0.3308,9.2524,-0.0356,0.0237,-0.115,-1.563700870876648,0.0,1.9888718128204346,-1.9478280544281006,-0.0,2.099900245666504,4.790460142284193,-0.0,0.2978099584579468,-1.5969775358783167,0.0,-0.00292571191675961,0.7427411675453186,-0.0,0.009226331487298012,0.8581187725067139,0.0,-0.0327594168484211
694.0,885.0,1.6098,0.3033,9.4355,-0.0363,0.0257,-0.1126,-1.5637088658152898,0.0,2.022810697555542,-1.9478486776351929,-0.0,2.074657440185547,4.7904362855251215,-0.0,0.2895602285861969,-1.5969775358783167,0.0,-0.005518639460206032,0.7427534461021423,-0.0,-0.0075212568044662476,0.8581187725067139,0.0,-0.029893558472394943
694.0,885.0,1.6098,0.3033,9.4355,-0.0363,0.0257,-0.1126,-1.5637248319438477,0.0,2.008216381072998,-1.9478363990783691,-0.0,2.0835342407226562,4.790459754854002,-0.0,0.3053271770477295,-1.5969937483416956,0.0,-0.0065583959221839905,0.7426971793174744,-0.0,-0.005558783654123545,0.8580790162086487,0.0,0.03369201347231865
694.0,885.0,1.6098,0.3033,9.4355,-0.0363,0.0257,-0.1126,-1.563668858991452,0.0,2.0641374588012695,-1.947880744934082,-0.0,2.0674386024475098,4.790444481163778,-0.0,0.29258474707603455,-1.5969980398761194,0.0,-0.008790558204054832,0.7427738308906555,-0.0,0.0037105404771864414,0.8580829501152039,0.0,-0.020866135135293007
694.0,885.0,1.6098,0.3033,9.4355,-0.0363,0.0257,-0.1126,-1.5636688990383227,0.0,2.026615619659424,-1.9478397369384766,-0.0,2.038057804107666,4.79045598486022,-0.0,0.3011043667793274,-1.5969579855548304,0.0,-0.015063496306538582,0.7427213788032532,-0.0,0.00028680008836090565,0.8581469655036926,0.0,0.013162156566977501
694.0,885.0,1.6098,0.3033,9.4355,-0.0363,0.0257,-0.1126,-1.5636848134784778,0.0,2.067688226699829,-1.9478363990783691,-0.0,2.1164445877075195,4.7904560072119615,-0.0,0.26857054233551025,-1.5969937483416956,0.0,-0.004935515578836203,0.7427371144294739,-0.0,-0.012077869847416878,0.8581308722496033,0.0,0.02569849044084549
694.0,885.0,1.6098,0.3033,9.4355,-0.0363,0.0257,-0.1126,-1.5636807957528909,0.0,2.0092475414276123,-1.9478198289871216,-0.0,2.051630735397339,4.790424051671781,-0.0,0.3015959560871124,-1.5969660917865198,0.0,-0.0009869002969935536,0.7427377700805664,-0.0,-0.00547019811347127,0.858126699924469,0.0,0.039183516055345535
694.0,885.0,1.6098,0.3033,9.4355,-0.0363,0.0257,-0.1126,-1.563708738224097,0.0,2.0444629192352295,-1.9478198289871216,-0.0,2.0578243732452393,4.790468278318205,-0.0,0.29555049538612366,-1.5969775358783167,0.0,-0.013826064765453339,0.7427575588226318,-0.0,-0.012529370374977589,0.858086884021759,0.0,-0.0032359622418880463
694.0,885.0,1.6098,0.3033,9.4355,-0.0363,0.0257,-0.1126,-1.5637168090655287,0.0,2.027385711669922,-1.9478198289871216,-0.0,2.0851821899414062,4.7904079658682726,-0.0,0.29134225845336914,-1.5970099608050745,0.0,-0.014962181448936462,0.7428300976753235,-0.0,-0.003444340080022812,0.8581148386001587,0.0,0.02416779287159443
694.0,885.0,1.6098,0.3033,9.4355,-0.0363,0.0257,-0.1126,-1.5637248240276058,0.0,2.0190930366516113,-1.9478157758712769,-0.0,2.0823230743408203,4.790460127383032,-0.0,0.2979956269264221,-1.59698993364443,0.0,-0.0009087747894227505,0.7427296042442322,-0.0,-0.014012567698955536,0.858086884021759,0.0,-0.03324815630912781
694.0,885.0,1.6098,0.3033,9.4355,-0.0363,0.0257,-0.1126,-1.5637649509920557,0.0,2.0483126640319824,-1.9478486776351929,-0.0,2.062215566635132,4.7904239920671365,-0.0,0.305021196603775,-1.59698993364443,0.0,-0.014335595071315765,0.7427054643630981,-0.0,-0.016569342464208603,0.8580950498580933,0.0,-0.06243500858545303
694.0,885.0,1.6098,0.3033,9.4355,-0.0363,0.0257,-0.1126,-1.5637208347073575,0.0,2.0588550567626953,-1.94780433177948,-0.0,2.0800766944885254,4.790460179537096,-0.0,0.2966458797454834,-1.5969980398761194,0.0,-0.006309948395937681,0.7427657842636108,-0.0,-0.0037385616451501846,0.8581228256225586,0.0,-0.030103757977485657
694.0,885.0,1.6098,0.3033,9.4355,-0.0363,0.0257,-0.1126,-1.5637167890420933,0.0,2.0059094429016113,-1.9478602409362793,-0.0,2.1196775436401367,4.790467935591497,-0.0,0.29527145624160767,-1.5969813505755823,0.0,-0.013365359045565128,0.7427657842636108,-0.0,0.0017470498569309711,0.8580790162086487,0.0,0.00984693318605423
694.0,885.0,1.6098,0.3033,9.4355,-0.0363,0.0257,-0.1126,-1.5637168053402384,0.0,2.0432629585266113,-1.9478001594543457,-0.0,2.079134941101074,4.790448541730203,-0.0,0.296023428440094,-1.596973721181051,0.0,-0.01434241607785225,0.7427494525909424,-0.0,-0.0022955250460654497,0.8580950498580933,0.0,-0.029285747557878494
694.0,885.0,1.6098,0.3033,9.4355,-0.0363,0.0257,-0.1126,-1.5637049202672024,0.0,2.0418097972869873,-1.9478446245193481,-0.0,2.0342559814453125,4.79046422520236,-0.0,0.2918333411216736,-1.5969699064837855,0.0,-0.006081623025238514,0.7427697777748108,-0.0,-0.0048787230625748634,0.8581308722496033,0.0,0.024103451520204544
694.0,885.0,1.6098,0.3033,9.4355,-0.0363,0.0257,-0.1126,-1.563712799721845,0.0,2.0274455547332764,-1.9478280544281006,-0.0,2.0426788330078125,4.790440293937483,-0.0,0.2956717014312744,-1.5969813505755823,0.0,-0.010172838345170021,0.7427936792373657,-0.0,0.004223095253109932,0.8581587076187134,0.0,-0.01946978271007538
694.0,885.0,1.6098,0.3033,9.4355,-0.0363,0.0257,-0.1126,-1.5637008629604061,0.0,1.9975957870483398,-1.9478199481964111,-0.0,2.087329149246216,4.790476041823187,-0.0,0.2967420518398285,-1.596973721181051,0.0,-0.006841754540801048,0.7427418231964111,-0.0,0.00202544080093503,0.8581308722496033,0.0,0.0226700771600008
694.0,885.0,1.6098,0.3033,9.4355,-0.0363,0.0257,-0.1126,-1.5636566861397405,0.0,2.0473780632019043,-1.9478198289871216,-0.0,2.0762906074523926,4.790440308838644,-0.0,0.28188806772232056,-1.5969660917865198,0.0,-0.01825167052447796,0.7427818179130554,-0.0,-0.007003611885011196,0.8580949902534485,0.0,0.014739732258021832
700.0,841.0,1.6122,0.3356,9.341,-0.0333,0.0284,-0.1155,-1.5637087344988068,0.0,2.0342063903808594,-1.947796106338501,-0.0,2.051670551300049,4.790451983898439,-0.0,0.2911604046821594,-1.596973721181051,0.0,-0.0055588893592357635,0.7427895069122314,-0.0,-0.0113298324868083,0.8581387996673584,0.0,0.02604086697101593
700.0,841.0,1.6122,0.3356,9.341,-0.0333,0.0284,-0.1155,-1.5636847892640908,0.0,2.0493412017822266,-1.9478075504302979,-0.0,2.074237585067749,4.790412153094568,-0.0,0.27394434809684753,-1.5970099608050745,0.0,-0.011674465611577034,0.7427776455879211,-0.0,-0.0035693026147782803,0.8580631017684937,0.0,0.03050204925239086
700.0,841.0,1.6122,0.3356,9.341,-0.0333,0.0284,-0.1155,-1.5636769098094483,0.0,2.032212018966675,-1.9478240013122559,-0.0,2.0727646350860596,4.790420006006517,-0.0,0.3013659119606018,-1.596945587788717,0.0,-0.003777235047891736,0.7427217960357666,-0.0,-0.003193714190274477,0.8581347465515137,0.0,0.026274628937244415
700.0,841.0,1.6122,0.3356,9.341,-0.0333,0.0284,-0.1155,-1.5637167974239965,0.0,2.04091215133667,-1.947796106338501,-0.0,2.067420721054077,4.790444443910875,-0.0,0.29919928312301636,-1.5969179312335413,0.0,-0.002730411011725664,0.7428138256072998,-0.0,-0.007880263030529022,0.8581187725067139,0.0,-0.0024517830461263657
700.0,841.0,1.6122,0.3356,9.341,-0.0333,0.0284,-0.1155,-1.5637089216946443,0.0,2.0119922161102295,-1.9477601051330566,-0.0,2.080951690673828,4.79045598486022,-0.0,0.3040250539779663,-1.5969775358783167,0.0,0.002516750246286392,0.7428219318389893,-0.0,-0.008106588385999203,0.858150839805603,0.0,0.008875761181116104
700.0,841.0,1.6122,0.3356,9.341,-0.0333,0.0284,-0.1155,-1.563668834777065,0.0,2.0352604389190674,-1.9478157758712769,-0.0,2.1203558444976807,4.790412167995729,-0.0,0.29644906520843506,-1.5970137755023401,0.0,-0.0037572775036096573,0.7427653670310974,-0.0,-0.005202445667237043,0.8580548763275146,0.0,-0.03971613198518753
700.0,841.0,1.6122,0.3356,9.341,-0.0333,0.0284,-0.1155,-1.5637049281834443,0.0,2.043713092803955,-1.9478405714035034,-0.0,2.0940167903900146,4.790436315327444,-0.0,0.30090761184692383,-1.59698993364443,0.0,-0.0017795744352042675,0.7427377700805664,-0.0,-0.015126173384487629,0.8581227660179138,0.0,-0.02944333478808403
700.0,841.0,1.6122,0.3356,9.341,-0.0333,0.0284,-0.1155,-1.5637168374708672,0.0,2.0564191341400146,-1.9478446245193481,-0.0,2.101426601409912,4.79042814949111,-0.0,0.30311113595962524,-1.5970137755023401,0.0,-0.005937668960541487,0.7427574992179871,-0.0,-0.0026305210776627064,0.8581109046936035,0.0,-0.007130850106477737
700.0,841.0,1.6122,0.3356,9.341,-0.0333,0.0284,-0.1155,-1.5637127675912161,0.0,2.0406253337860107,-1.947864294052124,-0.0,2.07346510887146,4.790412153094568,-0.0,0.2934916615486145,-1.5969856421100062,0.0,-0.0009732581675052643,0.7428138256072998,-0.0,0.0036953671369701624,0.8581268787384033,0.0,0.02937709540128708
700.0,841.0,1.6122,0.3356,9.341,-0.0333,0.0284,-0.1155,-1.5636968736401577,0.0,2.0579943656921387,-1.9478198289871216,-0.0,2.056272506713867,4.790459754854002,-0.0,0.2942386865615845,-1.596973721181051,0.0,-0.02056972309947014,0.7427412271499634,-0.0,-0.011091314256191254,0.8581148386001587,0.0,-0.010045628994703293
700.0,841.0,1.6122,0.3356,9.341,-0.0333,0.0284,-0.1155,-1.563668834777065,0.0,2.044337511062622,-1.9478765726089478,-0.0,2.120147943496704,4.790463912277975,-0.0,0.29100707173347473,-1.59698993364443,0.0,0.0034471771214157343,0.7427453398704529,-0.0,-0.011688572354614735,0.8581188321113586,0.0,0.015407057479023933
700.0,841.0,1.6122,0.3356,9.341,-0.0333,0.0284,-0.1155,-1.563680812051036,0.0,1.998000979423523,-1.94780433177948,-0.0,2.0656352043151855,4.790447915881433,-0.0,0.2886221706867218,-1.5969937483416956,0.0,-0.008944487199187279,0.7427616119384766,-0.0,-4.548579454421997e-06,0.8581308722496033,0.0,-0.03443188965320587
700.0,841.0,1.6122,0.3356,9.341,-0.0333,0.0284,-0.1155,-1.5636887743933876,0.0,2.001729726791382,-1.947812557220459,-0.0,2.0695900917053223,4.79045199134902,-0.0,0.29758554697036743,-1.5969937483416956,0.0,-0.010605525225400925,0.7427258491516113,-0.0,0.0018143181223422289,0.8581468462944031,0.0,-0.06513462960720062
700.0,841.0,1.6122,0.3356,9.341,-0.0333,0.0284,-0.1155,-1.5637368841892858,0.0,2.0145232677459717,-1.9478363990783691,-0.0,2.095099687576294,4.790484356671133,-0.0,0.2958846092224121,-1.596945587788717,0.0,-0.0024201732594519854,0.7427330017089844,-0.0,-0.017102863639593124,0.8580631613731384,0.0,-0.04138197749853134
700.0,841.0,1.6122,0.3356,9.341,-0.0333,0.0284,-0.1155,-1.563756995168962,0.0,2.0939230918884277,-1.94780433177948,-0.0,2.0719265937805176,4.790467987745561,-0.0,0.29799166321754456,-1.5969579855548304,0.0,-0.006518518552184105,0.7427178025245667,-0.0,-0.0007576275384053588,0.8581148386001587,0.0,0.01189470011740923
700.0,841.0,1.6122,0.3356,9.341,-0.0333,0.0284,-0.1155,-1.5636807477897783,0.0,2.0617425441741943,-1.9478323459625244,-0.0,2.102874755859375,4.790444466262617,-0.0,0.2992449700832367,-1.5970099608050745,0.0,-0.008069423958659172,0.7427534461021423,-0.0,-0.0032694898545742035,0.8581348061561584,0.0,-0.014788974076509476
700.0,841.0,1.6122,0.3356,9.341,-0.0333,0.0284,-0.1155,-1.5637208426235993,0.0,2.03324294090271,-1.9478157758712769,-0.0,2.034515380859375,4.790444451361456,-0.0,0.2935146391391754,-1.5969694296466272,0.0,-0.006929619237780571,0.7427452802658081,-0.0,0.0018766082357615232,0.8581268787384033,0.0,0.02887861616909504
701.0,869.0,1.7222,0.1926,9.2746,-0.029,0.0269,-0.1231,-1.5637168169817706,0.0,2.0381336212158203,-1.9478198289871216,-0.0,2.074530601501465,4.790399919241228,-0.0,0.28856542706489563,-1.596973721181051,0.0,-0.00643908279016614,0.7427857518196106,-0.0,-0.00502086291089654,0.8581148386001587,0.0,-0.019480939954519272
701.0,869.0,1.7222,0.1926,9.2746,-0.029,0.0269,-0.1231,-1.563700870876648,0.0,1.9962879419326782,-1.947888970375061,-0.0,2.083913803100586,4.790471981256761,-6.637850824553482e-10,0.28791937232017517,-1.597001854573385,0.0,-0.0199839286506176,0.7427616119384766,-0.0,0.0029644661117345095,0.8581148386001587,0.0,0.022760989144444466
701.0,869.0,1.7222,0.1926,9.2746,-0.029,0.0269,-0.1231,-1.563732906976231,0.0,2.0269901752471924,-1.9478198289871216,-0.0,2.0951788425445557,4.7904239920671365,-1.8476702372954845e-13,0.29323509335517883,-1.5969775358783167,0.0,-0.00974879041314125,0.7427331209182739,-0.0,-0.0061774421483278275,0.8581148386001587,0.0,0.012225988321006298
701.0,869.0,1.7222,0.1926,9.2746,-0.029,0.0269,-0.1231,-1.563700887174793,0.0,2.032335042953491,-1.947787880897522,-0.0,2.10211181640625,4.7904239920671365,-7.876907718817297e-16,0.29389721155166626,-1.5970295111285608,0.0,-0.010789033025503159,0.7427775859832764,-0.0,-0.01024915836751461,0.858174741268158,0.0,-0.03467068448662758
701.0,869.0,1.7222,0.1926,9.2746,-0.029,0.0269,-0.1231,-1.563712791805603,0.0,2.0048234462738037,-1.94789719581604,-0.0,2.0758914947509766,4.79045598486022,-2.192566290663683e-19,0.29586946964263916,-1.5969775358783167,0.0,-0.004395454190671444,0.742805540561676,-0.0,-0.012796961702406406,0.8581148386001587,0.0,0.03528038039803505
701.0,869.0,1.7222,0.1926,9.2746,-0.029,0.0269,-0.1231,-1.563732882761844,0.0,1.9787622690200806,-1.9478321075439453,-0.0,2.06594181060791,4.790412153094568,-6.103088657558396e-23,0.30626603960990906,-1.5969541708575647,0.0,-0.0009516030550003052,0.7426730990409851,-0.0,0.0032740626484155655,0.8581187725067139,0.0,-0.03282251954078674
701.0,869.0,1.7222,0.1926,9.2746,-0.029,0.0269,-0.1231,-1.5636688189445813,0.0,2.0650510787963867,-1.947888970375061,-0.0,2.0610666275024414,4.790471981256761,-2.601842238236769e-25,0.29357796907424927,-1.5969937483416956,0.0,-0.015288947150111198,0.742793619632721,-0.0,-0.0056032342836260796,0.8581069111824036,0.0,-0.027237219735980034
701.0,869.0,1.7222,0.1926,9.2746,-0.029,0.0269,-0.1231,-1.5636688990383227,0.0,1.9878419637680054,-1.947759985923767,-0.0,2.05953311920166,4.79045598486022,-7.242323537065878e-29,0.2898392975330353,-1.596973721181051,0.0,-0.0005733331199735403,0.7427895069122314,-0.0,-0.00962910894304514,0.8581187725067139,0.0,0.03035302460193634
701.0,869.0,1.7222,0.1926,9.2746,-0.029,0.0269,-0.1231,-1.563712823936232,0.0,2.0156493186950684,-1.9478240013122559,-0.0,2.0947561264038086,4.790395761817255,-2.0159274081909226e-32,0.3087415397167206,-1.596945587788717,0.0,-0.004626282956451178,0.742717444896698,-0.0,-0.012209656648337841,0.858090877532959,0.0,-0.029255343601107597
701.0,869.0,1.7222,0.1926,9.2746,-0.029,0.0269,-0.1231,-1.5637329391068597,0.0,2.0352909564971924,-1.947872519493103,-0.0,2.0879812240600586,4.7904639197285555,-8.594214260276295e-35,0.2811543643474579,-1.5969579855548304,0.0,-0.009494761005043983,0.7427418231964111,-0.0,-0.012941122986376286,0.8580750226974487,0.0,0.017972474917769432
701.0,869.0,1.7222,0.1926,9.2746,-0.029,0.0269,-0.1231,-1.5637087098187585,0.0,2.0665502548217773,-1.947787880897522,-0.0,2.0655622482299805,4.790460186987676,-2.3922311575271973e-38,0.296203076839447,-1.5969579855548304,0.0,-0.007772304117679596,0.742729663848877,-0.0,0.00445279898121953,0.858090877532959,0.0,-0.019244475290179253
701.0,869.0,1.7222,0.1926,9.2746,-0.029,0.0269,-0.1231,-1.5637410220554848,0.0,1.9713985919952393,-1.9478321075439453,-0.0,2.048217296600342,4.790444488614359,-6.658970302471531e-42,0.300773948431015,-1.596945587788717,0.0,-0.006334658712148666,0.7426695227622986,-0.0,0.006618702784180641,0.8580549359321594,0.0,-0.031724173575639725
701.0,869.0,1.7222,0.1926,9.2746,-0.029,0.0269,-0.1231,-1.5637087745456775,0.0,2.0442726612091064,-1.9478282928466797,-0.0,2.063356637954712,4.79042814949111,-1.401298464324817e-45,0.299843430519104,-1.5969579855548304,0.0,-0.004351841285824776,0.7427535057067871,-0.0,-0.00613655149936676,0.8580507040023804,0.0,-0.0011621275916695595
701.0,869.0,1.7222,0.1926,9.2746,-0.029,0.0269,-0.1231,-1.563736928427108,0.0,2.031217575073242,-1.9478931427001953,-0.0,2.065319538116455,4.790464255004682,-0.0,0.30211859941482544,-1.596949879323141,0.0,-0.007405149284750223,0.7427534461021423,-0.0,-0.010976303368806839,0.8580548167228699,0.0,0.023489121347665787
701.0,869.0,1.7222,0.1926,9.2746,-0.029,0.0269,-0.1231,-1.5637328985943277,0.0,2.039393901824951,-1.9478405714035034,-0.0,2.062638759613037,4.790436300426283,-0.0,0.28191372752189636,-1.5969536940204065,0.0,-0.008529376238584518,0.7428016066551208,-0.0,-2.559996210038662e-05,0.8580989837646484,0.0,-0.012218905612826347
701.0,869.0,1.7222,0.1926,9.2746,-0.029,0.0269,-0.1231,-1.56372088267047,0.0,2.015737533569336,-1.9477723836898804,-0.0,2.038937568664551,4.790428052633562,-0.0,0.29541870951652527,-1.5969660917865198,0.0,0.0030758886132389307,0.742701530456543,-0.0,-0.0018850534688681364,0.8580989837646484,0.0,-0.005580088123679161
701.0,869.0,1.7222,0.1926,9.2746,-0.029,0.0269,-0.1231,-1.5636928363567968,0.0,2.0509426593780518,-1.9478405714035034,-0.0,2.087648868560791,4.7904802215989015,-0.0,0.28051871061325073,-1.5969694296466272,0.0,-0.003605853533372283,0.7427534461021423,-0.0,0.004319176077842712,0.8580869436264038,0.0,0.04039596766233444
645.0,869.0,1.0917,0.274,10.0899,-0.0064,0.0328,-0.1219,-1.5636927958442648,0.0,1.9927303791046143,-1.9477838277816772,-0.0,2.045426845550537,4.79045261719779,-0.0,0.29937905073165894,-1.5969694296466272,0.0,0.0036267959512770176,0.7427534461021423,-0.0,-0.007993413135409355,0.8581430315971375,0.0,-0.017249682918190956
645.0,869.0,1.0917,0.274,10.0899,-0.0064,0.0328,-0.1219,-1.5636928037605067,0.0,2.0029125213623047,-1.947812557220459,-0.0,2.1021242141723633,4.790444496064939,-0.0,0.30078884959220886,-1.596949879323141,0.0,-0.008259814232587814,0.7428057789802551,-0.0,-0.0006254400359466672,0.8580790162086487,0.0,-0.022629333660006523
645.0,869.0,1.0917,0.274,10.0899,-0.0064,0.0328,-0.1219,-1.5636648175171395,0.0,2.048959970474243,-1.9478405714035034,6.249653665690857e-07,2.0974135398864746,4.790396156698026,-0.0,0.3006846308708191,-1.596973721181051,0.0,-0.00546003133058548,0.7427939772605896,-0.0,-0.005531409755349159,0.8581148386001587,0.0,-0.04758238047361374
645.0,869.0,1.0917,0.274,10.0899,-0.0064,0.0328,-0.1219,-1.5637248319438477,0.0,2.0466854572296143,-1.9478363990783691,1.509217664036333e-12,2.1078836917877197,4.7904559923108,-0.0,0.2826290726661682,-1.5969417730914515,0.0,-0.003306663827970624,0.7427337765693665,-0.0,-0.005660149268805981,0.8580829501152039,0.0,0.044544678181409836
645.0,869.0,1.0917,0.274,10.0899,-0.0064,0.0328,-0.1219,-1.5637087782709678,0.0,2.0110483169555664,-1.9478198289871216,3.644583007917323e-18,2.0819284915924072,4.790399859636583,-0.0,0.2974247336387634,-1.5969861189471644,0.0,-0.0014824173413217068,0.7427452802658081,-0.0,0.004380549769848585,0.8581148386001587,0.0,-0.021785903722047806
645.0,869.0,1.0917,0.274,10.0899,-0.0064,0.0328,-0.1219,-1.5637328506312151,0.0,2.094541311264038,-1.9478198289871216,8.801239078016686e-24,2.074310302734375,4.790440308838644,-0.0,0.2973151206970215,-1.5970218817340296,0.0,-0.012095058336853981,0.7427452802658081,-0.0,-0.01156776212155819,0.8581108450889587,0.0,0.011128073558211327
645.0,869.0,1.0917,0.274,10.0899,-0.0064,0.0328,-0.1219,-1.5637087745456775,0.0,1.9882721900939941,-1.9477962255477905,1.5841919720901925e-27,2.070249080657959,4.790423962264814,-0.0,0.30217593908309937,-1.5969813505755823,0.0,-0.008281445130705833,0.7427817583084106,-0.0,-0.01657748781144619,0.8581148386001587,0.0,0.018177807331085205
645.0,869.0,1.0917,0.274,10.0899,-0.0064,0.0328,-0.1219,-1.5637288934415956,0.0,2.012521743774414,-1.947856068611145,3.825637181201519e-33,2.0579638481140137,4.790484304517069,-0.0,0.2793963551521301,-1.5969775358783167,0.0,-0.0015403713332489133,0.7428259253501892,-0.0,0.004663493949919939,0.8580785393714905,0.0,0.007921041920781136
645.0,869.0,1.0917,0.274,10.0899,-0.0064,0.0328,-0.1219,-1.563692787928023,0.0,2.0366318225860596,-1.9478085041046143,9.238463700019082e-39,2.0291428565979004,4.790471951454439,-0.0,0.3020326793193817,-1.5969699064837855,0.0,-0.0006424040766432881,0.7427575588226318,-0.0,0.0008169328793883324,0.8580864667892456,0.0,0.009265621192753315
645.0,869.0,1.0917,0.274,10.0899,-0.0064,0.0328,-0.1219,-1.5636927958442648,0.0,2.0880653858184814,-1.9478240013122559,1.663341277153558e-42,2.082176923751831,4.790484393924036,-0.0,0.3041227459907532,-1.5969699064837855,0.0,-0.0005000429227948189,0.742729663848877,-0.0,-0.011643112637102604,0.8581188917160034,0.0,-0.020759304985404015
645.0,869.0,1.0917,0.274,10.0899,-0.0064,0.0328,-0.1219,-1.563760881578066,0.0,2.0550754070281982,-1.9478405714035034,0.0002006636786973104,2.0486950874328613,4.790500263660707,-0.0,0.29016992449760437,-1.5969660917865198,0.0,-0.004185838624835014,0.7426973581314087,-0.0,-0.01373201608657837,0.8581308126449585,0.0,-0.0013153590261936188
645.0,869.0,1.0917,0.274,10.0899,-0.0064,0.0328,-0.1219,-1.5636887827752908,0.0,2.04278564453125,-1.9478528499603271,0.00021123747865203768,2.1041057109832764,4.790463912277975,-0.0,0.29801851511001587,-1.5969579855548304,0.0,-0.012877902016043663,0.7427735328674316,-0.0,-0.011256575584411621,0.8581550717353821,0.0,0.03929784148931503
645.0,869.0,1.0917,0.274,10.0899,-0.0064,0.0328,-0.1219,-1.563740982008614,0.0,2.0578837394714355,-1.9478206634521484,0.00024986002244986594,2.0453529357910156,4.790520372777738,-0.0,0.30096435546875,-1.5969937483416956,0.0,-0.002380180638283491,0.7427337765693665,-0.0,-0.013422097079455853,0.8581711053848267,2.8875791031168774e-05,-0.06402993202209473
645.0,869.0,1.0917,0.274,10.0899,-0.0064,0.0328,-0.1219,-1.5637449871613462,0.0,2.037008285522461,-1.9477804899215698,0.0005356769543141127,2.088313341140747,4.790447915881433,-0.0,0.29560762643814087,-1.5969417730914515,0.0,-0.005773030687123537,0.7428175806999207,-0.0,-0.009757589548826218,0.8581749200820923,0.000578849168960005,-0.008661880157887936
645.0,869.0,1.0917,0.274,10.0899,-0.0064,0.0328,-0.1219,-1.5637126753902812,0.0,2.0307743549346924,-1.9478083848953247,0.0005051490152254701,2.0678141117095947,4.790455977409639,-0.0,0.2877398133277893,-1.5969937483416956,0.0,-0.008849835023283958,0.7427178621292114,-0.0,-0.008386185392737389,0.8581587672233582,0.002022859174758196,-0.00800663698464632
645.0,869.0,1.0917,0.274,10.0899,-0.0064,0.0328,-0.1219,-1.5637767839110275,0.0,2.0430595874786377,-1.947759985923767,0.00041415830492042005,2.0515148639678955,4.790436352580347,-0.0,0.29237353801727295,-1.5969622770892542,0.0,-0.010553430765867233,0.7427412271499634,-0.0,0.0011599540011957288,0.8582311868667603,0.00267754215747118,-0.03411759436130524
651.0,866.0,1.6217,0.4875,9.2824,-0.0574,0.0211,-0.0843,-1.5637648788145562,0.0,2.0483505725860596,-1.9478001594543457,0.00036058767000213265,2.060837745666504,4.790467987745561,-0.0,0.3003474473953247,-1.596973721181051,0.0,-0.010012088343501091,0.7427898049354553,-0.0,-0.00011431029997766018,0.8581908345222473,0.003260816680267453,-0.0523122102022171
651.0,866.0,1.6217,0.4875,9.2824,-0.0574,0.0211,-0.0843,-1.5637648625164111,-0.0008114644442684948,2.0435335636138916,-1.9477920532226562,0.0003077401197515428,2.0638089179992676,4.790483917086878,-0.0,0.2872481346130371,-1.5970056692706507,0.0,-0.0020637824200093746,0.7427657246589661,-0.0,-0.012239748612046242,0.8582510352134705,0.005518193356692791,0.022764593362808228
651.0,866.0,1.6217,0.4875,9.2824,-0.0574,0.0211,-0.0843,-1.5637888398817559,-0.0008038682863116264,2.0607070922851562,-1.947784662246704,0.0002684042265173048,2.1261372566223145,4.790443788259783,-0.0,0.30259209871292114,-1.5970175901996058,0.0,-0.008937681093811989,0.7427494525909424,-0.0,-0.009558279998600483,0.8583393096923828,0.008567815646529198,0.011413998901844025
651.0,866.0,1.6217,0.4875,9.2824,-0.0574,0.0211,-0.0843,-1.5637527660331507,-0.000731924083083868,2.0805976390838623,-1.9478527307510376,0.0002473283966537565,2.034672737121582,4.790536182909765,-0.0,0.309004545211792,-1.5969861189471644,0.0,-0.010715331882238388,0.7427453398704529,-0.0,-0.004437217954546213,0.8583388924598694,0.00929942261427641,0.024941693991422653
651.0,866.0,1.6217,0.4875,9.2824,-0.0574,0.0211,-0.0843,-1.5638327084346493,-0.0005245282081887126,2.016909122467041,-1.9478321075439453,0.00022126775002107024,2.1218574047088623,4.790484349220552,-0.0,0.2934820055961609,-1.5969660917865198,0.0,-0.006498987786471844,0.7427616119384766,-0.0,0.0030380499083548784,0.8584030866622925,0.010905435308814049,0.006430458277463913
651.0,866.0,1.6217,0.4875,9.2824,-0.0574,0.0211,-0.0843,-1.5638128009489556,-0.00046599702909588814,2.025320053100586,-1.9478206634521484,0.00020017549104522914,2.0807201862335205,4.790455679386415,-0.0,0.29129981994628906,-1.5970457235919397,0.0,-0.007492352277040482,0.7427338361740112,-0.0,0.009759176522493362,0.8584508299827576,0.012215439230203629,-0.017309779301285744
651.0,866.0,1.6217,0.4875,9.2824,-0.0574,0.0211,-0.0843,-1.5638208517669518,-0.0005910370382480323,2.062920570373535,-1.9478085041046143,0.00018275489856023341,2.0912322998046875,4.790492068022051,-0.0,0.29784998297691345,-1.5969818274127405,0.0,-0.00434196786954999,0.7427337765693665,-0.0,-0.010336675681173801,0.8585390448570251,0.013756806030869484,0.011596252210438251
651.0,866.0,1.6217,0.4875,9.2824,-0.0574,0.0211,-0.0843,-1.5637925251251836,-0.0007670024642720819,2.03450345993042,-1.9478280544281006,0.00017273330013267696,2.083519697189331,4.790499898582258,-0.0,0.2994641959667206,-1.59698993364443,0.0,-0.007016738411039114,0.7427055239677429,-0.0,-0.0036345641128718853,0.8586596846580505,0.014521165750920773,0.046618424355983734
651.0,866.0,1.6217,0.4875,9.2824,-0.0574,0.0211,-0.0843,-1.5638206762126465,-0.0013846589718014002,1.9830029010772705,-1.9478042125701904,0.00015960494056344032,2.0934832096099854,4.790487992554464,-0.0,0.30124062299728394,-1.5970175901996058,0.0,0.006320079788565636,0.7427412867546082,-0.0,-0.0005025912541896105,0.8587397336959839,0.016635389998555183,0.028448035940527916
651.0,866.0,1.6217,0.4875,9.2824,-0.0574,0.0211,-0.0843,-1.5638125853477796,-0.001709133735857904,2.001002311706543,-1.9478198289871216,0.000148331411764957,2.108069896697998,4.790463837772169,-0.0,0.2874259948730469,-1.5970056692706507,0.0,-0.0012289806036278605,0.7427778840065002,-0.0,0.00023182888980954885,0.858823299407959,0.018385212868452072,0.053076013922691345
651.0,866.0,1.6217,0.4875,9.2824,-0.0574,0.0211,-0.0843,-1.5638370875133951,-0.0017625264590606093,2.026028633117676,-1.9478042125701904,0.00014166093023959547,2.1226894855499268,4.790463912277975,-0.0,0.3025456368923187,-1.5970175901996058,0.0,-0.006223694887012243,0.7427737712860107,-0.0,0.004795796703547239,0.8589115142822266,0.01973661407828331,-0.006027079187333584
651.0,866.0,1.6217,0.4875,9.2824,-0.0574,0.0211,-0.0843,-1.5638648474453767,-0.001231824280694127,2.0539495944976807,-1.9477516412734985,0.00014944760187063366,2.054265022277832,4.790492090373792,-0.0,0.27962809801101685,-1.5970099608050745,0.0,-0.00570138543844223,0.7427977323532104,-0.0,-0.01524629257619381,0.8590279221534729,0.021802132949233055,0.0047384100034832954
651.0,866.0,1.6217,0.4875,9.2824,-0.0574,0.0211,-0.0843,-1.5638367056711395,-0.0010776519775390625,1.9902095794677734,-1.9478363990783691,0.00014265233767218888,2.079383134841919,4.790479863971033,-0.0,0.29446399211883545,-1.5970175901996058,0.0,-0.013952456414699554,0.7427775859832764,-0.0,-0.004642306827008724,0.8591595888137817,0.025067981332540512,0.057341866195201874
651.0,866.0,1.6217,0.4875,9.2824,-0.0574,0.0211,-0.0843,-1.56382880200211,-0.0007964561227709055,2.059067726135254,-1.9478321075439453,0.00013721508730668575,2.0489392280578613,4.790463912277975,-0.0,0.28634458780288696,-1.5969818274127405,0.0,-0.0042604925110936165,0.7427735328674316,-0.0,-0.004377003759145737,0.8592841625213623,0.027523748576641083,-0.014122124761343002
651.0,866.0,1.6217,0.4875,9.2824,-0.0574,0.0211,-0.0843,-1.5638608422926445,-0.000819289474748075,2.0316295623779297,-1.9478445053100586,0.00011357030598446727,2.0783073902130127,4.790508064418592,-0.0,0.29643428325653076,-1.5969694296466272,0.0,0.0027028031181544065,0.7427535057067871,-0.0,0.0017850655131042004,0.8594483137130737,0.03142469748854637,0.04627744480967522
651.0,866.0,1.6217,0.4875,9.2824,-0.0574,0.0211,-0.0843,-1.5639007294415315,-0.0010065635433420539,2.0603256225585938,-1.94780433177948,0.00010774334077723324,2.0587503910064697,4.790467987745561,-0.0,0.29500338435173035,-1.5969937483416956,0.0,-0.01629587449133396,0.7427973747253418,-0.0,-0.014536752365529537,0.859656572341919,0.03597266972064972,0.03576450049877167
651.0,866.0,1.6217,0.4875,9.2824,-0.0574,0.0211,-0.0843,-1.5638845877586682,-0.001937291701324284,2.065772533416748,-1.9478602409362793,4.187617378192954e-05,2.0959837436676025,4.790512229293146,-0.0,0.2866489887237549,-1.5970495382892054,0.0,0.003719707950949669,0.7428137063980103,-0.0,-0.004682126455008984,0.8598565459251404,0.03928644210100174,0.021111153066158295
688.0,810.0,1.7922,0.6963,9.2973,-0.0238,0.0107,-0.1107,-1.563908908782043,-0.0021960167214274406,2.083996295928955,-1.9478240013122559,3.26297631545458e-05,2.059168815612793,4.790447915881433,-0.0,0.2951940596103668,-1.59698993364443,0.0,0.009624146856367588,0.742729663848877,-0.0,-0.001121377106755972,0.8600369691848755,0.0400044247508049,0.03809994086623192
688.0,810.0,1.7922,0.6963,9.2973,-0.0238,0.0107,-0.1107,-1.5639047187617798,-0.002565510803833604,2.0314207077026367,-1.947787880897522,3.094550265814178e-05,2.091547966003418,4.790455679386415,-0.0,0.2864696681499481,-1.5970099608050745,0.0,-0.013254450634121895,0.7427976727485657,-0.0,-0.012327035889029503,0.8603010773658752,0.040251780301332474,0.028230085968971252
688.0,810.0,1.7922,0.6963,9.2973,-0.0238,0.0107,-0.1107,-1.5639167589000245,-0.002337115351110697,2.028034210205078,-1.9478528499603271,2.942776154668536e-05,2.0692644119262695,4.790467987745561,-0.0,0.2980698049068451,-1.5970256964312952,0.0,-0.005133678205311298,0.7427412867546082,-0.0,-0.0077598318457603455,0.860537052154541,0.038648806512355804,0.036706842482089996
688.0,810.0,1.7922,0.6963,9.2973,-0.0238,0.0107,-0.1107,-1.5638926222785194,-0.0022621818352490664,2.020681619644165,-1.947787880897522,2.8496040613390505e-05,2.041609287261963,4.79045598486022,-0.0,0.29390478134155273,-1.59698993364443,0.0,-0.010700030252337456,0.7427738308906555,-0.0,0.004427858628332615,0.860640823841095,0.03811715915799141,0.07083657383918762
688.0,810.0,1.7922,0.6963,9.2973,-0.0238,0.0107,-0.1107,-1.5639886504835268,-0.0022514830343425274,2.062077283859253,-1.947847843170166,2.720403062994592e-05,2.063450813293457,4.790492068022051,-0.0,0.29420214891433716,-1.596973721181051,0.0,0.01216091588139534,0.7427412867546082,-0.0,0.00306853954680264,0.860889196395874,0.033320117741823196,0.03299705311655998
688.0,810.0,1.7922,0.6963,9.2973,-0.0238,0.0107,-0.1107,-1.5639401122792442,-0.002554109785705805,2.0306458473205566,-1.9477919340133667,2.602413769636769e-05,2.047797441482544,4.790447915881433,-0.0,0.2929456830024719,-1.596973721181051,0.0,0.0033060943242162466,0.7427178025245667,-0.0,0.006221486255526543,0.8610690832138062,0.030414486303925514,0.06109606847167015
688.0,810.0,1.7922,0.6963,9.2973,-0.0238,0.0107,-0.1107,-1.563976601963379,-0.00287634483538568,2.0338642597198486,-1.9478765726089478,2.5292774807894602e-05,2.0654296875,4.79044787862853,-0.0,0.28062036633491516,-1.596978012715475,0.0,-0.004303356632590294,0.7427453398704529,-0.0,0.00606211181730032,0.8612130880355835,0.02692595310509205,0.04279404878616333
688.0,810.0,1.7922,0.6963,9.2973,-0.0238,0.0107,-0.1107,-1.5639922244339068,-0.004054336342960596,2.0765480995178223,-1.947796106338501,2.426973333058413e-05,2.128131866455078,4.790484304517069,-0.0,0.2971094846725464,-1.5969613234149378,0.0,-0.0022146976552903652,0.7427817583084106,-0.0,-0.003837533760815859,0.8613572120666504,0.023794617503881454,-0.006325810216367245
688.0,810.0,1.7922,0.6963,9.2973,-0.0238,0.0107,-0.1107,-1.5640161855011065,-0.005150665063410997,2.0157573223114014,-1.9478446245193481,2.3326212613028474e-05,2.0744171142578125,4.790467920690336,-0.0,0.28559643030166626,-1.5969861189471644,0.0,-0.004397707991302013,0.742793619632721,-0.0,-0.006769336760044098,0.8614933490753174,0.020055612549185753,0.053598709404468536
688.0,810.0,1.7922,0.6963,9.2973,-0.0238,0.0107,-0.1107,-1.5640964072993775,-0.006534754764288664,2.0092432498931885,-1.9478323459625244,2.2453299607150257e-05,2.057858943939209,4.790484304517069,-0.0,0.2895487844944,-1.5969541708575647,0.0,-0.019497329369187355,0.7428095936775208,-0.0,-0.005509458016604185,0.8616014719009399,0.017072131857275963,0.06654886901378632
688.0,810.0,1.7922,0.6963,9.2973,-0.0238,0.0107,-0.1107,-1.5641487578726192,-0.007205876521766186,2.0957834720611572,-1.9478363990783691,3.1583673262503e-05,2.0859293937683105,4.790500308364191,-0.0,0.29438474774360657,-1.597001854573385,0.0,0.0008434626506641507,0.7427177429199219,-0.0,0.003908292856067419,0.8616657853126526,0.015250328928232193,0.043825630098581314
688.0,810.0,1.7922,0.6963,9.2973,-0.0238,0.0107,-0.1107,-1.564164827377983,-0.007485970854759216,2.037381649017334,-1.9478405714035034,3.1702689739177004e-05,2.0323054790496826,4.7904719961579225,-0.0,0.2846440076828003,-1.5969980398761194,0.0,-0.005117516964673996,0.7427738308906555,-0.0,-0.004849244840443134,0.8617697358131409,0.013462000526487827,0.034249912947416306
688.0,810.0,1.7922,0.6963,9.2973,-0.0238,0.0107,-0.1107,-1.5642206410742183,-0.008003889583051205,2.0154776573181152,-1.947792887687683,3.062398172914982e-05,2.061109781265259,4.790476071625509,-0.0,0.29222631454467773,-1.5970099608050745,0.0,-0.01302715390920639,0.7427776455879211,-0.0,-0.010065564885735512,0.86183762550354,0.012999983504414558,0.0070366086438298225
688.0,810.0,1.7922,0.6963,9.2973,-0.0238,0.0107,-0.1107,-1.5642564816265185,-0.008020468056201935,2.0086617469787598,-1.9478447437286377,3.992091296822764e-05,2.059319019317627,4.790508079319753,-0.0,0.29184216260910034,-1.5969980398761194,0.0,-0.013014066964387894,0.7427178025245667,-0.0,-0.011485910974442959,0.8619256019592285,0.013457037508487701,-0.00015481840819120407
688.0,810.0,1.7922,0.6963,9.2973,-0.0238,0.0107,-0.1107,-1.564352933117636,-0.009352241642773151,2.026167392730713,-1.947820782661438,8.278093766023176e-10,2.063551425933838,4.790447908430853,-0.0,0.2881721556186676,-1.5970099608050745,0.0,0.0027499538846313953,0.7427735328674316,-0.0,0.009444594383239746,0.8620419502258301,0.015099188312888145,-0.011132441461086273
688.0,810.0,1.7922,0.6963,9.2973,-0.0238,0.0107,-0.1107,-1.5643441479517897,-0.010166340507566929,2.0153136253356934,-1.9478042125701904,6.184715311974287e-05,2.0656909942626953,4.790459725051679,-0.0,0.2825513482093811,-1.59698993364443,0.0,-0.005631295498460531,0.742813766002655,-0.0,-0.0031406856141984463,0.8621380925178528,0.015972571447491646,-0.0033111264929175377
688.0,810.0,1.7922,0.6963,9.2973,-0.0238,0.0107,-0.1107,-1.5644848978011687,-0.01084450725466013,2.047347068786621,-1.9477721452713013,0.0009215258760377765,2.0951218605041504,4.790512214391985,-0.0,0.2842986583709717,-1.597001854573385,0.0,-0.006727402098476887,0.7427898645401001,-0.0,0.004491651430726051,0.8622665405273438,0.018466386944055557,0.0003472641110420227
740.0,839.0,1.4554,0.0933,9.3482,-0.0299,0.0098,-0.0968,-1.56454115853224,-0.011163109913468361,2.0474908351898193,-1.9477845430374146,0.001749482937157154,2.059753179550171,4.790492068022051,-0.0,0.2938355803489685,-1.597001854573385,0.0,-0.0006079599261283875,0.7427371144294739,-0.0,-0.010776222683489323,0.8622819185256958,0.019871121272444725,-0.038719333708286285
740.0,839.0,1.4554,0.0933,9.3482,-0.0299,0.0098,-0.0968,-1.564572403938957,-0.012301430106163025,2.019648790359497,-1.9477359056472778,0.0032595933880656958,2.0745935440063477,4.79043963828639,-0.0,0.3032776415348053,-1.5969861189471644,0.0,0.0016125085530802608,0.7427300214767456,-0.0,-0.008602065965533257,0.8624626398086548,0.022083168849349022,0.021503712981939316
740.0,839.0,1.4554,0.0933,9.3482,-0.0299,0.0098,-0.0968,-1.5646359485438843,-0.014041132293641567,2.0162415504455566,-1.9477286338806152,0.005573852453380823,2.087388277053833,4.79044375845746,-0.0,0.3007044196128845,-1.5969937483416956,0.0,-0.0024894813541322947,0.7427494525909424,-0.0,-0.01643955335021019,0.8625460863113403,0.024114584550261497,0.056268878281116486
740.0,839.0,1.4554,0.0933,9.3482,-0.0299,0.0098,-0.0968,-1.5647528979792078,-0.014977346174418926,2.0442323684692383,-1.947656273841858,0.007264251820743084,2.0611870288848877,4.790512206941404,-0.0,0.3070867359638214,-1.5969579855548304,0.0,-0.014227495528757572,0.7427857518196106,-0.0,-0.006709495559334755,0.8627025485038757,0.025977997109293938,0.036782700568437576
740.0,839.0,1.4554,0.0933,9.3482,-0.0299,0.0098,-0.0968,-1.5648241739584883,-0.016578538343310356,2.039463996887207,-1.9476447105407715,0.00811508297920227,2.0594513416290283,4.790508056968012,-0.0,0.2942908704280853,-1.5969980398761194,0.0,-0.0157488826662302,0.7427453398704529,-0.0,-0.0010374695993959904,0.8628227710723877,0.027312612161040306,0.016508933156728745
740.0,839.0,1.4554,0.0933,9.3482,-0.0299,0.0098,-0.0968,-1.5649243274568398,-0.018759487196803093,2.0023884773254395,-1.947636365890503,0.00850268267095089,2.064634084701538,4.790471988707342,-0.0,0.3058609366416931,-1.59698993364443,0.0,0.007469589821994305,0.7427337765693665,-0.0,-0.00364309037104249,0.8629987835884094,0.029945438727736473,0.01265304908156395
740.0,839.0,1.4554,0.0933,9.3482,-0.0299,0.0098,-0.0968,-1.5649675710922857,-0.02031366340816021,2.0494368076324463,-1.947573184967041,0.008894642814993858,2.06105375289917,4.790471988707342,-0.0,0.2857404351234436,-1.5970056692706507,0.0,-0.009986414574086666,0.7427657842636108,-0.0,-0.007903489284217358,0.8631188273429871,0.03153997287154198,0.06361360102891922
740.0,839.0,1.4554,0.0933,9.3482,-0.0299,0.0098,-0.0968,-1.5651521364091714,-0.022765053436160088,2.0070409774780273,-1.947512149810791,0.008743499405682087,2.1062521934509277,4.790472003608503,-0.0,0.28935694694519043,-1.596945587788717,0.0,-0.011908945627510548,0.7427258491516113,-0.0,0.0056069158017635345,0.8633151054382324,0.03265398368239403,0.030179722234606743
740.0,839.0,1.4554,0.0933,9.3482,-0.0299,0.0098,-0.0968,-1.5652960220216592,-0.02453664503991604,1.9671883583068848,-1.9474447965621948,0.008396953344345093,2.0702624320983887,4.790508101671495,-0.0,0.29703325033187866,-1.5969579855548304,0.0,-0.0063235885463654995,0.7427574992179871,-0.0,-0.006516759749501944,0.8635756969451904,0.03629749268293381,-0.05562306195497513
740.0,839.0,1.4554,0.0933,9.3482,-0.0299,0.0098,-0.0968,-1.5654553657262404,-0.029003731906414032,2.035552501678467,-1.9474135637283325,0.007630412932485342,2.1004981994628906,4.790475676744737,-0.0,0.3007918894290924,-1.5969660917865198,0.0,-0.01085412036627531,0.7427858114242554,-0.0,-0.01035824790596962,0.8637593388557434,0.03895565867424011,0.06445235013961792
740.0,839.0,1.4554,0.0933,9.3482,-0.0299,0.0098,-0.0968,-1.5655592244914551,-0.03045845776796341,2.0137462615966797,-1.9474208354949951,0.0066514890640974045,2.0813796520233154,4.790519985347547,-0.0,0.29722991585731506,-1.5970137755023401,0.0,-0.012682625092566013,0.7427534461021423,-0.0,0.006631924770772457,0.8638587594032288,0.041950441896915436,0.09600065648555756
740.0,839.0,1.4554,0.0933,9.3482,-0.0299,0.0098,-0.0968,-1.565755341467895,-0.03485703840851784,2.018519163131714,-1.9472967386245728,0.007181227672845125,2.0559375286102295,4.790516304760732,-0.0,0.3108636736869812,-1.5969813505755823,0.0,-0.0053893206641077995,0.742721438407898,-0.0,-0.003517582779750228,0.8641594052314758,0.047404516488313675,0.07495860755443573
740.0,839.0,1.4554,0.0933,9.3482,-0.0299,0.0098,-0.0968,-1.5660153308748086,-0.03821851685643196,1.9844859838485718,-1.9473090171813965,0.006402500905096531,2.092992067337036,4.790483917086878,-0.0,0.29489463567733765,-1.596933666859762,0.0,0.0028449888341128826,0.7427452802658081,-0.0,-0.0020354578737169504,0.8644960522651672,0.05509296432137489,0.0705227479338646
740.0,839.0,1.4554,0.0933,9.3482,-0.0299,0.0098,-0.0968,-1.5661514436690886,-0.04163829982280731,1.9999033212661743,-1.9473007917404175,0.005319478455930948,2.0382981300354004,4.790436315327444,-0.0,0.296922892332077,-1.596933666859762,0.0,0.004056593868881464,0.7427817583084106,-0.0,-0.015333672985434532,0.864703893661499,0.06195805221796036,0.09488783031702042
740.0,839.0,1.4554,0.0933,9.3482,-0.0299,0.0098,-0.0968,-1.5664715560017903,-0.04616774618625641,2.0049469470977783,-1.9472613334655762,0.00411888025701046,2.074553966522217,4.790443713753977,-0.0,0.3055252134799957,-1.5969699064837855,0.0,-0.002135662594810128,0.7427377104759216,-0.0,-0.001176691148430109,0.8650684952735901,0.07214239239692688,0.039918091148138046
740.0,839.0,1.4554,0.0933,9.3482,-0.0299,0.0098,-0.0968,-1.5667514608106394,-0.050026025623083115,2.0234787464141846,-1.947245717048645,0.004377567674964666,2.0912296772003174,4.790487977653303,-0.0,0.3018852472305298,-1.5969179312335413,0.0,-0.0028529660776257515,0.7427898645401001,-0.0,-0.008125911466777325,0.8655932545661926,0.08224586397409439,0.10296362638473511
669.0,854.0,1.3184,-0.0832,9.0999,-0.0444,0.0105,-0.0797,-1.5669187940987577,-0.052211128175258636,1.9418270587921143,-1.9472860097885132,0.004007385112345219,2.029895544052124,4.790459762304582,-0.0,0.2845577001571655,-1.5969417730914515,0.0,-0.008027428761124611,0.7428057789802551,-0.0,-0.0025217002257704735,0.865921676158905,0.0871589183807373,0.10816940665245056
669.0,854.0,1.3184,-0.0832,9.0999,-0.0444,0.0105,-0.0797,-1.5672627704082807,-0.05299010127782822,1.9808094501495361,-1.9471733570098877,0.0036016483791172504,2.0970025062561035,4.790499920934,-0.0,0.30486318469047546,-1.5969856421100062,0.0,-0.008119304664433002,0.7427775859832764,-0.0,-0.006857303436845541,0.8664621710777283,0.0930275097489357,0.13724014163017273
669.0,854.0,1.3184,-0.0832,9.0999,-0.0444,0.0105,-0.0797,-1.5675823306995262,-0.051800377666950226,2.004359483718872,-1.9471609592437744,0.003759596263989806,2.045783281326294,4.790407705097952,-0.0,0.2873084247112274,-1.5969417730914515,0.0,-0.018718279898166656,0.7427857518196106,-0.0,-0.012859715148806572,0.8670345544815063,0.09566117078065872,0.10613787174224854
669.0,854.0,1.3184,-0.0832,9.0999,-0.0444,0.0105,-0.0797,-1.5678976038801302,-0.04966245964169502,2.038839817047119,-1.947141170501709,0.002970913192257285,2.0787432193756104,4.790459754854002,-0.0,0.2854369282722473,-1.5969179312335413,0.0,-0.011095292866230011,0.7427340745925903,-0.0,-0.0066229188814759254,0.8676311373710632,0.09926100075244904,0.09764707088470459
669.0,854.0,1.3184,-0.0832,9.0999,-0.0444,0.0105,-0.0797,-1.5681097901291032,-0.04763095825910568,1.9948089122772217,-1.94713294506073,0.0022407067008316517,2.080853223800659,4.790443743556299,3.102015853073681e-07,0.2794247567653656,-1.5969179312335413,0.0,-0.004255812149494886,0.7426854968070984,-0.0,-0.01087483111768961,0.8680070042610168,0.09923829138278961,0.09482105076313019
669.0,854.0,1.3184,-0.0832,9.0999,-0.0444,0.0105,-0.0797,-1.568397603030764,-0.04727219045162201,2.0098636150360107,-1.9471535682678223,0.0010775550035759807,2.0220372676849365,4.790480243950643,8.63457361166553e-11,0.3001413643360138,-1.5969379583941858,0.0,-0.011907676234841347,0.7427377700805664,-0.0,-0.005968266166746616,0.8685788512229919,0.0979447066783905,0.1203414648771286
669.0,854.0,1.3184,-0.0832,9.0999,-0.0444,0.0105,-0.0797,-1.5686770356590678,-0.049522679299116135,1.9820606708526611,-1.9471091032028198,0.0006265225820243359,2.030500650405884,4.790484304517069,2.403465644009676e-14,0.2975544333457947,-1.596978012715475,0.0,-0.006182883866131306,0.7427258491516113,-0.0,-0.007456650957465172,0.8691760897636414,0.09776658564805984,0.11960387974977493
669.0,854.0,1.3184,-0.0832,9.0999,-0.0444,0.0105,-0.0797,-1.568885478806198,-0.050901830196380615,1.9905935525894165,-1.9471009969711304,0.0005536819808185101,2.0637338161468506,4.790484356671133,1.0246350436909888e-16,0.3101663589477539,-1.5969417730914515,0.0,-0.007494826801121235,0.7427296042442322,-0.0,-0.01255067903548479,0.8695435523986816,0.101261205971241,0.16603326797485352
669.0,854.0,1.3184,-0.0832,9.0999,-0.0444,0.0105,-0.0797,-1.569164953111187,-0.05083775147795677,2.0288290977478027,-1.9470884799957275,0.0005889167659915984,2.0768251419067383,4.7904239920671365,2.852109058560036e-20,0.2845648527145386,-1.5970056692706507,0.0,-0.011171420104801655,0.7427575588226318,-0.0,-0.005389064084738493,0.8701645731925964,0.10860880464315414,0.1288488805294037
669.0,854.0,1.3184,-0.0832,9.0999,-0.0444,0.0105,-0.0797,-1.5694489811179047,-0.04873697832226753,2.016000747680664,-1.9470926523208618,0.0024366467259824276,2.0899405479431152,4.790480236500063,7.938950999737702e-24,0.306922972202301,-1.5968697706805628,0.0,0.00019181426614522934,0.7427977323532104,-0.0,-0.01534239761531353,0.8708289265632629,0.11631880700588226,0.11694660782814026
669.0,854.0,1.3184,-0.0832,9.0999,-0.0444,0.0105,-0.0797,-1.569708035360538,-0.04774640500545502,2.0278820991516113,-1.9471172094345093,0.005394392646849155,2.1262412071228027,4.790503996401586,2.209836477500208e-27,0.3007200360298157,-1.596949879323141,0.0,-0.0073377517983317375,0.7426935434341431,-0.0,-0.015668855980038643,0.8715215921401978,0.12244384735822678,0.1721225082874298
669.0,854.0,1.3184,-0.0832,9.0999,-0.0444,0.0105,-0.0797,-1.5699323033080255,-0.04863625764846802,1.9673490524291992,-1.9471015930175781,0.006023491732776165,2.0564329624176025,4.790455686836996,9.420879668280987e-30,0.29733890295028687,-1.5968979040728968,0.0,-0.007067307364195585,0.7427099347114563,-0.0,-0.014067328535020351,0.8720619678497314,0.1275540143251419,0.12733590602874756
669.0,854.0,1.3184,-0.0832,9.0999,-0.0444,0.0105,-0.0797,-1.5701912958505382,-0.052375081926584244,2.002121925354004,-1.9470179080963135,0.006560020614415407,2.1086068153381348,4.790484334319391,2.622336327839538e-33,0.2929859459400177,-1.596949879323141,0.0,-0.02219455875456333,0.7427418231964111,-0.0,-0.012746023014187813,0.8728629946708679,0.1359720081090927,0.17775453627109528
669.0,854.0,1.3184,-0.0832,9.0999,-0.0444,0.0105,-0.0797,-1.5706197594448277,-0.05906476452946663,1.97098970413208,-1.9469691514968872,0.0061093708500266075,2.055837631225586,4.790484334319391,7.299370426900601e-37,0.28397291898727417,-1.5969417730914515,0.0,-0.011764081194996834,0.7427258491516113,-0.0,-0.0072621810249984264,0.87370365858078,0.1337129771709442,0.1744982749223709
669.0,854.0,1.3184,-0.0832,9.0999,-0.0444,0.0105,-0.0797,-1.5708233318724574,-0.06472884118556976,1.9712631702423096,-1.9469857215881348,0.006003267131745815,2.0876312255859375,4.7904962105448625,3.111835473756835e-39,0.2975099980831146,-1.5969536940204065,0.0,-0.013440243899822235,0.7427575588226318,-0.0,-0.0014029177837073803,0.8741996884346008,0.13105420768260956,0.11775809526443481
669.0,854.0,1.3184,-0.0832,9.0999,-0.0444,0.0105,-0.0797,-1.5712152920165003,-0.072364442050457,1.9979419708251953,-1.9469298124313354,0.005739177111536264,2.092228412628174,4.790512259095468,8.66002450952737e-43,0.2886140048503876,-1.596949879323141,0.0,-0.011939608491957188,0.742825984954834,-0.0,-0.009990626946091652,0.8750168681144714,0.1333322823047638,0.1501011848449707
669.0,854.0,1.3184,-0.0832,9.0999,-0.0444,0.0105,-0.0797,-1.5715977154173792,-0.07523348182439804,1.9777262210845947,-1.9468894004821777,0.006581438705325127,2.064504861831665,4.790467950492658,0.0,0.2917271554470062,-1.5969417730914515,0.0,-0.015651997178792953,0.7427377700805664,-0.0,-0.014023746363818645,0.875801146030426,0.1386362761259079,0.14703848958015442
753.0,896.0,1.3274,-0.7507,9.3535,-0.0328,-0.0186,-0.0179,-1.5719067058958949,-0.07699684053659439,1.992168664932251,-1.9468770027160645,0.0070898160338401794,2.1007204055786133,4.79047608652667,0.0,0.2953120470046997,-1.596949879323141,0.0,-0.009687276557087898,0.7427300214767456,-0.0,-0.008775775320827961,0.8763371109962463,0.14195051789283752,0.2175636887550354
753.0,896.0,1.3274,-0.7507,9.3535,-0.0328,-0.0186,-0.0179,-1.5724269352354945,-0.07890091836452484,1.980024814605713,-1.9468415975570679,0.007407961413264275,2.0588133335113525,4.790503981500425,0.0,0.3006746172904968,-1.5969575087176722,0.0,-0.006148714572191238,0.7427657842636108,-0.0,-0.006029057782143354,0.8772027492523193,0.1412326693534851,0.17617091536521912
753.0,896.0,1.3274,-0.7507,9.3535,-0.0328,-0.0186,-0.0179,-1.5728942356505335,-0.08055540919303894,1.9476648569107056,-1.9467577934265137,0.008520868606865406,2.0924487113952637,4.790508064418592,0.0,0.2884223461151123,-1.5969575087176722,0.0,-0.0038973086047917604,0.7427534461021423,-0.0,-0.013025562278926373,0.8781275153160095,0.14705446362495422,0.1934209167957306
753.0,896.0,1.3274,-0.7507,9.3535,-0.0328,-0.0186,-0.0179,-1.5733534298338832,-0.0797710195183754,1.9905118942260742,-1.9467215538024902,0.008687332272529602,2.1103482246398926,4.790463912277975,0.0,0.28815239667892456,-1.5968979040728968,0.0,-0.019941149279475212,0.7427014708518982,-0.0,-0.02051004022359848,0.8789354562759399,0.14712226390838623,0.20948824286460876
753.0,896.0,1.3274,-0.7507,9.3535,-0.0328,-0.0186,-0.0179,-1.5737010441222132,-0.08008706569671631,1.9708706140518188,-1.9466614723205566,0.008129913359880447,2.0417380332946777,4.790459754854002,0.0,0.2936370074748993,-1.5969098250018519,0.0,-0.005414449144154787,0.7426935434341431,-0.0,-0.020099617540836334,0.8795199394226074,0.1444772630929947,0.13434498012065887
753.0,896.0,1.3274,-0.7507,9.3535,-0.0328,-0.0186,-0.0179,-1.5741883716978968,-0.08432226628065109,1.9882357120513916,-1.9466696977615356,0.005077307112514973,2.116802215576172,4.79044375845746,0.0,0.30221161246299744,-1.596933666859762,0.0,-0.013631787151098251,0.7427136898040771,-0.0,-0.007931778207421303,0.8803560733795166,0.13980808854103088,0.14051011204719543
753.0,896.0,1.3274,-0.7507,9.3535,-0.0328,-0.0186,-0.0179,-1.574660440484518,-0.08496345579624176,1.9658293724060059,-1.9466376304626465,0.0031812277156859636,2.0756359100341797,4.790492038219728,0.0,0.299002468585968,-1.596949879323141,0.0,-0.011970853433012962,0.7427617311477661,-0.0,-0.010559219866991043,0.8812047243118286,0.1377788931131363,0.1546252816915512
753.0,896.0,1.3274,-0.7507,9.3535,-0.0328,-0.0186,-0.0179,-1.5749832592406214,-0.08578145503997803,1.9658722877502441,-1.9466252326965332,0.0022170222364366055,2.065997362136841,4.7904519987996,0.0,0.2981579601764679,-1.5969536940204065,0.0,-0.0022513680160045624,0.7427217960357666,-0.0,-0.025896072387695312,0.881833553314209,0.13684095442295074,0.14087095856666565
753.0,896.0,1.3274,-0.7507,9.3535,-0.0328,-0.0186,-0.0179,-1.5755154095091761,-0.08388897776603699,1.9354467391967773,-1.9466334581375122,0.0016630369937047362,2.0717885494232178,4.790447915881433,0.0,0.2947058081626892,-1.5968855063067835,0.0,0.0027024843730032444,0.7427136898040771,-0.0,-0.022137004882097244,0.882606029510498,0.13550353050231934,0.1569860875606537
753.0,896.0,1.3274,-0.7507,9.3535,-0.0328,-0.0186,-0.0179,-1.5759874782957972,-0.08188797533512115,1.9776686429977417,-1.9465899467468262,0.002064068801701069,2.0943984985351562,4.790492068022051,0.0,0.2902791500091553,-1.5969298521624964,0.0,-0.0053764828480780125,0.7427258491516113,-0.0,-0.014087138697504997,0.8834503889083862,0.13492245972156525,0.1309274584054947
753.0,896.0,1.3274,-0.7507,9.3535,-0.0328,-0.0186,-0.0179,-1.5763231716551722,-0.0852971002459526,1.945976972579956,-1.9465694427490234,0.0028827860951423645,2.1102986335754395,4.790455679386415,0.0,0.2971644103527069,-1.5969021956073206,0.0,-0.007837318815290928,0.7427136898040771,-0.0,-0.016138141974806786,0.8839430212974548,0.1327550858259201,0.1485990732908249
753.0,896.0,1.3274,-0.7507,9.3535,-0.0328,-0.0186,-0.0179,-1.5767904720702113,-0.0859246701002121,1.974790334701538,-1.9466063976287842,0.003146514995023608,2.077428102493286,4.7905040113027475,0.0,0.28572434186935425,-1.5969060103045862,0.0,-0.004197887144982815,0.7427218556404114,-2.2358344065054325e-09,-0.020551271736621857,0.8847232460975647,0.1268930733203888,0.13098573684692383
753.0,896.0,1.3274,-0.7507,9.3535,-0.0328,-0.0186,-0.0179,-1.5773049793639125,-0.08879435062408447,1.9749829769134521,-1.9464936256408691,0.0037239170633256435,2.095189332962036,4.790455679386415,0.0,0.2884886562824249,-1.5969379583941858,5.134032835485414e-05,-0.00039872166234999895,0.7427136898040771,-6.223527010580654e-13,-0.010751251131296158,0.8855279684066772,0.12371561676263809,0.1076541543006897
753.0,896.0,1.3274,-0.7507,9.3535,-0.0328,-0.0186,-0.0179,-1.577876707116598,-0.08983523398637772,1.889822244644165,-1.9465495347976685,0.004748273640871048,2.07045316696167,4.79045199134902,0.0,0.2871015965938568,-1.5968735853778284,4.96931497764308e-05,-0.013444552198052406,0.7427781224250793,-1.7323411958126544e-16,-0.03530481457710266,0.8862237334251404,0.12295762449502945,0.07779059559106827
753.0,896.0,1.3274,-0.7507,9.3535,-0.0328,-0.0186,-0.0179,-1.5782376728453578,-0.08728807419538498,1.944333553314209,-1.9465060234069824,0.00506662717089057,2.0764384269714355,4.7904798714216135,0.0,0.2784220278263092,-1.5968897978412073,2.1184969511978125e-07,-0.0024103058967739344,0.7427382469177246,-7.38524273378995e-19,-0.017924921587109566,0.8867524862289429,0.11794643849134445,0.10275325179100037
753.0,896.0,1.3274,-0.7507,9.3535,-0.0328,-0.0186,-0.0179,-1.5787154636778773,-0.08683649450540543,1.9629464149475098,-1.9465059041976929,0.004740834701806307,2.0660905838012695,4.790431517153539,0.0,0.28794723749160767,-1.5969179312335413,5.896914206937609e-11,0.007316060829907656,0.7427422404289246,-2.0557094198754978e-22,-0.03598279133439064,0.8874489068984985,0.10760907828807831,0.0715845450758934
753.0,896.0,1.3274,-0.7507,9.3535,-0.0328,-0.0186,-0.0179,-1.5792275867857875,-0.0930446982383728,1.8888797760009766,-1.9464656114578247,0.004743493627756834,2.0463759899139404,4.790428074985304,0.0,0.2907596528530121,-1.5968816916095179,1.64142770962784e-14,-0.0037895990535616875,0.7427141070365906,-5.722142475571769e-26,-0.014072160236537457,0.8881081342697144,0.10110870003700256,0.05550263822078705
842.0,905.0,1.5147,0.9392,9.3027,0.0095,-0.044,-0.0108,-1.579644342462057,-0.09723332524299622,1.8888145685195923,-1.9463776350021362,0.004579619970172644,2.054339647293091,4.790415848582544,0.0,0.2847553789615631,-1.596893612538473,6.997662770323406e-17,0.001895318040624261,0.7426939010620117,-2.4394392010117463e-28,-0.03350848704576492,0.888503909111023,0.09782545268535614,0.05422712489962578
842.0,905.0,1.5147,0.9392,9.3027,0.0095,-0.044,-0.0108,-1.5801955662169398,-0.10055845975875854,1.8950986862182617,-1.9463942050933838,0.005229429807513952,2.0270395278930664,4.790463912277975,0.0,0.29237648844718933,-1.5968778769122522,1.947825196276836e-20,-0.0011146028991788626,0.7427177429199219,-0.00020902339019812644,-0.04383277893066406,0.8890634775161743,0.09189644455909729,0.014785364270210266
842.0,905.0,1.5147,0.9392,9.3027,0.0095,-0.044,-0.0108,-1.5807858906187953,-0.10087303072214127,1.9050626754760742,-1.9462939500808716,0.006670587696135044,2.1043272018432617,4.790515909879961,0.0,0.2813584804534912,-1.5968855063067835,5.4218437625971824e-24,-0.0008468847954645753,0.7427017688751221,-0.0002199513983214274,-0.03628247231245041,0.8896070718765259,0.08216770738363266,-0.04013703390955925
842.0,905.0,1.5147,0.9392,9.3027,0.0095,-0.044,-0.0108,-1.5811625919737757,-0.10056381672620773,1.8912291526794434,-1.9463298320770264,0.008213799446821213,2.047062873840332,4.7905606282647035,0.0,0.2846815288066864,-1.596854035054342,2.3114171487079852e-26,0.0059355562552809715,0.742689847946167,-0.00020393574959598482,-0.04204925522208214,0.8898905515670776,0.0772511437535286,0.02497914247214794
842.0,905.0,1.5147,0.9392,9.3027,0.0095,-0.044,-0.0108,-1.581794878045553,-0.09949678182601929,1.8983100652694702,-1.9462212324142456,0.009405029006302357,2.106558322906494,4.790492075472631,0.0,0.2838740944862366,-1.5968855063067835,6.433914292446059e-30,0.004109441768378019,0.7426533699035645,-0.0001981464884011075,-0.037964705377817154,0.8903301358222961,0.07242643088102341,-0.022781822830438614
842.0,905.0,1.5147,0.9392,9.3027,0.0095,-0.044,-0.0108,-1.582353254357809,-0.10144402086734772,1.9214344024658203,-1.9462096691131592,0.009851651266217232,2.069124937057495,4.790479841619291,0.0,0.2832168936729431,-1.5968897978412073,1.7909036633731644e-33,0.0006409513298422098,0.742689847946167,-0.0001939650537678972,-0.046660490334033966,0.8907296061515808,0.07126882672309875,-0.076356902718544
842.0,905.0,1.5147,0.9392,9.3027,0.0095,-0.044,-0.0108,-1.583019872704977,-0.10534900426864624,1.8827259540557861,-1.946117639541626,0.00886209774762392,2.075772285461426,4.790475691645899,0.0,0.28857576847076416,-1.5969379583941858,4.985045970899883e-37,0.010916653089225292,0.7427218556404114,-0.00017756660236045718,-0.033863432705402374,0.8911615610122681,0.06871526688337326,-0.023715883493423462
842.0,905.0,1.5147,0.9392,9.3027,0.0095,-0.044,-0.0108,-1.5834318600096644,-0.10694144666194916,1.8711519241333008,-1.9461300373077393,0.0070849834010005,2.0574915409088135,4.790483917086878,0.0,0.27622610330581665,-1.5968855063067835,2.1252036458011603e-39,0.01944802701473236,0.7427182197570801,-0.0001680904533714056,-0.03786591440439224,0.8914371728897095,0.06534866243600845,-0.03335818275809288
842.0,905.0,1.5147,0.9392,9.3027,0.0095,-0.044,-0.0108,-1.5840913257994593,-0.10724107921123505,1.962435007095337,-1.9461028575897217,0.005847771652042866,2.0852620601654053,4.790483917086878,0.0,0.2998201847076416,-1.5968497435199183,5.913479519450728e-43,0.024890627712011337,0.7426697611808777,-0.00016655695799272507,-0.048972077667713165,0.8917846083641052,0.057764533907175064,-0.04577643424272537
842.0,905.0,1.5147,0.9392,9.3027,0.0095,-0.044,-0.0108,-1.5847064457335414,-0.11063209176063538,1.9045069217681885,-1.9460461139678955,0.005209780763834715,2.0814974308013916,4.790472003608503,0.0,0.2811025381088257,-1.5968578497516077,0.0,0.016206853091716766,0.7426656484603882,-0.00016558922652620822,-0.05555594712495804,0.8921162486076355,0.04872211441397667,-0.07597758620977402
842.0,905.0,1.5147,0.9392,9.3027,0.0095,-0.044,-0.0108,-1.5851308308043421,-0.11471866071224213,1.8434934616088867,-1.9459900856018066,0.005366922821849585,2.0644032955169678,4.79043152460412,0.0,0.2766543924808502,-1.596921745930807,9.598116594133899e-05,-0.010009586811065674,0.7427178025245667,-0.00015831027121748775,-0.03774632513523102,0.8923605680465698,0.044245682656764984,-0.05304069444537163
842.0,905.0,1.5147,0.9392,9.3027,0.0095,-0.044,-0.0108,-1.5858427486815394,-0.12057504802942276,1.9179128408432007,-1.9460386037826538,0.005018146708607674,2.091646671295166,4.790467928140917,0.0,0.2843729853630066,-1.5968578497516077,9.929665247909725e-05,0.011766842566430569,0.7427021861076355,-0.00015387206804007292,-0.05258104205131531,0.8925522565841675,0.03322252258658409,-0.13153612613677979
842.0,905.0,1.5147,0.9392,9.3027,0.0095,-0.044,-0.0108,-1.586616655389303,-0.12478505820035934,1.914355754852295,-1.9459786415100098,0.005571374204009771,2.0458076000213623,4.7905239937599084,0.0,0.2778512239456177,-1.596949879323141,9.313388000009581e-05,0.001034250482916832,0.742657482624054,-0.00014042010297998786,-0.04936906695365906,0.8927199840545654,0.024204107001423836,-0.11838248372077942
842.0,905.0,1.5147,0.9392,9.3027,0.0095,-0.044,-0.0108,-1.5873452625670375,-0.12747310101985931,1.842834234237671,-1.945922613143921,0.006584635470062494,2.024610996246338,4.790524001210489,3.4730983315967023e-06,0.28374379873275757,-1.5969460646258753,7.905986421974376e-05,-0.005232045892626047,0.7425931692123413,-0.00012839898408856243,-0.055763326585292816,0.8928316831588745,0.014839043840765953,-0.11466898024082184
842.0,905.0,1.5147,0.9392,9.3027,0.0095,-0.044,-0.0108,-1.5879374943175257,-0.12729182839393616,1.9265750646591187,-1.9458346366882324,0.008853924460709095,2.103184223175049,4.790507676988401,1.4806363246577803e-08,0.28553950786590576,-1.5969179312335413,6.755781942047179e-05,0.007045276463031769,0.7426820993423462,-0.0001214667790918611,-0.05081688612699509,0.8928877711296082,0.010135522112250328,-0.139460951089859
842.0,905.0,1.5147,0.9392,9.3027,0.0095,-0.044,-0.0108,-1.588696619073385,-0.12281103432178497,1.9174861907958984,-1.945894718170166,0.009663378819823265,2.0716068744659424,4.790495838015833,4.121406341206502e-12,0.29044219851493835,-1.596893612538473,6.392310024239123e-05,-0.005366676952689886,0.7426173090934753,-0.00013188229058869183,-0.044334858655929565,0.8929234743118286,0.004870728589594364,-0.09189242124557495
892.0,914.0,1.7731,0.8554,8.9139,-0.0064,-0.0918,-0.0641,-1.5894905529417933,-0.1258620023727417,1.8938876390457153,-1.9458634853363037,0.009244167245924473,2.0689425468444824,4.790475676744737,1.1472084006296603e-15,0.2912592887878418,-1.5968855063067835,6.069015944376588e-05,-0.010096363723278046,0.7426415681838989,-0.00012544193305075169,-0.05358020216226578,0.8928755521774292,0.0018992725526914,-0.0502486526966095
892.0,914.0,1.7731,0.8554,8.9139,-0.0064,-0.0918,-0.0641,-1.5900637112059535,-0.1310720592737198,1.939432144165039,-1.9457507133483887,0.00684794457629323,2.1000654697418213,4.790552305966177,4.89072935995754e-18,0.2868741452693939,-1.5968855063067835,5.87105932936538e-05,-0.0009873190429061651,0.742657482624054,-0.0001198733298224397,-0.05555780977010727,0.892859160900116,0.00046238928916864097,-0.09772774577140808
892.0,914.0,1.7731,0.8554,8.9139,-0.0064,-0.0918,-0.0641,-1.590891023675436,-0.14441756904125214,1.9259916543960571,-1.9457507133483887,0.005039885640144348,2.042975425720215,4.790552305966177,1.361352687948319e-21,0.28494635224342346,-1.5968578497516077,5.597210838459432e-05,0.009112255647778511,0.7426534295082092,-0.00013079702330287546,-0.05467808246612549,0.8928952217102051,2.9031106407728657e-08,-0.11447413265705109
892.0,914.0,1.7731,0.8554,8.9139,-0.0064,-0.0918,-0.0641,-1.5917850933470667,-0.15586833655834198,1.8470354080200195,-1.9457030296325684,0.004882013890892267,2.102245807647705,4.790515909879961,3.7893754490670798e-25,0.28686752915382385,-1.5968697706805628,5.3477731853490695e-05,-0.006119083613157272,0.7426857352256775,-0.00012341354158706963,-0.0651925653219223,0.8928672671318054,-0.0007213366916403174,-0.07482032477855682
892.0,914.0,1.7731,0.8554,8.9139,-0.0064,-0.0918,-0.0641,-1.592353960076803,-0.1579921990633011,1.8932706117630005,-1.9456627368927002,0.007089513354003429,2.0558457374572754,4.790507699340143,1.6154702299450079e-27,0.30081868171691895,-1.5968816916095179,5.1934759540017694e-05,0.0005946242017671466,0.7426738739013672,-0.00011876053758896887,-0.052705101668834686,0.8928996920585632,-0.0013471335405483842,-0.1320497840642929
892.0,914.0,1.7731,0.8554,8.9139,-0.0064,-0.0918,-0.0641,-1.5933252773680628,-0.1519595831632614,1.9248826503753662,-1.9456026554107666,0.011806330643594265,2.0246503353118896,4.79052400866107,0.00024071527877822518,0.29070204496383667,-1.5968778769122522,4.978029028279707e-05,-0.006136525422334671,0.7426697611808777,-0.00012635928578674793,-0.05517815053462982,0.8928514122962952,-0.003551321569830179,-0.13591906428337097
892.0,914.0,1.7731,0.8554,8.9139,-0.0064,-0.0918,-0.0641,-1.5943333111205042,-0.14158152043819427,1.9413111209869385,-1.945530891418457,0.01631075330078602,2.0787458419799805,4.790491725295343,0.0002968733024317771,0.29245251417160034,-1.5968974272357386,4.779749360750429e-05,-0.0025344660971313715,0.7426534295082092,-0.00012193395377835259,-0.056113626807928085,0.8928154110908508,-0.0034728513564914465,-0.0991111770272255
892.0,914.0,1.7731,0.8554,8.9139,-0.0064,-0.0918,-0.0641,-1.5952302418150843,-0.1387048214673996,1.952434778213501,-1.9454874992370605,0.018284732475876808,2.0921759605407715,4.7905239937599084,0.00023239577421918511,0.2903529405593872,-1.5968697706805628,4.596661528921686e-05,-0.006748839747160673,0.7426456212997437,-0.00011603895109146833,-0.0596056804060936,0.8928398489952087,-0.0019454988650977612,-0.13045017421245575
892.0,914.0,1.7731,0.8554,8.9139,-0.0064,-0.0918,-0.0641,-1.5958272419371546,-0.14636249840259552,1.9403847455978394,-1.9453705549240112,0.016944188624620438,2.109222412109375,4.790520030051031,0.0001945281692314893,0.3057193160057068,-1.5968778769122522,4.482200893107802e-05,-0.009129497222602367,0.7426861524581909,-0.000126597034977749,-0.056157294660806656,0.8927993774414062,-0.0012032896047458053,-0.09392043203115463
892.0,914.0,1.7731,0.8554,8.9139,-0.0064,-0.0918,-0.0641,-1.5967890224852503,-0.16311955451965332,1.9385706186294556,-1.9452906847000122,0.01369862537831068,2.1178410053253174,4.7905281511838815,1.047265232045902e-05,0.2870871126651764,-1.596905533467428,4.320812149671838e-05,-0.01048966497182846,0.7426497936248779,-0.00013419285824056715,-0.0585036426782608,0.8927870392799377,-0.00026624940801411867,-0.12825442850589752
892.0,914.0,1.7731,0.8554,8.9139,-0.0064,-0.0918,-0.0641,-1.5977541408934535,-0.17818598449230194,1.901036024093628,-1.9452109336853027,0.013270542025566101,2.0881381034851074,4.790455679386415,2.9151010494388174e-09,0.304815411567688,-1.5968778769122522,4.170642205281183e-05,-0.0007623240817338228,0.7426055073738098,-0.00014617975102737546,-0.06286768615245819,0.8928194642066956,-0.00027514644898474216,-0.1558387130498886
892.0,914.0,1.7731,0.8554,8.9139,-0.0064,-0.0918,-0.0641,-1.5984560451903285,-0.18417462706565857,1.8916831016540527,-1.945099115371704,0.01655874401330948,2.1139936447143555,4.790495838015833,1.2427532093683968e-11,0.2883698344230652,-1.5969179312335413,4.076197728863917e-05,-0.007333724293857813,0.7426939606666565,-0.00015495807747356594,-0.06256207823753357,0.8927633166313171,-0.0003027708444278687,-0.11011190712451935
892.0,914.0,1.7731,0.8554,8.9139,-0.0064,-0.0918,-0.0641,-1.599499364892477,-0.1682555377483368,1.881645917892456,-1.944995403289795,0.02500155381858349,2.083024501800537,4.790511797159471,3.459249310543383e-15,0.3097233176231384,-1.5969093481646937,5.134253569849534e-06,-0.002096208045259118,0.7426780462265015,-0.0003299690142739564,-0.07575813680887222,0.8927915096282959,-0.0003241917002014816,-0.150137796998024
892.0,914.0,1.7731,0.8554,8.9139,-0.0064,-0.0918,-0.0641,-1.6004864178099574,-0.15409648418426514,1.9291810989379883,-1.9448481798171997,0.03344273939728737,2.059605836868286,4.79049168059186,9.62894688088531e-19,0.2942911982536316,-1.5969098250018519,1.4291383632070165e-09,-0.009286949411034584,0.7426135540008545,-0.00037537942989729345,-0.06285527348518372,0.8927874565124512,-0.0008837040513753891,-0.10060937702655792
892.0,914.0,1.7731,0.8554,8.9139,-0.0064,-0.0918,-0.0641,-1.6011272869505824,-0.1498461216688156,1.936556100845337,-1.9446630477905273,0.03884551301598549,2.1694858074188232,4.790503988951006,4.10497103149963e-21,0.29866498708724976,-1.5968778769122522,6.092641148536249e-12,-0.0030445214360952377,0.7425935864448547,-0.00038404593942686915,-0.06921903789043427,0.8928075432777405,-0.0006360908737406135,-0.12056463956832886
892.0,914.0,1.7731,0.8554,8.9139,-0.0064,-0.0918,-0.0641,-1.6020733318724574,-0.1585817039012909,1.9442307949066162,-1.9444360733032227,0.04037075117230415,2.0973963737487793,4.7904719961579225,1.1426337625992662e-24,0.2932157814502716,-1.596949879323141,1.6959093558391813e-15,-0.01960424706339836,0.7426661849021912,-0.0006137263844721019,-0.08270514756441116,0.8928194642066956,0.0005641366587951779,-0.1765613853931427
892.0,914.0,1.7731,0.8554,8.9139,-0.0064,-0.0918,-0.0641,-1.603086610833639,-0.17700189352035522,1.9124701023101807,-1.9441956281661987,0.04292672127485275,2.172264337539673,4.790439675539293,3.180563284407447e-28,0.30142298340797424,-1.5969379583941858,4.720626181033334e-19,-0.002474022563546896,0.7426300048828125,-0.0012239571660757065,-0.07027369737625122,0.8928313255310059,0.0014615454711019993,-0.13534235954284668
935.0,8190.0,2.482,-0.3643,8.1392,-0.0484,-0.1526,-0.1239,-1.6041633091368617,-0.18740859627723694,1.8964228630065918,-1.9438878297805786,0.0489351786673069,2.121601104736328,4.79049992838458,8.853215719814094e-32,0.3001340925693512,-1.5968778769122522,1.3140037165604668e-22,-0.0028279670514166355,0.7425976991653442,-0.003298197640106082,-0.07213816791772842,0.8928276300430298,0.0008801950025372207,-0.1520473062992096
935.0,8190.0,2.482,-0.3643,8.1392,-0.0484,-0.1526,-0.1239,-1.6048833332457484,-0.18708336353302002,1.9646462202072144,-1.9436519145965576,0.05567998066544533,2.1533443927764893,4.790467868536272,3.77426509341696e-34,0.296924352645874,-1.5968816916095179,5.601803839892084e-25,-0.012677259743213654,0.7425981163978577,-0.01115844864398241,-0.0771581381559372,0.892803430557251,1.91160124813905e-05,-0.1421012282371521
935.0,8190.0,2.482,-0.3643,8.1392,-0.0484,-0.1526,-0.1239,-1.605879922906393,-0.17837180197238922,1.9265031814575195,-1.9432684183120728,0.0699147880077362,2.1180880069732666,4.790479863971033,1.0505804757387075e-37,0.311180055141449,-1.5968816916095179,1.5592827164132172e-28,-0.013469083234667778,0.7424501180648804,-0.025040315464138985,-0.08894096314907074,0.8927915096282959,4.6162924177695075e-11,-0.10197433829307556
935.0,8190.0,2.482,-0.3643,8.1392,-0.0484,-0.1526,-0.1239,-1.606901308099264,-0.16574425995349884,1.919663429260254,-1.9427814483642578,0.08616042137145996,2.167924642562866,4.790483894735136,2.924369765199461e-41,0.3047908544540405,-1.5968578497516077,4.3403212848321126e-32,-0.006488842889666557,0.7422622442245483,-0.02042386122047901,-0.08465822041034698,0.8927633762359619,-0.0010619328822940588,-0.12507376074790955
935.0,8190.0,2.482,-0.3643,8.1392,-0.0484,-0.1526,-0.1239,-1.6076232395567835,-0.16598539054393768,1.9243274927139282,-1.9424209594726562,0.09470771253108978,2.142211437225342,4.790455649584093,1.2471556332490872e-43,0.3083142340183258,-1.5969179312335413,1.8503471499561753e-34,-0.008068971335887909,0.7422751188278198,-0.01329436618834734,-0.09536594897508621,0.8927755355834961,-0.0008890115423128009,-0.1082642674446106
935.0,8190.0,2.482,-0.3643,8.1392,-0.0484,-0.1526,-0.1239,-1.6086622677245082,-0.17555025219917297,1.9822168350219727,-1.9418303966522217,0.10660697519779205,2.1938414573669434,4.790500330715933,0.0,0.30104655027389526,-1.5969021956073206,5.150509499905323e-38,0.004221038427203894,0.7422308325767517,-0.0030502963345497847,-0.09659257531166077,0.892803430557251,-0.0002464860735926777,-0.1631791591644287
935.0,8190.0,2.482,-0.3643,8.1392,-0.0484,-0.1526,-0.1239,-1.609786172906393,-0.18376532196998596,1.9425846338272095,-1.9412024021148682,0.11118805408477783,2.1701724529266357,4.790463942080297,0.0,0.2986861765384674,-1.5969141165362757,1.4336684588507203e-41,-0.0141168013215065,0.7421985268592834,0.0007673267391510308,-0.0902400016784668,0.8928117156028748,-8.733162394491956e-05,-0.16451507806777954
935.0,8190.0,2.482,-0.3643,8.1392,-0.0484,-0.1526,-0.1239,-1.6104446850218714,-0.18787457048892975,1.9341539144515991,-1.9406388998031616,0.11317912489175797,2.201256275177002,4.790463912277975,0.0,0.2976005971431732,-1.596893612538473,6.165713243029195e-44,-0.006533627863973379,0.7422349452972412,0.00034660965320654213,-0.08571142703294754,0.8927755355834961,-0.0001458935294067487,-0.14066672325134277
935.0,8190.0,2.482,-0.3643,8.1392,-0.0484,-0.1526,-0.1239,-1.6115161381163539,-0.19308458268642426,1.8956577777862549,-1.9399083852767944,0.11777437478303909,2.2383008003234863,4.790488007455625,0.0,0.31713712215423584,-1.5968735853778284,0.0,-0.006784929893910885,0.7421985268592834,0.00021401062258519232,-0.09466905891895294,0.8927633762359619,-0.00023433554451912642,-0.17093339562416077
935.0,8190.0,2.482,-0.3643,8.1392,-0.0484,-0.1526,-0.1239,-1.6126634083189906,-0.1910374015569687,1.946908712387085,-1.9391770362854004,0.12639692425727844,2.139164924621582,4.790520044952192,0.0,0.28621095418930054,-1.5968778769122522,0.0,-0.0012681798543781042,0.742243230342865,0.00015767745207995176,-0.09073163568973541,0.8927997946739197,-0.0003335630754008889,-0.21118684113025665
935.0,8190.0,2.482,-0.3643,8.1392,-0.0484,-0.1526,-0.1239,-1.6137143574156703,-0.18202818930149078,1.959851622581482,-1.938378095626831,0.13676507771015167,2.2095999717712402,4.790471988707342,0.0,0.30035600066185,-1.596893612538473,0.0,-0.003391228849068284,0.7422307729721069,0.0001248392218258232,-0.09904206544160843,0.8927150964736938,-0.001816618605516851,-0.17897379398345947
935.0,8190.0,2.482,-0.3643,8.1392,-0.0484,-0.1526,-0.1239,-1.6143647632994593,-0.17819935083389282,1.9369171857833862,-1.9377654790878296,0.1438375562429428,2.1764793395996094,4.7904556197817705,0.0,0.303793728351593,-1.5969060103045862,0.0,-0.0027467876207083464,0.742250919342041,0.00010962459782604128,-0.10184171050786972,0.8927109241485596,-0.0015110247768461704,-0.16564787924289703
935.0,8190.0,2.482,-0.3643,8.1392,-0.0484,-0.1526,-0.1239,-1.615533014337057,-0.1730131059885025,1.9752652645111084,-1.9368354082107544,0.15780803561210632,2.2754828929901123,4.790480266302385,0.0,0.2903319001197815,-1.5969060103045862,0.0,-0.020204715430736542,0.7422313094139099,5.8495908888289705e-05,-0.10621844977140427,0.8927920460700989,-0.000786853430327028,-0.14830057322978973
935.0,8190.0,2.482,-0.3643,8.1392,-0.0484,-0.1526,-0.1239,-1.6165954075255335,-0.18160080909729004,1.928821086883545,-1.9358563423156738,0.1683235615491867,2.25691556930542,4.79049629995183,0.0,0.3008217513561249,-1.5969298521624964,0.0,0.00579438591375947,0.7422553896903992,4.0142727812053636e-05,-0.10047022998332977,0.8927715420722961,-0.00041275619878433645,-0.22165000438690186
935.0,8190.0,2.482,-0.3643,8.1392,-0.0484,-0.1526,-0.1239,-1.6173268757262171,-0.19131118059158325,1.9519168138504028,-1.9351933002471924,0.16987037658691406,2.2656137943267822,4.790428067534723,0.0,0.30400213599205017,-1.5969098250018519,0.0,-0.003389354795217514,0.7422431707382202,3.6851470213150606e-05,-0.09329749643802643,0.8927395343780518,-0.00033571210224181414,-0.12494252622127533
935.0,8190.0,2.482,-0.3643,8.1392,-0.0484,-0.1526,-0.1239,-1.618575235406393,-0.2026297003030777,1.9381341934204102,-1.9341025352478027,0.1742822825908661,2.207817792892456,4.79047608652667,0.0,0.30186736583709717,-1.596893612538473,0.0,-0.020359843969345093,0.7421222925186157,2.22397648030892e-06,-0.09753240644931793,0.8927795886993408,-0.0002623042091727257,-0.1335812658071518
935.0,8190.0,2.482,-0.3643,8.1392,-0.0484,-0.1526,-0.1239,-1.6197463474669398,-0.20152296125888824,1.9542499780654907,-1.933027744293213,0.18197456002235413,2.2772090435028076,4.790492507606306,0.0,0.3051416873931885,-1.5969017187701624,0.0,-0.0006102931220084429,0.7421870231628418,6.190520318583026e-10,-0.1078818142414093,0.892727255821228,-6.64607432554476e-05,-0.17307475209236145
940.0,891.0,1.8861,-0.262,9.1854,-0.0637,-0.0215,-0.1165,-1.6209169826903285,-0.1951238065958023,1.944274663925171,-1.9318205118179321,0.1947665512561798,2.3225343227386475,4.790476071625509,0.0,0.31069695949554443,-1.596921745930807,0.0,-0.013632853515446186,0.7421870231628418,1.7231539545942143e-13,-0.11722627282142639,0.8927314877510071,-0.0002146728802472353,-0.16488566994667053
940.0,891.0,1.8861,-0.262,9.1854,-0.0637,-0.0215,-0.1165,-1.6217323742308558,-0.19631776213645935,1.9896295070648193,-1.930984616279602,0.20321451127529144,2.3187415599823,4.790488335281172,0.0,0.30374711751937866,-1.5968659559832972,0.0,-0.004563100170344114,0.7421989440917969,7.346076405937763e-16,-0.09753793478012085,0.8927555084228516,-0.0006980515317991376,-0.20962169766426086
940.0,891.0,1.8861,-0.262,9.1854,-0.0637,-0.0215,-0.1165,-1.6229554615416468,-0.20125338435173035,2.012528419494629,-1.9298384189605713,0.20978741347789764,2.2922005653381348,4.790439675539293,0.0,0.3074982762336731,-1.596893612538473,0.0,-0.021340884268283844,0.7422792315483093,2.0448075348312183e-19,-0.09232835471630096,0.8927395343780518,-0.0005731621058657765,-0.16302552819252014
