ramyac6/ROB537/final_project/csv/all/bad_61.csv
tof_0,tof_1,accelx,accely,accelz,gyrox,gyroy,gyroz,shoulder_lift_joint_position,shoulder_lift_joint_velocity,shoulder_lift_joint_effort,elbow_joint_position,elbow_joint_velocity,elbow_joint_effort,wrist_1_joint_position,wrist_1_joint_velocity,wrist_1_joint_effort,wrist_2_joint_position,wrist_2_joint_velocity,wrist_2_joint_effort,wrist_3_joint_position,wrist_3_joint_velocity,wrist_3_joint_effort,shoulder_pan_joint_position,shoulder_pan_joint_velocity,shoulder_pan_joint_effort
654.0,685.0,-3.1555,-0.1675,9.2782,-0.0425,0.0234,-0.1165,-2.140395303765768,0.0,4.092698574066162,-1.6568965911865234,-0.0,1.7526800632476807,5.609452891140737,-0.0,0.24428993463516235,-1.5349190870868128,0.0,-0.008521702140569687,0.8021538257598877,-0.0,-0.016525201499462128,0.8724849224090576,0.0,-0.0006745427381247282
654.0,685.0,-3.1555,-0.1675,9.2782,-0.0425,0.0234,-0.1165,-2.140423437158102,0.0,4.068310737609863,-1.6569088697433472,-0.0,1.7529042959213257,5.609432983189382,-0.0,0.233737051486969,-1.5349190870868128,0.0,-0.0030169030651450157,0.8021254539489746,-0.0,0.012254774570465088,0.8725533485412598,0.0,0.01018074806779623
654.0,685.0,-3.1555,-0.1675,9.2782,-0.0425,0.0234,-0.1165,-2.140435834924215,0.0,4.086152076721191,-1.6568886041641235,-0.0,1.7616997957229614,5.609432983189382,-0.0,0.24254561960697174,-1.5348995367633265,0.0,-0.010475442744791508,0.8022059202194214,-0.0,0.004464547615498304,0.8725377917289734,0.0,0.053272999823093414
654.0,685.0,-3.1555,-0.1675,9.2782,-0.0425,0.0234,-0.1165,-2.1403914890685023,0.0,4.069575309753418,-1.6568886041641235,-0.0,1.7506113052368164,5.609425055771627,-0.0,0.2337648868560791,-1.534942928944723,0.0,-0.0041968077421188354,0.8021735548973083,-0.0,0.00037977390456944704,0.8725050687789917,0.0,-0.008412795141339302
654.0,685.0,-3.1555,-0.1675,9.2782,-0.0425,0.0234,-0.1165,-2.1403829059996546,0.0,4.098246097564697,-1.6569006443023682,-0.0,1.740816593170166,5.609481024533071,-0.0,0.22944310307502747,-1.5348995367633265,0.0,-0.01943395659327507,0.8021697998046875,-0.0,-0.013312576338648796,0.8725296258926392,0.0,0.03986175358295441
654.0,685.0,-3.1555,-0.1675,9.2782,-0.0425,0.0234,-0.1165,-2.140379568139547,0.0,4.096330642700195,-1.6569170951843262,-0.0,1.7272820472717285,5.609432983189382,-0.0,0.23642686009407043,-1.5348995367633265,0.0,-0.021881818771362305,0.8021735548973083,-0.0,-0.008496495895087719,0.8725574612617493,0.0,-0.019599469378590584
654.0,685.0,-3.1555,-0.1675,9.2782,-0.0425,0.0234,-0.1165,-2.140411516229147,0.0,4.057220458984375,-1.6568922996520996,-0.0,1.748584270477295,5.609465110092916,-0.0,0.24164840579032898,-1.5349434057818812,0.0,-0.02230343595147133,0.8021697998046875,-0.0,0.009681012481451035,0.8725214004516602,0.0,-0.020558077841997147
654.0,685.0,-3.1555,-0.1675,9.2782,-0.0425,0.0234,-0.1165,-2.1404277286925257,0.0,4.103257656097412,-1.6568844318389893,-0.0,1.752950668334961,5.609489071160116,-0.0,0.24369478225708008,-1.534931484852926,0.0,-0.02061980776488781,0.8021735548973083,-0.0,0.0029429811984300613,0.8725091814994812,0.0,-0.024747466668486595
654.0,685.0,-3.1555,-0.1675,9.2782,-0.0425,0.0234,-0.1165,-2.1403829059996546,0.0,4.086564540863037,-1.6568845510482788,-0.0,1.751721739768982,5.609444963722982,-0.0,0.23095497488975525,-1.5348952452289026,0.0,-0.011571422219276428,0.8022058606147766,-0.0,-0.0018839964177459478,0.87253737449646,0.0,0.0018793093040585518
642.0,665.0,-3.1771,-0.1711,9.3135,-0.0342,0.031,-0.1106,-2.140407224694723,0.0,4.059231758117676,-1.6569253206253052,-0.0,1.778304934501648,5.609465110092916,-0.0,0.2260628193616867,-1.5349391142474573,0.0,-0.009365184232592583,0.8022018074989319,-0.0,-0.013321521691977978,0.8725410103797913,0.0,0.0017060418613255024
642.0,665.0,-3.1771,-0.1711,9.3135,-0.0342,0.031,-0.1106,-2.140407224694723,0.0,4.090758800506592,-1.6569253206253052,-0.0,1.753941535949707,5.609461116581716,-0.0,0.24359172582626343,-1.5349109808551233,0.0,-0.009573733434081078,0.802213728427887,-0.0,-0.000199104193598032,0.8725414872169495,0.0,0.07823129743337631
642.0,665.0,-3.1771,-0.1711,9.3135,-0.0342,0.031,-0.1106,-2.140407224694723,0.0,4.0392913818359375,-1.6568684577941895,-0.0,1.7650266885757446,5.609444844513693,-0.0,0.24393217265605927,-1.534931484852926,0.0,-0.012426765635609627,0.8022259473800659,-0.0,0.003176132682710886,0.8725337386131287,0.0,-0.04258732497692108
642.0,665.0,-3.1771,-0.1711,9.3135,-0.0342,0.031,-0.1106,-2.1404315433897914,0.0,4.137076377868652,-1.6568808555603027,-0.0,1.7548327445983887,5.609405147820272,-0.0,0.2532777190208435,-1.5348671118365687,0.0,-0.01094606053084135,0.8022058606147766,-0.0,0.0076970322988927364,0.8725292682647705,0.0,-0.04000137746334076
642.0,665.0,-3.1771,-0.1711,9.3135,-0.0342,0.031,-0.1106,-2.1404196224608363,0.0,4.079306125640869,-1.6568968296051025,-0.0,1.7899267673492432,5.609492945462026,-0.0,0.22954317927360535,-1.534875218068258,0.0,-0.0009715938940644264,0.8021296262741089,-0.0,-0.005566821433603764,0.8725091218948364,0.0,0.003126581199467182
642.0,665.0,-3.1771,-0.1711,9.3135,-0.0342,0.031,-0.1106,-2.1403914890685023,0.0,4.083487510681152,-1.6569253206253052,-0.0,1.726454257965088,5.609465169697561,-0.0,0.23939800262451172,-1.5349114576922815,0.0,0.0008172602392733097,0.8021779656410217,-0.0,0.009024037048220634,0.8725733757019043,0.0,-0.035220466554164886
642.0,665.0,-3.1771,-0.1711,9.3135,-0.0342,0.031,-0.1106,-2.140467783013815,0.0,4.063783168792725,-1.6569005250930786,-0.0,1.7503137588500977,5.609469163208761,-0.0,0.23506328463554382,-1.534891430531637,0.0,-0.01675902120769024,0.8022579550743103,-0.0,-0.004844533279538155,0.8725214004516602,0.0,0.0259608943015337
642.0,665.0,-3.1771,-0.1711,9.3135,-0.0342,0.031,-0.1106,-2.140350957910055,0.0,4.101533889770508,-1.6568845510482788,-0.0,1.7140297889709473,5.609452891140737,-0.0,0.23266151547431946,-1.534931484852926,0.0,-0.008162234909832478,0.8021657466888428,-0.0,0.006375747732818127,0.8724771738052368,0.0,0.027104172855615616
642.0,665.0,-3.1771,-0.1711,9.3135,-0.0342,0.031,-0.1106,-2.140407224694723,0.0,4.017974853515625,-1.6569286584854126,-0.0,1.7738490104675293,5.609405028610983,-0.0,0.2279118299484253,-1.5349190870868128,0.0,-0.013778407126665115,0.8022133708000183,-0.0,-0.001014789566397667,0.8725734949111938,0.0,-0.022609351202845573
642.0,665.0,-3.1771,-0.1711,9.3135,-0.0342,0.031,-0.1106,-2.1403914890685023,0.0,4.0823774337768555,-1.6569325923919678,-0.0,1.7560720443725586,5.609448897629537,-0.0,0.23980432748794556,-1.534875218068258,0.0,-0.014063844457268715,0.8021657466888428,-0.0,0.0037347902543842793,0.8725451827049255,0.0,0.016604121774435043
642.0,665.0,-3.1771,-0.1711,9.3135,-0.0342,0.031,-0.1106,-2.140407224694723,0.0,4.0632171630859375,-1.6569170951843262,-0.0,1.7703332901000977,5.609448897629537,-0.0,0.23770669102668762,-1.5348952452289026,0.0,-0.003151137614622712,0.8021738529205322,-0.0,0.009342476725578308,0.8724973201751709,0.0,-0.009751016274094582
642.0,665.0,-3.1771,-0.1711,9.3135,-0.0342,0.031,-0.1106,-2.1404038868346156,0.0,4.044648170471191,-1.6568927764892578,-0.0,1.759047508239746,5.609424936562338,-0.0,0.23968064785003662,-1.5349233786212366,0.0,-0.009645909070968628,0.8021776080131531,-0.0,0.0026013837195932865,0.8724731206893921,0.0,-0.010319707915186882
642.0,665.0,-3.1771,-0.1711,9.3135,-0.0342,0.031,-0.1106,-2.140423437158102,0.0,4.066238880157471,-1.6569006443023682,-0.0,1.7473042011260986,5.609448897629537,-0.0,0.2249952107667923,-1.5348709265338343,0.0,-0.004701163619756699,0.8021255135536194,-0.0,-0.0053564319387078285,0.8724731206893921,0.0,0.00603911466896534
642.0,665.0,-3.1771,-0.1711,9.3135,-0.0342,0.031,-0.1106,-2.140435834924215,0.0,4.024886608123779,-1.6569253206253052,-0.0,1.7152280807495117,5.609448957234182,-0.0,0.23380984365940094,-1.5349510351764124,0.0,-0.023478731513023376,0.8022336959838867,-0.0,-0.0026545445434749126,0.8724890947341919,0.0,0.006723727099597454
642.0,665.0,-3.1771,-0.1711,9.3135,-0.0342,0.031,-0.1106,-2.140395303765768,0.0,4.0652360916137695,-1.656920313835144,-0.0,1.6963601112365723,5.609405147820272,-0.0,0.24025723338127136,-1.5349553267108362,0.0,-0.0003367895260453224,0.8021976947784424,-0.0,0.012243369594216347,0.8725214004516602,0.0,0.031626615673303604
642.0,665.0,-3.1771,-0.1711,9.3135,-0.0342,0.031,-0.1106,-2.140411516229147,0.0,4.074128150939941,-1.6569325923919678,-0.0,1.7475109100341797,5.609436976700582,-0.0,0.23140385746955872,-1.534891430531637,0.0,-0.01745438203215599,0.8022134304046631,-0.0,0.0009243015665560961,0.872501015663147,0.0,0.05910627543926239
642.0,665.0,-3.1771,-0.1711,9.3135,-0.0342,0.031,-0.1106,-2.14042391399526,0.0,4.100339412689209,-1.656912922859192,-0.0,1.7657889127731323,5.609469103604116,-0.0,0.241041898727417,-1.5349352995501917,0.0,-0.026700258255004883,0.8021858334541321,-0.0,0.00694693299010396,0.8725050687789917,0.0,-0.021302781999111176
653.0,697.0,-3.1771,-0.1711,9.3135,-0.0342,0.031,-0.1106,-2.140395303765768,0.0,4.090785503387451,-1.6568968296051025,-0.0,1.7828850746154785,5.609452891140737,-0.0,0.24095261096954346,-1.5348995367633265,0.0,-0.0156418327242136,0.8022140264511108,-0.0,0.011240572668612003,0.8724889755249023,0.0,0.017813121899962425
653.0,697.0,-3.1549,-0.1573,9.2794,-0.0342,0.0237,-0.1081,-2.140407701531881,0.0,4.048437595367432,-1.6569088697433472,-0.0,1.7524974346160889,5.609436976700582,-0.0,0.24461066722869873,-1.5348876158343714,0.0,-0.0150863416492939,0.8021660447120667,-0.0,-0.0016937772743403912,0.8725214004516602,0.0,2.3334287106990814e-05
653.0,697.0,-3.1549,-0.1573,9.2794,-0.0342,0.0237,-0.1081,-2.140395303765768,0.0,4.070911884307861,-1.656936764717102,-0.0,1.6856482028961182,5.609448897629537,-0.0,0.23774287104606628,-1.5349391142474573,0.0,-0.012078002095222473,0.8021578788757324,-0.0,-0.005194264929741621,0.8725214004516602,0.0,0.01400444284081459
653.0,697.0,-3.1549,-0.1573,9.2794,-0.0342,0.0237,-0.1081,-2.140423437158102,0.0,4.108372211456299,-1.6568886041641235,-0.0,1.8007748126983643,5.609436976700582,-0.0,0.24705804884433746,-1.5348833242999476,0.0,-0.006861923262476921,0.8022055625915527,-0.0,0.018908482044935226,0.8725533485412598,0.0,-0.04315835237503052
653.0,697.0,-3.1549,-0.1573,9.2794,-0.0342,0.0237,-0.1081,-2.1404196224608363,0.0,4.078929424285889,-1.6568968296051025,-0.0,1.7386175394058228,5.609436976700582,-0.0,0.24147328734397888,-1.534879509602682,0.0,-0.015240084379911423,0.8021973967552185,-0.0,-0.001691565033979714,0.872545599937439,0.0,0.0058605000376701355
653.0,697.0,-3.1549,-0.1573,9.2794,-0.0342,0.0237,-0.1081,-2.1404315433897914,0.0,4.094210147857666,-1.6569408178329468,-0.0,1.7301504611968994,5.609413015633383,-0.0,0.2422892153263092,-1.5349352995501917,0.0,-0.0039804186671972275,0.8022018671035767,-0.0,0.005636012181639671,0.8725132346153259,0.0,0.026326922699809074
653.0,697.0,-3.1549,-0.1573,9.2794,-0.0342,0.0237,-0.1081,-2.1404158077635707,0.0,4.053573131561279,-1.6568927764892578,-0.0,1.7661385536193848,5.609440970211782,-0.0,0.23965659737586975,-1.5349071661578577,0.0,-0.005989178083837032,0.8021776080131531,-0.0,0.002362491562962532,0.8725254535675049,0.0,0.023940138518810272
653.0,697.0,-3.1549,-0.1573,9.2794,-0.0342,0.0237,-0.1081,-2.1404525242247523,0.0,4.105630874633789,-1.6568927764892578,-0.0,1.7559809684753418,5.609452891140737,-0.0,0.23517140746116638,-1.534891430531637,0.0,-0.014131980016827583,0.8021977543830872,-0.0,-0.007129667326807976,0.8725533485412598,0.0,0.0026328731328248978
653.0,697.0,-3.1549,-0.1573,9.2794,-0.0342,0.0237,-0.1081,-2.1403590641417445,0.0,4.048560619354248,-1.656928539276123,-0.0,1.7464344501495361,5.609452891140737,-0.0,0.2400188446044922,-1.5349352995501917,0.0,-0.008527310565114021,0.8022136688232422,-0.0,0.0008049916941672564,0.8725214004516602,0.0,0.05200905725359917
653.0,697.0,-3.1549,-0.1573,9.2794,-0.0342,0.0237,-0.1081,-2.140407224694723,0.0,4.090227127075195,-1.6569088697433472,-0.0,1.7265949249267578,5.609440970211782,-0.0,0.23348191380500793,-1.534875218068258,0.0,-0.004913231357932091,0.8022497892379761,-0.0,0.0045423610135912895,0.8725574612617493,0.0,0.033030346035957336
653.0,697.0,-3.1549,-0.1573,9.2794,-0.0342,0.0237,-0.1081,-2.1403914890685023,0.0,4.071529388427734,-1.6569092273712158,-0.0,1.7191157341003418,5.609448897629537,-0.0,0.2276042103767395,-1.5348952452289026,0.0,-0.010737208649516106,0.8021697998046875,-0.0,0.0012686054687947035,0.8725333213806152,0.0,0.0012415368109941483
653.0,697.0,-3.1549,-0.1573,9.2794,-0.0342,0.0237,-0.1081,-2.1404277286925257,0.0,4.117595672607422,-1.656868577003479,-0.0,1.7355057001113892,5.609424936562338,-0.0,0.25189217925071716,-1.5348876158343714,0.0,-0.01322854682803154,0.8022378087043762,-0.0,-0.0023429272696375847,0.8725414276123047,0.0,0.036792512983083725
653.0,697.0,-3.1549,-0.1573,9.2794,-0.0342,0.0237,-0.1081,-2.140411516229147,0.0,4.050867080688477,-1.6569010019302368,-0.0,1.7159841060638428,5.609436976700582,-0.0,0.2573470175266266,-1.5349391142474573,0.0,-0.019676759839057922,0.8021857738494873,-0.0,0.016989868134260178,0.8725615739822388,0.0,0.017865346744656563
653.0,697.0,-3.1549,-0.1573,9.2794,-0.0342,0.0237,-0.1081,-2.1404558620848597,0.0,4.070265769958496,-1.6569325923919678,-0.0,1.7384264469146729,5.609428930073538,-0.0,0.25129127502441406,-1.534891430531637,0.0,-0.01521290186792612,0.8021776080131531,-0.0,0.00772379245609045,0.8725009560585022,0.0,0.0009840074926614761
653.0,697.0,-3.1549,-0.1573,9.2794,-0.0342,0.0237,-0.1081,-2.140419145623678,0.0,4.073838233947754,-1.6569409370422363,-0.0,1.7427597045898438,5.609405147820272,-0.0,0.22986066341400146,-1.5349071661578577,0.0,-0.011305257678031921,0.8021857738494873,-0.0,-0.0009527895599603653,0.8725652694702148,0.0,0.050850413739681244
653.0,697.0,-3.1549,-0.1573,9.2794,-0.0342,0.0237,-0.1081,-2.140440126458639,0.0,4.026091575622559,-1.6568927764892578,-0.0,1.76478910446167,5.609436976700582,-0.0,0.26229411363601685,-1.5349352995501917,0.0,-0.0104871466755867,0.8022018074989319,-0.0,0.019931593909859657,0.8725296258926392,0.0,-0.01976098120212555
653.0,697.0,-3.1549,-0.1573,9.2794,-0.0342,0.0237,-0.1081,-2.1403995953001917,0.0,4.095623016357422,-1.6568924188613892,-0.0,1.7405023574829102,5.609440970211782,-0.0,0.2295912206172943,-1.5349472204791468,0.0,-0.0015609245747327805,0.8021617531776428,-0.0,0.0050447494722902775,0.872501015663147,0.0,0.02500177174806595
653.0,697.0,-3.1549,-0.1573,9.2794,-0.0342,0.0237,-0.1081,-2.1404038868346156,0.0,4.061119079589844,-1.6568845510482788,-0.0,1.720963954925537,5.609465110092916,-0.0,0.24154627323150635,-1.5349391142474573,0.0,-0.02041718177497387,0.8022701144218445,-0.0,-0.00784553587436676,0.8724973201751709,0.0,0.012564502656459808
646.0,696.0,-3.1585,-0.1681,9.2315,-0.0394,0.0257,-0.1194,-2.1404277286925257,0.0,4.051652908325195,-1.6568845510482788,-0.0,1.756138801574707,5.609476971417227,-0.0,0.23906467854976654,-1.5348952452289026,0.0,-0.008879466913640499,0.8021937012672424,-0.0,-0.007908971980214119,0.8725574016571045,0.0,-0.011958196759223938
646.0,696.0,-3.1585,-0.1681,9.2315,-0.0394,0.0257,-0.1194,-2.1404315433897914,0.0,4.05533504486084,-1.6569006443023682,-0.0,1.752173662185669,5.609452891140737,-0.0,0.24330011010169983,-1.5349233786212366,0.0,-0.015570104122161865,0.8022177219390869,-0.0,0.006601558066904545,0.8725574612617493,0.0,0.02441077120602131
646.0,696.0,-3.1585,-0.1681,9.2315,-0.0394,0.0257,-0.1194,-2.1404644451537074,0.0,4.069694519042969,-1.6568927764892578,-0.0,1.7464416027069092,5.609428930073538,-0.0,0.23226097226142883,-1.5349071661578577,0.0,0.0016952769365161657,0.8021619915962219,-0.0,-0.006936483085155487,0.8725132346153259,0.0,0.007825199514627457
646.0,696.0,-3.1585,-0.1681,9.2315,-0.0394,0.0257,-0.1194,-2.1404034099974574,0.0,4.0766730308532715,-1.656921148300171,-0.0,1.7361886501312256,5.609465110092916,-0.0,0.24326936900615692,-1.534942928944723,0.0,-0.01883315108716488,0.802237868309021,-0.0,0.007359342649579048,0.8725214004516602,0.0,-0.06393646448850632
646.0,696.0,-3.1585,-0.1681,9.2315,-0.0394,0.0257,-0.1194,-2.140423437158102,0.0,4.1006669998168945,-1.6569170951843262,-0.0,1.8012096881866455,5.609440851002493,-0.0,0.24737128615379333,-1.534903351460592,0.0,-0.01041349209845066,0.8021697998046875,-0.0,-0.0019432274857535958,0.8725296258926392,0.0,-0.021682942286133766
646.0,696.0,-3.1585,-0.1681,9.2315,-0.0394,0.0257,-0.1194,-2.140440126458639,0.0,4.085955619812012,-1.6569451093673706,-0.0,1.776331901550293,5.609405147820272,-0.0,0.2408212125301361,-1.534891430531637,0.0,-0.0016466204542666674,0.8022018074989319,-0.0,0.0061741480603814125,0.8724969029426575,0.0,-0.03769060596823692
646.0,696.0,-3.1585,-0.1681,9.2315,-0.0394,0.0257,-0.1194,-2.1404439411559046,0.0,4.039676666259766,-1.6568565368652344,-0.0,1.7126095294952393,5.609405028610983,-0.0,0.24990957975387573,-1.5349510351764124,0.0,-0.020135467872023582,0.802161693572998,-0.0,0.0028927139937877655,0.8725173473358154,0.0,-0.024667225778102875
646.0,696.0,-3.1585,-0.1681,9.2315,-0.0394,0.0257,-0.1194,-2.140411516229147,0.0,4.051496505737305,-1.6569325923919678,-0.0,1.753075361251831,5.609432983189382,-0.0,0.2410878837108612,-1.5348995367633265,0.0,0.0025389031507074833,0.8021014928817749,-0.0,-0.0026457759086042643,0.8725615739822388,0.0,0.02274920605123043
646.0,696.0,-3.1585,-0.1681,9.2315,-0.0394,0.0257,-0.1194,-2.140367647210592,0.0,4.030685901641846,-1.6568684577941895,-0.0,1.7234618663787842,5.609489011555471,-0.0,0.24135273694992065,-1.534891430531637,0.0,-0.013614058494567871,0.8021697402000427,-0.0,0.014412881806492805,0.8725254535675049,0.0,0.0224737711250782
646.0,696.0,-3.1585,-0.1681,9.2315,-0.0394,0.0257,-0.1194,-2.1404034099974574,0.0,4.1020355224609375,-1.656904697418213,-0.0,1.7615537643432617,5.609440851002493,-0.0,0.23379258811473846,-1.5349114576922815,0.0,-0.027091167867183685,0.8021538257598877,-0.0,0.0053406525403261185,0.8725574016571045,0.0,0.010074383579194546
646.0,696.0,-3.1585,-0.1681,9.2315,-0.0394,0.0257,-0.1194,-2.1404315433897914,0.0,4.095298767089844,-1.6569490432739258,-0.0,1.7563402652740479,5.609489011555471,-0.0,0.24885869026184082,-1.5348551909076136,0.0,-0.012536745518445969,0.8022096753120422,-0.0,-0.0001688679913058877,0.8725250363349915,0.0,0.010756263509392738
646.0,696.0,-3.1585,-0.1681,9.2315,-0.0394,0.0257,-0.1194,-2.1404196224608363,0.0,4.074023723602295,-1.656921148300171,-0.0,1.748471975326538,5.609456884651937,-0.0,0.23517858982086182,-1.5348790327655237,0.0,-0.004186118952929974,0.8022058606147766,-0.0,-0.007759496569633484,0.8725091814994812,0.0,0.004743857309222221
646.0,696.0,-3.1585,-0.1681,9.2315,-0.0394,0.0257,-0.1194,-2.140452047387594,0.0,4.058645725250244,-1.656904697418213,-0.0,1.7352604866027832,5.609432983189382,-0.0,0.23417091369628906,-1.534875218068258,0.0,-0.02199987694621086,0.8021817207336426,-0.0,-0.00542421406134963,0.8725373148918152,0.0,0.01168063748627901
646.0,696.0,-3.1585,-0.1681,9.2315,-0.0394,0.0257,-0.1194,-2.140395303765768,0.0,4.071715354919434,-1.6568926572799683,-0.0,1.7590736150741577,5.609432983189382,-0.0,0.23237337172031403,-1.5349391142474573,0.0,-0.020822590216994286,0.8021456599235535,-0.0,0.003966900520026684,0.8725414276123047,0.0,0.017394771799445152
646.0,696.0,-3.1585,-0.1681,9.2315,-0.0394,0.0257,-0.1194,-2.140468259850973,0.0,4.07777738571167,-1.656921148300171,-0.0,1.7654176950454712,5.609409141331472,-0.0,0.2489180564880371,-1.5349310080157679,0.0,-0.018249303102493286,0.8021936416625977,-0.0,-0.011942886747419834,0.8725172877311707,0.0,0.035836949944496155
646.0,696.0,-3.1585,-0.1681,9.2315,-0.0394,0.0257,-0.1194,-2.1403752766051234,0.0,4.035312175750732,-1.6569409370422363,-0.0,1.7014193534851074,5.609469103604116,-0.0,0.23898160457611084,-1.5349152723895472,0.0,-0.012777937576174736,0.8021657466888428,-0.0,0.0031212016474455595,0.8725296258926392,0.0,-0.04278441146016121
646.0,696.0,-3.1585,-0.1681,9.2315,-0.0394,0.0257,-0.1194,-2.1404439411559046,0.0,4.079178333282471,-1.6569212675094604,-0.0,1.752593755722046,5.609421062260427,-0.0,0.24416835606098175,-1.5349310080157679,0.0,-0.004404005594551563,0.8021895885467529,-0.0,0.002575269667431712,0.8725050091743469,0.0,-0.004330183379352093
620.0,692.0,-3.1585,-0.1681,9.2315,-0.0394,0.0257,-0.1194,-2.1403752766051234,0.0,4.069418907165527,-1.6569366455078125,-0.0,1.7671180963516235,5.609417068749227,-0.0,0.23854957520961761,-1.5348995367633265,0.0,-0.009057745337486267,0.8021497130393982,-0.0,0.002304223831743002,0.8725574612617493,0.0,0.0435129851102829
620.0,692.0,-3.1944,-0.125,9.2931,-0.0351,0.0266,-0.115,-2.1403991184630335,0.0,4.077540397644043,-1.6568965911865234,-0.0,1.7649853229522705,5.609452891140737,-0.0,0.23230722546577454,-1.5348995367633265,0.0,-0.027662044391036034,0.8021697998046875,-0.0,0.0002538117114454508,0.8724973201751709,0.0,-0.02370484545826912
620.0,692.0,-3.1944,-0.125,9.2931,-0.0351,0.0266,-0.115,-2.1404439411559046,0.0,4.0723676681518555,-1.6569006443023682,-0.0,1.787132740020752,5.609481024533071,-0.0,0.23613175749778748,-1.5349352995501917,0.0,-0.02224564552307129,0.8021855354309082,-0.0,0.0032412074506282806,0.8725296258926392,0.0,-0.014421351253986359
620.0,692.0,-3.1944,-0.125,9.2931,-0.0351,0.0266,-0.115,-2.1403995953001917,0.0,4.064066410064697,-1.6569691896438599,-0.0,1.7754565477371216,5.609472977906027,-0.0,0.24778762459754944,-1.5348876158343714,0.0,-0.015226900577545166,0.8021976947784424,-0.0,0.007492346223443747,0.8725537657737732,0.0,0.015507028438150883
620.0,692.0,-3.1944,-0.125,9.2931,-0.0351,0.0266,-0.115,-2.1403752766051234,0.0,4.095154285430908,-1.6569575071334839,-0.0,1.7607731819152832,5.609432983189382,-0.0,0.23661509156227112,-1.534891430531637,0.0,-0.023718785494565964,0.8022096157073975,-0.0,-0.008014662191271782,0.8725533485412598,0.0,0.02758384309709072
620.0,692.0,-3.1944,-0.125,9.2931,-0.0351,0.0266,-0.115,-2.140395303765768,0.0,4.063066482543945,-1.6568922996520996,-0.0,1.7833445072174072,5.609460818558492,-0.0,0.23057162761688232,-1.534903351460592,0.0,-0.018228739500045776,0.8021976947784424,-0.0,0.008737011812627316,0.872545599937439,0.0,-0.024761231616139412
620.0,692.0,-3.1944,-0.125,9.2931,-0.0351,0.0266,-0.115,-2.140383382836813,0.0,4.1108012199401855,-1.6569010019302368,-0.0,1.7328221797943115,5.609408902912893,-0.0,0.2329905927181244,-1.534891430531637,0.0,-0.018453167751431465,0.8021613359451294,-0.0,0.006772574968636036,0.8725254535675049,0.0,-0.018618153408169746
620.0,692.0,-3.1944,-0.125,9.2931,-0.0351,0.0266,-0.115,-2.1403991184630335,0.0,4.0878424644470215,-1.6569325923919678,-0.0,1.7610981464385986,5.609465110092916,-0.0,0.25458115339279175,-1.5349310080157679,0.0,-0.01725906692445278,0.8021738529205322,-0.0,0.0011408062418922782,0.8725172877311707,0.0,0.005810694769024849
620.0,692.0,-3.1944,-0.125,9.2931,-0.0351,0.0266,-0.115,-2.140407224694723,0.0,4.034876823425293,-1.6569575071334839,-0.0,1.7382152080535889,5.609424936562338,-0.0,0.22904527187347412,-1.5349071661578577,0.0,-0.019152874127030373,0.802213728427887,-0.0,-0.011656639166176319,0.8725091218948364,0.0,0.039063431322574615
620.0,692.0,-3.1944,-0.125,9.2931,-0.0351,0.0266,-0.115,-2.140411516229147,0.0,4.054454326629639,-1.6569006443023682,-0.0,1.771451711654663,5.609425055771627,-0.0,0.24234196543693542,-1.534891430531637,0.0,-0.016818882897496223,0.8022499680519104,-0.0,0.009486349299550056,0.8725414276123047,0.0,-0.031306155025959015
620.0,692.0,-3.1944,-0.125,9.2931,-0.0351,0.0266,-0.115,-2.140428205529684,0.0,4.0897321701049805,-1.6569490432739258,-0.0,1.7519292831420898,5.609456944256582,-0.0,0.2389826625585556,-1.5348714033709925,0.0,-0.022155355662107468,0.8021817207336426,-0.0,-0.008169710636138916,0.8725615739822388,0.0,0.003910808824002743
620.0,692.0,-3.1944,-0.125,9.2931,-0.0351,0.0266,-0.115,-2.1403752766051234,0.0,4.066077709197998,-1.6568927764892578,-0.0,1.7491395473480225,5.609493064671316,-0.0,0.23868900537490845,-1.534891430531637,0.0,-0.016756778582930565,0.8021576404571533,-0.0,0.006725218612700701,0.8725255131721497,0.0,-0.016923870891332626
620.0,692.0,-3.1944,-0.125,9.2931,-0.0351,0.0266,-0.115,-2.1403914890685023,0.0,4.06437873840332,-1.656928539276123,-0.0,1.7452465295791626,5.6093928692634485,-0.0,0.22335770726203918,-1.5349391142474573,0.0,-0.015149365179240704,0.8021898865699768,-0.0,-0.002069585956633091,0.8725333213806152,0.0,0.04024866223335266
620.0,692.0,-3.1944,-0.125,9.2931,-0.0351,0.0266,-0.115,-2.140419145623678,0.0,4.041949272155762,-1.6569088697433472,-0.0,1.7590123414993286,5.609432983189382,-0.0,0.2389012724161148,-1.5349271933185022,0.0,-0.00913116056472063,0.8021416664123535,-0.0,0.00396640133112669,0.8725414276123047,0.0,0.017048707231879234
620.0,692.0,-3.1944,-0.125,9.2931,-0.0351,0.0266,-0.115,-2.1403829059996546,0.0,4.060995578765869,-1.6568927764892578,-0.0,1.786015272140503,5.609405088215627,-0.0,0.23482123017311096,-1.5349190870868128,0.0,-0.014667060226202011,0.8021697998046875,-0.0,0.010555831715464592,0.8725050687789917,0.0,-0.0012249351711943746
620.0,692.0,-3.1944,-0.125,9.2931,-0.0351,0.0266,-0.115,-2.140435834924215,0.0,4.077658653259277,-1.6569170951843262,-0.0,1.7484917640686035,5.609493124275961,-0.0,0.24615027010440826,-1.5348709265338343,0.0,-0.009843908250331879,0.8022618889808655,-0.0,0.0011587338522076607,0.8724448084831238,0.0,0.0022764750756323338
620.0,692.0,-3.1944,-0.125,9.2931,-0.0351,0.0266,-0.115,-2.1403752766051234,0.0,4.099723815917969,-1.6569491624832153,-0.0,1.7501888275146484,5.609440970211782,-0.0,0.24768725037574768,-1.5348709265338343,0.0,-0.020859060809016228,0.8021256923675537,-0.0,0.0031698541715741158,0.87253737449646,0.0,-0.0037778771948069334
647.0,675.0,-3.1944,-0.125,9.2931,-0.0351,0.0266,-0.115,-2.140435834924215,0.0,4.088698387145996,-1.6568845510482788,-0.0,1.7351396083831787,5.609436976700582,-0.0,0.2413577437400818,-1.5348628203021448,0.0,-0.014844423159956932,0.8021776676177979,-0.0,0.00995972566306591,0.8724931478500366,0.0,0.022128919139504433
647.0,675.0,-1.8933,-3.4044,8.2325,-0.0675,0.111,-0.1518,-2.140452047387594,0.0,4.0793633460998535,-1.6569573879241943,-0.0,1.7612497806549072,5.6093888757522485,-0.0,0.2439742386341095,-1.534907642995016,0.0,-0.005719595588743687,0.8021655082702637,-0.0,0.008510097861289978,0.8725336790084839,0.0,-0.012735031545162201
647.0,675.0,-1.8933,-3.4044,8.2325,-0.0675,0.111,-0.1518,-2.1404153309264125,0.0,4.079759120941162,-1.656876802444458,-0.0,1.7576955556869507,5.609404969006338,-0.0,0.25175920128822327,-1.5348995367633265,0.0,-0.018119418993592262,0.802173912525177,-0.0,0.0036451872438192368,0.8725132942199707,0.0,0.011996578425168991
647.0,675.0,-1.8933,-3.4044,8.2325,-0.0675,0.111,-0.1518,-2.1403595409789027,0.0,4.078549385070801,-1.656904697418213,-0.0,1.7448221445083618,5.609456884651937,-0.0,0.24801528453826904,-1.5348876158343714,0.0,-0.014954809099435806,0.8022098541259766,-0.0,0.005721334367990494,0.8725214004516602,0.0,-0.00979110598564148
647.0,675.0,-1.8933,-3.4044,8.2325,-0.0675,0.111,-0.1518,-2.1403871975340785,0.0,4.073968410491943,-1.6569325923919678,-0.0,1.756101131439209,5.609477031021871,-0.0,0.22858044505119324,-1.5348876158343714,0.0,-0.009622341021895409,0.8021776676177979,-0.0,-0.0010308990022167563,0.8725091218948364,0.0,0.006021097302436829
647.0,675.0,-1.8933,-3.4044,8.2325,-0.0675,0.111,-0.1518,-2.1404439411559046,0.0,4.115556716918945,-1.6569130420684814,-0.0,1.7874853610992432,5.609404969006338,-0.0,0.24688497185707092,-1.5348876158343714,0.0,-0.013332312926650047,0.8021657466888428,-0.0,0.014067880809307098,0.8725054264068604,0.0,-0.05887944623827934
647.0,675.0,-1.8933,-3.4044,8.2325,-0.0675,0.111,-0.1518,-2.1404601536192835,0.0,4.085961818695068,-1.6568726301193237,-0.0,1.7441223859786987,5.609424876957693,-0.0,0.24376192688941956,-1.5349472204791468,0.0,-0.0030847876332700253,0.802177906036377,-0.0,0.0032562334090471268,0.8725132942199707,0.0,0.026750843971967697
647.0,675.0,-1.8933,-3.4044,8.2325,-0.0675,0.111,-0.1518,-2.140423437158102,0.0,4.113021373748779,-1.6568964719772339,-0.0,1.787698745727539,5.609448897629537,-0.0,0.22848570346832275,-1.534903351460592,0.0,-0.017543883994221687,0.8022097945213318,-0.0,-0.007739042863249779,0.872545599937439,0.0,-0.028342951089143753
647.0,675.0,-1.8933,-3.4044,8.2325,-0.0675,0.111,-0.1518,-2.1404277286925257,0.0,4.05226993560791,-1.6568886041641235,-0.0,1.747525930404663,5.609424876957693,-0.0,0.2460368424654007,-1.5349310080157679,0.0,-0.009541042149066925,0.8021817207336426,-0.0,0.00305930245667696,0.8725091218948364,0.0,-0.032053664326667786
647.0,675.0,-1.8933,-3.4044,8.2325,-0.0675,0.111,-0.1518,-2.140452047387594,0.0,4.087130546569824,-1.656868577003479,-0.0,1.7586487531661987,5.609473156719961,-0.0,0.2545788586139679,-1.534879509602682,0.0,-0.022073620930314064,0.8022058010101318,-0.0,0.008291150443255901,0.8725414276123047,0.0,0.03301730006933212
647.0,675.0,-1.8933,-3.4044,8.2325,-0.0675,0.111,-0.1518,-2.1403876743712367,0.0,4.046030044555664,-1.6568803787231445,-0.0,1.7500455379486084,5.609456884651937,-0.0,0.24602261185646057,-1.5349190870868128,0.0,-0.02036467008292675,0.8021417260169983,-0.0,-0.0065793124958872795,0.8725533485412598,0.0,0.014191488735377789
647.0,675.0,-1.8933,-3.4044,8.2325,-0.0675,0.111,-0.1518,-2.140423437158102,0.0,4.0793561935424805,-1.6568968296051025,-0.0,1.7369924783706665,5.609440970211782,-0.0,0.24057909846305847,-1.5348952452289026,0.0,-0.0059399730525910854,0.8021697998046875,-0.0,0.004153675865381956,0.8724849224090576,0.0,-0.014658492989838123
647.0,675.0,-1.8933,-3.4044,8.2325,-0.0675,0.111,-0.1518,-2.1404315433897914,0.0,4.05574893951416,-1.6568845510482788,-0.0,1.7581796646118164,5.609452891140737,-0.0,0.23572149872779846,-1.5348671118365687,0.0,-0.011211737990379333,0.8021658062934875,-0.0,-0.0007756918203085661,0.8725132346153259,0.0,0.024820158258080482
647.0,675.0,-1.8933,-3.4044,8.2325,-0.0675,0.111,-0.1518,-2.1403991184630335,0.0,4.0635294914245605,-1.6569325923919678,-0.0,1.762620449066162,5.609432983189382,-0.0,0.24071943759918213,-1.534891430531637,0.0,-0.00045972270891070366,0.8022335767745972,-0.0,-0.0005927225574851036,0.8725574612617493,0.0,-0.0026734238490462303
647.0,675.0,-1.8933,-3.4044,8.2325,-0.0675,0.111,-0.1518,-2.1404277286925257,0.0,4.0247602462768555,-1.6568762063980103,-0.0,1.752309799194336,5.609485077648916,-0.0,0.24741551280021667,-1.5348871389972132,0.0,-0.02583024650812149,0.802177906036377,-0.0,0.011363191530108452,0.87253737449646,0.0,-0.05172131210565567
647.0,675.0,-1.8933,-3.4044,8.2325,-0.0675,0.111,-0.1518,-2.140407224694723,0.0,4.094189643859863,-1.6568684577941895,-0.0,1.7472131252288818,5.609452891140737,-0.0,0.232868492603302,-1.5348952452289026,0.0,-0.009215053170919418,0.802145779132843,-0.0,-0.003012188244611025,0.87253737449646,0.0,-0.0490790493786335
647.0,675.0,-1.8933,-3.4044,8.2325,-0.0675,0.111,-0.1518,-2.140407224694723,0.0,4.1264424324035645,-1.6569569110870361,-0.0,1.7249221801757812,5.609440970211782,-0.0,0.2311219871044159,-1.5349352995501917,0.0,-0.02168760634958744,0.8021738529205322,-0.0,0.010687464848160744,0.8725132942199707,0.0,0.008446389809250832
645.0,668.0,-1.8933,-3.4044,8.2325,-0.0675,0.111,-0.1518,-2.1404315433897914,0.0,4.073119163513184,-1.6569573879241943,-0.0,1.7331204414367676,5.6094610569770715,-0.0,0.24012917280197144,-1.5348876158343714,0.0,-0.011967439204454422,0.8021738529205322,-0.0,-0.005941309034824371,0.8725414276123047,0.0,-0.03762560337781906
645.0,668.0,-1.8933,-3.4044,8.2325,-0.0675,0.111,-0.1518,-2.140435834924215,0.0,4.052294731140137,-1.6569325923919678,-0.0,1.8072600364685059,5.609448897629537,-0.0,0.236741304397583,-1.534891430531637,0.0,-0.0102188466116786,0.8021857738494873,-0.0,0.02205539308488369,0.8724969029426575,0.0,-0.030753400176763535
645.0,668.0,-3.2602,-0.0987,9.2955,-0.0548,-0.0327,-0.0881,-2.1403914890685023,0.0,4.09666633605957,-1.6568845510482788,-0.0,1.7265231609344482,5.609448897629537,-0.0,0.22994551062583923,-1.5348995367633265,0.0,-0.0027059908024966717,0.8021416664123535,-0.0,-0.005924371536821127,0.8725214004516602,0.0,-0.01930917799472809
645.0,668.0,-3.2602,-0.0987,9.2955,-0.0548,-0.0327,-0.0881,-2.140440126458639,0.0,4.063460350036621,-1.6568886041641235,-0.0,1.7584452629089355,5.609485077648916,-0.0,0.22672267258167267,-1.5349190870868128,0.0,-0.013189323246479034,0.8021778464317322,-0.0,-0.0012301814276725054,0.87253737449646,0.0,0.008992226794362068
645.0,668.0,-3.2602,-0.0987,9.2955,-0.0548,-0.0327,-0.0881,-2.140423437158102,0.0,4.088724136352539,-1.6569130420684814,-0.0,1.7560255527496338,5.609432983189382,-0.0,0.25494736433029175,-1.534903351460592,0.0,-0.01656888984143734,0.8021697998046875,-0.0,0.0029303550254553556,0.872565746307373,0.0,-0.011482149362564087
645.0,668.0,-3.2602,-0.0987,9.2955,-0.0548,-0.0327,-0.0881,-2.1403995953001917,0.0,4.0988569259643555,-1.656904697418213,-0.0,1.765859842300415,5.609397041588583,-0.0,0.24781125783920288,-1.5349190870868128,0.0,-0.014955504797399044,0.802189826965332,-0.0,0.0009162258356809616,0.8724973201751709,0.0,0.016640380024909973
645.0,668.0,-3.2602,-0.0987,9.2955,-0.0548,-0.0327,-0.0881,-2.1404558620848597,0.0,4.056667327880859,-1.6568886041641235,-0.0,1.7706871032714844,5.609472977906027,-0.0,0.23761895298957825,-1.5348952452289026,0.0,-0.007922624237835407,0.8021857738494873,-0.0,-0.0032216839026659727,0.8725173473358154,0.0,-0.035191308706998825
645.0,668.0,-3.2602,-0.0987,9.2955,-0.0548,-0.0327,-0.0881,-2.140407224694723,0.0,4.077082633972168,-1.6569325923919678,-0.0,1.7328598499298096,5.609469163208761,-0.0,0.25208353996276855,-1.5349071661578577,0.0,-0.016107456758618355,0.8021697998046875,-0.0,0.0009908783249557018,0.8725533485412598,0.0,-0.002952268347144127
645.0,668.0,-3.2602,-0.0987,9.2955,-0.0548,-0.0327,-0.0881,-2.1404482326903285,0.0,4.0879034996032715,-1.6568924188613892,-0.0,1.7652031183242798,5.60948126295165,-0.0,0.22558912634849548,-1.5349391142474573,0.0,-0.006374211050570011,0.8021617531776428,-0.0,-0.003953985869884491,0.8725132346153259,0.0,0.02873896062374115
645.0,668.0,-3.2602,-0.0987,9.2955,-0.0548,-0.0327,-0.0881,-2.1404439411559046,0.0,4.036355972290039,-1.6569327116012573,-0.0,1.7259302139282227,5.609436976700582,-0.0,0.23100200295448303,-1.5349229017840784,0.0,-0.013261367566883564,0.802161693572998,-0.0,0.009223674423992634,0.8725574612617493,0.0,0.009931251406669617
645.0,668.0,-3.2602,-0.0987,9.2955,-0.0548,-0.0327,-0.0881,-2.140452047387594,0.0,4.088659763336182,-1.656912922859192,-0.0,1.7502806186676025,5.609436976700582,-0.0,0.23662200570106506,-1.5348833242999476,0.0,-0.015260105021297932,0.8021778464317322,-0.0,-0.0019511952996253967,0.8725132942199707,0.0,0.008756347000598907
645.0,668.0,-3.2602,-0.0987,9.2955,-0.0548,-0.0327,-0.0881,-2.1404644451537074,0.0,4.075135707855225,-1.656936764717102,-0.0,1.7701294422149658,5.609432983189382,-0.0,0.2308410406112671,-1.5348952452289026,0.0,-0.020175689831376076,0.8021857738494873,-0.0,0.010845034383237362,0.8725132942199707,0.0,0.01795198768377304
645.0,668.0,-3.2602,-0.0987,9.2955,-0.0548,-0.0327,-0.0881,-2.140423437158102,0.0,4.102695465087891,-1.6569088697433472,-0.0,1.7149560451507568,5.609440970211782,-0.0,0.2483515739440918,-1.5349190870868128,0.0,-0.002195450011640787,0.8022174835205078,-0.0,0.01060501765459776,0.8725009560585022,0.0,-0.0103613855317235
645.0,668.0,-3.2602,-0.0987,9.2955,-0.0548,-0.0327,-0.0881,-2.1404525242247523,0.0,4.08000373840332,-1.6569087505340576,-0.0,1.7085422277450562,5.609432983189382,-0.0,0.2375997006893158,-1.5349233786212366,0.0,-0.0010369138326495886,0.8021776676177979,-0.0,-0.007299165241420269,0.8725091218948364,0.0,-0.0383278988301754
645.0,668.0,-3.2602,-0.0987,9.2955,-0.0548,-0.0327,-0.0881,-2.1404558620848597,0.0,4.056338787078857,-1.6569409370422363,-0.0,1.760335922241211,5.609421062260427,-0.0,0.22378334403038025,-1.5349190870868128,0.0,-0.010191432200372219,0.8022057414054871,-0.0,0.0010564255062490702,0.8725452423095703,0.0,0.019366150721907616
645.0,668.0,-3.2602,-0.0987,9.2955,-0.0548,-0.0327,-0.0881,-2.140407224694723,0.0,4.0849432945251465,-1.6568443775177002,-0.0,1.7548341751098633,5.609444963722982,-0.0,0.23966585099697113,-1.534875218068258,0.0,-0.007758153602480888,0.8022096157073975,-0.0,0.0077544632367789745,0.8725296258926392,0.0,-0.015717459842562675
645.0,668.0,-3.2602,-0.0987,9.2955,-0.0548,-0.0327,-0.0881,-2.140423437158102,0.0,4.095058441162109,-1.656872272491455,-0.0,1.7413885593414307,5.609452950745382,-0.0,0.24560780823230743,-1.534891430531637,0.0,-0.0030434036161750555,0.802185595035553,-0.0,0.004448533523827791,0.8725533485412598,0.0,-0.021504990756511688
645.0,668.0,-3.2602,-0.0987,9.2955,-0.0548,-0.0327,-0.0881,-2.1404277286925257,0.0,4.060069561004639,-1.6569088697433472,-0.0,1.7523064613342285,5.609452891140737,-0.0,0.24883943796157837,-1.5349791685687464,0.0,-0.013334155082702637,0.8021379113197327,-0.0,0.008238540031015873,0.8725050687789917,0.0,-0.005779134575277567
650.0,702.0,-3.2602,-0.0987,9.2955,-0.0548,-0.0327,-0.0881,-2.1404558620848597,0.0,4.088863372802734,-1.6568964719772339,-0.0,1.7584195137023926,5.6094010947044275,-0.0,0.22917094826698303,-1.534903351460592,0.0,-0.0009390100603923202,0.8022336363792419,-0.0,-0.0018274635076522827,0.8725172877311707,0.0,0.00029017124325037
650.0,702.0,-3.2602,-0.0987,9.2955,-0.0548,-0.0327,-0.0881,-2.140423437158102,0.0,4.081282138824463,-1.6569290161132812,-0.0,1.7603328227996826,5.609421062260427,-0.0,0.23097637295722961,-1.5349114576922815,0.0,-0.013856780715286732,0.8021496534347534,-0.0,-0.00245323171839118,0.8725172877311707,0.0,-0.009174694307148457
650.0,702.0,-3.2704,-0.146,9.2961,-0.0334,0.0247,-0.099,-2.1404158077635707,0.0,4.087913990020752,-1.6569364070892334,-0.0,1.7911176681518555,5.609432983189382,-0.0,0.2378561794757843,-1.5349190870868128,1.7114538763962628e-07,-0.018009480088949203,0.802185595035553,-0.0,0.006360775791108608,0.8724809288978577,0.0,0.012066133320331573
650.0,702.0,-3.2704,-0.146,9.2961,-0.0334,0.0247,-0.099,-2.1404158077635707,0.0,4.06001091003418,-1.6569007635116577,-0.0,1.763277530670166,5.6094329235847376,-0.0,0.23905977606773376,-1.5349391142474573,7.296195314587806e-10,-0.00309487315826118,0.8021936416625977,-0.0,0.006219781935214996,0.8725090622901917,0.0,0.01934175007045269
650.0,702.0,-3.2704,-0.146,9.2961,-0.0334,0.0247,-0.099,-2.140411516229147,0.0,4.079474449157715,-1.6568603515625,-0.0,1.7519340515136719,5.609448897629537,-0.0,0.2266511619091034,-1.5348833242999476,2.0309227661153423e-13,-0.006920353975147009,0.8021777272224426,-0.0,0.01245129480957985,0.8725172877311707,0.0,0.02824552357196808
650.0,702.0,-3.2704,-0.146,9.2961,-0.0334,0.0247,-0.099,-2.140395303765768,0.0,4.084226608276367,-1.6568927764892578,-0.0,1.7546656131744385,5.609452891140737,-0.0,0.22854772210121155,-1.5348952452289026,8.658141558542107e-16,-0.015389631502330303,0.8021736741065979,-0.0,0.007053765468299389,0.8725452423095703,0.0,-0.020917121320962906
650.0,702.0,-3.2704,-0.146,9.2961,-0.0334,0.0247,-0.099,-2.1404601536192835,0.0,4.070378303527832,-1.6568927764892578,-0.0,1.7245646715164185,5.609473156719961,-0.0,0.254539430141449,-1.5349152723895472,2.4100258698492796e-19,-0.0015909750945866108,0.8021538853645325,-0.0,0.0033670354168862104,0.8725250959396362,0.0,0.002060800790786743
650.0,702.0,-3.2704,-0.146,9.2961,-0.0334,0.0247,-0.099,-2.1404558620848597,0.0,4.074892997741699,-1.6569404602050781,-0.0,1.7355070114135742,5.609485077648916,-0.0,0.24472472071647644,-1.5349271933185022,6.708396145175135e-23,-0.010604258626699448,0.8021696209907532,-0.0,0.004965673666447401,0.8725816607475281,0.0,0.012124226428568363
650.0,702.0,-3.2704,-0.146,9.2961,-0.0334,0.0247,-0.099,-2.1403752766051234,0.0,4.047231674194336,-1.6568609476089478,-0.0,1.75941801071167,5.609412956028738,-0.0,0.24937577545642853,-1.534875218068258,2.8598941710336335e-25,-0.022926798090338707,0.8021379709243774,-0.0,0.0011226546484977007,0.8725009560585022,0.0,-0.03332306444644928
650.0,702.0,-3.2704,-0.146,9.2961,-0.0334,0.0247,-0.099,-2.1404558620848597,0.0,4.071799278259277,-1.6569569110870361,-0.0,1.7843351364135742,5.609440970211782,-0.0,0.23974359035491943,-1.5348508993731897,7.96062137839008e-29,-0.017833732068538666,0.8021736741065979,-0.0,0.014462004415690899,0.8725091218948364,0.0,-0.01327561680227518
650.0,702.0,-3.2704,-0.146,9.2961,-0.0334,0.0247,-0.099,-2.140411516229147,0.0,4.047158718109131,-1.6568808555603027,-0.0,1.7385555505752563,5.609469163208761,-0.0,0.22834816575050354,-1.5348628203021448,3.3937375317138137e-31,-0.022454138845205307,0.8021657466888428,-0.0,0.00635337270796299,0.8725414276123047,0.0,-0.04572608694434166
650.0,702.0,-3.2704,-0.146,9.2961,-0.0334,0.0247,-0.099,-2.1403991184630335,0.0,4.094664573669434,-1.6568689346313477,-0.0,1.7321364879608154,5.609448897629537,-0.0,0.23338766396045685,-1.5349190870868128,9.446594601416306e-35,0.004234693478792906,0.8021936416625977,-0.0,0.00845389999449253,0.8725656867027283,0.0,0.017838189378380775
650.0,702.0,-3.2704,-0.146,9.2961,-0.0334,0.0247,-0.099,-2.140423437158102,0.0,4.094226360321045,-1.656884789466858,-0.0,1.728938102722168,5.609417068749227,-0.0,0.23585017025470734,-1.5349071661578577,2.6294942490918966e-38,-0.017354846000671387,0.8021857738494873,-0.0,0.004136879462748766,0.8724849820137024,0.0,-0.04099734127521515
650.0,702.0,-3.2704,-0.146,9.2961,-0.0334,0.0247,-0.099,-2.140423437158102,0.0,4.07938289642334,-1.6568927764892578,-0.0,1.7683281898498535,5.609481084137716,-0.0,0.2406180500984192,-1.5349114576922815,1.120996732505924e-40,-0.018977690488100052,0.8021857738494873,-0.0,0.005922502372413874,0.8725295662879944,0.0,0.00013488950207829475
650.0,702.0,-3.2704,-0.146,9.2961,-0.0334,0.0247,-0.099,-2.1404315433897914,0.0,4.101568698883057,-1.656913161277771,-0.0,1.7386300563812256,5.609456944256582,-0.0,0.23996028304100037,-1.5349071661578577,3.0828566215145976e-44,-0.0005360357463359833,0.8022176623344421,-0.0,0.0003945278003811836,0.8725414276123047,0.0,-0.007607016712427139
650.0,702.0,-3.2704,-0.146,9.2961,-0.0334,0.0247,-0.099,-2.1404482326903285,0.0,4.104882717132568,-1.656904697418213,-0.0,1.7605743408203125,5.609412896424093,-0.0,0.23672109842300415,-1.5349310080157679,0.0,-0.008244117721915245,0.8021538257598877,-0.0,-5.233939737081528e-05,0.872545599937439,0.0,0.011482225731015205
650.0,702.0,-3.2704,-0.146,9.2961,-0.0334,0.0247,-0.099,-2.1404153309264125,0.0,4.070391654968262,-1.6569007635116577,-0.0,1.6978923082351685,5.609492885857382,-0.0,0.24391144514083862,-1.534891430531637,0.0,-0.0012687164125964046,0.8022016286849976,-0.0,-0.003277172101661563,0.8725132346153259,0.0,-0.012519118376076221
646.0,664.0,-3.2704,-0.146,9.2961,-0.0334,0.0247,-0.099,-2.140383382836813,0.0,4.054429531097412,-1.656905174255371,-0.0,1.7383308410644531,5.609432744770803,-0.0,0.24532543122768402,-1.534903351460592,0.0,-0.02344822697341442,0.8021737933158875,-0.0,0.0031677966471761465,0.872549295425415,0.0,-0.0024309284053742886
646.0,664.0,-3.2704,-0.146,9.2961,-0.0334,0.0247,-0.099,-2.1404277286925257,0.0,4.081429481506348,-1.656904697418213,-0.0,1.7562363147735596,5.609441029816427,-0.0,0.23944002389907837,-1.534879509602682,0.0,-0.01028471440076828,0.8021537661552429,-0.0,0.01098512951284647,0.87253737449646,0.0,-0.021111708134412766
646.0,664.0,-3.0754,-0.0694,9.1741,-0.0263,0.0498,-0.1147,-2.1404315433897914,0.0,4.095977306365967,-1.6568769216537476,-0.0,1.7985023260116577,5.609421062260427,-0.0,0.2344062328338623,-1.5349352995501917,0.0,-0.00780276907607913,0.8021897673606873,-0.0,0.002751843072474003,0.8725091218948364,0.0,-0.024988071992993355
646.0,664.0,-3.0754,-0.0694,9.1741,-0.0263,0.0498,-0.1147,-2.1403995953001917,0.0,4.118495941162109,-1.6569244861602783,-0.0,1.7219942808151245,5.609440791397848,-0.0,0.2436455637216568,-1.5349190870868128,0.0,-0.018536580726504326,0.8022056818008423,-0.0,0.0003053327091038227,0.8725214600563049,0.0,0.05813146010041237
646.0,664.0,-3.0754,-0.0694,9.1741,-0.0263,0.0498,-0.1147,-2.140407224694723,0.0,4.090438365936279,-1.6569607257843018,-0.0,1.7557322978973389,5.609448897629537,-0.0,0.23763063549995422,-1.5349233786212366,0.0,-0.004447178915143013,0.8021577000617981,-0.0,-0.007863922044634819,0.872549295425415,0.0,-0.008734072558581829
646.0,664.0,-3.0754,-0.0694,9.1741,-0.0263,0.0498,-0.1147,-2.1404158077635707,0.0,4.0380449295043945,-1.6568968296051025,-0.0,1.7620902061462402,5.609432983189382,-0.0,0.2312629520893097,-1.5349233786212366,0.0,-0.009381193667650223,0.8021537065505981,-0.0,0.013733006082475185,0.8724890351295471,0.0,0.009644236415624619
646.0,664.0,-3.0754,-0.0694,9.1741,-0.0263,0.0498,-0.1147,-2.140407224694723,0.0,4.054399490356445,-1.6568888425827026,-0.0,1.7786568403244019,5.609457063465872,-0.0,0.24125860631465912,-1.534903351460592,0.0,-0.02165108174085617,0.8021378517150879,-0.0,0.004006832838058472,0.8725574612617493,0.0,0.05961191654205322
646.0,664.0,-3.0754,-0.0694,9.1741,-0.0263,0.0498,-0.1147,-2.1403752766051234,0.0,4.0855183601379395,-1.656904697418213,-0.0,1.7423521280288696,5.609473216324606,-0.0,0.2389509230852127,-1.534891430531637,0.0,0.00020176079124212265,0.8022056221961975,-0.0,0.009392174892127514,0.8725616335868835,0.0,0.05801636725664139
646.0,664.0,-3.0754,-0.0694,9.1741,-0.0263,0.0498,-0.1147,-2.1404158077635707,0.0,4.085858345031738,-1.6569404602050781,-0.0,1.7069566249847412,5.609424817353048,-0.0,0.26097530126571655,-1.5349114576922815,0.0,-0.00561918830499053,0.8021698594093323,-0.0,-0.0008697091252543032,0.8725497126579285,0.0,0.02770843170583248
646.0,664.0,-3.0754,-0.0694,9.1741,-0.0263,0.0498,-0.1147,-2.140423437158102,0.0,4.068752765655518,-1.6568650007247925,-0.0,1.7349861860275269,5.609388816147604,-0.0,0.24264368414878845,-1.5348995367633265,0.0,-0.009840737096965313,0.8022016882896423,-0.0,0.0033507116604596376,0.8725132942199707,0.0,0.03149707242846489
646.0,664.0,-3.0754,-0.0694,9.1741,-0.0263,0.0498,-0.1147,-2.1404277286925257,0.0,4.085285186767578,-1.6568808555603027,-0.0,1.8000954389572144,5.609424817353048,-0.0,0.23532357811927795,-1.5348876158343714,0.0,-0.016171202063560486,0.8021697998046875,-0.0,0.012797623872756958,0.8725332617759705,0.0,0.028808828443288803
646.0,664.0,-3.0754,-0.0694,9.1741,-0.0263,0.0498,-0.1147,-2.1403709850706996,0.0,4.103008270263672,-1.656928539276123,-0.0,1.725702166557312,5.609425055771627,-0.0,0.24591338634490967,-1.5348876158343714,0.0,-0.021583784371614456,0.8022136092185974,-0.0,0.0032656679395586252,0.8725414872169495,0.0,0.006447739899158478
646.0,664.0,-3.0754,-0.0694,9.1741,-0.0263,0.0498,-0.1147,-2.1404315433897914,0.0,4.0828962326049805,-1.656944990158081,-0.0,1.772148847579956,5.609432983189382,-0.0,0.24223020672798157,-1.5348995367633265,0.0,-0.023250093683600426,0.8022015690803528,-0.0,0.004083661828190088,0.8725172877311707,0.0,0.02329162321984768
646.0,664.0,-3.0754,-0.0694,9.1741,-0.0263,0.0498,-0.1147,-2.1403991184630335,0.0,4.086911678314209,-1.6568808555603027,-0.0,1.7820158004760742,5.609500813275137,-0.0,0.2517728805541992,-1.5348833242999476,0.0,-0.005820172373205423,0.8022094964981079,-0.0,-0.009370234794914722,0.8725616931915283,0.0,0.01839451864361763
646.0,664.0,-3.0754,-0.0694,9.1741,-0.0263,0.0498,-0.1147,-2.140395303765768,0.0,4.097840309143066,-1.656925082206726,-0.0,1.733869194984436,5.609445023327627,-0.0,0.2358844131231308,-1.5349152723895472,0.0,-0.00649620546028018,0.8022015690803528,-0.0,0.007053540088236332,0.8725214004516602,0.0,0.03665390983223915
646.0,664.0,-3.0754,-0.0694,9.1741,-0.0263,0.0498,-0.1147,-2.1403871975340785,0.0,4.039209365844727,-1.656944990158081,-0.0,1.7341194152832031,5.609444784909048,-0.0,0.24135242402553558,-1.5348876158343714,0.0,-0.028276212513446808,0.8021617531776428,-0.0,0.012166285887360573,0.8725050687789917,0.0,0.02155834622681141
646.0,664.0,-3.0754,-0.0694,9.1741,-0.0263,0.0498,-0.1147,-2.140379568139547,0.0,4.109262466430664,-1.6569489240646362,-0.0,1.7775804996490479,5.609440791397848,-0.0,0.24884426593780518,-1.5349233786212366,0.0,-0.008116436190903187,0.8022134304046631,-0.0,-0.0018095480045303702,0.8725254535675049,0.0,-0.0364900566637516
637.0,702.0,-3.0754,-0.0694,9.1741,-0.0263,0.0498,-0.1147,-2.140440126458639,0.0,4.085538864135742,-1.656888723373413,-0.0,1.749696969985962,5.609456944256582,-0.0,0.251726359128952,-1.5348995367633265,0.0,-0.022715814411640167,0.8021298050880432,-0.0,-0.004996214993298054,0.8725414276123047,0.0,-0.06194077059626579
637.0,702.0,-3.0754,-0.0694,9.1741,-0.0263,0.0498,-0.1147,-2.140395303765768,0.0,4.067526817321777,-1.656913161277771,-0.0,1.7662196159362793,5.609412896424093,-0.0,0.2374274730682373,-1.5349391142474573,0.0,-0.012771311216056347,0.8021538853645325,-0.0,-0.006292054895311594,0.872545599937439,0.0,-0.032977163791656494
637.0,702.0,-3.0754,-0.0694,9.1741,-0.0263,0.0498,-0.1147,-2.1404644451537074,0.0,4.10676383972168,-1.6569007635116577,-0.0,1.710275650024414,5.609448897629537,-0.0,0.21985140442848206,-1.5349071661578577,0.0,-0.010194916278123856,0.8021697998046875,-0.0,0.0051636528223752975,0.8725213408470154,0.0,0.00732972240075469
637.0,702.0,-3.1789,-0.1866,9.3637,-0.0263,0.0,-0.0938,-2.140435834924215,0.0,4.092109680175781,-1.656904697418213,-0.0,1.8009127378463745,5.609448897629537,-0.0,0.25279751420021057,-1.5349310080157679,0.0,-0.03205474838614464,0.8021976947784424,-0.0,0.0003303487319499254,0.8725612163543701,0.0,0.0009654276072978973
637.0,702.0,-3.1789,-0.1866,9.3637,-0.0263,0.0,-0.0938,-2.1404439411559046,0.0,4.061758995056152,-1.6569766998291016,-0.0,1.7139179706573486,5.609428870468893,-0.0,0.240212082862854,-1.5349190870868128,0.0,-0.011190896853804588,0.8021856546401978,-0.0,0.00592856714501977,0.87253737449646,0.0,0.011501137167215347
637.0,702.0,-3.1789,-0.1866,9.3637,-0.0263,0.0,-0.0938,-2.140440126458639,0.0,4.080878257751465,-1.656944990158081,-0.0,1.7300089597702026,5.6094610569770715,-0.0,0.23990985751152039,-1.534891430531637,0.0,0.0022942135110497475,0.8021856546401978,-0.0,-0.005454183090478182,0.8725172877311707,0.0,-0.03509186580777168
637.0,702.0,-3.1789,-0.1866,9.3637,-0.0263,0.0,-0.0938,-2.1403871975340785,0.0,4.078428268432617,-1.656884789466858,-0.0,1.7618565559387207,5.609452891140737,-0.0,0.23726199567317963,-1.5349114576922815,0.0,-0.014968656934797764,0.8022015690803528,-0.0,-0.007058987859636545,0.87253737449646,0.0,0.04114088416099548
637.0,702.0,-3.1789,-0.1866,9.3637,-0.0263,0.0,-0.0938,-2.140407224694723,0.0,4.122035026550293,-1.656904697418213,-0.0,1.7439192533493042,5.609465169697561,-0.0,0.23058825731277466,-1.5348995367633265,0.0,-0.02147013694047928,0.8022333979606628,-0.0,0.002698513912037015,0.8724812865257263,0.0,-0.011550042778253555
637.0,702.0,-3.1789,-0.1866,9.3637,-0.0263,0.0,-0.0938,-2.1404882870116175,0.0,4.0472002029418945,-1.656904697418213,-0.0,1.766890048980713,5.609452891140737,-0.0,0.2384129762649536,-1.5349114576922815,0.0,-0.010439164936542511,0.8021577596664429,-0.0,-0.0008549338672310114,0.8725776672363281,0.0,0.005177367478609085
637.0,702.0,-3.1789,-0.1866,9.3637,-0.0263,0.0,-0.0938,-2.140423437158102,0.0,4.083241939544678,-1.6569404602050781,-0.0,1.747666358947754,5.609421062260427,-0.0,0.2515769898891449,-1.5349233786212366,0.0,-0.011834508739411831,0.8021658062934875,-0.0,0.001038109534420073,0.8725254535675049,0.0,0.00568272965028882
637.0,702.0,-3.1789,-0.1866,9.3637,-0.0263,0.0,-0.0938,-2.1403991184630335,0.0,4.094816207885742,-1.6569569110870361,-0.0,1.7529735565185547,5.6094610569770715,-0.0,0.24005141854286194,-1.5349152723895472,0.0,-0.012476846575737,0.8021816611289978,-0.0,0.00870338175445795,0.8725172877311707,0.0,0.06591019034385681
637.0,702.0,-3.1789,-0.1866,9.3637,-0.0263,0.0,-0.0938,-2.140419145623678,0.0,4.072739124298096,-1.6568888425827026,-0.0,1.7773993015289307,5.609452891140737,-0.0,0.24559326469898224,-1.534891430531637,0.0,-0.016334377229213715,0.8021816611289978,-0.0,-0.005766621325165033,0.8725616335868835,0.0,-0.004517015069723129
637.0,702.0,-3.1789,-0.1866,9.3637,-0.0263,0.0,-0.0938,-2.140411516229147,0.0,4.125925540924072,-1.656913161277771,-0.0,1.7720437049865723,5.609424817353048,-0.0,0.23764844238758087,-1.5349152723895472,0.0,-0.018906379118561745,0.8021736741065979,-0.0,0.003774882759898901,0.8725214004516602,0.0,0.011119679547846317
637.0,702.0,-3.1789,-0.1866,9.3637,-0.0263,0.0,-0.0938,-2.140411516229147,0.0,4.098031520843506,-1.656928539276123,-0.0,1.7897565364837646,5.609448897629537,-0.0,0.24184319376945496,-1.5349310080157679,0.0,-0.019907141104340553,0.8022216558456421,-0.0,0.0033225910738110542,0.8725939989089966,0.0,-0.04604426026344299
637.0,702.0,-3.1789,-0.1866,9.3637,-0.0263,0.0,-0.0938,-2.140440126458639,0.0,4.044760227203369,-1.6568808555603027,-0.0,1.802485704421997,5.609452891140737,-0.0,0.2441537231206894,-1.534875218068258,0.0,-0.013027955777943134,0.8021975755691528,-0.0,-0.005096042063087225,0.8725332617759705,0.0,0.004334770608693361
637.0,702.0,-3.1789,-0.1866,9.3637,-0.0263,0.0,-0.0938,-2.1404034099974574,0.0,4.099872589111328,-1.6568808555603027,-0.0,1.7355562448501587,5.609421062260427,-0.0,0.26199159026145935,-1.5349152723895472,0.0,-0.006129238288849592,0.8021857738494873,-0.0,-0.0020355868618935347,0.8725091218948364,0.0,-0.014804428443312645
637.0,702.0,-3.1789,-0.1866,9.3637,-0.0263,0.0,-0.0938,-2.1403752766051234,0.0,4.036598205566406,-1.6568927764892578,-0.0,1.740349292755127,5.609432983189382,-0.0,0.23706293106079102,-1.5348952452289026,0.0,-0.006528664845973253,0.8021378517150879,-0.0,-0.0006660933140665293,0.8724849820137024,0.0,0.026503603905439377
624.0,667.0,-3.1789,-0.1866,9.3637,-0.0263,0.0,-0.0938,-2.1404601536192835,0.0,4.099619388580322,-1.6569404602050781,-0.0,1.768763542175293,5.609424876957693,-0.0,0.2429179549217224,-1.5349391142474573,0.0,-0.010415242053568363,0.8021856546401978,-0.0,0.009170371107757092,0.8725214004516602,0.0,-0.015613925643265247
624.0,667.0,-3.1789,-0.1866,9.3637,-0.0263,0.0,-0.0938,-2.140407224694723,0.0,4.079912185668945,-1.6569087505340576,-0.0,1.7953686714172363,5.609469163208761,-0.0,0.25039559602737427,-1.5349114576922815,0.0,-0.021451037377119064,0.8021737933158875,-0.0,0.003564733313396573,0.8725333213806152,0.0,0.028505438938736916
624.0,667.0,-3.1789,-0.1866,9.3637,-0.0263,0.0,-0.0938,-2.1404277286925257,0.0,4.068214416503906,-1.6568808555603027,1.3629585238206232e-09,1.7863953113555908,5.609412896424093,-0.0,0.2541953921318054,-1.5349233786212366,0.0,0.00022285571321845055,0.8021777272224426,-0.0,-0.0003706557909026742,0.8725733757019043,0.0,-0.0012934617698192596
624.0,667.0,-3.253,-0.0873,9.0526,-0.0229,0.0205,-0.1147,-2.1403995953001917,0.0,4.052411079406738,-1.6569126844406128,3.2913847445729992e-15,1.7480159997940063,5.6094610569770715,-0.0,0.24088340997695923,-1.5349271933185022,0.0,-0.010077189654111862,0.8021936416625977,-0.0,-0.0007898034527897835,0.8725452423095703,0.0,-0.023916395381093025
624.0,667.0,-3.253,-0.0873,9.0526,-0.0229,0.0205,-0.1147,-2.140383382836813,0.0,4.0628156661987305,-1.656833291053772,0.0006149415276013315,1.7682034969329834,5.609444844513693,-0.0,0.24528440833091736,-1.5349510351764124,0.0,-0.004882710985839367,0.8021697402000427,-0.0,0.014961184933781624,0.8725368976593018,0.0,-0.04361472278833389
624.0,667.0,-3.253,-0.0873,9.0526,-0.0229,0.0205,-0.1147,-2.1403714619078578,0.0,4.068681716918945,-1.6568491458892822,0.001379912719130516,1.7379679679870605,5.609465169697561,-0.0,0.24986514449119568,-1.5349510351764124,0.0,-0.004018047824501991,0.8022055625915527,-0.0,0.0035192016512155533,0.8726015686988831,0.001298112329095602,0.02180575020611286
624.0,667.0,-3.253,-0.0873,9.0526,-0.0229,0.0205,-0.1147,-2.1404034099974574,0.0,4.012439727783203,-1.6568650007247925,0.0015307361027225852,1.8113418817520142,5.6094369170959375,-0.0,0.2318006455898285,-1.534942928944723,0.0,-0.00705137150362134,0.8021737933158875,-0.0,-0.007344176527112722,0.872605562210083,0.0025356165133416653,-0.04901006072759628
624.0,667.0,-3.253,-0.0873,9.0526,-0.0229,0.0205,-0.1147,-2.140379568139547,0.0,4.111896991729736,-1.6568446159362793,0.0012793528148904443,1.7824784517288208,5.609477150231161,-0.0,0.24214231967926025,-1.5349834601031702,0.0,-0.01962084323167801,0.8021976351737976,-0.0,0.0065493411384522915,0.8726576566696167,0.005496226251125336,0.0015912260860204697
624.0,667.0,-3.253,-0.0873,9.0526,-0.0229,0.0205,-0.1147,-2.1403914890685023,0.0,4.08945369720459,-1.656865119934082,0.0008766883984208107,1.7724990844726562,5.609429049282827,-0.0,0.24213512241840363,-1.5349071661578577,0.0,-0.014048184268176556,0.8021736741065979,-0.0,0.005084151402115822,0.872677206993103,0.008242528885602951,0.016030704602599144
624.0,667.0,-3.253,-0.0873,9.0526,-0.0229,0.0205,-0.1147,-2.1403876743712367,0.0,4.069276332855225,-1.6568968296051025,0.00044244786840863526,1.7574506998062134,5.609469222813406,-0.0,0.25130411982536316,-1.5349510351764124,0.0,-0.013414141722023487,0.8022095561027527,-0.0,-0.011485777795314789,0.8727660179138184,0.011364392936229706,-0.00023967865854501724
624.0,667.0,-3.253,-0.0873,9.0526,-0.0229,0.0205,-0.1147,-2.1404158077635707,0.0,4.070301532745361,-1.656877040863037,-0.0002280913759022951,1.746541976928711,5.6094891903694055,-0.0,0.243528351187706,-1.5349233786212366,0.0,-0.02508464641869068,0.8021698594093323,-0.0,-0.00606140773743391,0.8727893829345703,0.011277937330305576,-0.006935026030987501
624.0,667.0,-3.253,-0.0873,9.0526,-0.0229,0.0205,-0.1147,-2.140411516229147,0.0,4.0650410652160645,-1.6569006443023682,-0.00018651294521987438,1.730349063873291,5.6094329235847376,-0.0,0.24754220247268677,-1.5349915663348597,0.0,0.0006611958961002529,0.8022096157073975,-0.0,0.0017872692551463842,0.8728538155555725,0.009405858814716339,-0.04318581521511078
624.0,667.0,-3.253,-0.0873,9.0526,-0.0229,0.0205,-0.1147,-2.140407224694723,0.0,4.071217060089111,-1.6569126844406128,-0.0001422703790012747,1.7474164962768555,5.609461116581716,-0.0,0.2391735464334488,-1.5349352995501917,0.0,-0.015626171603798866,0.8022576570510864,-0.0,-0.004146220628172159,0.8729059100151062,0.00720380200073123,-0.03533174842596054
624.0,667.0,-3.253,-0.0873,9.0526,-0.0229,0.0205,-0.1147,-2.140395303765768,7.155569647920856e-08,4.0773539543151855,-1.6568610668182373,-0.00012284619151614606,1.743570327758789,5.609445023327627,-0.0,0.2272830754518509,-1.534954849873678,0.0,-0.004515114240348339,0.8021698594093323,-0.0,0.003583831014111638,0.8729214668273926,0.005231468938291073,0.057916298508644104
624.0,667.0,-3.253,-0.0873,9.0526,-0.0229,0.0205,-0.1147,-2.1404277286925257,1.7279858371011675e-13,4.100501537322998,-1.6568570137023926,-0.00010196553921559826,1.7350884675979614,5.609440970211782,-0.0,0.2350444793701172,-1.5348995367633265,0.0,-0.008530893363058567,0.8021777272224426,-0.0,0.010732147842645645,0.8729663491249084,0.002439880045130849,-0.005759132094681263
624.0,667.0,-3.253,-0.0873,9.0526,-0.0229,0.0205,-0.1147,-2.1403914890685023,4.172882430543263e-19,4.089356899261475,-1.6568405628204346,-8.715305011719465e-05,1.7475529909133911,5.609425055771627,-0.0,0.23637929558753967,-1.5349591414081019,0.0,-0.02986832521855831,0.8021936416625977,-0.0,0.004204302094876766,0.872913122177124,0.0004122333484701812,0.001305947545915842
624.0,667.0,-3.253,-0.0873,9.0526,-0.0229,0.0205,-0.1147,-2.1403871975340785,7.511040659220892e-23,4.125344276428223,-1.6568808555603027,-7.945777906570584e-05,1.7385241985321045,5.609436976700582,-0.0,0.24778227508068085,-1.5348995367633265,0.0,-0.0059578511863946915,0.8022174835205078,-0.0,0.019847046583890915,0.8729296326637268,0.00013917720934841782,-0.025044742971658707
624.0,667.0,-3.253,-0.0873,9.0526,-0.0229,0.0205,-0.1147,-2.1403995953001917,1.8138277012261526e-28,4.044308185577393,-1.6568087339401245,-3.922701216652058e-05,1.7302782535552979,5.609392809658804,-0.0,0.23697222769260406,-1.5349114576922815,0.0,-0.006455173250287771,0.802185595035553,-0.0,0.004316036123782396,0.8729378581047058,4.976200216333382e-07,-0.02737044356763363
633.0,718.0,-3.253,-0.0873,9.0526,-0.0229,0.0205,-0.1147,-2.140395303765768,3.2648259445606894e-32,4.048313617706299,-1.6568325757980347,-3.839842065644916e-06,1.7766366004943848,5.609465169697561,-0.0,0.24719306826591492,-1.534879509602682,0.0,-0.0032499274238944054,0.8022134900093079,-0.0,0.0021479730494320393,0.8729016780853271,8.956983765795457e-11,0.031647276133298874
633.0,718.0,-3.253,-0.0873,9.0526,-0.0229,0.0205,-0.1147,-2.1404315433897914,7.884170951900962e-38,4.044661521911621,-1.6568372249603271,-9.272766582357761e-12,1.7455551624298096,5.609405088215627,-0.0,0.24391178786754608,-1.534879509602682,0.0,-0.009537143632769585,0.8022214770317078,-0.0,-0.0031747114844620228,0.8728456497192383,2.1630064951657328e-16,-0.029096413403749466
633.0,718.0,-3.253,-0.0873,9.0526,-0.0229,0.0205,-0.1147,-2.140468259850973,1.9057659114817512e-43,4.032324314117432,-1.6568728685379028,-2.2392642758369965e-17,1.7562639713287354,5.609457003861227,-0.0,0.23813781142234802,-1.5349271933185022,0.0,-0.01489439606666565,0.8021897077560425,-0.0,0.0005537680117413402,0.8728013038635254,-0.001094150822609663,0.04907188564538956
633.0,718.0,-3.5091,0.2387,9.3882,-0.014,0.0203,-0.1449,-2.1404277286925257,0.0,4.138327598571777,-1.6568405628204346,-4.030596669997316e-21,1.756955862045288,5.609465169697561,-0.0,0.2379857897758484,-1.534891430531637,0.0,-0.023071393370628357,0.8021697998046875,-0.0,-0.005376140587031841,0.8727850914001465,-0.0009641848155297339,-0.013691164553165436
633.0,718.0,-3.5091,0.2387,9.3882,-0.014,0.0203,-0.1449,-2.1404038868346156,0.0,4.096597671508789,-1.6568129062652588,-9.733417286595808e-27,1.7754108905792236,5.609436976700582,-0.0,0.2343432456254959,-1.5348995367633265,0.0,-0.00739026814699173,0.8022095561027527,-0.0,0.00012287951540201902,0.8728256225585938,-0.000822601665277034,0.01220652088522911
633.0,718.0,-3.5091,0.2387,9.3882,-0.014,0.0203,-0.1449,-2.1403995953001917,0.0,4.0928473472595215,-1.6568008661270142,-1.751980854589842e-30,1.7896603345870972,5.609453010350027,-0.0,0.23643654584884644,-1.5349310080157679,0.0,0.00040443282341584563,0.8022333979606628,-0.0,0.005987494718283415,0.8728336691856384,-0.0007500300416722894,-0.008927390910685062
633.0,718.0,-3.5091,0.2387,9.3882,-0.014,0.0203,-0.1449,-2.140411516229147,0.0,4.104306221008301,-1.6568849086761475,0.0008456699433736503,1.7479315996170044,5.6094329235847376,-0.0,0.2573694884777069,-1.5349553267108362,0.0,-0.000802651047706604,0.8021577596664429,-0.0,-0.005279331933706999,0.8727933168411255,-0.0007722265436314046,-0.026827041059732437
633.0,718.0,-3.5091,0.2387,9.3882,-0.014,0.0203,-0.1449,-2.140407224694723,0.0,4.0655317306518555,-1.6567765474319458,0.0017751532141119242,1.7611693143844604,5.609384763031759,-0.0,0.24187137186527252,-1.5349071661578577,0.0,-0.01107992697507143,0.8022015690803528,-0.0,0.0009377425303682685,0.8728338479995728,-0.001188490423373878,0.03557693213224411
633.0,718.0,-3.5091,0.2387,9.3882,-0.014,0.0203,-0.1449,-2.1403995953001917,0.0,4.076564788818359,-1.6567680835723877,0.0029031862504780293,1.7622407674789429,5.609448897629537,-0.0,0.23872718214988708,-1.5349233786212366,0.0,-0.01252010278403759,0.8022017478942871,-0.0,0.009359469637274742,0.8727567791938782,-0.0011617125710472465,0.007356158457696438
633.0,718.0,-3.5091,0.2387,9.3882,-0.014,0.0203,-0.1449,-2.1404196224608363,0.0,4.119509696960449,-1.6568130254745483,0.004629712086170912,1.7742946147918701,5.609452950745382,-0.0,0.24551470577716827,-1.534875218068258,0.0,-0.01854865252971649,0.8021975755691528,-0.0,0.005773675162345171,0.872838020324707,-0.000732910877559334,-0.009545247070491314
633.0,718.0,-3.5091,0.2387,9.3882,-0.014,0.0203,-0.1449,-2.1403714619078578,0.0,4.0817365646362305,-1.6568129062652588,0.007098509930074215,1.7456684112548828,5.609481143742361,-0.0,0.2356378138065338,-1.534903351460592,0.0,-0.013219758868217468,0.8022456169128418,-0.0,0.0006425214232876897,0.8728656768798828,-0.0005763442604802549,0.03795137628912926
633.0,718.0,-3.5091,0.2387,9.3882,-0.014,0.0203,-0.1449,-2.1404439411559046,0.0,4.0726237297058105,-1.6566851139068604,0.009177443571388721,1.7289519309997559,5.609469222813406,-0.0,0.2391682267189026,-1.5348876158343714,0.0,-0.009098947048187256,0.802245557308197,-0.0,0.0049440572038292885,0.8728137016296387,-0.00043651278247125447,0.022443966940045357
633.0,718.0,-3.5091,0.2387,9.3882,-0.014,0.0203,-0.1449,-2.1403995953001917,0.0,4.0660810470581055,-1.656523585319519,0.011939851567149162,1.7533292770385742,5.609457003861227,-0.0,0.2486526519060135,-1.5349071661578577,0.0,-0.0057699065655469894,0.802249550819397,-6.467181634661756e-08,-0.0016891200793907046,0.8728419542312622,-0.00035129947355017066,-0.0289080161601305
633.0,718.0,-3.5091,0.2387,9.3882,-0.014,0.0203,-0.1449,-2.140435834924215,0.0,4.063689231872559,-1.6564960479736328,0.013838151469826698,1.7826440334320068,5.609425055771627,-0.0,0.2324085384607315,-1.5348833242999476,0.0,-0.00780750997364521,0.8021856546401978,-2.757060690861124e-10,0.0055998750030994415,0.8728542923927307,-0.0002597782586235553,0.0063925087451934814
633.0,718.0,-3.5091,0.2387,9.3882,-0.014,0.0203,-0.1449,-2.1403714619078578,0.0,4.033334732055664,-1.656461238861084,0.017143841832876205,1.7539865970611572,5.609425055771627,-0.0,0.22971037030220032,-1.5349233786212366,0.0,-0.015090389177203178,0.8021777272224426,-7.674380743524431e-14,-0.004950721748173237,0.8728296160697937,-0.00022088935656938702,-0.013368458487093449
633.0,718.0,-3.5091,0.2387,9.3882,-0.014,0.0203,-0.1449,-2.140379568139547,0.0,4.10223388671875,-1.6563047170639038,0.019385388121008873,1.8092693090438843,5.6094491360481165,-0.0,0.24058039486408234,-1.5348952452289026,0.0,-0.011081887409090996,0.8021896481513977,-3.271708433906078e-16,-0.005747661925852299,0.8728739619255066,-0.00020114154904149473,0.006127309054136276
633.0,718.0,-3.5091,0.2387,9.3882,-0.014,0.0203,-0.1449,-2.140463968316549,0.0,4.057806491851807,-1.6562327146530151,0.02141362801194191,1.7336626052856445,5.609441029816427,-0.0,0.257524698972702,-1.5349391142474573,0.0,-0.02741899900138378,0.8021658062934875,-9.106921855850131e-20,0.009305097162723541,0.8728377819061279,-0.00017735690926201642,-0.014082897454500198
639.0,681.0,-3.5091,0.2387,9.3882,-0.014,0.0203,-0.1449,-2.140435834924215,0.0,4.111331939697266,-1.6561049222946167,0.0232408307492733,1.8060721158981323,5.609448897629537,-0.0,0.23667271435260773,-1.5349152723895472,0.0,-0.014454335905611515,0.8022496104240417,-2.5349450388154678e-23,0.01955476403236389,0.8728377223014832,-0.00015860344865359366,-0.026833904907107353
639.0,681.0,-3.5091,0.2387,9.3882,-0.014,0.0203,-0.1449,-2.140440126458639,0.0,4.1275315284729,-1.6559367179870605,0.025951506569981575,1.8186051845550537,5.609372842102804,-0.0,0.2435201108455658,-1.5348995367633265,0.0,-0.00509367510676384,0.802161693572998,-1.0806866850797495e-25,0.001408641692250967,0.872857928276062,-0.0001481593499192968,0.010893899947404861
639.0,681.0,-3.5091,0.2387,9.3882,-0.014,0.0203,-0.1449,-2.1403914890685023,0.0,4.108947277069092,-1.6557729244232178,0.026129795238375664,1.7935023307800293,5.609417247563162,-0.000147224884130992,0.24718861281871796,-1.5349553267108362,0.0,-0.010847007855772972,0.8021896481513977,-3.008131345923744e-29,0.0028041177429258823,0.8728296756744385,-0.00013484041846822947,0.046918682754039764
639.0,681.0,-2.9743,0.1089,9.335,-0.0226,0.0451,-0.1243,-2.1404320202269496,0.0,4.085323333740234,-1.655708909034729,0.026467105373740196,1.8311539888381958,5.609413134842672,-0.00034320406848564744,0.24603551626205444,-1.534891430531637,0.0,-0.027230408042669296,0.8022253513336182,-1.282413437841725e-31,0.016342289745807648,0.8727933168411255,-0.00012721639359369874,0.01118144579231739
639.0,681.0,-2.9743,0.1089,9.335,-0.0226,0.0451,-0.1243,-2.1403633556761683,0.0,4.084629058837891,-1.655521035194397,0.026482535526156425,1.8246829509735107,5.609389054566183,-0.0011443141847848892,0.2464192509651184,-1.5349190870868128,0.0,-0.0267975814640522,0.8021935224533081,-3.569645448675193e-35,0.0003029091749340296,0.8728339076042175,-0.00011727031960617751,0.07902102917432785
639.0,681.0,-2.9743,0.1089,9.335,-0.0226,0.0451,-0.1243,-2.1403914890685023,0.0,4.119957447052002,-1.6554054021835327,0.02622627280652523,1.8173515796661377,5.609373080521383,-0.0014626475749537349,0.24375444650650024,-1.5349310080157679,0.0,-0.01692967675626278,0.8021975755691528,-1.5217956708565995e-37,0.011485312134027481,0.872826099395752,-0.00013364815094973892,0.023495076224207878
639.0,681.0,-2.9743,0.1089,9.335,-0.0226,0.0451,-0.1243,-2.1403471432127894,0.0,4.052521705627441,-1.6553009748458862,0.02578357607126236,1.8210161924362183,5.6093411324317834,-0.0012677924241870642,0.24985399842262268,-1.5349233786212366,0.0,-0.0225985087454319,0.8022655248641968,-4.2359851278074895e-41,0.020885074511170387,0.8727973699569702,-0.0001245018356712535,0.04023979604244232
639.0,681.0,-2.9743,0.1089,9.335,-0.0226,0.0451,-0.1243,-2.1403757534422816,0.0,4.067785263061523,-1.655120611190796,0.025664476677775383,1.8476521968841553,5.6093413708503626,-0.0010317929554730654,0.253557413816452,-1.5348833242999476,0.0,-0.023151233792304993,0.8022093772888184,-1.1210387714598537e-44,0.018608754500746727,0.8727734088897705,-0.0001164474815595895,0.07639080286026001
639.0,681.0,-2.9743,0.1089,9.335,-0.0226,0.0451,-0.1243,-2.1403876743712367,0.0,4.060439109802246,-1.6550289392471313,0.02667422406375408,1.8481396436691284,5.609309184342184,-0.000832612335216254,0.23688623309135437,-1.5348995367633265,0.0,-0.03498939424753189,0.802261471748352,-0.0,0.013119295239448547,0.8727650046348572,-0.00012387333845254034,0.0862816572189331
639.0,681.0,-2.9743,0.1089,9.335,-0.0226,0.0451,-0.1243,-2.140383859673971,0.0,4.113403797149658,-1.6548731327056885,0.02826663851737976,1.8199386596679688,5.609309243946829,-0.0009239467908628285,0.2563492953777313,-1.5349071661578577,0.0,-0.047409988939762115,0.8022253513336182,-0.0,0.01911982335150242,0.8727414011955261,-0.00012263302050996572,0.13988208770751953
639.0,681.0,-2.9743,0.1089,9.335,-0.0226,0.0451,-0.1243,-2.140379568139547,0.00047469232231378555,4.1290693283081055,-1.6547528505325317,0.029819663614034653,1.862532615661621,5.609313237458029,-0.0011188855860382318,0.24954012036323547,-1.5349071661578577,0.0,-0.03319215402007103,0.8022454977035522,-0.0,0.03705700486898422,0.8727975487709045,-0.00013292848598212004,0.12983444333076477
639.0,681.0,-2.9743,0.1089,9.335,-0.0226,0.0451,-0.1243,-2.140395780602926,0.00043427146738395095,4.062005043029785,-1.6544970273971558,0.032373685389757156,1.8574676513671875,5.60928504446105,-0.0016667963936924934,0.23642128705978394,-1.534891430531637,0.0,-0.037350982427597046,0.8022255301475525,-0.0,0.019387919455766678,0.8727810382843018,-0.0001277213596040383,0.13515232503414154
639.0,681.0,-2.9743,0.1089,9.335,-0.0226,0.0451,-0.1243,-2.140355249444479,0.0003498478326946497,4.104674816131592,-1.6543446779251099,0.03708783909678459,1.8520009517669678,5.609297263413229,-0.0018394793150946498,0.24299508333206177,-1.5348995367633265,0.0,-0.0285162553191185,0.8022174835205078,-0.0,0.01591392233967781,0.872793436050415,-8.00849447841756e-05,0.13157737255096436
639.0,681.0,-2.9743,0.1089,9.335,-0.0226,0.0451,-0.1243,-2.140388151208395,0.00030971068190410733,4.105050563812256,-1.6541813611984253,0.03751842677593231,1.8740606307983398,5.609313237458029,-0.00215457146987319,0.23607832193374634,-1.534903351460592,0.0,-0.05446575954556465,0.8022253513336182,-0.0,0.022276602685451508,0.8728301525115967,-7.727090996922925e-05,0.11639153957366943
639.0,681.0,-2.9743,0.1089,9.335,-0.0226,0.0451,-0.1243,-2.1403876743712367,0.0002642399922478944,4.095027446746826,-1.653936505317688,0.04249735176563263,1.845325231552124,5.609273481159963,-0.0035141052212566137,0.23917606472969055,-1.5348995367633265,0.0,-0.03637123852968216,0.8022534847259521,-0.0,0.018715685233473778,0.8728460073471069,-7.348546932917088e-05,0.13076743483543396
639.0,681.0,-2.9743,0.1089,9.335,-0.0226,0.0451,-0.1243,-2.140355249444479,0.00024068355560302734,4.058720588684082,-1.6537566184997559,0.04251521825790405,1.924619197845459,5.609245288162985,-0.005261789541691542,0.23876795172691345,-1.5348952452289026,0.0,-0.0509050227701664,0.8022973537445068,-0.0,0.01857462152838707,0.8727893829345703,-7.116133201634511e-05,0.15027059614658356
639.0,681.0,-2.9743,0.1089,9.335,-0.0226,0.0451,-0.1243,-2.1403757534422816,0.000212295024539344,4.092496871948242,-1.6534698009490967,0.045955952256917953,1.8045670986175537,5.609157311707296,-0.00914955884218216,0.2332763373851776,-1.5349114576922815,0.0,-0.0395389199256897,0.8022536635398865,-0.0,0.03589601069688797,0.8727893829345703,-6.793835200369358e-05,0.13655999302864075
650.0,649.0,-2.9743,0.1089,9.335,-0.0226,0.0451,-0.1243,-2.140395780602926,0.0001898969494504854,4.069803714752197,-1.6531895399093628,0.04998890310525894,1.942501187324524,5.609173643379965,-0.009585508145391941,0.2443086802959442,-1.534875218068258,0.0,-0.0450594462454319,0.8022733926773071,-0.0,0.0432942658662796,0.8728055357933044,-5.2172636060277e-05,0.1206173449754715
650.0,649.0,-2.9743,0.1089,9.335,-0.0226,0.0451,-0.1243,-2.140407224694723,0.00017741874034982175,4.1053466796875,-1.6529450416564941,0.05312890186905861,1.8917474746704102,5.609045552998342,-0.007814302109181881,0.23193758726119995,-1.5349190870868128,0.0,-0.03720300644636154,0.8022376298904419,-0.0,0.025231465697288513,0.8727734088897705,-5.0535949412733316e-05,0.16580268740653992
650.0,649.0,-2.9743,0.1089,9.335,-0.0226,0.0451,-0.1243,-2.140383382836813,0.00016149983275681734,4.045696258544922,-1.652613639831543,0.05849345028400421,1.9182586669921875,5.609053540020742,-0.006125027779489756,0.24566131830215454,-1.5349190870868128,0.0,-0.053709954023361206,0.8022853136062622,-0.0,0.0310506708920002,0.8727610111236572,-4.84937263536267e-05,0.1764054149389267
650.0,649.0,-2.9743,0.1089,9.335,-0.0226,0.0451,-0.1243,-2.1403876743712367,0.00015238492051139474,4.110851764678955,-1.6523933410644531,0.06343064457178116,1.861159086227417,5.609013783722677,-0.004635045304894447,0.24350392818450928,-1.5348952452289026,0.0,-0.05449257045984268,0.8022134900093079,-0.0,0.0549318790435791,0.8728821873664856,-4.722160520032048e-05,0.18547526001930237
650.0,649.0,-3.2536,-0.329,9.6646,-0.036,0.0866,-0.1106,-2.1404315433897914,0.0001404910144628957,4.09121561050415,-1.6519616842269897,0.06950642913579941,1.8635249137878418,5.609018134861746,-0.003083963878452778,0.23486685752868652,-1.534903351460592,0.0,-0.04411860927939415,0.8022813200950623,-0.0,0.03512847423553467,0.8728015422821045,-4.54337423434481e-05,0.1809312403202057
650.0,649.0,-3.2536,-0.329,9.6646,-0.036,0.0866,-0.1106,-2.140395303765768,0.00013031947310082614,4.096606254577637,-1.6514785289764404,0.0752892717719078,1.9724544286727905,5.608945834427633,-0.0026261871680617332,0.2461499273777008,-1.5348995367633265,0.0,-0.04136009141802788,0.8022814393043518,-0.0,0.03289397060871124,0.8728015422821045,-4.3776333768619224e-05,0.13389329612255096
650.0,649.0,-3.2536,-0.329,9.6646,-0.036,0.0866,-0.1106,-2.140411516229147,0.00012431907816790044,4.063704967498779,-1.6511739492416382,0.08002307265996933,1.9615347385406494,5.608970153122701,-0.0025610732845962048,0.23557597398757935,-1.5348427931415003,0.0,-0.044126756489276886,0.802309513092041,-0.0,0.03509267047047615,0.8727532029151917,-4.273697413736954e-05,0.16968417167663574
650.0,649.0,-3.2536,-0.329,9.6646,-0.036,0.0866,-0.1106,-2.1403995953001917,0.00011628759239101782,4.100512504577637,-1.6506813764572144,0.08404944092035294,1.89292311668396,5.608897256642141,-0.002504040952771902,0.24437445402145386,-1.534903351460592,0.0,-0.052659258246421814,0.8022853136062622,-0.0,0.044807739555835724,0.8727692365646362,-4.1267339838668704e-05,0.14423589408397675
650.0,649.0,-3.2536,-0.329,9.6646,-0.036,0.0866,-0.1106,-2.14042391399526,0.00011148593330290169,4.119909286499023,-1.6503456830978394,0.0858631432056427,1.948318600654602,5.608930158406057,-0.0024198449682444334,0.2396838665008545,-1.5348790327655237,0.0,-0.054504357278347015,0.802249550819397,-0.0,0.04135967791080475,0.8728137016296387,-4.034243829664774e-05,0.21603381633758545
650.0,649.0,-3.2536,-0.329,9.6646,-0.036,0.0866,-0.1106,-2.1403919659056605,0.00010498365736566484,4.078413963317871,-1.6498141288757324,0.09051231294870377,1.921931505203247,5.60888164022521,-0.001984457951039076,0.23824012279510498,-1.5348551909076136,0.0,-0.04356475546956062,0.8022213578224182,-0.0,0.04600848630070686,0.8728420734405518,-5.150158699507301e-08,0.14329096674919128
650.0,649.0,-3.2536,-0.329,9.6646,-0.036,0.0866,-0.1106,-2.140355249444479,9.919801959767938e-05,4.137053489685059,-1.6491894721984863,0.09581448882818222,1.9597804546356201,5.608889746456899,-0.001393345184624195,0.2291441261768341,-1.5348952452289026,0.0,-0.059574950486421585,0.8022494912147522,-0.0,0.04459970444440842,0.872817873954773,-1.2437028132621791e-13,0.17309948801994324
650.0,649.0,-3.2536,-0.329,9.6646,-0.036,0.0866,-0.1106,-2.140383382836813,9.568275709170848e-05,4.115988731384277,-1.6487865447998047,0.10101684927940369,1.9373027086257935,5.608873891621389,-0.001115060644224286,0.243463397026062,-1.5349434057818812,0.0,-0.03720686212182045,0.8022494912147522,9.479292202740908e-05,0.03618217632174492,0.8728015422821045,-2.2386210601926752e-17,0.14968422055244446
650.0,649.0,-3.2536,-0.329,9.6646,-0.036,0.0866,-0.1106,-2.140383382836813,9.085323836188763e-05,4.070591926574707,-1.6481292247772217,0.10769014060497284,1.9515178203582764,5.608934151917257,-0.0006337912636809051,0.25226348638534546,-1.5348628203021448,0.0,-0.051543332636356354,0.8022373914718628,8.958132821135223e-05,0.030106987804174423,0.8728296756744385,-5.406006985494418e-23,0.17818069458007812
650.0,649.0,-3.2536,-0.329,9.6646,-0.036,0.0866,-0.1106,-2.1403876743712367,8.789573621470481e-05,4.063599586486816,-1.6477296352386475,0.11231379210948944,1.9558703899383545,5.608938145428457,-0.000491668819449842,0.24114196002483368,-1.534903351460592,0.0,-0.0457344651222229,0.8022574782371521,8.615131810074672e-05,0.04632925987243652,0.8727933168411255,-9.730621606688536e-27,0.17704510688781738
650.0,649.0,-3.2536,-0.329,9.6646,-0.036,0.0866,-0.1106,-2.1404038868346156,8.38035048218444e-05,4.124832630157471,-1.646990180015564,0.11922808736562729,1.9013385772705078,5.608934211521902,-0.00037016061833128333,0.24147137999534607,-1.5349190870868128,0.0,-0.04213026911020279,0.8022294044494629,8.147206244757399e-05,0.05407501757144928,0.8728543519973755,3.5600871342467144e-05,0.18471385538578033
650.0,649.0,-3.2536,-0.329,9.6646,-0.036,0.0866,-0.1106,-2.1403876743712367,8.128076296998188e-05,4.069809913635254,-1.6465092897415161,0.12394563108682632,1.9868814945220947,5.608930098801412,-0.0003178298065904528,0.24942368268966675,-1.5348709265338343,0.0,-0.05046326667070389,0.8022295236587524,7.862496568122879e-05,0.043618038296699524,0.8727893829345703,3.424930036999285e-05,0.13215970993041992
650.0,649.0,-3.2536,-0.329,9.6646,-0.036,0.0866,-0.1106,-2.1404034099974574,6.480996671598405e-05,4.121866226196289,-1.6457133293151855,0.1289386749267578,1.9773998260498047,5.608877944737234,-0.0002622348256409168,0.24159683287143707,-1.5348833242999476,0.0,-0.050690338015556335,0.802261471748352,7.470892887795344e-05,0.0443803071975708,0.872809648513794,3.239986108383164e-05,0.13423609733581543
616.0,641.0,-3.2536,-0.329,9.6646,-0.036,0.0866,-0.1106,-2.1404315433897914,6.212358857737854e-05,4.089949607849121,-1.6449333429336548,0.1324295699596405,2.0138845443725586,5.608893859177389,-0.0002449895837344229,0.25760000944137573,-1.5348671118365687,0.0,-0.048799898475408554,0.8022534251213074,7.116448978194967e-05,0.046752046793699265,0.8727933168411255,3.0739967769477516e-05,0.16603103280067444
616.0,641.0,-3.2536,-0.329,9.6646,-0.036,0.0866,-0.1106,-2.140440126458639,6.0454407503129914e-05,4.103458404541016,-1.64431893825531,0.13496604561805725,2.0108578205108643,5.608917820244589,-0.00024356409267056733,0.23489084839820862,-1.5348876158343714,0.0,-0.052752189338207245,0.8022733926773071,8.265960059361532e-05,0.035660795867443085,0.8727850914001465,2.9724693376920186e-05,0.167646586894989
616.0,641.0,-3.2536,-0.329,9.6646,-0.036,0.0866,-0.1106,-2.140395303765768,5.811236042063683e-05,4.116670608520508,-1.6435856819152832,0.14561060070991516,1.992722511291504,5.608885991364279,-0.0002812926541082561,0.24889898300170898,-1.5349310080157679,0.0,-0.04575544223189354,0.802245557308197,7.913965964689851e-05,0.03410768508911133,0.872785210609436,2.8321624995442107e-05,0.17815828323364258
616.0,641.0,-3.2536,-0.329,9.6646,-0.036,0.0866,-0.1106,-2.140411516229147,5.664926356985234e-05,4.071003437042236,-1.6430156230926514,0.1485360711812973,1.9937270879745483,5.608910071640768,-0.00023454066831618547,0.23775801062583923,-1.534875218068258,0.0,-0.04513256251811981,0.802265465259552,7.688612822676077e-05,0.026095934212207794,0.8727891445159912,2.745758138189558e-05,0.12000124901533127
616.0,641.0,-3.4851,-0.0461,9.5533,-0.0286,0.1895,-0.1156,-2.1404644451537074,4.367606743471697e-05,4.082079887390137,-1.642091989517212,0.15439465641975403,2.044881820678711,5.608878242760458,-0.001098104054108262,0.2547890245914459,-1.534903351460592,0.0,-0.04875457286834717,0.8022892475128174,7.373645348707214e-05,0.038574472069740295,0.8728057146072388,2.6256078854203224e-05,0.1284286379814148
616.0,641.0,-3.4851,-0.0461,9.5533,-0.0286,0.1895,-0.1156,-2.1403914890685023,4.2136791307711974e-05,4.118456840515137,-1.6411219835281372,0.1641807109117508,2.030146360397339,5.608858096390524,-0.0015914064133539796,0.24442335963249207,-1.534891430531637,0.0,-0.05300380289554596,0.8022813200950623,7.083471427904442e-05,0.04597489535808563,0.8728220462799072,2.515529740776401e-05,0.1280704140663147
616.0,641.0,-3.4851,-0.0461,9.5533,-0.0286,0.1895,-0.1156,-2.140419145623678,3.1019419111544266e-05,4.136834621429443,-1.6404258012771606,0.1684981882572174,2.0373358726501465,5.608842122345724,-0.0018722127424553037,0.24596169590950012,-1.534891430531637,0.0,-0.057089000940322876,0.802229642868042,6.902393215568736e-05,0.04562785103917122,0.8727769255638123,2.4471326469210908e-05,0.1761385202407837
616.0,641.0,-3.4851,-0.0461,9.5533,-0.0286,0.1895,-0.1156,-2.1403991184630335,2.985538412758615e-05,4.099948406219482,-1.6394237279891968,0.17049330472946167,2.004330635070801,5.60879801490859,-0.0029330372344702482,0.2387690246105194,-1.5349071661578577,0.0,-0.03673570603132248,0.8022654056549072,6.647484406130388e-05,0.02661368064582348,0.8728256225585938,2.3512391635449603e-05,0.19056129455566406
616.0,641.0,-3.4851,-0.0461,9.5533,-0.0286,0.1895,-0.1156,-2.1404558620848597,1.5745760251206775e-08,4.097310543060303,-1.6387280225753784,0.16979379951953888,2.054697036743164,5.608786093979635,-0.003913929685950279,0.24389415979385376,-1.5349190870868128,0.0,-0.03833852708339691,0.8022456169128418,6.487754581030458e-05,0.04284515231847763,0.8728256225585938,2.2913780412636697e-05,0.1404234766960144
616.0,641.0,-3.4851,-0.0461,9.5533,-0.0286,0.1895,-0.1156,-2.1404277286925257,3.8024159423324586e-14,4.123852729797363,-1.6376588344573975,0.1785861849784851,2.0558290481567383,5.608750092774191,-0.005659839138388634,0.2231156826019287,-1.534891430531637,0.0,-0.06901676952838898,0.8022773861885071,7.03748592059128e-05,0.044742949306964874,0.8728256225585938,2.2070920749683864e-05,0.1321428120136261
616.0,641.0,-3.4851,-0.0461,9.5533,-0.0286,0.1895,-0.1156,-2.140468259850973,9.182387223343963e-20,4.142324447631836,-1.636566400527954,0.18766199052333832,2.1045477390289307,5.608690249710836,-0.007371813990175724,0.2577759027481079,-1.5348828474627894,0.0,-0.0533313974738121,0.8022333979606628,7.060039934003726e-05,0.036426715552806854,0.8728338479995728,2.1287862182362005e-05,0.11354389041662216
616.0,641.0,-3.4851,-0.0461,9.5533,-0.0286,0.1895,-0.1156,-2.140452047387594,1.6527972294753642e-23,4.128011703491211,-1.6358089447021484,0.1917940229177475,2.070762872695923,5.608706164150991,-0.0082172229886055,0.24317163228988647,-1.5349071661578577,0.0,-0.05683155730366707,0.8022093772888184,8.993278242996894e-06,0.05212542414665222,0.8728256225585938,2.0795976524823345e-05,0.11879377067089081
616.0,641.0,-3.4851,-0.0461,9.5533,-0.0286,0.1895,-0.1156,-2.1404720745482386,5.878376214241143e-06,4.175289154052734,-1.6346995830535889,0.19572660326957703,2.105849027633667,5.608626353531637,-0.009246873669326305,0.2447989284992218,-1.5348671118365687,0.0,-0.04378603398799896,0.8022891879081726,2.5033117800887794e-09,0.03919692710042,0.8728739619255066,3.0148392397677526e-05,0.13516181707382202
616.0,641.0,-3.4851,-0.0461,9.5533,-0.0286,0.1895,-0.1156,-2.1404477558531703,1.0580870624110617e-09,4.099437236785889,-1.633919596672058,0.19404715299606323,2.076380968093872,5.608574378281393,-0.008816784247756004,0.24252866208553314,-1.5348790327655237,0.0,-0.04360022395849228,0.8022375702857971,1.0672011017953675e-11,0.03581707924604416,0.8727849721908569,4.000208662091609e-07,0.08632844686508179
616.0,641.0,-3.4851,-0.0461,9.5533,-0.0286,0.1895,-0.1156,-2.1404315433897914,2.555155353522586e-15,4.106858730316162,-1.6327215433120728,0.20322772860527039,2.054149627685547,5.608530509262838,-0.009072466753423214,0.256291002035141,-1.5349152723895472,0.0,-0.034539688378572464,0.8022852540016174,2.9705934621735352e-15,0.04184635728597641,0.8728337287902832,9.660033190028727e-13,0.12518112361431122
616.0,641.0,-3.4851,-0.0461,9.5533,-0.0286,0.1895,-0.1156,-2.1404596767821253,6.170399015779059e-21,4.122598648071289,-1.6314820051193237,0.21047921478748322,2.0782928466796875,5.608426797180929,-0.010668693110346794,0.23596999049186707,-1.5348709265338343,0.0,-0.05584661662578583,0.8022534847259521,8.268755380033605e-19,0.04813490808010101,0.8728256225585938,2.3327843646345373e-18,0.13337843120098114
616.0,641.0,-3.4851,-0.0461,9.5533,-0.0286,0.1895,-0.1156,-2.140419145623678,1.1106500874503724e-24,4.152148246765137,-1.63065505027771,0.2169591635465622,2.073822498321533,5.608358847885885,-0.011595888994634151,0.24830317497253418,-1.5348871389972132,0.0,-0.06123071163892746,0.8022415041923523,3.525100458435052e-21,0.053029850125312805,0.8728173971176147,4.1989296412131867e-22,0.16470733284950256
616.0,641.0,-3.4851,-0.0461,9.5533,-0.0286,0.1895,-0.1156,-2.140512605706686,-2.7474989110487513e-05,4.138319492340088,-1.6293836832046509,0.2186940312385559,2.085620403289795,5.608291196614065,-0.01448748353868723,0.248794287443161,-1.5348590056048792,0.0,-0.04669467359781265,0.8022415637969971,9.812245383515424e-25,0.0408652201294899,0.8728460073471069,1.013992197180666e-27,0.16159622371196747
528.0,557.0,-3.4851,-0.0461,9.5533,-0.0286,0.1895,-0.1156,-2.140495916406149,-0.0004103913379367441,4.156449317932129,-1.6284562349319458,0.21672983467578888,2.11544132232666,5.608179080277242,-0.016617000102996826,0.24676945805549622,-1.534851376210348,0.0,-0.04106621444225311,0.8022693395614624,4.183114061419243e-27,0.049880705773830414,0.8728456497192383,9.427016630070284e-05,0.08318284153938293
528.0,557.0,-3.4851,-0.0461,9.5533,-0.0286,0.1895,-0.1156,-2.140495916406149,-0.0010588367003947496,4.0781474113464355,-1.6271522045135498,0.21926164627075195,2.1542069911956787,5.608083236008444,-0.018645387142896652,0.23807871341705322,-1.5348909536944788,0.0,-0.03732713684439659,0.802221417427063,1.1643851768906324e-30,0.04132711887359619,0.8728775978088379,0.00010656593804014847,0.11197515577077866
528.0,557.0,-3.4851,-0.0461,9.5533,-0.0286,0.1895,-0.1156,-2.1405159435667933,-0.0007782348548062146,4.116954326629639,-1.625840663909912,0.22231842577457428,2.131004571914673,5.607979523926534,-0.021280905231833458,0.2402821183204651,-1.5348671118365687,0.0,-0.04104578495025635,0.8022732734680176,3.241109069519453e-34,0.05983228236436844,0.8728575110435486,0.00011591071233851835,0.06985343992710114
528.0,557.0,-3.4851,-0.0461,9.5533,-0.0286,0.1895,-0.1156,-2.140463491479391,-0.0006243633106350899,4.139094829559326,-1.6249122619628906,0.22455920279026031,2.1322360038757324,5.6078237173850916,-0.023479141294956207,0.2456006407737732,-1.534875218068258,0.0,-0.033726345747709274,0.8021817207336426,1.3817353512487237e-36,0.04127928614616394,0.8728374242782593,0.00011229532537981868,0.11950617283582687
528.0,557.0,-3.4935,-0.2806,9.3051,-0.0345,0.2324,-0.1127,-2.140495916406149,-0.00048122924636118114,4.146387100219727,-1.623536467552185,0.22328263521194458,2.1450958251953125,5.6077120182807825,-0.02381766587495804,0.22429460287094116,-1.5349152723895472,0.0,-0.045002758502960205,0.8022732734680176,3.846115869063039e-40,0.05381671339273453,0.8728337287902832,0.0004269754281267524,0.11546729505062103
528.0,557.0,-3.4935,-0.2806,9.3051,-0.0345,0.2324,-0.1127,-2.1404792271056117,-0.0004174441855866462,4.166861534118652,-1.6226754188537598,0.22558622062206268,2.1583638191223145,5.607676374703207,-0.024744799360632896,0.2411998212337494,-1.5348790327655237,0.0,-0.0470956489443779,0.8022892475128174,1.639519203260036e-42,0.042824938893318176,0.8728575110435486,0.00043182793888263404,0.10211873054504395
528.0,557.0,-3.4935,-0.2806,9.3051,-0.0345,0.2324,-0.1127,-2.140463491479391,-0.0003482131287455559,4.127767562866211,-1.6212207078933716,0.22889269888401031,2.2020692825317383,5.607468354492941,-0.026788396760821342,0.23004990816116333,-1.5348871389972132,0.0,-0.039542924612760544,0.8022574782371521,0.0,0.04091256856918335,0.8728735446929932,0.0004100202349945903,0.11333358287811279
528.0,557.0,-3.4935,-0.2806,9.3051,-0.0345,0.2324,-0.1127,-2.1404715977110804,-0.00031354831298813224,4.159685134887695,-1.6203454732894897,0.23130163550376892,2.144381284713745,5.607332157879629,-0.026834402233362198,0.22825667262077332,-1.5348790327655237,0.0,-0.03577074408531189,0.8022852540016174,0.0,0.04917237162590027,0.8728735446929932,0.00036809968878515065,0.07322325557470322
528.0,557.0,-3.4935,-0.2806,9.3051,-0.0345,0.2324,-0.1127,-2.1404315433897914,-0.0002728116523940116,4.1369218826293945,-1.6189779043197632,0.23412005603313446,2.1706013679504395,5.6071722386176965,-0.03150513023138046,0.2277059704065323,-1.534875218068258,0.0,-0.030633743852376938,0.8022693991661072,0.0,0.0488671213388443,0.8728935718536377,0.00031914672581478953,0.05368329957127571
528.0,557.0,-3.4935,-0.2806,9.3051,-0.0345,0.2324,-0.1127,-2.1405240497984828,-0.00024144377675838768,4.140172958374023,-1.6175222396850586,0.23505346477031708,2.15596866607666,5.606936800270834,-0.03819509968161583,0.23992842435836792,-1.534851376210348,0.0,-0.03686295077204704,0.8022974729537964,0.0,0.05454979091882706,0.8728775382041931,0.0002816862834151834,0.05732201039791107
528.0,557.0,-3.4935,-0.2806,9.3051,-0.0345,0.2324,-0.1127,-2.1405002079405726,-0.00022425442875828594,4.13041877746582,-1.6165939569473267,0.23871004581451416,2.1636176109313965,5.606849419861593,-0.04606763273477554,0.22214892506599426,-1.5348551909076136,0.0,-0.03058042749762535,0.8022974729537964,0.0,0.0505710244178772,0.8729095458984375,0.00026124424766749144,0.06080639362335205
528.0,557.0,-3.4935,-0.2806,9.3051,-0.0345,0.2324,-0.1127,-2.140515466729635,-0.00023156161478254944,4.162307262420654,-1.615116834640503,0.24065075814723969,2.207261085510254,5.606497633248129,-0.06296126544475555,0.20482712984085083,-1.5348551909076136,0.0,-0.031201370060443878,0.8023050427436829,0.0,0.05914220213890076,0.8728976249694824,0.00023559799592476338,0.04109783470630646
528.0,557.0,-3.4935,-0.2806,9.3051,-0.0345,0.2324,-0.1127,-2.140507837335104,-0.00015088672807905823,4.1443257331848145,-1.6142224073410034,0.23830574750900269,2.162896156311035,5.606172728329458,-0.07607068866491318,0.19689080119132996,-1.5348551909076136,0.0,-0.02494293823838234,0.8023014068603516,0.0,0.05130024999380112,0.8728693723678589,0.0002211262908531353,0.01742640696465969
528.0,557.0,-3.4935,-0.2806,9.3051,-0.0345,0.2324,-0.1127,-2.1405121288695277,-0.00019118626369163394,4.076099395751953,-1.612777829170227,0.23879052698612213,2.1850438117980957,5.605653750687399,-0.09217502176761627,0.19866470992565155,-1.5348590056048792,6.791877240175381e-05,-0.030573859810829163,0.8022456765174866,4.186160253993876e-07,0.04695183038711548,0.8728857040405273,0.000202471055672504,0.010932793840765953
528.0,557.0,-3.4935,-0.2806,9.3051,-0.0345,0.2324,-0.1127,-2.140564104119772,-0.0001755509147187695,4.12484073638916,-1.6113814115524292,0.24330434203147888,2.20119047164917,5.605043697148123,-0.09635584056377411,0.19887065887451172,-1.5348551909076136,0.00013780087465420365,-0.031012512743473053,0.8022772669792175,1.1652330489386742e-10,0.049113281071186066,0.8728415369987488,0.00018671904399525374,-0.011981806717813015
528.0,557.0,-3.4935,-0.2806,9.3051,-0.0345,0.2324,-0.1127,-2.1405397854247035,-0.0001662839640630409,4.152474880218506,-1.610366702079773,0.24605156481266022,2.178311824798584,5.60468881109313,-0.09362618625164032,0.19378556311130524,-1.5347636381732386,0.00015045356121845543,-0.03031708113849163,0.8022496104240417,4.967570950940858e-13,0.04477330669760704,0.8728652596473694,0.00016292025975417346,0.03586556762456894
528.0,557.0,-3.4935,-0.2806,9.3051,-0.0345,0.2324,-0.1127,-2.1404792271056117,-0.00015408301260322332,4.141103744506836,-1.6089301109313965,0.24372868239879608,2.1580636501312256,5.604109573155203,-0.08130959421396255,0.2057686448097229,-1.5348194281207483,0.00014542022836394608,-0.021089769899845123,0.8022297620773315,1.3827415817232428e-16,0.04456248879432678,0.8728939294815063,0.00014462610124610364,0.03266528621315956
398.0,395.0,-3.4935,-0.2806,9.3051,-0.0345,0.2324,-0.1127,-2.140471120873922,-0.00014689732051920146,4.128829002380371,-1.607978105545044,0.24218285083770752,2.185680389404297,5.60384218671874,-0.07653581351041794,0.20355787873268127,-1.5348833242999476,0.0001390044781146571,-0.019493795931339264,0.8023367524147034,5.89484421572839e-19,0.03856533765792847,0.8729016780853271,0.0001382772607030347,-0.027186281979084015
398.0,395.0,-3.4935,-0.2806,9.3051,-0.0345,0.2324,-0.1127,-2.140491624871725,-0.0001372936530970037,4.172429084777832,-1.6065422296524048,0.24663372337818146,2.177037239074707,5.603333341866293,-0.08538691699504852,0.19590440392494202,-1.5348113218890589,0.00014897804067004472,-0.026479575783014297,0.8022935390472412,1.6408513825698576e-22,0.04762139916419983,0.8728575706481934,0.00012973482080269605,-0.08939974755048752
398.0,395.0,-3.4935,-0.2806,9.3051,-0.0345,0.2324,-0.1127,-2.140515466729635,-0.00012886858894489706,4.162705898284912,-1.6051067113876343,0.25220614671707153,2.2174201011657715,5.602796005993643,-0.10634483397006989,0.1943056583404541,-1.534835163746969,0.00014028935402166098,-0.01859297603368759,0.8023169636726379,4.567369980207947e-26,0.05513352155685425,0.8728980422019958,0.00012218642223160714,-0.047649871557950974
398.0,395.0,-3.4935,-0.2806,9.3051,-0.0345,0.2324,-0.1127,-2.1404668293394984,-0.00013544101966544986,4.133334159851074,-1.6040143966674805,0.25063255429267883,2.232156276702881,5.6023146388824365,-0.11858974397182465,0.16850581765174866,-1.5348113218890589,0.0001350274687865749,-0.016483331099152565,0.8022851943969727,1.9471414145709877e-28,0.051931727677583694,0.8728980422019958,0.00011762380745494738,-0.04343226179480553
398.0,395.0,-4.139,-0.2512,9.5928,-0.0446,0.2086,-0.1144,-2.140519758264059,-0.0001759283331921324,4.148392200469971,-1.6025891304016113,0.2462751865386963,2.169499158859253,5.601617562561788,-0.12199917435646057,0.16679200530052185,-1.5348194281207483,0.0002069626352749765,-0.02624397724866867,0.8022654056549072,5.419938789918282e-32,0.04687659442424774,0.8728612065315247,5.106400931254029e-05,-0.1385272890329361
398.0,395.0,-4.139,-0.2512,9.5928,-0.0446,0.2086,-0.1144,-2.140519758264059,-0.0001647790486458689,4.102124214172363,-1.6015753746032715,0.24951423704624176,2.233935832977295,5.601112353592672,-0.11586736887693405,0.17886972427368164,-1.5348551909076136,0.00019459308532532305,-0.010232641361653805,0.8022812604904175,2.3106054197415408e-34,0.05203818529844284,0.8728898763656616,5.527575558517128e-05,-0.07366657257080078
398.0,395.0,-4.139,-0.2512,9.5928,-0.0446,0.2086,-0.1144,-2.140535970727438,-0.0001484689419157803,4.1537184715271,-1.6001168489456177,0.256828635931015,2.205150604248047,5.60051970460967,-0.1036040410399437,0.17653155326843262,-1.5348113218890589,0.00017226413183379918,-0.008571292273700237,0.8022773265838623,6.431654468185688e-38,0.030632812529802322,0.8728656768798828,-0.00010793594265123829,-0.10616420209407806
398.0,395.0,-4.139,-0.2512,9.5928,-0.0446,0.2086,-0.1144,-2.140519758264059,-0.00013509691052604467,4.160306930541992,-1.5985854864120483,0.2550208270549774,2.2205896377563477,5.599924552231588,-0.1034960150718689,0.1780237853527069,-1.5348113218890589,0.00015451639774255455,-0.020465532317757607,0.8022733330726624,1.7902989180213863e-41,0.0537700280547142,0.8728693723678589,-6.410596053996187e-09,-0.08862675726413727
398.0,395.0,-4.139,-0.2512,9.5928,-0.0446,0.2086,-0.1144,-2.1405679188170375,-0.00015258154598996043,4.125532627105713,-1.597584843635559,0.24846619367599487,2.2344799041748047,5.599497604161062,-0.11482930928468704,0.1876804530620575,-1.5348194281207483,0.0001445859088562429,-0.032895442098379135,0.802261471748352,7.567011707354012e-44,0.03771296143531799,0.8728816509246826,-1.1538847134728858e-12,-0.05661748722195625
398.0,395.0,-4.139,-0.2512,9.5928,-0.0446,0.2086,-0.1144,-2.140535970727438,-0.00016444548964500427,4.136707782745361,-1.5960315465927124,0.24762116372585297,2.207749128341675,5.598738419800558,-0.1328708976507187,0.18577122688293457,-1.5348032156573694,0.00013187325384933501,-0.007652697153389454,0.8022574186325073,0.0,0.0549330897629261,0.8728894591331482,-2.78649603254717e-18,-0.10208255052566528
398.0,395.0,-4.139,-0.2512,9.5928,-0.0446,0.2086,-0.1144,-2.140547891656393,-0.00017861365631688386,4.153013229370117,-1.5950464010238647,0.25171348452568054,2.2090067863464355,5.598181652813711,-0.13728617131710052,0.17400464415550232,-1.5348709265338343,0.00012457137927412987,-0.014735552482306957,0.8022732734680176,0.0,0.05465042591094971,0.8729016780853271,-5.015594296137511e-22,-0.08178985118865967
398.0,395.0,-4.139,-0.2512,9.5928,-0.0446,0.2086,-0.1144,-2.1405073604979457,-0.0002390642766840756,4.1733784675598145,-1.5935677289962769,0.2534535229206085,2.2709603309631348,5.597316968231954,-0.13702358305454254,0.16402554512023926,-1.534851376210348,0.00011501893459353596,-0.02832638844847679,0.8022935390472412,0.0,0.06105514615774155,0.8728815913200378,-1.211206942003433e-27,-0.05195469409227371
398.0,395.0,-4.139,-0.2512,9.5928,-0.0446,0.2086,-0.1144,-2.1405722103514613,-0.0002849187876563519,4.1417670249938965,-1.5920062065124512,0.2474648654460907,2.2416930198669434,5.596516537457266,-0.14962033927440643,0.1711272895336151,-1.534875218068258,0.00010682693391572684,-0.024641573429107666,0.8023053407669067,0.0,0.04207563400268555,0.8729296326637268,-2.9249219817236337e-33,-0.06486883759498596
398.0,395.0,-4.139,-0.2512,9.5928,-0.0446,0.2086,-0.1144,-2.140531679193014,-0.0003031461965292692,4.183465003967285,-1.591020941734314,0.24553072452545166,2.2176055908203125,5.595898973732748,-0.1706300526857376,0.17506462335586548,-1.5348551909076136,0.00010198461677646264,-0.02498902939260006,0.802277684211731,0.0,0.06698844581842422,0.8728851675987244,-5.26475680318234e-37,-0.02065133862197399
398.0,395.0,-4.139,-0.2512,9.5928,-0.0446,0.2086,-0.1144,-2.1405636272826136,-0.0004973538452759385,4.198875427246094,-1.5895119905471802,0.24885034561157227,2.204827308654785,5.594706463604727,-0.19027389585971832,0.15065249800682068,-1.5347955862628382,9.549197420710698e-05,-0.007438315078616142,0.8023093342781067,0.0,0.059871528297662735,0.8729172348976135,-1.2709777071426091e-42,-0.06323473155498505
398.0,395.0,-4.139,-0.2512,9.5928,-0.0446,0.2086,-0.1144,-2.14052738765859,-0.0004072870942763984,4.151963233947754,-1.5885533094406128,0.25082626938819885,2.2489867210388184,5.593958306103506,-0.19016246497631073,0.15619492530822754,-1.5348671118365687,9.160407353192568e-05,-0.025006050243973732,0.8022693395614624,0.0,0.06548665463924408,0.8729541301727295,0.0005766277899965644,-0.06993206590414047
