ramyac6/ROB537/final_project/csv/all/bad_10.csv
tof_0,tof_1,accelx,accely,accelz,gyrox,gyroy,gyroz,shoulder_lift_joint_position,shoulder_lift_joint_velocity,shoulder_lift_joint_effort,elbow_joint_position,elbow_joint_velocity,elbow_joint_effort,wrist_1_joint_position,wrist_1_joint_velocity,wrist_1_joint_effort,wrist_2_joint_position,wrist_2_joint_velocity,wrist_2_joint_effort,wrist_3_joint_position,wrist_3_joint_velocity,wrist_3_joint_effort,shoulder_pan_joint_position,shoulder_pan_joint_velocity,shoulder_pan_joint_effort
295.0,284.0,4.5775,1.523,7.7079,-0.0377,0.0483,-0.1243,-1.6002260647215785,-2.632503310451284e-05,2.290048837661743,-1.4351040124893188,-0.0,2.164529323577881,-2.28621830562734,-0.0,0.28972703218460083,-1.562326733266012,-0.0,-0.028110666200518608,0.5393991470336914,0.0,0.0137659115716815,1.1099398136138916,0.0,-0.00531414058059454
295.0,284.0,4.5775,1.523,7.7079,-0.0377,0.0483,-0.1243,-1.600246091882223,-2.4870058041415177e-05,2.3302130699157715,-1.435152530670166,-0.0,2.2403485774993896,-2.286250730554098,-0.0,0.298462837934494,-1.5622900168048304,-0.0,-0.02319921925663948,0.5393712520599365,0.0,0.002607781672850251,1.1098912954330444,0.0,-0.04162340983748436
295.0,284.0,4.5775,1.523,7.7079,-0.0377,0.0483,-0.1243,-1.6002737484373988,-2.2966149117564783e-05,2.2716870307922363,-1.4351565837860107,-0.0,2.2517378330230713,-2.2862702808775843,-0.0,0.27973508834838867,-1.5622904936419886,-0.0,-0.016184639185667038,0.5393749475479126,0.0,0.003903406672179699,1.10990309715271,0.0,0.07674708217382431
295.0,284.0,4.5775,1.523,7.7079,-0.0377,0.0483,-0.1243,-1.6002303562560023,-2.185099947382696e-05,2.34161376953125,-1.4351282119750977,-0.0,2.1943602561950684,-2.2862864933409632,-0.0,0.29499101638793945,-1.5622380415545862,-0.0,-0.022531893104314804,0.5394351482391357,0.0,0.01300937868654728,1.1098631620407104,0.0,0.032399751245975494
295.0,284.0,4.5775,1.523,7.7079,-0.0377,0.0483,-0.1243,-1.6002618275084437,-2.0367471734061837e-05,2.325942277908325,-1.4351401329040527,-0.0,2.1845524311065674,-2.286217828790182,-0.0,0.30344533920288086,-1.5623229185687464,-0.0,-0.02988215908408165,0.5394633412361145,0.0,0.0033232623245567083,1.1098875999450684,0.0,-0.0031377568375319242
295.0,284.0,4.5775,1.523,7.7079,-0.0377,0.0483,-0.1243,-1.6002856693663539,-1.948555109265726e-05,2.290070056915283,-1.4351199865341187,-0.0,2.194063901901245,-2.2862583599486292,-0.0,0.29882773756980896,-1.5622780958758753,-0.0,-0.030986253172159195,0.5394391417503357,0.0,0.007138424087315798,1.1098793745040894,0.0,-0.00818242970854044
295.0,284.0,4.5775,1.523,7.7079,-0.0377,0.0483,-0.1243,-1.6002499065794886,-1.8297130736755207e-05,2.3340530395507812,-1.4351240396499634,-0.0,2.204928398132324,-2.286234041253561,-0.0,0.3021838068962097,-1.5623024145709437,-0.0,-0.029813528060913086,0.5394514799118042,0.0,0.008621471002697945,1.1099073886871338,0.0,0.013342345133423805
295.0,284.0,4.5775,1.523,7.7079,-0.0377,0.0483,-0.1243,-1.600286146203512,-1.7582236978341825e-05,2.372263193130493,-1.4351565837860107,-0.0,2.1734535694122314,-2.28625025371694,-0.0,0.28859877586364746,-1.5622699896441858,-0.0,-0.02688189223408699,0.539483368396759,0.0,0.0012355322251096368,1.1099035739898682,0.0,0.040440790355205536
295.0,284.0,4.5775,1.523,7.7079,-0.0377,0.0483,-0.1243,-1.6002499065794886,-1.6608842997811735e-05,2.332737684249878,-1.435152530670166,-0.0,2.220154285430908,-2.2862779102721156,-0.0,0.29548653960227966,-1.5623024145709437,-0.0,-0.015950968489050865,0.539459228515625,0.0,0.0023603111039847136,1.1098591089248657,0.0,0.017823489382863045
304.0,278.0,4.6421,1.5272,7.6863,-0.0486,0.027,-0.1185,-1.6002499065794886,-1.6017651432775892e-05,2.2900044918060303,-1.4351680278778076,-0.0,2.170635223388672,-2.286222120324606,-0.0,0.29637134075164795,-1.5622661749469202,-0.0,-0.026625923812389374,0.5394551753997803,0.0,0.012271333485841751,1.1099035739898682,0.0,0.03563232347369194
304.0,278.0,4.6421,1.5272,7.6863,-0.0486,0.027,-0.1185,-1.6002737484373988,-1.5205810086627025e-05,2.3014721870422363,-1.435144305229187,-0.0,2.170736074447632,-2.2862826786436976,-0.0,0.288826584815979,-1.5623024145709437,-0.0,-0.03287210687994957,0.5394511222839355,0.0,0.01593969762325287,1.1099441051483154,0.0,0.06962735205888748
304.0,278.0,4.6421,1.5272,7.6863,-0.0486,0.027,-0.1185,-1.6002661190428675,-2.3999193217605352e-05,2.3035316467285156,-1.435136079788208,-0.0,2.1372973918914795,-2.2862864933409632,-0.0,0.29058101773262024,-1.5623062292682093,-0.0,-0.01816263422369957,0.5394191145896912,0.0,0.014345420524477959,1.1098917722702026,0.0,0.006269196979701519
304.0,278.0,4.6421,1.5272,7.6863,-0.0486,0.027,-0.1185,-1.6002379856505335,-2.8041777113685384e-05,2.3180699348449707,-1.435127854347229,-0.0,2.1872174739837646,-2.2862945995726527,-0.0,0.29811134934425354,-1.562281910573141,-0.0,-0.02658689394593239,0.5394109487533569,4.929119677399285e-05,0.012046720832586288,1.1099035739898682,0.0,-0.0019386513158679008
304.0,278.0,4.6421,1.5272,7.6863,-0.0486,0.027,-0.1185,-1.6002818546690882,-2.6790577976498753e-05,2.2781848907470703,-1.4351158142089844,-0.0,2.1452932357788086,-2.28625025371694,-0.0,0.29717153310775757,-1.562281910573141,-0.0,-0.03152843937277794,0.5394392013549805,2.722062042437301e-08,0.00879446230828762,1.1099237203598022,0.0,0.08625292778015137
304.0,278.0,4.6421,1.5272,7.6863,-0.0486,0.027,-0.1185,-1.6002541981139125,-3.900354931829497e-05,2.287797451019287,-1.4351401329040527,-0.0,2.2221219539642334,-2.2862583599486292,-0.0,0.2784534990787506,-1.5622862021075647,-0.0,-0.03230324387550354,0.5395039319992065,1.1604577715429443e-10,0.005030670203268528,1.109879493713379,0.0,0.03702723607420921
304.0,278.0,4.6421,1.5272,7.6863,-0.0486,0.027,-0.1185,-1.6002499065794886,-3.740249667316675e-05,2.3261868953704834,-1.4352046251296997,-0.0,2.173539161682129,-2.2862583599486292,-0.0,0.28882235288619995,-1.5622699896441858,-0.0,-0.03936094418168068,0.5394232273101807,3.2301767462000405e-14,0.018020864576101303,1.1099077463150024,0.0,0.025564044713974
304.0,278.0,4.6421,1.5272,7.6863,-0.0486,0.027,-0.1185,-1.6002937755980433,-4.850632103625685e-05,2.329313278198242,-1.4351928234100342,-0.0,2.2071447372436523,-2.286245962182516,-0.0,0.29726627469062805,-1.5622699896441858,-0.0,-0.04273286834359169,0.5394068956375122,1.3770751960039075e-16,0.023312987759709358,1.1098753213882446,0.0,-0.0018919204594567418
304.0,278.0,4.6421,1.5272,7.6863,-0.0486,0.027,-0.1185,-1.6002699337401332,-4.663961226469837e-05,2.3207309246063232,-1.4351240396499634,-0.0,2.2055890560150146,-2.2862864933409632,-0.0,0.3031749725341797,-1.5623062292682093,-0.0,-0.021505989134311676,0.5394630432128906,3.8331397720516717e-20,0.02360273152589798,1.1099114418029785,0.0,0.05186869204044342
304.0,278.0,4.6421,1.5272,7.6863,-0.0486,0.027,-0.1185,-1.6002661190428675,-4.546165291685611e-05,2.3166282176971436,-1.435160756111145,-0.0,2.179440975189209,-2.286306997338766,-0.0,0.2990633547306061,-1.5622904936419886,-0.0,-0.01734236255288124,0.5394232273101807,1.634127637084733e-22,0.0082923024892807,1.1099600791931152,0.0,-0.014343082904815674
304.0,278.0,4.6421,1.5272,7.6863,-0.0486,0.027,-0.1185,-1.600258012811178,-7.755378464935347e-05,2.3653738498687744,-1.4351319074630737,-0.0,2.213812828063965,-2.286290308038229,-0.0,0.29901111125946045,-1.5622742811786097,-0.0,-0.02994341030716896,0.5394712090492249,4.5486548715291605e-26,0.009359806776046753,1.1099274158477783,0.0,0.029300058260560036
304.0,278.0,4.6421,1.5272,7.6863,-0.0486,0.027,-0.1185,-1.6002661190428675,-7.374327105935663e-05,2.328131675720215,-1.4352047443389893,-0.0,2.193708896636963,-2.286278387109274,-0.0,0.3009707033634186,-1.5622542540179651,-0.0,-0.03631449118256569,0.5394392013549805,1.2661349334627808e-29,0.01673114113509655,1.1099274158477783,0.0,0.019590996205806732
304.0,278.0,4.6421,1.5272,7.6863,-0.0486,0.027,-0.1185,-1.600297590295309,-7.140300294850022e-05,2.2957940101623535,-1.4351599216461182,-0.0,2.20103120803833,-2.286234041253561,-0.0,0.2976272404193878,-1.562286678944723,-0.0,-0.029122719541192055,0.5394752621650696,5.397731938389723e-32,0.0009052813984453678,1.109879493713379,0.0,-0.003187489928677678
304.0,278.0,4.6421,1.5272,7.6863,-0.0486,0.027,-0.1185,-1.6002656422057093,-7.713318336755037e-05,2.2992520332336426,-1.435172200202942,-0.0,2.19740629196167,-2.286306997338766,-0.0,0.3086665868759155,-1.5622542540179651,-0.0,-0.02788276970386505,0.5394752621650696,1.5024785092028094e-35,0.00392148969694972,1.1099237203598022,0.0,0.03827652335166931
304.0,278.0,4.6421,1.5272,7.6863,-0.0486,0.027,-0.1185,-1.6003018818297328,-7.938473572721705e-05,2.311012029647827,-1.4351483583450317,-0.0,2.1603317260742188,-2.286306997338766,-0.0,0.3024635910987854,-1.5623186270343226,-0.0,-0.03506648540496826,0.5394752621650696,6.405302209784981e-38,0.007882903330028057,1.1099274158477783,0.0,0.02080521732568741
304.0,278.0,4.6421,1.5272,7.6863,-0.0486,0.027,-0.1185,-1.6002899609007777,-7.603233825648203e-05,2.3446855545043945,-1.4351565837860107,-0.0,2.207977294921875,-2.2862659893431605,-0.0,0.29526638984680176,-1.5623310248004358,-0.0,-0.03290039673447609,0.5394793748855591,1.7828720361604648e-41,0.02572695165872574,1.1099233627319336,0.0,-0.018273277208209038
304.0,278.0,4.6421,1.5272,7.6863,-0.0486,0.027,-0.1185,-1.6003018818297328,-8.627269562566653e-05,2.264781951904297,-1.4351886510849,-0.0,2.1950697898864746,-2.28625025371694,-0.0,0.30714017152786255,-1.562314812337057,-0.0,-0.025861211121082306,0.5394432544708252,7.567011707354012e-44,0.01375100202858448,1.1099156141281128,0.0,0.014123087748885155
304.0,278.0,4.6421,1.5272,7.6863,-0.0486,0.027,-0.1185,-1.6002856693663539,-9.470688382862136e-05,2.3064966201782227,-1.435172200202942,-0.0,2.1413064002990723,-2.2862583599486292,-0.0,0.29280397295951843,-1.5622742811786097,-0.0,-0.02061368152499199,0.5394548177719116,0.0,0.010394263081252575,1.10996413230896,0.0,0.0210072323679924
305.0,279.0,4.791,1.5224,7.7234,-0.0484,0.0137,-0.1223,-1.6003219089903773,-9.228134877048433e-05,2.281571388244629,-1.4351680278778076,-2.6489572064747335e-06,2.2259469032287598,-2.286274572412008,-0.0,0.3066330552101135,-1.5622580687152308,-0.0,-0.01803627237677574,0.5394994020462036,0.0,0.006212666630744934,1.109879493713379,0.0,0.022392967715859413
305.0,279.0,4.791,1.5224,7.7234,-0.0484,0.0137,-0.1223,-1.6003180942931117,-0.00017801894864533097,2.2502450942993164,-1.4351118803024292,-6.3969198861590915e-12,2.2027111053466797,-2.286290308038229,-0.0,0.29411983489990234,-1.5622904936419886,-0.0,-0.0317329466342926,0.5394752621650696,0.0,0.007492367178201675,1.109931468963623,0.0,0.030893879011273384
305.0,279.0,4.791,1.5224,7.7234,-0.0484,0.0137,-0.1223,-1.6002980671324671,-0.00019095715833827853,2.2779922485351562,-1.4351844787597656,-1.5447809697664605e-17,2.186823844909668,-2.2862583599486292,-0.0,0.29975876212120056,-1.5622785727130335,-0.0,-0.026731638237833977,0.5394834280014038,0.0,0.003805075539276004,1.1099190711975098,0.0,-0.007700897753238678
305.0,279.0,4.791,1.5224,7.7234,-0.0484,0.0137,-0.1223,-1.6003262005248011,-0.00017834559548646212,2.2959203720092773,-1.4351680278778076,-2.7805506654320967e-21,2.1935276985168457,-2.286290308038229,-0.0,0.3022906482219696,-1.5622580687152308,-0.0,-0.025341123342514038,0.5394551753997803,0.0,0.024231120944023132,1.109891414642334,0.0,-0.004377200733870268
305.0,279.0,4.791,1.5224,7.7234,-0.0484,0.0137,-0.1223,-1.6003099880614222,-0.00018929701764136553,2.276013135910034,-1.4352046251296997,-6.714703136183588e-27,2.164497137069702,-2.2862540684142054,-0.0,0.2971420884132385,-1.5622580687152308,6.506409988560335e-08,-0.03556572645902634,0.5394151210784912,0.0,0.017653746530413628,1.1098835468292236,0.0,-0.03181230276823044
305.0,279.0,4.791,1.5224,7.7234,-0.0484,0.0137,-0.1223,-1.6003099880614222,-0.0001785795611795038,2.2454018592834473,-1.4351965188980103,-1.2086229789730938e-30,2.1877384185791016,-2.286274572412008,-0.0,0.2795282006263733,-1.5622504393206995,2.773784535392565e-10,-0.026012271642684937,0.5394711494445801,0.0,0.02578769251704216,1.1098875999450684,0.0,-0.024677930399775505
305.0,279.0,4.791,1.5224,7.7234,-0.0484,0.0137,-0.1223,-1.6003061733641566,-0.00018004034063778818,2.2444989681243896,-1.435180425643921,-2.9186820180470312e-36,2.1578714847564697,-2.286222120324606,-0.0,0.29842257499694824,-1.5622580687152308,7.720932319052812e-14,-0.020190883427858353,0.5394150614738464,0.0,0.017541881650686264,1.109919548034668,0.0,-0.06774306297302246
305.0,279.0,4.791,1.5224,7.7234,-0.0484,0.0137,-0.1223,-1.6003419361510218,-0.00017875431512948126,2.282362461090088,-1.435152530670166,-5.253523994692312e-40,2.1416447162628174,-2.286306997338766,-0.0,0.2701534330844879,-1.562270466481344,3.291554680558042e-16,-0.003568546148017049,0.5394428968429565,0.0,0.02715843915939331,1.1098672151565552,0.0,-0.07141323387622833
305.0,279.0,4.791,1.5224,7.7234,-0.0484,0.0137,-0.1223,-1.6003018818297328,-0.00016663852147758007,2.2761244773864746,-1.435144305229187,-1.401298464324817e-45,2.1675896644592285,-2.2862826786436976,-0.0,0.2898904085159302,-1.5622623602496546,9.162164596071603e-20,-0.017735086381435394,0.5394953489303589,0.0,0.018480319529771805,1.1099439859390259,0.0,-0.12569664418697357
305.0,279.0,4.791,1.5224,7.7234,-0.0484,0.0137,-0.1223,-1.600302358666891,-0.00019699294352903962,2.2650105953216553,-1.4351966381072998,-0.0,2.1532440185546875,-2.286302705804342,-0.0,0.29099181294441223,-1.5622623602496546,3.905974216482477e-22,-0.008469818159937859,0.5394510626792908,0.0,0.02390475571155548,1.1099233627319336,0.0,-0.08977976441383362
305.0,279.0,4.791,1.5224,7.7234,-0.0484,0.0137,-0.1223,-1.6003099880614222,-0.0002087899047182873,2.257248640060425,-1.4351763725280762,-0.0,2.184018611907959,-2.2862659893431605,-0.0,0.28272026777267456,-1.562270466481344,1.087242365721169e-25,-0.02199396677315235,0.5394793748855591,0.0,0.01113121397793293,1.1098875999450684,0.0,-0.08888588845729828
305.0,279.0,4.791,1.5224,7.7234,-0.0484,0.0137,-0.1223,-1.6003381214537562,-0.0002258214371977374,2.2508959770202637,-1.4351680278778076,-0.0,2.1808559894561768,-2.286245962182516,-0.0,0.28214263916015625,-1.562186066304342,4.635084560013234e-28,-0.01860152557492256,0.5394551753997803,0.0,0.017594337463378906,1.1098711490631104,0.0,-0.10429680347442627
305.0,279.0,4.791,1.5224,7.7234,-0.0484,0.0137,-0.1223,-1.6003180942931117,-0.00023303763009607792,2.2507901191711426,-1.4351882934570312,-0.0,2.1321706771850586,-2.2862583599486292,-0.0,0.285625696182251,-1.5622099081622522,1.2901930945543371e-31,-0.011679228395223618,0.5394752025604248,0.0,0.03144175931811333,1.1099237203598022,0.0,-0.07326836884021759
305.0,279.0,4.791,1.5224,7.7234,-0.0484,0.0137,-0.1223,-1.6003099880614222,-0.00034471682738512754,2.1690516471862793,-1.435152530670166,-0.0,2.127110004425049,-2.2862540684142054,-0.0,0.2925403118133545,-1.5622265974627894,3.591299684697396e-35,-0.012752972543239594,0.5394830703735352,0.0,0.02550368756055832,1.1098631620407104,0.0,-0.0681302398443222
305.0,279.0,4.791,1.5224,7.7234,-0.0484,0.0137,-0.1223,-1.6003300152220667,-0.00035971502074971795,2.2748756408691406,-1.4351680278778076,-0.0,2.1476962566375732,-2.2862702808775843,-0.0,0.2864956259727478,-1.5622823874102991,0.00016709844931028783,-0.0033079625573009253,0.5395273566246033,0.0,0.03641275316476822,1.109891414642334,0.0,-0.08220353722572327
305.0,279.0,4.791,1.5224,7.7234,-0.0484,0.0137,-0.1223,-1.6003061733641566,-0.0003945579519495368,2.249926805496216,-1.4351886510849,-0.0,2.1223108768463135,-2.2862383327879847,-0.0,0.2828131318092346,-1.562258545552389,0.00016631089965812862,-0.01346440240740776,0.5395395755767822,0.0,0.03246629983186722,1.1098995208740234,0.0,-0.09455737471580505
305.0,279.0,4.791,1.5224,7.7234,-0.0484,0.0137,-0.1223,-1.600325723687643,-0.0003617889015004039,2.226588249206543,-1.435200572013855,-0.0,2.1449975967407227,-2.286245962182516,-0.0,0.284145712852478,-1.5622666517840784,0.00017022312385961413,-0.005394084379076958,0.5394314527511597,0.0,0.02398936077952385,1.1098712682724,0.0,-0.10878286510705948
305.0,279.0,4.791,1.5224,7.7234,-0.0484,0.0137,-0.1223,-1.6003219089903773,-0.0004903450608253479,2.180204391479492,-1.4351599216461182,-0.0,2.132472515106201,-2.2862779102721156,-0.0,0.2847612500190735,-1.5622785727130335,0.00018146783986594528,-0.00524111045524478,0.5394834280014038,0.0,0.023742444813251495,1.1098754405975342,0.0,-0.14957597851753235
315.0,269.0,4.6068,1.5045,7.6744,-0.036,0.0247,-0.1165,-1.6003700695433558,-0.0005450716707855463,2.1734066009521484,-1.435144305229187,-0.0,2.1272130012512207,-2.286306997338766,-0.0,0.2915613651275635,-1.5622308889972132,0.00017160907736979425,-0.015130116604268551,0.5394306778907776,0.0,0.025840725749731064,1.1098631620407104,0.0,-0.1258188635110855
315.0,269.0,4.6068,1.5045,7.6744,-0.036,0.0247,-0.1165,-1.6003624401488246,-0.0007752660312689841,2.1570122241973877,-1.435144305229187,-0.0,2.128425121307373,-2.2862864933409632,-0.0,0.284711629152298,-1.5621898810016077,0.00018148112576454878,-0.0015408541075885296,0.5395072102546692,0.0,0.01938016526401043,1.1098995208740234,0.0,-0.12078956514596939
315.0,269.0,4.6068,1.5045,7.6744,-0.036,0.0247,-0.1165,-1.6003900967040003,-0.0012350723845884204,2.1145195960998535,-1.435163974761963,-0.0,2.091719150543213,-2.2861820660033167,-0.0,0.2890017032623291,-1.5622099081622522,0.00029903752147220075,0.007072550244629383,0.5394793748855591,0.0,0.029992185533046722,1.1098995208740234,-0.0001022436554194428,-0.13037358224391937
315.0,269.0,4.6068,1.5045,7.6744,-0.036,0.0247,-0.1165,-1.6003743610777796,-0.002592893550172448,2.1896824836730957,-1.4351599216461182,-0.0,2.1543564796447754,-2.286262174645895,-0.0,0.2782595753669739,-1.5622380415545862,0.00027714227326214314,0.0037192082963883877,0.5394347310066223,0.0,0.02533886767923832,1.1098875999450684,-0.00014257215661928058,-0.1113835871219635
315.0,269.0,4.6068,1.5045,7.6744,-0.036,0.0247,-0.1165,-1.6003900967040003,-0.005460207350552082,2.1506075859069824,-1.4351763725280762,-0.0,2.1323444843292236,-2.2862984142699183,-0.0,0.27445492148399353,-1.5622308889972132,0.0002801624941639602,-0.0017668994842097163,0.539455235004425,1.2610247495103977e-06,0.029230765998363495,1.1098995208740234,-0.00013454830332193524,-0.25149527192115784
315.0,269.0,4.6068,1.5045,7.6744,-0.036,0.0247,-0.1165,-1.60044588665151,-0.007284050341695547,2.176055431365967,-1.435204267501831,-0.0,2.1210756301879883,-2.2862702808775843,-0.0,0.28525322675704956,-1.5622184912311,0.00029371926211752,0.006463185418397188,0.5395154356956482,5.375945910657265e-09,0.025965387001633644,1.109891414642334,-0.0001492282171966508,-0.16054637730121613
315.0,269.0,4.6068,1.5045,7.6744,-0.036,0.0247,-0.1165,-1.600490232507223,-0.009548239409923553,2.158504009246826,-1.4351845979690552,-0.0,2.1469593048095703,-2.286262174645895,-0.0,0.2809543013572693,-1.5621779600726526,0.00032595128868706524,0.00037825689651072025,0.5394346714019775,1.4964142121612345e-12,0.026962075382471085,1.1098712682724,-0.00015925036859698594,-0.13466587662696838
315.0,269.0,4.6068,1.5045,7.6744,-0.036,0.0247,-0.1165,-1.6004816494383753,-0.007700555492192507,2.1076431274414062,-1.435163974761963,-0.0,2.1375725269317627,-2.2862984142699183,-0.0,0.27108287811279297,-1.5622060934649866,0.00030358164804056287,-0.0012411115458235145,0.5394588708877563,6.37944812400355e-15,0.02391654998064041,1.1098793745040894,-0.0001531794259790331,-0.1432478427886963
315.0,269.0,4.6068,1.5045,7.6744,-0.036,0.0247,-0.1165,-1.6005703411498011,-0.004274033010005951,2.133315324783325,-1.4351199865341187,-0.0,2.1070852279663086,-2.2862140140929164,-0.0,0.27289140224456787,-1.5622223059283655,0.00025253414059989154,-0.0047688838094472885,0.5394875407218933,1.7757429489630055e-18,0.02955450490117073,1.1098712682724,-0.00027638301253318787,-0.15859508514404297
315.0,269.0,4.6068,1.5045,7.6744,-0.036,0.0247,-0.1165,-1.600565572778219,-0.0030699309427291155,2.1199636459350586,-1.4351599216461182,-0.0,2.0205414295196533,-2.2862383327879847,-0.0,0.27423226833343506,-1.5622628370868128,0.00026932673063129187,-0.006324425805360079,0.5394507646560669,7.570271339967213e-21,0.02232116274535656,1.1098754405975342,-0.0002461438998579979,-0.16532030701637268
315.0,269.0,4.6068,1.5045,7.6744,-0.036,0.0247,-0.1165,-1.6006056270995082,-0.0035289591178297997,2.1152596473693848,-1.4351966381072998,-0.0,2.1311779022216797,-2.2862540684142054,-0.0,0.2625654339790344,-1.5622308889972132,0.00023662320745643228,-0.004950538277626038,0.5394793748855591,2.1072129414201926e-24,0.03617478162050247,1.1098835468292236,-0.00021144305355846882,-0.2090049684047699
315.0,269.0,4.6068,1.5045,7.6744,-0.036,0.0247,-0.1165,-1.6006342373290003,-0.00505004171282053,2.117626428604126,-1.4351557493209839,-5.569300628849305e-05,2.136394500732422,-2.286306997338766,-0.0,0.2693648636341095,-1.5622308889972132,0.0002534840314183384,0.013394322246313095,0.5395194888114929,8.983380047565732e-27,0.04484391212463379,1.10983145236969,-0.00023139198310673237,-0.19950339198112488
315.0,269.0,4.6068,1.5045,7.6744,-0.036,0.0247,-0.1165,-1.6006738148131312,-0.007423811592161655,2.1274707317352295,-1.4350917339324951,-6.979823956498876e-05,2.0958364009857178,-2.286262174645895,-0.0,0.27661609649658203,-1.562214199696676,0.00025767076294869184,0.010806254111230373,0.5395314693450928,2.5005567220522416e-30,0.04529130831360817,1.1098875999450684,-0.00022793453535996377,-0.1700475513935089
315.0,269.0,4.6068,1.5045,7.6744,-0.036,0.0247,-0.1165,-1.6007095775999964,-0.00873664952814579,2.092003345489502,-1.4351567029953003,-6.720989767927676e-05,2.058061361312866,-2.2862583599486292,-0.0,0.2719946503639221,-1.562186066304342,0.00023930476163513958,0.012420606799423695,0.5394912362098694,6.960391333031662e-34,0.034314483404159546,1.109879493713379,-0.0002446350990794599,-0.1885618269443512
315.0,269.0,4.6068,1.5045,7.6744,-0.036,0.0247,-0.1165,-1.6007420025267542,-0.008823597803711891,2.115482807159424,-1.435136079788208,-6.557751476066187e-05,2.1081440448760986,-2.2862826786436976,-0.0,0.2711699306964874,-1.5622504393206995,0.00024375540670007467,0.006503442768007517,0.5394428968429565,2.967323980023776e-36,0.023118920624256134,1.1098393201828003,-0.0002301582135260105,-0.1775311827659607
315.0,269.0,4.6068,1.5045,7.6744,-0.036,0.0247,-0.1165,-1.6008101902403773,-0.008244330994784832,2.083517551422119,-1.435163974761963,-6.327246956061572e-05,2.0422933101654053,-2.2862540684142054,-0.0,0.2643054723739624,-1.5622709433185022,0.0002321327629033476,0.021112218499183655,0.5394711494445801,8.259659525285126e-40,0.027729835361242294,1.1098875999450684,-0.00025611670571379364,-0.2248658835887909
315.0,269.0,4.6068,1.5045,7.6744,-0.036,0.0247,-0.1165,-1.600785871545309,-0.007716585882008076,2.0946743488311768,-1.4351484775543213,-6.182368088047951e-05,2.0884475708007812,-2.2862583599486292,-0.0,0.2689775228500366,-1.5621979872332972,0.0002490601618774235,0.016044676303863525,0.5394424200057983,3.521463040848265e-42,0.030504103749990463,1.1098875999450684,-0.0002729254774749279,-0.2500203549861908
315.0,269.0,4.6068,1.5045,7.6744,-0.036,0.0247,-0.1165,-1.6008860073485316,-0.007569093722850084,2.1180992126464844,-1.435152530670166,-5.977080581942573e-05,2.0847439765930176,-2.2862659893431605,-0.0,0.27607041597366333,-1.5621660391436976,0.00022290706692729145,-0.007202754262834787,0.5394145846366882,1.401298464324817e-45,0.04840574413537979,1.109854817390442,-0.00024168101663235575,-0.19228360056877136
310.0,269.0,4.2072,1.4554,8.0584,-0.0344,0.0421,-0.117,-1.6008979282774867,-0.007711965125054121,2.0676822662353516,-1.435180425643921,-3.152310057430441e-08,2.0569496154785156,-2.286246439019674,-0.0,0.2640145421028137,-1.5621822516070765,0.00020817405311390758,0.005110517144203186,0.5394629836082458,0.0,0.03972562402486801,1.1099438667297363,-0.0002565179602243006,-0.2564520835876465
310.0,269.0,4.2072,1.4554,8.0584,-0.0344,0.0421,-0.117,-1.600985666314596,-0.00816488265991211,2.070061206817627,-1.435163974761963,-7.612457891695637e-14,2.0621418952941895,-2.2862583599486292,-0.0,0.25327813625335693,-1.562190357838766,0.00021287835261318833,0.009572390466928482,0.539523184299469,0.0,0.04115237295627594,1.1098754405975342,-0.00023175272508524358,-0.2282000482082367
310.0,269.0,4.2072,1.4554,8.0584,-0.0344,0.0421,-0.117,-1.6010014019408167,-0.009290793910622597,2.0830137729644775,-1.4351401329040527,-1.370215502989291e-17,2.085946559906006,-2.286222120324606,-0.0,0.262206494808197,-1.5622065703021448,0.0002041608968283981,0.00661104591563344,0.5395273566246033,0.0,0.03272467851638794,1.1098712682724,-0.00021773562184534967,-0.2714257836341858
310.0,269.0,4.2072,1.4554,8.0584,-0.0344,0.0421,-0.117,-1.601025720635885,-0.009618167765438557,2.1260671615600586,-1.435152530670166,-3.308909883563191e-23,2.0577869415283203,-2.286234518090719,-0.0,0.2656286358833313,-1.5621703306781214,0.00018816694500856102,0.008829482831060886,0.5394629836082458,0.0,0.04541375860571861,1.1098475456237793,-0.0002530208439566195,-0.27167806029319763
310.0,269.0,4.2072,1.4554,8.0584,-0.0344,0.0421,-0.117,-1.6010734043517054,-0.010152743197977543,2.044854164123535,-1.4351599216461182,-5.9559206344620385e-27,2.0590975284576416,-2.286245962182516,-0.0,0.26564499735832214,-1.562214199696676,0.00017881987150758505,0.021252980455756187,0.5395110249519348,0.0,0.0339813306927681,1.1098917722702026,-0.00027107811183668673,-0.2205042839050293
310.0,269.0,4.2072,1.4554,8.0584,-0.0344,0.0421,-0.117,-1.6011578045287074,-0.011005980893969536,2.011873483657837,-1.435163974761963,-1.438284929156241e-32,2.0218396186828613,-2.2862864933409632,-0.0,0.2686624825000763,-1.5621703306781214,0.00017962337005883455,0.02381865307688713,0.5395030975341797,0.0,0.03930548578500748,1.1098754405975342,-0.00030238443287089467,-0.2583034038543701
310.0,269.0,4.2072,1.4554,8.0584,-0.0344,0.0421,-0.117,-1.601229806939596,-0.012061838060617447,2.0410428047180176,-1.4351720809936523,-3.473288641722321e-38,2.0479354858398438,-2.286234041253561,-0.0,0.2649654150009155,-1.5622103849994105,0.00019036511366721243,0.016898933798074722,0.5394670367240906,0.0,0.021787814795970917,1.1098836660385132,-0.0006127817905507982,-0.254017174243927
310.0,269.0,4.2072,1.4554,8.0584,-0.0344,0.0421,-0.117,-1.6012574634947718,-0.0125199593603611,2.0594441890716553,-1.4351680278778076,-6.251192449353009e-42,2.05507230758667,-2.2862583599486292,-0.0,0.25702065229415894,-1.562146011983053,0.000179711016244255,0.017553575336933136,0.5394670963287354,0.0,0.03881685808300972,1.1098754405975342,-0.001201238832436502,-0.30116701126098633
310.0,269.0,4.2072,1.4554,8.0584,-0.0344,0.0421,-0.117,-1.6013208828368128,-0.013775525614619255,2.034821033477783,-1.435136079788208,-0.0,2.0478386878967285,-2.286222120324606,-0.0,0.26197579503059387,-1.5621665159808558,0.00019057467579841614,0.013676583766937256,0.5395030975341797,0.0,0.030450429767370224,1.109887719154358,-0.0014958491083234549,-0.3082081377506256
310.0,269.0,4.2072,1.4554,8.0584,-0.0344,0.0421,-0.117,-1.6013933620848597,-0.014708911068737507,2.0062460899353027,-1.4351763725280762,-0.0,2.0271244049072266,-2.2862583599486292,-0.0,0.2680920660495758,-1.5621784369098108,0.00020455838239286095,0.02229059301316738,0.5394752025604248,0.0,0.03677983582019806,1.1098675727844238,-0.0019444548524916172,-0.2681209444999695
310.0,269.0,4.2072,1.4554,8.0584,-0.0344,0.0421,-0.117,-1.601457258264059,-0.01635736972093582,2.0482025146484375,-1.435152530670166,-0.0,2.076690196990967,-2.286290308038229,-0.0,0.2407653033733368,-1.5621708075152796,0.0002421100507490337,0.028279069811105728,0.5394588708877563,0.0,0.03945917636156082,1.1098073720932007,-0.002758507151156664,-0.3374367654323578
310.0,269.0,4.2072,1.4554,8.0584,-0.0344,0.0421,-0.117,-1.6015736065306605,-0.018034081906080246,2.0125021934509277,-1.4351924657821655,-0.0,2.0433108806610107,-2.286274572412008,-0.0,0.25669196248054504,-1.5621827284442347,0.00026405428070575,0.025468796491622925,0.5394867062568665,0.0,0.03995547071099281,1.1098192930221558,-0.003395883832126856,-0.34985795617103577
310.0,269.0,4.2072,1.4554,8.0584,-0.0344,0.0421,-0.117,-1.6016370258727015,-0.02122947946190834,1.9567958116531372,-1.435163974761963,-0.0,1.9965033531188965,-2.2862540684142054,-0.0,0.2507731318473816,-1.5621984640704554,0.00026804895605891943,0.014612844213843346,0.5394589304924011,0.0,0.03164154663681984,1.1097959280014038,-0.0034972294233739376,-0.3225141763687134
310.0,269.0,4.2072,1.4554,8.0584,-0.0344,0.0421,-0.117,-1.6017371616759242,-0.022044338285923004,1.972456455230713,-1.4351680278778076,-0.0,2.0078136920928955,-2.286234041253561,-0.0,0.2600385844707489,-1.5621827284442347,0.0002451362379360944,0.030630234628915787,0.53951096534729,0.0,0.03207256272435188,1.10975980758667,-0.0037215384654700756,-0.314680814743042
310.0,269.0,4.2072,1.4554,8.0584,-0.0344,0.0421,-0.117,-1.6018487415709437,-0.025309689342975616,1.9401724338531494,-1.435152530670166,-0.0,1.9701128005981445,-2.286274572412008,-0.0,0.25814497470855713,-1.5621946493731897,0.0002513856452424079,0.03374607861042023,0.5395072102546692,0.0,0.05103789269924164,1.1097517013549805,-0.0042647249065339565,-0.30336469411849976
310.0,269.0,4.2072,1.4554,8.0584,-0.0344,0.0421,-0.117,-1.6020251713194789,-0.028345245867967606,1.9540340900421143,-1.435200572013855,-0.0,2.0301871299743652,-2.286234518090719,-0.0,0.2572775185108185,-1.5621498266803187,0.00022476640879176557,0.03032836504280567,0.5395072102546692,0.0,0.0351363867521286,1.109791874885559,-0.0038200020790100098,-0.3290610909461975
310.0,269.0,4.2072,1.4554,8.0584,-0.0344,0.0421,-0.117,-1.6021691761412562,-0.03001101128757,1.9465227127075195,-1.435172200202942,-0.0,2.0153822898864746,-2.2862383327879847,-0.0,0.25291910767555237,-1.562105957661764,0.00023962845443747938,0.02406720444560051,0.53951495885849,0.0,0.04025498032569885,1.10975980758667,-0.00421925401315093,-0.36093688011169434
310.0,269.0,4.2072,1.4554,8.0584,-0.0344,0.0421,-0.117,-1.6023766003050746,-0.03136766701936722,2.0048487186431885,-1.4351763725280762,-0.0,1.9696552753448486,-2.2862426243224085,-0.0,0.255570650100708,-1.5621908346759241,0.0002429347368888557,0.040588170289993286,0.5394507050514221,0.0,0.03473666310310364,1.1097153425216675,-0.004219386726617813,-0.3665984272956848
290.0,272.0,4.133,1.3298,7.6911,-0.0379,0.0024,-0.1292,-1.6024648151793421,-0.03396185114979744,1.989031195640564,-1.4351805448532104,-0.0,2.0269615650177,-2.286238809625143,-0.0,0.2460591346025467,-1.5621379057513636,0.0002228344965260476,0.04659609496593475,0.5394790172576904,0.0,0.03179536759853363,1.10971999168396,-0.004047184716910124,-0.34534353017807007
290.0,272.0,4.133,1.3298,7.6911,-0.0379,0.0024,-0.1292,-1.6027008495726527,-0.0360955111682415,1.974273443222046,-1.4351680278778076,-0.0,2.0045835971832275,-2.286262651483053,-0.0,0.24953746795654297,-1.5621221701251429,0.00023277725267689675,0.026481449604034424,0.5394711494445801,0.0,0.04756448417901993,1.1096875667572021,-0.004345580004155636,-0.417998343706131
290.0,272.0,4.133,1.3298,7.6911,-0.0379,0.0024,-0.1292,-1.602856298486227,-0.03919188678264618,1.965707778930664,-1.435180425643921,-0.0,1.9699289798736572,-2.286190172235006,-0.0,0.2565136253833771,-1.5621421972857874,0.0002143374877050519,0.026270762085914612,0.5394630432128906,0.0,0.0411946140229702,1.109675645828247,-0.0040352437645196915,-0.3251454830169678
290.0,272.0,4.133,1.3298,7.6911,-0.0379,0.0024,-0.1292,-1.6031366787352503,-0.04374990239739418,1.9179110527038574,-1.4351236820220947,-0.0,1.9800703525543213,-2.2862664661803187,-0.0,0.246096670627594,-1.5621665159808558,0.00022343909949995577,0.033718712627887726,0.5394830703735352,0.0,0.029896285384893417,1.1096112728118896,-0.004055540543049574,-0.39884039759635925
290.0,272.0,4.133,1.3298,7.6911,-0.0379,0.0024,-0.1292,-1.6032644710936488,-0.04732977971434593,1.9701151847839355,-1.435136079788208,-0.0,2.012552261352539,-2.286274572412008,-0.0,0.2595573365688324,-1.5622108618365687,0.0002364401880186051,0.042052868753671646,0.5394588708877563,0.0,0.03778861463069916,1.1096396446228027,-0.003833626164123416,-0.37912535667419434
290.0,272.0,4.133,1.3298,7.6911,-0.0379,0.0024,-0.1292,-1.603527685204977,-0.0500827357172966,1.9105560779571533,-1.4351483583450317,-0.0,1.9726788997650146,-2.2862984142699183,-0.0,0.24707487225532532,-1.5621379057513636,0.00021690035646315664,0.03400912135839462,0.5394630432128906,0.0,0.038585297763347626,1.1095995903015137,-0.003956587519496679,-0.39720964431762695
290.0,272.0,4.133,1.3298,7.6911,-0.0379,0.0024,-0.1292,-1.603868146935934,-0.05098210647702217,1.925682783126831,-1.435144305229187,-0.0,1.9992220401763916,-2.2862583599486292,-0.0,0.25615814328193665,-1.562134091054098,0.00024005785235203803,0.03775964304804802,0.5394670367240906,0.0,0.03000936657190323,1.1095597743988037,-0.004219057969748974,-0.3584634065628052
290.0,272.0,4.133,1.3298,7.6911,-0.0379,0.0024,-0.1292,-1.6040765247740687,-0.05119768902659416,1.9528746604919434,-1.435160756111145,-0.0,1.9828414916992188,-2.286234518090719,-0.0,0.2505190968513489,-1.5621827284442347,0.00021763966651633382,0.02675594389438629,0.5394670367240906,0.0,0.037968799471855164,1.109539270401001,-0.003955874126404524,-0.39879265427589417
290.0,272.0,4.133,1.3298,7.6911,-0.0379,0.0024,-0.1292,-1.6043554745116175,-0.049798235297203064,1.9134182929992676,-1.4350916147232056,-0.0,1.991328477859497,-2.286262651483053,-0.0,0.24890491366386414,-1.5621498266803187,0.00019005962531082332,0.04628151282668114,0.5394711494445801,0.0,0.033580098301172256,1.1094869375228882,-0.003701526904478669,-0.40446609258651733
290.0,272.0,4.133,1.3298,7.6911,-0.0379,0.0024,-0.1292,-1.6045714817442835,-0.048002637922763824,1.9774454832077026,-1.435144305229187,-0.0,1.96824312210083,-2.286238809625143,-0.0,0.2481638491153717,-1.5621908346759241,0.0001752531825331971,0.04344344139099121,0.539531409740448,0.0,0.03813525289297104,1.1095154285430908,-0.00328992772847414,-0.39812690019607544
290.0,272.0,4.133,1.3298,7.6911,-0.0379,0.0024,-0.1292,-1.6048509083189906,-0.047262027859687805,1.9236595630645752,-1.4351680278778076,-0.0,2.0047073364257812,-2.286238809625143,-0.0,0.25336289405822754,-1.562117878590719,0.0001569168089190498,0.03687858581542969,0.539523184299469,0.0,0.041492946445941925,1.1095361709594727,-0.00309524848125875,-0.42874348163604736
290.0,272.0,4.133,1.3298,7.6911,-0.0379,0.0024,-0.1292,-1.6050626240172328,-0.048821963369846344,1.959580659866333,-1.4351762533187866,-0.0,2.006887674331665,-2.28625025371694,-0.0,0.26111871004104614,-1.5621498266803187,0.000146685226354748,0.03537898138165474,0.5395072102546692,0.0,0.047180019319057465,1.1095117330551147,-0.002741959411650896,-0.36890721321105957
290.0,272.0,4.133,1.3298,7.6911,-0.0379,0.0024,-0.1292,-1.6053711376585902,-0.05193105712532997,1.9553203582763672,-1.435172200202942,-0.0,2.0022897720336914,-2.2862702808775843,-0.0,0.2532168924808502,-1.5621665159808558,0.00013361767923925072,0.051984742283821106,0.539523184299469,0.0,0.03314004838466644,1.1094555854797363,-0.0023496339563280344,-0.3558993935585022
290.0,272.0,4.133,1.3298,7.6911,-0.0379,0.0024,-0.1292,-1.605626722375387,-0.05232851579785347,1.9067373275756836,-1.4351763725280762,-0.0,1.9843151569366455,-2.286274572412008,-3.716218444083097e-08,0.24986782670021057,-1.562134091054098,0.00012612680438905954,0.04878464341163635,0.5394793748855591,0.0,0.033073894679546356,1.1094756126403809,-0.0020679321605712175,-0.3854564428329468
290.0,272.0,4.133,1.3298,7.6911,-0.0379,0.0024,-0.1292,-1.6059347591795863,-0.055470217019319534,1.925391674041748,-1.4351402521133423,-0.0,2.0030694007873535,-2.2862583599486292,-1.0344230680359168e-11,0.2412756383419037,-1.562162224446432,0.00011634340626187623,0.02715599723160267,0.5394871234893799,0.0,0.038258641958236694,1.1094878911972046,-0.002188172424212098,-0.40255868434906006
290.0,272.0,4.133,1.3298,7.6911,-0.0379,0.0024,-0.1292,-1.606133600274557,-0.05557311698794365,1.975291132926941,-1.435163974761963,-0.0,2.0084433555603027,-2.2862421474852503,-4.409907633290064e-14,0.23365601897239685,-1.5621746222125452,0.00013236426457297057,0.02972731925547123,0.5394629836082458,0.0,0.05080312490463257,1.1094354391098022,-0.00211326708085835,-0.39090266823768616
290.0,272.0,4.133,1.3298,7.6911,-0.0379,0.0024,-0.1292,-1.6064893207945765,-0.053958289325237274,1.9212734699249268,-1.435067892074585,-0.0,1.9799973964691162,-2.2862097225584925,-1.2275138605882766e-17,0.2516239285469055,-1.562134091054098,0.00012362950656097382,0.050542864948511124,0.5394306778907776,0.0,0.03867604583501816,1.1094359159469604,-0.0019327488262206316,-0.41786572337150574
290.0,272.0,4.133,1.3298,7.6911,-0.0379,0.0024,-0.1292,-1.6067820988097132,-0.05306616052985191,1.9571387767791748,-1.4351680278778076,-4.816896326254039e-10,1.971920371055603,-2.286274572412008,-3.41682986717332e-21,0.2525893449783325,-1.5621503035174769,0.00011568372428882867,0.03768226504325867,0.5394347310066223,0.0,0.050784576684236526,1.1094355583190918,-0.0016672847559675574,-0.38593772053718567
281.0,263.0,4.4363,1.5338,7.7402,-0.0235,0.0118,-0.1248,-1.6069733105101527,-0.055498670786619186,1.9185175895690918,-1.4351928234100342,-8.670243478248532e-14,1.9893639087677002,-2.2861820660033167,-1.456648385341789e-23,0.25558552145957947,-1.5621183554278772,0.0001269935310119763,0.034877412021160126,0.5394752025604248,0.0,0.03840699419379234,1.1094638109207153,-0.001435589394532144,-0.43412238359451294
281.0,263.0,4.4363,1.5338,7.7402,-0.0235,0.0118,-0.1248,-1.6073533497252406,-0.05876897647976875,1.9676344394683838,-1.4351720809936523,-2.0937613759518136e-19,1.985015630722046,-2.286238809625143,-4.054634504457193e-27,0.25397050380706787,-1.5621259848224085,0.00012190536654088646,0.03239351511001587,0.5394834280014038,0.0,0.03617113083600998,1.109455943107605,-0.0014118970138952136,-0.404691219329834
281.0,263.0,4.4363,1.5338,7.7402,-0.0235,0.0118,-0.1248,-1.607584615746969,-0.06155405938625336,1.905216097831726,-1.4351080656051636,-3.7686961999938096e-23,2.004336357116699,-2.2862307033934535,-1.728554173765525e-29,0.25086861848831177,-1.5621302763568323,0.00011736399756046012,0.032880011945962906,0.5395030975341797,0.0,0.03716957941651344,1.1094117164611816,-0.0014232308603823185,-0.4394637942314148
281.0,263.0,4.4363,1.5338,7.7402,-0.0235,0.0118,-0.1248,-1.6079250774779261,-0.0657074823975563,1.8742880821228027,-1.4351122379302979,-9.100957878077578e-29,1.9982619285583496,-2.286190172235006,-4.811493803851447e-33,0.24435649812221527,-1.5621503035174769,0.00012702596723102033,0.039760902523994446,0.5395353436470032,0.0,0.04072662442922592,1.1093876361846924,-0.0020564927253872156,-0.4339308738708496
281.0,263.0,4.4363,1.5338,7.7402,-0.0235,0.0118,-0.1248,-1.6081840000548304,-0.0676334872841835,1.976806402206421,-1.4351401329040527,-1.6381402746311386e-32,2.0131940841674805,-2.286238809625143,-2.0512152572827032e-35,0.26129382848739624,-1.5621421972857874,0.0001195615332107991,0.02870866470038891,0.539523184299469,0.0,0.04266135394573212,1.1093515157699585,-0.003166023176163435,-0.3824126124382019
281.0,263.0,4.4363,1.5338,7.7402,-0.0235,0.0118,-0.1248,-1.6085926494994105,-0.06830742955207825,2.0032413005828857,-1.4351240396499634,-3.955916291793367e-38,2.0310487747192383,-2.286255022088522,-5.709632631845397e-39,0.25628477334976196,-1.5620940367328089,0.0001412786077708006,0.04584673047065735,0.5394548177719116,0.0,0.025003138929605484,1.1093437671661377,-0.004839819390326738,-0.4022187888622284
281.0,263.0,4.4363,1.5338,7.7402,-0.0235,0.0118,-0.1248,-1.6087762318053187,-0.06613477319478989,1.9386179447174072,-1.435076117515564,-7.119997497234396e-42,2.051814556121826,-2.286193986932272,-2.434055432532207e-41,0.245822936296463,-1.5621345678912562,0.00015508136129938066,0.046726152300834656,0.5394425392150879,0.0,0.03516310825943947,1.1093438863754272,-0.005495365243405104,-0.45695117115974426
281.0,263.0,4.4363,1.5338,7.7402,-0.0235,0.0118,-0.1248,-1.6092363796629847,-0.06088778376579285,1.9633995294570923,-1.4351240396499634,-0.0,2.0323355197906494,-2.2862149677672328,-7.006492321624085e-45,0.27798157930374146,-1.562122646962301,0.000551747449208051,0.055808380246162415,0.5395514369010925,0.0,0.046902284026145935,1.1092792749404907,-0.00684442138299346,-0.4648587703704834
281.0,263.0,4.4363,1.5338,7.7402,-0.0235,0.0118,-0.1248,-1.609535356561178,-0.05606326088309288,2.025094509124756,-1.4351762533187866,-0.0,2.0264978408813477,-2.286210676232809,0.0003132069541607052,0.2701367139816284,-1.5621503035174769,0.000546853756532073,0.054271407425403595,0.5394949913024902,0.0,0.03218742832541466,1.1092559099197388,-0.007591362111270428,-0.45039916038513184
281.0,263.0,4.4363,1.5338,7.7402,-0.0235,0.0118,-0.1248,-1.6098443470396937,-0.05432243272662163,2.0168955326080322,-1.4351199865341187,-0.0,2.066817045211792,-2.286210676232809,0.00028956038295291364,0.26269039511680603,-1.5620983282672327,0.0005545589374378324,0.061319850385189056,0.5394752025604248,0.0,0.040530312806367874,1.1092075109481812,-0.007546921260654926,-0.4449089467525482
281.0,263.0,4.4363,1.5338,7.7402,-0.0235,0.0118,-0.1248,-1.6101232967772425,-0.05610477179288864,1.9699556827545166,-1.43521249294281,-0.0,2.037506580352783,-2.2862302265562953,0.0002427477011224255,0.27371078729629517,-1.5621064344989222,0.0005041532567702234,0.04441343992948532,0.5394871830940247,0.0,0.04033069312572479,1.1091595888137817,-0.007534464821219444,-0.4811793565750122
281.0,263.0,4.4363,1.5338,7.7402,-0.0235,0.0118,-0.1248,-1.6103550396361292,-0.05849620699882507,1.9967269897460938,-1.435144305229187,-0.0,2.055476188659668,-2.286186834374899,0.00021910117357037961,0.26483815908432007,-1.5621302763568323,0.000494578736834228,0.05892579257488251,0.53951096534729,0.0,0.033181119710206985,1.1091355085372925,-0.006800109054893255,-0.4938817024230957
281.0,263.0,4.4363,1.5338,7.7402,-0.0235,0.0118,-0.1248,-1.6106912098326625,-0.06225951388478279,1.9704468250274658,-1.4351401329040527,-0.0,2.023365020751953,-2.2862025700011195,0.0001911698782350868,0.2581566572189331,-1.5621064344989222,0.000457888119854033,0.03939105570316315,0.5394830703735352,0.0,0.0405551940202713,1.1090790033340454,-0.006215166300535202,-0.47224485874176025
281.0,263.0,4.4363,1.5338,7.7402,-0.0235,0.0118,-0.1248,-1.6109396419920863,-0.06149698421359062,2.000248670578003,-1.4351444244384766,-0.0,2.0834615230560303,-2.2861582241454066,0.00020674627739936113,0.2655431926250458,-1.562122646962301,0.000433976820204407,0.06076369434595108,0.5394789576530457,0.0,0.049366824328899384,1.109107494354248,-0.006216305308043957,-0.4829533100128174
281.0,263.0,4.4363,1.5338,7.7402,-0.0235,0.0118,-0.1248,-1.6112500629820765,-0.05978666618466377,2.0820789337158203,-1.435160756111145,-0.0,2.0362184047698975,-2.286150117913717,0.00023591014905832708,0.2723078727722168,-1.5621064344989222,0.0004633655771613121,0.05040915310382843,0.5394871830940247,0.0,0.045595683157444,1.1090394258499146,-0.005621477495878935,-0.4552447497844696
281.0,263.0,4.4363,1.5338,7.7402,-0.0235,0.0118,-0.1248,-1.611486097375387,-0.058660008013248444,2.0530753135681152,-1.435160756111145,-0.0,2.0876941680908203,-2.2861625156798304,0.0002748543629422784,0.2802306115627289,-1.5620983282672327,0.00046551699051633477,0.047287456691265106,0.539519190788269,0.0,0.0382361114025116,1.1090073585510254,-0.00502971513196826,-0.4540290832519531
281.0,263.0,4.4363,1.5338,7.7402,-0.0235,0.0118,-0.1248,-1.611826082269186,-0.05478454753756523,1.9829984903335571,-1.4351162910461426,-0.0,2.0884697437286377,-2.286126276055807,0.00034194879117421806,0.27688246965408325,-1.5620940367328089,0.0005784917739219964,0.05284680426120758,0.5395072102546692,0.0,0.04166751354932785,1.108999252319336,-0.004346590023487806,-0.46076175570487976
281.0,263.0,4.4363,1.5338,7.7402,-0.0235,0.0118,-0.1248,-1.6121579609312953,-0.05201997235417366,2.0307083129882812,-1.435136079788208,-0.0,2.0839297771453857,-2.2861505947508753,0.0009115407592616975,0.2744557857513428,-1.5621064344989222,0.0005142379086464643,0.0575675293803215,0.5395030975341797,0.0,0.0524686723947525,1.1089915037155151,-0.002837692853063345,-0.4741716682910919
280.0,248.0,4.0899,1.2736,8.1398,-0.0313,0.0188,-0.1176,-1.6123649082579554,-0.051125265657901764,2.038264751434326,-1.4351483583450317,-0.0,2.0829663276672363,-2.2861186466612757,0.0009094813140109181,0.2857591509819031,-1.5621503035174769,0.00044304950279183686,0.044398173689842224,0.5394949913024902,0.0,0.032119061797857285,1.1090360879898071,-0.0019307095790281892,-0.5053948163986206
280.0,248.0,4.0899,1.2736,8.1398,-0.0313,0.0188,-0.1176,-1.6126653156676234,-0.05005604028701782,2.0469040870666504,-1.435152530670166,-0.0,2.0967345237731934,-2.2861906490721644,0.0008029976161196828,0.28208261728286743,-1.5621064344989222,0.00041805687942542136,0.04675428569316864,0.539502739906311,0.0,0.05066705867648125,1.1090116500854492,-0.0011529322946444154,-0.5106046199798584
280.0,248.0,4.0899,1.2736,8.1398,-0.0313,0.0188,-0.1176,-1.6128565273680628,-0.04874388128519058,2.0887837409973145,-1.435136079788208,-0.0,2.073209047317505,-2.2861386738219203,0.000730271392967552,0.2871828079223633,-1.5621464888202112,0.0003745727299246937,0.053606048226356506,0.5395354628562927,0.0,0.03595492243766785,1.1090197563171387,-0.0008730361005291343,-0.5089500546455383
280.0,248.0,4.0899,1.2736,8.1398,-0.0313,0.0188,-0.1176,-1.613180776635641,-0.04922248050570488,2.0986440181732178,-1.4350961446762085,-0.0,2.064697265625,-2.2861749134459437,0.0005400682566687465,0.28273504972457886,-1.5621064344989222,0.00032502366229891777,0.04658866673707962,0.5395150184631348,3.28506325786293e-06,0.04347154125571251,1.1089997291564941,-0.000640068028587848,-0.4720947742462158
280.0,248.0,4.0899,1.2736,8.1398,-0.0313,0.0188,-0.1176,-1.6134048900999964,-0.049021780490875244,2.1131606101989746,-1.435096263885498,-0.0,2.0840678215026855,-2.2861467800536097,0.0005209227674640715,0.27722036838531494,-1.5621064344989222,0.000264953967416659,0.05485919862985611,0.5394424796104431,1.4004737813877455e-08,0.0516936257481575,1.1090197563171387,-0.0005434181657619774,-0.4802432060241699
280.0,248.0,4.0899,1.2736,8.1398,-0.0313,0.0188,-0.1176,-1.613659997979635,-0.04929908365011215,2.0730788707733154,-1.4351199865341187,-0.0,2.057065010070801,-2.286110063592428,0.0004676536191254854,0.2904406189918518,-1.5621264616595667,0.00022508978145197034,0.056953251361846924,0.539523184299469,3.898270161534212e-12,0.05156451091170311,1.1090360879898071,-0.00044307499774731696,-0.475965678691864
280.0,248.0,4.0899,1.2736,8.1398,-0.0313,0.0188,-0.1176,-1.6138321361937464,-0.049595803022384644,2.080094337463379,-1.4351122379302979,-0.0,2.0842416286468506,-2.2861224613585414,0.00045393052278086543,0.2839893698692322,-1.5620902220355433,0.00020461405802052468,0.05120379477739334,0.5394994616508484,1.6618937196993984e-14,0.04744483530521393,1.1089997291564941,-0.000394513102946803,-0.47817957401275635
280.0,248.0,4.0899,1.2736,8.1398,-0.0313,0.0188,-0.1176,-1.6141201458373011,-0.04859764873981476,2.106437921524048,-1.4351240396499634,-0.0,2.066117286682129,-2.2860948048033656,0.0005235346616245806,0.29317396879196167,-1.5620983282672327,0.00018004812591243535,0.04155780375003815,0.5395107865333557,4.6259422284344156e-18,0.05926860123872757,1.108987808227539,-0.00033881253330037,-0.4915379285812378
280.0,248.0,4.0899,1.2736,8.1398,-0.0313,0.0188,-0.1176,-1.6143671474852503,-0.047070521861314774,2.0565712451934814,-1.435136079788208,-0.0,2.0764050483703613,-2.286102911035055,0.0014610334765166044,0.2850055694580078,-1.5621140638934534,0.0001607500744285062,0.042707569897174835,0.5394747853279114,1.2876479873130032e-21,0.050543978810310364,1.1090078353881836,-0.0002599626313894987,-0.4413401484489441
280.0,248.0,4.0899,1.2736,8.1398,-0.0313,0.0188,-0.1176,-1.6145712337889613,-0.045309197157621384,2.0475246906280518,-1.4351080656051636,-0.0,2.0850536823272705,-2.286102911035055,0.002435216447338462,0.2834162414073944,-1.5621708075152796,0.00015002947475295514,0.03278869763016701,0.5395190715789795,5.489445197870097e-24,0.042899176478385925,1.1089755296707153,-7.979893416631967e-05,-0.45442646741867065
280.0,248.0,4.0899,1.2736,8.1398,-0.0313,0.0188,-0.1176,-1.61488737682485,-0.04441138356924057,2.081444263458252,-1.4351762533187866,-0.0,2.090939521789551,-2.2860824070372523,0.0065800221636891365,0.29004478454589844,-1.5621464888202112,0.0001091723534045741,0.02841593511402607,0.539499044418335,1.5280072030085726e-27,0.0625813752412796,1.1089915037155151,-3.2560630643274635e-05,-0.4412304162979126
280.0,248.0,4.0899,1.2736,8.1398,-0.0313,0.0188,-0.1176,-1.6150595150389613,-0.042698491364717484,2.090864658355713,-1.435152530670166,-0.0,2.0763800144195557,-2.2860824070372523,0.01157953031361103,0.3013412356376648,-1.5621503035174769,0.00010287328041158617,0.052293550223112106,0.539502739906311,6.514134540844479e-30,0.06136620044708252,1.109063982963562,-1.7059655021967046e-08,-0.4270559251308441
280.0,248.0,4.0899,1.2736,8.1398,-0.0313,0.0188,-0.1176,-1.6153108082213343,-0.04642055183649063,2.0788793563842773,-1.4351199865341187,-0.0,2.114532947540283,-2.286010881463522,0.0185692235827446,0.282736599445343,-1.5621183554278772,9.474971739109606e-05,0.03845736384391785,0.539502739906311,1.81323346426398e-33,0.06360508501529694,1.1090439558029175,-4.119706352857626e-14,-0.42292657494544983
280.0,248.0,4.0899,1.2736,8.1398,-0.0313,0.0188,-0.1176,-1.6154824695982875,-0.046717677265405655,2.05983567237854,-1.4351681470870972,-0.0,2.131715774536133,-2.285882612267965,0.018214555457234383,0.2920823395252228,-1.5621064344989222,9.001136641018093e-05,0.030034638941287994,0.5395067930221558,7.730098634163957e-36,0.058396726846694946,1.1090435981750488,-7.415325948500008e-18,-0.4800167679786682
280.0,248.0,4.0899,1.2736,8.1398,-0.0313,0.0188,-0.1176,-1.6157704792418421,-0.04978356137871742,2.0295357704162598,-1.4351680278778076,-0.0,2.096114158630371,-2.2858554325499476,0.018763775005936623,0.289274126291275,-1.562094513569967,8.373035961994901e-05,0.034946639090776443,0.5395510792732239,2.1517007984630782e-39,0.06693828850984573,1.1090800762176514,-1.7907139393073347e-23,-0.45192521810531616
280.0,248.0,4.0899,1.2736,8.1398,-0.0313,0.0188,-0.1176,-1.6159707508482875,-0.051545605063438416,2.0351767539978027,-1.4352009296417236,-0.0,2.090686321258545,-2.285710950891012,0.018956094980239868,0.28577589988708496,-1.5621221701251429,8.000857633305714e-05,0.028502069413661957,0.539539098739624,9.172899747470253e-42,0.053386252373456955,1.1090116500854492,-3.2232221030448895e-27,-0.4812923073768616
280.0,248.0,4.0899,1.2736,8.1398,-0.0313,0.0188,-0.1176,-1.6162706814207972,-0.05414361134171486,2.061786413192749,-1.4351404905319214,-0.0,2.092207431793213,-2.2855988941588343,0.020076533779501915,0.28908994793891907,-1.5621383825885218,7.500730862375349e-05,0.04761366918683052,0.5395272970199585,0.00013398034207057208,0.0652681365609169,1.1090279817581177,-7.7837026172308e-33,-0.4176633358001709
270.0,256.0,4.9837,1.2168,7.1133,-0.0412,0.0425,-0.1077,-1.6164905033507289,-0.05543554946780205,2.0583996772766113,-1.4351285696029663,-0.0,2.1007821559906006,-2.2855268917479457,0.019963011145591736,0.30038097500801086,-1.5620983282672327,7.200668915174901e-05,0.03429539129137993,0.5395268201828003,0.00012739021622110158,0.05411798879504204,1.1090197563171387,-1.4010386523791435e-36,-0.4842105209827423
270.0,256.0,4.9837,1.2168,7.1133,-0.0412,0.0425,-0.1077,-1.6168180904784144,-0.05632655322551727,2.108534574508667,-1.4351240396499634,-0.0,2.103034019470215,-2.2853909931578578,0.018030712381005287,0.29960957169532776,-1.5620902220355433,6.793038483010605e-05,0.03109300136566162,0.5395632982254028,0.00011742129572667181,0.06277084350585938,1.109075903892517,-3.3827344928801084e-42,-0.4938146770000458
270.0,256.0,4.9837,1.2168,7.1133,-0.0412,0.0425,-0.1077,-1.6171580753722132,-0.05716453120112419,2.0943498611450195,-1.4351564645767212,-0.0,2.0726330280303955,-2.2853156528868617,0.01655316911637783,0.30239757895469666,-1.5621259848224085,6.429089262383059e-05,0.028427382931113243,0.5395956635475159,0.0001299343421123922,0.06286647915840149,1.1090476512908936,-0.0,-0.482928991317749
270.0,256.0,4.9837,1.2168,7.1133,-0.0412,0.0425,-0.1077,-1.6173774204649867,-0.056807518005371094,2.124926805496216,-1.4350597858428955,-0.0,2.1071090698242188,-2.2852517567076625,0.013818740844726562,0.3079380691051483,-1.5621140638934534,4.758629438583739e-05,0.04069485142827034,0.5395231246948242,0.00012463955499697477,0.07431003451347351,1.1090397834777832,0.0,-0.49447643756866455
270.0,256.0,4.9837,1.2168,7.1133,-0.0412,0.0425,-0.1077,-1.6177579365172328,-0.05858447775244713,2.112779140472412,-1.4351203441619873,-0.0,2.1437063217163086,-2.285220285455221,0.008319400250911713,0.30057188868522644,-1.5621221701251429,4.426582745509222e-05,0.02989993244409561,0.5395067930221558,0.00011657032882794738,0.0721682608127594,1.1090279817581177,4.128002547076903e-05,-0.4697691798210144
270.0,256.0,4.9837,1.2168,7.1133,-0.0412,0.0425,-0.1077,-1.6180297336974085,-0.060769181698560715,2.122957229614258,-1.4350718259811401,-0.0,2.067448139190674,-2.2851878605284632,0.004371197894215584,0.3016507923603058,-1.5621183554278772,4.286016701371409e-05,0.031851425766944885,0.5395268201828003,0.00011174559040227905,0.06126127392053604,1.1090599298477173,3.7766654713777825e-05,-0.43260854482650757
270.0,256.0,4.9837,1.2168,7.1133,-0.0412,0.0425,-0.1077,-1.6183654270567835,-0.06050173193216324,2.111441135406494,-1.4350677728652954,-0.0,2.1245927810668945,-2.285147806207174,0.0015183622017502785,0.30487796664237976,-1.5621421972857874,4.091179289389402e-05,0.031105969101190567,0.5395993590354919,0.00012272913591004908,0.07757651805877686,1.1089915037155151,3.354364889673889e-05,-0.4491990804672241
270.0,256.0,4.9837,1.2168,7.1133,-0.0412,0.0425,-0.1077,-1.6186171970763148,-0.06098557636141777,2.1348161697387695,-1.4350920915603638,-0.0,2.079951047897339,-2.285179754296774,0.00034388885251246393,0.29757383465766907,-1.5621140638934534,3.97084622818511e-05,0.01841708831489086,0.5395268201828003,0.0001181451661977917,0.08236929774284363,1.1089953184127808,3.1216652132570744e-05,-0.4039333462715149
270.0,256.0,4.9837,1.2168,7.1133,-0.0412,0.0425,-0.1077,-1.6189567051329554,-0.059034716337919235,2.1512250900268555,-1.435115933418274,-0.0,2.078319549560547,-2.285219808618063,0.0002122534642694518,0.3034783601760864,-1.562105957661764,-3.216649929527193e-05,0.02089477889239788,0.5395551323890686,0.00011185243783984333,0.07983645796775818,1.1090681552886963,2.8274418582441285e-05,-0.4510430693626404
270.0,256.0,4.9837,1.2168,7.1133,-0.0412,0.0425,-0.1077,-1.6192246876158656,-0.055799130350351334,2.0951104164123535,-1.4350595474243164,-0.0,2.1299216747283936,-2.285179754296774,0.000171689796843566,0.3050583004951477,-1.5621183554278772,-3.1093997677089646e-05,0.021095847710967064,0.5395150184631348,0.00010801662574522197,0.069181427359581,1.1090397834777832,2.660288373590447e-05,-0.43176978826522827
270.0,256.0,4.9837,1.2168,7.1133,-0.0412,0.0425,-0.1077,-1.619580408135885,-0.054164811968803406,2.1372454166412354,-1.4351282119750977,-0.0,2.0982189178466797,-2.2851602039732875,0.00013346101331990212,0.30596235394477844,-1.5621498266803187,-2.9562146664829925e-05,0.018364978954195976,0.5395309925079346,0.00011728106619557366,0.07527151703834534,1.1090197563171387,2.443596167722717e-05,-0.47644004225730896
270.0,256.0,4.9837,1.2168,7.1133,-0.0412,0.0425,-0.1077,-1.619932313958639,-0.050919659435749054,2.1429543495178223,-1.435136318206787,-0.0,2.110302448272705,-2.2851435146727503,0.00010916394967352971,0.29951295256614685,-1.5621746222125452,-2.8174001272418536e-05,0.01820816472172737,0.5395469665527344,0.00011193274985998869,0.07018323242664337,1.1090397834777832,2.2595488189836033e-05,-0.4364691376686096
270.0,256.0,4.9837,1.2168,7.1133,-0.0412,0.0425,-0.1077,-1.6201235256590785,-0.050702329725027084,2.1346845626831055,-1.4350883960723877,4.8087524191942066e-05,2.075845241546631,-2.2851435146727503,0.0001455730089219287,0.2921407222747803,-1.5621302763568323,-2.7318779757479206e-05,0.019796600565314293,0.5395673513412476,0.00010855733853532001,0.0860205814242363,1.1090238094329834,4.216666638967581e-05,-0.4559251666069031
270.0,256.0,4.9837,1.2168,7.1133,-0.0412,0.0425,-0.1077,-1.6204315624632777,-0.05251229181885719,2.1644017696380615,-1.4351282119750977,5.109403355163522e-05,2.038651466369629,-2.2851840458311976,0.00012563526979647577,0.3029176890850067,-1.5621140638934534,-3.832803849945776e-05,0.023530930280685425,0.5395150184631348,0.00011163303861394525,0.07339291274547577,1.109067678451538,4.015085505670868e-05,-0.4758108854293823
270.0,256.0,4.9837,1.2168,7.1133,-0.0412,0.0425,-0.1077,-1.620638986627096,-0.05498170480132103,2.1202664375305176,-1.435144305229187,4.83491676277481e-05,2.102968215942383,-2.285175939599508,0.00011493617785163224,0.2925797700881958,-1.562162224446432,-3.8084159314166754e-05,0.010459810495376587,0.5395632982254028,0.00011383531818864867,0.07768714427947998,1.1089993715286255,3.843613376375288e-05,-0.4427400827407837
270.0,256.0,4.9837,1.2168,7.1133,-0.0412,0.0425,-0.1077,-1.6209470234312953,-0.0578058622777462,2.116659641265869,-1.4351565837860107,6.711133755743504e-05,2.115034341812134,-2.285135408441061,0.00013471410784404725,0.301523357629776,-1.5621140638934534,-3.654144529718906e-05,0.014718279242515564,0.5395432710647583,0.00010583608673186973,0.0682654082775116,1.1090116500854492,3.6122171877650544e-05,-0.47993406653404236
270.0,256.0,4.9837,1.2168,7.1133,-0.0412,0.0425,-0.1077,-1.621206899682516,-0.05881999805569649,2.175452947616577,-1.435084342956543,7.795294368406758e-05,2.121819257736206,-2.285135408441061,0.00010328600910725072,0.3031308650970459,-1.5621302763568323,-3.557843592716381e-05,0.03132887929677963,0.539611279964447,0.00010108093556482345,0.07278970628976822,1.109027624130249,3.4728327591437846e-05,-0.4889231026172638
270.0,256.0,4.9837,1.2168,7.1133,-0.0412,0.0425,-0.1077,-1.621530672112936,-0.05946424603462219,2.1789469718933105,-1.4351084232330322,0.00013289492926560342,2.098330497741699,-2.285091539422506,0.002481539035215974,0.29803112149238586,-1.5621746222125452,-3.4225427953060716e-05,0.017653439193964005,0.5395350456237793,9.469916403759271e-05,0.08228901028633118,1.109063744544983,3.282819307059981e-05,-0.49012506008148193
267.0,243.0,4.7312,1.5278,7.4584,-0.0299,-0.0165,-0.1222,-1.6217261753477992,-0.06090164557099342,2.184748649597168,-1.4350718259811401,0.0002913933712989092,2.061506509780884,-2.285091539422506,0.004819806665182114,0.3122682571411133,-1.5621302763568323,-3.337920134072192e-05,0.016628269106149673,0.5395632982254028,0.00010896846652030945,0.08190609514713287,1.1090476512908936,3.167293834849261e-05,-0.5307550430297852
267.0,243.0,4.7312,1.5278,7.4584,-0.0299,-0.0165,-0.1222,-1.62211336712026,-0.0637580081820488,2.2138607501983643,-1.4350721836090088,0.0012028461787849665,2.1726105213165283,-2.28501619915151,0.008627069182693958,0.31360796093940735,-1.5621259848224085,-4.282160443835892e-05,0.013800831511616707,0.5394985675811768,0.00010281976574333385,0.0826585590839386,1.1090599298477173,3.0084831450949423e-05,-0.4694240689277649
267.0,243.0,4.7312,1.5278,7.4584,-0.0299,-0.0165,-0.1222,-1.6225744686522425,-0.06456339359283447,2.2232892513275146,-1.4349994659423828,0.0007910162094049156,2.15495228767395,-2.284947534600729,0.012556646950542927,0.30556049942970276,-1.5621746222125452,-4.143231126363389e-05,0.026403378695249557,0.5395231246948242,9.72637499216944e-05,0.09311069548130035,1.1089951992034912,2.864839007088449e-05,-0.4692267179489136
267.0,243.0,4.7312,1.5278,7.4584,-0.0299,-0.0165,-0.1222,-1.622866769830221,-0.06656133383512497,2.249298095703125,-1.4349994659423828,0.000584862835239619,2.137042284011841,-2.2849003277220667,0.01425620075315237,0.33225637674331665,-1.5621541182147425,-4.930620707455091e-05,0.011711979284882545,0.5395711064338684,0.00010926056711468846,0.08032064139842987,1.1089915037155151,2.776462133624591e-05,-0.49144667387008667
267.0,243.0,4.7312,1.5278,7.4584,-0.0299,-0.0165,-0.1222,-1.6231690845885218,-0.06761336326599121,2.256369113922119,-1.43510901927948,0.0004207166493870318,2.1646006107330322,-2.2847920856871546,0.01500879880040884,0.3441992700099945,-1.5621498266803187,-8.302425840156502e-07,0.007671366445720196,0.5395469665527344,0.00010409906099084765,0.07295045256614685,1.1089833974838257,1.3268620932649355e-05,-0.49046748876571655
267.0,243.0,4.7312,1.5278,7.4584,-0.0299,-0.0165,-0.1222,-1.6234852276244105,-0.06779841333627701,2.2731757164001465,-1.43504798412323,0.0003544211795087904,2.17301607131958,-2.2847920856871546,0.015580370090901852,0.3418949544429779,-1.5621665159808558,-0.00010787330393213779,0.013439317233860493,0.5395350456237793,0.00010076892795041203,0.08010406792163849,1.109055757522583,1.288832845602883e-05,-0.5143762230873108
267.0,243.0,4.7312,1.5278,7.4584,-0.0299,-0.0165,-0.1222,-1.6239897213377894,-0.06701498478651047,2.318563938140869,-1.4350882768630981,0.0002866705763153732,2.160529613494873,-2.284720560113424,0.015211331658065319,0.3296124339103699,-1.5621827284442347,-0.00012115419667679816,0.011190305463969707,0.5395350456237793,9.615485032554716e-05,0.08785583823919296,1.1090316772460938,1.2357446394162253e-05,-0.4871973693370819
267.0,243.0,4.7312,1.5278,7.4584,-0.0299,-0.0165,-0.1222,-1.6241809330382289,-0.06646327674388885,2.2390942573547363,-1.4350800514221191,0.0002542688453104347,2.109799385070801,-2.284652372399801,0.012758392840623856,0.3340371549129486,-1.562162224446432,-0.00011842293315567076,0.00657721096649766,0.5395427942276001,0.00010575274791335687,0.07976777851581573,1.1090115308761597,1.2027173397655133e-05,-0.5470629930496216
267.0,243.0,4.7312,1.5278,7.4584,-0.0299,-0.0165,-0.1222,-1.6246653995909632,-0.06338827311992645,2.31719708442688,-1.435076355934143,0.00021741092496085912,2.178778886795044,-2.284556051293844,0.008519432507455349,0.33499735593795776,-1.5621421972857874,-0.0001202329876832664,0.011513368226587772,0.5396354794502258,0.00010209932952420786,0.0772399753332138,1.1090115308761597,1.156359303422505e-05,-0.4730139970779419
267.0,243.0,4.7312,1.5278,7.4584,-0.0299,-0.0165,-0.1222,-1.6248918972411097,-0.06048727408051491,2.291121244430542,-1.4351168870925903,0.00019825297931674868,2.1555490493774414,-2.2845922909178675,0.005211651790887117,0.33898240327835083,-1.5621498266803187,-0.00012447824701666832,0.013589812442660332,0.5395146012306213,9.928384679369628e-05,0.0846070647239685,1.1090397834777832,1.1273888048890512e-05,-0.47918280959129333
267.0,243.0,4.7312,1.5278,7.4584,-0.0299,-0.0165,-0.1222,-1.6252476177611292,-0.0560232475399971,2.2893896102905273,-1.4350924491882324,0.0001400891487719491,2.1581616401672363,-2.2845684490599574,0.001495452830567956,0.3364972770214081,-1.5621665159808558,-0.0001175482539110817,0.007803198415786028,0.5394903421401978,9.533986303722486e-05,0.08033251762390137,1.109027624130249,1.0865590411412995e-05,-0.5239847898483276
267.0,243.0,4.7312,1.5278,7.4584,-0.0299,-0.0165,-0.1222,-1.6254836521544398,-0.05346490815281868,2.2560336589813232,-1.4350355863571167,0.00012997085286770016,2.1732306480407715,-2.2845522365965785,0.0007159058004617691,0.33210378885269165,-1.5621498266803187,-0.00011331942368997261,0.004164748825132847,0.5395750999450684,9.288008732255548e-05,0.08037065714597702,1.1090115308761597,1.0609412129269913e-05,-0.5127467513084412
267.0,243.0,4.7312,1.5278,7.4584,-0.0299,-0.0165,-0.1222,-1.6258074245848597,-0.051775168627500534,2.2936882972717285,-1.4350924491882324,0.00011726914090104401,2.1611008644104004,-2.2845164738097132,0.0004471649299375713,0.3312554359436035,-1.5621379057513636,-0.00010751757508842275,0.01488511823117733,0.5395710468292236,0.00010239913535770029,0.08222978562116623,1.1090316772460938,1.0247040336253121e-05,-0.5160166621208191
267.0,243.0,4.7312,1.5278,7.4584,-0.0299,-0.0165,-0.1222,-1.6260787449278773,-0.05178125202655792,2.3122825622558594,-1.4350758790969849,0.00010682912397896871,2.1284902095794678,-2.284548898736471,0.00011081206321250647,0.3296481966972351,-1.5621708075152796,-0.00010228085011476651,0.005692988634109497,0.539506733417511,9.765248250914738e-05,0.0864337757229805,1.1090636253356934,3.3815415463323006e-06,-0.5510581731796265
267.0,243.0,4.7312,1.5278,7.4584,-0.0299,-0.0165,-0.1222,-1.6263147793211878,-0.05349736660718918,2.2932772636413574,-1.4350842237472534,0.00010084401583299041,2.1470065116882324,-2.2845002613463343,0.00019207522564101964,0.3328562378883362,-1.5621584097491663,-9.906413470162079e-05,0.0030577140860259533,0.5395870208740234,9.359092655358836e-05,0.08726511895656586,1.1090435981750488,6.086654513737244e-10,-0.4880358874797821
267.0,243.0,4.7312,1.5278,7.4584,-0.0299,-0.0165,-0.1222,-1.6265903911986292,-0.052601464092731476,2.333442211151123,-1.43504798412323,2.660793143149931e-05,2.1515867710113525,-2.284520765344137,0.0023560647387057543,0.33720457553863525,-1.5621665159808558,-0.00010810823005158454,-0.0026886435225605965,0.5395911335945129,0.00010541026131249964,0.09784272313117981,1.1090517044067383,1.4698557439747953e-15,-0.5317680835723877
267.0,243.0,4.7312,1.5278,7.4584,-0.0299,-0.0165,-0.1222,-1.6267944775023402,-0.05216412991285324,2.3443517684936523,-1.435064435005188,4.9211470468435436e-05,2.16377592086792,-2.284481187860006,0.005213168449699879,0.33399951457977295,-1.5621746222125452,-0.0001524642575532198,-0.004516263026744127,0.5395750999450684,0.0001017286122078076,0.08945979923009872,1.1090595722198486,2.64568833389593e-19,-0.499994695186615
267.0,243.0,4.7312,1.5278,7.4584,-0.0299,-0.0165,-0.1222,-1.627122541467184,-0.05032847076654434,2.3672659397125244,-1.4350842237472534,0.0007101187366060913,2.1394784450531006,-2.284393449822897,0.010266849771142006,0.3507428765296936,-1.5621584097491663,-0.00019389593217056245,0.00010980432853102684,0.5396236181259155,0.00011179412103956565,0.08933240175247192,1.109067678451538,6.389025886582499e-25,-0.5333554148674011
254.0,245.0,4.8742,1.5781,7.5314,-0.0292,0.0093,-0.1278,-1.6273261509337367,-0.0480290986597538,2.374570369720459,-1.4350199699401855,0.001850889646448195,2.176453113555908,-2.2843367062010707,0.013216543011367321,0.3519224226474762,-1.562186066304342,-0.00021022192959208041,0.010795200243592262,0.5395628809928894,0.00010846527584362775,0.07792773097753525,1.1090636253356934,1.150002019854649e-28,-0.5118497014045715
254.0,245.0,4.8742,1.5781,7.5314,-0.0292,0.0093,-0.1278,-1.627646108666891,-0.047024812549352646,2.393981695175171,-1.434983730316162,0.0032266112975776196,2.2238929271698,-2.2842008076109828,0.01766877993941307,0.36342281103134155,-1.5621703306781214,-0.0005928390310145915,-0.0011315586743876338,0.5395469069480896,0.00011407835700083524,0.09257487207651138,1.1090234518051147,2.7771196383195587e-34,-0.46794557571411133
254.0,245.0,4.8742,1.5781,7.5314,-0.0292,0.0093,-0.1278,-1.62778963665151,-0.046133752912282944,2.419116258621216,-1.4350405931472778,0.005552850663661957,2.2229769229888916,-2.2841607532896937,0.018924685195088387,0.352435827255249,-1.5621946493731897,-0.0005685798823833466,-0.01205693930387497,0.5395469069480896,0.0001141211178037338,0.09727883338928223,1.1090033054351807,4.99871804765273e-38,-0.48779791593551636
254.0,245.0,4.8742,1.5781,7.5314,-0.0292,0.0093,-0.1278,-1.6281215153136195,-0.050892770290374756,2.398465633392334,-1.4349521398544312,0.007649614010006189,2.2389063835144043,-2.2841092548766078,0.016373321413993835,0.3674692213535309,-1.562190357838766,-0.0006433735834434628,-0.017017075791954994,0.5395223498344421,0.00018812778580468148,0.08889011293649673,1.1090717315673828,1.2051166793193427e-43,-0.4789651036262512
254.0,245.0,4.8742,1.5781,7.5314,-0.0292,0.0093,-0.1278,-1.628420969048971,-0.053651921451091766,2.4022247791290283,-1.4348559379577637,0.008186900056898594,2.1880106925964355,-2.2840053043761195,0.011640015989542007,0.358211874961853,-1.562186066304342,-0.0005914453649893403,-0.014332159422338009,0.5395911335945129,0.00019755159155465662,0.09137262403964996,1.1090558767318726,6.205268050507584e-07,-0.48467129468917847
254.0,245.0,4.8742,1.5781,7.5314,-0.0292,0.0093,-0.1278,-1.6286732159056605,-0.056746114045381546,2.396784543991089,-1.4348397254943848,0.006973791867494583,2.221111536026001,-2.283952852288717,0.007592948153614998,0.363841712474823,-1.5622103849994105,-0.0004984780098311603,-0.015137771144509315,0.5395870208740234,0.00018794123025145382,0.09796507656574249,1.1090718507766724,1.1169264124699652e-10,-0.4533430337905884
254.0,245.0,4.8742,1.5781,7.5314,-0.0292,0.0093,-0.1278,-1.629005571404928,-0.05889035388827324,2.3838067054748535,-1.4348769187927246,0.005576667841523886,2.2358713150024414,-2.283905168572897,0.0028332385700196028,0.3724468946456909,-1.5622065703021448,-0.0004601998662110418,-0.013351576402783394,0.5395989418029785,0.00019805479678325355,0.10200700163841248,1.1090073585510254,2.697245659820087e-16,-0.483722448348999
254.0,245.0,4.8742,1.5781,7.5314,-0.0292,0.0093,-0.1278,-1.6292005978026332,-0.05815649405121803,2.409388303756714,-1.4347838163375854,0.005497934762388468,2.24776029586792,-2.2839375934996546,0.001746897934935987,0.3668288588523865,-1.5622099081622522,-0.00040812892257235944,-0.02398887649178505,0.5395788550376892,0.0001998689549509436,0.10478761047124863,1.1090073585510254,4.854946935450477e-20,-0.5081846714019775
254.0,245.0,4.8742,1.5781,7.5314,-0.0292,0.0093,-0.1278,-1.6295443973936976,-0.051757536828517914,2.431713581085205,-1.434772253036499,0.005086366552859545,2.232712745666504,-2.283905168572897,0.0010223621502518654,0.36373865604400635,-1.562202278767721,-0.000348794215824455,-0.017965588718652725,0.5396395325660706,0.0002985514875035733,0.09105194360017776,1.1090197563171387,1.172412719429487e-25,-0.453890860080719
254.0,245.0,4.8742,1.5781,7.5314,-0.0292,0.0093,-0.1278,-1.629695554772848,-0.04512673616409302,2.4938743114471436,-1.4347604513168335,0.004386780317872763,2.222771167755127,-2.2838932476439417,0.0008382966625504196,0.3643600344657898,-1.5622103849994105,-0.0002770500723272562,-0.007733204402029514,0.5396029949188232,0.0003301452670712024,0.10834148526191711,1.1090197563171387,2.1103014749125795e-29,-0.45484721660614014
254.0,245.0,4.8742,1.5781,7.5314,-0.0292,0.0093,-0.1278,-1.6300159893431605,-0.03662208840250969,2.397834539413452,-1.434760332107544,0.0022333681117743254,2.2802295684814453,-2.2838694057860316,0.0004391292459331453,0.364249587059021,-1.5622065703021448,-0.0002329174312762916,-0.016883134841918945,0.5395907759666443,0.00036141127930022776,0.10636895895004272,1.109007477760315,5.096130187052589e-35,-0.48543035984039307
254.0,245.0,4.8742,1.5781,7.5314,-0.0292,0.0093,-0.1278,-1.630143781701559,-0.03142290189862251,2.4217069149017334,-1.4347443580627441,0.0008949678158387542,2.2410006523132324,-2.283873220483297,0.00043933410779573023,0.360885888338089,-1.5622223059283655,-0.00024222747015301138,-0.009200100786983967,0.539595365524292,0.0005520276026800275,0.10775129497051239,1.1090799570083618,9.172854905919394e-39,-0.4497827887535095
254.0,245.0,4.8742,1.5781,7.5314,-0.0292,0.0093,-0.1278,-1.6303512058653773,-0.02538144774734974,2.5109152793884277,-1.4347443580627441,6.732605015713489e-06,2.2443418502807617,-2.2839580974974574,0.00035355292493477464,0.37144333124160767,-1.5621946493731897,-0.00022202283435035497,-0.02280750870704651,0.5395743250846863,0.0006537454901263118,0.11017951369285583,1.1089911460876465,2.2420775429197073e-44,-0.48980680108070374
254.0,245.0,4.8742,1.5781,7.5314,-0.0292,0.0093,-0.1278,-1.630491395989889,-0.02248675934970379,2.4937663078308105,-1.4348286390304565,1.6258449447859036e-11,2.238602638244629,-2.2839213810362757,0.000295486010145396,0.3667335510253906,-1.5622065703021448,-0.0002305627567693591,-0.044611621648073196,0.5396230220794678,0.0014092453056946397,0.09583932161331177,1.1090840101242065,0.0,-0.46263641119003296
254.0,245.0,4.8742,1.5781,7.5314,-0.0292,0.0093,-0.1278,-1.6305753193297328,-0.019253825768828392,2.461580276489258,-1.4347763061523438,2.9264636808962966e-15,2.2088873386383057,-2.283877512017721,0.00026632874505594373,0.3642892837524414,-1.5622308889972132,-0.0002454058558214456,-0.01797609031200409,0.5396673083305359,0.0029593014623969793,0.09836168587207794,1.1090435981750488,0.0,-0.45341169834136963
254.0,245.0,4.8742,1.5781,7.5314,-0.0292,0.0093,-0.1278,-1.6307035885252894,-0.016025252640247345,2.505145788192749,-1.434808373451233,7.067065223167242e-21,2.2213380336761475,-2.2838851414122523,0.00027030729688704014,0.3541412353515625,-1.5622265974627894,-0.0002227533987024799,-0.026299897581338882,0.5396947860717773,0.015712369233369827,0.10958153009414673,1.1090316772460938,0.0,-0.4418664276599884
254.0,245.0,4.8742,1.5781,7.5314,-0.0292,0.0093,-0.1278,-1.6307679615416468,-0.013623818755149841,2.4967243671417236,-1.4347403049468994,1.2720467885312258e-24,2.2059097290039062,-2.283877512017721,0.0002847501600626856,0.35835108160972595,-1.5621979872332972,-0.0002342921361560002,-0.021899867802858353,0.5397709608078003,0.025321710854768753,0.1171790063381195,1.1090476512908936,5.399932706495747e-05,-0.4522342383861542
254.0,245.0,4.8742,1.5781,7.5314,-0.0292,0.0093,-0.1278,-1.6308075390257777,-0.009009500034153461,2.4426772594451904,-1.4348093271255493,3.071843779207239e-30,2.2062535285949707,-2.2838689289488734,0.00035531140747480094,0.3566533327102661,-1.5622504393206995,-0.00020306732039898634,-0.033446554094552994,0.5399272441864014,0.02023850381374359,0.1160992980003357,1.109075903892517,8.012546459212899e-05,-0.4606015682220459
248.0,238.0,6.4241,1.6774,6.8489,-0.0363,0.0107,-0.1051,-1.6307784519591273,-0.0063646575435996056,2.502450466156006,-1.4347525835037231,5.529209971338738e-34,2.2058987617492676,-2.2838336429991664,0.0020169795025140047,0.3463047444820404,-1.5621979872332972,-0.0002228414232376963,-0.028976649045944214,0.539942741394043,0.013123264536261559,0.09995713084936142,1.109067678451538,0.00010085906978929415,-0.46008387207984924
248.0,238.0,6.4241,1.6774,6.8489,-0.0363,0.0107,-0.1051,-1.6308189831175746,-0.0027067780029028654,2.5004217624664307,-1.4347484111785889,1.3352398534180809e-39,2.168219804763794,-2.283849378625387,0.0034158925991505384,0.3503037691116333,-1.5622389952289026,-0.000198812922462821,-0.031400956213474274,0.5399947166442871,0.0034644685219973326,0.1098683625459671,1.1090234518051147,0.0006000527646392584,-0.42793935537338257
248.0,238.0,6.4241,1.6774,6.8489,-0.0363,0.0107,-0.1051,-1.6308547459044398,-0.001433562720194459,2.492166757583618,-1.4347000122070312,2.4102333586386854e-43,2.1938178539276123,-2.283866067925924,0.0035370895639061928,0.3435719609260559,-1.5622099081622522,-0.00021549567463807762,-0.026548441499471664,0.5400107502937317,0.0009291489259339869,0.09202208369970322,1.1090996265411377,0.0006063458858989179,-0.44485175609588623
248.0,238.0,6.4241,1.6774,6.8489,-0.0363,0.0107,-0.1051,-1.6308351955809535,-0.0010174592025578022,2.423415184020996,-1.4347727298736572,-0.0,2.160750150680542,-2.2838217220702113,0.002445388585329056,0.3532611131668091,-1.5622347036944788,-0.00019588439317885786,-0.02995545044541359,0.5400147438049316,0.0005370953003875911,0.10191434621810913,1.1090915203094482,0.0008688511443324387,-0.4056864380836487
248.0,238.0,6.4241,1.6774,6.8489,-0.0363,0.0107,-0.1051,-1.6308185062804164,-0.000874962832313031,2.4196014404296875,-1.4347403049468994,-0.0,2.195852279663086,-2.2837654552855433,0.0017380566569045186,0.351110577583313,-1.5622308889972132,-0.0002039279934251681,-0.03558861091732979,0.5399943590164185,0.00041953427717089653,0.11194415390491486,1.109047293663025,0.0007656998350284994,-0.38855043053627014
248.0,238.0,6.4241,1.6774,6.8489,-0.0363,0.0107,-0.1051,-1.6308309040465296,-0.0016390790697187185,2.4253711700439453,-1.4347447156906128,-0.0,2.172388792037964,-2.2837616405882777,0.0011315156007185578,0.35259950160980225,-1.5622389952289026,-0.00019374326802790165,-0.05060017481446266,0.5399463772773743,0.000310758245177567,0.11716772615909576,1.109059453010559,0.0005683705094270408,-0.43457114696502686
248.0,238.0,6.4241,1.6774,6.8489,-0.0363,0.0107,-0.1051,-1.6308752499022425,-0.0023592261131852865,2.3937299251556396,-1.4347485303878784,-0.0,2.136685848236084,-2.2837935886778773,0.0007348906947299838,0.33920201659202576,-1.5621822516070765,-0.00017927185399457812,-0.046532876789569855,0.540022611618042,0.0002467926242388785,0.1176399439573288,1.1090996265411377,0.0004472772416193038,-0.39137256145477295
248.0,238.0,6.4241,1.6774,6.8489,-0.0363,0.0107,-0.1051,-1.6308709583678187,-0.0025137411430478096,2.409654140472412,-1.4347403049468994,-0.0,2.167593479156494,-2.283797403375143,0.0005956852692179382,0.3366701900959015,-1.5621817747699183,-0.00017076767107937485,-0.03862342983484268,0.5400307178497314,0.0002170213992940262,0.10196952521800995,1.1090513467788696,0.0003916538553312421,-0.39196643233299255
248.0,238.0,6.4241,1.6774,6.8489,-0.0363,0.0107,-0.1051,-1.6309191189207972,-0.0027446390595287085,2.4300079345703125,-1.4347366094589233,-0.0,2.1799795627593994,-2.283797403375143,0.00046394995297305286,0.3465379774570465,-1.5622308889972132,-0.00015942368190735579,-0.042748529464006424,0.5400307178497314,4.847458694712259e-05,0.11982184648513794,1.1091078519821167,0.000330084323650226,-0.38673821091651917
248.0,238.0,6.4241,1.6774,6.8489,-0.0363,0.0107,-0.1051,-1.63090242962026,-0.0028347133193165064,2.4020848274230957,-1.43472421169281,-0.0,2.105891704559326,-2.2838059864439906,0.0004324450565036386,0.34775519371032715,-1.5621898810016077,-0.0001526628329884261,-0.02933286502957344,0.5400266647338867,4.323248140281066e-05,0.12796065211296082,1.1091197729110718,0.0002987722400575876,-0.377056360244751
248.0,238.0,6.4241,1.6774,6.8489,-0.0363,0.0107,-0.1051,-1.6309672794737757,-0.003124762326478958,2.4070615768432617,-1.4347484111785889,-0.0,2.196408748626709,-2.28375305751943,0.00038746913196519017,0.3355458974838257,-1.5622099081622522,-0.00014353252481669188,-0.04906614497303963,0.5399746894836426,3.778465907089412e-05,0.12517166137695312,1.109083652496338,0.00026155769592151046,-0.3832886517047882
248.0,238.0,6.4241,1.6774,6.8489,-0.0363,0.0107,-0.1051,-1.6309310398497523,-0.0036968900822103024,2.3835322856903076,-1.4347081184387207,-0.0,2.1065986156463623,-2.283826013604635,0.0003498134028632194,0.3440045118331909,-1.5622461477862757,-0.00013802922330796719,-0.04282121732831001,0.5400184988975525,6.734471389790997e-05,0.12930947542190552,1.1090754270553589,0.00024150311946868896,-0.45040762424468994
248.0,238.0,6.4241,1.6774,6.8489,-0.0363,0.0107,-0.1051,-1.6309510670103968,-0.003469059942290187,2.412130832672119,-1.4346957206726074,-0.0,2.1385626792907715,-2.2837850056090296,0.00030530194635502994,0.3460391163825989,-1.5622785727130335,-0.00012027499178657308,-0.042936742305755615,0.5400750041007996,6.246018165256828e-05,0.10531607270240784,1.1090795993804932,0.00021659400954376906,-0.4076247811317444
248.0,238.0,6.4241,1.6774,6.8489,-0.0363,0.0107,-0.1051,-1.630946775475973,-0.0036061748396605253,2.374688148498535,-1.4347081184387207,-0.0,2.146021842956543,-2.283745904962057,0.00019523969967849553,0.3496142327785492,-1.5622308889972132,-0.00011410363367758691,-0.029189525172114372,0.5400065779685974,5.840145604452118e-05,0.12487731128931046,1.109095573425293,0.00020265874627511948,-0.4128895699977875
248.0,238.0,6.4241,1.6774,6.8489,-0.0363,0.0107,-0.1051,-1.6310106716551722,-0.004232307430356741,2.423369884490967,-1.4347686767578125,-0.0,2.112032890319824,-2.2837335071959437,0.00023383832012768835,0.3441133201122284,-1.5622461477862757,-0.00012445585161913186,-0.04337698966264725,0.5400426387786865,7.982279203133658e-05,0.11546078324317932,1.1090635061264038,0.00018482227460481226,-0.44321155548095703
248.0,238.0,6.4241,1.6774,6.8489,-0.0363,0.0107,-0.1051,-1.6309906444945277,-0.004176512360572815,2.3610339164733887,-1.4347929954528809,-0.0,2.142030954360962,-2.28379025081777,0.000690064684022218,0.3518213927745819,-1.562258545552389,-0.00011884197010658681,-0.04241442307829857,0.5400102734565735,0.00020897979266010225,0.11969864368438721,1.1090755462646484,0.00016987169510684907,-0.4201958179473877
248.0,238.0,6.4241,1.6774,6.8489,-0.0363,0.0107,-0.1051,-1.631055017510885,-0.004098163451999426,2.3934595584869385,-1.4347846508026123,-0.0,2.1255152225494385,-2.28379025081777,0.0011079583782702684,0.3428742587566376,-1.5622747580157679,-0.0001138322550104931,-0.043390676379203796,0.5400225520133972,0.00024404247233178467,0.12982018291950226,1.1090636253356934,0.00016117953055072576,-0.4223085641860962
248.0,238.0,6.4241,1.6774,6.8489,-0.0363,0.0107,-0.1051,-1.6310464344420375,-0.003949515987187624,2.422534942626953,-1.4347525835037231,-0.0,2.114673137664795,-2.283717294732565,0.0022561706136912107,0.34745723009109497,-1.5622184912311,-0.00010706146713346243,-0.04541408270597458,0.5400668382644653,0.0002709928958211094,0.1206217035651207,1.1090552806854248,0.00014969056064728647,-0.4127398133277893
252.0,234.0,4.6451,1.6648,7.7527,-0.0235,0.024,-0.1213,-1.6310745678343714,-0.00372462160885334,2.377426862716675,-1.434760332107544,-0.0,2.141846179962158,-2.283701559106344,0.003460715990513563,0.3478492498397827,-1.562258545552389,-0.00010297795233782381,-0.03971051424741745,0.5400750041007996,0.0002687315281946212,0.11124366521835327,1.1090915203094482,0.00014289979299064726,-0.4711611866950989
252.0,234.0,4.6451,1.6648,7.7527,-0.0235,0.024,-0.1213,-1.631054540673727,-0.003879683557897806,2.416440725326538,-1.434788703918457,-0.0,2.1429526805877686,-2.2836691341795863,0.004729757085442543,0.3499232828617096,-1.5622461477862757,-9.740532550495118e-05,-0.051314160227775574,0.5400344729423523,0.0005112085491418839,0.12152256071567535,1.1090717315673828,0.0001337953726761043,-0.44702133536338806
252.0,234.0,4.6451,1.6648,7.7527,-0.0235,0.024,-0.1213,-1.6311150989928187,-0.00447110366076231,2.393113613128662,-1.4347686767578125,-0.0,2.1161599159240723,-2.283693929711813,0.005007358267903328,0.34324774146080017,-1.5622380415545862,-9.401362331118435e-05,-0.04174157232046127,0.5400786399841309,0.0005551623762585223,0.12349265813827515,1.1091115474700928,0.00012834405060857534,-0.4817003607749939
252.0,234.0,4.6451,1.6648,7.7527,-0.0235,0.024,-0.1213,-1.6311708889403285,-0.004986129235476255,2.4442362785339355,-1.4347686767578125,-0.0,2.1521263122558594,-2.2836176357665003,0.005514177959412336,0.3464104235172272,-1.5622184912311,-8.934694051276892e-05,-0.03607269376516342,0.5400627255439758,0.0007324943435378373,0.1262456625699997,1.109083652496338,0.0001209519905387424,-0.47297340631484985
252.0,234.0,4.6451,1.6648,7.7527,-0.0235,0.024,-0.1213,-1.6311871014037074,-0.006886368151754141,2.4525136947631836,-1.4347081184387207,-0.0,2.106126308441162,-2.2835737667479457,0.006040319334715605,0.35203588008880615,-1.5622461477862757,-8.64850590005517e-05,-0.04278350993990898,0.5400824546813965,0.0009227507980540395,0.14101341366767883,1.109107494354248,0.0001164795394288376,-0.4508955180644989
252.0,234.0,4.6451,1.6648,7.7527,-0.0235,0.024,-0.1213,-1.6312228641905726,-0.008711114525794983,2.4212746620178223,-1.4346884489059448,-0.0,2.1261470317840576,-2.2835780582823695,0.006498069502413273,0.3570302128791809,-1.5622623602496546,-8.252022962551564e-05,-0.045930761843919754,0.5401148200035095,0.0012955294223502278,0.13101089000701904,1.1091197729110718,0.00011035841453121975,-0.5180107951164246
252.0,234.0,4.6451,1.6648,7.7527,-0.0235,0.024,-0.1213,-1.6312905750670375,-0.010779854841530323,2.43255615234375,-1.4347201585769653,-0.0,2.1628811359405518,-2.283513685266012,0.006668059155344963,0.3531470000743866,-1.5622747580157679,-7.890282722655684e-05,-0.023093342781066895,0.5400865077972412,0.0015801849076524377,0.14581076800823212,1.1090797185897827,0.0001048486155923456,-0.5102990865707397
252.0,234.0,4.6451,1.6648,7.7527,-0.0235,0.024,-0.1213,-1.6313101253905238,-0.012531992979347706,2.423705577850342,-1.4347606897354126,-0.0,2.099956750869751,-2.28354611019277,0.006590873934328556,0.35129469633102417,-1.5622060934649866,-7.666251622140408e-05,-0.04472338408231735,0.540122926235199,0.0018808936001732945,0.13331717252731323,1.1091235876083374,0.0001014711451716721,-0.4801329970359802
252.0,234.0,4.6451,1.6648,7.7527,-0.0235,0.024,-0.1213,-1.6314388714232386,-0.014185714535415173,2.4453134536743164,-1.4347403049468994,-0.0,2.1726858615875244,-2.283461710015768,0.005210766103118658,0.3498028516769409,-1.5622666517840784,-8.577218977734447e-05,-0.03232135996222496,0.5401384830474854,0.0023402597289532423,0.12451773881912231,1.1091601848602295,9.679415234131739e-05,-0.4788137674331665
252.0,234.0,4.6451,1.6648,7.7527,-0.0235,0.024,-0.1213,-1.6314059696593226,-0.015677612274885178,2.401733636856079,-1.4346842765808105,-0.0,2.1602907180786133,-2.283445974389547,0.0038105957210063934,0.35552847385406494,-1.5622461477862757,-8.35115642985329e-05,-0.03903765231370926,0.540186882019043,0.00308828242123127,0.15084224939346313,1.1090795993804932,9.390854393132031e-05,-0.4883086085319519
252.0,234.0,4.6451,1.6648,7.7527,-0.0235,0.024,-0.1213,-1.6316029034056605,-0.01847040466964245,2.379568338394165,-1.4347286224365234,-0.0,2.116933822631836,-2.2834583721556605,0.0021544029004871845,0.34494614601135254,-1.5622337500201624,-9.177866741083562e-05,-0.04494414106011391,0.5402028560638428,0.004805294796824455,0.13814492523670197,1.1090795993804932,8.988887566374615e-05,-0.5242328643798828
252.0,234.0,4.6451,1.6648,7.7527,-0.0235,0.024,-0.1213,-1.6316586933531703,-0.020702390000224113,2.4248299598693848,-1.4347525835037231,-0.0,2.1641173362731934,-2.2834578953185023,0.0014704366913065314,0.3489292562007904,-1.5622504393206995,-8.950923074735329e-05,-0.03889442980289459,0.5401986837387085,0.005634387023746967,0.1312168538570404,1.1091078519821167,8.739501208765432e-05,-0.4917055070400238
252.0,234.0,4.6451,1.6648,7.7527,-0.0235,0.024,-0.1213,-1.6317702732481898,-0.02337558940052986,2.402155876159668,-1.4347484111785889,-0.0,2.1318678855895996,-2.283461710015768,0.0009107732912525535,0.33723920583724976,-1.5622265974627894,-8.629106741864234e-05,-0.05239662528038025,0.5402424931526184,0.0052691297605633736,0.15570642054080963,1.1091363430023193,2.5582394300727174e-05,-0.4923103153705597
252.0,234.0,4.6451,1.6648,7.7527,-0.0235,0.024,-0.1213,-1.631878515283102,-0.027335822582244873,2.3979506492614746,-1.4347283840179443,-0.0,2.149813652038574,-2.283478399316305,0.0006484545883722603,0.3391769826412201,-1.56224233308901,-8.427113789366558e-05,-0.05052567273378372,0.5402143597602844,0.005079362541437149,0.13898621499538422,1.1090960502624512,2.478761598467827e-05,-0.4519626796245575
252.0,234.0,4.6451,1.6648,7.7527,-0.0235,0.024,-0.1213,-1.6320144138731898,-0.03082740493118763,2.368773937225342,-1.4347366094589233,-0.0,2.1183619499206543,-2.2834297619261683,0.000487893121317029,0.3508321940898895,-1.5622337500201624,-8.141247235471383e-05,-0.0568569079041481,0.5402543544769287,0.004516085144132376,0.13337711989879608,1.1090636253356934,1.1957353308389429e-05,-0.49790456891059875
252.0,234.0,4.6451,1.6648,7.7527,-0.0235,0.024,-0.1213,-1.6321903667845667,-0.03365404158830643,2.366342067718506,-1.4347525835037231,-0.0,2.090790271759033,-2.283377309838766,0.0004224171570967883,0.3380630612373352,-1.56224233308901,-7.96121166786179e-05,-0.049570437520742416,0.5402703285217285,0.004508499056100845,0.14273758232593536,1.109095573425293,1.1595431715250015e-05,-0.5438323020935059
252.0,234.0,4.6451,1.6648,7.7527,-0.0235,0.024,-0.1213,-1.6324058971800746,-0.03871893510222435,2.3371903896331787,-1.4346917867660522,-0.0,2.1084277629852295,-2.283445974389547,0.000351647031493485,0.337903767824173,-1.5622060934649866,-2.216032868318507e-08,-0.05642203241586685,0.5402821898460388,0.004168176557868719,0.14427782595157623,1.1091238260269165,3.811282340393518e-06,-0.5442825555801392
252.0,234.0,4.6451,1.6648,7.7527,-0.0235,0.024,-0.1213,-1.6325775585570277,-0.04265324026346207,2.310532808303833,-1.4347283840179443,-0.0,2.1156578063964844,-2.283502241174215,0.0003011945227626711,0.33990347385406494,-1.5622223059283655,-6.168408665796488e-12,-0.0324692577123642,0.5403305292129517,0.003909545484930277,0.14547111093997955,1.1090877056121826,9.203796579038137e-12,-0.5441486239433289
256.0,232.0,4.3244,1.4405,7.4393,-0.0182,-0.0069,-0.1229,-1.6328016720213832,-0.0464698001742363,2.3475959300994873,-1.4347163438796997,-0.0,2.0963144302368164,-2.283518453637594,0.0002749014238361269,0.339549720287323,-1.5622265974627894,-2.629689170683281e-14,-0.049370478838682175,0.5403222441673279,0.004433311056345701,0.15414555370807648,1.109047293663025,1.6566508610416021e-15,-0.523268461227417
256.0,232.0,4.3244,1.4405,7.4393,-0.0182,-0.0069,-0.1229,-1.6331259212889613,-0.05204669386148453,2.317741632461548,-1.434704065322876,-0.0,2.1049578189849854,-2.2833978138365687,0.00024307530838996172,0.34538698196411133,-1.5621898810016077,-7.319836218586887e-18,-0.025147095322608948,0.5403377413749695,0.005086956080049276,0.15361148118972778,1.1090353727340698,4.000616623450454e-21,-0.4885540008544922
256.0,232.0,4.3244,1.4405,7.4393,-0.0182,-0.0069,-0.1229,-1.6332856617369593,-0.055655017495155334,2.244943380355835,-1.4347163438796997,-0.0,2.0586652755737305,-2.283422132531637,0.00024145359930116683,0.33205220103263855,-1.5621941725360315,-3.120560832841318e-20,-0.03463045135140419,0.5403663516044617,0.006061681546270847,0.15559394657611847,1.1090717315673828,7.200967875814146e-25,-0.5316727161407471
256.0,232.0,4.3244,1.4405,7.4393,-0.0182,-0.0069,-0.1229,-1.6336251697936,-0.05994270369410515,2.3415000438690186,-1.4347484111785889,-0.0,2.0703928470611572,-2.283454557458395,0.00023286524810828269,0.3263813853263855,-1.5621822516070765,-2.5469002139288932e-05,-0.0180022194981575,0.5404828786849976,0.0069768913090229034,0.1592620313167572,1.1090435981750488,-0.0006709382287226617,-0.5731738209724426
256.0,232.0,4.3244,1.4405,7.4393,-0.0182,-0.0069,-0.1229,-1.6338449917235316,-0.061968814581632614,2.2724926471710205,-1.4347403049468994,-0.0,2.1091606616973877,-2.2834464512267054,0.000218720015254803,0.33939504623413086,-1.5621941725360315,-2.4766282876953483e-05,-0.027605492621660233,0.5405070185661316,0.008304433897137642,0.15097516775131226,1.1090517044067383,-0.0006570142577402294,-0.5509207248687744
256.0,232.0,4.3244,1.4405,7.4393,-0.0182,-0.0069,-0.1229,-1.634245058099264,-0.06505637615919113,2.3023841381073,-1.4347487688064575,-0.0,2.0632035732269287,-2.2834421596922816,0.00017882643442135304,0.33251816034317017,-1.5622265974627894,-2.3784512450220063e-05,-0.02624068409204483,0.5405265092849731,0.010989293456077576,0.14640051126480103,1.1090073585510254,-0.0009323505801148713,-0.6255539655685425
256.0,232.0,4.3244,1.4405,7.4393,-0.0182,-0.0069,-0.1229,-1.6345287762083949,-0.07005774974822998,2.2920351028442383,-1.4347163438796997,-0.0,2.0886788368225098,-2.283405920068258,0.0010694470256567001,0.32430845499038696,-1.5622265974627894,-2.317214966751635e-05,-0.015244267880916595,0.5406227111816406,0.014151622541248798,0.15303856134414673,1.1090397834777832,-0.0011079659452661872,-0.5764631628990173
256.0,232.0,4.3244,1.4405,7.4393,-0.0182,-0.0069,-0.1229,-1.6349240742125453,-0.07015778869390488,2.278881072998047,-1.4347566366195679,-0.0,2.1134448051452637,-2.28344263652944,0.0018374164355918765,0.3267325758934021,-1.5622265974627894,-2.2310523490887135e-05,-0.011476784013211727,0.5407185554504395,0.02075178548693657,0.15770527720451355,1.1090115308761597,-0.0010553908068686724,-0.6282548904418945
256.0,232.0,4.3244,1.4405,7.4393,-0.0182,-0.0069,-0.1229,-1.6353565655150355,-0.07001399993896484,2.3541533946990967,-1.4346803426742554,-0.0,2.0680623054504395,-2.28332581142568,0.0028689352329820395,0.32994183897972107,-1.5621941725360315,-2.1510673832381144e-05,-0.010814879089593887,0.5408259630203247,0.03253023326396942,0.16526088118553162,1.1090439558029175,-0.0011214419500902295,-0.5921118259429932
256.0,232.0,4.3244,1.4405,7.4393,-0.0182,-0.0069,-0.1229,-1.6356517277159632,-0.0690959021449089,2.372471809387207,-1.4347525835037231,-0.0,2.1260061264038086,-2.283365865746969,0.003035527653992176,0.3295436203479767,-1.5622099081622522,-2.100856181641575e-05,-0.017428986728191376,0.541042685508728,0.04286210238933563,0.1730566918849945,1.1090397834777832,-0.001076706568710506,-0.6417308449745178
256.0,232.0,4.3244,1.4405,7.4393,-0.0182,-0.0069,-0.1229,-1.636059423486227,-0.06897877901792526,2.331162214279175,-1.43472421169281,-0.0,2.0854392051696777,-2.283370634118551,0.003392856800928712,0.33100080490112305,-1.5622265974627894,-2.0297848095651716e-05,4.130054730921984e-05,0.5413543581962585,0.07099951058626175,0.1667882204055786,1.1090320348739624,-0.0009376891539432108,-0.6375036835670471
256.0,232.0,4.3244,1.4405,7.4393,-0.0182,-0.0069,-0.1229,-1.6363150082030238,-0.06747597455978394,2.351250410079956,-1.434768557548523,-0.0,2.0500545501708984,-2.2833463154234828,0.0027889038901776075,0.3333319425582886,-1.562258545552389,-1.0061643479275517e-05,-0.009822273626923561,0.5416780710220337,0.0957864448428154,0.1854182928800583,1.1090197563171387,-0.0007983560208231211,-0.6428871154785156
256.0,232.0,4.3244,1.4405,7.4393,-0.0182,-0.0069,-0.1229,-1.6367832622923792,-0.06873863190412521,2.375497817993164,-1.4347522258758545,-0.0,2.102950096130371,-2.2833663425841273,0.0020099172834306955,0.3380548357963562,-1.56224233308901,-2.800695897420269e-09,-0.00244876928627491,0.5423896908760071,0.1253013163805008,0.1914021521806717,1.1090439558029175,-0.0006461875163950026,-0.7006366848945618
256.0,232.0,4.3244,1.4405,7.4393,-0.0182,-0.0069,-0.1229,-1.6370188198485316,-0.07004202157258987,2.3901846408843994,-1.434732437133789,-0.0,2.1118998527526855,-2.283342023889059,0.0016500401543453336,0.330699622631073,-1.5622223059283655,-1.1939806782157447e-11,-0.019244030117988586,0.5429439544677734,0.12583108246326447,0.19729970395565033,1.1089956760406494,-0.000609568611253053,-0.6655913591384888
256.0,232.0,4.3244,1.4405,7.4393,-0.0182,-0.0069,-0.1229,-1.6374265156187953,-0.07067403942346573,2.3503496646881104,-1.4346998929977417,-0.0,2.0974111557006836,-2.2833105526366175,0.0019600335508584976,0.3373752236366272,-1.5622060934649866,-3.3234889873398317e-15,-0.017480963841080666,0.5436366200447083,0.11455239355564117,0.1885424554347992,1.1089837551116943,-0.0004316825943533331,-0.6560356616973877
256.0,232.0,4.3244,1.4405,7.4393,-0.0182,-0.0069,-0.1229,-1.6377583942809046,-0.06918639689683914,2.398467540740967,-1.4347366094589233,-0.0,2.1205267906188965,-2.283318658868307,0.003358739661052823,0.34311553835868835,-1.5622308889972132,-1.4168555028016647e-17,-0.00018489197827875614,0.5440884232521057,0.10697884112596512,0.18899700045585632,1.108987808227539,-0.0004342882602941245,-0.6705077886581421
256.0,232.0,4.3244,1.4405,7.4393,-0.0182,-0.0069,-0.1229,-1.638146539727682,-0.06789598613977432,2.4009249210357666,-1.434695839881897,-0.0,2.094149351119995,-2.283318658868307,0.007305544335395098,0.332893967628479,-1.5622184912311,-3.9438695292692584e-21,-0.0005176723934710026,0.5447518825531006,0.11854513734579086,0.1842976212501526,1.1090120077133179,-0.00046574915177188814,-0.6239473819732666
256.0,232.0,4.3244,1.4405,7.4393,-0.0182,-0.0069,-0.1229,-1.6385218105711878,-0.06723190099000931,2.429141044616699,-1.434712290763855,-0.0,2.1015734672546387,-2.2831784687437953,0.01170566026121378,0.3495427966117859,-1.5622308889972132,-1.097790471403912e-24,-0.008397206664085388,0.545660138130188,0.1659536510705948,0.20832471549510956,1.1089956760406494,-0.00048243458149954677,-0.7395083904266357
243.0,219.0,5.1398,1.9137,7.6307,-0.0411,-0.0293,-0.0006,-1.6387692890562953,-0.06689859926700592,2.449796676635742,-1.434695839881897,-0.0,2.09751558303833,-2.2831303081908167,0.015670711174607277,0.3544972240924835,-1.5622265974627894,-4.6800525205057485e-27,-0.005869095213711262,0.5463466048240662,0.19606293737888336,0.21465866267681122,1.109023928642273,-0.0005529529298655689,-0.6715981960296631
243.0,219.0,5.1398,1.9137,7.6307,-0.0411,-0.0293,-0.0006,-1.6391612492003382,-0.06896298378705978,2.4435067176818848,-1.4347763061523438,-0.0,2.101116180419922,-2.2829700909056605,0.023955248296260834,0.3499071002006531,-1.5622265974627894,-1.3027096408524578e-30,-0.005354264285415411,0.5475490093231201,0.19914910197257996,0.21749986708164215,1.108996033668518,-0.000815934909041971,-0.708652913570404
243.0,219.0,5.1398,1.9137,7.6307,-0.0411,-0.0293,-0.0006,-1.6394692860045375,-0.07047583907842636,2.4811582565307617,-1.434676170349121,-0.0,2.1208643913269043,-2.282890935937399,0.031569674611091614,0.36006367206573486,-1.5622060934649866,-5.5536557538965296e-33,0.005222131498157978,0.5483226180076599,0.20337295532226562,0.19938930869102478,1.1089837551116943,-0.001090190839022398,-0.7286525368690491
243.0,219.0,5.1398,1.9137,7.6307,-0.0411,-0.0293,-0.0006,-1.6399132213988246,-0.06992337852716446,2.4813709259033203,-1.4347927570343018,-0.0,2.10237455368042,-2.2826267681517542,0.050489526242017746,0.3613884449005127,-1.5622223059283655,-1.545880538658927e-36,-0.0016943007940426469,0.5495897531509399,0.2192969024181366,0.21037764847278595,1.1089677810668945,-0.0014830247964709997,-0.750362753868103
243.0,219.0,5.1398,1.9137,7.6307,-0.0411,-0.0293,-0.0006,-1.6401568851866664,-0.06880166381597519,2.482346773147583,-1.434780478477478,-0.0,2.103684663772583,-2.2823592625060023,0.07066190242767334,0.3730265498161316,-1.562270466481344,-6.590331901091973e-39,0.0034518293105065823,0.5504568219184875,0.2081506997346878,0.20271527767181396,1.1089677810668945,-0.001590833067893982,-0.6819286346435547
243.0,219.0,5.1398,1.9137,7.6307,-0.0411,-0.0293,-0.0006,-1.6405846081175746,-0.06370613723993301,2.540849208831787,-1.4347484111785889,-0.0,2.1059885025024414,-2.2817870579161585,0.11590878665447235,0.40049219131469727,-1.5622380415545862,-1.8342996898011855e-42,-0.001282812561839819,0.5516107678413391,0.2029498815536499,0.203643798828125,1.108927607536316,-0.0020903449039906263,-0.7296918630599976
243.0,219.0,5.1398,1.9137,7.6307,-0.0411,-0.0293,-0.0006,-1.6408115826048792,-0.05975878983736038,2.472083568572998,-1.4347562789916992,-0.0,2.145836114883423,-2.281219621697897,0.14510606229305267,0.4079476594924927,-1.5622308889972132,-8.407790785948902e-45,0.007499747909605503,0.5525339841842651,0.23294073343276978,0.20043563842773438,1.1089195013046265,-0.002029665745794773,-0.7012529373168945
243.0,219.0,5.1398,1.9137,7.6307,-0.0411,-0.0293,-0.0006,-1.6411882839598597,-0.059356529265642166,2.484997034072876,-1.4347362518310547,-0.0,2.1450557708740234,-2.280264516870016,0.1737770289182663,0.4418710470199585,-1.5622265974627894,-0.0,-7.857580203562975e-05,0.5540639758110046,0.2607087194919586,0.21762028336524963,1.108935832977295,-0.0017008577706292272,-0.8014063239097595
243.0,219.0,5.1398,1.9137,7.6307,-0.0411,-0.0293,-0.0006,-1.6414996586241664,-0.06381522119045258,2.5232763290405273,-1.434780478477478,-0.0,2.1169514656066895,-2.279182096520895,0.19649718701839447,0.44415736198425293,-1.5622184912311,-0.0,-0.0019159270450472832,0.5556660294532776,0.2713421881198883,0.21991562843322754,1.1089277267456055,-0.0017537128878757358,-0.7103787660598755
243.0,219.0,5.1398,1.9137,7.6307,-0.0411,-0.0293,-0.0006,-1.6417752705016078,-0.06719901412725449,2.5053606033325195,-1.434712290763855,-0.0,2.1061575412750244,-2.27825464824819,0.22799237072467804,0.4490833282470703,-1.5622099081622522,-0.0,0.011565878987312317,0.5568046569824219,0.2755542993545532,0.23306263983249664,1.1089640855789185,-0.0013768699718639255,-0.7055293321609497
243.0,219.0,5.1398,1.9137,7.6307,-0.0411,-0.0293,-0.0006,-1.642134805718893,-0.06843117624521255,2.5039398670196533,-1.4347403049468994,-0.0,2.076075553894043,-2.2767678699889125,0.2691805362701416,0.4734216332435608,-1.5622184912311,-0.0,-0.011467364616692066,0.5582736730575562,0.25699377059936523,0.19344642758369446,1.108907699584961,-0.0012403067667037249,-0.6951890587806702
