ramyac6/ROB537/final_project/csv/all/bad_65.csv
tof_0,tof_1,accelx,accely,accelz,gyrox,gyroy,gyroz,shoulder_lift_joint_position,shoulder_lift_joint_velocity,shoulder_lift_joint_effort,elbow_joint_position,elbow_joint_velocity,elbow_joint_effort,wrist_1_joint_position,wrist_1_joint_velocity,wrist_1_joint_effort,wrist_2_joint_position,wrist_2_joint_velocity,wrist_2_joint_effort,wrist_3_joint_position,wrist_3_joint_velocity,wrist_3_joint_effort,shoulder_pan_joint_position,shoulder_pan_joint_velocity,shoulder_pan_joint_effort
315.0,637.0,-3.2656,-1.0684,9.1508,-0.0315,0.0217,-0.1194,-2.230361600915426,0.0,4.503664016723633,-1.4412972927093506,-0.0,1.8417422771453857,5.4987220642860315,-0.0,0.2109213024377823,-1.6382282415973108,-0.0,-0.007558068260550499,0.007307957857847214,0.0,0.010381865315139294,1.2100753784179688,0.0,-0.03051021136343479
315.0,637.0,-3.2656,-1.0684,9.1508,-0.0315,0.0217,-0.1194,-2.2303739986815394,0.0,4.5201005935668945,-1.4413251876831055,-0.0,1.8492581844329834,5.498718368798055,-0.0,0.20064407587051392,-1.6382282415973108,-0.0,-0.012286669574677944,0.007304240018129349,0.0,-0.002176855690777302,1.2100510597229004,0.0,-0.014922522008419037
315.0,637.0,-3.2656,-1.0684,9.1508,-0.0315,0.0217,-0.1194,-2.230401655236715,0.0,4.512430191040039,-1.4412652254104614,-0.0,1.8610094785690308,5.4987021563346765,-0.0,0.2063412368297577,-1.6382125059710901,-0.0,0.0057750726118683815,0.007336139678955078,0.0,-0.007669493556022644,1.2100551128387451,0.0,-0.006178020033985376
315.0,637.0,-3.2656,-1.0684,9.1508,-0.0315,0.0217,-0.1194,-2.230361600915426,0.0,4.509954929351807,-1.441325306892395,-0.0,1.8829283714294434,5.498690235405721,-0.0,0.2025582194328308,-1.6381924788104456,-0.0,-0.005283824168145657,0.007291927933692932,0.0,0.005293074995279312,1.210031270980835,0.0,-0.0009357738308608532
315.0,637.0,-3.2656,-1.0684,9.1508,-0.0315,0.0217,-0.1194,-2.230394025842184,0.0,4.52304744720459,-1.4413098096847534,-0.0,1.8095091581344604,5.498765933304586,-0.0,0.20003092288970947,-1.6382320562945765,-0.0,-0.003685292787849903,0.0073161362670362,0.0,0.004519887268543243,1.2100794315338135,0.0,-0.008453638292849064
315.0,637.0,-3.2656,-1.0684,9.1508,-0.0315,0.0217,-0.1194,-2.2303739986815394,0.0,4.497684001922607,-1.4413138628005981,-0.0,1.866285800933838,5.498750078469076,-0.0,0.19524411857128143,-1.6382125059710901,-0.0,-0.0010179367382079363,0.007340298034250736,0.0,0.005614312831312418,1.2100470066070557,0.0,-0.0013170791789889336
315.0,637.0,-3.2656,-1.0684,9.1508,-0.0315,0.0217,-0.1194,-2.2303577862181605,0.0,4.488265037536621,-1.4413137435913086,-0.0,1.86936354637146,5.498761999398031,-0.0,0.2046690285205841,-1.638240162526266,-0.0,-0.007916590198874474,0.007332158274948597,0.0,-0.0037698177620768547,1.2100591659545898,0.0,0.01803061179816723
315.0,637.0,-3.2656,-1.0684,9.1508,-0.0315,0.0217,-0.1194,-2.2303816280760707,0.0,4.499497890472412,-1.441325306892395,-0.0,1.852104663848877,5.4987302897270105,-0.0,0.21108302474021912,-1.6382606665240687,-0.0,-0.007918676361441612,0.007336246781051159,0.0,0.007669733837246895,1.2100350856781006,0.0,0.018385816365480423
315.0,637.0,-3.2656,-1.0684,9.1508,-0.0315,0.0217,-0.1194,-2.230405946771139,0.0,4.517956256866455,-1.4413303136825562,-0.0,1.86064875125885,5.498746144562521,-0.0,0.1963760405778885,-1.6382163206683558,-0.0,-0.00342102674767375,0.007247272413223982,0.0,0.009772958233952522,1.210071325302124,0.0,0.002366316504776478
298.0,655.0,-3.3302,-1.0845,9.2297,-0.0396,0.0278,-0.1197,-2.2304216823973597,0.0,4.519889831542969,-1.4412891864776611,-0.0,1.8934626579284668,5.498726355820455,-0.0,0.201625257730484,-1.6382244269000452,-0.0,-0.011700672097504139,0.007291927468031645,0.0,-0.0006678864592686296,1.2100231647491455,0.0,-0.0011763966176658869
298.0,655.0,-3.3302,-1.0845,9.2297,-0.0396,0.0278,-0.1197,-2.230361600915426,0.0,4.513718605041504,-1.4412736892700195,-0.0,1.886911392211914,5.4987302897270105,-0.0,0.20649650692939758,-1.6382082144366663,-0.0,0.0005149096250534058,0.007307970430701971,0.0,-0.01141698844730854,1.2100672721862793,0.0,-0.013679875060915947
298.0,655.0,-3.3302,-1.0845,9.2297,-0.0396,0.0278,-0.1197,-2.230377336541647,0.0,4.487915992736816,-1.4412932395935059,-0.0,1.8891716003417969,5.498774277954855,-0.0,0.21022164821624756,-1.6382606665240687,-0.0,0.010881724767386913,0.007328057195991278,0.0,0.008010110817849636,1.2100470066070557,0.0,-0.015017746016383171
298.0,655.0,-3.3302,-1.0845,9.2297,-0.0396,0.0278,-0.1197,-2.230333467523092,0.0,4.528943061828613,-1.441317081451416,-0.0,1.8699915409088135,5.498765933304586,-0.0,0.19259807467460632,-1.6382558981524866,-0.0,-0.011564148589968681,0.007280080113559961,0.0,0.007063304074108601,1.210023045539856,0.0,-0.008132994174957275
298.0,655.0,-3.3302,-1.0845,9.2297,-0.0396,0.0278,-0.1197,-2.2304259739317835,0.0,4.494572639465332,-1.4412972927093506,-0.0,1.8586907386779785,5.498765933304586,-0.0,0.20568788051605225,-1.6382125059710901,-0.0,0.005688903853297234,0.007307998836040497,0.0,-0.0007196397054940462,1.2100754976272583,0.0,0.006694341078400612
298.0,655.0,-3.3302,-1.0845,9.2297,-0.0396,0.0278,-0.1197,-2.2303415737547816,0.0,4.493971347808838,-1.441333532333374,-0.0,1.8648253679275513,5.498742210655966,-0.0,0.21275737881660461,-1.6382482687579554,-0.0,-0.0021004765294492245,0.0072920010425150394,0.0,-0.005240922793745995,1.2100872993469238,0.0,-0.013209168799221516
298.0,655.0,-3.3302,-1.0845,9.2297,-0.0396,0.0278,-0.1197,-2.230377336541647,0.0,4.49577522277832,-1.4412734508514404,-0.0,1.8527384996414185,5.498726355820455,-0.0,0.21668830513954163,-1.638280216847555,-0.0,-0.008198346942663193,0.0072919768281280994,0.0,0.008747083134949207,1.21004319190979,0.0,0.029920365661382675
298.0,655.0,-3.3302,-1.0845,9.2297,-0.0396,0.0278,-0.1197,-2.2303859196104945,0.0,4.528005123138428,-1.4412652254104614,-0.0,1.8806548118591309,5.498698222428121,-0.0,0.20658382773399353,-1.6382125059710901,-0.0,-0.011563376523554325,0.007295992225408554,0.0,-0.007517368532717228,1.2100191116333008,0.0,0.019802765920758247
298.0,655.0,-3.3302,-1.0845,9.2297,-0.0396,0.0278,-0.1197,-2.2303697071471156,0.0,4.491391181945801,-1.4412891864776611,-0.0,1.8660781383514404,5.498782145767965,-0.0,0.21078810095787048,-1.6382563749896448,-0.0,-0.005605295766144991,0.007271772250533104,0.0,0.0125050600618124,1.210083246231079,0.0,0.02660440281033516
298.0,655.0,-3.3302,-1.0845,9.2297,-0.0396,0.0278,-0.1197,-2.2303816280760707,0.0,4.532602787017822,-1.4413056373596191,-0.0,1.8508224487304688,5.4987302897270105,-0.0,0.2060314416885376,-1.6382320562945765,-0.0,0.0006678893114440143,0.007287817541509867,0.0,-0.005840391851961613,1.2100391387939453,0.0,0.011370811611413956
298.0,655.0,-3.3302,-1.0845,9.2297,-0.0396,0.0278,-0.1197,-2.2303978405394496,0.0,4.488434791564941,-1.4412972927093506,-0.0,1.8825738430023193,5.498714077263632,-0.0,0.1967357099056244,-1.6382125059710901,-0.0,0.0009327034931629896,0.007336195092648268,0.0,-0.0052428762428462505,1.2100032567977905,0.0,-0.0254488717764616
298.0,655.0,-3.3302,-1.0845,9.2297,-0.0396,0.0278,-0.1197,-2.2303978405394496,0.0,4.523106575012207,-1.441341757774353,-0.0,1.8544986248016357,5.498734223633566,-0.0,0.19742676615715027,-1.6382082144366663,-0.0,-0.003902941243723035,0.0072882091626524925,0.0,-0.0062362393364310265,1.210083246231079,0.0,0.017320014536380768
298.0,655.0,-3.3302,-1.0845,9.2297,-0.0396,0.0278,-0.1197,-2.2303935490050257,0.0,4.508057594299316,-1.4412932395935059,-0.0,1.8880317211151123,5.498718011170187,-0.0,0.20916767418384552,-1.6381805578814905,-0.0,0.005057551898062229,0.007308056112378836,0.0,0.003785565495491028,1.2100872993469238,0.0,0.005665169097483158
298.0,655.0,-3.3302,-1.0845,9.2297,-0.0396,0.0278,-0.1197,-2.230401178399557,0.0,4.490829944610596,-1.4413211345672607,-0.0,1.8479387760162354,5.498654234200277,-0.0,0.20423072576522827,-1.6382439772235315,-0.0,-0.004627889953553677,0.007251482456922531,0.0,0.004227034747600555,1.2100510597229004,0.0,-0.03426020219922066
298.0,655.0,-3.3302,-1.0845,9.2297,-0.0396,0.0278,-0.1197,-2.2303739986815394,0.0,4.488647937774658,-1.4412850141525269,-0.0,1.8661870956420898,5.498746144562521,-0.0,0.21661946177482605,-1.638176743184225,-0.0,0.009045307524502277,0.0072800638154149055,0.0,0.00983178149908781,1.2100510597229004,0.0,-0.008453479036688805
298.0,655.0,-3.3302,-1.0845,9.2297,-0.0396,0.0278,-0.1197,-2.230377336541647,0.0,4.510583877563477,-1.4413096904754639,-0.0,1.8502318859100342,5.498742151051321,-0.0,0.2177741527557373,-1.6382363478290003,-0.0,-0.0034580817446112633,0.007348460145294666,0.0,0.0006804573349654675,1.2100672721862793,0.0,0.040113817900419235
298.0,655.0,-3.3302,-1.0845,9.2297,-0.0396,0.0278,-0.1197,-2.230401655236715,0.0,4.51505184173584,-1.441281795501709,-0.0,1.8466825485229492,5.498734223633566,-0.0,0.21935945749282837,-1.6382244269000452,-0.0,0.009540332481265068,0.0072759948670864105,0.0,-0.009278149344027042,1.210071325302124,0.0,0.025386914610862732
298.0,655.0,-3.3302,-1.0845,9.2297,-0.0396,0.0278,-0.1197,-2.2303859196104945,0.0,4.499590873718262,-1.4413251876831055,-0.0,1.8615281581878662,5.498750138073721,-0.0,0.20799201726913452,-1.6382125059710901,-0.0,-0.0015348916640505195,0.007323964033275843,0.0,0.009688963182270527,1.2100672721862793,0.0,0.01953228935599327
309.0,609.0,-3.186,-1.0343,9.0963,-0.0391,0.0252,-0.1155,-2.2303573093810023,0.0,4.472008228302002,-1.4413496255874634,-0.0,1.8757548332214355,5.498730230122366,-0.0,0.20850932598114014,-1.6382125059710901,-0.0,-0.006067254114896059,0.007291984744369984,0.0,-0.0005903317360207438,1.210034966468811,0.0,0.04646822065114975
309.0,609.0,-3.186,-1.0343,9.0963,-0.0391,0.0252,-0.1155,-2.2303816280760707,0.0,4.522963523864746,-1.4412693977355957,-0.0,1.8835468292236328,5.4987021563346765,-0.0,0.2031368762254715,-1.6382320562945765,-0.0,-0.00660359114408493,0.007323931436985731,0.0,-0.0012596234446391463,1.210071325302124,0.0,0.008493579924106598
309.0,609.0,-3.186,-1.0343,9.0963,-0.0391,0.0252,-0.1155,-2.2303859196104945,0.0,4.466997146606445,-1.4412777423858643,-0.0,1.822216272354126,5.4987061498458765,-0.0,0.19994470477104187,-1.6381924788104456,-0.0,0.0004839319735765457,0.0073202624917030334,0.0,-0.0032329384703189135,1.2100632190704346,0.0,0.017930615693330765
309.0,609.0,-3.186,-1.0343,9.0963,-0.0391,0.0252,-0.1155,-2.230361600915426,0.0,4.522550582885742,-1.4412695169448853,-0.0,1.881143569946289,5.498734223633566,-0.0,0.21141529083251953,-1.638200585042135,-0.0,-0.002036324003711343,0.007296061608940363,0.0,0.0010667074238881469,1.2100353240966797,0.0,-0.013513678684830666
309.0,609.0,-3.186,-1.0343,9.0963,-0.0391,0.0252,-0.1155,-2.23038973430776,0.0,4.49312162399292,-1.4413014650344849,-0.0,1.8515419960021973,5.498734223633566,-0.0,0.19663265347480774,-1.6382082144366663,-0.0,-0.0025334192905575037,0.00731205940246582,0.0,0.001602554228156805,1.2100510597229004,0.0,-0.020278269425034523
309.0,609.0,-3.186,-1.0343,9.0963,-0.0391,0.0252,-0.1155,-2.2303415737547816,0.0,4.514245510101318,-1.441317081451416,-0.0,1.8562272787094116,5.498761999398031,-0.0,0.2112344205379486,-1.6382244269000452,-0.0,-0.005102806258946657,0.007360409013926983,0.0,0.009122123010456562,1.210015058517456,0.0,0.03846496343612671
309.0,609.0,-3.186,-1.0343,9.0963,-0.0391,0.0252,-0.1155,-2.2303534946837367,0.0,4.52474308013916,-1.4412891864776611,-0.0,1.907818078994751,5.498750078469076,-0.0,0.2079063057899475,-1.6382883230792444,-0.0,0.0032601668499410152,0.007324053905904293,0.0,0.0006224358221516013,1.2100191116333008,0.0,-0.04936278611421585
309.0,609.0,-3.186,-1.0343,9.0963,-0.0391,0.0252,-0.1155,-2.2303816280760707,0.0,4.527137756347656,-1.441237449645996,-0.0,1.8279144763946533,5.498718011170187,-0.0,0.1996239870786667,-1.638240162526266,-0.0,-0.0025091024581342936,0.007364058401435614,0.0,-0.0041207135654985905,1.210063099861145,0.0,0.02361765131354332
309.0,609.0,-3.186,-1.0343,9.0963,-0.0391,0.0252,-0.1155,-2.2303935490050257,0.0,4.524271011352539,-1.4412859678268433,-0.0,1.908520221710205,5.4987302897270105,-0.0,0.18839620053768158,-1.6381962935077112,-0.0,-0.0017413070891052485,0.007315720897167921,0.0,-0.0030783407855778933,1.2100592851638794,0.0,0.04906177893280983
309.0,609.0,-3.186,-1.0343,9.0963,-0.0391,0.0252,-0.1155,-2.2303534946837367,0.0,4.527535438537598,-1.4412777423858643,-0.0,1.8548009395599365,5.498710143357076,-0.0,0.21262818574905396,-1.6382163206683558,-0.0,0.007298037875443697,0.007284140679985285,0.0,0.011623120866715908,1.21004319190979,0.0,-0.020208604633808136
309.0,609.0,-3.186,-1.0343,9.0963,-0.0391,0.0252,-0.1155,-2.2303854427733363,0.0,4.505136013031006,-1.4412891864776611,-0.0,1.8574422597885132,5.4987302897270105,-0.0,0.20899280905723572,-1.6382682959186,-0.0,-0.0054765380918979645,0.007315720897167921,0.0,0.005343532655388117,1.2100872993469238,0.0,-0.00812779925763607
309.0,609.0,-3.186,-1.0343,9.0963,-0.0391,0.0252,-0.1155,-2.2303859196104945,0.0,4.545882225036621,-1.4412611722946167,-0.0,1.8095723390579224,5.498746144562521,-0.0,0.21459004282951355,-1.6381924788104456,-0.0,-0.003045947290956974,0.007291960529983044,0.0,-0.008602381683886051,1.210031270980835,0.0,0.007906036451458931
309.0,609.0,-3.186,-1.0343,9.0963,-0.0391,0.0252,-0.1155,-2.2303573093810023,0.0,4.4828877449035645,-1.441281795501709,-0.0,1.916836142539978,5.498686301499166,-0.0,0.2176920622587204,-1.638240162526266,-0.0,-0.00064312998438254,0.0072759343311190605,0.0,0.006097185891121626,1.2100472450256348,0.0,-0.029032105579972267
309.0,609.0,-3.186,-1.0343,9.0963,-0.0391,0.0252,-0.1155,-2.230345388452047,0.0,4.4954833984375,-1.4412851333618164,-0.0,1.858060598373413,5.498758125096121,-0.0,0.2123764306306839,-1.638240162526266,-0.0,-0.003096700180321932,0.007303816266357899,0.0,0.0014929885510355234,1.2100551128387451,0.0,-0.021929550915956497
309.0,609.0,-3.186,-1.0343,9.0963,-0.0391,0.0252,-0.1155,-2.23038973430776,0.0,4.487369537353516,-1.4412890672683716,-0.0,1.870082139968872,5.498706209450521,-0.0,0.21551764011383057,-1.6382043997394007,-0.0,0.004751775413751602,0.00731205940246582,0.0,0.008690182119607925,1.21004319190979,0.0,-0.013169579207897186
309.0,609.0,-3.186,-1.0343,9.0963,-0.0391,0.0252,-0.1155,-2.2303859196104945,0.0,4.474863052368164,-1.4413459300994873,-0.0,1.8172383308410645,5.498718011170187,-0.0,0.2106880247592926,-1.6382082144366663,-0.0,-0.003419045591726899,0.007316173054277897,0.0,-0.004938520956784487,1.210099220275879,0.0,0.0282796211540699
309.0,609.0,-3.186,-1.0343,9.0963,-0.0391,0.0252,-0.1155,-2.230373521844381,0.0,4.552106857299805,-1.4412851333618164,-0.0,1.9083099365234375,5.498722302704611,-0.0,0.21152961254119873,-1.6382082144366663,-0.0,-0.010388446971774101,0.007328069303184748,0.0,0.00982753187417984,1.2100350856781006,0.0,0.028571581467986107
309.0,609.0,-3.186,-1.0343,9.0963,-0.0391,0.0252,-0.1155,-2.2303978405394496,0.0,4.496679782867432,-1.4413056373596191,-0.0,1.8542132377624512,5.498746144562521,-0.0,0.20288527011871338,-1.6382125059710901,-0.0,-0.006795516703277826,0.007292017340660095,0.0,0.0022431155666708946,1.2100350856781006,0.0,0.005153508856892586
313.0,621.0,-3.2812,-1.0499,9.186,-0.0386,0.0208,-0.1142,-2.2303935490050257,0.0,4.513993740081787,-1.4412767887115479,-0.0,1.8555467128753662,5.498734223633566,-0.0,0.20296156406402588,-1.6382125059710901,-0.0,0.0013270266354084015,0.007296049501746893,0.0,-0.0015465517062693834,1.2100753784179688,0.0,0.03188043460249901
313.0,621.0,-3.2812,-1.0499,9.186,-0.0386,0.0208,-0.1142,-2.23038973430776,0.0,4.542020320892334,-1.4413416385650635,-0.0,1.8902451992034912,5.498746144562521,-0.0,0.19569586217403412,-1.6381962935077112,-0.0,-0.006755581591278315,0.007267751265317202,0.0,0.004306697752326727,1.2100952863693237,0.0,-0.02224448136985302
313.0,621.0,-3.2812,-1.0499,9.186,-0.0386,0.0208,-0.1142,-2.230401655236715,0.0,4.497715473175049,-1.4413096904754639,-0.0,1.8541887998580933,5.498782145767965,-0.0,0.1979614794254303,-1.6382244269000452,-0.0,0.0004369588568806648,0.007324029691517353,0.0,-0.0062143923714756966,1.2100231647491455,0.0,-0.009953629225492477
313.0,621.0,-3.2812,-1.0499,9.186,-0.0386,0.0208,-0.1142,-2.230373521844381,0.0,4.507934093475342,-1.4412777423858643,-0.0,1.8841402530670166,5.498758125096121,-0.0,0.2160453498363495,-1.6382201353656214,-0.0,-0.009868592023849487,0.007263706997036934,0.0,0.0044473921880126,1.2100913524627686,0.0,-0.0032991571351885796
313.0,621.0,-3.2812,-1.0499,9.186,-0.0386,0.0208,-0.1142,-2.2303415737547816,0.0,4.510952472686768,-1.4412974119186401,-0.0,1.8401122093200684,5.498750138073721,-0.0,0.19698700308799744,-1.6382606665240687,-0.0,-0.005504170898348093,0.007368526887148619,0.0,-0.0035083212424069643,1.210023283958435,0.0,0.006438674405217171
313.0,621.0,-3.2812,-1.0499,9.186,-0.0386,0.0208,-0.1142,-2.2303697071471156,0.0,4.484313011169434,-1.441265344619751,-0.0,1.886533260345459,5.498754131584921,-0.0,0.2158333957195282,-1.6382439772235315,-0.0,0.009195099584758282,0.007319830358028412,0.0,-0.006321190390735865,1.2100151777267456,0.0,0.026599310338497162
313.0,621.0,-3.2812,-1.0499,9.186,-0.0386,0.0208,-0.1142,-2.2303816280760707,0.0,4.467648029327393,-1.4412851333618164,-0.0,1.8398900032043457,5.498714077263632,-0.0,0.20615869760513306,-1.6382439772235315,-0.0,-0.009626101702451706,0.007348460145294666,0.0,0.006965167820453644,1.2100753784179688,0.0,-0.0022938770707696676
313.0,621.0,-3.2812,-1.0499,9.186,-0.0386,0.0208,-0.1142,-2.2303859196104945,0.0,4.498009204864502,-1.4413251876831055,-0.0,1.8638123273849487,5.498742210655966,-0.0,0.21075379848480225,-1.6382606665240687,-0.0,0.005299789365381002,0.007360699120908976,0.0,0.014052345417439938,1.2100073099136353,0.0,0.04056195914745331
313.0,621.0,-3.2812,-1.0499,9.186,-0.0386,0.0208,-0.1142,-2.2303739986815394,0.0,4.5106520652771,-1.44127357006073,-0.0,1.8511977195739746,5.498710143357076,-0.0,0.21475256979465485,-1.6382043997394007,-0.0,-0.007190242409706116,0.0072878506034612656,0.0,-0.0049108886159956455,1.2100472450256348,0.0,-0.014360371045768261
313.0,621.0,-3.2812,-1.0499,9.186,-0.0386,0.0208,-0.1142,-2.2303739986815394,0.0,4.4994306564331055,-1.4412891864776611,-0.0,1.846076250076294,5.498690175801077,-0.0,0.20568659901618958,-1.6382363478290003,-0.0,-0.0027537490241229534,0.007384524680674076,0.0,0.0030086091719567776,1.2100350856781006,0.0,-0.022906078025698662
313.0,621.0,-3.2812,-1.0499,9.186,-0.0386,0.0208,-0.1142,-2.23038973430776,0.0,4.547587871551514,-1.4412932395935059,-0.0,1.8937171697616577,5.49877821186141,-0.0,0.20980839431285858,-1.6382320562945765,-0.0,-0.006374307908117771,0.007296049501746893,0.0,0.0025663813576102257,1.2100272178649902,0.0,0.017026621848344803
313.0,621.0,-3.2812,-1.0499,9.186,-0.0386,0.0208,-0.1142,-2.230349679986471,0.0,4.495108604431152,-1.4413293600082397,-0.0,1.8832364082336426,5.498750138073721,-0.0,0.21011020243167877,-1.6382563749896448,-0.0,-0.007125049829483032,0.007315744645893574,0.0,-0.005467262584716082,1.2100350856781006,0.0,0.020422736182808876
313.0,621.0,-3.2812,-1.0499,9.186,-0.0386,0.0208,-0.1142,-2.2303296528258265,0.0,4.540383338928223,-1.4413293600082397,-0.0,1.9068808555603027,5.4987302897270105,-0.0,0.2089775800704956,-1.638200585042135,-0.0,0.0021496103145182133,0.0073644500225782394,0.0,0.008052118122577667,1.2100510597229004,0.0,-0.0071610016748309135
313.0,621.0,-3.2812,-1.0499,9.186,-0.0386,0.0208,-0.1142,-2.2303859196104945,0.0,4.509305000305176,-1.441325306892395,-0.0,1.8607271909713745,5.498722243099966,-0.0,0.20642957091331482,-1.6382163206683558,-0.0,0.0005781668005511165,0.007271780166774988,0.0,0.020572934299707413,1.2100672721862793,0.0,-0.009348230436444283
313.0,621.0,-3.2812,-1.0499,9.186,-0.0386,0.0208,-0.1142,-2.230389257470602,0.0,4.50239896774292,-1.441281795501709,-0.0,1.8932431936264038,5.498746144562521,-0.0,0.21161708235740662,-1.6382363478290003,-0.0,-0.007701310329139233,0.007340298034250736,0.0,-0.004401057958602905,1.2100350856781006,0.0,-0.02849041484296322
313.0,621.0,-3.2812,-1.0499,9.186,-0.0386,0.0208,-0.1142,-2.230361600915426,0.0,4.4972381591796875,-1.4412695169448853,-0.0,1.869314193725586,5.498765992909231,-0.0,0.21152883768081665,-1.63818866411318,-0.0,-0.005598651245236397,0.0073362113907933235,0.0,0.004203864373266697,1.2100913524627686,0.0,0.022341221570968628
313.0,621.0,-3.2812,-1.0499,9.186,-0.0386,0.0208,-0.1142,-2.230349679986471,0.0,4.540384292602539,-1.441325306892395,-0.0,1.8845762014389038,5.498714077263632,-0.0,0.20441679656505585,-1.6382606665240687,-0.0,-0.0083488579839468,0.007303815800696611,0.0,0.006903054192662239,1.2100551128387451,0.0,-0.026406200602650642
313.0,621.0,-3.2812,-1.0499,9.186,-0.0386,0.0208,-0.1142,-2.230405946771139,0.0,4.486639499664307,-1.4413096904754639,-0.0,1.8963193893432617,5.498706090241232,-0.0,0.20370331406593323,-1.6382163206683558,-0.0,-0.01015564613044262,0.007267798762768507,0.0,0.01016461942344904,1.2100350856781006,0.0,-0.03209098428487778
327.0,671.0,-3.2207,-1.0403,9.1023,-0.0417,0.0249,-0.1135,-2.2303816280760707,0.0,4.506213188171387,-1.4413251876831055,-0.0,1.8485708236694336,5.4987302897270105,-0.0,0.2055349051952362,-1.6381967703448694,-0.0,0.001433857949450612,0.007332158274948597,0.0,0.0033561864402145147,1.21001136302948,0.0,0.06141580641269684
327.0,671.0,-3.2207,-1.0403,9.1023,-0.0417,0.0249,-0.1135,-2.230373521844381,0.0,4.542724609375,-1.4413138628005981,-0.0,1.84832763671875,5.498761999398031,-0.0,0.22034478187561035,-1.6382244269000452,-0.0,-0.003112340811640024,0.007291984744369984,0.0,0.006031404249370098,1.2100551128387451,0.0,-0.02420135959982872
327.0,671.0,-3.2207,-1.0403,9.1023,-0.0417,0.0249,-0.1135,-2.230438371697897,0.0,4.515979766845703,-1.4412809610366821,-0.0,1.8701692819595337,5.498734223633566,-0.0,0.20092207193374634,-1.6382043997394007,-0.0,-0.009324781596660614,0.007291984744369984,0.0,-0.006013389676809311,1.2100151777267456,0.0,-0.003662566654384136
327.0,671.0,-3.2207,-1.0403,9.1023,-0.0417,0.0249,-0.1135,-2.2303654156126917,0.0,4.482462406158447,-1.4412932395935059,-0.0,1.8555876016616821,5.498718011170187,-0.0,0.2030056118965149,-1.638252083455221,-0.0,-0.00041794939897954464,0.007328057195991278,0.0,-7.142237154766917e-05,1.2100672721862793,0.0,-0.019525518640875816
327.0,671.0,-3.2207,-1.0403,9.1023,-0.0417,0.0249,-0.1135,-2.230377336541647,0.0,4.504812240600586,-1.441317081451416,-0.0,1.8944053649902344,5.4987462041671655,-0.0,0.2137444019317627,-1.6382244269000452,-0.0,0.0003362833522260189,0.007332134060561657,0.0,-0.007138141430914402,1.2100632190704346,0.0,-0.020317349582910538
327.0,671.0,-3.2207,-1.0403,9.1023,-0.0417,0.0249,-0.1135,-2.230349679986471,0.0,4.523576736450195,-1.4412972927093506,-0.0,1.855677604675293,5.498682307987966,-0.0,0.21930038928985596,-1.638252083455221,-0.0,-0.004577253945171833,0.007328045554459095,0.0,0.01140932459384203,1.2100073099136353,0.0,-0.010570503771305084
327.0,671.0,-3.2207,-1.0403,9.1023,-0.0417,0.0249,-0.1135,-2.2303654156126917,0.0,4.489778518676758,-1.441325306892395,-0.0,1.8811291456222534,5.4987302897270105,-0.0,0.2052219659090042,-1.6381967703448694,-0.0,-0.006181047763675451,0.00731205940246582,0.0,0.0018289008876308799,1.2100350856781006,0.0,-0.0005374830216169357
327.0,671.0,-3.2207,-1.0403,9.1023,-0.0417,0.0249,-0.1135,-2.230345388452047,0.0,4.509596347808838,-1.4413211345672607,-0.0,1.9182217121124268,5.4987302897270105,-0.0,0.21230921149253845,-1.6382201353656214,-0.0,0.0033319853246212006,0.0073156957514584064,0.0,0.005278469063341618,1.2100231647491455,0.0,-0.004007674753665924
327.0,671.0,-3.2207,-1.0403,9.1023,-0.0417,0.0249,-0.1135,-2.2303935490050257,0.0,4.515638828277588,-1.4412891864776611,-0.0,1.8255376815795898,5.498746144562521,-0.0,0.20823901891708374,-1.6381843725787562,-0.0,0.0019232204649597406,0.00732798594981432,0.0,-0.009883773513138294,1.210063099861145,0.0,-0.0028108637779951096
327.0,671.0,-3.2207,-1.0403,9.1023,-0.0417,0.0249,-0.1135,-2.2303978405394496,0.0,4.524715900421143,-1.4412850141525269,-0.0,1.8597016334533691,5.498734223633566,-0.0,0.20175224542617798,-1.6382201353656214,-0.0,-0.0006116641452535987,0.007296085823327303,0.0,0.004807824734598398,1.2100472450256348,0.0,-0.02455277182161808
327.0,671.0,-3.2207,-1.0403,9.1023,-0.0417,0.0249,-0.1135,-2.2303816280760707,0.0,4.525667190551758,-1.4412777423858643,-0.0,1.8601044416427612,5.4987302897270105,-0.0,0.20038627088069916,-1.638240162526266,-0.0,-0.007469795644283295,0.007296085823327303,0.0,-0.004464557394385338,1.210071325302124,0.0,-0.04857984930276871
327.0,671.0,-3.2207,-1.0403,9.1023,-0.0417,0.0249,-0.1135,-2.230373521844381,0.0,4.523828506469727,-1.4413014650344849,-0.0,1.8799365758895874,5.4987061498458765,-0.0,0.20928966999053955,-1.6382163206683558,-0.0,0.001044425182044506,0.0072800638154149055,0.0,-0.002032059710472822,1.2100350856781006,0.0,0.028403589501976967
327.0,671.0,-3.2207,-1.0403,9.1023,-0.0417,0.0249,-0.1135,-2.2303654156126917,0.0,4.510953903198242,-1.4413096904754639,-0.0,1.8719537258148193,5.498750078469076,-0.0,0.20479387044906616,-1.6382764021502894,-0.0,0.0003409676137380302,0.007284148596227169,0.0,-0.006534816697239876,1.2100191116333008,0.0,-0.026429038494825363
327.0,671.0,-3.2207,-1.0403,9.1023,-0.0417,0.0249,-0.1135,-2.2303372822203578,0.0,4.489200115203857,-1.4413294792175293,-0.0,1.8401548862457275,5.4987302897270105,-0.0,0.2097979187965393,-1.6381962935077112,-0.0,0.009038744494318962,0.007291984744369984,0.0,0.0036420891992747784,1.2100872993469238,0.0,0.011997465044260025
327.0,671.0,-3.2207,-1.0403,9.1023,-0.0417,0.0249,-0.1135,-2.230401655236715,0.0,4.52376127243042,-1.441248893737793,-0.0,1.9025827646255493,5.498722302704611,-0.0,0.21483764052391052,-1.638240162526266,-0.0,-0.005989081226289272,0.007340298034250736,0.0,0.002157461829483509,1.2100794315338135,0.0,0.022641006857156754
327.0,671.0,-3.2207,-1.0403,9.1023,-0.0417,0.0249,-0.1135,-2.2303620777525843,0.0,4.508281707763672,-1.4412974119186401,-0.0,1.8812189102172852,5.498770046025076,-0.0,0.20307892560958862,-1.638200585042135,-0.0,-0.014979979023337364,0.0073239803314208984,0.0,0.008018300868570805,1.2100591659545898,0.0,-0.006931278854608536
327.0,671.0,-3.2207,-1.0403,9.1023,-0.0417,0.0249,-0.1135,-2.2303372822203578,0.0,4.493556976318359,-1.4413015842437744,-0.0,1.8372966051101685,5.498750078469076,-0.0,0.2111479640007019,-1.638240162526266,-0.0,-0.013727535493671894,0.007296053227037191,0.0,0.002583662047982216,1.2100191116333008,0.0,-0.00943789817392826
327.0,671.0,-3.2207,-1.0403,9.1023,-0.0417,0.0249,-0.1135,-2.2303739986815394,0.0,4.4667582511901855,-1.4412736892700195,-0.0,1.8411736488342285,5.49879406669692,-0.0,0.2150423228740692,-1.6382163206683558,-0.0,0.009222849272191525,0.00731205940246582,0.0,0.0073634046129882336,1.2100551128387451,0.0,-0.01350405253469944
303.0,669.0,-3.3188,-1.0732,9.1292,-0.0417,0.017,-0.1109,-2.230349679986471,0.0,4.5068440437316895,-1.4413293600082397,-0.0,1.8325977325439453,5.498746144562521,-0.0,0.20569589734077454,-1.6382282415973108,-0.0,-0.00017403927631676197,0.0073320381343364716,0.0,-0.0029361892957240343,1.2100391387939453,0.0,-0.027679460123181343
303.0,669.0,-3.3188,-1.0732,9.1292,-0.0417,0.017,-0.1109,-2.2303654156126917,0.0,4.4695000648498535,-1.4412736892700195,-0.0,1.853753685951233,5.498734223633566,-0.0,0.22547586262226105,-1.638240162526266,-0.0,0.011048894375562668,0.00732798594981432,0.0,-0.001030805753543973,1.2100872993469238,0.0,0.014645598828792572
303.0,669.0,-3.3188,-1.0732,9.1292,-0.0417,0.017,-0.1109,-2.230349679986471,0.0,4.497415542602539,-1.4413056373596191,-0.0,1.8690519332885742,5.498765992909231,-0.0,0.20693963766098022,-1.638252083455221,-0.0,-0.016011351719498634,0.007300138473510742,0.0,-0.0071129221469163895,1.210083246231079,0.0,-0.00099259614944458
303.0,669.0,-3.3188,-1.0732,9.1292,-0.0417,0.017,-0.1109,-2.2303978405394496,0.0,4.534419059753418,-1.441236972808838,-0.0,1.8779118061065674,5.498761999398031,-0.0,0.21003729104995728,-1.6382201353656214,-0.0,0.0025789826177060604,0.007255510427057743,0.0,-0.0029590269550681114,1.2100353240966797,0.0,-0.007082654163241386
303.0,669.0,-3.3188,-1.0732,9.1292,-0.0417,0.017,-0.1109,-2.230373521844381,0.0,4.534541130065918,-1.4412932395935059,-0.0,1.813965082168579,5.498734223633566,-0.0,0.19815461337566376,-1.6382725874530237,-0.0,-0.012167984619736671,0.007303823716938496,0.0,0.01639152690768242,1.2100073099136353,0.0,-0.0769704058766365
303.0,669.0,-3.3188,-1.0732,9.1292,-0.0417,0.017,-0.1109,-2.2304259739317835,0.0,4.518836975097656,-1.4413251876831055,-0.0,1.8201295137405396,5.498742210655966,-0.0,0.2073856145143509,-1.6381967703448694,-0.0,0.007245517335832119,0.007291960529983044,0.0,0.002984634367749095,1.2100551128387451,0.0,-0.006333907600492239
303.0,669.0,-3.3188,-1.0732,9.1292,-0.0417,0.017,-0.1109,-2.2303816280760707,0.0,4.506251811981201,-1.441317081451416,-0.0,1.8896112442016602,5.498761999398031,-0.0,0.21437200903892517,-1.6382201353656214,-0.0,-0.010927659459412098,0.0073042153380811214,0.0,0.008711694739758968,1.2100391387939453,0.0,0.011465362273156643
303.0,669.0,-3.3188,-1.0732,9.1292,-0.0417,0.017,-0.1109,-2.2304097614684046,0.0,4.500168800354004,-1.4412851333618164,-0.0,1.8677332401275635,5.498710083752432,-0.0,0.2165851891040802,-1.6382606665240687,-0.0,0.007114939391613007,0.007303856313228607,0.0,-0.006178613752126694,1.21005117893219,0.0,-0.03562939539551735
303.0,669.0,-3.3188,-1.0732,9.1292,-0.0417,0.017,-0.1109,-2.230401655236715,0.0,4.516787528991699,-1.4412736892700195,-0.0,1.8970386981964111,5.49873827674941,-0.0,0.21259529888629913,-1.638240162526266,-0.0,-0.010961477644741535,0.0072637456469237804,0.0,0.003957756329327822,1.2100551128387451,0.0,0.0050041815266013145
303.0,669.0,-3.3188,-1.0732,9.1292,-0.0417,0.017,-0.1109,-2.230434080163473,0.0,4.55372428894043,-1.4413096904754639,-0.0,1.8285713195800781,5.498761999398031,-0.0,0.2258981466293335,-1.6382363478290003,-0.0,-0.0032880150247365236,0.007303799968212843,0.0,0.012216934934258461,1.210031270980835,0.0,-0.0003881007432937622
303.0,669.0,-3.3188,-1.0732,9.1292,-0.0417,0.017,-0.1109,-2.2303534946837367,0.0,4.505200386047363,-1.4413375854492188,-0.0,1.8880794048309326,5.498765992909231,-0.0,0.20684143900871277,-1.6382644812213343,-0.0,0.0011235885322093964,0.007388767320662737,0.0,-0.002690155990421772,1.21004319190979,0.0,-0.00479914341121912
303.0,669.0,-3.3188,-1.0732,9.1292,-0.0417,0.017,-0.1109,-2.230405946771139,0.0,4.524292945861816,-1.4413129091262817,-0.0,1.8521913290023804,5.49873827674941,-0.0,0.21501865983009338,-1.6382482687579554,-0.0,0.004911145661026239,0.007332050707191229,0.0,-0.012852691113948822,1.2100391387939453,0.0,0.016685601323843002
303.0,669.0,-3.3188,-1.0732,9.1292,-0.0417,0.017,-0.1109,-2.230417867700094,0.0,4.556955337524414,-1.4412972927093506,-0.0,1.8831586837768555,5.498742210655966,-0.0,0.21429163217544556,-1.6382201353656214,-0.0,-0.007714130915701389,0.007380447816103697,0.0,0.016586555168032646,1.209986925125122,0.0,0.006318836938589811
303.0,669.0,-3.3188,-1.0732,9.1292,-0.0417,0.017,-0.1109,-2.2303697071471156,0.0,4.526705741882324,-1.4413251876831055,-0.0,1.8559311628341675,5.498777913838186,-0.0,0.21121808886528015,-1.6382439772235315,-0.0,0.0026634701061993837,0.007336263544857502,0.0,0.009173117578029633,1.2100073099136353,0.0,-0.019164085388183594
303.0,669.0,-3.3188,-1.0732,9.1292,-0.0417,0.017,-0.1109,-2.230361600915426,0.0,4.558043003082275,-1.4412693977355957,-0.0,1.9028832912445068,5.498761999398031,-0.0,0.20244836807250977,-1.6382644812213343,-0.0,0.001717270235531032,0.0073727574199438095,0.0,0.001405581715516746,1.2100672721862793,0.0,-0.00025796517729759216
303.0,669.0,-3.3188,-1.0732,9.1292,-0.0417,0.017,-0.1109,-2.2304259739317835,0.0,4.502490043640137,-1.4412932395935059,-0.0,1.8920726776123047,5.498746144562521,-0.0,0.21352200210094452,-1.6381962935077112,-0.0,-0.0001290904765482992,0.007280056364834309,0.0,0.006387786939740181,1.2100591659545898,0.0,0.028377743437886238
303.0,669.0,-3.3188,-1.0732,9.1292,-0.0417,0.017,-0.1109,-2.2303739986815394,0.0,4.502900123596191,-1.4413179159164429,-0.0,1.8511903285980225,5.498710083752432,-0.0,0.2142585813999176,-1.6382682959186,-0.0,0.00296323886141181,0.007307982537895441,0.0,0.008690539747476578,1.210063099861145,0.0,0.005067668855190277
303.0,669.0,-3.3188,-1.0732,9.1292,-0.0417,0.017,-0.1109,-2.230349679986471,0.0,4.510892868041992,-1.4412777423858643,-0.0,1.885692834854126,5.498742210655966,-0.0,0.19810877740383148,-1.6382525602923792,-0.0,-0.0053446246311068535,0.007332117762416601,0.0,-0.0030756215564906597,1.21004319190979,0.0,-0.03334351256489754
328.0,632.0,-3.2895,-1.0558,9.122,-0.0392,0.0176,-0.1093,-2.2303534946837367,0.0,4.536501407623291,-1.441281795501709,-0.0,1.8484059572219849,5.498710083752432,-0.0,0.20177845656871796,-1.6382563749896448,-0.0,-0.006571013014763594,0.007320228964090347,0.0,0.0134937334805727,1.2100472450256348,0.0,-0.0037029003724455833
328.0,632.0,-3.2895,-1.0558,9.122,-0.0392,0.0176,-0.1093,-2.2304135761656703,0.0,4.538020133972168,-1.4413418769836426,-0.0,1.8876073360443115,5.498750078469076,-0.0,0.2099204957485199,-1.638252083455221,-0.0,-0.00945880077779293,0.007296061608940363,0.0,0.00048301718197762966,1.2100191116333008,0.0,-0.018395215272903442
328.0,632.0,-3.2895,-1.0558,9.122,-0.0392,0.0176,-0.1093,-2.2304097614684046,0.0,4.487847805023193,-1.4413014650344849,-0.0,1.8715710639953613,5.498761999398031,-0.0,0.22666314244270325,-1.6382201353656214,-0.0,-0.009728781878948212,0.007316139992326498,0.0,0.012127256020903587,1.2100272178649902,0.0,0.004328858107328415
328.0,632.0,-3.2895,-1.0558,9.122,-0.0392,0.0176,-0.1093,-2.230373521844381,0.0,4.511781692504883,-1.4412859678268433,-0.0,1.8683216571807861,5.49878220537261,-0.0,0.21776634454727173,-1.6382558981524866,-0.0,-0.0047455476596951485,0.007300187833607197,0.0,-0.000657322583720088,1.2100151777267456,0.0,-0.01096812728792429
328.0,632.0,-3.2895,-1.0558,9.122,-0.0392,0.0176,-0.1093,-2.2304097614684046,0.0,4.544182777404785,-1.4412569999694824,-0.0,1.8844047784805298,5.49873827674941,-0.0,0.2123115360736847,-1.6382482687579554,-0.0,-0.006296485662460327,0.007336147595196962,0.0,-0.0008474588394165039,1.21001136302948,0.0,-0.023216120898723602
328.0,632.0,-3.2895,-1.0558,9.122,-0.0392,0.0176,-0.1093,-2.2303816280760707,0.0,4.504260063171387,-1.441333532333374,-0.0,1.8771114349365234,5.49873827674941,-0.0,0.21631230413913727,-1.638176743184225,-0.0,-0.012018020264804363,0.007332134060561657,0.0,0.0015736771747469902,1.2100191116333008,0.0,-0.05864633247256279
328.0,632.0,-3.2895,-1.0558,9.122,-0.0392,0.0176,-0.1093,-2.2303534946837367,0.0,4.501919269561768,-1.44127357006073,-0.0,1.8756678104400635,5.49877821186141,-0.0,0.21256162226200104,-1.6382320562945765,-0.0,-0.005254701245576143,0.007340240757912397,0.0,-0.000931283226236701,1.21004319190979,0.0,-0.04078454524278641
328.0,632.0,-3.2895,-1.0558,9.122,-0.0392,0.0176,-0.1093,-2.230349679986471,0.0,4.508661270141602,-1.4413014650344849,-0.0,1.8762797117233276,5.498769986420431,-0.0,0.2173507809638977,-1.638256851826803,-0.0,-0.004452934022992849,0.0073239970952272415,0.0,-0.012319663539528847,1.2100952863693237,0.0,0.0008497489616274834
328.0,632.0,-3.2895,-1.0558,9.122,-0.0392,0.0176,-0.1093,-2.2303177318968714,0.0,4.5426225662231445,-1.4412850141525269,-0.0,1.902430534362793,5.498706209450521,-0.0,0.2110026478767395,-1.6382282415973108,-0.0,0.007006932981312275,0.007300138473510742,0.0,0.013293432071805,1.2100350856781006,0.0,-0.03191497176885605
328.0,632.0,-3.2895,-1.0558,9.122,-0.0392,0.0176,-0.1093,-2.2303816280760707,0.0,4.504186630249023,-1.4412972927093506,-0.0,1.8559389114379883,5.49873827674941,-0.0,0.208884596824646,-1.6382444540606897,-0.0,0.014143111184239388,0.007303799968212843,0.0,-0.004137286450713873,1.2100191116333008,0.0,0.0024930222425609827
328.0,632.0,-3.2895,-1.0558,9.122,-0.0392,0.0176,-0.1093,-2.230361600915426,0.0,4.5426530838012695,-1.4412933588027954,-0.0,1.9166430234909058,5.498714077263632,-0.0,0.21771803498268127,-1.6382525602923792,-0.0,-0.005178122781217098,0.007364083081483841,0.0,0.0010849753161892295,1.2100191116333008,0.0,-0.03245834633708
328.0,632.0,-3.2895,-1.0558,9.122,-0.0392,0.0176,-0.1093,-2.2303978405394496,0.0,4.504796981811523,-1.4412652254104614,-0.0,1.8710787296295166,5.49877022483901,-0.0,0.21233174204826355,-1.6382444540606897,-0.0,-0.0030270135030150414,0.00726782251149416,0.0,-0.006642451044172049,1.2100391387939453,0.0,-0.03772904351353645
328.0,632.0,-3.2895,-1.0558,9.122,-0.0392,0.0176,-0.1093,-2.2303978405394496,0.0,4.511518478393555,-1.4413375854492188,-0.0,1.8626643419265747,5.498714077263632,-0.0,0.21746373176574707,-1.6382606665240687,-0.0,0.0012388029135763645,0.007271828129887581,0.0,0.007566394284367561,1.2100632190704346,0.0,0.025206930935382843
328.0,632.0,-3.2895,-1.0558,9.122,-0.0392,0.0176,-0.1093,-2.2303978405394496,0.0,4.509101390838623,-1.4412890672683716,-0.0,1.8533618450164795,5.4987302897270105,-0.0,0.22851291298866272,-1.6381843725787562,-0.0,-0.009014591574668884,0.007380447816103697,0.0,-0.004556464962661266,1.2100632190704346,0.0,0.028962429612874985
328.0,632.0,-3.2895,-1.0558,9.122,-0.0392,0.0176,-0.1093,-2.2303534946837367,0.0,4.526113986968994,-1.4413377046585083,-0.0,1.9092814922332764,5.498734223633566,-0.0,0.20706233382225037,-1.6382282415973108,-0.0,0.008527989499270916,0.007288250606507063,0.0,-0.0009666432160884142,1.2100872993469238,0.0,-0.0038989270105957985
328.0,632.0,-3.2895,-1.0558,9.122,-0.0392,0.0176,-0.1093,-2.2303978405394496,0.0,4.5387468338012695,-1.441281795501709,-0.0,1.8222246170043945,5.498770046025076,-0.0,0.20346644520759583,-1.6382082144366663,-0.0,-0.004169287160038948,0.0073239803314208984,0.0,0.00492966640740633,1.2100073099136353,0.0,0.028613073751330376
328.0,632.0,-3.2895,-1.0558,9.122,-0.0392,0.0176,-0.1093,-2.230401655236715,0.0,4.5304646492004395,-1.4412932395935059,-0.0,1.901341438293457,5.4987462041671655,-0.0,0.2148800641298294,-1.6381962935077112,-0.0,-0.009135382249951363,0.007291968446224928,0.0,-0.005034570582211018,1.2100472450256348,0.0,-0.034587226808071136
328.0,632.0,-3.2895,-1.0558,9.122,-0.0392,0.0176,-0.1093,-2.2303978405394496,0.0,4.58167028427124,-1.44127357006073,-0.0,1.9076664447784424,5.498750078469076,-0.0,0.20717866718769073,-1.6382001082049769,-0.0,-0.0020581218414008617,0.007340310141444206,0.0,-0.0020221886225044727,1.21004319190979,0.0,0.04785475134849548
307.0,643.0,-3.2399,-1.0726,9.143,-0.0286,0.0237,-0.1057,-2.2303573093810023,0.0,4.492711544036865,-1.4412932395935059,-0.0,1.8584370613098145,5.498734223633566,-0.0,0.20996643602848053,-1.638223950062887,-0.0,-0.007146029733121395,0.0073042153380811214,0.0,0.011156009510159492,1.2100551128387451,0.0,0.019872605800628662
307.0,643.0,-3.2399,-1.0726,9.143,-0.0286,0.0237,-0.1057,-2.230377336541647,0.0,4.5193376541137695,-1.4413138628005981,-0.0,1.8691648244857788,5.498762059002676,-0.0,0.2166699469089508,-1.6382282415973108,-0.0,0.0011946100275963545,0.0073443991132080555,0.0,0.011599808000028133,1.2100672721862793,0.0,0.0018139490857720375
307.0,643.0,-3.2399,-1.0726,9.143,-0.0286,0.0237,-0.1057,-2.230345388452047,0.0,4.453588485717773,-1.4412654638290405,-0.0,1.8650351762771606,5.498734223633566,-0.0,0.21567410230636597,-1.6382482687579554,-0.0,-0.009827752597630024,0.007307945750653744,0.0,0.00894628930836916,1.2100272178649902,0.0,0.006915483623743057
307.0,643.0,-3.2399,-1.0726,9.143,-0.0286,0.0237,-0.1057,-2.2303739986815394,0.0,4.514095783233643,-1.4413293600082397,-0.0,1.9457190036773682,5.498742210655966,-0.0,0.21800440549850464,-1.638223950062887,-0.0,-0.00984195340424776,0.007311631925404072,0.0,0.003327159211039543,1.2100191116333008,0.0,-0.0035438071936368942
307.0,643.0,-3.2399,-1.0726,9.143,-0.0286,0.0237,-0.1057,-2.2303816280760707,0.0,4.490914821624756,-1.4412972927093506,-0.0,1.8545889854431152,5.498718011170187,-0.0,0.21028301119804382,-1.6382125059710901,-0.0,-0.00935302209109068,0.007271844428032637,0.0,0.015691976994276047,1.2100672721862793,0.0,-0.0075713396072387695
307.0,643.0,-3.2399,-1.0726,9.143,-0.0286,0.0237,-0.1057,-2.2303697071471156,0.0,4.484963417053223,-1.4412932395935059,-0.0,1.8552162647247314,5.498742210655966,-0.0,0.20716699957847595,-1.638212029133932,-0.0,0.005820874124765396,0.007320261560380459,0.0,-0.0029613925144076347,1.2100551128387451,0.0,0.021819015964865685
307.0,643.0,-3.2399,-1.0726,9.143,-0.0286,0.0237,-0.1057,-2.230401655236715,0.0,4.523064613342285,-1.441325306892395,-0.0,1.850710153579712,5.498718011170187,-0.0,0.2143709361553192,-1.638273064290182,-0.0,-0.0058976756408810616,0.007271844428032637,0.0,0.005730905570089817,1.210063099861145,0.0,-0.01680339127779007
307.0,643.0,-3.2399,-1.0726,9.143,-0.0286,0.0237,-0.1057,-2.2303935490050257,0.0,4.488131046295166,-1.4412611722946167,-0.0,1.8434491157531738,5.498750078469076,-0.0,0.22779878973960876,-1.6382277647601526,-0.0,-0.005128573626279831,0.007263602688908577,0.0,0.010117227211594582,1.2100591659545898,0.0,-0.038245320320129395
307.0,643.0,-3.2399,-1.0726,9.143,-0.0286,0.0237,-0.1057,-2.23038973430776,0.0,4.47098445892334,-1.4412891864776611,-0.0,1.886844277381897,5.498761999398031,-0.0,0.20314306020736694,-1.638223950062887,-0.0,0.00925480667501688,0.007303799968212843,0.0,0.006439054850488901,1.2100752592086792,0.0,0.013546822592616081
307.0,643.0,-3.2399,-1.0726,9.143,-0.0286,0.0237,-0.1057,-2.2303978405394496,0.0,4.5077338218688965,-1.4412940740585327,-0.0,1.8294923305511475,5.4987262962158105,-0.0,0.20996084809303284,-1.6382482687579554,-0.0,0.006461028940975666,0.007307990454137325,0.0,0.008679043501615524,1.2100872993469238,0.0,0.0324283167719841
307.0,643.0,-3.2399,-1.0726,9.143,-0.0286,0.0237,-0.1057,-2.2303816280760707,0.0,4.539437294006348,-1.4413015842437744,-0.0,1.8724682331085205,5.498718309193411,-0.0,0.22137287259101868,-1.6382444540606897,-0.0,-0.006873532198369503,0.007239961065351963,0.0,0.00978642888367176,1.2100470066070557,0.0,0.01831800676882267
307.0,643.0,-3.2399,-1.0726,9.143,-0.0286,0.0237,-0.1057,-2.230377336541647,0.0,4.516678810119629,-1.4413220882415771,-0.0,1.815990924835205,5.49878619888381,-0.0,0.21085357666015625,-1.6382125059710901,-0.0,0.0007388154626823962,0.00736037315800786,0.0,0.009319063276052475,1.210023283958435,0.0,0.011850300244987011
307.0,643.0,-3.2399,-1.0726,9.143,-0.0286,0.0237,-0.1057,-2.230401655236715,0.0,4.535113334655762,-1.4413336515426636,-0.0,1.814866065979004,5.498750078469076,-0.0,0.21325595676898956,-1.638223950062887,-0.0,0.010816829279065132,0.007304223719984293,0.0,0.008934173732995987,1.2100831270217896,0.0,0.04545549303293228
307.0,643.0,-3.2399,-1.0726,9.143,-0.0286,0.0237,-0.1057,-2.230401655236715,0.0,4.5330681800842285,-1.441317081451416,-0.0,1.8788260221481323,5.4987302897270105,-0.0,0.20873983204364777,-1.6382201353656214,-0.0,-0.004517105873674154,0.00730421906337142,0.0,0.01507875882089138,1.2100671529769897,0.0,-0.047826796770095825
307.0,643.0,-3.2399,-1.0726,9.143,-0.0286,0.0237,-0.1057,-2.2303654156126917,0.0,4.519322395324707,-1.441325306892395,-0.0,1.8926002979278564,5.49877821186141,-0.0,0.21203622221946716,-1.6381920019732874,-0.0,-0.00893697515130043,0.007340289652347565,0.0,-0.0016816582065075636,1.210023283958435,0.0,0.002667689695954323
307.0,643.0,-3.2399,-1.0726,9.143,-0.0286,0.0237,-0.1057,-2.2303859196104945,0.0,4.509491920471191,-1.4412891864776611,-0.0,1.8616431951522827,5.498734223633566,-0.0,0.19775429368019104,-1.638223950062887,-0.0,-0.007862100377678871,0.007280007004737854,0.0,-0.008676070719957352,1.210063099861145,0.0,-0.060577504336833954
307.0,643.0,-3.2399,-1.0726,9.143,-0.0286,0.0237,-0.1057,-2.2303534946837367,0.0,4.545225143432617,-1.4413014650344849,-0.0,1.8705158233642578,5.498761999398031,-0.0,0.20332229137420654,-1.6382206122027796,-0.0,-0.0030605257488787174,0.0073443748988211155,0.0,-0.004622503183782101,1.2100753784179688,0.0,-0.02516728639602661
299.0,607.0,-3.2309,-1.0768,9.1149,-0.0385,0.025,-0.1126,-2.2303577862181605,0.0,4.541471481323242,-1.4412891864776611,-0.0,1.8929967880249023,5.498734223633566,-0.0,0.21329927444458008,-1.6382158438311976,-0.0,-0.006903321947902441,0.007300603669136763,0.0,0.006861272267997265,1.2100191116333008,0.0,-0.025402136147022247
299.0,607.0,-3.2309,-1.0768,9.1149,-0.0385,0.025,-0.1126,-2.230401655236715,0.0,4.516073226928711,-1.4413251876831055,-0.0,1.878678798675537,5.4987262962158105,-0.0,0.22459307312965393,-1.6382444540606897,-0.0,-0.0031620797235518694,0.007332134060561657,0.0,-0.003070452017709613,1.2100391387939453,0.0,-0.025968417525291443
299.0,607.0,-3.2309,-1.0768,9.1149,-0.0385,0.025,-0.1126,-2.2303620777525843,0.0,4.497615337371826,-1.4413375854492188,-0.0,1.839430332183838,5.498746144562521,-0.0,0.20578700304031372,-1.6381920019732874,-0.0,0.0021382481791079044,0.007328057195991278,0.0,0.0033424012362957,1.2100833654403687,0.0,-0.027779173105955124
299.0,607.0,-3.2309,-1.0768,9.1149,-0.0385,0.025,-0.1126,-2.2303654156126917,0.0,4.512598991394043,-1.4412932395935059,-0.0,1.9097397327423096,5.498761999398031,-0.0,0.2136337012052536,-1.6382444540606897,-0.0,0.00417670700699091,0.00731982197612524,0.0,-0.0018850087653845549,1.2100913524627686,0.0,-0.01630179025232792
299.0,607.0,-3.2309,-1.0768,9.1149,-0.0385,0.025,-0.1126,-2.230349679986471,0.0,4.533341884613037,-1.4413014650344849,-0.0,1.8516919612884521,5.49873827674941,-0.0,0.21589116752147675,-1.6382320562945765,-0.0,-0.010150562040507793,0.007303823716938496,0.0,-0.0030488246120512486,1.2100672721862793,0.0,-0.01671578176319599
299.0,607.0,-3.2309,-1.0768,9.1149,-0.0385,0.025,-0.1126,-2.2303654156126917,0.0,4.477166175842285,-1.4412574768066406,-0.0,1.8592002391815186,5.498734223633566,-0.0,0.21922123432159424,-1.6382482687579554,-0.0,0.00015854428056627512,0.0073083979077637196,0.0,0.010993966832756996,1.2100913524627686,0.0,-0.018740884959697723
299.0,607.0,-3.2309,-1.0768,9.1149,-0.0385,0.025,-0.1126,-2.2303859196104945,0.0,4.491694927215576,-1.4412972927093506,-0.0,1.85634446144104,5.498734223633566,-0.0,0.2124711275100708,-1.6382444540606897,-0.0,-0.017112264409661293,0.007295622024685144,0.0,0.0029639527201652527,1.2100350856781006,0.0,-0.07111508399248123
299.0,607.0,-3.2309,-1.0768,9.1149,-0.0385,0.025,-0.1126,-2.230394025842184,0.0,4.490133285522461,-1.4412652254104614,-0.0,1.8645660877227783,5.498714077263632,-0.0,0.22009745240211487,-1.6382039229022425,-0.0,-0.011018354445695877,0.007340298034250736,0.0,0.0053810360841453075,1.2100152969360352,0.0,-0.02497205138206482
299.0,607.0,-3.2309,-1.0768,9.1149,-0.0385,0.025,-0.1126,-2.230361600915426,0.0,4.487316131591797,-1.4413056373596191,-0.0,1.8862268924713135,5.498666214733877,-0.0,0.2027740478515625,-1.6382482687579554,-0.0,-0.005029406864196062,0.00730380741879344,0.0,0.00708644837141037,1.2100470066070557,0.0,0.03420611843466759
299.0,607.0,-3.2309,-1.0768,9.1149,-0.0385,0.025,-0.1126,-2.2304216823973597,0.0,4.506628036499023,-1.441257119178772,-0.0,1.8893029689788818,5.4987302897270105,-0.0,0.227504163980484,-1.6382363478290003,-0.0,0.0028417056892067194,0.007292008958756924,0.0,-0.0023453757166862488,1.2101032733917236,0.0,-0.013993140310049057
299.0,607.0,-3.2309,-1.0768,9.1149,-0.0385,0.025,-0.1126,-2.230349679986471,0.0,4.509273529052734,-1.4413096904754639,-0.0,1.8708983659744263,5.498806106835165,-0.0,0.20999330282211304,-1.6382158438311976,-0.0,-0.0053336406126618385,0.00731614837422967,0.0,0.009223977103829384,1.2100952863693237,0.0,-0.02181445062160492
299.0,607.0,-3.2309,-1.0768,9.1149,-0.0385,0.025,-0.1126,-2.2303978405394496,0.0,4.4775495529174805,-1.4413251876831055,-0.0,1.8389356136322021,5.498774277954855,-0.0,0.20339855551719666,-1.6382082144366663,-0.0,-0.010640605352818966,0.007336238864809275,0.0,0.020579751580953598,1.210031270980835,0.0,-0.039979636669158936
299.0,607.0,-3.2309,-1.0768,9.1149,-0.0385,0.025,-0.1126,-2.230345388452047,0.0,4.493837356567383,-1.4413014650344849,-0.0,1.8785921335220337,5.498758125096121,-0.0,0.21819695830345154,-1.6381881872760218,-0.0,0.008314624428749084,0.0072960578836500645,0.0,0.00402592308819294,1.2101032733917236,0.0,0.004029717296361923
299.0,607.0,-3.2309,-1.0768,9.1149,-0.0385,0.025,-0.1126,-2.23038973430776,0.0,4.522243976593018,-1.4413211345672607,-0.0,1.854123830795288,5.498674320965566,-0.0,0.21205970644950867,-1.6382444540606897,-0.0,-0.01711629331111908,0.007319797296077013,0.0,0.007906842976808548,1.2100551128387451,0.0,-0.016133993864059448
299.0,607.0,-3.2309,-1.0768,9.1149,-0.0385,0.025,-0.1126,-2.230401655236715,0.0,4.526105880737305,-1.4412972927093506,-0.0,1.848042368888855,5.498734223633566,-0.0,0.21641802787780762,-1.638240162526266,-0.0,-0.005582212470471859,0.007316156290471554,0.0,0.01927141286432743,1.2100672721862793,0.0,-0.04359030723571777
299.0,607.0,-3.2309,-1.0768,9.1149,-0.0385,0.025,-0.1126,-2.2303935490050257,0.0,4.505714416503906,-1.4412932395935059,-0.0,1.8948752880096436,5.4987220642860315,-0.0,0.21709156036376953,-1.6382444540606897,-0.0,-0.006920956075191498,0.0072920010425150394,0.0,0.01238776184618473,1.2100591659545898,0.0,-0.005255083553493023
299.0,607.0,-3.2309,-1.0768,9.1149,-0.0385,0.025,-0.1126,-2.2303697071471156,0.0,4.517260551452637,-1.4412851333618164,-0.0,1.8686323165893555,5.4987262962158105,-0.0,0.2132323682308197,-1.6381719748126429,-0.0,0.00461032148450613,0.0072800638154149055,0.0,0.010241774842143059,1.2100391387939453,0.0,-0.015500394627451897
299.0,607.0,-3.2309,-1.0768,9.1149,-0.0385,0.025,-0.1126,-2.2303978405394496,0.0,4.459249973297119,-1.4413015842437744,-0.0,1.8696520328521729,5.498765992909231,-0.0,0.2118247151374817,-1.6382444540606897,-0.0,-0.009419153444468975,0.007315720431506634,0.0,-0.00336579536087811,1.2100112438201904,0.0,0.02011032961308956
320.0,662.0,-3.2459,-1.066,9.1448,-0.0322,0.0283,-0.1216,-2.2303978405394496,0.0,4.503348350524902,-1.4413015842437744,-0.0,1.856429100036621,5.498738157540121,-0.0,0.22270025312900543,-1.6382039229022425,-0.0,-0.005521858111023903,0.0073645226657390594,0.0,-0.0022977194748818874,1.2100350856781006,0.0,0.0015548805240541697
320.0,662.0,-3.2459,-1.066,9.1448,-0.0322,0.0283,-0.1216,-2.23038973430776,0.0,4.486589431762695,-1.4412695169448853,-0.0,1.9095816612243652,5.498742210655966,-0.0,0.1886032521724701,-1.6382206122027796,-0.0,-0.00030441395938396454,0.0073239803314208984,0.0,0.009918062947690487,1.2100191116333008,0.0,-0.03454303368926048
320.0,662.0,-3.2459,-1.066,9.1448,-0.0322,0.0283,-0.1216,-2.2303296528258265,0.0,4.531783580780029,-1.441317081451416,-0.0,1.8693888187408447,5.498734223633566,-0.0,0.2178957462310791,-1.638284985219137,-0.0,-0.009226100519299507,0.007348452229052782,0.0,0.006770688109099865,1.2100591659545898,0.0,0.017191337421536446
320.0,662.0,-3.2459,-1.066,9.1448,-0.0322,0.0283,-0.1216,-2.2303816280760707,0.0,4.4953460693359375,-1.441257119178772,-0.0,1.8913307189941406,5.4987302897270105,-0.0,0.22542190551757812,-1.638223950062887,-0.0,-0.0020555469673126936,0.007340310141444206,0.0,0.018180683255195618,1.210031270980835,0.0,0.022254984825849533
320.0,662.0,-3.2459,-1.066,9.1448,-0.0322,0.0283,-0.1216,-2.230361600915426,0.0,4.526980400085449,-1.441290020942688,-0.0,1.91707444190979,5.498710083752432,-0.0,0.2111321985721588,-1.638223950062887,-0.0,-0.006427098996937275,0.007319813594222069,0.0,0.006356772035360336,1.2100510597229004,0.0,-0.0061363354325294495
320.0,662.0,-3.2459,-1.066,9.1448,-0.0322,0.0283,-0.1216,-2.230401655236715,0.0,4.502874374389648,-1.4413056373596191,-0.0,1.8487088680267334,5.49878220537261,-0.0,0.21149474382400513,-1.638223950062887,-0.0,-0.007097690366208553,0.00729602063074708,0.0,0.0015061174053698778,1.2100551128387451,0.0,-0.0015113577246665955
320.0,662.0,-3.2459,-1.066,9.1448,-0.0322,0.0283,-0.1216,-2.2303534946837367,0.0,4.448718070983887,-1.44127357006073,-0.0,1.896427869796753,5.498742210655966,-0.0,0.20624986290931702,-1.6382482687579554,-0.0,-0.0003776356461457908,0.007324429228901863,0.0,-0.00267527112737298,1.2100834846496582,0.0,0.010063826106488705
320.0,662.0,-3.2459,-1.066,9.1448,-0.0322,0.0283,-0.1216,-2.230401655236715,0.0,4.5114946365356445,-1.4413014650344849,-0.0,1.9047439098358154,5.4987902519996545,-0.0,0.2166108936071396,-1.6382001082049769,-0.0,0.00888992939144373,0.007320220582187176,0.0,-0.0005196603015065193,1.2100753784179688,0.0,-0.009163067676126957
320.0,662.0,-3.2459,-1.066,9.1448,-0.0322,0.0283,-0.1216,-2.230361600915426,0.0,4.5118842124938965,-1.4412777423858643,-0.0,1.8777718544006348,5.498746144562521,-0.0,0.2148708999156952,-1.6382320562945765,-0.0,-0.009069530293345451,0.007336139678955078,0.0,0.013136780820786953,1.2100913524627686,0.0,0.007704367861151695
320.0,662.0,-3.2459,-1.066,9.1448,-0.0322,0.0283,-0.1216,-2.230401655236715,0.0,4.50089168548584,-1.4413014650344849,-0.0,1.8929160833358765,5.498742210655966,-0.0,0.21964773535728455,-1.6382282415973108,-0.0,0.0016896935412660241,0.0073161362670362,0.0,0.001874683890491724,1.2100272178649902,0.0,0.02093641832470894
320.0,662.0,-3.2459,-1.066,9.1448,-0.0322,0.0283,-0.1216,-2.2303859196104945,0.0,4.521538734436035,-1.4413056373596191,-0.0,1.8537530899047852,5.49878607967452,-0.0,0.2193581759929657,-1.638240162526266,-0.0,0.0005692341946996748,0.007307982537895441,0.0,-0.003979946486651897,1.2100510597229004,0.0,-0.0033658896572887897
320.0,662.0,-3.2459,-1.066,9.1448,-0.0322,0.0283,-0.1216,-2.230389257470602,0.0,4.489898681640625,-1.4412734508514404,-0.0,1.8787317276000977,5.498762059002676,-0.0,0.20997193455696106,-1.6381719748126429,-0.0,-0.007067134138196707,0.007291984744369984,0.0,0.00043857516720891,1.2100310325622559,0.0,-0.0024832580238580704
320.0,662.0,-3.2459,-1.066,9.1448,-0.0322,0.0283,-0.1216,-2.2303697071471156,0.0,4.517698287963867,-1.441317081451416,-0.0,1.8046295642852783,5.498714017658987,-0.0,0.217972069978714,-1.6382649580584925,-0.0,-0.0066770934499800205,0.007328057195991278,0.0,0.012537416070699692,1.2100753784179688,0.0,-0.019396193325519562
320.0,662.0,-3.2459,-1.066,9.1448,-0.0322,0.0283,-0.1216,-2.2303978405394496,0.0,4.497194290161133,-1.4413015842437744,-0.0,1.8873863220214844,5.498690295010366,-0.0,0.2204589545726776,-1.6382282415973108,-0.0,0.006171099841594696,0.007287866901606321,0.0,0.002681367564946413,1.21004319190979,0.0,0.05209105834364891
320.0,662.0,-3.2459,-1.066,9.1448,-0.0322,0.0283,-0.1216,-2.2303854427733363,0.0,4.498816967010498,-1.441317081451416,-0.0,1.8392791748046875,5.498742210655966,-0.0,0.20629234611988068,-1.6382725874530237,-0.0,-0.003715683240443468,0.007308374159038067,0.0,0.007154489867389202,1.210023283958435,0.0,0.004722272045910358
320.0,662.0,-3.2459,-1.066,9.1448,-0.0322,0.0283,-0.1216,-2.2303973637022914,0.0,4.47754430770874,-1.4413056373596191,-0.0,1.8164572715759277,5.498710143357076,-0.0,0.20572832226753235,-1.6382482687579554,-0.0,-0.007267885375767946,0.007280007004737854,0.0,0.012883627787232399,1.2100753784179688,0.0,0.000917771365493536
320.0,662.0,-3.2459,-1.066,9.1448,-0.0322,0.0283,-0.1216,-2.23038973430776,0.0,4.51619291305542,-1.4412695169448853,-0.0,1.8715460300445557,5.4987021563346765,-0.0,0.22217151522636414,-1.638223950062887,-0.0,-0.002113613998517394,0.0073239803314208984,0.0,0.008168723434209824,1.2100591659545898,0.0,0.013417070731520653
320.0,662.0,-3.2459,-1.066,9.1448,-0.0322,0.0283,-0.1216,-2.230373521844381,0.0,4.496129035949707,-1.4413334131240845,-0.0,1.8655149936676025,5.498694228916921,-0.0,0.20396162569522858,-1.6382206122027796,-0.0,9.556300938129425e-06,0.007300138473510742,0.0,0.006898379884660244,1.2100872993469238,0.0,-0.018694302067160606
307.0,591.0,-3.2399,-1.0798,9.064,-0.0322,0.0269,-0.1205,-2.2303654156126917,0.0,4.526865482330322,-1.44127357006073,-0.0,1.8439491987228394,5.498746144562521,-0.0,0.20285549759864807,-1.6382001082049769,-0.0,-0.0008203641627915204,0.0073120431043207645,0.0,0.004361941013485193,1.2100472450256348,0.0,0.002376855118200183
307.0,591.0,-3.2399,-1.0798,9.064,-0.0322,0.0269,-0.1205,-2.2303654156126917,0.0,4.50417947769165,-1.4412932395935059,-0.0,1.8750619888305664,5.498754131584921,-0.0,0.205346941947937,-1.6382444540606897,-0.0,0.008545966818928719,0.007316139992326498,0.0,0.005058122333139181,1.2100510597229004,0.0,-0.042940832674503326
307.0,591.0,-3.2399,-1.0798,9.064,-0.0322,0.0269,-0.1205,-2.23038973430776,0.0,4.501120090484619,-1.441281795501709,-0.0,1.9129477739334106,5.498746144562521,-0.0,0.19784602522850037,-1.638223950062887,-0.0,-0.00663429219275713,0.007295622024685144,0.0,0.004564257804304361,1.2100591659545898,0.0,-0.009363369084894657
307.0,591.0,-3.2399,-1.0798,9.064,-0.0322,0.0269,-0.1205,-2.2303739986815394,0.0,4.4893269538879395,-1.4412932395935059,-0.0,1.8619132041931152,5.498742210655966,-0.0,0.20582227408885956,-1.638223950062887,-0.0,-0.011860343627631664,0.007235884200781584,0.0,0.005132089368999004,1.21005117893219,0.0,0.032077379524707794
307.0,591.0,-3.2399,-1.0798,9.064,-0.0322,0.0269,-0.1205,-2.23038973430776,0.0,4.534467697143555,-1.4412530660629272,-0.0,1.875687599182129,5.498765992909231,-0.0,0.21254387497901917,-1.6382363478290003,-0.0,-0.0007639018585905433,0.0073239803314208984,0.0,0.012320682406425476,1.2101072072982788,0.0,-0.017097150906920433
307.0,591.0,-3.2399,-1.0798,9.064,-0.0322,0.0269,-0.1205,-2.2304097614684046,0.0,4.4740190505981445,-1.4413014650344849,-0.0,1.8962171077728271,5.498742210655966,-0.0,0.20874032378196716,-1.6382525602923792,-0.0,0.0011482025729492307,0.007291984744369984,0.0,-0.00092921475879848,1.2100833654403687,0.0,0.02263123169541359
307.0,591.0,-3.2399,-1.0798,9.064,-0.0322,0.0269,-0.1205,-2.230345388452047,0.0,4.517505645751953,-1.4412972927093506,-0.0,1.867969036102295,5.498778271466055,-0.0,0.20475256443023682,-1.6382282415973108,-0.0,-0.00046605593524873257,0.00731205940246582,0.0,-0.002461656928062439,1.2100391387939453,0.0,-0.005539012141525745
307.0,591.0,-3.2399,-1.0798,9.064,-0.0322,0.0269,-0.1205,-2.2303534946837367,0.0,4.516972541809082,-1.4412891864776611,-0.0,1.8979852199554443,5.498750078469076,-0.0,0.21728014945983887,-1.6382282415973108,-0.0,-0.0041115013882517815,0.007280055899173021,0.0,-0.00908672995865345,1.2100032567977905,0.0,0.00109103973954916
307.0,591.0,-3.2399,-1.0798,9.064,-0.0322,0.0269,-0.1205,-2.2303816280760707,0.0,4.502540111541748,-1.4413056373596191,-0.0,1.8815100193023682,5.498738157540121,-0.0,0.20988577604293823,-1.6382444540606897,-0.0,-0.004035379737615585,0.007271863054484129,0.0,0.005783515982329845,1.2100032567977905,0.0,-0.012834982015192509
307.0,591.0,-3.2399,-1.0798,9.064,-0.0322,0.0269,-0.1205,-2.2303859196104945,0.0,4.511129379272461,-1.4413820505142212,-0.0,1.8573639392852783,5.498706090241232,-0.0,0.22207579016685486,-1.638223950062887,-0.0,-0.009240035898983479,0.007296041585505009,0.0,0.010856936685740948,1.2100672721862793,0.0,0.01398598775267601
307.0,591.0,-3.2399,-1.0798,9.064,-0.0322,0.0269,-0.1205,-2.2304135761656703,0.0,4.498194217681885,-1.4413056373596191,-0.0,1.9136581420898438,5.49878619888381,-0.0,0.22584295272827148,-1.6382482687579554,-0.0,-0.00797126442193985,0.007332134060561657,0.0,-0.0016698342515155673,1.2101032733917236,0.0,-0.01734064146876335
307.0,591.0,-3.2399,-1.0798,9.064,-0.0322,0.0269,-0.1205,-2.2303816280760707,0.0,4.50496768951416,-1.441341757774353,-0.0,1.8308467864990234,5.498750078469076,-0.0,0.21324677765369415,-1.6382201353656214,-0.0,-0.006012406200170517,0.0072637456469237804,0.0,0.010197943076491356,1.210071325302124,0.0,-0.01732122153043747
307.0,591.0,-3.2399,-1.0798,9.064,-0.0322,0.0269,-0.1205,-2.2304135761656703,0.0,4.511061191558838,-1.4412769079208374,-0.0,1.8999155759811401,5.498722243099966,-0.0,0.22431856393814087,-1.6382444540606897,-0.0,-0.008362287655472755,0.007296061608940363,0.0,0.0005265753716230392,1.2100791931152344,0.0,0.0034102466888725758
307.0,591.0,-3.2399,-1.0798,9.064,-0.0322,0.0269,-0.1205,-2.230373521844381,0.0,4.553483963012695,-1.4412611722946167,-0.0,1.8382415771484375,5.498746144562521,-0.0,0.20212095975875854,-1.6382082144366663,-0.0,-0.00563458539545536,0.007300089113414288,0.0,-0.0024200258776545525,1.210071325302124,0.0,-0.0042107002809643745
307.0,591.0,-3.2399,-1.0798,9.064,-0.0322,0.0269,-0.1205,-2.230401655236715,0.0,4.500685214996338,-1.441325306892395,-0.0,1.8766810894012451,5.4987302897270105,-0.0,0.21666856110095978,-1.6382320562945765,-0.0,-0.009192568250000477,0.0073644500225782394,0.0,0.0030411984771490097,1.2100591659545898,0.0,-0.019959939643740654
307.0,591.0,-3.2399,-1.0798,9.064,-0.0322,0.0269,-0.1205,-2.2303573093810023,0.0,4.539150238037109,-1.441308856010437,-0.0,1.8579423427581787,5.498722302704611,-0.0,0.2228807657957077,-1.638223950062887,-0.0,-0.004540444817394018,0.007364497985690832,0.0,-0.016466885805130005,1.21001136302948,0.0,0.030659621581435204
307.0,591.0,-3.2399,-1.0798,9.064,-0.0322,0.0269,-0.1205,-2.2303415737547816,0.0,4.521605014801025,-1.4413138628005981,-0.0,1.8284270763397217,5.498730230122366,-0.0,0.21432681381702423,-1.6382563749896448,-0.0,-0.011577208526432514,0.007312067784368992,0.0,0.001049575861543417,1.2100753784179688,0.0,-0.012164311483502388
307.0,591.0,-3.2399,-1.0798,9.064,-0.0322,0.0269,-0.1205,-2.2303296528258265,0.0,4.532747268676758,-1.4413212537765503,-0.0,1.8424499034881592,5.498761999398031,-0.0,0.22150404751300812,-1.6382649580584925,-0.0,-0.004382327664643526,0.007336246781051159,0.0,0.021386362612247467,1.2100470066070557,0.0,-0.009132484905421734
328.0,633.0,-3.3254,-1.209,8.9761,-0.0452,0.0273,-0.1159,-2.2303534946837367,0.0,4.462498188018799,-1.4413254261016846,-0.0,1.8835492134094238,5.498730230122366,-0.0,0.2080400139093399,-1.6382320562945765,-0.0,0.0026913697365671396,0.007263674400746822,0.0,0.005551236681640148,1.2100551128387451,0.0,0.016689661890268326
328.0,633.0,-3.3254,-1.209,8.9761,-0.0452,0.0273,-0.1159,-2.230349679986471,0.0,4.53488826751709,-1.4412775039672852,-0.0,1.90665602684021,5.498738157540121,-0.0,0.22169625759124756,-1.638223950062887,-0.0,-0.0019060169579461217,0.0073803989216685295,0.0,-0.0034175540786236525,1.2100672721862793,0.0,-0.031927745789289474
328.0,633.0,-3.3254,-1.209,8.9761,-0.0452,0.0273,-0.1159,-2.2303859196104945,0.0,4.525603294372559,-1.4412611722946167,-0.0,1.8631916046142578,5.498746144562521,-0.0,0.22162100672721863,-1.6382125059710901,-0.0,0.005789828021079302,0.007275959476828575,0.0,0.018428318202495575,1.2100272178649902,0.0,-0.041888609528541565
328.0,633.0,-3.3254,-1.209,8.9761,-0.0452,0.0273,-0.1159,-2.2303816280760707,0.0,4.510115623474121,-1.4413293600082397,-0.0,1.8580396175384521,5.498766052513876,-0.0,0.2227010577917099,-1.6382363478290003,-0.0,9.152560960501432e-05,0.0072878506034612656,0.0,0.007968779653310776,1.2100794315338135,0.0,0.015540256164968014
328.0,633.0,-3.3254,-1.209,8.9761,-0.0452,0.0273,-0.1159,-2.2303816280760707,0.0,4.552209854125977,-1.441281795501709,-0.0,1.9416406154632568,5.498710143357076,-0.0,0.20535916090011597,-1.6382563749896448,-0.0,0.0007745687616989017,0.007263660430908203,0.0,0.00874857697635889,1.2100551128387451,0.0,0.008436199277639389
328.0,633.0,-3.3254,-1.209,8.9761,-0.0452,0.0273,-0.1159,-2.2304097614684046,0.0,4.497485160827637,-1.4412972927093506,-0.0,1.900866985321045,5.498761999398031,-0.0,0.21416760981082916,-1.6381800810443323,-0.0,0.0017356898169964552,0.007348452229052782,0.0,0.01604366861283779,1.2099990844726562,0.0,0.030607841908931732
328.0,633.0,-3.3254,-1.209,8.9761,-0.0452,0.0273,-0.1159,-2.2303654156126917,0.0,4.539762020111084,-1.4412932395935059,-0.0,1.8881866931915283,5.498742210655966,-0.0,0.19637711346149445,-1.6382363478290003,-0.0,-0.018622441217303276,0.00728002330288291,0.0,-0.0032107681035995483,1.2100272178649902,0.0,-0.012198027223348618
328.0,633.0,-3.3254,-1.209,8.9761,-0.0452,0.0273,-0.1159,-2.2303935490050257,0.0,4.4672956466674805,-1.4413138628005981,-0.0,1.875910997390747,5.498734223633566,-0.0,0.21031223237514496,-1.6382606665240687,-0.0,-0.0008660200983285904,0.007296049501746893,0.0,-0.002334625693038106,1.2100152969360352,0.0,-0.021719995886087418
328.0,633.0,-3.3254,-1.209,8.9761,-0.0452,0.0273,-0.1159,-2.230401655236715,0.0,4.526798248291016,-1.4412695169448853,-0.0,1.8532103300094604,5.498722243099966,-0.0,0.22010308504104614,-1.638240162526266,-0.0,0.006624260917305946,0.007291984744369984,0.0,0.013877940364181995,1.210023283958435,0.0,-0.023878231644630432
328.0,633.0,-3.3254,-1.209,8.9761,-0.0452,0.0273,-0.1159,-2.2303291759886683,0.0,4.475069046020508,-1.441290020942688,-0.0,1.8567824363708496,5.498742210655966,-0.0,0.2053721398115158,-1.6382768789874476,-0.0,-0.006051196716725826,0.00737232668325305,0.0,0.005077403970062733,1.2100393772125244,0.0,0.06374673545360565
328.0,633.0,-3.3254,-1.209,8.9761,-0.0452,0.0273,-0.1159,-2.2303577862181605,0.0,4.506718635559082,-1.4412932395935059,-0.0,1.8760168552398682,5.49873827674941,-0.0,0.22033916413784027,-1.6382282415973108,-0.0,0.002912078285589814,0.007356764283031225,0.0,-0.003856221679598093,1.2100472450256348,0.0,0.02597840130329132
328.0,633.0,-3.3254,-1.209,8.9761,-0.0452,0.0273,-0.1159,-2.2303978405394496,0.0,4.4882307052612305,-1.441281795501709,-0.0,1.8162407875061035,5.498750078469076,-0.0,0.22097466886043549,-1.6382158438311976,-0.0,-0.007441005203872919,0.007340310141444206,0.0,0.008438291028141975,1.210071325302124,0.0,0.0185362808406353
328.0,633.0,-3.3254,-1.209,8.9761,-0.0452,0.0273,-0.1159,-2.230394025842184,0.0,4.516082763671875,-1.441281795501709,-0.0,1.8124957084655762,5.498765992909231,-0.0,0.21411481499671936,-1.6382320562945765,-0.0,-0.006953978445380926,0.007299694232642651,0.0,0.0105204526335001,1.2100753784179688,0.0,-0.04707054793834686
328.0,633.0,-3.3254,-1.209,8.9761,-0.0452,0.0273,-0.1159,-2.2303620777525843,0.0,4.509043216705322,-1.441245198249817,-0.0,1.8426308631896973,5.49881403425292,-0.0,0.21865548193454742,-1.6382039229022425,-0.0,-6.684195250272751e-05,0.007300146855413914,0.0,-0.00048719311598688364,1.2100510597229004,0.0,-0.0007279021665453911
328.0,633.0,-3.3254,-1.209,8.9761,-0.0452,0.0273,-0.1159,-2.2303859196104945,0.0,4.511830806732178,-1.441281795501709,-0.0,1.8665460348129272,5.4987262962158105,-0.0,0.2220744788646698,-1.6382082144366663,-0.0,-0.004719045478850603,0.007280072662979364,0.0,0.0008706799708306789,1.210071325302124,0.0,-0.008050726726651192
328.0,633.0,-3.3254,-1.209,8.9761,-0.0452,0.0273,-0.1159,-2.2303816280760707,0.0,4.532161712646484,-1.4412809610366821,-0.0,1.8933606147766113,5.498746144562521,-0.0,0.22934749722480774,-1.6382320562945765,-0.0,-0.006230535451322794,0.007344415877014399,0.0,0.00820394977927208,1.210023283958435,0.0,-0.009960709139704704
328.0,633.0,-3.3254,-1.209,8.9761,-0.0452,0.0273,-0.1159,-2.2303654156126917,0.0,4.49393892288208,-1.441317081451416,-0.0,1.8627738952636719,5.49879019239501,-0.0,0.21143008768558502,-1.6382649580584925,-0.0,-0.01245608925819397,0.007300138473510742,0.0,1.3135693734511733e-05,1.2100590467453003,0.0,-0.010564261116087437
328.0,633.0,-3.3254,-1.209,8.9761,-0.0452,0.0273,-0.1159,-2.2303816280760707,0.0,4.504482269287109,-1.4413251876831055,-0.0,1.8844953775405884,5.498750078469076,-0.0,0.1994040608406067,-1.638240162526266,-0.0,-0.016260070726275444,0.007323971949517727,0.0,-0.00631924532353878,1.2100952863693237,0.0,-0.0003870958462357521
310.0,616.0,-3.3248,-1.2784,9.1256,-0.0458,0.0232,-0.1107,-2.2303935490050257,0.0,4.487859725952148,-1.4412777423858643,-0.0,1.8977742195129395,5.498698103218832,-0.0,0.22018884122371674,-1.6382525602923792,-0.0,-0.01166541688144207,0.007340369746088982,0.0,0.013216645456850529,1.210071325302124,0.0,0.03076917491853237
310.0,616.0,-3.3248,-1.2784,9.1256,-0.0458,0.0232,-0.1107,-2.230373521844381,0.0,4.529223442077637,-1.441333532333374,-0.0,1.894083023071289,5.498734223633566,-0.0,0.21500521898269653,-1.6382606665240687,-0.0,0.005577748641371727,0.007300138473510742,0.0,0.00987345539033413,1.210083246231079,0.0,0.016386911273002625
310.0,616.0,-3.3248,-1.2784,9.1256,-0.0458,0.0232,-0.1107,-2.2303854427733363,0.0,4.523342132568359,-1.4412652254104614,7.281108493906174e-10,1.884873390197754,5.498786139279165,2.111391950165853e-06,0.2208719253540039,-1.6382201353656214,-0.0,0.0001444782828912139,0.0073083979077637196,0.0,-0.008544417098164558,1.2101030349731445,0.0,-0.011575799435377121
310.0,616.0,-3.3248,-1.2784,9.1256,-0.0458,0.0232,-0.1107,-2.230422159234518,0.0,4.507566452026367,-1.4412455558776855,1.3105738282809254e-13,1.8312692642211914,5.498718309193411,9.001195344637836e-09,0.21563446521759033,-1.6382444540606897,-0.0,0.003256177296862006,0.007328069303184748,0.0,0.005664725787937641,1.210131287574768,0.0012057834537699819,0.04634801670908928
310.0,616.0,-3.3248,-1.2784,9.1256,-0.0458,0.0232,-0.1107,-2.230422159234518,0.0,4.515541076660156,-1.4412932395935059,3.1648814285558505e-19,1.8682942390441895,5.498746144562521,2.5055155433023613e-12,0.21419334411621094,-1.6382649580584925,-0.0,-0.008176865056157112,0.007303823716938496,0.0,-0.008524440228939056,1.2101352214813232,0.0016067434335127473,0.03557049483060837
310.0,616.0,-3.3248,-1.2784,9.1256,-0.0458,0.0232,-0.1107,-2.2304259739317835,0.0,4.485248565673828,-1.4412693977355957,5.696674461164497e-23,1.8396806716918945,5.498722123890676,1.068140564333079e-14,0.20432794094085693,-1.6382082144366663,-0.0,-0.0026424406096339226,0.007316078990697861,0.0,0.01385695580393076,1.2101390361785889,0.0018404022557660937,0.01679377257823944
310.0,616.0,-3.3248,-1.2784,9.1256,-0.0458,0.0232,-0.1107,-2.2304583988585414,0.0,4.494518280029297,-1.4412291049957275,2.8345148166408762e-06,1.8580726385116577,5.4987262962158105,2.9732088947738646e-18,0.21939820051193237,-1.638235870991842,-0.0,0.0015718661015853286,0.007340310141444206,0.0,0.004084412939846516,1.2101671695709229,0.0018540718592703342,-0.03809100389480591
310.0,616.0,-3.3248,-1.2784,9.1256,-0.0458,0.0232,-0.1107,-2.2303935490050257,0.0,4.483578681945801,-1.4412133693695068,0.00044691862422041595,1.879981517791748,5.49873827674941,1.2675253648842303e-20,0.21801742911338806,-1.6382845083819788,-0.0,0.0009531888645142317,0.007340298034250736,0.0,-0.006066140718758106,1.2101712226867676,0.0018283736426383257,0.012963809072971344
310.0,616.0,-3.3248,-1.2784,9.1256,-0.0458,0.0232,-0.1107,-2.230373521844381,0.0,4.5534820556640625,-1.4412415027618408,0.0012558753369376063,1.854645013809204,5.498738157540121,3.528203669997679e-24,0.22182494401931763,-1.638212029133932,-0.0,-0.007748742587864399,0.007307970430701971,0.0,0.008437440730631351,1.2101391553878784,0.001592675456777215,0.009222380816936493
310.0,616.0,-3.3248,-1.2784,9.1256,-0.0458,0.0232,-0.1107,-2.2304135761656703,0.0,4.4951395988464355,-1.4412574768066406,0.0009088501683436334,1.8609497547149658,5.498774277954855,9.820885898729082e-28,0.2175637185573578,-1.6382525602923792,-0.0,-0.012522141449153423,0.007352610118687153,0.0,0.00482954503968358,1.2101471424102783,0.0011399235809221864,-0.023378361016511917
310.0,616.0,-3.3248,-1.2784,9.1256,-0.0458,0.0232,-0.1107,-2.2304302654662074,0.0,4.495569705963135,-1.4412217140197754,0.0007255576201714575,1.9005072116851807,5.498746144562521,4.186797161696641e-30,0.19705085456371307,-1.6382320562945765,-0.0,-0.002833302365615964,0.00731980986893177,0.0,0.008310399949550629,1.210183024406433,0.0008656156132929027,-0.0005046515725553036
310.0,616.0,-3.3248,-1.2784,9.1256,-0.0458,0.0232,-0.1107,-2.2304302654662074,0.0,4.494826316833496,-1.4412537813186646,0.0005570792709477246,1.8463799953460693,5.498722302704611,1.1654102623311631e-33,0.22415605187416077,-1.6382525602923792,-0.0,-0.001382777700200677,0.0073239803314208984,0.0,0.009079956449568272,1.210123062133789,0.0006360741099342704,0.012273751199245453
310.0,616.0,-3.3248,-1.2784,9.1256,-0.0458,0.0232,-0.1107,-2.2303930721678675,0.0,4.533233642578125,-1.4412697553634644,0.00048241153126582503,1.9108597040176392,5.498762059002676,4.968326888345433e-36,0.21153880655765533,-1.6383050123797815,-0.0,-0.007649690378457308,0.007291927468031645,0.0,0.0036201621405780315,1.2101670503616333,0.00048110121861100197,0.02578980103135109
310.0,616.0,-3.3248,-1.2784,9.1256,-0.0458,0.0232,-0.1107,-2.230434080163473,0.0,4.464573383331299,-1.4412739276885986,0.00013142389070708305,1.8284282684326172,5.498758065491476,1.3829526648298766e-39,0.2209232747554779,-1.6382320562945765,-0.0,0.003111356170848012,0.007280055433511734,0.0,0.00903303548693657,1.2101430892944336,8.743904618313536e-05,0.051341164857149124
310.0,616.0,-3.3248,-1.2784,9.1256,-0.0458,0.0232,-0.1107,-2.2304703197874964,0.0,4.539941787719727,-1.4413220882415771,1.864632940851152e-05,1.8804556131362915,5.498778271466055,5.895262639414505e-42,0.2147451639175415,-1.638240162526266,-0.0,-0.013117127120494843,0.007348109968006611,0.0,0.008700686506927013,1.2101593017578125,2.8158908094155777e-07,0.04743368178606033
310.0,616.0,-3.3248,-1.2784,9.1256,-0.0458,0.0232,-0.1107,-2.230389257470602,1.484687095487658e-10,4.50703239440918,-1.4412932395935059,4.5028685641268495e-11,1.877753734588623,5.498778271466055,1.401298464324817e-45,0.21598419547080994,-1.6382201353656214,-0.0,-0.007688925601541996,0.00730384886264801,0.0,0.003630870021879673,1.2101192474365234,-0.0024020117707550526,-0.025560840964317322
310.0,616.0,-3.3248,-1.2784,9.1256,-0.0458,0.0232,-0.1107,-2.2304417095580042,2.6723847134225813e-14,4.518449783325195,-1.4412537813186646,8.105005009425171e-15,1.8675278425216675,5.4987262962158105,0.0,0.19837598502635956,-1.6382482687579554,-0.0,-0.006580388639122248,0.00729600852355361,0.0,0.002579708583652973,1.2100872993469238,-0.003939189948141575,-0.014206853695213795
310.0,616.0,-3.3248,-1.2784,9.1256,-0.0458,0.0232,-0.1107,-2.230457922021383,6.453495118076797e-20,4.504848003387451,-1.4412693977355957,1.9572632947543234e-20,1.8934862613677979,5.498702096730032,-4.6549743274226785e-05,0.20713016390800476,-1.6381881872760218,-0.0,-0.0084438007324934,0.007324355188757181,0.0,0.0038600151892751455,1.2099910974502563,-0.004195765126496553,0.005538164172321558
319.0,609.0,-3.3081,-0.7059,9.5779,-0.0322,0.0267,-0.1388,-2.2304374180235804,1.1616063604078973e-23,4.548487663269043,-1.4412777423858643,3.523005076632273e-24,1.8439397811889648,5.498714136868276,-6.743607082171366e-05,0.21377670764923096,-1.638240162526266,-0.0,-0.0002806794364005327,0.007344432175159454,0.0,0.003810359165072441,1.209995150566101,-0.00470321998000145,0.006825605407357216
319.0,609.0,-3.3081,-0.7059,9.5779,-0.0322,0.0267,-0.1388,-2.2303930721678675,2.805142843683637e-29,4.479979038238525,-1.4412693977355957,8.507642809104556e-30,1.8794517517089844,5.498722123890676,-8.236760913860053e-05,0.22147557139396667,-1.6382845083819788,-0.0,-0.0033532551024109125,0.007311716675758362,0.0,0.01224925834685564,1.2099833488464355,-0.005143458489328623,0.040925074368715286
319.0,609.0,-3.3081,-0.7059,9.5779,-0.0322,0.0267,-0.1388,-2.2304259739317835,5.0491578230945895e-33,4.556637287139893,-1.4412697553634644,1.5313456945039722e-33,1.8758974075317383,5.498694228916921,-8.003642142284662e-05,0.22253286838531494,-1.638284985219137,-0.0,-0.002053823322057724,0.00731205940246582,0.0,0.005430438090115786,1.2099592685699463,-0.005358838010579348,-0.005383187904953957
319.0,609.0,-3.3081,-0.7059,9.5779,-0.0322,0.0267,-0.1388,-2.230389257470602,1.219312113022646e-38,4.537164211273193,-1.4412012100219727,3.6980196408608706e-39,1.8608109951019287,5.498702215939321,-7.503709639422596e-05,0.21891531348228455,-1.6382082144366663,-0.0,-0.0030961723532527685,0.007320246193557978,0.0,0.018300972878932953,1.2098991870880127,-0.005310502368956804,0.013493255712091923
319.0,609.0,-3.3081,-0.7059,9.5779,-0.0322,0.0267,-0.1388,-2.2303978405394496,2.1944333951326635e-42,4.521722793579102,-1.441245198249817,6.656167705542881e-43,1.8707616329193115,5.498722123890676,-8.973293006420135e-05,0.22341874241828918,-1.6382001082049769,-0.0,-0.001768550369888544,0.00730382464826107,0.0,-0.00011871755123138428,1.209895372390747,-0.004340838640928268,-0.02420792356133461
319.0,609.0,-3.3081,-0.7059,9.5779,-0.0322,0.0267,-0.1388,-2.23038973430776,0.0,4.5407938957214355,-1.4412733316421509,-0.0,1.8458888530731201,5.498694228916921,-8.494344365317374e-05,0.21428249776363373,-1.6382606665240687,-0.0,0.015753664076328278,0.007332134060561657,0.0,0.0034430453088134527,1.2099072933197021,-0.0028210284654051065,-0.014489930123090744
319.0,609.0,-3.3081,-0.7059,9.5779,-0.0322,0.0267,-0.1388,-2.2304097614684046,0.0,4.523811340332031,-1.4412415027618408,-0.0,1.8998997211456299,5.498710143357076,-6.4588435634505e-05,0.2301807552576065,-1.638256851826803,-0.0,0.002413693815469742,0.007320237345993519,0.0,-0.004616109654307365,1.209867238998413,-0.0020318732131272554,-0.04117773473262787
319.0,609.0,-3.3081,-0.7059,9.5779,-0.0322,0.0267,-0.1388,-2.23038973430776,0.0,4.532796382904053,-1.4412776231765747,-0.0,1.874330997467041,5.498722123890676,-6.209537968970835e-05,0.22018635272979736,-1.6382158438311976,-0.0,0.0075532556511461735,0.00731205940246582,0.0,0.002898493316024542,1.2098594903945923,-0.0017809327691793442,-0.01743399351835251
319.0,609.0,-3.3081,-0.7059,9.5779,-0.0322,0.0267,-0.1388,-2.2303816280760707,0.0,4.55729866027832,-1.4412537813186646,0.0009807819733396173,1.9162265062332153,5.498733985214987,-7.354648550972342e-05,0.229689359664917,-1.6382082144366663,-0.0,0.0016915749292820692,0.007284128572791815,0.0,0.0018707257695496082,1.2098475694656372,-0.0021404498256742954,0.0023284899070858955
319.0,609.0,-3.3081,-0.7059,9.5779,-0.0322,0.0267,-0.1388,-2.2303577862181605,0.0,4.5042500495910645,-1.441228985786438,0.0007234459044411778,1.8987462520599365,5.498646247177877,-7.145415293052793e-05,0.21902279555797577,-1.638235870991842,-0.0,-0.0107633788138628,0.00726782251149416,0.0,0.002989253494888544,1.2098515033721924,-0.002365636173635721,-0.007830937393009663
319.0,609.0,-3.3081,-0.7059,9.5779,-0.0322,0.0267,-0.1388,-2.2304097614684046,0.0,4.526943206787109,-1.4412413835525513,0.00043010638910345733,1.8803060054779053,5.498698282032766,-0.00014153766096569598,0.23614203929901123,-1.638235870991842,-0.0,-0.00694421399384737,0.00732401292771101,0.0,0.004735671915113926,1.2097917795181274,-0.002659686142578721,0.019924838095903397
319.0,609.0,-3.3081,-0.7059,9.5779,-0.0322,0.0267,-0.1388,-2.2304378948607386,0.0,4.49098539352417,-1.4412249326705933,0.00036095056566409767,1.8915536403656006,5.498674142151632,-0.0001431084529031068,0.22090958058834076,-1.638223950062887,-0.0,-0.004708210937678814,0.007356320042163134,0.0,-0.0010067459661513567,1.2098313570022583,-0.002435032743960619,0.04212966933846474
319.0,609.0,-3.3081,-0.7059,9.5779,-0.0322,0.0267,-0.1388,-2.2303930721678675,0.0,4.53555154800415,-1.4412455558776855,0.0002909265458583832,1.862574815750122,5.498698222428121,-0.00017949753964785486,0.22096142172813416,-1.6382125059710901,-0.0,0.015006618574261665,0.007324005011469126,0.0,-7.316097617149353e-05,1.2098078727722168,-0.0023500837851315737,0.010705572552978992
319.0,609.0,-3.3081,-0.7059,9.5779,-0.0322,0.0267,-0.1388,-2.2304660282530726,0.0,4.492600917816162,-1.4412537813186646,0.0002576124097686261,1.8754255771636963,5.498690354615011,-0.00017289810057263821,0.22888848185539246,-1.6382525602923792,-0.0,-0.00017435482004657388,0.007364070508629084,0.0,0.0055933487601578236,1.2097958326339722,-0.0020390686113387346,0.023403292521834373
319.0,609.0,-3.3081,-0.7059,9.5779,-0.0322,0.0267,-0.1388,-2.230429788629049,0.0,4.519474029541016,-1.4412134885787964,0.00021985085913911462,1.8465193510055542,5.498630451947012,-0.00015975783753674477,0.23509380221366882,-1.6382082144366663,-0.0,0.012744678184390068,0.00731982197612524,0.0,-0.00016571534797549248,1.2097556591033936,-0.0015891182702034712,-0.005255063995718956
319.0,609.0,-3.3081,-0.7059,9.5779,-0.0322,0.0267,-0.1388,-2.230389257470602,0.0,4.496063232421875,-1.4412176609039307,0.00023558957036584616,1.8862929344177246,5.498694348126211,-0.00015204613737296313,0.22485855221748352,-1.6382444540606897,-0.0,0.004168868064880371,0.007291960529983044,8.375580051733778e-08,0.0032787916716188192,1.209735631942749,-0.0017437874339520931,0.0025846827775239944
319.0,609.0,-3.3081,-0.7059,9.5779,-0.0322,0.0267,-0.1388,-2.230389257470602,0.0,4.537576198577881,-1.4412257671356201,0.00024686817778274417,1.8555279970169067,5.498674142151632,-0.0001417802704963833,0.22467362880706787,-1.6382563749896448,-0.0,0.003772671800106764,0.007340353447943926,2.3313731153939976e-11,-0.0030755330808460712,1.2097718715667725,-0.0018967263167724013,0.04664474353194237
319.0,609.0,-3.3081,-0.7059,9.5779,-0.0322,0.0267,-0.1388,-2.2304302654662074,0.0,4.513033866882324,-1.4412257671356201,0.0002175933914259076,1.8897507190704346,5.498682307987966,-0.0001356734283035621,0.21393077075481415,-1.6382201353656214,-0.0,-0.006099028512835503,0.007360417395830154,9.939008708929886e-14,0.003749595955014229,1.2097597122192383,-0.0017445721896365285,0.001716820290312171
321.0,636.0,-3.3595,-1.0014,9.0993,-0.0367,0.0394,-0.126,-2.2303816280760707,0.0,4.525461196899414,-1.441177248954773,0.0020396667532622814,1.8569244146347046,5.498690295010366,-0.00012743972183670849,0.22977899014949799,-1.6381762663470667,-0.0,0.0021167832892388105,0.0073198177851736546,2.766559656295662e-17,0.006467970088124275,1.2097399234771729,-0.001348605495877564,0.035655681043863297
321.0,636.0,-3.3595,-1.0014,9.0993,-0.0367,0.0394,-0.126,-2.230405469933981,0.0,4.519842624664307,-1.4411656856536865,0.003964446485042572,1.8749711513519287,5.498690354615011,-0.00010603135160636157,0.22799073159694672,-1.6382206122027796,-0.0,-0.009289255365729332,0.007340369746088982,7.700820473908541e-21,0.004993503913283348,1.2097158432006836,-0.0010728116612881422,0.033229537308216095
321.0,636.0,-3.3595,-1.0014,9.0993,-0.0367,0.0394,-0.126,-2.230405469933981,0.0,4.496733665466309,-1.441121220588684,0.005114053841680288,1.8729407787322998,5.498702215939321,-0.00010559768998064101,0.22877103090286255,-1.6381962935077112,-0.0,0.001015334390103817,0.007348076906055212,3.282980656697301e-23,-0.00025590136647224426,1.2098040580749512,-0.0008351557771675289,0.02296842820942402
321.0,636.0,-3.3595,-1.0014,9.0993,-0.0367,0.0394,-0.126,-2.230361600915426,0.0,4.5413737297058105,-1.4411461353302002,0.006440516095608473,1.8874080181121826,5.498670089035787,-9.453672828385606e-05,0.21879269182682037,-1.6381920019732874,-0.0,0.003425351344048977,0.007340339012444019,9.138297230060375e-27,0.016998527571558952,1.2097277641296387,-0.0006586842937394977,0.021412020549178123
321.0,636.0,-3.3595,-1.0014,9.0993,-0.0367,0.0394,-0.126,-2.2303935490050257,0.0,4.534027099609375,-1.4410817623138428,0.006713761482387781,1.8876066207885742,5.498662221222677,-8.834916661726311e-05,0.21871861815452576,-1.6382244269000452,-0.0,-0.002864945214241743,0.007344415877014399,3.8957996795291127e-29,0.005119250155985355,1.2097359895706177,-0.0005682151531800628,-0.009436838328838348
321.0,636.0,-3.3595,-1.0014,9.0993,-0.0367,0.0394,-0.126,-2.230405469933981,0.0,4.525215148925781,-1.4410418272018433,0.005978528875857592,1.8877577781677246,5.498678135662832,-8.04507071734406e-05,0.23415376245975494,-1.6382244269000452,-0.0,-0.005570773966610432,0.007348060607910156,1.0844099955544717e-32,0.017750000581145287,1.209771752357483,-0.0004889278206974268,0.00993418600410223
321.0,636.0,-3.3595,-1.0014,9.0993,-0.0367,0.0394,-0.126,-2.230422159234518,0.0,4.543947696685791,-1.4410377740859985,0.005876081995666027,1.8900964260101318,5.498670089035787,-7.592565088998526e-05,0.2240523248910904,-1.6382363478290003,-0.0,-0.007573633920401335,0.00731982197612524,4.6230097820584464e-35,0.01159285195171833,1.2097277641296387,-0.00044751897803507745,0.002241235226392746
321.0,636.0,-3.3595,-1.0014,9.0993,-0.0367,0.0394,-0.126,-2.230450292626852,0.0,4.5148186683654785,-1.4409533739089966,0.005108703393489122,1.9054343700408936,5.498646306782522,-7.001841004239395e-05,0.22958306968212128,-1.6382320562945765,-0.0,-0.0007221921114251018,0.007364070508629084,1.2868317177082872e-38,0.01938467286527157,1.2097277641296387,-0.0003771807823795825,0.022436484694480896
321.0,636.0,-3.3595,-1.0014,9.0993,-0.0367,0.0394,-0.126,-2.2304097614684046,0.0,4.526555061340332,-1.440997838973999,0.0045285518281161785,1.9032191038131714,5.498646306782522,-6.656566256424412e-05,0.2324526011943817,-1.6382363478290003,-0.0,-0.0028873146511614323,0.007375979330390692,0.00015468579658772796,0.0071680559776723385,1.2097117900848389,-0.0002629914088174701,-0.018211325630545616
321.0,636.0,-3.3595,-1.0014,9.0993,-0.0367,0.0394,-0.126,-2.2303692303099574,0.0,4.50562047958374,-1.4409377574920654,0.004128048196434975,1.863901972770691,5.498706269055166,-6.198119808686897e-05,0.2414495348930359,-1.6382206122027796,-0.0,0.006171772256493568,0.007371894083917141,0.0001707315823296085,0.022017836570739746,1.2096918821334839,-0.00026224038447253406,-0.020783094689249992
321.0,636.0,-3.3595,-1.0014,9.0993,-0.0367,0.0394,-0.126,-2.2304097614684046,0.0,4.492715358734131,-1.4409259557724,0.0047246841713786125,1.9039397239685059,5.498654174595632,-5.92603646509815e-05,0.24876102805137634,-1.6382125059710901,-0.0,-0.002015382284298539,0.007396374363452196,0.00018713349709287286,0.013833612203598022,1.2097277641296387,-0.00024341577955055982,0.025405390188097954
321.0,636.0,-3.3595,-1.0014,9.0993,-0.0367,0.0394,-0.126,-2.230457922021383,0.0,4.52951717376709,-1.4409016370773315,0.004708396270871162,1.8607375621795654,5.498678135662832,-5.5599371989956126e-05,0.22940631210803986,-1.6382001082049769,-0.0,0.003675424261018634,0.00738410884514451,0.0001966005511349067,0.022045129910111427,1.2097560167312622,-0.00028539178310893476,0.030670354142785072
321.0,636.0,-3.3595,-1.0014,9.0993,-0.0367,0.0394,-0.126,-2.2304135761656703,0.0,4.479370594024658,-1.4408575296401978,0.004815348424017429,1.9189037084579468,5.498614477902212,-5.3400013712234795e-05,0.24038544297218323,-1.638228718434469,-0.0,0.001520652906037867,0.007367732003331184,0.00038655215757898986,0.023229580372571945,1.2097078561782837,-0.000403146113967523,0.011802892200648785
321.0,636.0,-3.3595,-1.0014,9.0993,-0.0367,0.0394,-0.126,-2.230361600915426,0.0,4.530986309051514,-1.4409067630767822,0.005829148925840855,1.8534860610961914,5.49875425079421,-5.0408983952365816e-05,0.2367417961359024,-1.6382206122027796,-0.0,-0.007695555221289396,0.00732796173542738,0.0004208582977298647,0.03398292511701584,1.209752082824707,-0.0005097231478430331,0.015404253266751766
321.0,636.0,-3.3595,-1.0014,9.0993,-0.0367,0.0394,-0.126,-2.230389257470602,0.0,4.526235103607178,-1.4407813549041748,0.006289245095103979,1.956059455871582,5.498670089035787,-4.859448381466791e-05,0.23281455039978027,-1.6381643454181116,-0.0,0.010310173034667969,0.007319710683077574,0.00043695198837667704,0.014735022559762001,1.2097079753875732,-0.0010256553068757057,0.03496968746185303
321.0,636.0,-3.3595,-1.0014,9.0993,-0.0367,0.0394,-0.126,-2.2303692303099574,0.0,4.536381721496582,-1.4407618045806885,0.007667179219424725,1.865774154663086,5.498646306782522,-4.610506948665716e-05,0.2295069396495819,-1.6382444540606897,-0.0,-0.0008008424192667007,0.0073362379334867,0.0005805109394714236,0.01851794309914112,1.2097079753875732,-0.0014053798513486981,-0.04789246618747711
321.0,636.0,-3.3595,-1.0014,9.0993,-0.0367,0.0394,-0.126,-2.2304378948607386,0.0,4.5216288566589355,-1.4407094717025757,0.00864351075142622,1.9063849449157715,5.4985864637191675,-4.3858268327312544e-05,0.24176621437072754,-1.6382206122027796,-0.0,0.005667485762387514,0.007440687622874975,0.0005211440729908645,0.024176523089408875,1.209695816040039,-0.0014521467965096235,0.02441990002989769
318.0,623.0,-3.3535,-1.0247,9.1783,-0.0354,0.0315,-0.1275,-2.2304378948607386,0.0,4.543855667114258,-1.4406737089157104,0.009750730358064175,1.8852031230926514,5.498662221222677,-5.65148402529303e-05,0.24008256196975708,-1.6381719748126429,-0.0,-0.01274576410651207,0.007391922175884247,0.0005109870689921081,0.03355932980775833,1.2096480131149292,-0.0015835289377719164,0.018535198643803596
318.0,623.0,-3.3535,-1.0247,9.1783,-0.0354,0.0315,-0.1275,-2.230422159234518,0.0,4.510767936706543,-1.4405651092529297,0.01113368570804596,1.9094732999801636,5.498662221222677,-5.408489960245788e-05,0.24209606647491455,-1.6382125059710901,-0.0,0.006340357940644026,0.007355415262281895,0.0005343268858268857,0.03429131582379341,1.209652066230774,-0.0014911812031641603,0.025359587743878365
318.0,623.0,-3.3535,-1.0247,9.1783,-0.0354,0.0315,-0.1275,-2.230389257470602,0.0,4.564660549163818,-1.44060218334198,0.011932319961488247,1.9652212858200073,5.498622166901388,-3.921375537174754e-05,0.23202934861183167,-1.6382086912738245,-0.0,-0.005888982675969601,0.007391902152448893,0.0005216824356466532,0.04553123563528061,1.209683895111084,-0.001616442808881402,-0.03537460416555405
318.0,623.0,-3.3535,-1.0247,9.1783,-0.0354,0.0315,-0.1275,-2.2304135761656703,0.0,4.560704708099365,-1.4404375553131104,0.014695089310407639,1.9074668884277344,5.498638379364767,-6.863813905511051e-05,0.22624564170837402,-1.6381805578814905,-0.0,-0.013430819846689701,0.007456217426806688,0.0005349258426576853,0.03555137664079666,1.2096318006515503,-0.0014141080901026726,0.027164308354258537
318.0,623.0,-3.3535,-1.0247,9.1783,-0.0354,0.0315,-0.1275,-2.230377336541647,0.0,4.506079196929932,-1.440373420715332,0.016494208946824074,1.909747838973999,5.498614299088278,-8.755886665312573e-05,0.24139726161956787,-1.6382043997394007,-0.0,0.007404821924865246,0.00740007171407342,0.0005444857524707913,0.04058130085468292,1.2096600532531738,-0.0012565026991069317,-0.029058238491415977
318.0,623.0,-3.3535,-1.0247,9.1783,-0.0354,0.0315,-0.1275,-2.230405469933981,0.0,4.527801513671875,-1.4403256177902222,0.018757658079266548,1.9123464822769165,5.4986182925994775,-0.000552601006347686,0.24907466769218445,-1.6382086912738245,-0.0,-0.003394332015886903,0.0074242581613361835,0.000504481082316488,0.02778332494199276,1.2096999883651733,-0.000998510280624032,0.029436521232128143
318.0,623.0,-3.3535,-1.0247,9.1783,-0.0354,0.0315,-0.1275,-2.230422159234518,0.0,4.515052318572998,-1.440197229385376,0.019726522266864777,1.9232594966888428,5.4986063716705225,-0.0005354840541258454,0.24649779498577118,-1.6381924788104456,-0.0,-0.0004148356383666396,0.007399627473205328,0.0004963540122844279,0.05131984502077103,1.2096561193466187,-0.0007295647519640625,-0.005913923494517803
318.0,623.0,-3.3535,-1.0247,9.1783,-0.0354,0.0315,-0.1275,-2.2304498157896937,0.0,4.495649814605713,-1.440117359161377,0.021835392341017723,1.919990062713623,5.498562383442678,-0.0004894725861959159,0.2413109540939331,-1.638160530720846,-0.0,0.0022641296964138746,0.0074283224530518055,0.0005200081504881382,0.05366043001413345,1.209652066230774,-0.0005888237501494586,0.023442760109901428
318.0,623.0,-3.3535,-1.0247,9.1783,-0.0354,0.0315,-0.1275,-2.2304417095580042,0.0,4.547712326049805,-1.4400219917297363,0.024257052689790726,1.951067328453064,5.498590457230367,-0.0004832139820791781,0.24177095293998718,-1.6382001082049769,-0.0,0.0032880427315831184,0.007416010368615389,0.0005161034059710801,0.04266183078289032,1.209656000137329,-0.000563904526643455,0.05455029010772705
318.0,623.0,-3.3535,-1.0247,9.1783,-0.0354,0.0315,-0.1275,-2.2304378948607386,1.6378081182932824e-11,4.502287864685059,-1.4398573637008667,0.026772916316986084,1.966835618019104,5.498590457230367,-0.0004378552548587322,0.2359561324119568,-1.6382244269000452,-0.0,0.002894535195082426,0.007399667985737324,0.000585220695938915,0.05127304792404175,1.2096959352493286,-0.00044451761641539633,0.05940613895654678
318.0,623.0,-3.3535,-1.0247,9.1783,-0.0354,0.0315,-0.1275,-2.230446001092428,2.9479967407231586e-15,4.5319132804870605,-1.4397542476654053,0.02886037342250347,1.9725778102874756,5.4985864637191675,-0.0004373851406853646,0.22982265055179596,-1.6381481329547327,-0.0,-0.0029217523988336325,0.007391449995338917,0.0005855506169609725,0.052123695611953735,1.2096320390701294,-0.0003895352710969746,0.04257993400096893
318.0,623.0,-3.3535,-1.0247,9.1783,-0.0354,0.0315,-0.1275,-2.230405469933981,7.119065318452277e-21,4.518919467926025,-1.4395217895507812,0.032875049859285355,2.0538558959960938,5.49860297420577,-0.0004495208850130439,0.22305959463119507,-1.638172451649801,-0.0,-0.000666722422465682,0.007427887059748173,0.0007060408242978156,0.04617282748222351,1.2096600532531738,-0.0003762182022910565,0.05330340191721916
318.0,623.0,-3.3535,-1.0247,9.1783,-0.0354,0.0315,-0.1275,-2.230446001092428,1.2814066231716731e-24,4.528912544250488,-1.4394304752349854,0.03493314981460571,2.0196080207824707,5.498570370465078,-0.00047211474156938493,0.2246074676513672,-1.6381805578814905,-0.0,-0.009774685837328434,0.007463979534804821,0.0008429328445345163,0.05183243378996849,1.2096081972122192,-0.00027216755552217364,0.0761028453707695
318.0,623.0,-3.3535,-1.0247,9.1783,-0.0354,0.0315,-0.1275,-2.2304417095580042,3.09444618458485e-30,4.528082370758057,-1.4392144680023193,0.03998161852359772,1.9835715293884277,5.498610424786367,-0.00047502925735898316,0.22303345799446106,-1.638200585042135,-0.0,-0.006446273997426033,0.0074558258056640625,0.0011896186042577028,0.05929948017001152,1.2096319198608398,-0.0003206075052730739,0.0748276561498642
318.0,623.0,-3.3535,-1.0247,9.1783,-0.0354,0.0315,-0.1275,-2.230429788629049,7.472723916462677e-36,4.557596206665039,-1.4389865398406982,0.043158818036317825,2.0291333198547363,5.498534250050344,-0.0007239723345264792,0.22313012182712555,-1.6381805578814905,-0.0,0.0027704741805791855,0.007407796569168568,0.0020449168514460325,0.05487057566642761,1.2096240520477295,-0.00031786877661943436,0.08037208020687103
318.0,623.0,-3.3535,-1.0247,9.1783,-0.0354,0.0315,-0.1275,-2.2304498157896937,1.3450643569514622e-39,4.508955955505371,-1.4387259483337402,0.04686059057712555,2.03719162940979,5.498538243561544,-0.0009390158811584115,0.22539615631103516,-1.638160530720846,-0.0,0.011275997385382652,0.007447993848472834,0.002863024128600955,0.05601480230689049,1.2096478939056396,-0.00029345188522711396,0.08518605679273605
318.0,623.0,-3.3535,-1.0247,9.1783,-0.0354,0.0315,-0.1275,-2.2303854427733363,2.802596928649634e-45,4.538488864898682,-1.4384865760803223,0.048984602093696594,2.019874334335327,5.4985543368156335,-0.0014844563556835055,0.2184683084487915,-1.6382125059710901,-0.0,0.003706325776875019,0.00753651512786746,0.005463719367980957,0.06660816818475723,1.2096478939056396,-0.00026147940661758184,0.10013669729232788
318.0,623.0,-3.3535,-1.0247,9.1783,-0.0354,0.0315,-0.1275,-2.2304374180235804,0.0,4.513665676116943,-1.4382343292236328,0.05013316869735718,2.072072982788086,5.498526382237234,-0.0019229983445256948,0.23018130660057068,-1.6381762663470667,-0.0,0.008389540947973728,0.0075037479400634766,0.006879751104861498,0.07009752839803696,1.2096278667449951,-0.0002437726070638746,0.07862924039363861
319.0,578.0,-3.3697,-0.9757,9.2315,-0.058,0.0673,-0.1329,-2.230429788629049,0.0,4.533614635467529,-1.4379386901855469,0.051323629915714264,2.0483546257019043,5.49849413612441,-0.00300986273214221,0.22172659635543823,-1.6381362120257776,-0.0,-0.004223784897476435,0.007531917188316584,0.006343407090753317,0.07498550415039062,1.209643840789795,-0.00022129488934297115,0.08022581040859222
319.0,578.0,-3.3697,-0.9757,9.2315,-0.058,0.0673,-0.1329,-2.2303973637022914,0.0,4.553763389587402,-1.4377179145812988,0.05142210051417351,2.0492565631866455,5.498514342098989,-0.005333010572940111,0.2253449261188507,-1.6381762663470667,-0.0,-0.01610778644680977,0.007559848017990589,0.003247947432100773,0.06734912097454071,1.2096400260925293,-0.00020847917767241597,0.0834377259016037
319.0,578.0,-3.3697,-0.9757,9.2315,-0.058,0.0673,-0.1329,-2.230405469933981,0.0,4.547613143920898,-1.4373584985733032,0.051165249198675156,2.085927724838257,5.498434293061056,-0.012627207674086094,0.21676939725875854,-1.6381924788104456,-0.0,-0.01312892884016037,0.00755575904622674,0.0005014979396946728,0.05292211100459099,1.2096041440963745,-0.00019181672541890293,0.03068399429321289
319.0,578.0,-3.3697,-0.9757,9.2315,-0.058,0.0673,-0.1329,-2.230405469933981,0.0,4.50931453704834,-1.437130093574524,0.05199919641017914,2.0638771057128906,5.4983823774154565,-0.01360046025365591,0.2245035469532013,-1.6381643454181116,-0.0,-0.011244142428040504,0.007592139765620232,0.00031653098994866014,0.052811749279499054,1.209680199623108,-0.00018211327551398426,0.0776735171675682
319.0,578.0,-3.3697,-0.9757,9.2315,-0.058,0.0673,-0.1329,-2.2304135761656703,0.0,4.559593200683594,-1.4368385076522827,0.05424901843070984,2.0816738605499268,5.498346495419302,-0.007252857089042664,0.20650437474250793,-1.6381524244891565,-0.0,-0.006093338131904602,0.007527400739490986,0.00020694905833806843,0.06647863984107971,1.2096201181411743,-0.00016926918760873377,0.07170625030994415
319.0,578.0,-3.3697,-0.9757,9.2315,-0.058,0.0673,-0.1329,-2.2304135761656703,0.0,4.548598289489746,-1.436639428138733,0.05592086911201477,2.106067419052124,5.498330580979147,-0.003613309934735298,0.21279093623161316,-1.6381805578814905,-0.0,0.005802744533866644,0.007559848017990589,0.00016820718883536756,0.05069990083575249,1.2096641063690186,-0.00016166749992407858,0.12122371792793274
319.0,578.0,-3.3697,-0.9757,9.2315,-0.058,0.0673,-0.1329,-2.2304498157896937,0.0,4.555081844329834,-1.4362428188323975,0.058333057910203934,2.088270664215088,5.498310315399923,0.00025703583378344774,0.2033076137304306,-1.6381967703448694,-0.0,-0.006771903485059738,0.007543451152741909,0.0001313476823270321,0.07392802834510803,1.2096319198608398,-0.00013836644939146936,0.08617601543664932
319.0,578.0,-3.3697,-0.9757,9.2315,-0.058,0.0673,-0.1329,-2.230422159234518,0.0,4.543159484863281,-1.4360394477844238,0.061046816408634186,2.123263359069824,5.498338448792257,0.0005583539605140686,0.21405546367168427,-1.6381762663470667,-0.0,-0.005884386599063873,0.007551686372607946,0.00011461100802989677,0.05382828786969185,1.2096199989318848,-0.00012885274190921336,0.10909204930067062
319.0,578.0,-3.3697,-0.9757,9.2315,-0.058,0.0673,-0.1329,-2.2304378948607386,0.0,4.5439372062683105,-1.4356231689453125,0.0651065930724144,2.1431474685668945,5.498370575695791,0.00034631509333848953,0.20376121997833252,-1.63818866411318,-0.0,-0.009403410367667675,0.007543826010078192,9.622208017390221e-05,0.052662357687950134,1.2096240520477295,-0.00014235288836061954,0.1184384673833847
319.0,578.0,-3.3697,-0.9757,9.2315,-0.058,0.0673,-0.1329,-2.2304493389525355,0.0,4.535410404205322,-1.4352636337280273,0.06723936647176743,2.1418514251708984,5.498334455281057,0.00024995594867505133,0.2039661705493927,-1.638216797505514,-0.0,-0.006322118453681469,0.007563892751932144,8.29199852887541e-05,0.06129751726984978,1.2096240520477295,-0.0004044428642373532,0.08857288956642151
319.0,578.0,-3.3697,-0.9757,9.2315,-0.058,0.0673,-0.1329,-2.2304498157896937,0.0,4.509629726409912,-1.4349795579910278,0.06877029687166214,2.0848159790039062,5.498358356743612,0.00021087145432829857,0.21386675536632538,-1.6382048765765589,-0.0,-0.011411648243665695,0.007523368112742901,7.592309702886268e-05,0.058379508554935455,1.2096000909805298,-0.0006548826349899173,0.12103860080242157
319.0,578.0,-3.3697,-0.9757,9.2315,-0.058,0.0673,-0.1329,-2.2304660282530726,0.0,4.514204502105713,-1.4345192909240723,0.0735139548778534,2.122321367263794,5.498394536762991,0.00017082029080484062,0.2009957730770111,-1.6381686369525355,-0.0,-0.013662969693541527,0.0075397491455078125,6.739353557350114e-05,0.06689149141311646,1.209555983543396,-0.0011904719285666943,0.048472560942173004
319.0,578.0,-3.3697,-0.9757,9.2315,-0.058,0.0673,-0.1329,-2.2304216823973597,0.0,4.543661117553711,-1.4342399835586548,0.07646942883729935,2.119194984436035,5.498338568001547,0.00010457979806233197,0.20956003665924072,-1.6381643454181116,-0.0,-0.004770774394273758,0.007495465688407421,6.269791629165411e-05,0.06902997195720673,1.2096360921859741,-0.0010791271924972534,0.12491367757320404
