ramyac6/ROB537/final_project/csv/all/bad_29.csv
tof_0,tof_1,accelx,accely,accelz,gyrox,gyroy,gyroz,shoulder_lift_joint_position,shoulder_lift_joint_velocity,shoulder_lift_joint_effort,elbow_joint_position,elbow_joint_velocity,elbow_joint_effort,wrist_1_joint_position,wrist_1_joint_velocity,wrist_1_joint_effort,wrist_2_joint_position,wrist_2_joint_velocity,wrist_2_joint_effort,wrist_3_joint_position,wrist_3_joint_velocity,wrist_3_joint_effort,shoulder_pan_joint_position,shoulder_pan_joint_velocity,shoulder_pan_joint_effort
231.0,259.0,0.9565,-0.1633,9.4546,-0.0357,0.0298,-0.118,-1.7692786655821742,0.0,2.9003281593322754,-1.7407251596450806,-0.0,2.0720560550689697,4.946229102998533,-0.0,0.2792077660560608,-1.5009244124041956,-0.0,-0.016629479825496674,0.4908156096935272,-0.0,-0.006539775989949703,1.1850234270095825,0.0,-0.013709688559174538
231.0,259.0,0.9565,-0.1633,9.4546,-0.0357,0.0298,-0.118,-1.769282957116598,0.0,2.8883399963378906,-1.7407974004745483,-0.0,2.040454626083374,4.946204888611593,-0.0,0.2969454526901245,-1.500908676777975,-0.0,-0.022970378398895264,0.49085667729377747,-0.0,-0.00853307917714119,1.1850234270095825,0.0,-0.013599075376987457
231.0,259.0,0.9565,-0.1633,9.4546,-0.0357,0.0298,-0.118,-1.7692786655821742,0.0,2.9389214515686035,-1.7407933473587036,-0.0,2.0938873291015625,4.946173059731283,-0.0,0.27785390615463257,-1.5009811560260218,-0.0,-0.01789133995771408,0.4908566474914551,-0.0,-0.0024927689228206873,1.184971570968628,0.0,0.0024579958990216255
231.0,259.0,0.9565,-0.1633,9.4546,-0.0357,0.0298,-0.118,-1.7693225346007289,0.0,2.905975103378296,-1.7407612800598145,-0.0,2.0668601989746094,4.946237030416288,-0.0,0.28471168875694275,-1.5009449164019983,-0.0,-0.01622708886861801,0.490860253572464,-0.0,0.009238898754119873,1.185003638267517,0.0,0.018389716744422913
231.0,259.0,0.9565,-0.1633,9.4546,-0.0357,0.0298,-0.118,-1.7692905865111292,0.0,2.932182788848877,-1.7407375574111938,-0.0,2.0420310497283936,4.946221115976133,-0.0,0.27799224853515625,-1.500908676777975,-0.0,-0.014501657336950302,0.4908602237701416,-0.0,-0.009850648231804371,1.1849395036697388,0.0,-0.0015699677169322968
231.0,259.0,0.9565,-0.1633,9.4546,-0.0357,0.0298,-0.118,-1.7693268261351527,0.0,2.918403148651123,-1.7407417297363281,-0.0,2.1044082641601562,4.946184906154432,-0.0,0.2825053632259369,-1.5008605162249964,-0.0,-0.020763885229825974,0.4908282458782196,-0.0,-0.008090735413134098,1.1849875450134277,0.0,-0.005775202997028828
231.0,259.0,0.9565,-0.1633,9.4546,-0.0357,0.0298,-0.118,-1.7692862949767054,0.0,2.8847572803497314,-1.7407644987106323,-0.0,2.0411157608032227,4.946228968888082,-0.0,0.2730344831943512,-1.5009129683123987,-0.0,-0.008922509849071503,0.49079930782318115,-0.0,0.008517753332853317,1.1849875450134277,0.0,0.04539424180984497
231.0,259.0,0.9565,-0.1633,9.4546,-0.0357,0.0298,-0.118,-1.769282957116598,0.0,2.9267306327819824,-1.7407851219177246,-0.0,2.0621719360351562,4.946208882122793,-0.0,0.28002169728279114,-1.5009287039386194,-0.0,-0.013676239177584648,0.4908323585987091,-0.0,0.003939631395041943,1.1849874258041382,0.0,0.04195947200059891
231.0,259.0,0.9565,-0.1633,9.4546,-0.0357,0.0298,-0.118,-1.7692905865111292,0.0,2.89900803565979,-1.7407498359680176,-0.0,2.0970611572265625,4.946249010949888,-0.0,0.2913547456264496,-1.5009530226336878,-0.0,-0.0166337713599205,0.4908483326435089,-0.0,0.0078490125015378,1.1849554777145386,0.0,0.01159055344760418
231.0,266.0,0.8812,-0.1585,9.5868,-0.0357,0.026,-0.1171,-1.7692862949767054,0.0,2.935701370239258,-1.7407612800598145,-0.0,2.029665946960449,4.946208882122793,-0.0,0.27830642461776733,-1.5009287039386194,-0.0,-0.02674652263522148,0.4907796084880829,-0.0,-0.0004559531807899475,1.184983491897583,0.0,0.01727941632270813
231.0,266.0,0.8812,-0.1585,9.5868,-0.0357,0.026,-0.1171,-1.769294878045553,0.0,2.89804744720459,-1.7407572269439697,-0.0,2.0270721912384033,4.946200820594587,-0.0,0.2832106947898865,-1.5009568373309534,-0.0,-0.01800033077597618,0.49077194929122925,-0.0,0.0031772698275744915,1.1849794387817383,0.0,0.01863788068294525
231.0,266.0,0.8812,-0.1585,9.5868,-0.0357,0.026,-0.1171,-1.7692944012083949,0.0,2.925171136856079,-1.7407572269439697,-0.0,2.1115541458129883,4.946204888611593,-0.0,0.2819964289665222,-1.500908676777975,-0.0,-0.03205099701881409,0.49086856842041016,-0.0,0.0014102613786235452,1.1849795579910278,0.0,0.01684488169848919
231.0,266.0,0.8812,-0.1585,9.5868,-0.0357,0.026,-0.1171,-1.7692705593504847,0.0,2.938720464706421,-1.7407417297363281,-0.0,2.088655948638916,4.946184906154432,-0.0,0.29089367389678955,-1.5009129683123987,-0.0,-0.0054364511743187904,0.49081161618232727,-0.0,-0.005125788040459156,1.184963583946228,0.0,0.004737617447972298
231.0,266.0,0.8812,-0.1585,9.5868,-0.0357,0.026,-0.1171,-1.7693187199034632,0.0,2.9040894508361816,-1.7407417297363281,-0.0,2.044846534729004,4.946132990508833,-0.0,0.2661726176738739,-1.5009449164019983,-0.0,-0.023854948580265045,0.4908442497253418,-0.0,-0.00538136949762702,1.185011625289917,0.0,-0.05105020850896835
231.0,266.0,0.8812,-0.1585,9.5868,-0.0357,0.026,-0.1171,-1.76930632213735,0.0,2.9245448112487793,-1.7407974004745483,-0.0,2.0874955654144287,4.946225109487333,-0.0,0.29310399293899536,-1.5009287039386194,-0.0,-0.009781261906027794,0.4908886253833771,-0.0,0.005779273342341185,1.1849794387817383,0.0,-0.03125182166695595
231.0,266.0,0.8812,-0.1585,9.5868,-0.0357,0.026,-0.1171,-1.7692743740477503,0.0,2.9307260513305664,-1.7407530546188354,-0.0,2.0440876483917236,4.946217047959127,-0.0,0.2797999083995819,-1.5008881727801722,-0.0,-0.016100196167826653,0.49085256457328796,-0.0,0.0013849923852831125,1.1849795579910278,0.0,-0.018644079566001892
231.0,266.0,0.8812,-0.1585,9.5868,-0.0357,0.026,-0.1171,-1.7692824802794398,0.0,2.903140068054199,-1.7407292127609253,-0.0,2.0928916931152344,4.946221115976133,-0.0,0.2766825556755066,-1.500908676777975,-0.0,-0.008715784177184105,0.49080801010131836,-0.0,0.01830177754163742,1.1849753856658936,0.0,0.006144537124782801
231.0,266.0,0.8812,-0.1585,9.5868,-0.0357,0.026,-0.1171,-1.7693149052061976,0.0,2.8933911323547363,-1.7407169342041016,-0.0,2.077838659286499,4.946196841984548,-0.0,0.27283233404159546,-1.5009201208697718,-0.0,-0.02687917836010456,0.4908566474914551,-0.0,0.009324631653726101,1.1849836111068726,0.0,0.015059799887239933
231.0,266.0,0.8812,-0.1585,9.5868,-0.0357,0.026,-0.1171,-1.7692824802794398,0.0,2.907181739807129,-1.7407933473587036,-0.0,2.0507287979125977,4.946245017438688,-0.0,0.27881374955177307,-1.5009244124041956,-0.0,-0.030599534511566162,0.4908282458782196,-0.0,0.0002179127186536789,1.1849476099014282,0.0,0.015481161884963512
231.0,266.0,0.8812,-0.1585,9.5868,-0.0357,0.026,-0.1171,-1.769294878045553,0.0,2.919525623321533,-1.7407612800598145,-0.0,2.0161030292510986,4.946217092662611,-0.0,0.28523650765419006,-1.500880543385641,-0.0,-0.009235299192368984,0.4908483326435089,-0.0,-0.004162618890404701,1.1849594116210938,0.0,0.017756907269358635
231.0,266.0,0.8812,-0.1585,9.5868,-0.0357,0.026,-0.1171,-1.769250055352682,0.0,2.9600818157196045,-1.7407727241516113,-0.0,2.090930223464966,4.946164923697271,-0.0,0.2701717019081116,-1.5008962790118616,-0.0,-0.005157073959708214,0.4908156991004944,-0.0,-0.007699126377701759,1.1849753856658936,0.0,0.01936127059161663
231.0,266.0,0.8812,-0.1585,9.5868,-0.0357,0.026,-0.1171,-1.7692586384215296,0.0,2.936741352081299,-1.7407209873199463,-0.0,2.0671188831329346,4.946204843908109,-0.0,0.2893770933151245,-1.5009287039386194,-0.0,-0.025081276893615723,0.4908483326435089,-0.0,-0.00604704674333334,1.1849594116210938,0.0,-0.007929898798465729
231.0,266.0,0.8812,-0.1585,9.5868,-0.0357,0.026,-0.1171,-1.769278188745016,0.0,2.902219295501709,-1.7407046556472778,-0.0,2.0710134506225586,4.946177053242483,-0.0,0.29647114872932434,-1.5009244124041956,-0.0,-0.0036535535473376513,0.49082401394844055,-0.0,0.004865195602178574,1.1849915981292725,0.0,-0.035244617611169815
231.0,266.0,0.8812,-0.1585,9.5868,-0.0357,0.026,-0.1171,-1.769266267816061,0.0,2.9265389442443848,-1.7407572269439697,-0.0,2.0842180252075195,4.946217047959127,-0.0,0.2837570309638977,-1.500892464314596,-0.0,-0.025381799787282944,0.4908647835254669,-0.0,-0.0043322136625647545,1.1850275993347168,0.0,0.023822328075766563
231.0,266.0,0.8812,-0.1585,9.5868,-0.0357,0.026,-0.1171,-1.769266744653219,0.0,2.8967056274414062,-1.7407087087631226,-0.0,2.060765027999878,4.946188914566793,-0.0,0.28741997480392456,-1.5008962790118616,-0.0,-0.01693766936659813,0.4907595217227936,-0.0,0.01139797456562519,1.1850274801254272,0.0,-0.024066083133220673
232.0,264.0,0.9176,-0.1681,9.6365,-0.0399,0.0313,-0.1251,-1.769294878045553,0.0,2.9213638305664062,-1.7407128810882568,-0.0,2.0743465423583984,4.946204903512754,-0.0,0.2950301170349121,-1.5009244124041956,-0.0,-0.011858453042805195,0.4908483326435089,-0.0,-0.0027810942847281694,1.1849634647369385,0.0,-0.05711723119020462
232.0,264.0,0.9176,-0.1681,9.6365,-0.0399,0.0313,-0.1251,-1.769250055352682,0.0,2.9441304206848145,-1.7407612800598145,-0.0,2.059998035430908,4.9462211457784555,-0.0,0.27965041995048523,-1.5009449164019983,-0.0,-0.011430036276578903,0.4908156991004944,-0.0,0.0031286408193409443,1.184983491897583,0.0,-0.014515888877213001
232.0,264.0,0.9176,-0.1681,9.6365,-0.0399,0.0313,-0.1251,-1.7692462406554164,0.0,2.914964437484741,-1.7407612800598145,-0.0,2.068458080291748,4.946241068630972,-0.0,0.28964823484420776,-1.5008962790118616,-0.0,-0.004281028173863888,0.4908483028411865,-0.0,0.0005115621024742723,1.1849915981292725,0.0,0.0014347434043884277
232.0,264.0,0.9176,-0.1681,9.6365,-0.0399,0.0313,-0.1251,-1.7692419491209925,0.0,2.8988349437713623,-1.7407653331756592,-0.0,2.038069486618042,4.946204843908109,-0.0,0.27849775552749634,-1.5009048620807093,-0.0,-0.009289857000112534,0.4908525347709656,-0.0,-0.0025164526887238026,1.1850074529647827,0.0,0.0021289214491844177
232.0,264.0,0.9176,-0.1681,9.6365,-0.0399,0.0313,-0.1251,-1.7693149052061976,0.0,2.891925573348999,-1.7407498359680176,-0.0,2.035004138946533,4.9461808679397485,-0.0,0.28770357370376587,-1.5009492079364222,-0.0,-0.010991577059030533,0.4908566176891327,-0.0,0.002836118917912245,1.1849713325500488,0.0,-0.0032182789873331785
232.0,264.0,0.9176,-0.1681,9.6365,-0.0399,0.0313,-0.1251,-1.7692905865111292,0.0,2.9446682929992676,-1.7407490015029907,-0.0,2.0306739807128906,4.9461611090000055,-0.0,0.2893216013908386,-1.5009172598468226,-0.0,-0.014592522755265236,0.4908156991004944,-0.0,0.008926589041948318,1.1849435567855835,0.0,0.009627852588891983
232.0,264.0,0.9176,-0.1681,9.6365,-0.0399,0.0313,-0.1251,-1.7693225346007289,0.0,2.898481845855713,-1.7407572269439697,-0.0,2.039315700531006,4.946188959270277,-0.0,0.27417492866516113,-1.5009129683123987,-0.0,-0.03243442252278328,0.49083614349365234,-0.0,0.0015000638086348772,1.1849753856658936,0.0,0.0073318793438375
232.0,264.0,0.9176,-0.1681,9.6365,-0.0399,0.0313,-0.1251,-1.769294878045553,0.0,2.9231810569763184,-1.740785002708435,-0.0,2.0463478565216064,4.946196976094999,-0.0,0.28926709294319153,-1.5009163061725062,-0.0,-0.024282798171043396,0.4908161759376526,-0.0,-0.0211285799741745,1.1849956512451172,0.0,-0.04711494594812393
232.0,264.0,0.9176,-0.1681,9.6365,-0.0399,0.0313,-0.1251,-1.7692824802794398,0.0,2.886486053466797,-1.7407498359680176,-0.0,2.030456066131592,4.946181046753683,-0.0,0.2863502502441406,-1.5009244124041956,-0.0,-0.017780333757400513,0.4908401668071747,-0.0,-0.0050612459890544415,1.185019612312317,0.0,-0.016706500202417374
232.0,264.0,0.9176,-0.1681,9.6365,-0.0399,0.0313,-0.1251,-1.7692862949767054,0.0,2.9296677112579346,-1.7407727241516113,-0.0,2.117755889892578,4.946177038341322,-0.0,0.2916317880153656,-1.500932518635885,-0.0,-0.023134533315896988,0.49082401394844055,-0.0,-0.01673760637640953,1.1850035190582275,0.0,0.013236671686172485
232.0,264.0,0.9176,-0.1681,9.6365,-0.0399,0.0313,-0.1251,-1.7693187199034632,0.0,2.8855576515197754,-1.7407572269439697,-0.0,2.0187926292419434,4.946229147702017,-0.0,0.28141531348228455,-1.5009129683123987,-0.0,-0.011467942968010902,0.4908561408519745,-0.0,-0.004902663640677929,1.1849713325500488,0.0,-0.015666062012314796
232.0,264.0,0.9176,-0.1681,9.6365,-0.0399,0.0313,-0.1251,-1.769250055352682,0.0,2.9412436485290527,-1.740708827972412,-0.0,2.0566532611846924,4.9462370602186105,-0.0,0.27523353695869446,-1.5009411017047327,-0.0,-0.023230010643601418,0.49080389738082886,-0.0,-0.011538700200617313,1.1850074529647827,0.0,-0.006793756037950516
232.0,264.0,0.9176,-0.1681,9.6365,-0.0399,0.0313,-0.1251,-1.7692586384215296,0.0,2.9070072174072266,-1.7407808303833008,-0.0,2.0965192317962646,4.946241068630972,-0.0,0.2860974073410034,-1.5009287039386194,-0.0,-0.02030486986041069,0.4908282458782196,-0.0,-0.011042173951864243,1.185023546218872,0.0,0.030269645154476166
232.0,264.0,0.9176,-0.1681,9.6365,-0.0399,0.0313,-0.1251,-1.7692905865111292,0.0,2.9445149898529053,-1.7407251596450806,-0.0,2.080319881439209,4.946188959270277,-0.0,0.2826606035232544,-1.500908676777975,-0.0,-0.017367176711559296,0.4907996952533722,-0.0,0.0041097234934568405,1.1849514245986938,0.0,-0.06147501990199089
232.0,264.0,0.9176,-0.1681,9.6365,-0.0399,0.0313,-0.1251,-1.7692862949767054,0.0,2.9134092330932617,-1.7407889366149902,-0.0,2.0482475757598877,4.946200805693426,-0.0,0.28096625208854675,-1.5009172598468226,-0.0,-0.018775124102830887,0.49080392718315125,-0.0,0.0008603930473327637,1.1849476099014282,0.0,0.02275746501982212
232.0,264.0,0.9176,-0.1681,9.6365,-0.0399,0.0313,-0.1251,-1.7692862949767054,0.0,2.9060897827148438,-1.7407498359680176,-0.0,2.0511584281921387,4.946196976094999,-0.0,0.27581778168678284,-1.5009368101703089,-0.0,-0.016327347606420517,0.4908406436443329,-0.0,0.003521630773320794,1.1849994659423828,0.0,0.01689298264682293
232.0,264.0,0.9176,-0.1681,9.6365,-0.0399,0.0313,-0.1251,-1.7693435154356898,0.0,2.922154664993286,-1.7408334016799927,-0.0,2.0784811973571777,4.946221130877294,-0.0,0.27922165393829346,-1.500880543385641,-0.0,-0.013664064928889275,0.49083656072616577,-0.0,-0.011113356798887253,1.1850438117980957,0.0,-0.0022252490743994713
234.0,258.0,0.9362,-0.137,9.4672,-0.0399,0.0226,-0.118,-1.7692905865111292,0.0,2.887885093688965,-1.7407808303833008,-0.0,2.0259032249450684,4.9462251392896555,-0.0,0.2910776436328888,-1.5009854475604456,-0.0,-0.027756867930293083,0.49083659052848816,-0.0,-0.0040763369761407375,1.1849794387817383,0.0,0.014798272401094437
234.0,258.0,0.9362,-0.137,9.4672,-0.0399,0.0226,-0.118,-1.7692982159056605,0.0,2.9114151000976562,-1.7407056093215942,-0.0,2.0592689514160156,4.946209031134405,-0.0,0.2938036322593689,-1.5009005705462855,-0.0,-0.030540063977241516,0.4908442497253418,-0.0,-0.0033463670406490564,1.1850274801254272,0.0,-0.03444619104266167
234.0,258.0,0.9362,-0.137,9.4672,-0.0399,0.0226,-0.118,-1.7693225346007289,0.0,2.9021854400634766,-1.740725040435791,-0.0,2.0802063941955566,4.9461808679397485,-0.0,0.28901058435440063,-1.5009687582599085,-0.0,-0.006749735679477453,0.4908241629600525,-0.0,-0.0018623759970068932,1.1849476099014282,0.0,-0.019350524991750717
234.0,258.0,0.9362,-0.137,9.4672,-0.0399,0.0226,-0.118,-1.7692905865111292,0.0,2.910637855529785,-1.740805745124817,-0.0,2.041961669921875,4.946164938598432,-0.0,0.28805822134017944,-1.500932518635885,-0.0,-0.031130321323871613,0.49083656072616577,-0.0,0.011363057419657707,1.1849355697631836,0.0,0.04603034630417824
234.0,258.0,0.9362,-0.137,9.4672,-0.0399,0.0226,-0.118,-1.769266744653219,0.0,2.887174606323242,-1.7407933473587036,-0.0,2.051602840423584,4.946213039546766,-0.0,0.29426851868629456,-1.5009406248675745,-0.0,-0.019348766654729843,0.49080798029899597,-0.0,-0.002868292387574911,1.1850155591964722,0.0,-0.04855121672153473
234.0,258.0,0.9362,-0.137,9.4672,-0.0399,0.0226,-0.118,-1.7692862949767054,0.0,2.935314178466797,-1.7407974004745483,-0.0,2.0600767135620117,4.946232977300443,-0.0,0.27255719900131226,-1.5009368101703089,-0.0,-0.02330133691430092,0.490828275680542,-0.0,0.002339285099878907,1.185011625289917,0.0,-0.017699258401989937
234.0,258.0,0.9362,-0.137,9.4672,-0.0399,0.0226,-0.118,-1.7692905865111292,0.0,2.915435552597046,-1.7407457828521729,-0.0,2.095010757446289,4.946221130877294,-0.0,0.28807252645492554,-1.5009005705462855,-0.0,-0.013955876231193542,0.4908643066883087,-0.0,0.006244780030101538,1.1849794387817383,0.0,0.001188486348837614
234.0,258.0,0.9362,-0.137,9.4672,-0.0399,0.0226,-0.118,-1.7693225346007289,0.0,2.969412326812744,-1.7407572269439697,-0.0,2.019680976867676,4.946196976094999,-0.0,0.2801169157028198,-1.5009287039386194,-0.0,-0.016821004450321198,0.49083656072616577,-0.0,-0.0018496064003556967,1.1849833726882935,0.0,-0.013725612312555313
234.0,258.0,0.9362,-0.137,9.4672,-0.0399,0.0226,-0.118,-1.7692543468871058,0.0,2.9090487957000732,-1.7408015727996826,-0.0,2.0970280170440674,4.946188959270277,-0.0,0.2971932888031006,-1.5009287039386194,-0.0,-0.021573273465037346,0.49085620045661926,-0.0,-0.00205484707839787,1.1849794387817383,0.0,0.02302846498787403
234.0,258.0,0.9362,-0.137,9.4672,-0.0399,0.0226,-0.118,-1.7692905865111292,0.0,2.9264228343963623,-1.7407933473587036,-0.0,2.064970016479492,4.946208897023954,-0.0,0.29360467195510864,-1.5009172598468226,-0.0,-0.022791631519794464,0.4908156991004944,-0.0,0.0002975754323415458,1.1850075721740723,0.0,0.03709351643919945
234.0,258.0,0.9362,-0.137,9.4672,-0.0399,0.0226,-0.118,-1.769278188745016,0.0,2.896845817565918,-1.740829348564148,-0.0,2.067885398864746,4.946241068630972,-0.0,0.2768089175224304,-1.5009411017047327,-0.0,-0.019178243353962898,0.4908283054828644,-0.0,0.0029848720878362656,1.1849794387817383,0.0,0.0006708437576889992
234.0,258.0,0.9362,-0.137,9.4672,-0.0399,0.0226,-0.118,-1.769261976281637,0.0,2.9252660274505615,-1.7407498359680176,-0.0,2.0232200622558594,4.946173029928961,-0.0,0.26920032501220703,-1.5009287039386194,-0.0,-0.029406871646642685,0.4907996952533722,-0.0,-0.00858679786324501,1.1850075721740723,0.0,0.040390342473983765
234.0,258.0,0.9362,-0.137,9.4672,-0.0399,0.0226,-0.118,-1.7693311176695765,0.0,2.9605278968811035,-1.7407727241516113,-0.0,2.0465898513793945,4.946208897023954,-0.0,0.27696073055267334,-1.5009411017047327,-0.0,-0.018436312675476074,0.49081993103027344,-0.0,0.0020354019943624735,1.1849713325500488,0.0,0.0264243483543396
234.0,258.0,0.9362,-0.137,9.4672,-0.0399,0.0226,-0.118,-1.7693306408324183,0.0,2.962982654571533,-1.7407727241516113,-0.0,2.0710253715515137,4.9461651025112054,-0.0,0.288709431886673,-1.5009449164019983,-0.0,-0.014613166451454163,0.49078747630119324,-0.0,-0.004912350792437792,1.1850316524505615,0.0,-0.015302416868507862
234.0,258.0,0.9362,-0.137,9.4672,-0.0399,0.0226,-0.118,-1.7692743740477503,0.0,2.9045228958129883,-1.740813136100769,-0.0,2.0953681468963623,4.946185040264883,-0.0,0.27156344056129456,-1.5009368101703089,-0.0,-0.014360661618411541,0.4908323287963867,-0.0,0.004130253102630377,1.1850035190582275,0.0,0.053226303309202194
234.0,258.0,0.9362,-0.137,9.4672,-0.0399,0.0226,-0.118,-1.7693025074400843,0.0,2.9397449493408203,-1.7407375574111938,-0.0,2.044137954711914,4.9461571154888055,-0.0,0.2820478677749634,-1.500908676777975,-0.0,-0.0011346174869686365,0.49081161618232727,-0.0,0.003425849601626396,1.1849594116210938,0.0,-0.028468402102589607
234.0,258.0,0.9362,-0.137,9.4672,-0.0399,0.0226,-0.118,-1.7692738972105921,0.0,2.927581787109375,-1.7407498359680176,-0.0,2.0951621532440186,4.94624491313056,-0.0,0.28691336512565613,-1.5009048620807093,-0.0,-0.0199188981205225,0.4908156991004944,-0.0,-0.014073801226913929,1.185011625289917,0.0,0.0007173297926783562
235.0,258.0,0.883,-0.1364,9.4875,-0.0379,0.0249,-0.1194,-1.7692586384215296,0.0,2.8916046619415283,-1.7407251596450806,-0.0,2.073742389678955,4.946229132800855,-0.0,0.2793101966381073,-1.500908676777975,-0.0,-0.01825149916112423,0.4907996952533722,-0.0,-0.003001288278028369,1.1849956512451172,0.0,-0.006258859299123287
235.0,258.0,0.883,-0.1364,9.4875,-0.0379,0.0249,-0.1194,-1.7692824802794398,0.0,2.878415584564209,-1.7407653331756592,-0.0,2.089355945587158,4.946225169091978,-0.0,0.28984466195106506,-1.5009129683123987,-0.0,-0.03149644657969475,0.49079152941703796,-0.0,0.000640372047200799,1.1849794387817383,0.0,-0.004790922626852989
235.0,258.0,0.883,-0.1364,9.4875,-0.0379,0.0249,-0.1194,-1.7692786655821742,0.0,2.9004039764404297,-1.7407251596450806,-0.0,2.066540479660034,4.946245136647978,-0.0,0.27596187591552734,-1.5009530226336878,-0.0,-0.027642350643873215,0.4908566176891327,-0.0,0.00659999018535018,1.1849794387817383,0.0,-0.05068555846810341
235.0,258.0,0.883,-0.1364,9.4875,-0.0379,0.0249,-0.1194,-1.7692743740477503,0.0,2.878445625305176,-1.7407335042953491,-0.0,2.0697970390319824,4.9461770234401605,-0.0,0.2895241379737854,-1.5009287039386194,-0.0,-0.021140778437256813,0.49081161618232727,-0.0,-0.014757022261619568,1.1849713325500488,0.0,-0.0332556776702404
235.0,258.0,0.883,-0.1364,9.4875,-0.0379,0.0249,-0.1194,-1.7692419491209925,0.0,2.935291051864624,-1.7407974004745483,-0.0,2.08048677444458,4.946209016233244,-0.0,0.2932184934616089,-1.5009129683123987,-0.0,-0.007071023806929588,0.49080392718315125,-0.0,0.010874848812818527,1.184983491897583,0.0,-0.0028383946046233177
235.0,258.0,0.883,-0.1364,9.4875,-0.0379,0.0249,-0.1194,-1.7692543468871058,0.0,2.91072416305542,-1.7407211065292358,-0.0,2.0489351749420166,4.94621707776145,-0.0,0.2870202958583832,-1.5009368101703089,-0.0,-0.017729930579662323,0.4907996952533722,-0.0,0.0023744171485304832,1.1849753856658936,0.0,0.027981096878647804
235.0,258.0,0.883,-0.1364,9.4875,-0.0379,0.0249,-0.1194,-1.7693067989745082,0.0,2.8755061626434326,-1.7407530546188354,-0.0,2.0435855388641357,4.946245121746816,-0.0,0.28320300579071045,-1.5009129683123987,-0.0,-0.026731960475444794,0.4908156991004944,-0.0,0.00047238264232873917,1.1849713325500488,0.0,-0.007268450688570738
235.0,258.0,0.883,-0.1364,9.4875,-0.0379,0.0249,-0.1194,-1.7693025074400843,0.0,2.921734094619751,-1.7407530546188354,-0.0,2.099756956100464,4.946188944369116,-0.0,0.2854916453361511,-1.5009201208697718,-0.0,-0.02633802220225334,0.4908120930194855,-0.0,-0.0011682439362630248,1.1849956512451172,0.0,0.017275001853704453
235.0,258.0,0.883,-0.1364,9.4875,-0.0379,0.0249,-0.1194,-1.7693311176695765,0.0,2.8955111503601074,-1.740768551826477,-0.0,2.0356028079986572,4.946184846549787,-0.0,0.27785205841064453,-1.5009244124041956,-0.0,-0.0231931172311306,0.49086859822273254,-0.0,-0.007014814764261246,1.1850035190582275,0.0,0.03448043018579483
235.0,258.0,0.883,-0.1364,9.4875,-0.0379,0.0249,-0.1194,-1.7692705593504847,0.0,2.919177532196045,-1.740785002708435,-0.0,2.038327217102051,4.946184846549787,-0.0,0.26657795906066895,-1.5009129683123987,-0.0,-0.024088161066174507,0.4908241629600525,-0.0,-0.0034468802623450756,1.1849515438079834,0.0,-0.06365640461444855
235.0,258.0,0.883,-0.1364,9.4875,-0.0379,0.0249,-0.1194,-1.7693225346007289,0.0,2.958641529083252,-1.74073326587677,-0.0,2.0799355506896973,4.946200790792265,-0.0,0.27221500873565674,-1.5009368101703089,-0.0,-0.012022392824292183,0.49077552556991577,-0.0,-0.00853748805820942,1.1850234270095825,0.0,0.0007987162098288536
235.0,258.0,0.883,-0.1364,9.4875,-0.0379,0.0249,-0.1194,-1.7693101368346156,0.0,2.9014604091644287,-1.7407727241516113,-0.0,2.0250182151794434,4.946208911925115,-0.0,0.2853074073791504,-1.5009287039386194,-0.0,-0.016965199261903763,0.4908926486968994,-0.0,-0.008826326578855515,1.1849913597106934,0.0,-0.04301876202225685
235.0,258.0,0.883,-0.1364,9.4875,-0.0379,0.0249,-0.1194,-1.7692543468871058,0.0,2.890068531036377,-1.7407457828521729,-0.0,2.0760459899902344,4.946217047959127,-0.0,0.2997114062309265,-1.5009449164019983,-0.0,-0.012969305738806725,0.4907837212085724,-0.0,-0.006615347694605589,1.1849395036697388,0.0,-0.04551643505692482
235.0,258.0,0.883,-0.1364,9.4875,-0.0379,0.0249,-0.1194,-1.7693067989745082,0.0,2.8872385025024414,-1.7407572269439697,-0.0,2.059060573577881,4.946232992201605,-0.0,0.264484703540802,-1.5009172598468226,-0.0,-0.023304037749767303,0.4907960295677185,-0.0,-0.001036990899592638,1.184983491897583,0.0,0.009553056210279465
235.0,258.0,0.883,-0.1364,9.4875,-0.0379,0.0249,-0.1194,-1.7692824802794398,0.0,2.874721050262451,-1.7407417297363281,-0.0,2.113637685775757,4.946196767478742,-0.0,0.28539639711380005,-1.5008881727801722,-0.0,-0.026144947856664658,0.4907596707344055,-0.0,0.008714880794286728,1.1849713325500488,0.0,0.004599681589752436
235.0,258.0,0.883,-0.1364,9.4875,-0.0379,0.0249,-0.1194,-1.7692905865111292,0.0,2.919750690460205,-1.740776777267456,-0.0,2.040555953979492,4.946196767478742,-0.0,0.282126247882843,-1.5009129683123987,-0.0,-0.0237388014793396,0.49086856842041016,-0.0,0.0009917644783854485,1.1849794387817383,0.0,-0.01158418320119381
235.0,258.0,0.883,-0.1364,9.4875,-0.0379,0.0249,-0.1194,-1.7693349323668421,0.0,2.900785446166992,-1.740785002708435,-0.0,2.0865461826324463,4.946232992201605,-0.0,0.29605716466903687,-1.5009411017047327,-0.0,-0.025127433240413666,0.49079200625419617,-0.0,-0.0031200868543237448,1.1849435567855835,0.0,-0.029899962246418
231.0,255.0,0.8919,-0.149,9.5342,-0.0354,0.0205,-0.1232,-1.769250055352682,0.0,2.945096731185913,-1.74073326587677,-0.0,2.079512596130371,4.946188944369116,-0.0,0.29342055320739746,-1.500908676777975,-0.0,-0.009276000782847404,0.4908447563648224,-0.0,0.011727461591362953,1.1849673986434937,0.0,-0.005013058427721262
231.0,255.0,0.8919,-0.149,9.5342,-0.0354,0.0205,-0.1232,-1.7693025074400843,0.0,2.9572196006774902,-1.7407695055007935,-0.0,2.072887420654297,4.946268963604727,-0.0,0.27016180753707886,-1.5009163061725062,-0.0,-0.015408089384436607,0.4908442795276642,-0.0,0.0002882580738514662,1.1849794387817383,0.0,-0.01575363241136074
231.0,255.0,0.8919,-0.149,9.5342,-0.0354,0.0205,-0.1232,-1.7693067989745082,0.0,2.876443862915039,-1.7407644987106323,-0.0,2.0238823890686035,4.946192967682638,-0.0,0.2874155044555664,-1.500932518635885,-0.0,-0.01763199456036091,0.49081164598464966,-0.0,-0.0027037551626563072,1.1849875450134277,0.0,-0.030068421736359596
231.0,255.0,0.8919,-0.149,9.5342,-0.0354,0.0205,-0.1232,-1.7692743740477503,0.0,2.930051326751709,-1.7407540082931519,-0.0,2.0532994270324707,4.946192967682638,-0.0,0.2740684747695923,-1.500932518635885,-0.0,-0.008024286478757858,0.4908159375190735,-0.0,0.007020053453743458,1.1850074529647827,0.0,-0.031638193875551224
231.0,255.0,0.8919,-0.149,9.5342,-0.0354,0.0205,-0.1232,-1.7692905865111292,0.0,2.9004271030426025,-1.7407572269439697,-0.0,2.096457004547119,4.946200790792265,-0.0,0.2921672463417053,-1.5009201208697718,-0.0,-0.014323385432362556,0.49082809686660767,-0.0,0.004308457486331463,1.1849956512451172,0.0,-0.013107492588460445
231.0,255.0,0.8919,-0.149,9.5342,-0.0354,0.0205,-0.1232,-1.769351144830221,0.0,2.918429374694824,-1.7407695055007935,-0.0,2.070744037628174,4.9461770234401605,-0.0,0.27933433651924133,-1.5009244124041956,-0.0,-0.016112249344587326,0.49081191420555115,-0.0,-0.007943082600831985,1.1849833726882935,0.0,0.05634980648756027
231.0,255.0,0.8919,-0.149,9.5342,-0.0354,0.0205,-0.1232,-1.7693067989745082,0.0,2.9394874572753906,-1.7408015727996826,-0.0,2.0729899406433105,4.946232992201605,-0.0,0.28855064511299133,-1.5009287039386194,-0.0,-0.022526536136865616,0.4908323287963867,-0.0,0.00893142819404602,1.1849794387817383,0.0,0.0064155529253184795
231.0,255.0,0.8919,-0.149,9.5342,-0.0354,0.0205,-0.1232,-1.769278188745016,0.0,2.929452419281006,-1.740768551826477,-0.0,2.1169347763061523,4.946245121746816,-0.0,0.2756943702697754,-1.5009568373309534,-0.0,-0.023401573300361633,0.4909008741378784,-0.0,-0.0007489952258765697,1.1849753856658936,0.0,0.020933547988533974
231.0,255.0,0.8919,-0.149,9.5342,-0.0354,0.0205,-0.1232,-1.7692905865111292,0.0,2.917879819869995,-1.740785002708435,-0.0,2.079361915588379,4.946241098433294,-0.0,0.28380846977233887,-1.5009129683123987,-0.0,-0.012197151780128479,0.49087265133857727,-0.0,0.005509807728230953,1.1850355863571167,0.0,0.01498784776777029
231.0,255.0,0.8919,-0.149,9.5342,-0.0354,0.0205,-0.1232,-1.7692624531187953,0.0,2.9351019859313965,-1.7407612800598145,-0.0,2.062105178833008,4.9461848614509485,-0.0,0.28899940848350525,-1.500892464314596,-0.0,-0.01315254159271717,0.49075955152511597,-0.0,-0.005766982212662697,1.1849957704544067,0.0,-0.019580824300646782
231.0,255.0,0.8919,-0.149,9.5342,-0.0354,0.0205,-0.1232,-1.7692705593504847,0.0,2.90575909614563,-1.7407251596450806,-0.0,2.0961921215057373,4.946245121746816,-0.0,0.2792275547981262,-1.500932518635885,-0.0,-0.021586474031209946,0.4908241629600525,-0.0,-0.004710160195827484,1.1849113702774048,0.0,0.032062724232673645
231.0,255.0,0.8919,-0.149,9.5342,-0.0354,0.0205,-0.1232,-1.7692986927428187,0.0,2.93119215965271,-1.74073326587677,-0.0,2.0973877906799316,4.946268963604727,-0.0,0.2710314989089966,-1.5008843580829065,-0.0,-0.02063175104558468,0.49086856842041016,-0.0,0.0006109951063990593,1.1849753856658936,0.0,-0.014116613194346428
231.0,255.0,0.8919,-0.149,9.5342,-0.0354,0.0205,-0.1232,-1.769282957116598,0.0,2.8992838859558105,-1.7407808303833008,-0.0,2.0613934993743896,4.946229028492727,-0.0,0.27092108130455017,-1.5009244124041956,-0.0,-0.020976342260837555,0.4908886253833771,-0.0,-0.0002720709308050573,1.1849915981292725,0.0,-0.022136112675070763
231.0,255.0,0.8919,-0.149,9.5342,-0.0354,0.0205,-0.1232,-1.7693349323668421,0.0,2.915231227874756,-1.740776777267456,-0.0,2.09682559967041,4.946177008538999,-0.0,0.2862042188644409,-1.500892464314596,-0.0,-0.013555273413658142,0.49088457226753235,-0.0,-0.009482445195317268,1.1849794387817383,0.0,-0.00638253428041935
231.0,255.0,0.8919,-0.149,9.5342,-0.0354,0.0205,-0.1232,-1.7692862949767054,0.0,2.9363760948181152,-1.7407375574111938,-0.0,2.034644603729248,4.9461929378803156,-0.0,0.2898626923561096,-1.5009172598468226,-0.0,-0.016016431152820587,0.4908442497253418,-0.0,-0.005211987998336554,1.1849956512451172,0.0,0.0035591628402471542
231.0,255.0,0.8919,-0.149,9.5342,-0.0354,0.0205,-0.1232,-1.7692824802794398,0.0,2.8948652744293213,-1.7407457828521729,-0.0,2.053433656692505,4.946204873710432,-0.0,0.287519246339798,-1.5009005705462855,-0.0,-0.026625623926520348,0.49079152941703796,-0.0,-0.0038215555250644684,1.184963583946228,0.0,-0.015788346529006958
237.0,258.0,0.9105,-0.1376,9.4696,-0.0367,0.0209,-0.1203,-1.769250055352682,0.0,2.9364829063415527,-1.740776777267456,-0.0,2.00756573677063,4.946192952781477,-0.0,0.28867703676223755,-1.500932518635885,-0.0,-0.02289578504860401,0.4907996952533722,-0.0,0.005454385653138161,1.1850075721740723,0.0,-0.004283800255507231
237.0,258.0,0.9105,-0.1376,9.4696,-0.0367,0.0209,-0.1203,-1.7692824802794398,0.0,2.939863920211792,-1.7407530546188354,-0.0,2.132053852081299,4.9462251988943,-0.0,0.29284989833831787,-1.5009172598468226,-0.0,-0.01971479132771492,0.4908079504966736,-0.0,-0.007764048408716917,1.185011625289917,0.0,0.055674344301223755
237.0,258.0,0.9105,-0.1376,9.4696,-0.0367,0.0209,-0.1203,-1.7692982159056605,0.0,2.9060282707214355,-1.7407540082931519,-0.0,2.088779926300049,4.946221115976133,-0.0,0.2872178554534912,-1.5009449164019983,-0.0,-0.02029242180287838,0.490860253572464,-0.0,-0.004359359387308359,1.1849673986434937,0.0,-0.021131640300154686
237.0,258.0,0.9105,-0.1376,9.4696,-0.0367,0.0209,-0.1203,-1.7693187199034632,0.0,2.9178552627563477,-1.7407653331756592,-0.0,2.028172016143799,4.946184846549787,-0.0,0.29087963700294495,-1.5008962790118616,-0.0,-0.02603047713637352,0.4907996952533722,-0.0,0.0035257271956652403,1.1849794387817383,0.0,-0.07587458193302155
237.0,258.0,0.9105,-0.1376,9.4696,-0.0367,0.0209,-0.1203,-1.7692543468871058,0.0,2.9194726943969727,-1.740776777267456,-0.0,2.0774288177490234,4.946237075119772,-0.0,0.27609318494796753,-1.5009244124041956,-0.0,-0.02232486754655838,0.4908483326435089,-0.0,-0.0009860172867774963,1.1849476099014282,0.0,-0.00976599007844925
237.0,258.0,0.9105,-0.1376,9.4696,-0.0367,0.0209,-0.1203,-1.769233842889303,0.0,2.9006056785583496,-1.7407808303833008,-0.0,2.0799036026000977,4.946184831648626,-0.0,0.27950072288513184,-1.5009411017047327,-0.0,-0.019679084420204163,0.49083656072616577,-0.0,0.007038154639303684,1.184983491897583,0.0,0.0010327723575755954
237.0,258.0,0.9105,-0.1376,9.4696,-0.0367,0.0209,-0.1203,-1.769278188745016,0.0,2.9103145599365234,-1.7407046556472778,-0.0,2.070760726928711,4.94626900830821,-0.0,0.2796076536178589,-1.5009568373309534,-0.0,-0.014163345098495483,0.4908566474914551,-0.0,-0.007930455729365349,1.1849915981292725,0.0,-0.0764581710100174
237.0,258.0,0.9105,-0.1376,9.4696,-0.0367,0.0209,-0.1203,-1.7692982159056605,0.0,2.9541430473327637,-1.7407890558242798,-0.0,2.009239912033081,4.946217047959127,-0.0,0.2839764356613159,-1.500932518635885,-0.0,-0.01383109949529171,0.49084070324897766,-0.0,0.0004902086220681667,1.1849594116210938,0.0,0.008161148056387901
237.0,258.0,0.9105,-0.1376,9.4696,-0.0367,0.0209,-0.1203,-1.7692986927428187,0.0,2.9433987140655518,-1.7407644987106323,-0.0,2.084669589996338,4.946212950139799,-0.0,0.29210200905799866,-1.500908676777975,-0.0,-0.007445960771292448,0.4908282458782196,-0.0,0.0033089020289480686,1.1849794387817383,0.0,-0.040480148047208786
237.0,258.0,0.9105,-0.1376,9.4696,-0.0367,0.0209,-0.1203,-1.7693225346007289,0.0,2.90375018119812,-1.7407572269439697,-0.0,2.0938005447387695,4.946225183993139,-0.0,0.285849392414093,-1.5008843580829065,-0.0,-0.018689943477511406,0.4908442199230194,-0.0,0.0037571308203041553,1.1849794387817383,0.0,0.010770737193524837
237.0,258.0,0.9105,-0.1376,9.4696,-0.0367,0.0209,-0.1203,-1.7692705593504847,0.0,2.895761728286743,-1.7407653331756592,-0.0,2.016108751296997,4.946196752577581,-0.0,0.27888038754463196,-1.500892464314596,-0.0,-0.014847938902676105,0.49080750346183777,-0.0,0.0028724183794111013,1.1850035190582275,0.0,0.06333128362894058
237.0,258.0,0.9105,-0.1376,9.4696,-0.0367,0.0209,-0.1203,-1.7693067989745082,0.0,2.929609775543213,-1.7407727241516113,-0.0,2.0479650497436523,4.946212950139799,-0.0,0.27627789974212646,-1.500932518635885,-0.0,-0.009693928062915802,0.490775465965271,-0.0,-0.0021373170893639326,1.1849356889724731,0.0,-0.022249935194849968
237.0,258.0,0.9105,-0.1376,9.4696,-0.0367,0.0209,-0.1203,-1.769294878045553,0.0,2.9484200477600098,-1.7407572269439697,-0.0,2.0706000328063965,4.946237104922094,-0.0,0.2812434434890747,-1.5009368101703089,-0.0,-0.01648571528494358,0.4908406436443329,-0.0,-0.007553711999207735,1.1850155591964722,0.0,-0.04820702224969864
237.0,258.0,0.9105,-0.1376,9.4696,-0.0367,0.0209,-0.1203,-1.7693225346007289,0.0,2.880064010620117,-1.7407572269439697,-0.0,2.0422747135162354,4.946221130877294,-0.0,0.29755282402038574,-1.5008962790118616,-0.0,-0.03443976864218712,0.49086856842041016,-0.0,0.0010490840068086982,1.1849675178527832,0.0,-0.033286694437265396
237.0,258.0,0.9105,-0.1376,9.4696,-0.0367,0.0209,-0.1203,-1.7692905865111292,0.0,2.9148154258728027,-1.740776777267456,-0.0,2.056152820587158,4.946196752577581,-0.0,0.2887883186340332,-1.500908676777975,-0.0,-0.013202196918427944,0.49085211753845215,-0.0,-0.00971478782594204,1.1849594116210938,0.0,0.005404323805123568
237.0,258.0,0.9105,-0.1376,9.4696,-0.0367,0.0209,-0.1203,-1.7692905865111292,0.0,2.860884189605713,-1.7407209873199463,-0.0,2.0880372524261475,4.946237104922094,-0.0,0.2714340090751648,-1.5009172598468226,-0.0,-0.009230803698301315,0.4908442497253418,-0.0,0.0010202478151768446,1.1850274801254272,0.0,0.010344833135604858
237.0,258.0,0.9105,-0.1376,9.4696,-0.0367,0.0209,-0.1203,-1.769271036187643,0.0,2.8812055587768555,-1.7407727241516113,-0.0,2.0443620681762695,4.946204888611593,-0.0,0.2791496217250824,-1.5008929411517542,-0.0,-0.022150414064526558,0.4908282458782196,-0.0,0.007894073612987995,1.1849713325500488,0.0,-0.04714937508106232
233.0,250.0,0.9218,-0.1304,9.3296,-0.0305,0.0264,-0.1217,-1.7693106136717738,0.0,2.988166332244873,-1.7407530546188354,-0.0,2.0485968589782715,4.9461770234401605,-0.0,0.2980143427848816,-1.5009287039386194,-0.0,-0.019029218703508377,0.49084794521331787,-0.0,0.006837520748376846,1.1849472522735596,0.0,-0.02564503811299801
233.0,250.0,0.9218,-0.1304,9.3296,-0.0305,0.0264,-0.1217,-1.7692743740477503,0.0,2.9521710872650146,-1.7407375574111938,-0.0,2.034209728240967,4.9461770234401605,-0.0,0.2761920094490051,-1.5009492079364222,-0.0,-0.018550289794802666,0.4908442497253418,-0.0,-0.00035704264882951975,1.1849476099014282,0.0,0.008915472775697708
233.0,250.0,0.9218,-0.1304,9.3296,-0.0305,0.0264,-0.1217,-1.7692944012083949,0.0,2.917933225631714,-1.7407727241516113,-0.0,2.090045928955078,4.946237104922094,-0.0,0.28787440061569214,-1.5009282271014612,-0.0,-0.021831613034009933,0.49085256457328796,-0.0,-0.004380261525511742,1.1849956512451172,0.0,-0.006749112159013748
233.0,250.0,0.9218,-0.1304,9.3296,-0.0305,0.0264,-0.1217,-1.7693187199034632,0.0,2.900404453277588,-1.740805745124817,-0.0,2.063180446624756,4.946144792228498,-0.0,0.2775871157646179,-1.5008962790118616,-0.0,-0.023037653416395187,0.4908442497253418,-0.0,-0.00836294237524271,1.1849875450134277,0.0,-0.01766628585755825
233.0,250.0,0.9218,-0.1304,9.3296,-0.0305,0.0264,-0.1217,-1.7692905865111292,0.0,2.9167473316192627,-1.7407612800598145,-0.0,2.060978412628174,4.946188944369116,-0.0,0.2913815379142761,-1.500932518635885,-0.0,-0.012432591989636421,0.49080803990364075,-0.0,-0.008194835856556892,1.1849515438079834,0.0,0.0244695246219635
233.0,250.0,0.9218,-0.1304,9.3296,-0.0305,0.0264,-0.1217,-1.7693067989745082,0.0,2.9054503440856934,-1.7407808303833008,-0.0,2.052696943283081,4.946140768914976,-0.0,0.28656327724456787,-1.5009244124041956,-0.0,-0.0082132862880826,0.4908199608325958,-0.0,-0.00113338278606534,1.1849956512451172,0.0,0.016785981133580208
233.0,250.0,0.9218,-0.1304,9.3296,-0.0305,0.0264,-0.1217,-1.7692700825133265,0.0,2.9281415939331055,-1.7407169342041016,-0.0,2.05129337310791,4.946237358241834,-0.0,0.2669787108898163,-1.5009287039386194,-0.0,-0.020157162100076675,0.49082785844802856,-0.0,0.009583848528563976,1.184971570968628,0.0,7.439404726028442e-05
233.0,250.0,0.9218,-0.1304,9.3296,-0.0305,0.0264,-0.1217,-1.7693025074400843,0.0,2.932947874069214,-1.7407612800598145,-0.0,2.034015417098999,4.946233245521345,-0.0,0.2781089246273041,-1.5008724371539515,-0.0,-0.01082034595310688,0.4908442199230194,-0.0,-0.0018509967485442758,1.1849956512451172,0.0,0.05826457962393761
233.0,250.0,0.9218,-0.1304,9.3296,-0.0305,0.0264,-0.1217,-1.7693025074400843,0.0,2.912566661834717,-1.7407808303833008,-0.0,2.020062208175659,4.946208911925115,-0.0,0.2764171361923218,-1.5008724371539515,-0.0,-0.018656982108950615,0.49081164598464966,-0.0,0.007427044212818146,1.184983491897583,0.0,0.030320564284920692
233.0,250.0,0.9218,-0.1304,9.3296,-0.0305,0.0264,-0.1217,-1.7693187199034632,0.0,2.8882083892822266,-1.7407087087631226,-0.0,2.0355467796325684,4.946221160679617,-0.0,0.3017348349094391,-1.5009287039386194,-0.0,-0.029508210718631744,0.49081987142562866,-0.0,-0.01324666477739811,1.1849836111068726,0.0,0.04485257342457771
233.0,250.0,0.9218,-0.1304,9.3296,-0.0305,0.0264,-0.1217,-1.7692743740477503,0.0,2.929556131362915,-1.7407530546188354,-0.0,2.047823667526245,4.94615292826251,-0.0,0.28538623452186584,-1.500892464314596,-0.0,-0.017065156251192093,0.49081993103027344,-0.0,-0.004257984459400177,1.184983491897583,0.0,0.01859808713197708
233.0,250.0,0.9218,-0.1304,9.3296,-0.0305,0.0264,-0.1217,-1.7692786655821742,0.0,2.918578624725342,-1.7407735586166382,-0.0,2.0488102436065674,4.946208986430921,-0.0,0.2824406623840332,-1.5009048620807093,-0.0,-0.02278151363134384,0.4908115863800049,-0.0,0.006251565646380186,1.184983491897583,0.0,-0.03266749531030655
233.0,250.0,0.9218,-0.1304,9.3296,-0.0305,0.0264,-0.1217,-1.7693187199034632,0.0,2.8939366340637207,-1.740776777267456,-0.0,2.1056549549102783,4.946204888611593,-0.0,0.28335994482040405,-1.500908676777975,-0.0,-0.019733715802431107,0.4908156394958496,-0.0,-0.0024965929333120584,1.184999704360962,0.0,0.003897411748766899
233.0,250.0,0.9218,-0.1304,9.3296,-0.0305,0.0264,-0.1217,-1.7693187199034632,0.0,2.909079074859619,-1.7407375574111938,-0.0,2.072174072265625,4.9461688725049875,-0.0,0.2759237587451935,-1.5009244124041956,-0.0,-0.017344031482934952,0.49081990122795105,-0.0,-0.007379057351499796,1.1849594116210938,0.0,-0.005775018595159054
233.0,250.0,0.9218,-0.1304,9.3296,-0.0305,0.0264,-0.1217,-1.7692905865111292,0.0,2.898625612258911,-1.7408015727996826,-0.0,2.112539291381836,4.946208911925115,-0.0,0.28369876742362976,-1.5009287039386194,-0.0,-0.015663204714655876,0.4908607602119446,-0.0,-0.01309643592685461,1.185011625289917,0.0,-0.018343482166528702
233.0,250.0,0.9218,-0.1304,9.3296,-0.0305,0.0264,-0.1217,-1.7693067989745082,0.0,2.903886318206787,-1.7407727241516113,-0.0,2.0809311866760254,4.946208911925115,-0.0,0.29082512855529785,-1.500908676777975,-0.0,-0.020759038627147675,0.490828275680542,-0.0,0.005803663283586502,1.1849875450134277,0.0,0.02529662847518921
233.0,250.0,0.9218,-0.1304,9.3296,-0.0305,0.0264,-0.1217,-1.769294878045553,0.0,2.9263956546783447,-1.7407457828521729,-0.0,2.036712408065796,4.946188944369116,-0.0,0.26037874817848206,-1.500932518635885,-0.0,-0.011317870579659939,0.4907996654510498,-0.0,0.003461826592683792,1.1849713325500488,0.0,0.012000946328043938
233.0,252.0,0.8812,-0.1729,9.5139,-0.0299,0.0272,-0.1199,-1.769282957116598,0.0,2.9463515281677246,-1.7407457828521729,-0.0,2.060239315032959,4.94624491313056,-0.0,0.2837172746658325,-1.5009005705462855,-0.0,-0.011031800881028175,0.4908442497253418,-0.0,-0.011750046163797379,1.184983491897583,0.0,0.028049122542142868
233.0,252.0,0.8812,-0.1729,9.5139,-0.0299,0.0272,-0.1199,-1.7693225346007289,0.0,2.936544418334961,-1.740785002708435,-0.0,2.0467166900634766,4.946213024645605,-0.0,0.2684522867202759,-1.5009449164019983,-0.0,-0.016903311014175415,0.4908762574195862,-0.0,-0.0056826150976121426,1.1849675178527832,0.0,0.012207948602735996
233.0,252.0,0.8812,-0.1729,9.5139,-0.0299,0.0272,-0.1199,-1.7693067989745082,0.0,2.906181812286377,-1.7407211065292358,-0.0,2.025383234024048,4.946208911925115,-0.0,0.28971487283706665,-1.5009730497943323,-0.0,-0.027375992387533188,0.49085256457328796,-0.0,0.010368223302066326,1.1849836111068726,0.0,-0.015333611518144608
233.0,252.0,0.8812,-0.1729,9.5139,-0.0299,0.0272,-0.1199,-1.769294878045553,0.0,2.9167957305908203,-1.7407653331756592,-0.0,2.015761375427246,4.946228968888082,-0.0,0.2737639546394348,-1.5009005705462855,-0.0,-0.013286527246236801,0.490828275680542,-0.0,-0.004936902783811092,1.1849957704544067,0.0,0.01690121367573738
233.0,252.0,0.8812,-0.1729,9.5139,-0.0299,0.0272,-0.1199,-1.769266744653219,0.0,2.878769874572754,-1.740776777267456,-0.0,2.062650203704834,4.9462530491645715,-0.0,0.28327804803848267,-1.5009163061725062,-0.0,-0.019724680110812187,0.49085256457328796,-0.0,-0.008125532418489456,1.1849594116210938,0.0,0.025826048105955124
233.0,252.0,0.8812,-0.1729,9.5139,-0.0299,0.0272,-0.1199,-1.7693268261351527,0.0,2.928421974182129,-1.7407892942428589,-0.0,2.0881097316741943,4.94617677012042,-0.0,0.2999873459339142,-1.5009163061725062,-0.0,-0.018207374960184097,0.49085259437561035,-0.0,-0.006807291880249977,1.1849956512451172,0.0,-0.025657936930656433
233.0,252.0,0.8812,-0.1729,9.5139,-0.0299,0.0272,-0.1199,-1.7692986927428187,0.0,2.916243076324463,-1.7407612800598145,-0.0,2.052304267883301,4.946232992201605,-0.0,0.28342849016189575,-1.5009129683123987,-0.0,-0.021396372467279434,0.4907956123352051,-0.0,0.01141383871436119,1.1849632263183594,0.0,0.0116196870803833
233.0,252.0,0.8812,-0.1729,9.5139,-0.0299,0.0272,-0.1199,-1.7692462406554164,0.0,2.91660213470459,-1.7407808303833008,-0.0,2.0275540351867676,4.946192714362898,-0.0,0.28084611892700195,-1.5009244124041956,-0.0,-0.020750444382429123,0.49080803990364075,-0.0,-0.005994683131575584,1.1849713325500488,0.0,-0.020377986133098602
233.0,252.0,0.8812,-0.1729,9.5139,-0.0299,0.0272,-0.1199,-1.7692743740477503,0.0,2.893620014190674,-1.7407727241516113,-0.0,2.0586442947387695,4.946244928031721,-0.0,0.2826157510280609,-1.5009649435626429,-0.0,-0.019947923719882965,0.4907676875591278,-0.0,0.0040372335352003574,1.185031533241272,0.0,0.019968725740909576
233.0,252.0,0.8812,-0.1729,9.5139,-0.0299,0.0272,-0.1199,-1.769294878045553,0.0,2.877760887145996,-1.740776777267456,-0.0,2.1043550968170166,4.94620897152976,-0.0,0.2879262864589691,-1.500932518635885,-0.0,-0.02279207855463028,0.4908483326435089,-0.0,-0.006515162996947765,1.1850075721740723,0.0,-0.006893381476402283
233.0,252.0,0.8812,-0.1729,9.5139,-0.0299,0.0272,-0.1199,-1.7692376575865687,0.0,2.9286952018737793,-1.7407417297363281,-0.0,2.112215518951416,4.946281152754583,-0.0,0.2873650789260864,-1.5008843580829065,-0.0,-0.016981348395347595,0.49091264605522156,-0.0,0.0024628317914903164,1.1849713325500488,0.0,-0.039247579872608185
233.0,252.0,0.8812,-0.1729,9.5139,-0.0299,0.0272,-0.1199,-1.769282957116598,0.0,2.9057681560516357,-1.740776777267456,-0.0,2.0781755447387695,4.946217047959127,-0.0,0.2777576446533203,-1.500932518635885,-0.0,-0.02858445979654789,0.4908483326435089,-0.0,0.006971270311623812,1.1849753856658936,-6.786616407739032e-11,-0.00602378835901618
233.0,252.0,0.8812,-0.1729,9.5139,-0.0299,0.0272,-0.1199,-1.769250055352682,0.0,2.886139392852783,-1.7407374382019043,-0.0,2.0339837074279785,4.946196752577581,-0.0,0.2823501527309418,-1.500960652028219,-0.0,-0.01891246810555458,0.49084022641181946,-0.0,0.0072364965453743935,1.1849994659423828,-1.2215670302010394e-14,0.02429858408868313
233.0,252.0,0.8812,-0.1729,9.5139,-0.0299,0.0272,-0.1199,-1.769282957116598,0.0,2.935856819152832,-1.7407335042953491,-0.0,2.0778510570526123,4.946232977300443,-0.0,0.2954462766647339,-1.5009568373309534,-0.0,-0.029635416343808174,0.49085256457328796,-0.0,-0.00332759041339159,1.1850316524505615,-2.9499409374529044e-20,0.00014455802738666534
233.0,252.0,0.8812,-0.1729,9.5139,-0.0299,0.0272,-0.1199,-1.7692862949767054,0.0,2.8907365798950195,-1.7407498359680176,-0.0,2.0666871070861816,4.946237104922094,-0.0,0.2883344888687134,-1.5009563604937952,-0.0,-0.00928080640733242,0.49089664220809937,-0.0,-0.0034901252947747707,1.1850234270095825,0.0003891206288244575,0.03515692800283432
233.0,252.0,0.8812,-0.1729,9.5139,-0.0299,0.0272,-0.1199,-1.7692786655821742,0.0,2.9037513732910156,-1.7407612800598145,-0.0,2.022594690322876,4.946200760989942,-0.0,0.2966821789741516,-1.5009244124041956,-0.0,-0.007711913902312517,0.49079200625419617,-0.0,0.009373249486088753,1.1849992275238037,0.0003419093554839492,-0.022272814065217972
237.0,255.0,0.8692,-0.2853,9.5372,-0.0351,0.0241,-0.119,-1.769282957116598,0.0,2.8838069438934326,-1.7407851219177246,-0.0,2.063065528869629,4.946172687202253,-0.0,0.28302162885665894,-1.5009287039386194,-0.0,-0.029472768306732178,0.4908442795276642,-0.0,-0.002646607579663396,1.185011386871338,0.00029679745784960687,-0.033559832721948624
237.0,255.0,0.8692,-0.2853,9.5372,-0.0351,0.0241,-0.119,-1.7692705593504847,0.0,2.8930368423461914,-1.7407809495925903,-0.0,2.0992989540100098,4.9462211457784555,-0.0,0.28774720430374146,-1.500960652028219,-0.0,-0.02765824645757675,0.4908156394958496,-0.0,-0.009417940862476826,1.1850154399871826,0.0002973180671688169,-0.04605257511138916
237.0,255.0,0.8692,-0.2853,9.5372,-0.0351,0.0241,-0.119,-1.7692862949767054,0.0,2.8614978790283203,-1.7407809495925903,-0.0,2.12677264213562,4.946224930673399,-0.0,0.29130133986473083,-1.500948731099264,-0.0,-0.011618277058005333,0.4908157289028168,-0.0,0.003144717775285244,1.1850154399871826,0.0002551665238570422,-0.005819024983793497
237.0,255.0,0.8692,-0.2853,9.5372,-0.0351,0.0241,-0.119,-1.769233842889303,0.0,2.8930840492248535,-1.7407808303833008,-0.0,2.070646047592163,4.9462409047181985,-0.0,0.28169724345207214,-1.500948731099264,-0.0,-0.01200137846171856,0.4908282458782196,-0.0,0.007040594704449177,1.1850435733795166,0.000233132581342943,-0.02321779355406761
237.0,255.0,0.8692,-0.2853,9.5372,-0.0351,0.0241,-0.119,-1.7692986927428187,0.0,2.9384727478027344,-1.7407374382019043,-0.0,2.053786277770996,4.946204888611593,-0.0,0.2823910415172577,-1.5009287039386194,-0.0,-0.017773892730474472,0.49090495705604553,-0.0,0.001908052247017622,1.1850275993347168,0.00020639858848880976,0.062446508556604385
237.0,255.0,0.8692,-0.2853,9.5372,-0.0351,0.0241,-0.119,-1.7692786655821742,0.0,2.956371307373047,-1.7407974004745483,-0.0,2.099576711654663,4.946188929467954,-0.0,0.2746979892253876,-1.5009687582599085,-0.0,-0.02069742977619171,0.4908115863800049,-0.0,0.002689804183319211,1.1850316524505615,0.00021602454944513738,0.03973015397787094
237.0,255.0,0.8692,-0.2853,9.5372,-0.0351,0.0241,-0.119,-1.769282957116598,0.0,2.923471212387085,-1.74073326587677,-0.0,2.1131906509399414,4.946188929467954,-0.0,0.28719398379325867,-1.500976864491598,-0.0,-0.02585434354841709,0.49080753326416016,-0.0,0.0036476340610533953,1.1850476264953613,0.00022385847114492208,-0.020721521228551865
237.0,255.0,0.8692,-0.2853,9.5372,-0.0351,0.0241,-0.119,-1.769250055352682,0.0,2.9204916954040527,-1.7407498359680176,-0.0,2.035820722579956,4.946297052293577,-0.0,0.29982179403305054,-1.5009730497943323,-0.0,-0.0023066336289048195,0.49084019660949707,-0.0,0.001196164870634675,1.1850073337554932,0.0001830701221479103,-0.04052905738353729
237.0,255.0,0.8692,-0.2853,9.5372,-0.0351,0.0241,-0.119,-1.7693225346007289,0.0,2.911343812942505,-1.7407612800598145,-0.0,2.0118751525878906,4.946148919850149,-0.0,0.29224976897239685,-1.5009244124041956,-0.0,-0.006553633604198694,0.4908442795276642,-0.0,0.007184592075645924,1.1850354671478271,0.00016306071483995765,-0.02436944842338562
237.0,255.0,0.8692,-0.2853,9.5372,-0.0351,0.0241,-0.119,-1.7693268261351527,0.0,2.896991729736328,-1.7407808303833008,-0.0,2.058933734893799,4.946192982583799,-0.0,0.29557526111602783,-1.5009649435626429,-0.0,-0.029774943366646767,0.4907993674278259,-0.0,-0.006490877829492092,1.1850073337554932,0.00014707261289004236,0.0066445572301745415
237.0,255.0,0.8692,-0.2853,9.5372,-0.0351,0.0241,-0.119,-1.7692743740477503,0.0,2.915013074874878,-1.7407490015029907,-0.0,2.111083507537842,4.9461970058973215,-0.0,0.26888731122016907,-1.500960652028219,-0.0,-0.01594977080821991,0.49082010984420776,-0.0,0.005188215058296919,1.1850316524505615,0.00016072721336968243,-0.016646843403577805
237.0,255.0,0.8692,-0.2853,9.5372,-0.0351,0.0241,-0.119,-1.7692982159056605,0.0,2.9162659645080566,-1.7407612800598145,-0.0,2.035763740539551,4.946204888611593,-0.0,0.27727609872817993,-1.500960652028219,-0.0,-0.012798979878425598,0.4908483326435089,-0.0,-5.358096677809954e-05,1.1850115060806274,0.00015169725520536304,0.010214117355644703
237.0,255.0,0.8692,-0.2853,9.5372,-0.0351,0.0241,-0.119,-1.7693067989745082,0.0,2.8958487510681152,-1.7407572269439697,-0.0,2.0381312370300293,4.9461970058973215,-0.0,0.28699982166290283,-1.5009406248675745,-0.0,-0.017300907522439957,0.4908442199230194,-0.0,0.007247913628816605,1.1849993467330933,0.00016322260489687324,-0.03760126605629921
237.0,255.0,0.8692,-0.2853,9.5372,-0.0351,0.0241,-0.119,-1.7692982159056605,0.0,2.8752737045288086,-1.7407727241516113,-0.0,2.0243587493896484,4.946177008538999,-0.0,0.2827373743057251,-1.500960652028219,-0.0,-0.020567988976836205,0.490828275680542,-0.0,0.0009929155930876732,1.1850395202636719,0.0001514521864010021,0.0073581356555223465
237.0,255.0,0.8692,-0.2853,9.5372,-0.0351,0.0241,-0.119,-1.7692824802794398,0.0,2.8988518714904785,-1.7407292127609253,-0.0,2.0978550910949707,4.946192967682638,-0.0,0.2805629074573517,-1.5009120146380823,-0.0,-0.01586218550801277,0.4908927083015442,-0.0,-0.006307285279035568,1.1850433349609375,0.00014126433234196156,0.024697275832295418
237.0,255.0,0.8692,-0.2853,9.5372,-0.0351,0.0241,-0.119,-1.7692944012083949,0.0,2.902808666229248,-1.740768551826477,-0.0,2.0357775688171387,4.9461970058973215,-0.0,0.28477853536605835,-1.5009163061725062,-0.0,-0.021649198606610298,0.49088457226753235,-0.0,-0.007561402395367622,1.185063362121582,0.00013520107313524932,0.0342320092022419
237.0,255.0,0.8692,-0.2853,9.5372,-0.0351,0.0241,-0.119,-1.7692743740477503,4.5593613329231175e-09,2.9009785652160645,-1.7407335042953491,-0.0,2.058211326599121,4.946221130877294,-0.0,0.29008710384368896,-1.500976864491598,-0.0,-0.013509415090084076,0.49086856842041016,-0.0,0.00235760142095387,1.1850275993347168,0.00012702305684797466,0.004525766242295504
233.0,261.0,0.9188,-0.1328,9.4917,-0.0512,0.02,-0.1184,-1.7693349323668421,1.1010319548177949e-14,2.983626365661621,-1.7408138513565063,-0.0,2.055776834487915,4.946161049395361,-0.0,0.28659671545028687,-1.5009201208697718,-0.0,-0.02905149757862091,0.490815669298172,-0.0,-0.004939987324178219,1.1850115060806274,0.00011977822578046471,0.01834820955991745
233.0,261.0,0.9188,-0.1328,9.4917,-0.0512,0.02,-0.1184,-1.7693149052061976,1.9818186617634944e-18,2.9258389472961426,-1.7407644987106323,-0.0,2.091813564300537,4.946184801846304,-0.0,0.2850647270679474,-1.5009368101703089,-0.0,-0.02030089870095253,0.49082010984420776,-0.0,-0.0036572336684912443,1.1850636005401611,0.00013121594383846968,0.02573975920677185
233.0,261.0,0.9188,-0.1328,9.4917,-0.0512,0.02,-0.1184,-1.7693144283690394,4.785858973212119e-24,2.8973512649536133,-1.7407727241516113,-0.0,2.0717175006866455,4.946217018156805,-0.0,0.27224719524383545,-1.5009444395648401,-0.0,-0.02372775971889496,0.49079152941703796,-0.0,0.005188413895666599,1.185051441192627,0.00012500611774157733,0.017280444502830505
233.0,261.0,0.9188,-0.1328,9.4917,-0.0512,0.02,-0.1184,-1.7693144283690394,1.155728742451629e-29,2.905560255050659,-1.7407851219177246,-0.0,2.0744426250457764,4.946225213795461,-0.0,0.2871776819229126,-1.5009163061725062,-0.0,-0.004045828245580196,0.4908323287963867,-0.0,-0.004129616543650627,1.1851155757904053,0.0001188175956485793,0.04170570522546768
233.0,261.0,0.9188,-0.1328,9.4917,-0.0512,0.02,-0.1184,-1.7693268261351527,2.790948743905695e-35,2.880343198776245,-1.7407808303833008,-0.0,2.0518290996551514,4.946177008538999,-0.0,0.2918813228607178,-1.5009411017047327,-0.0,-0.02198338322341442,0.4908561706542969,-0.0,0.008515685796737671,1.185043454170227,0.000113212714495603,-0.029407666996121407
233.0,261.0,0.9188,-0.1328,9.4917,-0.0512,0.02,-0.1184,-1.769351144830221,5.0236087517551465e-39,2.9238104820251465,-1.7407644987106323,-0.0,2.0623981952667236,4.946204888611593,-0.0,0.27704599499702454,-1.5009530226336878,-0.0,-0.025459444150328636,0.4908442497253418,-0.0,7.398100569844246e-05,1.1850395202636719,0.00010072799341287464,-0.012938512489199638
233.0,261.0,0.9188,-0.1328,9.4917,-0.0512,0.02,-0.1184,-1.7693187199034632,1.2611686178923354e-44,2.91601824760437,-1.7407727241516113,-0.0,2.069952964782715,4.946177008538999,-0.0,0.28278982639312744,-1.500948731099264,-0.0,-0.012221341021358967,0.4908483326435089,-0.0,-0.009997150860726833,1.1850354671478271,9.184076770907268e-05,0.027840716764330864
233.0,261.0,0.9188,-0.1328,9.4917,-0.0512,0.02,-0.1184,-1.7693430385985316,0.0,2.9339427947998047,-1.7407612800598145,-0.0,2.0942816734313965,4.946229252010145,-0.0,0.3052985370159149,-1.5009687582599085,-0.0,-0.02214837074279785,0.490860253572464,-0.0,0.0077908895909786224,1.1850435733795166,3.936319626518525e-05,0.01267625018954277
233.0,261.0,0.9188,-0.1328,9.4917,-0.0512,0.02,-0.1184,-1.769351144830221,0.0,2.941364288330078,-1.7407974004745483,-0.0,2.074040174484253,4.946177008538999,-0.0,0.28097331523895264,-1.5008886496173304,-0.0,-0.019670525565743446,0.4907992482185364,-0.0,-0.00040607666596770287,1.1850354671478271,3.5162105632480234e-05,0.031108569353818893
233.0,261.0,0.9188,-0.1328,9.4917,-0.0512,0.02,-0.1184,-1.7693506679930628,0.0,2.909536838531494,-1.7407933473587036,-0.0,2.021941661834717,4.94621296504096,-0.0,0.2914837598800659,-1.500892464314596,-0.0,-0.021676287055015564,0.4908483326435089,-0.0,0.0014353177975863218,1.1850316524505615,1.6923171642702073e-05,0.012160714715719223
233.0,261.0,0.9188,-0.1328,9.4917,-0.0512,0.02,-0.1184,-1.7693869076170863,-0.00015241331129800528,2.962437868118286,-1.7408015727996826,-0.0,2.0944385528564453,4.946165087610044,-0.0,0.29522275924682617,-1.5009530226336878,-0.0,-0.022948648780584335,0.49086856842041016,-0.0,-0.010079185478389263,1.1849875450134277,1.6016658264561556e-05,0.05053137242794037
233.0,261.0,0.9188,-0.1328,9.4917,-0.0512,0.02,-0.1184,-1.7693187199034632,-0.0006209942512214184,2.9535744190216064,-1.7407530546188354,-0.0,2.114856004714966,4.946221175580778,-0.0,0.28002792596817017,-1.5008962790118616,-0.0,-0.020515408366918564,0.49085211753845215,-0.0,0.004822051618248224,1.185023546218872,3.3098215834748146e-10,0.01073736697435379
233.0,261.0,0.9188,-0.1328,9.4917,-0.0512,0.02,-0.1184,-1.769374509850973,-0.0007422251510433853,2.9326605796813965,-1.7407530546188354,-0.0,2.051732301712036,4.946184801846304,-0.0,0.2968486249446869,-1.5009210745440882,-0.0,-0.02046389877796173,0.49086812138557434,-0.0,0.005745682865381241,1.1850476264953613,7.992829471604969e-16,0.011675692163407803
233.0,261.0,0.9188,-0.1328,9.4917,-0.0512,0.02,-0.1184,-1.7693544826903285,-0.0006716782227158546,2.9342527389526367,-1.7407934665679932,-0.0,2.0900514125823975,4.946217047959127,-0.0,0.2825548052787781,-1.500908676777975,-0.0,-0.021392829716205597,0.49082401394844055,-0.0,0.0031561539508402348,1.1850275993347168,1.4386809889662425e-19,-0.005621558520942926
233.0,261.0,0.9188,-0.1328,9.4917,-0.0512,0.02,-0.1184,-1.7693869076170863,-0.0006426172330975533,2.946340560913086,-1.7407530546188354,-0.0,2.1165032386779785,4.946221175580778,-0.0,0.28871703147888184,-1.5009172598468226,-0.0,-0.008007165044546127,0.49083608388900757,-0.0,-0.003960111644119024,1.1849713325500488,3.474245485472949e-25,0.006893107667565346
233.0,261.0,0.9188,-0.1328,9.4917,-0.0512,0.02,-0.1184,-1.7693869076170863,-0.0005958685651421547,2.9215011596679688,-1.74073326587677,-0.0,2.0717451572418213,4.946228968888082,-0.0,0.2933642864227295,-1.5009129683123987,-0.0,-0.020713362842798233,0.4908762574195862,-0.0,-0.007284107618033886,1.1850275993347168,8.3898953267341e-31,-0.019412770867347717
233.0,261.0,0.9188,-0.1328,9.4917,-0.0512,0.02,-0.1184,-1.76939119915151,-0.0005756638711318374,2.919950008392334,-1.7407530546188354,-0.0,2.049260139465332,4.946221175580778,-0.0,0.29093435406684875,-1.5009282271014612,-0.0,0.0018279855139553547,0.4908483326435089,-0.0,-0.004406237043440342,1.1850234270095825,1.5101515083997723e-34,-0.020860373973846436
231.0,262.0,0.993,-0.35,9.396,-0.0609,0.0177,-0.1263,-1.7694112263121546,-0.0005184573819860816,2.9010159969329834,-1.7407612800598145,-0.0,2.080991744995117,4.946225496917524,-5.35706135451619e-07,0.2967029809951782,-1.5009449164019983,-0.0,-0.01539183035492897,0.4909164309501648,-0.0,-0.0053043365478515625,1.1849836111068726,3.6468372144514067e-40,0.03597091883420944
231.0,262.0,0.993,-0.35,9.396,-0.0609,0.0177,-0.1263,-1.769374509850973,-0.0005493294447660446,2.893707275390625,-1.7407530546188354,-0.0,2.140048027038574,4.946221175580778,-1.4911578916088075e-10,0.29049447178840637,-1.5009129683123987,-0.0,-0.01034695003181696,0.49090495705604553,-0.0,-0.0018137843580916524,1.1850395202636719,1.401298464324817e-45,0.023255228996276855
231.0,262.0,0.993,-0.35,9.396,-0.0609,0.0177,-0.1263,-1.7693945370116175,-0.0005689886747859418,2.926908016204834,-1.7407851219177246,-0.0,2.06845760345459,4.946192967682638,-4.1506931897604404e-14,0.3049578368663788,-1.5009048620807093,-0.0,-0.018719609826803207,0.4908200800418854,-0.0,0.008659569546580315,1.1850435733795166,0.0,-0.005432724021375179
231.0,262.0,0.993,-0.35,9.396,-0.0609,0.0177,-0.1263,-1.7694107494749964,-0.0007550843292847276,2.9103405475616455,-1.7407851219177246,-0.0,2.101062774658203,4.9461769489343546,-1.7695056928157229e-16,0.2956168055534363,-1.500908676777975,-0.0,-0.010084524750709534,0.49088847637176514,-0.0,0.007031034212559462,1.185011386871338,0.0,-0.0101626580581069
231.0,262.0,0.993,-0.35,9.396,-0.0609,0.0177,-0.1263,-1.7694226704039515,-0.0009778173407539725,2.929563522338867,-1.7407128810882568,-0.0,2.1076018810272217,4.946184801846304,-4.925483792833656e-20,0.2853262424468994,-1.5009172598468226,-0.0,-0.01564675383269787,0.4908639192581177,-0.0,0.011912405490875244,1.184983491897583,0.0,0.004612453281879425
231.0,262.0,0.993,-0.35,9.396,-0.0609,0.0177,-0.1263,-1.7694102726378382,-0.0009899393189698458,2.92678165435791,-1.7407810688018799,-0.0,2.078166961669922,4.94621296504096,-1.3710266848665487e-23,0.2989857494831085,-1.5009287039386194,-0.0,-0.021412238478660583,0.4908844232559204,-0.0,0.0010165958665311337,1.1850073337554932,0.0,0.025795910507440567
231.0,262.0,0.993,-0.35,9.396,-0.0609,0.0177,-0.1263,-1.7694388828673304,-0.0011127485195174813,2.952127456665039,-1.7407727241516113,-0.0,2.0639967918395996,4.946233022003927,-3.816302984955206e-27,0.3071223795413971,-1.5008843580829065,-0.0,-0.01942223124206066,0.4909324049949646,-0.0,0.007337377872318029,1.1849994659423828,0.0,-0.007230120711028576
231.0,262.0,0.993,-0.35,9.396,-0.0609,0.0177,-0.1263,-1.7694302997984828,-0.0008867050055414438,2.927983522415161,-1.7407333850860596,-0.0,2.1269702911376953,4.946192684560575,-1.6269499339900535e-29,0.3028798997402191,-1.500880543385641,-0.0,-0.02381080761551857,0.490876168012619,0.00019332594820298254,0.008212300017476082,1.1850316524505615,0.0,0.052418049424886703
231.0,262.0,0.993,-0.35,9.396,-0.0609,0.0177,-0.1263,-1.769458910027975,-0.0007805207860656083,2.960879325866699,-1.740854263305664,-0.0,2.127507209777832,4.946180704026975,-4.528675373173374e-33,0.3203427493572235,-1.5009449164019983,-0.0,-0.01599549502134323,0.4909040927886963,0.0002064127620542422,0.006093285977840424,1.1849395036697388,0.0,0.04326659440994263
231.0,262.0,0.993,-0.35,9.396,-0.0609,0.0177,-0.1263,-1.76947083095693,-0.0006337353843264282,2.9195291996002197,-1.7407572269439697,-0.0,2.1090927124023438,4.946180778532781,-1.2605735705124445e-36,0.31109800934791565,-1.5009649435626429,-0.0,-0.028078148141503334,0.4908720850944519,0.00024118223518598825,-0.0015709639992564917,1.1850075721740723,0.0,0.020312577486038208
231.0,262.0,0.993,-0.35,9.396,-0.0609,0.0177,-0.1263,-1.7694832287230433,-0.0004944631946273148,2.9638936519622803,-1.7407727241516113,-0.0,2.0627710819244385,4.946217047959127,-5.374021649639603e-39,0.31149277091026306,-1.5009287039386194,-0.0,-0.01772373914718628,0.4909323751926422,0.00034788259654305875,0.020740466192364693,1.1849393844604492,-0.0002694422146305442,0.03272589296102524
231.0,262.0,0.993,-0.35,9.396,-0.0609,0.0177,-0.1263,-1.7694059811034144,-0.00044620063272304833,2.9295997619628906,-1.7407892942428589,-0.0,2.124659538269043,4.946224900871076,-1.4951854614345798e-42,0.3222365379333496,-1.5009005705462855,-0.0,-0.030987292528152466,0.4909241497516632,0.00043278984958305955,0.010455098003149033,1.1849753856658936,-0.0002953770163003355,0.03474568575620651
231.0,262.0,0.993,-0.35,9.396,-0.0609,0.0177,-0.1263,-1.7694789371886195,-0.0004171255568508059,2.8837029933929443,-1.7407851219177246,-0.0,2.1088757514953613,4.946200760989942,-0.0,0.31416916847229004,-1.5009129683123987,-0.0,-0.02852352149784565,0.49088025093078613,0.0004661392013076693,0.023781009018421173,1.184963583946228,-0.0003333754139021039,0.03602554649114609
231.0,262.0,0.993,-0.35,9.396,-0.0609,0.0177,-0.1263,-1.76947083095693,-0.0003977121668867767,2.9245216846466064,-1.7407530546188354,-0.0,2.050661325454712,4.9462449727352045,-0.0,0.3082940876483917,-1.500892464314596,-0.0,-0.029037058353424072,0.49090003967285156,0.0005877797957509756,0.010038799606263638,1.1850156784057617,-0.0005392119637690485,0.011236818507313728
231.0,262.0,0.993,-0.35,9.396,-0.0609,0.0177,-0.1263,-1.7694751224913539,-0.0003265972773078829,2.933596611022949,-1.740768551826477,-0.0,2.0995547771453857,4.946248966246404,-0.0,0.33159762620925903,-1.5009005705462855,-0.0,-0.023307709023356438,0.49091601371765137,0.0005615935660898685,0.019792648032307625,1.1849675178527832,-0.0005478786770254374,3.3739255741238594e-05
231.0,262.0,0.993,-0.35,9.396,-0.0609,0.0177,-0.1263,-1.7695027790465296,-0.00037467232323251665,2.952946186065674,-1.7407457828521729,-0.0,2.055274248123169,4.946244942932882,-0.0,0.3173612356185913,-1.5009048620807093,-0.0,-0.03425322473049164,0.49092409014701843,0.0005081199924461544,0.016739873215556145,1.1849515438079834,-0.0006710018496960402,0.026589281857013702
234.0,263.0,1.133,0.0305,9.2554,-0.0338,0.0231,-0.1281,-1.76947083095693,-0.0003639141214080155,2.9372432231903076,-1.7407653331756592,-0.0,2.087559700012207,4.946240889817037,-0.0,0.310298353433609,-1.5009530226336878,-0.0,-0.03537818044424057,0.49094831943511963,0.000487537618028,0.021006383001804352,1.1849515438079834,-0.0007159171509556472,0.05275745689868927
234.0,263.0,1.133,0.0305,9.2554,-0.0338,0.0231,-0.1281,-1.7694627247252406,-0.00031605290132574737,2.920091390609741,-1.7407892942428589,-0.0,2.109983205795288,4.946244942932882,-0.0,0.3122079074382782,-1.5009210745440882,-0.0,-0.036254990845918655,0.49094051122665405,0.0004867716634180397,0.02774903178215027,1.1849675178527832,-0.0008806673577055335,0.060281362384557724
234.0,263.0,1.133,0.0305,9.2554,-0.0338,0.0231,-0.1281,-1.7695027790465296,-0.0003617760958150029,2.935976505279541,-1.7407572269439697,-0.0,2.1037445068359375,4.9462129948432825,-0.0,0.3204975128173828,-1.5008724371539515,-0.0,-0.03876221179962158,0.49100083112716675,0.0005293226568028331,0.02903101220726967,1.1849477291107178,-0.0008186919731087983,0.04431186243891716
234.0,263.0,1.133,0.0305,9.2554,-0.0338,0.0231,-0.1281,-1.7695027790465296,-0.0003495891287457198,2.9612174034118652,-1.7407851219177246,-0.0,2.0834264755249023,4.946252795844831,-0.0,0.32775813341140747,-1.5008843580829065,-0.0,-0.038100823760032654,0.4909360110759735,0.0005212082178331912,0.02123665250837803,1.1849836111068726,-0.0007634772337041795,0.007532569579780102
234.0,263.0,1.133,0.0305,9.2554,-0.0338,0.0231,-0.1281,-1.7694422207274378,-0.000341060251230374,2.944389820098877,-1.7407892942428589,-0.0,2.096639394760132,4.9462691275175,-0.0,0.3185179829597473,-1.5008962790118616,-0.0,-0.03261139988899231,0.49096834659576416,0.0004733993555419147,0.02144169807434082,1.1849396228790283,-0.0006283811526373029,-0.016855942085385323
234.0,263.0,1.133,0.0305,9.2554,-0.0338,0.0231,-0.1281,-1.769527097741598,-0.00033583398908376694,2.9599533081054688,-1.7407892942428589,-0.0,2.0615079402923584,4.946233022003927,-0.0,0.32064610719680786,-1.5008485952960413,-0.0,-0.037669479846954346,0.4909602105617523,0.0004629425529856235,0.023274142295122147,1.184943675994873,-0.0005444896523840725,0.05400025472044945
234.0,263.0,1.133,0.0305,9.2554,-0.0338,0.0231,-0.1281,-1.769498964349264,-0.0003601204662118107,2.9314913749694824,-1.74073326587677,-0.0,2.079383134841919,4.9462531236703775,-0.0,0.3252179026603699,-1.5008843580829065,-0.0,-0.050529494881629944,0.49096834659576416,0.00046111171832308173,0.03467663750052452,1.1849234104156494,-0.0004792077816091478,-0.02040916308760643
234.0,263.0,1.133,0.0305,9.2554,-0.0338,0.0231,-0.1281,-1.769527097741598,-0.00040193344466388226,2.9646739959716797,-1.7407933473587036,-0.0,2.122507333755493,4.946244942932882,-0.0,0.3354514241218567,-1.5009210745440882,-0.0,-0.04896742105484009,0.49097657203674316,0.00044340029126033187,0.02441084012389183,1.1849796772003174,-0.0003354647196829319,0.006228668615221977
234.0,263.0,1.133,0.0305,9.2554,-0.0338,0.0231,-0.1281,-1.7695146999754847,-0.0006244693067856133,2.9526095390319824,-1.7408171892166138,-0.0,2.1030898094177246,4.946233022003927,-0.0,0.33309710025787354,-1.5008886496173304,-0.0,-0.04728152975440025,0.49096792936325073,0.0005495434743352234,0.0276184119284153,1.1849396228790283,-0.0003099501191172749,0.0022140457294881344
234.0,263.0,1.133,0.0305,9.2554,-0.0338,0.0231,-0.1281,-1.769498964349264,-0.000678533164318651,2.946988105773926,-1.7408097982406616,-0.0,2.1038644313812256,4.946192654758253,-0.0,0.3315856456756592,-1.5008886496173304,-0.0,-0.04954248666763306,0.49096792936325073,0.0005341388168744743,0.03514073044061661,1.1849396228790283,-0.0002931747294496745,0.03920169174671173
234.0,263.0,1.133,0.0305,9.2554,-0.0338,0.0231,-0.1281,-1.7695266209044398,-0.0009215821046382189,2.9700632095336914,-1.7407457828521729,-0.0,2.099496603012085,4.946228968888082,-0.0,0.32577627897262573,-1.5009368101703089,-0.0,-0.03714991360902786,0.4909318685531616,0.0005472804768942297,0.03321405127644539,1.1849716901779175,-0.0002941052371170372,0.020735448226332664
234.0,263.0,1.133,0.0305,9.2554,-0.0338,0.0231,-0.1281,-1.7695352039732875,-0.0010697160614654422,2.910909652709961,-1.740757942199707,-0.0,2.105922222137451,4.946260916977682,-0.0,0.3246685564517975,-1.5008686224566858,-0.0,-0.03768961504101753,0.49098435044288635,0.0006436931435018778,0.04368283972144127,1.18486750125885,-0.0002948417095467448,0.024062946438789368
234.0,263.0,1.133,0.0305,9.2554,-0.0338,0.0231,-0.1281,-1.7695752582945765,-0.0015285257250070572,2.9167227745056152,-1.7407612800598145,-0.0,2.0875611305236816,4.9462129948432825,-0.0,0.3106060326099396,-1.5008929411517542,-0.0,-0.03632572293281555,0.49101632833480835,0.0008077071397565305,0.026468906551599503,1.184943675994873,-0.00029229611391201615,-0.010441742837429047
234.0,263.0,1.133,0.0305,9.2554,-0.0338,0.0231,-0.1281,-1.7695185146727503,-0.0018555124988779426,2.912024974822998,-1.7407612800598145,-0.0,2.112973213195801,4.946216735034742,-0.0,0.3287365436553955,-1.5008886496173304,-0.0,-0.0555647611618042,0.49104043841362,0.0008548563346266747,0.04377294331789017,1.1849517822265625,-0.0003083139599766582,0.010289336554706097
234.0,263.0,1.133,0.0305,9.2554,-0.0338,0.0231,-0.1281,-1.76955046276235,-0.0018648726399987936,2.9225664138793945,-1.7407644987106323,-0.0,2.1463756561279297,4.946220862656393,-0.0,0.31971895694732666,-1.5008886496173304,-0.0,-0.04063403606414795,0.49104079604148865,0.0010934628080576658,0.04275376349687576,1.1849236488342285,-0.00030828104354441166,-0.06112346425652504
234.0,263.0,1.133,0.0305,9.2554,-0.0338,0.0231,-0.1281,-1.7695867023863734,-0.0019127095583826303,2.87298583984375,-1.740797519683838,-0.0,2.080822706222534,4.9462129948432825,-0.0,0.3143100440502167,-1.5009048620807093,-0.0,-0.040545180439949036,0.4909437596797943,0.0012493545655161142,0.04902831092476845,1.1848753690719604,-0.0005138785927556455,0.014219459146261215
234.0,263.0,1.133,0.0305,9.2554,-0.0338,0.0231,-0.1281,-1.7695747814574183,-0.0021553714759647846,2.920619249343872,-1.7407612800598145,-0.0,2.0464131832122803,4.946220862656393,-0.0,0.343103289604187,-1.5008886496173304,-0.0,-0.04922078549861908,0.49096375703811646,0.0014327529352158308,0.0345611572265625,1.1849195957183838,-0.0005592733505181968,-0.034675661474466324
235.0,256.0,0.929,-0.0066,9.545,-0.0241,0.0156,-0.1278,-1.7695909939207972,-0.002298856619745493,2.95444917678833,-1.7407292127609253,-0.0,2.0762887001037598,4.946260916977682,-0.0,0.3180232048034668,-1.5009210745440882,-0.0,-0.03988717496395111,0.49102768301963806,0.001542241545394063,0.03056415542960167,1.1849236488342285,-0.0009874470997601748,0.006943941116333008
235.0,256.0,0.929,-0.0066,9.545,-0.0241,0.0156,-0.1278,-1.7696072063841761,-0.0023320994805544615,2.8947715759277344,-1.7407974004745483,-0.0,2.1227755546569824,4.946228968888082,-0.0,0.3300873041152954,-1.5008929411517542,-0.0,-0.05263126268982887,0.4910806119441986,0.0016597532667219639,0.05919346958398819,1.1849195957183838,-0.0010914515005424619,0.0007208390161395073
235.0,256.0,0.929,-0.0066,9.545,-0.0241,0.0156,-0.1278,-1.7696229420103968,-0.002332596806809306,2.9138879776000977,-1.7407530546188354,-0.0,2.0649304389953613,4.946240889817037,-0.0,0.32056814432144165,-1.5008886496173304,-0.0,-0.04925335943698883,0.49099159240722656,0.0019957353360950947,0.04549660533666611,1.1848957538604736,-0.001303508528508246,0.016660435125231743
235.0,256.0,0.929,-0.0066,9.545,-0.0241,0.0156,-0.1278,-1.7696315250792445,-0.002407171530649066,2.8979673385620117,-1.7407653331756592,-0.0,2.1366257667541504,4.946248996048727,-0.0,0.31316375732421875,-1.5008886496173304,-0.0,-0.03188501298427582,0.49101993441581726,0.002268753945827484,0.04071561619639397,1.1849157810211182,-0.0016521548386663198,-0.022455383092164993
235.0,256.0,0.929,-0.0066,9.545,-0.0241,0.0156,-0.1278,-1.769590517083639,-0.002075216267257929,2.865161895751953,-1.7407456636428833,-0.0,2.075512409210205,4.946269097715177,-0.0,0.30412352085113525,-1.5008724371539515,-0.0,-0.038397256284952164,0.49108022451400757,0.002690911991521716,0.047952692955732346,1.184911847114563,-0.001765822758898139,-0.04548851028084755
235.0,256.0,0.929,-0.0066,9.545,-0.0241,0.0156,-0.1278,-1.7696792087950648,-0.0019814628176391125,2.8844709396362305,-1.7407808303833008,-0.0,2.0807952880859375,4.946244942932882,-0.0,0.3176104426383972,-1.500925366078512,-0.0,-0.04207122325897217,0.49105963110923767,0.002648431109264493,0.036464348435401917,1.184919834136963,-0.0018049472710117698,-0.026685068383812904
235.0,256.0,0.929,-0.0066,9.545,-0.0241,0.0156,-0.1278,-1.7696267567076625,-0.0017689656233415008,2.9019675254821777,-1.7407644987106323,-0.0,2.107339382171631,4.946200760989942,-0.0,0.31925368309020996,-1.5008724371539515,-0.0,-0.04141587018966675,0.49113214015960693,0.0022677937522530556,0.052477478981018066,1.1848915815353394,-0.0016494051087647676,-0.0749574825167656
235.0,256.0,0.929,-0.0066,9.545,-0.0241,0.0156,-0.1278,-1.7696429691710414,-0.0017940422985702753,2.8757071495056152,-1.7406972646713257,-0.0,2.104889392852783,4.946256863861837,-0.0,0.3014867901802063,-1.5009210745440882,-0.0,-0.03250349685549736,0.49109983444213867,0.0020171047654002905,0.04231744259595871,1.1849079132080078,-0.0014935648068785667,-0.0330694243311882
235.0,256.0,0.929,-0.0066,9.545,-0.0241,0.0156,-0.1278,-1.7696992359557093,-0.0016045535448938608,2.890125274658203,-1.7407727241516113,-0.0,2.0834004878997803,4.946256863861837,-0.0,0.3175576329231262,-1.5008724371539515,-0.0,-0.04163839668035507,0.4911600649356842,0.0014103851281106472,0.04170284792780876,1.1848676204681396,-0.0013487533433362842,-0.06582886725664139
235.0,256.0,0.929,-0.0066,9.545,-0.0241,0.0156,-0.1278,-1.769658704797262,-0.0015516866696998477,2.870840072631836,-1.740776777267456,-0.0,2.0463056564331055,4.946248996048727,-0.0,0.31361860036849976,-1.5008724371539515,-0.0,-0.03794412314891815,0.491135835647583,0.001038618036545813,0.04981771111488342,1.1848634481430054,-0.0011866289423778653,-0.06859655678272247
235.0,256.0,0.929,-0.0066,9.545,-0.0241,0.0156,-0.1278,-1.7697192631163539,-0.0014631483936682343,2.8140921592712402,-1.7407727241516113,-0.0,2.060375452041626,4.946240889817037,-0.0,0.3018677532672882,-1.5008729139911097,-0.0,-0.04417090117931366,0.4911079406738281,0.0008686869405210018,0.04840321093797684,1.184852123260498,-0.0011662825709208846,-0.09110327064990997
235.0,256.0,0.929,-0.0066,9.545,-0.0241,0.0156,-0.1278,-1.7697073421873988,-0.0013035510201007128,2.861633062362671,-1.740725040435791,-0.0,2.1300365924835205,4.946273150831022,-0.0,0.3114534020423889,-1.5008686224566858,-0.0,-0.0392589271068573,0.4911358654499054,0.0006716344505548477,0.05328365042805672,1.1848640441894531,-0.0012009330093860626,-0.09238434582948685
235.0,256.0,0.929,-0.0066,9.545,-0.0241,0.0156,-0.1278,-1.7696911297240199,-0.0012177738826721907,2.885981559753418,-1.7407530546188354,-0.0,2.0589966773986816,4.946240874915876,-0.0,0.3018900752067566,-1.500880543385641,0.00022254089708440006,-0.034767232835292816,0.4911358654499054,0.0006005712784826756,0.06309904158115387,1.1848440170288086,-0.0012780793476849794,-0.07031884044408798
235.0,256.0,0.929,-0.0066,9.545,-0.0241,0.0156,-0.1278,-1.7697187862791957,-0.001042038667947054,2.918602466583252,-1.740776777267456,-0.0,2.09004545211792,4.9462326792772195,-0.0,0.30932778120040894,-1.5008485952960413,0.0002943953440990299,-0.03263537958264351,0.491103857755661,0.0005613635294139385,0.05145896598696709,1.1847959756851196,-0.001416184939444065,-0.10434789955615997
235.0,256.0,0.929,-0.0066,9.545,-0.0241,0.0156,-0.1278,-1.7697035274901332,-0.0009691244340501726,2.8247408866882324,-1.7407572269439697,-0.0,2.092912197113037,4.94622083285407,-0.0,0.29861608147621155,-1.500869099293844,0.0006694802432321012,-0.025300217792391777,0.49118417501449585,0.00045660146861337125,0.048973068594932556,1.1848278045654297,-0.0013755997642874718,-0.06637478619813919
235.0,256.0,0.929,-0.0066,9.545,-0.0241,0.0156,-0.1278,-1.769731184045309,-0.0009595004958100617,2.8483567237854004,-1.7407209873199463,-0.0,2.0751256942749023,4.946220817952909,-0.0,0.3021659851074219,-1.50084096590151,0.0006621237844228745,-0.012591814622282982,0.49104738235473633,0.0004552564350888133,0.04460258036851883,1.1848158836364746,-0.0013648491585627198,-0.1293511986732483
235.0,256.0,0.929,-0.0066,9.545,-0.0241,0.0156,-0.1278,-1.769686838189596,-0.001105799339711666,2.8957197666168213,-1.7407727241516113,-0.0,2.073417901992798,4.9462326792772195,-0.0,0.31059539318084717,-1.5008452574359339,0.0005835201591253281,-0.011106908321380615,0.49109572172164917,0.0004235575324855745,0.04904602840542793,1.1848762035369873,-0.0011786615941673517,-0.06802136451005936
240.0,250.0,0.8841,-0.0562,9.6114,-0.025,0.0305,-0.1171,-1.7697111568846644,-0.0014178553828969598,2.8321352005004883,-1.7407540082931519,-0.0,2.0786502361297607,4.946240889817037,-0.0,0.2976782023906708,-1.500829044972555,0.00051884661661461,-0.012930501252412796,0.4911677837371826,0.0004320307052694261,0.04782465845346451,1.1848320960998535,-0.0012335260398685932,-0.12648889422416687
240.0,250.0,0.8841,-0.0562,9.6114,-0.025,0.0305,-0.1171,-1.769731184045309,-0.0014901694376021624,2.8656537532806396,-1.7407572269439697,-0.0,2.0480525493621826,4.946249025851049,-0.0,0.2975894808769226,-1.50084096590151,0.000526457151863724,-0.021985113620758057,0.49113133549690247,0.00042291535646654665,0.04084716737270355,1.1847798824310303,-0.0012763629201799631,-0.06850861012935638
240.0,250.0,0.8841,-0.0562,9.6114,-0.025,0.0305,-0.1171,-1.7697187862791957,-0.0019925604574382305,2.818617343902588,-1.7407498359680176,-0.0,2.074005126953125,4.946264984994688,-0.0,0.31144365668296814,-1.5008528868304651,0.0004919192870147526,-0.024556830525398254,0.4911477863788605,0.00041326595237478614,0.050635188817977905,1.1847957372665405,-0.0012650892604142427,-0.1618291437625885
240.0,250.0,0.8841,-0.0562,9.6114,-0.025,0.0305,-0.1171,-1.7697636089720667,-0.0023295788560062647,2.8812849521636963,-1.7407572269439697,-0.0,2.0607497692108154,4.946248638420858,-0.0,0.29471391439437866,-1.500869099293844,0.0004482469812501222,-0.02599227800965309,0.49118009209632874,0.0004065505927428603,0.043008171021938324,1.1848242282867432,-0.0011550746858119965,-0.1752193719148636
240.0,250.0,0.8841,-0.0562,9.6114,-0.025,0.0305,-0.1171,-1.7697669468321742,-0.0027350340969860554,2.8167777061462402,-1.7407695055007935,-0.0,2.1345555782318115,4.946264970093527,-0.0,0.2853272557258606,-1.500869099293844,0.00041567382868379354,-0.027893932536244392,0.4912000894546509,0.0004806586657650769,0.06444243341684341,1.1847598552703857,-0.0010536491172388196,-0.10710091888904572
240.0,250.0,0.8841,-0.0562,9.6114,-0.025,0.0305,-0.1171,-1.7698117695250453,-0.0026248148642480373,2.8707900047302246,-1.740776777267456,-0.0,2.05822491645813,4.946236821800031,-0.0,0.30005666613578796,-1.5008528868304651,0.00036116165574640036,-0.01782691478729248,0.4911755323410034,0.0005358137423172593,0.056369248777627945,1.1847879886627197,-0.0009708318975754082,-0.13292396068572998
240.0,250.0,0.8841,-0.0562,9.6114,-0.025,0.0305,-0.1171,-1.769827505151266,-0.0028364930767565966,2.8361825942993164,-1.7407333850860596,-0.0,2.0689339637756348,4.946293237596311,-0.0,0.2957974672317505,-1.5008366743670862,0.00034744830918498337,-0.010572807863354683,0.49113529920578003,0.0007566153071820736,0.053321659564971924,1.184812068939209,-0.0006824576994404197,-0.13096760213375092
240.0,250.0,0.8841,-0.0562,9.6114,-0.025,0.0305,-0.1171,-1.7698027096190394,-0.002846026560291648,2.8099913597106934,-1.7407653331756592,-0.0,2.102185010910034,4.946228611260214,-0.0,0.30140912532806396,-1.500880543385641,0.0003216324548702687,-0.0231342613697052,0.49118778109550476,0.0008498901152051985,0.07297183573246002,1.18477201461792,-0.0006560262991115451,-0.11231203377246857
240.0,250.0,0.8841,-0.0562,9.6114,-0.025,0.0305,-0.1171,-1.7698594532408656,-0.0033509766217321157,2.8554468154907227,-1.7407540082931519,-0.0,2.0769429206848145,4.946273180633344,-0.0,0.27934151887893677,-1.5008404890643519,0.0003005590697284788,-0.015090778470039368,0.4911714792251587,0.0008759088232181966,0.07970039546489716,1.1847999095916748,-0.0005880097742192447,-0.13321471214294434
240.0,250.0,0.8841,-0.0562,9.6114,-0.025,0.0305,-0.1171,-1.7699080906310023,-0.0034418441355228424,2.822019100189209,-1.7407654523849487,-0.0,2.0636119842529297,4.946252810745992,-0.0,0.2937856614589691,-1.50084096590151,0.0002774005406536162,-0.016055304557085037,0.49118369817733765,0.0009089137311093509,0.06631271541118622,1.1847920417785645,-0.0005603210884146392,-0.14031687378883362
240.0,250.0,0.8841,-0.0562,9.6114,-0.025,0.0305,-0.1171,-1.769907613793844,-0.004327379632741213,2.8496410846710205,-1.7407375574111938,-0.0,2.0530948638916016,4.946236821800031,-0.0,0.29626327753067017,-1.50084096590151,0.00022536613687407225,-0.008020298555493355,0.49123984575271606,0.000915475538931787,0.05614524334669113,1.1847760677337646,-0.000698785821441561,-0.17612574994564056
240.0,250.0,0.8841,-0.0562,9.6114,-0.025,0.0305,-0.1171,-1.769874712029928,-0.004635650664567947,2.809342384338379,-1.7407530546188354,-0.0,2.0656862258911133,4.946273180633344,-0.0,0.29176002740859985,-1.5008609930621546,0.0001958050997927785,-0.006952925585210323,0.49125996232032776,0.0009778273524716496,0.07364009320735931,1.1847519874572754,-0.000822188681922853,-0.09231521189212799
240.0,250.0,0.8841,-0.0562,9.6114,-0.025,0.0305,-0.1171,-1.7699152431883753,-0.004823323339223862,2.8087897300720215,-1.7407530546188354,-0.0,2.0472593307495117,4.946240889817037,-0.0,0.2798119783401489,-1.5008328596698206,0.00018012656073551625,-0.011430321261286736,0.4912157356739044,0.0011681615142151713,0.08155490458011627,1.184743881225586,-0.001170263858512044,-0.16993485391139984
240.0,250.0,0.8841,-0.0562,9.6114,-0.025,0.0305,-0.1171,-1.7699796162047328,-0.00537619786337018,2.8025565147399902,-1.7407892942428589,-0.0,2.01871395111084,4.946305158525266,-0.0,0.2958052158355713,-1.5008333365069788,0.00019268511096015573,-0.010344082489609718,0.49125996232032776,0.001363373943604529,0.08905433863401413,1.1847801208496094,-0.00119595299474895,-0.12416793406009674
240.0,250.0,0.8841,-0.0562,9.6114,-0.025,0.0305,-0.1171,-1.7700158558287562,-0.006379229482263327,2.8394980430603027,-1.7407087087631226,-0.0,2.0619421005249023,4.946212622314253,-0.0,0.30566203594207764,-1.50084096590151,0.00017428708088118583,-0.016561122611165047,0.49121925234794617,0.0019686734303832054,0.07892011106014252,1.1847360134124756,-0.0011344655649736524,-0.18319883942604065
240.0,250.0,0.8841,-0.0562,9.6114,-0.025,0.0305,-0.1171,-1.7700311146178187,-0.007711321581155062,2.803778648376465,-1.740776777267456,-0.0,2.080702781677246,4.946252810745992,-0.0,0.2730289399623871,-1.5008090178119105,0.0001588997256476432,-0.017700403928756714,0.49133995175361633,0.002996548544615507,0.07609403878450394,1.1847200393676758,-0.0010270747588947415,-0.15098527073860168
235.0,254.0,0.8411,-0.0742,9.5163,-0.0348,0.014,-0.1145,-1.7700430355467738,-0.007294963579624891,2.7733044624328613,-1.7407612800598145,-0.0,2.0198211669921875,4.9462691126163385,-0.0,0.284138023853302,-1.5009048620807093,0.00015006744069978595,-0.008678172715008259,0.49131155014038086,0.00419994443655014,0.0780402421951294,1.1847200393676758,-0.0010161540703848004,-0.17981889843940735
235.0,254.0,0.8411,-0.0742,9.5163,-0.0348,0.014,-0.1145,-1.7700873814024867,-0.00819449219852686,2.7651357650756836,-1.7407933473587036,-0.0,2.0672998428344727,4.946264970093527,-0.0,0.2856982946395874,-1.5008485952960413,0.00013851828407496214,-0.027344247326254845,0.491315633058548,0.005491450894623995,0.09468722343444824,1.1847400665283203,-0.0009957049041986465,-0.16412076354026794
235.0,254.0,0.8411,-0.0742,9.5163,-0.0348,0.014,-0.1145,-1.7701875172057093,-0.009026647545397282,2.7337732315063477,-1.7407571077346802,-0.0,2.090761661529541,4.946280959039488,-0.0,0.2708013951778412,-1.5008371512042444,0.00012861964933108538,-0.009764355607330799,0.4913637936115265,0.005372482817620039,0.08281257748603821,1.1847360134124756,-0.0009734686464071274,-0.0753263458609581
235.0,254.0,0.8411,-0.0742,9.5163,-0.0348,0.014,-0.1145,-1.7702356777586878,-0.00949755311012268,2.8172194957733154,-1.7407292127609253,-0.0,2.0236563682556152,4.9462486682231805,-0.0,0.285098671913147,-1.5008528868304651,0.00012004176096525043,-0.014409157447516918,0.49140024185180664,0.0035765760112553835,0.07622438669204712,1.1847240924835205,-0.0013037651078775525,-0.1251261979341507
235.0,254.0,0.8411,-0.0742,9.5163,-0.0348,0.014,-0.1145,-1.7702681026854457,-0.010310787707567215,2.717080593109131,-1.7407209873199463,-0.0,2.029132843017578,4.946276891022482,-0.0,0.2805856466293335,-1.5008929411517542,0.00011493180500110611,-0.008019470609724522,0.49138379096984863,0.002670624991878867,0.11191584914922714,1.1847641468048096,-0.0013721578288823366,-0.1400139182806015
235.0,254.0,0.8411,-0.0742,9.5163,-0.0348,0.014,-0.1145,-1.7703319988646449,-0.011503653600811958,2.6732568740844727,-1.7407251596450806,-0.0,2.0161094665527344,4.946252810745992,-0.0,0.27973365783691406,-1.5008485952960413,0.00010803347686305642,-0.0378422811627388,0.49142804741859436,0.0014947706367820501,0.08723300695419312,1.1847202777862549,-0.002046916401013732,-0.11203014850616455
235.0,254.0,0.8411,-0.0742,9.5163,-0.0348,0.014,-0.1145,-1.7704082928099574,-0.013668963685631752,2.708678960800171,-1.7407612800598145,-0.0,2.020693063735962,4.946252810745992,-0.0,0.275113046169281,-1.5008209387408655,0.00010191636101808399,-0.030950050801038742,0.4914076328277588,0.0010036284802481532,0.09792234748601913,1.1846680641174316,-0.0025211868342012167,-0.14210359752178192
235.0,254.0,0.8411,-0.0742,9.5163,-0.0348,0.014,-0.1145,-1.770496507684225,-0.01532784290611744,2.6274924278259277,-1.7407417297363281,-0.0,1.94972562789917,4.946273180633344,-0.0,0.2557666599750519,-1.500829044972555,9.645497630117461e-05,-0.01143092941492796,0.49140751361846924,0.0011410322040319443,0.09737733006477356,1.1846961975097656,-0.00274178315885365,-0.15497605502605438
235.0,254.0,0.8411,-0.0742,9.5163,-0.0348,0.014,-0.1145,-1.770592828790182,-0.01628991588950157,2.6426520347595215,-1.740768551826477,-0.0,1.9895684719085693,4.946280959039488,-0.0,0.2698177993297577,-1.5008567015277308,9.312808833783492e-05,-0.0151752270758152,0.4914596378803253,0.0013691602507606149,0.10484200716018677,1.184704303741455,-0.002660556696355343,-0.09787733852863312
235.0,254.0,0.8411,-0.0742,9.5163,-0.0348,0.014,-0.1145,-1.7706643543639125,-0.018642788752913475,2.5894579887390137,-1.7407572269439697,-0.0,2.030149459838867,4.946228611260214,-0.0,0.25448888540267944,-1.500829044972555,8.854677435010672e-05,-0.021534327417612076,0.49144771695137024,0.0019392354879528284,0.11804746091365814,1.1846442222595215,-0.0025161460507661104,-0.0711015909910202
235.0,254.0,0.8411,-0.0742,9.5163,-0.0348,0.014,-0.1145,-1.7707849941649378,-0.020968757569789886,2.5731263160705566,-1.7408180236816406,-0.0,1.979461669921875,4.946289169579305,-0.0,0.2523130476474762,-1.5008209387408655,8.439516386715695e-05,-0.002210595179349184,0.4914759397506714,0.001909355167299509,0.10643105208873749,1.184664249420166,-0.0029902050737291574,-0.06427674740552902
235.0,254.0,0.8411,-0.0742,9.5163,-0.0348,0.014,-0.1145,-1.7708813152708949,-0.022336039692163467,2.585597038269043,-1.7407808303833008,-0.0,2.0103507041931152,4.946276891022482,-0.0,0.25314050912857056,-1.5008328596698206,8.183714817278087e-05,-0.01709049940109253,0.49141886830329895,0.0017814112361520529,0.10178528726100922,1.1845884323120117,-0.0031120122876018286,-0.07013969123363495
235.0,254.0,0.8411,-0.0742,9.5163,-0.0348,0.014,-0.1145,-1.7709199390807093,-0.02764775976538658,2.5469412803649902,-1.7407653331756592,-0.0,2.0017197132110596,4.946305113821783,-0.0,0.26666030287742615,-1.5008810202227991,7.827817898942158e-05,-0.015800511464476585,0.49149155616760254,0.0019130016444250941,0.0961267426609993,1.1845965385437012,-0.003822033992037177,-0.07850631326436996
235.0,254.0,0.8411,-0.0742,9.5163,-0.0348,0.014,-0.1145,-1.7711330852904261,-0.03029879555106163,2.513997793197632,-1.74073326587677,-0.0,1.980027198791504,4.946264970093527,-0.0,0.25023454427719116,-1.5008285681353968,8.749078551772982e-05,-0.028934059664607048,0.4915238618850708,0.0020200167782604694,0.1229870542883873,1.184572458267212,-0.004120142664760351,-0.08199872821569443
235.0,254.0,0.8411,-0.0742,9.5163,-0.0348,0.014,-0.1145,-1.7713290653624476,-0.03510507196187973,2.499281406402588,-1.7408181428909302,-0.0,1.9661799669265747,4.946321102767744,-0.0,0.23668602108955383,-1.5008333365069788,8.401713421335444e-05,-0.015562334097921848,0.4915074408054352,0.0022633960470557213,0.1085701584815979,1.184516429901123,-0.005042553413659334,-0.10049579292535782
235.0,254.0,0.8411,-0.0742,9.5163,-0.0348,0.014,-0.1145,-1.7715259991087855,-0.03895186632871628,2.518963098526001,-1.7408016920089722,-0.0,1.970027208328247,4.946336763888159,-0.0,0.2367352694272995,-1.5008247534381312,8.18344415165484e-05,-0.019754361361265182,0.49150756001472473,0.0020920801907777786,0.1180897057056427,1.1844966411590576,-0.00511042308062315,-0.10281064361333847
235.0,254.0,0.8411,-0.0742,9.5163,-0.0348,0.014,-0.1145,-1.7717176876463832,-0.042508888989686966,2.4700217247009277,-1.740776777267456,-0.0,1.9519530534744263,4.9463568208511255,-0.0,0.2498018741607666,-1.500812832509176,9.001398575492203e-05,-0.010941424407064915,0.49155178666114807,0.0018158931052312255,0.10313937067985535,1.1845166683197021,-0.00612280098721385,-0.149097740650177
239.0,258.0,0.7669,0.0024,9.2166,-0.0289,0.0118,-0.1214,-1.771982809106344,-0.0484810434281826,2.4681315422058105,-1.7407808303833008,-0.0,1.9412720203399658,4.946328553348341,-0.0,0.2438366711139679,-1.50084096590151,7.188844756456092e-05,-0.02955116517841816,0.4915476441383362,0.0015127003425732255,0.11994913220405579,1.1844565868377686,-0.006928217131644487,-0.1853332221508026
239.0,258.0,0.7669,0.0024,9.2166,-0.0289,0.0118,-0.1214,-1.7722341022887171,-0.0538780577480793,2.459292411804199,-1.7407530546188354,-0.0,2.004483222961426,4.946308913617887,-0.0,0.23522484302520752,-1.5008090178119105,6.65767292957753e-05,-0.02092554420232773,0.49146685004234314,0.0013605757849290967,0.12195052206516266,1.1844007968902588,-0.006596754305064678,-0.049184177070856094
239.0,258.0,0.7669,0.0024,9.2166,-0.0289,0.0118,-0.1214,-1.772482534448141,-0.057613253593444824,2.506958246231079,-1.7407695055007935,-0.0,1.9683711528778076,4.946296903281965,-0.0,0.23726022243499756,-1.500857178364889,7.748346251901239e-05,-0.004801097325980663,0.49155163764953613,0.001350792357698083,0.11041228473186493,1.184424877166748,-0.006119204219430685,-0.13041916489601135
239.0,258.0,0.7669,0.0024,9.2166,-0.0289,0.0118,-0.1214,-1.7728954754271449,-0.061646707355976105,2.4219846725463867,-1.7407530546188354,-0.0,1.9597527980804443,4.946308898716726,-0.0,0.2537863254547119,-1.5008490721331995,7.438855391228572e-05,-0.019219137728214264,0.49156394600868225,0.001310989959165454,0.11850166320800781,1.184356927871704,-0.0058485218323767185,-0.14004456996917725
239.0,258.0,0.7669,0.0024,9.2166,-0.0289,0.0118,-0.1214,-1.7732440433897914,-0.0670366883277893,2.4443788528442383,-1.7407127618789673,-0.0,1.9412060976028442,4.946292879968443,-0.0,0.23271238803863525,-1.5008485952960413,8.332895231433213e-05,-0.023716803640127182,0.4915754795074463,0.0016264567384496331,0.11597483605146408,1.1843408346176147,-0.006010101176798344,-0.1841697096824646
239.0,258.0,0.7669,0.0024,9.2166,-0.0289,0.0118,-0.1214,-1.773491998712057,-0.06839635223150253,2.433500289916992,-1.7407653331756592,-0.0,1.9600343704223633,4.946276637702741,-0.0,0.24404001235961914,-1.5008328596698206,9.128038072958589e-05,-0.010152689181268215,0.49160370230674744,0.0015946803614497185,0.12393198907375336,1.18433678150177,-0.005358017515391111,-0.0994761735200882
239.0,258.0,0.7669,0.0024,9.2166,-0.0289,0.0118,-0.1214,-1.7739769421019496,-0.07156985998153687,2.4371321201324463,-1.7407809495925903,-0.0,1.9638137817382812,4.946328553348341,-0.0,0.2547037899494171,-1.5008247534381312,8.933874778449535e-05,-0.017110511660575867,0.49159544706344604,0.0017074666684493423,0.12779691815376282,1.1842732429504395,-0.004714117385447025,-0.12451957911252975
239.0,258.0,0.7669,0.0024,9.2166,-0.0289,0.0118,-0.1214,-1.7744132481017054,-0.07472365349531174,2.440065383911133,-1.740776777267456,-0.0,1.9682674407958984,4.946292924671926,-0.0,0.24146418273448944,-1.50084096590151,8.613293175585568e-05,-0.0033857235684990883,0.4915914535522461,0.0018279015785083175,0.12310147285461426,1.1842491626739502,-0.0036211255937814713,-0.10226189345121384
239.0,258.0,0.7669,0.0024,9.2166,-0.0289,0.0118,-0.1214,-1.774914403954977,-0.07590078562498093,2.446162462234497,-1.7407695055007935,-0.0,1.9441108703613281,4.946308913617887,-0.0,0.24701261520385742,-1.5008490721331995,8.314885053550825e-05,-0.022983629256486893,0.49169230461120605,0.0018923740135505795,0.11125461757183075,1.1842050552368164,-0.002666642190888524,-0.11827657371759415
239.0,258.0,0.7669,0.0024,9.2166,-0.0289,0.0118,-0.1214,-1.7751947842040003,-0.07894808053970337,2.440526247024536,-1.74073326587677,-0.0,1.999520182609558,4.946260559349813,-0.0,0.24322527647018433,-1.500869099293844,8.127172623062506e-05,-0.012638306245207787,0.4916110634803772,0.0019069160334765911,0.11682303249835968,1.1842331886291504,-0.0024604168720543385,-0.14006070792675018
239.0,258.0,0.7669,0.0024,9.2166,-0.0289,0.0118,-0.1214,-1.7756592235960902,-0.08028331398963928,2.437714099884033,-1.7407851219177246,-0.0,1.9827077388763428,4.946296888380804,-0.0,0.25458425283432007,-1.5008171240436,5.1893166528316215e-06,-0.01845955103635788,0.4916033148765564,0.002104204846546054,0.134610116481781,1.1842049360275269,-0.0017904656706377864,-0.06982159614562988
239.0,258.0,0.7669,0.0024,9.2166,-0.0289,0.0118,-0.1214,-1.7761198482909144,-0.08157836645841599,2.4074130058288574,-1.7407417297363281,-0.0,2.0250773429870605,4.946288826852598,-0.0,0.24525798857212067,-1.5008247534381312,1.4444654361511766e-09,-0.01702713966369629,0.49167177081108093,0.0020857159979641438,0.11938560754060745,1.184197187423706,-0.0014451707247644663,-0.07368753850460052
239.0,258.0,0.7669,0.0024,9.2166,-0.0289,0.0118,-0.1214,-1.7766248188414515,-0.08495038002729416,2.428041458129883,-1.7407890558242798,-0.0,2.0210623741149902,4.9463568953569315,-0.0,0.24223995208740234,-1.5008247534381312,4.020722828030482e-13,-0.022495225071907043,0.491619348526001,0.0023568093311041594,0.11122900247573853,1.1842212677001953,-0.001098691369406879,-0.10117915272712708
239.0,258.0,0.7669,0.0024,9.2166,-0.0289,0.0118,-0.1214,-1.7769252262511195,-0.086544468998909,2.47514009475708,-1.7407490015029907,-0.0,1.9488470554351807,4.946320476918974,8.910164979170077e-07,0.24964426457881927,-1.5008166472064417,1.7140970590408624e-15,-0.017024964094161987,0.49165940284729004,0.0022954249288886786,0.12869545817375183,1.184185266494751,-0.0009241419611498713,-0.07586966454982758
239.0,258.0,0.7669,0.0024,9.2166,-0.0289,0.0118,-0.1214,-1.7774659595885218,-0.0896969810128212,2.3930552005767822,-1.740725040435791,-0.0,2.0584161281585693,4.946328255325117,2.480176897190489e-10,0.2568817734718323,-1.5008166472064417,4.771252219460993e-19,-0.029959380626678467,0.4916873276233673,0.002403011778369546,0.12288831174373627,1.1842093467712402,-0.0007336391718126833,-0.0939987376332283
239.0,258.0,0.7669,0.0024,9.2166,-0.0289,0.0118,-0.1214,-1.7780267200865687,-0.09555690735578537,2.4544551372528076,-1.74070143699646,3.8766112993471324e-05,2.0412068367004395,4.946364792972364,0.0008255874854512513,0.257800817489624,-1.5008328596698206,1.3280956753358453e-22,-0.025490591302514076,0.49169960618019104,0.002297962550073862,0.13097022473812103,1.1841771602630615,-0.0005618294235318899,-0.04627130925655365
239.0,258.0,0.7669,0.0024,9.2166,-0.0289,0.0118,-0.1214,-1.7786885700621546,-0.10276671499013901,2.452383518218994,-1.7407290935516357,0.0009029734646901488,2.0006959438323975,4.946360233217039,0.0013729429338127375,0.2493903636932373,-1.5008528868304651,3.696803423026251e-26,-0.03228544443845749,0.4917036294937134,0.002057195408269763,0.12670862674713135,1.1841773986816406,-0.0004552357131615281,-0.06316457688808441
233.0,263.0,0.9571,-0.1687,9.5438,-0.0066,-0.0626,-0.13,-1.7790123424925746,-0.10529175400733948,2.4786272048950195,-1.7406692504882812,0.0013449947582557797,2.0252208709716797,4.9463844178016565,0.0014901149552315474,0.25705528259277344,-1.5008452574359339,1.576005205008467e-28,-0.027376893907785416,0.49171143770217896,0.002176104811951518,0.1377190798521042,1.18422532081604,-0.0004041251086164266,-0.02396233193576336
233.0,263.0,0.9571,-0.1687,9.5438,-0.0066,-0.0626,-0.13,-1.7796932659544886,-0.10402920097112656,2.451824188232422,-1.740637183189392,0.001708102528937161,2.018702268600464,4.946396577149191,0.0015064124017953873,0.25307321548461914,-1.5008090178119105,4.386867922388798e-32,-0.030258599668741226,0.49170732498168945,0.0020464551635086536,0.14011859893798828,1.184213399887085,-0.0003458781575318426,-0.014280996285378933
233.0,263.0,0.9571,-0.1687,9.5438,-0.0066,-0.0626,-0.13,-1.780346532861227,-0.10102363675832748,2.478480815887451,-1.7406495809555054,0.002185139339417219,2.0291640758514404,4.946432339936056,0.0010146276326850057,0.27744072675704956,-1.5008609930621546,1.2211007191721224e-35,-0.02597605437040329,0.49174749851226807,0.0021161711774766445,0.12951304018497467,1.1842012405395508,-0.0003023066383320838,0.0027381768450140953
233.0,263.0,0.9571,-0.1687,9.5438,-0.0066,-0.0626,-0.13,-1.7807866535582484,-0.09699384868144989,2.531510829925537,-1.7407455444335938,0.0020801539067178965,2.1147079467773438,4.946404817491331,0.0006997085292823613,0.26159682869911194,-1.5008729139911097,5.205744201213922e-38,-0.02769690379500389,0.491767555475235,0.0020668541546911,0.12757563591003418,1.1842657327651978,-0.0002788865240290761,0.0027446970343589783
233.0,263.0,0.9571,-0.1687,9.5438,-0.0066,-0.0626,-0.13,-1.7813717327513636,-0.09559895843267441,2.5280935764312744,-1.74065363407135,0.0014608028577640653,2.06278133392334,4.946364256530561,0.0003819045959971845,0.28050485253334045,-1.5008209387408655,1.4490827419582933e-41,-0.03840504586696625,0.4917912483215332,0.0019303050357848406,0.1374921351671219,1.1842012405395508,-0.0002498521062079817,0.02252824418246746
233.0,263.0,0.9571,-0.1687,9.5438,-0.0066,-0.0626,-0.13,-1.7820493183531703,-0.10336130857467651,2.493144989013672,-1.740645408630371,0.000834367354400456,2.0651309490203857,4.946364256530561,0.00028932015993632376,0.27910053730010986,-1.50084096590151,4.203895392974451e-45,-0.04475397616624832,0.4917953312397003,0.002024778164923191,0.1351347416639328,1.1842052936553955,-0.00015985402569640428,-0.026319706812500954
233.0,263.0,0.9571,-0.1687,9.5438,-0.0066,-0.0626,-0.13,-1.7826453648009242,-0.11453717201948166,2.4265472888946533,-1.7407021522521973,0.0005763351218774915,2.0522420406341553,4.946452799230375,0.00023308202798943967,0.26770466566085815,-1.5008366743670862,0.0,-0.041165560483932495,0.4918072521686554,0.0024941826704889536,0.14837631583213806,1.1841411590576172,-0.00020000884251203388,0.0158780999481678
233.0,263.0,0.9571,-0.1687,9.5438,-0.0066,-0.0626,-0.13,-1.7831059894957484,-0.12013763189315796,2.4728007316589355,-1.7406691312789917,0.00042584980838000774,2.0606799125671387,4.9463843432958505,8.229438390117139e-05,0.2673826217651367,-1.500829044972555,0.0,-0.04398198425769806,0.4918072521686554,0.002810213714838028,0.13200391829013824,1.1842014789581299,-0.0008236428257077932,0.009586187079548836
