ramyac6/ROB537/final_project/csv/all/bad_123.csv
tof_0,tof_1,accelx,accely,accelz,gyrox,gyroy,gyroz,shoulder_lift_joint_position,shoulder_lift_joint_velocity,shoulder_lift_joint_effort,elbow_joint_position,elbow_joint_velocity,elbow_joint_effort,wrist_1_joint_position,wrist_1_joint_velocity,wrist_1_joint_effort,wrist_2_joint_position,wrist_2_joint_velocity,wrist_2_joint_effort,wrist_3_joint_position,wrist_3_joint_velocity,wrist_3_joint_effort,shoulder_pan_joint_position,shoulder_pan_joint_velocity,shoulder_pan_joint_effort
382.0,407.0,-2.7601,-0.3416,9.4493,-0.0409,0.0208,-0.1229,-1.9079538784422816,0.0,3.088538646697998,-1.957433819770813,-0.0,1.6564736366271973,5.602768349438467,-0.0,0.2536274194717407,-1.5350750128375452,0.0,-0.026039818301796913,0.7703971266746521,-0.0,-0.004353496246039867,0.7514408230781555,3.229707517052316e-12,0.03206850588321686
382.0,407.0,-2.7601,-0.3416,9.4493,-0.0409,0.0208,-0.1229,-1.9079739056029261,0.0,3.1122114658355713,-1.9574379920959473,-0.0,1.677593469619751,5.6028286693389795,-0.0,0.2557581067085266,-1.5350945631610315,0.0,-0.010488544590771198,0.7703568935394287,-0.0,-0.008468851447105408,0.751485288143158,5.813359170573674e-16,0.026255466043949127
382.0,407.0,-2.7601,-0.3416,9.4493,-0.0409,0.0208,-0.1229,-1.9079863033690394,0.0,3.08718204498291,-1.9573935270309448,-0.0,1.6664252281188965,5.602764355927267,-0.0,0.2527271509170532,-1.5351112524615687,0.0,-0.0065016248263418674,0.7703971266746521,-0.0,0.0015932454261928797,0.7514894008636475,1.0463841211144336e-19,-0.0023603278677910566
382.0,407.0,-2.7601,-0.3416,9.4493,-0.0409,0.0208,-0.1229,-1.907950063745016,0.0,3.1163058280944824,-1.9574215412139893,-0.0,1.6713452339172363,5.6028204438980005,-0.0,0.24942296743392944,-1.5351069609271448,0.0,-0.007926576770842075,0.7704090476036072,-0.0,-2.9558781534433365e-05,0.7514849305152893,2.5268945357839837e-25,0.0353984571993351
382.0,407.0,-2.7601,-0.3416,9.4493,-0.0409,0.0208,-0.1229,-1.9079700909056605,0.0,3.1287009716033936,-1.957450270652771,-0.0,1.6894855499267578,5.602804469853201,-0.0,0.2525763511657715,-1.5350831190692347,0.0,-0.02038811519742012,0.7703365087509155,-0.0,0.00019738078117370605,0.7514325976371765,4.54832069379486e-29,-0.003086123848333955
382.0,407.0,-2.7601,-0.3416,9.4493,-0.0409,0.0208,-0.1229,-1.9079944096007289,0.0,3.101747512817383,-1.9574494361877441,-0.0,1.7107064723968506,5.602816331177511,-0.0,0.23885147273540497,-1.5351112524615687,0.0,-0.011749595403671265,0.7704052925109863,-0.0,-0.0063356664031744,0.7514729499816895,1.098365964990888e-34,-0.03591921180486679
382.0,407.0,-2.7601,-0.3416,9.4493,-0.0409,0.0208,-0.1229,-1.907990118066305,0.0,3.1452107429504395,-1.9574092626571655,-0.0,1.6825710535049438,5.602768349438467,-0.0,0.2589845359325409,-1.5350588003741663,0.0,-0.009092731401324272,0.7703849077224731,-0.0,0.004700078628957272,0.7514731884002686,1.9770201167046645e-38,-0.04690533131361008
382.0,407.0,-2.7601,-0.3416,9.4493,-0.0409,0.0208,-0.1229,-1.9079863033690394,0.0,3.091947555541992,-1.9573894739151,-0.0,1.6853115558624268,5.602780687599935,-0.0,0.25010907649993896,-1.5350945631610315,0.0,0.0028826561756432056,0.7704012393951416,-0.0,0.007058561779558659,0.7514366507530212,3.5578968009207105e-42,0.0031333770602941513
382.0,407.0,-2.7601,-0.3416,9.4493,-0.0409,0.0208,-0.1229,-1.9079662762083949,0.0,3.0670931339263916,-1.957425594329834,-0.0,1.6575531959533691,5.602824497013845,-0.0,0.25152531266212463,-1.535079304371969,0.0,-0.010346263647079468,0.7703688740730286,-0.0,-0.004909568000584841,0.7514852285385132,0.0,0.009471360594034195
382.0,407.0,-2.7601,-0.3416,9.4493,-0.0409,0.0208,-0.1229,-1.9079739056029261,0.0,3.145508289337158,-1.9574296474456787,-0.0,1.6630808115005493,5.602756130486288,-0.0,0.25484204292297363,-1.5351350943194788,0.0,-0.016722697764635086,0.7704291939735413,-0.0,0.009497234597802162,0.7514567375183105,0.0,0.035987164825201035
375.0,394.0,-2.7517,-0.3691,9.4152,-0.0411,0.0177,-0.1225,-1.9080025158324183,0.0,3.1015796661376953,-1.9573770761489868,-0.0,1.6963056325912476,5.6027724025543115,-0.0,0.24813373386859894,-1.5350588003741663,0.0,-0.021343201398849487,0.7703853249549866,-0.0,-0.003946168813854456,0.7514971494674683,0.0,-0.0105464868247509
375.0,394.0,-2.7517,-0.3691,9.4152,-0.0411,0.0177,-0.1225,-1.9080306492247523,0.0,3.091041088104248,-1.9573854207992554,-0.0,1.6343626976013184,5.602772044926443,-0.0,0.2438361942768097,-1.535079304371969,0.0,-0.024208366870880127,0.7703808546066284,-0.0,-0.006436020601540804,0.7515092492103577,0.0,-0.008015279658138752
375.0,394.0,-2.7517,-0.3691,9.4152,-0.0411,0.0177,-0.1225,-1.9079824886717738,0.0,3.101562023162842,-1.9573935270309448,-0.0,1.661247730255127,5.602804469853201,-0.0,0.24889273941516876,-1.535079304371969,0.0,-0.01853366382420063,0.7704090476036072,-0.0,0.0061127073131501675,0.751469075679779,0.0,0.01487134862691164
375.0,394.0,-2.7517,-0.3691,9.4152,-0.0411,0.0177,-0.1225,-1.9079462490477503,0.0,3.1109817028045654,-1.9574534893035889,-0.0,1.6839858293533325,5.602772462158956,-0.0,0.256533145904541,-1.535130802785055,0.0,-0.017066583037376404,0.7703729867935181,-0.0,0.0073981983587145805,0.751404345035553,0.0,0.02100200206041336
375.0,394.0,-2.7517,-0.3691,9.4152,-0.0411,0.0177,-0.1225,-1.9079700909056605,0.0,3.092926502227783,-1.957409143447876,-0.0,1.6816502809524536,5.602744209557333,-0.0,0.25362229347229004,-1.53514272371401,0.0,-0.014704436995089054,0.7703607678413391,-0.0,-0.003633011830970645,0.7514408230781555,0.0,-0.016091633588075638
375.0,394.0,-2.7517,-0.3691,9.4152,-0.0411,0.0177,-0.1225,-1.907938142816061,0.0,3.115572214126587,-1.9573854207992554,-0.0,1.6832619905471802,5.602776515274801,-0.0,0.25236576795578003,-1.5351069609271448,0.0,-0.016835058107972145,0.7704209089279175,-0.0,-0.017288431525230408,0.751436710357666,0.0,-0.009236466139554977
375.0,394.0,-2.7517,-0.3691,9.4152,-0.0411,0.0177,-0.1225,-1.9080225429930628,0.0,3.069946765899658,-1.9574215412139893,-0.0,1.6531953811645508,5.602796244412222,-0.0,0.2424508035182953,-1.5350788275348108,0.0,-0.010583143681287766,0.7704254388809204,-0.0,0.004765945021063089,0.7514287233352661,0.0,0.017223887145519257
375.0,394.0,-2.7517,-0.3691,9.4152,-0.0411,0.0177,-0.1225,-1.9080101452269496,0.0,3.07810640335083,-1.9574460983276367,-0.0,1.6800090074539185,5.602772521763601,-0.0,0.2557026743888855,-1.5351150671588343,0.0,-0.011247299611568451,0.7704295516014099,-0.0,-0.0001513881143182516,0.7514732480049133,0.0,-0.044640395790338516
375.0,394.0,-2.7517,-0.3691,9.4152,-0.0411,0.0177,-0.1225,-1.9079662762083949,0.0,3.0964736938476562,-1.9574215412139893,-0.0,1.6565299034118652,5.602776515274801,-0.0,0.2467048466205597,-1.5351031462298792,0.0,-0.00893605500459671,0.7703931331634521,-0.0,0.0030663684010505676,0.7515050768852234,0.0,0.0070226844400167465
375.0,394.0,-2.7517,-0.3691,9.4152,-0.0411,0.0177,-0.1225,-1.907990118066305,0.0,3.11759090423584,-1.9574658870697021,-0.0,1.6783103942871094,5.602800297528066,-0.0,0.25097885727882385,-1.535102669392721,0.0,-0.01103859394788742,0.7704172134399414,-0.0,0.011384963057935238,0.7515092492103577,0.0,0.028470054268836975
375.0,394.0,-2.7517,-0.3691,9.4152,-0.0411,0.0177,-0.1225,-1.9080068073668421,0.0,3.08413028717041,-1.9574379920959473,-0.0,1.673255443572998,5.602768349438467,-0.0,0.25511932373046875,-1.5350750128375452,0.0,-0.010349009186029434,0.7703971862792969,-0.0,-0.002807449549436569,0.7514691352844238,0.0,-0.034665003418922424
375.0,394.0,-2.7517,-0.3691,9.4152,-0.0411,0.0177,-0.1225,-1.9079858265318812,0.0,3.1123433113098145,-1.9574215412139893,-0.0,1.6806540489196777,5.602796661644735,-0.0,0.2525704801082611,-1.5350750128375452,0.0,-0.034190185368061066,0.7703889608383179,-0.0,-0.0011779932538047433,0.7514930367469788,0.0,0.007342490833252668
375.0,394.0,-2.7517,-0.3691,9.4152,-0.0411,0.0177,-0.1225,-1.9079419575133265,0.0,3.0956828594207764,-1.9574575424194336,-0.0,1.6789017915725708,5.602764236717977,-0.0,0.26157569885253906,-1.5351112524615687,0.0,-0.004792196210473776,0.7704655528068542,-0.0,-0.008078258484601974,0.7514163851737976,0.0,0.029218019917607307
375.0,394.0,-2.7517,-0.3691,9.4152,-0.0411,0.0177,-0.1225,-1.9080425701537074,0.0,3.0788512229919434,-1.957425594329834,-0.0,1.7154581546783447,5.602824497013845,-0.0,0.25058674812316895,-1.5350983778582972,0.0,-0.006490860600024462,0.7704254388809204,-0.0,0.0006501159514300525,0.7514448761940002,0.0,-0.04001695662736893
375.0,394.0,-2.7517,-0.3691,9.4152,-0.0411,0.0177,-0.1225,-1.90797819713735,0.0,3.1605682373046875,-1.9574339389801025,-0.0,1.6880781650543213,5.602772462158956,-0.0,0.25343626737594604,-1.5350945631610315,0.0,-0.02279701456427574,0.7703729867935181,-0.0,-0.00027860235422849655,0.7514527440071106,0.0,0.028079263865947723
375.0,394.0,-2.7517,-0.3691,9.4152,-0.0411,0.0177,-0.1225,-1.9080187282957972,0.0,3.0789875984191895,-1.9574379920959473,-0.0,1.6667602062225342,5.602792489319601,-0.0,0.2588315010070801,-1.5350831190692347,0.0,-0.02310188300907612,0.7703889608383179,-0.0,-0.007072762120515108,0.7515092492103577,0.0,-0.01922748237848282
375.0,394.0,-2.7517,-0.3691,9.4152,-0.0411,0.0177,-0.1225,-1.9079538784422816,0.0,3.108713388442993,-1.9574421644210815,-0.0,1.6898694038391113,5.602747964649954,-0.0,0.24197721481323242,-1.5350750128375452,0.0,-0.0056427777744829655,0.7704378366470337,-0.0,0.008300049230456352,0.751488983631134,0.0,-0.0032039142679423094
375.0,394.0,-2.7517,-0.3691,9.4152,-0.0411,0.0177,-0.1225,-1.9079662762083949,0.0,3.1040291786193848,-1.9574617147445679,-0.0,1.6422619819641113,5.602804410248556,-0.0,0.26254522800445557,-1.5350425879107874,0.0,-0.012101427651941776,0.7704614996910095,-0.0,0.005985915660858154,0.751477062702179,0.0,-0.014283816330134869
390.0,394.0,-2.7326,-0.3655,9.3595,-0.0322,0.0243,-0.1167,-1.9080068073668421,0.0,3.1049938201904297,-1.957450270652771,-0.0,1.6892226934432983,5.602756011276998,-0.0,0.26003536581993103,-1.535079304371969,0.0,-0.011431469582021236,0.7703971266746521,-0.0,-0.005239252001047134,0.7514609098434448,0.0,0.006679368205368519
390.0,394.0,-2.7326,-0.3655,9.3595,-0.0322,0.0243,-0.1167,-1.9079657993712367,0.0,3.1045308113098145,-1.9574700593948364,-0.0,1.6266529560089111,5.602800297528066,-0.0,0.25453951954841614,-1.5351112524615687,0.0,-0.004974952433258295,0.7704333066940308,-0.0,0.002325834706425667,0.7514848709106445,0.0,0.018258467316627502
390.0,394.0,-2.7326,-0.3655,9.3595,-0.0322,0.0243,-0.1167,-1.9080025158324183,0.0,3.1456847190856934,-1.9574617147445679,-0.0,1.7131133079528809,5.602772462158956,-0.0,0.24832665920257568,-1.535102669392721,0.0,-0.028657004237174988,0.7703607678413391,-0.0,0.0018920332659035921,0.7514567971229553,0.0,-0.010449736379086971
390.0,394.0,-2.7326,-0.3655,9.3595,-0.0322,0.0243,-0.1167,-1.9079858265318812,0.0,3.104715585708618,-1.957433819770813,-0.0,1.6537411212921143,5.602792548924246,-0.0,0.26235902309417725,-1.5351226965533655,0.0,-0.006677297875285149,0.7704090476036072,-0.0,0.007006140425801277,0.751436710357666,0.0,0.05754515901207924
390.0,394.0,-2.7326,-0.3655,9.3595,-0.0322,0.0243,-0.1167,-1.9079739056029261,0.0,3.089449405670166,-1.957433819770813,-0.0,1.7103331089019775,5.602792489319601,-0.0,0.24694618582725525,-1.5350826422320765,0.0,-0.015253591351211071,0.770369291305542,-0.0,0.0027079067658632994,0.7514526844024658,0.0,-0.007308523170650005
390.0,394.0,-2.7326,-0.3655,9.3595,-0.0322,0.0243,-0.1167,-1.9079419575133265,0.0,3.1411614418029785,-1.9574215412139893,-0.0,1.6999050378799438,5.602772462158956,-0.0,0.25436609983444214,-1.535062615071432,0.0,-0.002657925244420767,0.7704368829727173,-0.0,-0.008369944989681244,0.751477062702179,0.0,0.03472232446074486
390.0,394.0,-2.7326,-0.3655,9.3595,-0.0322,0.0243,-0.1167,-1.9079581699767054,0.0,3.0764124393463135,-1.957425594329834,-0.0,1.6683790683746338,5.602800357132711,-0.0,0.24715712666511536,-1.535062615071432,0.0,-0.006512068212032318,0.7704052925109863,-0.0,0.006317273713648319,0.7514485716819763,0.0,-0.005840359255671501
390.0,394.0,-2.7326,-0.3655,9.3595,-0.0322,0.0243,-0.1167,-1.90797819713735,0.0,3.121802568435669,-1.9574543237686157,-0.0,1.666565179824829,5.602780270367422,-0.0,0.24725420773029327,-1.5350874106036585,0.0,-0.009988773614168167,0.7704095244407654,-0.0,0.0047101834788918495,0.7514930963516235,0.0,-0.03149714320898056
390.0,394.0,-2.7326,-0.3655,9.3595,-0.0322,0.0243,-0.1167,-1.907990118066305,0.0,3.126176118850708,-1.9574215412139893,-0.0,1.648268222808838,5.602792548924246,-0.0,0.2513839304447174,-1.5350902716266077,0.0,-0.0025794641114771366,0.7703812122344971,-0.0,0.0065233139321208,0.7515172362327576,0.0,-0.022300809621810913
390.0,394.0,-2.7326,-0.3655,9.3595,-0.0322,0.0243,-0.1167,-1.9079581699767054,0.0,3.0813941955566406,-1.9574131965637207,-0.0,1.7249786853790283,5.602816331177511,-0.0,0.2559937834739685,-1.5350902716266077,0.0,-0.004289139062166214,0.7703569531440735,-0.0,0.0013646918814629316,0.7514609098434448,0.0,0.008459778502583504
390.0,394.0,-2.7326,-0.3655,9.3595,-0.0322,0.0243,-0.1167,-1.9080068073668421,0.0,3.105081081390381,-1.957425594329834,-0.0,1.675661325454712,5.602784383087911,-0.0,0.2619565725326538,-1.5351188818561,0.0,-0.018794065341353416,0.7704094648361206,-0.0,-0.012238765135407448,0.7514246106147766,0.0,-0.014912758022546768
390.0,394.0,-2.7326,-0.3655,9.3595,-0.0322,0.0243,-0.1167,-1.9079657993712367,0.0,3.082359790802002,-1.9574379920959473,-0.0,1.6991288661956787,5.602756190090933,-0.0,0.2625100910663605,-1.5351112524615687,0.0,-0.013371413573622704,0.7704094648361206,-0.0,-0.00907010305672884,0.7514609098434448,0.0,-0.04528466984629631
390.0,394.0,-2.7326,-0.3655,9.3595,-0.0322,0.0243,-0.1167,-1.9079581699767054,0.0,3.085977077484131,-1.9574576616287231,-0.0,1.6620951890945435,5.60281269529418,-0.0,0.25616052746772766,-1.5351107756244105,0.0,-0.011954862624406815,0.7703729271888733,-0.0,0.0003008514177054167,0.7514567971229553,0.0,-0.014369616284966469
390.0,394.0,-2.7326,-0.3655,9.3595,-0.0322,0.0243,-0.1167,-1.9080025158324183,0.0,3.113306999206543,-1.957442045211792,-0.0,1.6801661252975464,5.602747964649954,-0.0,0.2560586631298065,-1.5350983778582972,0.0,-0.010659396648406982,0.7704212665557861,-0.0,0.0028868638910353184,0.7514811754226685,0.0,-0.01687733829021454
390.0,394.0,-2.7326,-0.3655,9.3595,-0.0322,0.0243,-0.1167,-1.9079739056029261,0.0,3.071591377258301,-1.957425594329834,-0.0,1.6841374635696411,5.6028204438980005,-0.0,0.2676938474178314,-1.5350983778582972,0.0,-0.012952886521816254,0.770477831363678,-0.0,0.00017171050421893597,0.7514848709106445,0.0,0.004233821295201778
390.0,394.0,-2.7326,-0.3655,9.3595,-0.0322,0.0243,-0.1167,-1.908006330529684,0.0,3.0662782192230225,-1.9574131965637207,-0.0,1.6570661067962646,5.602784323483267,-0.0,0.2532280683517456,-1.5351069609271448,0.0,0.003198150545358658,0.7704012393951416,-0.0,0.002423625672236085,0.751488983631134,0.0,0.007118995767086744
390.0,394.0,-2.7326,-0.3655,9.3595,-0.0322,0.0243,-0.1167,-1.9080106220641078,0.0,3.097360372543335,-1.957425594329834,-0.0,1.6986231803894043,5.602760183602133,-0.0,0.262270450592041,-1.5350902716266077,0.0,-0.016506291925907135,0.7704172134399414,-0.0,-0.0035296580754220486,0.7514930963516235,0.0,-0.015280093066394329
390.0,394.0,-2.7326,-0.3655,9.3595,-0.0322,0.0243,-0.1167,-1.9079495869078578,0.0,3.0879526138305664,-1.957409143447876,-0.0,1.6891672611236572,5.602756130486288,-0.0,0.24933838844299316,-1.535079304371969,0.0,-0.005292030982673168,0.7704094648361206,-0.0,0.008390575647354126,0.7514729499816895,0.0,-0.020088590681552887
390.0,394.0,-2.7326,-0.3655,9.3595,-0.0322,0.0243,-0.1167,-1.9079824886717738,0.0,3.0783238410949707,-1.9574378728866577,-0.0,1.7390785217285156,5.602804410248556,-0.0,0.2574290335178375,-1.5350902716266077,0.0,-0.018661728128790855,0.7703807950019836,-0.0,-0.002692270092666149,0.7514971494674683,0.0,-0.01836581528186798
391.0,399.0,-2.723,-0.3081,9.3679,-0.0363,0.0255,-0.1217,-1.9079295597472132,0.0,3.0705251693725586,-1.9574215412139893,-0.0,1.7050316333770752,5.602792131691732,-0.0,0.2521211504936218,-1.5350669066058558,0.0,-0.008405443280935287,0.7704254984855652,-0.0,-0.00805043987929821,0.7514650225639343,0.0,0.033358968794345856
391.0,399.0,-2.723,-0.3081,9.3679,-0.0363,0.0255,-0.1217,-1.9079944096007289,0.0,3.1095902919769287,-1.957400918006897,-0.0,1.7075289487838745,5.602772462158956,-0.0,0.2463853657245636,-1.5351112524615687,0.0,-0.019557248800992966,0.7703931331634521,-0.0,0.009056324139237404,0.7514246106147766,0.0,0.019766271114349365
391.0,399.0,-2.723,-0.3081,9.3679,-0.0363,0.0255,-0.1217,-1.9080068073668421,0.0,3.154679775238037,-1.9574379920959473,-0.0,1.694732904434204,5.602776038437643,-0.0,0.25291240215301514,-1.5350506941424769,0.0,-0.0219851266592741,0.7704254984855652,-0.0,0.013229208998382092,0.7514407634735107,0.0,0.01475594937801361
391.0,399.0,-2.723,-0.3081,9.3679,-0.0363,0.0255,-0.1217,-1.9080144367613734,0.0,3.1276662349700928,-1.9574462175369263,-0.0,1.6368632316589355,5.602764236717977,-0.0,0.24723374843597412,-1.5351069609271448,0.0,-0.008259933441877365,0.7703448534011841,-0.0,0.007806022185832262,0.7514609098434448,0.0,0.04278155788779259
391.0,399.0,-2.723,-0.3081,9.3679,-0.0363,0.0255,-0.1217,-1.9079944096007289,0.0,3.064967632293701,-1.957450270652771,-0.0,1.6415355205535889,5.602776515274801,-0.0,0.24462243914604187,-1.535130802785055,0.0,-0.011536624282598495,0.7703729271888733,-0.0,0.013389221392571926,0.7514408230781555,0.0,0.006527249701321125
391.0,399.0,-2.723,-0.3081,9.3679,-0.0363,0.0255,-0.1217,-1.9079662762083949,0.0,3.064953088760376,-1.9574741125106812,-0.0,1.709505319595337,5.602784383087911,-0.0,0.25359994173049927,-1.5351064840899866,0.0,0.0034995796158909798,0.7704373002052307,-0.0,-0.0008802174124866724,0.7514609098434448,0.0,0.022930102422833443
391.0,399.0,-2.723,-0.3081,9.3679,-0.0363,0.0255,-0.1217,-1.9080106220641078,0.0,3.1108412742614746,-1.9574339389801025,-0.0,1.6534204483032227,5.602792489319601,-0.0,0.2525772452354431,-1.5350874106036585,0.0,-0.009878713637590408,0.7703889608383179,-0.0,0.006671743933111429,0.7514204978942871,0.0,-0.003726033726707101
391.0,399.0,-2.723,-0.3081,9.3679,-0.0363,0.0255,-0.1217,-1.9079820118346156,0.0,3.123448610305786,-1.9574131965637207,-0.0,1.6717545986175537,5.602747964649954,-0.0,0.25652775168418884,-1.5350788275348108,0.0,-0.019260989502072334,0.7704095244407654,-0.0,-0.0004592108598444611,0.7514930963516235,0.0,-0.02377304993569851
391.0,399.0,-2.723,-0.3081,9.3679,-0.0363,0.0255,-0.1217,-1.9080025158324183,0.0,3.0896198749542236,-1.9574815034866333,-0.0,1.650673508644104,5.6027724025543115,-0.0,0.2499377280473709,-1.5350831190692347,0.0,-0.019046466797590256,0.7703889608383179,-0.0,0.0016049991827458143,0.7514567971229553,0.0,-0.036976709961891174
391.0,399.0,-2.723,-0.3081,9.3679,-0.0363,0.0255,-0.1217,-1.9080306492247523,0.0,3.1306633949279785,-1.957425594329834,-0.0,1.7097365856170654,5.602808522969045,-0.0,0.24787211418151855,-1.5350902716266077,0.0,-0.006957304663956165,0.7703971266746521,-0.0,-0.005923848133534193,0.751477062702179,0.0,0.025813154876232147
391.0,399.0,-2.723,-0.3081,9.3679,-0.0363,0.0255,-0.1217,-1.9080225429930628,0.0,3.1129112243652344,-1.957400918006897,-0.0,1.6804794073104858,5.602760243206777,-0.0,0.25237536430358887,-1.5350902716266077,0.0,-0.025697724893689156,0.7704377174377441,-0.0,0.002165158512070775,0.7514407634735107,0.0,0.013302866369485855
391.0,399.0,-2.723,-0.3081,9.3679,-0.0363,0.0255,-0.1217,-1.9079739056029261,0.0,3.1103291511535645,-1.9574534893035889,-0.0,1.7162728309631348,5.602788436203756,-0.0,0.26037123799324036,-1.5351389090167444,0.0,-0.01722886599600315,0.7704373002052307,-0.0,-0.006035949569195509,0.7514650225639343,0.0,0.020283810794353485
391.0,399.0,-2.723,-0.3081,9.3679,-0.0363,0.0255,-0.1217,-1.907990118066305,0.0,3.0739426612854004,-1.957425594329834,-0.0,1.6922760009765625,5.602804469853201,-0.0,0.24994108080863953,-1.5350711981402796,0.0,-0.01058234367519617,0.7704295516014099,-0.0,0.0013257535174489021,0.7514729499816895,0.0,0.02009822241961956
391.0,399.0,-2.723,-0.3081,9.3679,-0.0363,0.0255,-0.1217,-1.9080311260619105,0.0,3.1150002479553223,-1.9574214220046997,-0.0,1.7102973461151123,5.6028286693389795,-0.0,0.25759389996528625,-1.5351107756244105,0.0,-0.02021697908639908,0.7703971862792969,-0.0,0.0033505302853882313,0.7514729499816895,0.0,-0.015700092539191246
391.0,399.0,-2.723,-0.3081,9.3679,-0.0363,0.0255,-0.1217,-1.9079262218871058,0.0,3.1124653816223145,-1.957417368888855,-0.0,1.641305685043335,5.602796244412222,-0.0,0.26294946670532227,-1.5351150671588343,0.0,-0.01212211512029171,0.7704336643218994,-0.0,0.014434436336159706,0.7515012621879578,0.0,-0.03802986070513725
391.0,399.0,-2.723,-0.3081,9.3679,-0.0363,0.0255,-0.1217,-1.9079538784422816,0.0,3.0708844661712646,-1.9574534893035889,-0.0,1.688809871673584,5.602788436203756,-0.0,0.251208633184433,-1.5351069609271448,0.0,-0.011428057216107845,0.7704052925109863,-0.0,0.00614097760990262,0.7514167428016663,0.0,0.05800856649875641
391.0,399.0,-2.723,-0.3081,9.3679,-0.0363,0.0255,-0.1217,-1.9079824886717738,0.0,3.074615478515625,-1.9573853015899658,-0.0,1.6623899936676025,5.602788436203756,-0.0,0.25732657313346863,-1.535062615071432,0.0,-0.01832754537463188,0.7704176306724548,-0.0,-0.009649839252233505,0.751444935798645,0.0,0.027228428050875664
391.0,399.0,-2.723,-0.3081,9.3679,-0.0363,0.0255,-0.1217,-1.9079858265318812,0.0,3.1074581146240234,-1.957425594329834,-0.0,1.6715331077575684,5.602784800320425,-0.0,0.24165098369121552,-1.535102669392721,0.0,-0.0068217432126402855,0.7704295516014099,-0.0,0.014998313039541245,0.7514811754226685,0.0,-0.013394875451922417
396.0,397.0,-2.7428,-0.3464,9.3488,-0.0313,0.0254,-0.1197,-1.9080025158324183,0.0,3.08324933052063,-1.957400918006897,-0.0,1.659995436668396,5.602772462158956,-0.0,0.24715885519981384,-1.535102669392721,0.0,-0.00947272963821888,0.7703245878219604,-0.0,-0.009844763204455376,0.751444935798645,0.0,-0.014302249997854233
396.0,397.0,-2.7428,-0.3464,9.3488,-0.0313,0.0254,-0.1197,-1.907961984673971,0.0,3.130908966064453,-1.9574618339538574,-0.0,1.6897324323654175,5.602756070881643,-0.0,0.2553369700908661,-1.5350983778582972,0.0,0.0023394105955958366,0.7704172134399414,-0.0,0.006436367053538561,0.7514930963516235,0.0,-0.03929516300559044
396.0,397.0,-2.7428,-0.3464,9.3488,-0.0313,0.0254,-0.1197,-1.9079739056029261,0.0,3.1075258255004883,-1.9573894739151,-0.0,1.7268762588500977,5.602792548924246,-0.0,0.2528015077114105,-1.5350588003741663,0.0,-0.011443724855780602,0.7703688740730286,-0.0,-0.000923874496947974,0.7514649629592896,0.0,0.049925800412893295
396.0,397.0,-2.7428,-0.3464,9.3488,-0.0313,0.0254,-0.1197,-1.9079739056029261,0.0,3.118936061859131,-1.957442045211792,-0.0,1.6627893447875977,5.602792489319601,-0.0,0.25072598457336426,-1.5350983778582972,0.0,-0.015526451170444489,0.7704373002052307,-0.0,-0.010632028803229332,0.7514567971229553,0.0,-0.01596253737807274
396.0,397.0,-2.7428,-0.3464,9.3488,-0.0313,0.0254,-0.1197,-1.907950063745016,0.0,3.174093246459961,-1.957442045211792,-0.0,1.6697982549667358,5.602796244412222,-0.0,0.2584150433540344,-1.5350983778582972,0.0,-0.034406423568725586,0.7703812122344971,-0.0,0.004168229177594185,0.7514408230781555,0.0,0.007813502103090286
396.0,397.0,-2.7428,-0.3464,9.3488,-0.0313,0.0254,-0.1197,-1.9079982242979945,0.0,3.080191135406494,-1.9574617147445679,-0.0,1.6296682357788086,5.6027806279952905,-0.0,0.25471359491348267,-1.535130802785055,0.0,-0.011453376151621342,0.7703652381896973,-0.0,0.010667636059224606,0.7514609098434448,0.0,-0.016320329159498215
396.0,397.0,-2.7428,-0.3464,9.3488,-0.0313,0.0254,-0.1197,-1.9079858265318812,0.0,3.119743585586548,-1.9573894739151,-0.0,1.6804249286651611,5.602764415531912,-0.0,0.2450234293937683,-1.5351188818561,0.0,-0.016430750489234924,0.7704614996910095,-0.0,0.013416998088359833,0.7514691352844238,0.0,-0.059044815599918365
396.0,397.0,-2.7428,-0.3464,9.3488,-0.0313,0.0254,-0.1197,-1.9079858265318812,0.0,3.0898666381835938,-1.957409143447876,-0.0,1.6508498191833496,5.602776574879446,-0.0,0.25002846121788025,-1.5351069609271448,0.0,-0.02158874273300171,0.7703647613525391,-0.0,-0.00018949966761283576,0.7514527440071106,0.0,0.05718328431248665
396.0,397.0,-2.7428,-0.3464,9.3488,-0.0313,0.0254,-0.1197,-1.9080025158324183,0.0,3.0626184940338135,-1.9574452638626099,-0.0,1.6442956924438477,5.602760243206777,-0.0,0.24633800983428955,-1.5351112524615687,0.0,-0.02094935066998005,0.7704212665557861,-0.0,0.005198260769248009,0.7514889240264893,0.0,-0.034496285021305084
396.0,397.0,-2.7428,-0.3464,9.3488,-0.0313,0.0254,-0.1197,-1.907990118066305,0.0,3.088711738586426,-1.9574257135391235,-0.0,1.747023105621338,5.602812635689535,-0.0,0.26261794567108154,-1.5351112524615687,0.0,-0.020106341689825058,0.7704012393951416,-0.0,0.006882036570459604,0.7514811754226685,0.0,-0.007536519318819046
396.0,397.0,-2.7428,-0.3464,9.3488,-0.0313,0.0254,-0.1197,-1.907990118066305,0.0,3.091963291168213,-1.957400918006897,-0.0,1.6888750791549683,5.602768468647756,-0.0,0.2544120252132416,-1.5350588003741663,0.0,-0.021508226171135902,0.7704094648361206,-0.0,0.004979277960956097,0.7514930367469788,0.0,0.0016696695238351822
396.0,397.0,-2.7428,-0.3464,9.3488,-0.0313,0.0254,-0.1197,-1.9079262218871058,0.0,3.1317849159240723,-1.957425594329834,-0.0,1.6629838943481445,5.602752017765798,-0.0,0.25706198811531067,-1.5350750128375452,0.0,-0.015458639711141586,0.7703729271888733,-0.0,0.004659298807382584,0.7514889240264893,0.0,0.014786028303205967
396.0,397.0,-2.7428,-0.3464,9.3488,-0.0313,0.0254,-0.1197,-1.9079824886717738,0.0,3.127488851547241,-1.9574534893035889,-0.0,1.63652765750885,5.602768468647756,-0.0,0.24323131144046783,-1.5351112524615687,0.0,-0.023118603974580765,0.7703283429145813,-0.0,-0.004809162579476833,0.7514731884002686,0.0,-0.0012646145187318325
396.0,397.0,-2.7428,-0.3464,9.3488,-0.0313,0.0254,-0.1197,-1.9079858265318812,0.0,3.13895583152771,-1.9574339389801025,-0.0,1.665053367614746,5.602808522969045,-0.0,0.25789716839790344,-1.5350750128375452,0.0,-0.015402702614665031,0.7704048752784729,-0.0,0.00010952702723443508,0.7514489889144897,0.0,0.03750074654817581
396.0,397.0,-2.7428,-0.3464,9.3488,-0.0313,0.0254,-0.1197,-1.9079739056029261,0.0,3.1301419734954834,-1.957400918006897,-0.0,1.6630820035934448,5.602768349438467,-0.0,0.2680199146270752,-1.5351064840899866,0.0,-0.0035907297860831022,0.7704291343688965,-0.0,-0.0029150282498449087,0.7514407634735107,0.0,-0.012832963839173317
396.0,397.0,-2.7428,-0.3464,9.3488,-0.0313,0.0254,-0.1197,-1.90797819713735,0.0,3.1249794960021973,-1.9574339389801025,-0.0,1.688637137413025,5.602836775570669,-0.0,0.24322333931922913,-1.5350983778582972,0.0,-0.014496131800115108,0.7704291343688965,-0.0,0.005795344244688749,0.7514407634735107,0.0,0.004711449146270752
396.0,397.0,-2.7428,-0.3464,9.3488,-0.0313,0.0254,-0.1197,-1.9079262218871058,0.0,3.1064977645874023,-1.9574824571609497,-0.0,1.6641557216644287,5.6028204438980005,-0.0,0.24251650273799896,-1.5350750128375452,0.0,-0.018772244453430176,0.7703569531440735,-0.0,0.0037689057644456625,0.7514729499816895,0.0,-0.014119399711489677
396.0,397.0,-2.7428,-0.3464,9.3488,-0.0313,0.0254,-0.1197,-1.9079462490477503,0.0,3.131967306137085,-1.9574050903320312,-0.0,1.6664624214172363,5.602788436203756,-0.0,0.257114440202713,-1.5351107756244105,0.0,-0.011129043996334076,0.7704012393951416,-0.0,0.0020518796518445015,0.7514084577560425,0.0,0.01983402669429779
396.0,397.0,-2.7428,-0.3464,9.3488,-0.0313,0.0254,-0.1197,-1.9079982242979945,0.0,3.113286018371582,-1.9574494361877441,-0.0,1.6949021816253662,5.602788376599111,-0.0,0.24699699878692627,-1.5350711981402796,0.0,-0.005576497409492731,0.7703288197517395,-0.0,0.006059064995497465,0.7514811158180237,0.0,0.019930677488446236
374.0,416.0,-2.6686,-0.3284,9.3296,-0.0287,0.0199,-0.1153,-1.907961984673971,0.0,3.113283157348633,-1.9574660062789917,-0.0,1.6694374084472656,5.602768349438467,-0.0,0.24704959988594055,-1.5350983778582972,0.0,-0.006874328013509512,0.7704415321350098,-0.0,0.006721134763211012,0.7514852285385132,0.0,0.014494434930384159
374.0,416.0,-2.6686,-0.3284,9.3296,-0.0287,0.0199,-0.1153,-1.9079944096007289,0.0,3.102414846420288,-1.9573975801467896,-0.0,1.668410062789917,5.602832722454824,-0.0,0.2486770749092102,-1.5350912253009241,0.0,0.010095781646668911,0.7704575657844543,-0.0,0.007819784805178642,0.7514489889144897,0.0,0.025534627959132195
374.0,416.0,-2.6686,-0.3284,9.3296,-0.0287,0.0199,-0.1153,-1.9079581699767054,0.0,3.100797653198242,-1.9574460983276367,-0.0,1.6522672176361084,5.6027360437209985,-0.0,0.2458166480064392,-1.535090748463766,0.0,-0.021631957963109016,0.7703976035118103,-0.0,-0.008875502273440361,0.7514328360557556,0.0,0.006267208606004715
374.0,416.0,-2.6686,-0.3284,9.3296,-0.0287,0.0199,-0.1153,-1.9079858265318812,0.0,3.119727849960327,-1.9574575424194336,-0.0,1.7007622718811035,5.602760183602133,-1.1246683015997405e-06,0.2486090362071991,-1.5350588003741663,0.0,-0.0049480656161904335,0.7703972458839417,-0.0,0.0065213474445044994,0.7514930367469788,0.0,-0.006177132483571768
374.0,416.0,-2.6686,-0.3284,9.3296,-0.0287,0.0199,-0.1153,-1.9080025158324183,0.0,3.0843310356140137,-1.957450270652771,-0.0,1.7055745124816895,5.602792548924246,-3.1305552594673713e-10,0.2581171989440918,-1.5351226965533655,0.0,-0.022731658071279526,0.7704250812530518,-0.0,0.00029369164258241653,0.7514649629592896,0.0,-0.07794477790594101
374.0,416.0,-2.6686,-0.3284,9.3296,-0.0287,0.0199,-0.1153,-1.907990118066305,0.0,3.1411185264587402,-1.957442045211792,-0.0,1.6715378761291504,5.602760183602133,-1.3346048441734149e-12,0.23922714591026306,-1.5351107756244105,0.0,-0.014415896497666836,0.7703770995140076,-0.0,0.002584923291578889,0.7514609098434448,0.0,0.018504159525036812
374.0,416.0,-2.6686,-0.3284,9.3296,-0.0287,0.0199,-0.1153,-1.9079863033690394,0.0,3.1349151134490967,-1.9574099779129028,-0.0,1.6745800971984863,5.602756070881643,-3.7149218646282387e-16,0.2476818859577179,-1.5351069609271448,0.0,-0.021026145666837692,0.7703734040260315,-0.0,0.011194615624845028,0.7514729499816895,0.0,-0.027957050129771233
374.0,416.0,-2.6686,-0.3284,9.3296,-0.0287,0.0199,-0.1153,-1.9079858265318812,0.0,3.070816993713379,-1.9574379920959473,-0.0,1.6633833646774292,5.6028045294578455,-1.5837294099734946e-18,0.24152696132659912,-1.5351069609271448,0.0,-0.0037940125912427902,0.7704090476036072,-0.0,0.005581721663475037,0.751480758190155,1.5416853216265736e-07,-0.015836698934435844
374.0,416.0,-2.6686,-0.3284,9.3296,-0.0287,0.0199,-0.1153,-1.9079858265318812,0.0,3.0924878120422363,-1.9574058055877686,-0.0,1.6518561840057373,5.602784800320425,-4.408368803670255e-22,0.2571560740470886,-1.5350711981402796,0.0,-0.015887856483459473,0.7703853249549866,-0.0,0.018772223964333534,0.7515133619308472,3.722988714191522e-13,-0.031151635572314262
374.0,416.0,-2.6686,-0.3284,9.3296,-0.0287,0.0199,-0.1153,-1.9079777203001917,0.0,3.093014717102051,-1.9574296474456787,-0.0,1.6552238464355469,5.6027724025543115,-1.879356582619119e-24,0.24828264117240906,-1.5351389090167444,0.0,-0.018389694392681122,0.7703688740730286,-0.0,-0.0030186516232788563,0.7514486312866211,0.0006788558093830943,-0.0007072510197758675
374.0,416.0,-2.6686,-0.3284,9.3296,-0.0287,0.0199,-0.1153,-1.9080106220641078,0.0,3.0888447761535645,-1.957332730293274,-0.0,1.7011414766311646,5.602752017765798,-8.011991828167342e-27,0.2534636855125427,-1.5351389090167444,0.0,-0.017875149846076965,0.7704135179519653,-0.0,-0.0018716908525675535,0.7515048384666443,0.0008792934822849929,0.010687822476029396
374.0,416.0,-2.6686,-0.3284,9.3296,-0.0287,0.0199,-0.1153,-1.9079739056029261,0.0,3.151124954223633,-1.957450270652771,-0.0,1.6720654964447021,5.602748322277822,-2.230166878368753e-30,0.24315202236175537,-1.5351226965533655,0.0,-0.019737087190151215,0.7703489065170288,-0.0,-0.00020446855342015624,0.7515334486961365,0.0012885977048426867,-0.006142469588667154
374.0,416.0,-2.6686,-0.3284,9.3296,-0.0287,0.0199,-0.1153,-1.9080387554564417,0.0,3.1178317070007324,-1.957409143447876,-0.0,1.6876323223114014,5.602760183602133,-9.507551123716268e-33,0.26199284195899963,-1.5350988546954554,0.0,-0.006923561450093985,0.7704135179519653,-0.0,0.0034074471332132816,0.7515490651130676,0.0016530400607734919,0.03510083258152008
374.0,416.0,-2.6686,-0.3284,9.3296,-0.0287,0.0199,-0.1153,-1.9080268345274867,0.0,3.084218740463257,-1.957425594329834,-0.0,1.665141224861145,5.602780806809225,-2.6464615184199607e-36,0.24914833903312683,-1.5351465384112757,0.0,-0.020664039999246597,0.7704410552978516,-0.0,0.005266306921839714,0.7515771389007568,0.0024143632035702467,0.03951897472143173
374.0,416.0,-2.6686,-0.3284,9.3296,-0.0287,0.0199,-0.1153,-1.9079657993712367,0.0,3.1149139404296875,-1.957442045211792,-0.0,1.6602072715759277,5.602784800320425,-1.1282281332310721e-38,0.2548668086528778,-1.5351746718036097,0.0,-0.02048483118414879,0.7704533338546753,-0.0,-0.0020997379906475544,0.7515246272087097,0.003859454533085227,0.01325387042015791
374.0,416.0,-2.6686,-0.3284,9.3296,-0.0287,0.0199,-0.1153,-1.9079982242979945,0.0,3.079744815826416,-1.957409143447876,-0.0,1.6331740617752075,5.602748322277822,-3.140309858551915e-42,0.26212576031684875,-1.5351346174823206,0.0,-0.005991950165480375,0.7704052925109863,-0.0,0.003588522784411907,0.7515928745269775,0.005940132308751345,0.03285745531320572
374.0,416.0,-2.6686,-0.3284,9.3296,-0.0287,0.0199,-0.1153,-1.9079944096007289,0.0,3.0976014137268066,-1.9574544429779053,-0.0,1.7087037563323975,5.602720069676199,-2.2066226392780663e-06,0.2527279555797577,-1.5351946989642542,0.0,0.001629880629479885,0.7704213261604309,-0.0,0.004869058262556791,0.7515923976898193,0.007313011214137077,0.04278268292546272
374.0,416.0,-2.6686,-0.3284,9.3296,-0.0287,0.0199,-0.1153,-1.9080387554564417,0.0,3.101841926574707,-1.957409143447876,-0.0,1.6774734258651733,5.602772462158956,-0.0001505784603068605,0.25591209530830383,-1.5351269880877894,0.0,-0.00557410903275013,0.7703648209571838,-0.0,-0.009363354183733463,0.7516331076622009,0.007978761568665504,0.016269730404019356
387.0,395.0,-2.7685,-0.3105,9.484,-0.0376,0.0183,-0.1133,-1.9079581699767054,0.0,3.0876193046569824,-1.9573975801467896,-0.0,1.705456256866455,5.602740514069357,-0.0001452421274734661,0.25992634892463684,-1.5351350943194788,0.0,-0.028811601921916008,0.7704575061798096,-0.0,0.006332733668386936,0.7516769170761108,0.008992472663521767,0.023119455203413963
387.0,395.0,-2.7685,-0.3105,9.484,-0.0376,0.0183,-0.1133,-1.9080144367613734,-4.2010981360363076e-08,3.090374708175659,-1.9574296474456787,-0.0,1.679830551147461,5.602772521763601,-0.00016059800691436976,0.24932783842086792,-1.5351665655719202,0.0,-0.008790582418441772,0.7704533338546753,-0.0,-0.0088538508862257,0.7517169117927551,0.008493343368172646,0.028008203953504562
387.0,395.0,-2.7685,-0.3105,9.484,-0.0376,0.0183,-0.1133,-1.9079982242979945,-1.0145159587632638e-13,3.068751573562622,-1.957442045211792,-0.0,1.67219078540802,5.6026885388191126,-0.0001692736695986241,0.24718284606933594,-1.5351188818561,0.0,-0.011125598102807999,0.7703568935394287,-0.0,0.006128933746367693,0.7517526149749756,0.009490287862718105,0.023401301354169846
387.0,395.0,-2.7685,-0.3105,9.484,-0.0376,0.0183,-0.1133,-1.908046384850973,-1.826092688386557e-17,3.1261768341064453,-1.9574058055877686,7.215140840344247e-08,1.6850417852401733,5.602756547718801,-0.000346105225617066,0.24814602732658386,-1.5351269880877894,0.0,-0.023218587040901184,0.7704213261604309,-0.0,0.004347356967628002,0.7517927289009094,0.00965732242912054,0.03930290415883064
387.0,395.0,-2.7685,-0.3105,9.484,-0.0376,0.0183,-0.1133,-1.908046384850973,-4.4097990400458566e-23,3.0634918212890625,-1.9573696851730347,1.7423714381015198e-13,1.7139673233032227,5.602752852230825,-0.00040525320218876004,0.23584169149398804,-1.5351465384112757,0.0,-0.014546632766723633,0.7704131007194519,-0.0,0.00775029044598341,0.7518407702445984,0.009451447986066341,0.02666458860039711
387.0,395.0,-2.7685,-0.3105,9.484,-0.0376,0.0183,-0.1133,-1.9080387554564417,-7.937482991222844e-27,3.086824417114258,-1.957381010055542,3.1362073160192764e-17,1.7203933000564575,5.602732467442312,-0.0004227246972732246,0.23409363627433777,-1.535130802785055,0.0,-0.018859609961509705,0.7704533338546753,-0.0,0.0026075011119246483,0.7518767714500427,0.010041450150310993,0.0590454526245594
387.0,395.0,-2.7685,-0.3105,9.484,-0.0376,0.0183,-0.1133,-1.908046384850973,-0.00030556804267689586,3.0670719146728516,-1.9573376178741455,5.6450617786254595e-21,1.7047276496887207,5.602720546513357,-0.0006994607974775136,0.24697871506214142,-1.5351269880877894,0.0,-0.02514105662703514,0.7703565955162048,-0.0,0.0031955649610608816,0.7519411444664001,0.009659011848270893,0.03476220369338989
387.0,395.0,-2.7685,-0.3105,9.484,-0.0376,0.0183,-0.1133,-1.9080220661559046,-0.0002814801991917193,3.0477497577667236,-1.9573853015899658,0.0005062669515609741,1.6448097229003906,5.602724599629202,-0.0008824507240206003,0.2530098557472229,-1.5351904074298304,0.0,-0.038450125604867935,0.7704135179519653,-0.0,-0.0017784174997359514,0.7520008087158203,0.009007821790874004,0.05229244381189346
387.0,395.0,-2.7685,-0.3105,9.484,-0.0376,0.0183,-0.1133,-1.9080506763853968,-0.0003001845034305006,3.0496740341186523,-1.9573893547058105,0.0005440891836769879,1.7189478874206543,5.6026885388191126,-0.000942121958360076,0.25627559423446655,-1.535182301198141,0.0,-0.04244187846779823,0.7704331874847412,-0.0,-0.004495158325880766,0.7519805431365967,0.009395996108651161,0.1142171323299408
387.0,395.0,-2.7685,-0.3105,9.484,-0.0376,0.0183,-0.1133,-1.9080263576903285,-0.000300107232760638,3.0554237365722656,-1.9573974609375,0.00069100980181247,1.6954939365386963,5.602704512863912,-0.0011295388685539365,0.2169959843158722,-1.5351346174823206,0.0,-0.03008117713034153,0.7704053521156311,-0.0,-0.0001660106936469674,0.752072811126709,0.010609972290694714,0.13108883798122406
387.0,395.0,-2.7685,-0.3105,9.484,-0.0376,0.0183,-0.1133,-1.9080101452269496,-0.00030857507954351604,3.085390567779541,-1.9573417901992798,0.0007340338779613376,1.6917595863342285,5.602700876980581,-0.0012171479174867272,0.23604285717010498,-1.535114590321676,0.0,-0.04984021186828613,0.7704291343688965,-0.0,0.003325135912746191,0.7521248459815979,0.010943717323243618,0.15200719237327576
387.0,395.0,-2.7685,-0.3105,9.484,-0.0376,0.0183,-0.1133,-1.9080506763853968,-0.0003347096499055624,3.0671048164367676,-1.9573416709899902,0.001105008297599852,1.7256557941436768,5.602684545307913,-0.001294327201321721,0.23047500848770142,-1.5351384321795862,0.0,-0.04127147048711777,0.7704614400863647,-0.0,0.008639289066195488,0.752180814743042,0.01271984912455082,0.17243868112564087
387.0,395.0,-2.7685,-0.3105,9.484,-0.0376,0.0183,-0.1133,-1.908018251458639,-0.00034966168459504843,3.027027130126953,-1.9573458433151245,0.0015130063984543085,1.700862169265747,5.602672505169668,-0.0014896231004968286,0.22438737750053406,-1.5351269880877894,0.0,-0.052590176463127136,0.7704532146453857,-0.0,0.011149482801556587,0.7522531747817993,0.014204476960003376,0.18408240377902985
387.0,395.0,-2.7685,-0.3105,9.484,-0.0376,0.0183,-0.1133,-1.9080425701537074,-0.0003613377339206636,3.0567519664764404,-1.9573737382888794,0.0018316236091777682,1.7283238172531128,5.6026609418685815,-0.0027767319697886705,0.2097185254096985,-1.5351508299456995,0.0,-0.053414274007081985,0.7703930139541626,-0.0,0.01757846772670746,0.7522642612457275,0.016070004552602768,0.21744710206985474
387.0,395.0,-2.7685,-0.3105,9.484,-0.0376,0.0183,-0.1133,-1.9080263576903285,-0.0005251943948678672,3.048429012298584,-1.9573301076889038,0.003069906262680888,1.7549629211425781,5.602600681572714,-0.006416481453925371,0.21730205416679382,-1.5351508299456995,0.0,-0.05137583613395691,0.7704492211341858,-0.0,0.0027383361011743546,0.7523767352104187,0.017854660749435425,0.23535534739494324
387.0,395.0,-2.7685,-0.3105,9.484,-0.0376,0.0183,-0.1133,-1.9080578289427699,-0.0005274579743854702,3.059250831604004,-1.9573055505752563,0.0044286311604082584,1.7657816410064697,5.602601158409872,-0.010378939099609852,0.1990644931793213,-1.5351226965533655,0.0,-0.0629783570766449,0.7704655528068542,-0.0,0.004073723219335079,0.7525053024291992,0.01928674802184105,0.22238245606422424
387.0,395.0,-2.7685,-0.3105,9.484,-0.0376,0.0183,-0.1133,-1.9080263576903285,-0.00047845710651017725,3.041905403137207,-1.9572815895080566,0.005892319139093161,1.7717169523239136,5.602504837303915,-0.010415095835924149,0.19604483246803284,-1.5350950399981897,0.0,-0.06706816703081131,0.770412802696228,-0.0,0.016059916466474533,0.7525848150253296,0.0215295422822237,0.283680260181427
387.0,395.0,-2.7685,-0.3105,9.484,-0.0376,0.0183,-0.1133,-1.9080382786192835,-0.00047469124547205865,3.097214460372925,-1.9572815895080566,0.007447183597832918,1.8314368724822998,5.60247294881896,-0.007478184998035431,0.19540618360042572,-1.5351226965533655,0.0,-0.054376132786273956,0.7704727649688721,-0.0,0.014004352502524853,0.7526808977127075,0.023321231827139854,0.2887450158596039
387.0,395.0,-2.7685,-0.3105,9.484,-0.0376,0.0183,-0.1133,-1.9080702267088832,-0.0005907300510443747,3.1037118434906006,-1.9571698904037476,0.009505567140877247,1.8120129108428955,5.602485346585073,-0.0033424096181988716,0.18270203471183777,-1.53514272371401,-0.00018513918621465564,-0.06895649433135986,0.7704532146453857,-0.0,0.0111856609582901,0.7528247833251953,0.027370357885956764,0.29024237394332886
394.0,401.0,-2.8893,-0.5139,9.5569,-0.0458,0.0174,-0.1025,-1.9080945454039515,-0.0010389566887170076,3.055882453918457,-1.9571220874786377,0.010978865437209606,1.7821356058120728,5.602409052639761,-0.0016076276078820229,0.19113746285438538,-1.5351584593402308,-0.00020240110461600125,-0.07532906532287598,0.7704451680183411,-0.0,0.02544642984867096,0.7529972791671753,0.029065653681755066,0.3119739890098572
394.0,401.0,-2.8893,-0.5139,9.5569,-0.0458,0.0174,-0.1025,-1.9080459080138148,-0.0014963921857997775,3.0899484157562256,-1.957134485244751,0.01257628295570612,1.826465129852295,5.602461027890005,-0.0009288411820307374,0.17766304314136505,-1.5351389090167444,-0.00019223516574129462,-0.0674317479133606,0.7704686522483826,-0.0,0.0278925821185112,0.7530648708343506,0.03245639428496361,0.37992849946022034
394.0,401.0,-2.8893,-0.5139,9.5569,-0.0458,0.0174,-0.1025,-1.9080659351744593,-0.0030084988102316856,2.999445915222168,-1.9570019245147705,0.015104413963854313,1.8148770332336426,5.602436947613516,-0.0008348635747097433,0.18177318572998047,-1.5351508299456995,-0.00019881775369867682,-0.07418155670166016,0.7704931497573853,-0.0,0.022602032870054245,0.7532324194908142,0.03735765069723129,0.4583079516887665
394.0,401.0,-2.8893,-0.5139,9.5569,-0.0458,0.0174,-0.1025,-1.9080783329405726,-0.004091799724847078,3.023344039916992,-1.956985354423523,0.015812965109944344,1.8401483297348022,5.602409052639761,-0.001965532312169671,0.17533962428569794,-1.5351703802691858,-0.00019038328900933266,-0.07992786169052124,0.7704368829727173,-0.0,0.026533186435699463,0.7534652352333069,0.039742130786180496,0.3808938264846802
394.0,401.0,-2.8893,-0.5139,9.5569,-0.0458,0.0174,-0.1025,-1.9081021747984828,-0.005816866643726826,2.9697799682617188,-1.9568413496017456,0.017871448770165443,1.8806731700897217,5.602380740433492,-0.004038201179355383,0.17103789746761322,-1.5351389090167444,-0.00017457068315707147,-0.07695631682872772,0.7704247236251831,-0.0,0.030388446524739265,0.7536444664001465,0.04210129380226135,0.42409998178482056
394.0,401.0,-2.8893,-0.5139,9.5569,-0.0458,0.0174,-0.1025,-1.9081665478148402,-0.006684534717351198,2.975200653076172,-1.9567904472351074,0.01963062584400177,1.8625209331512451,5.602389502316274,-0.004792754538357258,0.1573837399482727,-1.5351107756244105,-0.0001654034567764029,-0.0828285664319992,0.7704086899757385,-0.0,0.03412381932139397,0.7538245916366577,0.04329710826277733,0.45150554180145264
394.0,401.0,-2.8893,-0.5139,9.5569,-0.0458,0.0174,-0.1025,-1.908154150048727,-0.007258202880620956,2.9508495330810547,-1.9567137956619263,0.019912686198949814,1.9038927555084229,5.602381217270651,-0.00553578557446599,0.15972444415092468,-1.5351069609271448,-0.00017809790733736008,-0.07910569757223129,0.7704532146453857,-0.0,0.04251979663968086,0.7540531158447266,0.04410075023770332,0.4742816090583801
394.0,401.0,-2.8893,-0.5139,9.5569,-0.0458,0.0174,-0.1025,-1.9082099399962367,-0.006786221172660589,2.9562394618988037,-1.95662260055542,0.021582502871751785,1.8876452445983887,5.602292704373159,-0.006688459310680628,0.16314885020256042,-1.5351665655719202,-0.00016709580086171627,-0.07932648807764053,0.7704651951789856,-1.6273449254811112e-09,0.03639397770166397,0.7543249726295471,0.0458829365670681,0.4712337851524353
394.0,401.0,-2.8893,-0.5139,9.5569,-0.0458,0.0174,-0.1025,-1.9082385502257289,-0.006721170619130135,2.952739715576172,-1.9565303325653076,0.023107018321752548,1.9172148704528809,5.602289068489828,-0.007312926929444075,0.14017640054225922,-1.5351546446429651,-0.00016008011880330741,-0.08722139149904251,0.770392656326294,-6.937626688408027e-12,0.03203430026769638,0.7545247673988342,0.047650378197431564,0.4694153070449829
394.0,401.0,-2.8893,-0.5139,9.5569,-0.0458,0.0174,-0.1025,-1.908318658868307,-0.008636180311441422,2.932894229888916,-1.956358551979065,0.022804835811257362,1.9042315483093262,5.602245199471273,-0.00834256038069725,0.1558975726366043,-1.5352070967303675,-0.00017616612603887916,-0.09357203543186188,0.770449161529541,-1.9311137822701106e-15,0.038002580404281616,0.7548450231552124,0.05076756700873375,0.5193428993225098
394.0,401.0,-2.8893,-0.5139,9.5569,-0.0458,0.0174,-0.1025,-1.908342023889059,-0.008787302300333977,2.9892539978027344,-1.9562745094299316,0.02410549856722355,1.943913459777832,5.602241623192587,-0.008493210189044476,0.14564523100852966,-1.5351546446429651,-0.00019548134878277779,-0.08094017207622528,0.7704205513000488,-8.232640777887116e-18,0.03768353536725044,0.7550367712974548,0.052574120461940765,0.5172566175460815
394.0,401.0,-2.8893,-0.5139,9.5569,-0.0458,0.0174,-0.1025,-1.9084426365294398,-0.009724514558911324,2.936777114868164,-1.9560861587524414,0.025700492784380913,1.934023141860962,5.6021731970603845,-0.009394723922014236,0.13296100497245789,-1.5351508299456995,-0.00017679833399597555,-0.08850044012069702,0.7705169320106506,-2.2915853433722138e-21,0.03466702252626419,0.7553484439849854,0.057983122766017914,0.5410507321357727
394.0,401.0,-2.8893,-0.5139,9.5569,-0.0458,0.0174,-0.1025,-1.908478399316305,-0.010376176796853542,2.9618818759918213,-1.9559906721115112,0.027543632313609123,1.9320247173309326,5.602153527527609,-0.009264244697988033,0.13226208090782166,-1.535090748463766,-0.00016593206964898854,-0.09176837652921677,0.7705051302909851,-9.769388345471803e-24,0.04678908735513687,0.7556087374687195,0.06368332356214523,0.6015160083770752
394.0,401.0,-2.8893,-0.5139,9.5569,-0.0458,0.0174,-0.1025,-1.9084741077818812,-0.010576875880360603,2.9424099922180176,-1.9559118747711182,0.029586555436253548,1.9911994934082031,5.602117526322164,-0.010120158083736897,0.12699542939662933,-1.5351465384112757,-0.00015632400754839182,-0.08695641160011292,0.7705331444740295,-4.164843534408819e-26,0.04143958166241646,0.7557919025421143,0.06594497710466385,0.5539742708206177
394.0,401.0,-2.8893,-0.5139,9.5569,-0.0458,0.0174,-0.1025,-1.908541818658346,-0.011241575703024864,2.9029083251953125,-1.9556673765182495,0.03629820793867111,1.9847745895385742,5.602037954121389,-0.011213765479624271,0.12291286885738373,-1.5351069609271448,-0.00014383153757080436,-0.08610101789236069,0.7704887390136719,-1.1592993864758675e-29,0.04603634774684906,0.7562643885612488,0.07009577006101608,0.6066074371337891
394.0,401.0,-2.8893,-0.5139,9.5569,-0.0458,0.0174,-0.1025,-1.908610006371969,-0.012203454971313477,2.9647269248962402,-1.9555233716964722,0.04149633273482323,2.020005702972412,5.601945268898763,-0.011319306679069996,0.11227405071258545,-1.5351031462298792,-0.00013655672955792397,-0.0826379805803299,0.7704522013664246,-4.942275484967295e-32,0.0505811832845211,0.7566128969192505,0.0726759061217308,0.6178208589553833
394.0,401.0,-2.8893,-0.5139,9.5569,-0.0458,0.0174,-0.1025,-1.9086939297118128,-0.013691380620002747,2.8547773361206055,-1.9552799463272095,0.05177948251366615,2.0168347358703613,5.601893293648519,-0.012212228029966354,0.10749597102403641,-1.535130802785055,-0.00012692698510363698,-0.0980222076177597,0.7704887390136719,-1.3757006112074417e-35,0.061913229525089264,0.7570483684539795,0.07642611116170883,0.6054190397262573
394.0,401.0,-2.8893,-0.5139,9.5569,-0.0458,0.0174,-0.1025,-1.9087778530516566,-0.01636846922338009,2.8641915321350098,-1.955064296722412,0.05870892107486725,2.0871400833129883,5.601829755097189,-0.01325121521949768,0.11187614500522614,-1.5351713339435022,-0.0001112937243306078,-0.08594752848148346,0.7704488635063171,-5.864827557808142e-38,0.038941144943237305,0.7574005126953125,0.07967150211334229,0.6010503768920898
389.0,418.0,-3.3763,-0.8794,9.7149,-0.0513,0.0554,-0.0458,-1.9088736973204554,-0.022142792120575905,2.856147289276123,-1.9546198844909668,0.0710223913192749,2.086315155029297,5.6017618654067896,-0.015645457431674004,0.1017259955406189,-1.53514272371401,-9.465132461627945e-05,-0.08932735025882721,0.7704611420631409,-1.632512710938412e-41,0.05460265651345253,0.757884681224823,0.08489971607923508,0.5830344557762146
389.0,418.0,-3.3763,-0.8794,9.7149,-0.0513,0.0554,-0.0458,-1.9089576206602992,-0.026526762172579765,2.876962184906006,-1.9543484449386597,0.07975863665342331,2.0910353660583496,5.601694333344259,-0.018281197175383568,0.0913444459438324,-1.535158936177389,-9.082764881895855e-05,-0.08459136635065079,0.7705488801002502,-7.006492321624085e-44,0.06077815592288971,0.7582319378852844,0.08967576175928116,0.6444209218025208
389.0,418.0,-3.3763,-0.8794,9.7149,-0.0513,0.0554,-0.0458,-1.909065385858053,-0.029300061985850334,2.816814422607422,-1.954024314880371,0.08835542947053909,2.1064059734344482,5.601521777897634,-0.02214847132563591,0.061388060450553894,-1.5350869337665003,-8.730328409001231e-05,-0.08121155202388763,0.7704529166221619,-0.0,0.05919073149561882,0.7586321830749512,0.09437339752912521,0.6117992997169495
389.0,418.0,-3.3763,-0.8794,9.7149,-0.0513,0.0554,-0.0458,-1.909285684625143,-0.031484004110097885,2.8315253257751465,-1.9534295797348022,0.10237859934568405,2.159055709838867,5.6014267084892175,-0.027323883026838303,0.06161947920918465,-1.5350988546954554,-6.816208042437211e-05,-0.08009336143732071,0.7704764008522034,-0.0,0.05244515463709831,0.7592079043388367,0.10114535689353943,0.6560158729553223
389.0,418.0,-3.3763,-0.8794,9.7149,-0.0513,0.0554,-0.0458,-1.9094015560545863,-0.03065147064626217,2.7953438758850098,-1.953034520149231,0.11246582865715027,2.183168411254883,5.601298975735464,-0.030659066513180733,0.0594385601580143,-1.535086456929342,-6.367583409883082e-05,-0.06748427450656891,0.7704727649688721,-0.0,0.054259296506643295,0.7597086429595947,0.1042870432138443,0.6387770771980286
389.0,418.0,-3.3763,-0.8794,9.7149,-0.0513,0.0554,-0.0458,-1.9096538029112757,-0.02967161312699318,2.809947967529297,-1.9522019624710083,0.1291493922472,2.211933135986328,5.6011032340820215,-0.03617876023054123,0.05369366705417633,-1.5350588003741663,-4.5853765186620876e-05,-0.059223998337984085,0.7705291509628296,0.00010737815318861976,0.06864774972200394,0.7603360414505005,0.11249390989542007,0.6390371322631836
389.0,418.0,-3.3763,-0.8794,9.7149,-0.0513,0.0554,-0.0458,-1.9097334347166957,-0.027917616069316864,2.826411247253418,-1.95161771774292,0.13860385119915009,2.236567258834839,5.600935387402334,-0.0420721173286438,0.05938905104994774,-1.5350826422320765,-4.3872791138710454e-05,-0.07482101023197174,0.7705050706863403,0.00010418087913421914,0.05721947178244591,0.7608560919761658,0.11893799155950546,0.6692167520523071
389.0,418.0,-3.3763,-0.8794,9.7149,-0.0513,0.0554,-0.0458,-1.9099494419493617,-0.0277998186647892,2.8335421085357666,-1.9507876634597778,0.14796744287014008,2.2171173095703125,5.600627648621359,-0.05386144295334816,0.052562981843948364,-1.5350983778582972,4.214933142066002e-05,-0.06482978910207748,0.7705131769180298,9.74215436144732e-05,0.06190436705946922,0.7615761756896973,0.1244565099477768,0.6127720475196838
389.0,418.0,-3.3763,-0.8794,9.7149,-0.0513,0.0554,-0.0458,-1.9100166759886683,-0.02876930683851242,2.864159107208252,-1.950200080871582,0.15614457428455353,2.231931447982788,5.600395786553182,-0.06625068932771683,0.03262566775083542,-1.5351031462298792,4.093549432582222e-05,-0.05922576040029526,0.7704805135726929,9.337832307210192e-05,0.05724717676639557,0.7621037364006042,0.12775662541389465,0.6521374583244324
389.0,418.0,-3.3763,-0.8794,9.7149,-0.0513,0.0554,-0.0458,-1.9102055035033167,-0.028330298140645027,2.808368682861328,-1.9494853019714355,0.16600537300109863,2.20233416557312,5.600076186447897,-0.08440648764371872,0.04655316472053528,-1.5351150671588343,5.8398414694238454e-05,-0.05907440558075905,0.770500898361206,8.965737652033567e-05,0.044665396213531494,0.7626036405563354,0.12884391844272614,0.6641153693199158
389.0,418.0,-3.3763,-0.8794,9.7149,-0.0513,0.0554,-0.0458,-1.910349031487936,-0.026051027700304985,2.84792160987854,-1.948417067527771,0.18722286820411682,2.3093643188476562,5.599412429123678,-0.12355498224496841,0.023158226162195206,-1.535102669392721,5.513749783858657e-05,-0.05939876288175583,0.7705050706863403,8.460049139102921e-05,0.055529672652482986,0.7634166479110718,0.13058097660541534,0.6412360072135925
389.0,418.0,-3.3763,-0.8794,9.7149,-0.0513,0.0554,-0.0458,-1.9104892216124476,-0.02374122478067875,2.8220252990722656,-1.9476463794708252,0.19948548078536987,2.3235206604003906,5.598881590157308,-0.14815092086791992,0.010250908322632313,-1.535090748463766,5.2973944548284635e-05,-0.059799693524837494,0.7705251574516296,8.153457747539505e-05,0.07046224921941757,0.7639206647872925,0.13172172009944916,0.6146513819694519
389.0,418.0,-3.3763,-0.8794,9.7149,-0.0513,0.0554,-0.0458,-1.9105645618834437,-0.020823998376727104,2.827597141265869,-1.9463874101638794,0.21525058150291443,2.335012912750244,5.597862708359518,-0.17312754690647125,-0.001136935199610889,-1.5351150671588343,6.67006679577753e-05,-0.05940164253115654,0.770468533039093,7.733109669061378e-05,0.06870156526565552,0.7647575736045837,0.13459303975105286,0.6385094523429871
389.0,418.0,-3.3763,-0.8794,9.7149,-0.0513,0.0554,-0.0458,-1.9107052288451136,-0.019358189776539803,2.871547222137451,-1.9455616474151611,0.22096656262874603,2.311966896057129,5.597200202732839,-0.18353460729122162,-0.020817283540964127,-1.5351069609271448,6.432180089177564e-05,-0.06061391159892082,0.7704804539680481,7.476133032469079e-05,0.06384912133216858,0.7652818560600281,0.135660320520401,0.6497341394424438
389.0,418.0,-3.3763,-0.8794,9.7149,-0.0513,0.0554,-0.0458,-1.9107724628844203,-0.017468705773353577,2.84676456451416,-1.9441465139389038,0.23745636641979218,2.3045616149902344,5.59597413518981,-0.2236977517604828,-0.028197117149829865,-1.5351226965533655,6.104946078266948e-05,-0.04378342628479004,0.7704805135726929,7.121217640815303e-05,0.051070235669612885,0.7661303877830505,0.14390531182289124,0.6200925707817078
389.0,418.0,-3.3763,-0.8794,9.7149,-0.0513,0.0554,-0.0458,-1.910833021203512,-0.015102948062121868,2.855774402618408,-1.943143367767334,0.2516794800758362,2.3818962574005127,5.5949874995048425,-0.24777454137802124,-0.039082907140254974,-1.5350826422320765,5.904678255319595e-05,-0.0478447750210762,0.7704727649688721,6.902449968038127e-05,0.06694461405277252,0.7666420936584473,0.15003612637519836,0.616775631904602
389.0,418.0,-3.3763,-0.8794,9.7149,-0.0513,0.0554,-0.0458,-1.9108807049193324,-0.013212335295975208,2.842440128326416,-1.9421242475509644,0.2677808105945587,2.3998889923095703,5.593904840737142,-0.2606249153614044,-0.04447542876005173,-1.535130802785055,5.717134627047926e-05,-0.05069608613848686,0.7705169320106506,6.697278149658814e-05,0.04228637367486954,0.7672712802886963,0.15251387655735016,0.6636850833892822
389.0,418.0,-3.3763,-0.8794,9.7149,-0.0513,0.0554,-0.0458,-1.9109522304930628,-0.011444498784840107,2.8605003356933594,-1.9404746294021606,0.27806299924850464,2.389694929122925,5.5923194763954065,-0.28680139780044556,-0.059443771839141846,-1.5350902716266077,6.815426604589447e-05,-0.04977301508188248,0.7704563736915588,6.410687637981027e-05,0.06835588067770004,0.7681880593299866,0.1484018862247467,0.6459180116653442
389.0,418.0,-3.3763,-0.8794,9.7149,-0.0513,0.0554,-0.0458,-1.9110166035094203,-0.01190353836864233,2.838268280029297,-1.9392874240875244,0.28268489241600037,2.418243885040283,5.591021227627554,-0.3058618903160095,-0.06583698838949203,-1.5351069609271448,0.00016221817350015044,-0.041197821497917175,0.7704886794090271,6.233096064534038e-05,0.052862294018268585,0.768812358379364,0.14227738976478577,0.6068756580352783
407.0,369.0,-4.0152,-1.0481,10.0008,-0.0932,-0.0231,0.0402,-1.9110967121519984,-0.010829531587660313,2.8803133964538574,-1.9374340772628784,0.30447715520858765,2.4179534912109375,5.589144754200735,-0.338854044675827,-0.07422281801700592,-1.5351188818561,0.00014711322728544474,-0.034805163741111755,0.7705050706863403,5.9844180213985965e-05,0.03946264833211899,0.7696854472160339,0.14196906983852386,0.5982115268707275
407.0,369.0,-4.0152,-1.0481,10.0008,-0.0932,-0.0231,0.0402,-1.9110599956908167,-0.009638405404984951,2.8775711059570312,-1.9362030029296875,0.32026010751724243,2.4730424880981445,5.587730872422018,-0.36555215716362,-0.09369173645973206,-1.5351069609271448,0.00013808418589178473,-0.038360122591257095,0.770500898361206,5.82936845603399e-05,0.05715717375278473,0.7701929807662964,0.14144471287727356,0.6169371604919434
407.0,369.0,-4.0152,-1.0481,10.0008,-0.0932,-0.0231,0.0402,-1.911107679406637,-0.007029998581856489,2.8691020011901855,-1.9342641830444336,0.33218905329704285,2.4102602005004883,5.585374104767599,-0.4006771445274353,-0.10375215858221054,-1.5351226965533655,0.00014839500363450497,-0.05702561140060425,0.7705251574516296,5.6112992751877755e-05,0.05240804702043533,0.7710539698600769,0.14459699392318726,0.6285362839698792
407.0,369.0,-4.0152,-1.0481,10.0008,-0.0932,-0.0231,0.0402,-1.9111396274962367,-0.005200516898185015,2.881798267364502,-1.93292236328125,0.3399544060230255,2.481213092803955,5.583757447987356,-0.42705121636390686,-0.10938883572816849,-1.5351031462298792,0.0001201169507112354,-0.04992784932255745,0.7704768776893616,5.474761201185174e-05,0.0470905527472496,0.7716226577758789,0.1485554724931717,0.6418713927268982
407.0,369.0,-4.0152,-1.0481,10.0008,-0.0932,-0.0231,0.0402,-1.911204000512594,-0.003198605729267001,2.893549919128418,-1.931451439857483,0.3503666818141937,2.494708299636841,5.581924307137289,-0.45132166147232056,-0.14154329895973206,-1.5351031462298792,0.00013620135723613203,-0.048075348138809204,0.7705211043357849,5.344720193534158e-05,0.05979790538549423,0.7722638249397278,0.15371949970722198,0.6878677010536194
407.0,369.0,-4.0152,-1.0481,10.0008,-0.0932,-0.0231,0.0402,-1.911236425439352,-0.001542840269394219,2.922858715057373,-1.929221272468567,0.3704998195171356,2.5252034664154053,5.579056966095724,-0.4806223213672638,-0.1388767659664154,-1.5350831190692347,0.00013717813999392092,-0.03958965837955475,0.770476758480072,5.1608287321869284e-05,0.05592712387442589,0.7731481194496155,0.1572595238685608,0.6533080339431763
407.0,369.0,-4.0152,-1.0481,10.0008,-0.0932,-0.0231,0.0402,-1.91117586712026,-0.0009445409523323178,2.9387385845184326,-1.927808403968811,0.38486242294311523,2.5145151615142822,5.577027070313253,-0.513449490070343,-0.1805957555770874,-1.5350506941424769,0.00016074147424660623,-0.04006627947092056,0.7704612016677856,5.045107536716387e-05,0.07082509994506836,0.7737604975700378,0.15701720118522644,0.6375362873077393
407.0,369.0,-4.0152,-1.0481,10.0008,-0.0932,-0.0231,0.0402,-1.9111963711180628,-0.0007443102076649666,2.8801817893981934,-1.925377607345581,0.4066410958766937,2.565995216369629,5.573802101403036,-0.5579619407653809,-0.16012084484100342,-1.535074536000387,0.00027861862326972187,-0.03234504908323288,0.7704887390136719,4.196040208626073e-07,0.05922279506921768,0.7746734023094177,0.15193600952625275,0.6381885409355164
407.0,369.0,-4.0152,-1.0481,10.0008,-0.0932,-0.0231,0.0402,-1.9111558399596156,-0.0004922325606457889,2.889420986175537,-1.9237656593322754,0.4159071445465088,2.6102652549743652,5.571493255883016,-0.579937219619751,-0.16133685410022736,-1.5350588003741663,0.00030072609661147,-0.030534744262695312,0.770513117313385,1.788837855620784e-09,0.03397104889154434,0.7752535343170166,0.14636141061782837,0.5990409255027771
407.0,369.0,-4.0152,-1.0481,10.0008,-0.0932,-0.0231,0.0402,-1.9111963711180628,-0.0004258783592376858,2.9089314937591553,-1.9220887422561646,0.42868155241012573,2.5559158325195312,5.569162177830496,-0.5992089509963989,-0.13805826008319855,-1.5350826422320765,0.0006096576107665896,-0.03506144508719444,0.7705290913581848,7.626096802659799e-12,0.04883359372615814,0.7758296728134155,0.14358988404273987,0.5360287427902222
407.0,369.0,-4.0152,-1.0481,10.0008,-0.0932,-0.0231,0.0402,-1.911187311212057,-0.0013786796480417252,2.942809581756592,-1.9194763898849487,0.44539597630500793,2.6474592685699463,5.565375852375784,-0.6385574340820312,-0.14282508194446564,-1.5350468794452112,0.0004626308218576014,-0.01964341104030609,0.7704848647117615,2.1227520219710807e-15,0.05767480283975601,0.7767747640609741,0.14890147745609283,0.5442472100257874
407.0,369.0,-4.0152,-1.0481,10.0008,-0.0932,-0.0231,0.0402,-1.911264558831686,-0.0029468988068401814,2.93858003616333,-1.9176501035690308,0.45685863494873047,2.651793956756592,5.562715875893392,-0.6641305088996887,-0.1519593447446823,-1.5350468794452112,0.00038365699583664536,-0.004414296709001064,0.7704368829727173,9.049623080667977e-18,0.04214933514595032,0.7773268818855286,0.15607669949531555,0.5985087156295776
407.0,369.0,-4.0152,-1.0481,10.0008,-0.0932,-0.0231,0.0402,-1.9112807712950648,-0.0028511860873550177,2.906668186187744,-1.9148368835449219,0.4819377362728119,2.6712028980255127,5.5585811016853235,-0.6929634213447571,-0.153291717171669,-1.5350387732135218,0.00030546440393663943,-0.02422979101538658,0.7704887390136719,2.518995792235724e-21,0.059458233416080475,0.7782474756240845,0.16363094747066498,0.5457594394683838
407.0,369.0,-4.0152,-1.0481,10.0008,-0.0932,-0.0231,0.0402,-1.9112564525999964,-0.0019193298649042845,2.92645525932312,-1.9128985404968262,0.4916023910045624,2.62772798538208,5.555743443756857,-0.7140709757804871,-0.14274895191192627,-1.5350912253009241,0.00030855057411827147,-0.022519344463944435,0.7704887390136719,1.073887473216127e-23,0.054917749017477036,0.7789286971092224,0.16550035774707794,0.5673867464065552
407.0,369.0,-4.0152,-1.0481,10.0008,-0.0932,-0.0231,0.0402,-1.9112841091551722,-0.0011481685796752572,2.9537277221679688,-1.9099096059799194,0.5089872479438782,2.696044921875,5.551295387535848,-0.7458788156509399,-0.13594457507133484,-1.535011116658346,0.00031763396691530943,-0.013756894506514072,0.7704410552978516,2.9892054369903074e-27,0.04562458395957947,0.7798407673835754,0.16382275521755219,0.5741482973098755
407.0,369.0,-4.0152,-1.0481,10.0008,-0.0932,-0.0231,0.0402,-1.9112521610655726,-0.0008694283314980567,2.934476375579834,-1.907863736152649,0.5127999186515808,2.664511203765869,5.548201846867361,-0.7598688006401062,-0.13345709443092346,-1.5350506941424769,0.00032981170807033777,-0.025601953268051147,0.7704532146453857,1.2743452630936698e-29,0.050093408674001694,0.7805334329605103,0.1582784354686737,0.5381688475608826
407.0,369.0,-4.0152,-1.0481,10.0008,-0.0932,-0.0231,0.0402,-1.9112922153868617,-0.003643590724095702,2.922463893890381,-1.905707597732544,0.5217666625976562,2.7243900299072266,5.5451251147087,-0.7859294414520264,-0.12137708067893982,-1.5350311438189905,0.00025751395151019096,-0.01947629079222679,0.7704768180847168,5.432734045926982e-32,0.04451187327504158,0.7812224626541138,0.155677929520607,0.5217339992523193
407.0,369.0,-4.0152,-1.0481,10.0008,-0.0932,-0.0231,0.0402,-1.9113360844054164,-0.00831442978233099,2.955179214477539,-1.9024568796157837,0.5373737812042236,2.615710735321045,5.540318536549368,-0.8070352673530579,-0.16049252450466156,-1.5350187460528772,0.00028219292289577425,-0.014300686307251453,0.7704611420631409,1.5122215378803585e-35,0.05619215965270996,0.782223641872406,0.15941236913204193,0.5380021333694458
387.0,384.0,-3.7244,-1.7994,10.066,-0.0512,-0.2671,0.0716,-1.9113556347289027,-0.010708319954574108,2.9755473136901855,-1.900281548500061,0.5454360842704773,2.678302764892578,5.537033247738638,-0.8219799399375916,-0.13315540552139282,-1.535062615071432,0.00027752804453484714,-0.009505986236035824,0.7704644799232483,6.446838377825726e-38,0.053979627788066864,0.7828317284584045,0.1644689291715622,0.49810272455215454
387.0,384.0,-3.7244,-1.7994,10.066,-0.0512,-0.2671,0.0716,-1.9113999805846156,-0.011477028019726276,2.947270393371582,-1.896960735321045,0.5546365976333618,2.6743369102478027,5.532003330975332,-0.8513550162315369,-0.13698124885559082,-1.5350030104266565,0.0002451998880133033,-0.005358692724257708,0.7704410552978516,1.7945028134143607e-41,0.05121748149394989,0.7837483286857605,0.17085790634155273,0.481234610080719
387.0,384.0,-3.7244,-1.7994,10.066,-0.0512,-0.2671,0.0716,-1.9114681682982386,-0.011054706759750843,2.9347972869873047,-1.894754409790039,0.5635654926300049,2.665538787841797,5.5286056874092,-0.8595331907272339,-0.13155516982078552,-1.5350506941424769,0.0002274893195135519,-0.002784053096547723,0.7704691886901855,7.707141553786494e-44,0.0438670814037323,0.7845212817192078,0.17702747881412506,0.4867275357246399
387.0,384.0,-3.7244,-1.7994,10.066,-0.0512,-0.2671,0.0716,-1.911527772943014,-0.008984923362731934,2.943342924118042,-1.8913341760635376,0.5764875411987305,2.600968837738037,5.523376214295187,-0.8806238174438477,-0.13445284962654114,-1.5350430647479456,0.0002306906972080469,-0.0009308074368163943,0.77045738697052,0.0,0.03801780939102173,0.7854534983634949,0.17633220553398132,0.45543161034584045
387.0,384.0,-3.7244,-1.7994,10.066,-0.0512,-0.2671,0.0716,-1.9116360149779261,-0.008174865506589413,2.949117660522461,-1.889034390449524,0.5837450623512268,2.6318111419677734,5.519871938019552,-0.889643669128418,-0.13948245346546173,-1.5350192228900355,0.00022020554752089083,0.002728218212723732,0.7704727649688721,0.0,0.054876312613487244,0.7861256003379822,0.16924245655536652,0.5090138912200928
387.0,384.0,-3.7244,-1.7994,10.066,-0.0512,-0.2671,0.0716,-1.91164030651235,-0.009395970962941647,2.9928500652313232,-1.8867477178573608,0.5846214890480042,2.6282341480255127,5.516216087132253,-0.9015040397644043,-0.14188970625400543,-1.5350468794452112,0.00024776908685453236,0.000989516032859683,0.7704727649688721,0.0,0.041809264570474625,0.7869114875793457,0.16723476350307465,0.48296335339546204
387.0,384.0,-3.7244,-1.7994,10.066,-0.0512,-0.2671,0.0716,-1.911788126031393,-0.014607847668230534,2.954681396484375,-1.8831653594970703,0.5954177975654602,2.636590003967285,5.510711836605825,-0.9296524524688721,-0.11860818415880203,-1.5350468794452112,0.0002577417762950063,-0.006341122556477785,0.7705169320106506,0.0,0.03199687972664833,0.7878793478012085,0.16433833539485931,0.45361682772636414
387.0,384.0,-3.7244,-1.7994,10.066,-0.0512,-0.2671,0.0716,-1.9117919407286585,-0.018988559022545815,2.9299535751342773,-1.8808451890945435,0.6019508242607117,2.620901584625244,5.5069771883781335,-0.9380099773406982,-0.11431998014450073,-1.5350187460528772,0.00023560586851090193,0.00804045982658863,0.770500898361206,0.0,0.046476155519485474,0.7885964512825012,0.16622233390808105,0.397671639919281
387.0,384.0,-3.7244,-1.7994,10.066,-0.0512,-0.2671,0.0716,-1.9119159183897914,-0.024142630398273468,2.9497804641723633,-1.8772096633911133,0.6071346998214722,2.6202375888824463,5.501285302429952,-0.961034893989563,-0.1433238834142685,-1.5350387732135218,0.0002430433960398659,0.0018198522739112377,0.7704410552978516,0.0,0.051695749163627625,0.7895487546920776,0.16610151529312134,0.36038005352020264
387.0,384.0,-3.7244,-1.7994,10.066,-0.0512,-0.2671,0.0716,-1.9120317898192347,-0.027160709723830223,2.8776509761810303,-1.8747388124465942,0.605377197265625,2.6319613456726074,5.497383880406179,-0.9739784598350525,-0.13261288404464722,-1.5350311438189905,0.000257585576036945,0.019804134964942932,0.7705009579658508,0.0,0.03008994460105896,0.7902451753616333,0.1690981388092041,0.4480622410774231
387.0,384.0,-3.7244,-1.7994,10.066,-0.0512,-0.2671,0.0716,-1.9121471844115199,-0.030009347945451736,2.9168007373809814,-1.8710074424743652,0.6121158599853516,2.592472791671753,5.4914947030837915,-0.9933831095695496,-0.1338668316602707,-1.5349944273578089,0.0002331018913537264,0.007579600438475609,0.7704368829727173,0.0,0.033737607300281525,0.7912502884864807,0.16553716361522675,0.39101463556289673
387.0,384.0,-3.7244,-1.7994,10.066,-0.0512,-0.2671,0.0716,-1.9122754536070765,-0.029420427978038788,2.9795169830322266,-1.8685165643692017,0.6196706891059875,2.6289682388305664,5.487510311394491,-1.0008368492126465,-0.12332521378993988,-1.5350030104266565,0.00028202251996845007,0.010693342424929142,0.7705009579658508,0.0,0.0298653244972229,0.7919429540634155,0.1658829003572464,0.3361092507839203
387.0,384.0,-3.7244,-1.7994,10.066,-0.0512,-0.2671,0.0716,-1.9124037228026332,-0.02752690203487873,2.981816291809082,-1.8660207986831665,0.6271494626998901,2.6191248893737793,5.483427512436666,-1.0127431154251099,-0.11456909775733948,-1.5350073019610804,0.0002878870291169733,0.002120640128850937,0.7704768180847168,0.0,0.023477938026189804,0.7925909161567688,0.16398879885673523,0.37861090898513794
387.0,384.0,-3.7244,-1.7994,10.066,-0.0512,-0.2671,0.0716,-1.9126354656615199,-0.026152683421969414,2.957700729370117,-1.8622299432754517,0.6336341500282288,2.6397931575775146,5.477258431702413,-1.0292384624481201,-0.131391704082489,-1.5350387732135218,0.00029514767811633646,0.01238726545125246,0.7704532146453857,0.0,0.03513520210981369,0.793612539768219,0.16016265749931335,0.4043826162815094
387.0,384.0,-3.7244,-1.7994,10.066,-0.0512,-0.2671,0.0716,-1.9127069912352503,-0.025784162804484367,2.99617600440979,-1.8597334623336792,0.6372500658035278,2.585706949234009,5.473217296391287,-1.0380451679229736,-0.13403287529945374,-1.535023037587301,0.0002746405662037432,0.02333569899201393,0.7704451680183411,0.0,0.03458258509635925,0.7942041754722595,0.15422409772872925,0.3471282720565796
387.0,384.0,-3.7244,-1.7994,10.066,-0.0512,-0.2671,0.0716,-1.9128910503783167,-0.03131851181387901,2.9900259971618652,-1.8558952808380127,0.6350654363632202,2.57242488861084,5.466861295491018,-1.051841378211975,-0.11217473447322845,-1.5350349585162562,0.0002775074099190533,0.0044740475714206696,0.7704250812530518,0.0,0.04490775614976883,0.7951207756996155,0.15181006491184235,0.3500499129295349
387.0,384.0,-3.7244,-1.7994,10.066,-0.0512,-0.2671,0.0716,-1.9130588970580042,-0.03814317658543587,2.9112448692321777,-1.8533316850662231,0.6393318772315979,2.618077039718628,5.4626057026679895,-1.0639420747756958,-0.12003472447395325,-1.5350750128375452,0.0002577134582679719,0.005395139567553997,0.7704491019248962,0.0,0.034999288618564606,0.7957817912101746,0.15065540373325348,0.31697559356689453
387.0,384.0,-3.7244,-1.7994,10.066,-0.0512,-0.2671,0.0716,-1.9133035145201625,-0.04397023841738701,2.977487087249756,-1.8495694398880005,0.644841194152832,2.579519271850586,5.456252860813894,-1.0714528560638428,-0.11738727986812592,-1.5350468794452112,0.0002675555588211864,0.026005171239376068,0.7704368829727173,0.0,0.02122294157743454,0.7966537475585938,0.15229249000549316,0.3371409773826599
387.0,384.0,-3.7244,-1.7994,10.066,-0.0512,-0.2671,0.0716,-1.9134546718993128,-0.046149250119924545,2.9493048191070557,-1.8469643592834473,0.6495999693870544,2.570467948913574,5.45197873094634,-1.070651650428772,-0.10372688621282578,-1.5349748770343226,0.0002392964524915442,0.013421454466879368,0.7704845666885376,0.0,0.04053337126970291,0.7973191738128662,0.1541753113269806,0.33682993054389954
354.0,340.0,-2.5609,0.2315,9.1651,-0.0122,-0.4527,0.0023,-1.913631101647848,-0.046951811760663986,2.957702159881592,-1.8443729877471924,0.6461036801338196,2.6136724948883057,5.447634386807241,-1.0768975019454956,-0.10248517990112305,-1.5350707213031214,0.0002580257714726031,0.008355638943612576,0.7704532146453857,0.0,0.01778229884803295,0.7978512644767761,0.1564931720495224,0.3315861225128174
354.0,340.0,-2.5609,0.2315,9.1651,-0.0122,-0.4527,0.0023,-1.9138905010619105,-0.0492786280810833,2.9629364013671875,-1.8403797149658203,0.642036497592926,2.576347589492798,5.44130169132308,-1.08194100856781,-0.0978911817073822,-1.535011116658346,0.0002970519126392901,0.014935009181499481,0.7704087495803833,0.0,0.034623630344867706,0.798795759677887,0.1503572016954422,0.2982383370399475
354.0,340.0,-2.5609,0.2315,9.1651,-0.0122,-0.4527,0.0023,-1.9141107998290003,-0.05019407346844673,2.973282814025879,-1.8378245830535889,0.6431135535240173,2.6229677200317383,5.436957347183981,-1.0745149850845337,-0.11900325119495392,-1.5349748770343226,0.0005563983577303588,0.01947818696498871,0.7704250812530518,0.0,0.02122464030981064,0.7993478775024414,0.1413373500108719,0.2083432972431183
354.0,340.0,-2.5609,0.2315,9.1651,-0.0122,-0.4527,0.0023,-1.9144307575621546,-0.05388667806982994,2.98567533493042,-1.8339530229568481,0.6507028341293335,2.581287145614624,5.430455732136526,-1.0716205835342407,-0.10689559578895569,-1.5349424521075647,0.0028176826890558004,0.037759240716695786,0.7704491019248962,0.0,0.010524177923798561,0.8001886010169983,0.13056552410125732,0.1896454095840454
354.0,340.0,-2.5609,0.2315,9.1651,-0.0122,-0.4527,0.0023,-1.914621969262594,-0.05785506218671799,2.9940381050109863,-1.831333041191101,0.6529688835144043,2.593266010284424,5.426264393120565,-1.0716673135757446,-0.10779047012329102,-1.5349510351764124,0.005881249438971281,0.024362292140722275,0.770409107208252,0.0,0.006225974299013615,0.8007009029388428,0.1250859498977661,0.16672584414482117
354.0,340.0,-2.5609,0.2315,9.1651,-0.0122,-0.4527,0.0023,-1.9150501690306605,-0.061535127460956573,3.0063881874084473,-1.8274885416030884,0.6515384316444397,2.624290704727173,5.419798183232107,-1.061740517616272,-0.08265642076730728,-1.534903351460592,0.01749839447438717,0.04568925499916077,0.7704614996910095,3.2460054200100785e-08,0.02303238771855831,0.8013565540313721,0.11656782776117325,0.13440313935279846
354.0,340.0,-2.5609,0.2315,9.1651,-0.0122,-0.4527,0.0023,-1.9152618847289027,-0.06321504712104797,3.0217995643615723,-1.8248692750930786,0.645494282245636,2.553150177001953,5.41553674915389,-1.0608608722686768,-0.10536793619394302,-1.534835163746969,0.020778976380825043,0.04502453655004501,0.7704291343688965,1.3838229173668282e-10,0.023179203271865845,0.8019223213195801,0.11208124458789825,0.11008243262767792
354.0,340.0,-2.5609,0.2315,9.1651,-0.0122,-0.4527,0.0023,-1.9154898128905238,-0.06466127932071686,3.028965473175049,-1.8223377466201782,0.6472578644752502,2.587207794189453,5.41143290975646,-1.0529613494873047,-0.08311936259269714,-1.5347712675677698,0.017599787563085556,0.03981173411011696,0.7704288363456726,5.899453560213874e-13,0.013156553730368614,0.8023222088813782,0.10904137790203094,0.11162643134593964
354.0,340.0,-2.5609,0.2315,9.1651,-0.0122,-0.4527,0.0023,-1.9158936939635218,-0.06381194293498993,3.0577006340026855,-1.81837797164917,0.65031498670578,2.5800094604492188,5.405129718571462,-1.0354931354522705,-0.07782848179340363,-1.5347073713885706,0.008335338905453682,0.05892527103424072,0.7704654932022095,1.6421347015591335e-16,0.006418239790946245,0.8029747605323792,0.11053550243377686,0.11580412089824677
354.0,340.0,-2.5609,0.2315,9.1651,-0.0122,-0.4527,0.0023,-1.9161249599852503,-0.06157912313938141,3.0551838874816895,-1.8157850503921509,0.6555315256118774,2.518098831176758,5.400904822140493,-1.0241106748580933,-0.0823063850402832,-1.5346477667437952,0.002597087062895298,0.04181598871946335,0.7704008221626282,7.000678195207922e-19,0.00396753428503871,0.8033590912818909,0.10677344352006912,0.07902432978153229
354.0,340.0,-2.5609,0.2315,9.1651,-0.0122,-0.4527,0.0023,-1.9165369472899378,-0.05932268872857094,3.0802643299102783,-1.8119604587554932,0.645182192325592,2.594295024871826,5.394934105664053,-1.0112016201019287,-0.07684025168418884,-1.5346553961383265,0.0005633753025904298,0.0483522042632103,0.7704410552978516,1.9486645291338619e-22,0.02096300758421421,0.8039674162864685,0.09686917811632156,0.03783976659178734
354.0,340.0,-2.5609,0.2315,9.1651,-0.0122,-0.4527,0.0023,-1.9167925320067347,-0.06251076608896255,2.999721050262451,-1.8093622922897339,0.6369072794914246,2.5478858947753906,5.390934932022848,-0.998181164264679,-0.05225743353366852,-1.534663502370016,0.0005255928263068199,0.04193531721830368,0.7705171704292297,8.307461652370135e-25,0.002079109428450465,0.8043034076690674,0.088548943400383,0.0449824295938015
354.0,340.0,-2.5609,0.2315,9.1651,-0.0122,-0.4527,0.0023,-1.9170805416502894,-0.06267344951629639,3.0833587646484375,-1.8067944049835205,0.6327594518661499,2.5647077560424805,5.3869056580360315,-0.9887406826019287,-0.07532776892185211,-1.534623924885885,0.0004082339000888169,0.05746334046125412,0.7704373002052307,3.541601048825443e-27,-0.002808354562148452,0.8046674132347107,0.08160244673490524,0.039337366819381714
354.0,340.0,-2.5609,0.2315,9.1651,-0.0122,-0.4527,0.0023,-1.9174772701659144,-0.06626902520656586,3.0474863052368164,-1.8029848337173462,0.6344968676567078,2.488973617553711,5.381142008095541,-0.9660043120384216,-0.07040092349052429,-1.5346358458148401,8.700000762473792e-05,0.06357710063457489,0.7704290747642517,9.85817616808632e-31,0.018256673589348793,0.805159866809845,0.07322223484516144,-0.00130431167781353
354.0,340.0,-2.5609,0.2315,9.1651,-0.0122,-0.4527,0.0023,-1.9176637134947718,-0.06600621342658997,3.0645499229431152,-1.8004404306411743,0.6356382966041565,2.536846876144409,5.377314197808065,-0.9540572166442871,-0.045786142349243164,-1.5346315542804163,6.989386019995436e-05,0.059664689004421234,0.7704655528068542,4.202695728668984e-33,0.012637871317565441,0.8054240345954895,0.06915762275457382,-0.04291047900915146
354.0,340.0,-2.5609,0.2315,9.1651,-0.0122,-0.4527,0.0023,-1.9180923900999964,-0.06347612291574478,3.067819356918335,-1.796746850013733,0.6345266103744507,2.582153797149658,5.371663617878713,-0.9325135350227356,-0.04292067140340805,-1.5346477667437952,5.6667740864213556e-05,0.06558917462825775,0.7704172134399414,1.1698358852025685e-36,0.005368213169276714,0.8058083653450012,0.057529013603925705,-0.14063474535942078
354.0,340.0,-2.5609,0.2315,9.1651,-0.0122,-0.4527,0.0023,-1.9183317623534144,-0.06295032054185867,3.060516834259033,-1.794192910194397,0.6260381937026978,2.526209831237793,5.3678350923355005,-0.9209744334220886,-0.05246090888977051,-1.5346277395831507,5.032716944697313e-05,0.055326733738183975,0.7704250812530518,4.987194609861202e-39,0.0014639128930866718,0.8060125112533569,0.04845574498176575,-0.09046419709920883
354.0,340.0,-2.5609,0.2315,9.1651,-0.0122,-0.4527,0.0023,-1.9187160931029261,-0.06507562100887299,3.0841705799102783,-1.7904080152511597,0.6277019381523132,2.563325881958008,5.362421917706289,-0.9036890268325806,-0.04260919243097305,-1.5346596876727503,4.309510768507607e-05,0.05701310932636261,0.770396888256073,1.3886867781458937e-42,0.007027246057987213,0.8062927722930908,0.035033583641052246,-0.11816523969173431
325.0,300.0,-1.1216,1.5063,8.9701,-0.0345,-0.3308,-0.1541,-1.9189673862852992,-0.06780607253313065,3.0389468669891357,-1.7878879308700562,0.6273871064186096,2.55306339263916,5.35883657911376,-0.8901811242103577,-0.04423438012599945,-1.5346477667437952,3.9327791455434635e-05,0.045744217932224274,0.7704250812530518,5.605193857299268e-45,0.0008239876478910446,0.8063442707061768,0.027758101001381874,-0.12456845492124557
325.0,300.0,-1.1216,1.5063,8.9701,-0.0345,-0.3308,-0.1541,-1.9192348919310511,-0.07068087160587311,3.054111957550049,-1.785377025604248,0.6349786520004272,2.5729708671569824,5.3552772281463525,-0.8750085830688477,-0.03287497162818909,-1.5346515814410608,3.616635513026267e-05,0.05696273222565651,0.7704049348831177,0.0,0.002880839165300131,0.8064482808113098,0.021907683461904526,-0.13772092759609222
325.0,300.0,-1.1216,1.5063,8.9701,-0.0345,-0.3308,-0.1541,-1.919683118859762,-0.0763927474617958,3.084172248840332,-1.7816444635391235,0.6242339015007019,2.571988105773926,5.350154566555776,-0.8525546193122864,-0.04780103266239166,-1.5346992651568812,3.227485649404116e-05,0.06456191837787628,0.7704737186431885,0.0,-0.00022623979020863771,0.806572437286377,0.013215214014053345,-0.1444738209247589
325.0,300.0,-1.1216,1.5063,8.9701,-0.0345,-0.3308,-0.1541,-1.9200307331480921,-0.0800832211971283,3.082623243331909,-1.779144525527954,0.618033766746521,2.586148738861084,5.346921551018514,-0.8422195315361023,-0.045037396252155304,-1.534675423298971,3.0114637411315925e-05,0.05144732445478439,0.7704654932022095,0.0,0.003393361810594797,0.8066249489784241,0.008617278188467026,-0.1041685938835144
325.0,300.0,-1.1216,1.5063,8.9701,-0.0345,-0.3308,-0.1541,-1.9204656086363734,-0.0831599161028862,3.0907957553863525,-1.7753846645355225,0.6145846843719482,2.5457212924957275,5.34201871135787,-0.8176051378250122,-0.035934511572122574,-1.5346673170672815,2.7367173970560543e-05,0.06393643468618393,0.770409107208252,0.0,-0.003444660920649767,0.8066564798355103,0.0041944547556340694,-0.15106897056102753
325.0,300.0,-1.1216,1.5063,8.9701,-0.0345,-0.3308,-0.1541,-1.9207855663695277,-0.08261910080909729,3.149409770965576,-1.7728959321975708,0.6160023212432861,2.503671169281006,5.3387566087539575,-0.7989366054534912,-0.04410829767584801,-1.5346840063678187,2.579813553893473e-05,0.06562203168869019,0.7704492211341858,0.0,-0.004037225153297186,0.8066444396972656,0.002709021558985114,-0.11378496140241623
325.0,300.0,-1.1216,1.5063,8.9701,-0.0345,-0.3308,-0.1541,-1.9212733707823695,-0.0792875662446022,3.092663049697876,-1.7692979574203491,0.6183213591575623,2.580501079559326,5.334078538208761,-0.770382285118103,-0.03745802491903305,-1.5346759001361292,2.3755181246087886e-05,0.0570644810795784,0.7704410552978516,0.0,-0.003748499322682619,0.8066362142562866,0.0011578816920518875,-0.13017597794532776
325.0,300.0,-1.1216,1.5063,8.9701,-0.0345,-0.3308,-0.1541,-1.9215852222838343,-0.07798967510461807,3.132746458053589,-1.7668557167053223,0.6137865781784058,2.537374496459961,5.331019270211019,-0.7521514296531677,-0.020899303257465363,-1.5346396605121058,2.2563952370546758e-05,0.06220428645610809,0.7704733610153198,0.0,-0.003220140002667904,0.8066121339797974,-0.000299004721455276,-0.14861375093460083
325.0,300.0,-1.1216,1.5063,8.9701,-0.0345,-0.3308,-0.1541,-1.9219471416869105,-0.07924506813287735,3.094597101211548,-1.7644152641296387,0.6098955273628235,2.5973260402679443,5.327997374325552,-0.7363954782485962,-0.02227436751127243,-1.5346477667437952,2.1486534024006687e-05,0.05577557533979416,0.7704012393951416,0.0,0.007901142351329327,0.806567907333374,-0.002854685764759779,-0.17755761742591858
325.0,300.0,-1.1216,1.5063,8.9701,-0.0345,-0.3308,-0.1541,-1.9224215946593226,-0.08352523297071457,3.111927032470703,-1.7607994079589844,0.6011232733726501,2.584662437438965,5.323639559536733,-0.7137157320976257,-0.013504404574632645,-1.5346358458148401,3.8761820178478956e-05,0.05357520282268524,0.7704288363456726,0.0,0.008373155258595943,0.8065560460090637,-0.003536765230819583,-0.1331462860107422
325.0,300.0,-1.1216,1.5063,8.9701,-0.0345,-0.3308,-0.1541,-1.9228140316405238,-0.0886051282286644,3.1143178939819336,-1.758413553237915,0.5989746451377869,2.5191380977630615,5.320900249272146,-0.6914076209068298,-0.028024010360240936,-1.5346396605121058,3.838454358628951e-05,0.06313451379537582,0.7704328298568726,0.0,-0.0003887009806931019,0.8066208362579346,-0.0023796367458999157,-0.15210020542144775
325.0,300.0,-1.1216,1.5063,8.9701,-0.0345,-0.3308,-0.1541,-1.92332186321401,-0.09403955191373825,3.101675033569336,-1.7549159526824951,0.6047297716140747,2.531223773956299,5.316913771420278,-0.6636407971382141,-0.013127494603395462,-1.534675423298971,4.946570334141143e-05,0.054901525378227234,0.7704654932022095,0.0,0.0070658340118825436,0.8065683245658875,-0.001146486378274858,-0.21761025488376617
325.0,300.0,-1.1216,1.5063,8.9701,-0.0345,-0.3308,-0.1541,-1.9237061939635218,-0.09666053205728531,3.088327407836914,-1.752476692199707,0.5967379212379456,2.5165858268737793,5.314234065800466,-0.6480846405029297,-0.026427071541547775,-1.5346716086017054,6.05510977038648e-05,0.055154524743556976,0.7704172134399414,0.0,0.006382801104336977,0.8065359592437744,-0.0008145647589117289,-0.16540715098381042
325.0,300.0,-1.1216,1.5063,8.9701,-0.0345,-0.3308,-0.1541,-1.9242602787413539,-0.09754764288663864,3.131549835205078,-1.7488781213760376,0.5850459337234497,2.56210994720459,5.3104538200195215,-0.6266190409660339,-0.032034315168857574,-1.5346596876727503,6.558667519129813e-05,0.056123826652765274,0.77046138048172,0.0,0.006857250817120075,0.8065323233604431,-0.003347252495586872,-0.17180007696151733
325.0,300.0,-1.1216,1.5063,8.9701,-0.0345,-0.3308,-0.1541,-1.9246603451170863,-0.09910215437412262,3.1297216415405273,-1.7465287446975708,0.5783484578132629,2.569077968597412,5.308018731861868,-0.6115165948867798,-0.04469970613718033,-1.5346358458148401,9.463632159167901e-05,0.06005110219120979,0.7704614400863647,0.0,0.007629522122442722,0.8065524697303772,-0.0039698961190879345,-0.21028238534927368
325.0,300.0,-1.1216,1.5063,8.9701,-0.0345,-0.3308,-0.1541,-1.925035139123434,-0.10117007046937943,3.114011764526367,-1.7441350221633911,0.579201340675354,2.604935646057129,5.305681216507711,-0.5965641736984253,-0.04335131123661995,-1.53461200395693,0.0001045863245963119,0.05633161589503288,0.7705090641975403,0.0,0.0007422860944643617,0.8065405488014221,-0.0031310971826314926,-0.22136792540550232
325.0,300.0,-1.1216,1.5063,8.9701,-0.0345,-0.3308,-0.1541,-1.9256683788695277,-0.10280496627092361,3.1195058822631836,-1.7406843900680542,0.5774466395378113,2.5663838386535645,5.302192675858297,-0.5710955858230591,-0.03749176859855652,-1.5346358458148401,0.00010303231101715937,0.06939906626939774,0.7704291343688965,0.0,-0.0066700102761387825,0.8065121173858643,-0.0016819642623886466,-0.22321081161499023
325.0,300.0,-1.1216,1.5063,8.9701,-0.0345,-0.3308,-0.1541,-1.9260345898070277,-0.10328409075737,3.1224818229675293,-1.738422155380249,0.5750800967216492,2.516751527786255,5.299951541214742,-0.5552442073822021,-0.028807155787944794,-1.5346434752093714,0.00011522843851707876,0.07045745104551315,0.7704532146453857,0.0,-0.013695606961846352,0.806492030620575,-0.0015094118425622582,-0.2284800410270691
325.0,300.0,-1.1216,1.5063,8.9701,-0.0345,-0.3308,-0.1541,-1.9267078838744105,-0.10219810903072357,3.1405153274536133,-1.7350068092346191,0.5675566792488098,2.5833754539489746,5.296577679901876,-0.5407161712646484,-0.015178434550762177,-1.5346277395831507,0.00010973653115797788,0.06109413504600525,0.7704451084136963,0.0,0.003537345677614212,0.8064560890197754,-0.0020460146479308605,-0.19756639003753662
290.0,280.0,-0.9338,-0.213,8.9683,-0.0392,-0.0925,-0.1284,-1.9270545444884242,-0.10386508703231812,3.1435391902923584,-1.7327364683151245,0.5604084730148315,2.5630502700805664,5.294443714409628,-0.5329517126083374,-0.03911931440234184,-1.5346515814410608,0.00010604249109746888,0.06365537643432617,0.7704049944877625,0.0,0.0005701561458408833,0.8064561486244202,-0.0023055009078234434,-0.24851974844932556
290.0,280.0,-0.9338,-0.213,8.9683,-0.0392,-0.0925,-0.1284,-1.9277554951109828,-0.11026310920715332,3.10854434967041,-1.7293944358825684,0.5591808557510376,2.5701162815093994,5.29127191284255,-0.5129091739654541,-0.037888698279857635,-1.5345919767962855,0.00010094500612467527,0.06054443493485451,0.7704733610153198,0.0,0.0007480079075321555,0.8065085411071777,-0.0017968519823625684,-0.184269517660141
290.0,280.0,-0.9338,-0.213,8.9683,-0.0392,-0.0925,-0.1284,-1.92816223720693,-0.11707315593957901,3.093751907348633,-1.7271394729614258,0.5568922162055969,2.539893627166748,5.289266156941213,-0.4933352470397949,-0.028436657041311264,-1.5346196333514612,9.78105454123579e-05,0.06183355301618576,0.7704209685325623,0.0,-0.0023219850845634937,0.8064723014831543,-0.0010333290556445718,-0.25758489966392517
290.0,280.0,-0.9338,-0.213,8.9683,-0.0392,-0.0925,-0.1284,-1.9286171398558558,-0.12253044545650482,3.0751378536224365,-1.7249177694320679,0.5578364133834839,2.557612895965576,5.287376212864675,-0.48280107975006104,-0.04241218417882919,-1.5346477667437952,9.486496128374711e-05,0.0749533474445343,0.7704411149024963,-1.927949233504478e-05,0.0010799902956932783,0.806476354598999,-0.0007075739558786154,-0.21295775473117828
290.0,280.0,-0.9338,-0.213,8.9683,-0.0392,-0.0925,-0.1284,-1.9293538532652796,-0.12862035632133484,3.0897927284240723,-1.721651554107666,0.5510419011116028,2.567035675048828,5.284543978958883,-0.4685109853744507,-0.028834957629442215,-1.5346358458148401,9.076476271729916e-05,0.05722956359386444,0.7704573273658752,-2.0261522877262905e-05,0.007790312170982361,0.8064924478530884,-0.0005650009261444211,-0.19704166054725647
290.0,280.0,-0.9338,-0.213,8.9683,-0.0392,-0.0925,-0.1284,-1.9298659763731898,-0.12894053757190704,3.122927188873291,-1.7194757461547852,0.5437286496162415,2.582437038421631,5.282710063248434,-0.4523710608482361,-0.023216763511300087,-1.5346277395831507,8.82227104739286e-05,0.06087491288781166,0.7704927921295166,-1.0044412192655727e-05,0.007757450453937054,0.806520938873291,-0.0005539986304938793,-0.22883273661136627
290.0,280.0,-0.9338,-0.213,8.9683,-0.0392,-0.0925,-0.1284,-1.9306932888426722,-0.13046836853027344,3.1399121284484863,-1.7161262035369873,0.5414677858352661,2.6002891063690186,5.280076312809744,-0.42812010645866394,-0.012211684137582779,-1.534675423298971,8.466583676636219e-05,0.06510952115058899,0.7704331278800964,-2.7958992898646784e-09,0.015439169481396675,0.8064723014831543,-0.00038890246651135385,-0.2078074961900711
290.0,280.0,-0.9338,-0.213,8.9683,-0.0392,-0.0925,-0.1284,-1.931237360040182,-0.13175161182880402,3.0932533740997314,-1.714003562927246,0.5416216850280762,2.603407382965088,5.2785143730934045,-0.40480202436447144,-0.003268239088356495,-1.5346038977252405,8.244973287219182e-05,0.054054394364356995,0.7704410552978516,-1.1919356994460895e-11,0.006082714535295963,0.8064602017402649,-0.00033144099870696664,-0.2476797103881836
290.0,280.0,-0.9338,-0.213,8.9683,-0.0392,-0.0925,-0.1284,-1.932040353814596,-0.1357814371585846,3.076531410217285,-1.7107762098312378,0.5394482016563416,2.598027229309082,5.275995421200552,-0.3877333700656891,0.012427612207829952,-1.5346038977252405,7.933496090117842e-05,0.05133555084466934,0.77045738697052,-3.317796925934283e-15,0.010947196744382381,0.8064441680908203,-0.0002172521490138024,-0.191379576921463
290.0,280.0,-0.9338,-0.213,8.9683,-0.0392,-0.0925,-0.1284,-1.9326282940306605,-0.143818199634552,3.1138081550598145,-1.7086918354034424,0.5332627296447754,2.56913161277771,5.274534392147817,-0.3754329979419708,0.01916022226214409,-1.534663502370016,7.738592830719426e-05,0.055203575640916824,0.7705050110816956,-1.414428885756679e-17,0.010964267887175083,0.8064601421356201,-0.00019377803255338222,-0.23159320652484894
290.0,280.0,-0.9338,-0.213,8.9683,-0.0392,-0.0925,-0.1284,-1.933195253411764,-0.1552981734275818,3.126129150390625,-1.7065720558166504,0.5267263054847717,2.5596327781677246,5.273096489697256,-0.3634544610977173,0.005287715699523687,-1.5346553961383265,7.55304135964252e-05,0.054774291813373566,0.7704774141311646,-6.029932115540191e-20,0.007534368894994259,0.8065006136894226,-0.00017494236817583442,-0.1720609813928604
290.0,280.0,-0.9338,-0.213,8.9683,-0.0392,-0.0925,-0.1284,-1.9341632328429164,-0.17098641395568848,3.0706264972686768,-1.7034517526626587,0.5246663093566895,2.6346435546875,5.27107863405303,-0.3369172215461731,0.030216224491596222,-1.5346358458148401,7.290815119631588e-05,0.06536585837602615,0.7704808115959167,-1.6784538260124103e-23,0.007239528000354767,0.8064642548561096,-0.0001526820269646123,-0.17606410384178162
290.0,280.0,-0.9338,-0.213,8.9683,-0.0392,-0.0925,-0.1284,-1.9348765812315882,-0.17615318298339844,3.0941314697265625,-1.7013558149337769,0.523571789264679,2.567408323287964,5.269857275276937,-0.3161548674106598,0.044099025428295135,-1.5346515814410608,7.12588444002904e-05,0.05272665619850159,0.7703848481178284,-7.155511368524499e-26,0.008378940634429455,0.8064482808113098,-5.8011784858535975e-05,-0.22680775821208954
290.0,280.0,-0.9338,-0.213,8.9683,-0.0392,-0.0925,-0.1284,-1.9359432659544886,-0.1772448867559433,3.081550121307373,-1.6981717348098755,0.5287359356880188,2.6144661903381348,5.2681158659751794,-0.2739550471305847,0.05233197659254074,-1.5346596876727503,4.549769528239267e-06,0.04633599519729614,0.7704651951789856,-1.9917631951745294e-29,0.015016153454780579,0.8064606785774231,-9.70045366557315e-05,-0.1665317714214325
290.0,280.0,-0.9338,-0.213,8.9683,-0.0392,-0.0925,-0.1284,-1.9366499386229457,-0.1723812073469162,3.1292881965637207,-1.6960551738739014,0.5266461372375488,2.628218173980713,5.267114984780111,-0.2623923420906067,0.0750570297241211,-1.5346196333514612,1.93963813899245e-08,0.07205043733119965,0.7704611420631409,-8.491198136844179e-32,0.00985861849039793,0.8064804673194885,-0.00017337674216832966,-0.14577916264533997
290.0,280.0,-0.9338,-0.213,8.9683,-0.0392,-0.0925,-0.1284,-1.9373651943602503,-0.1699872761964798,3.134305477142334,-1.693963885307312,0.5281003713607788,2.5882315635681152,5.266009318619528,-0.2387342005968094,0.06705401837825775,-1.5346596876727503,8.26898272077159e-11,0.047983892261981964,0.7704573273658752,-3.6199307207599073e-34,0.005802881438285112,0.806484580039978,-0.0001596395013621077,-0.2051459401845932
290.0,280.0,-0.9338,-0.213,8.9683,-0.0392,-0.0925,-0.1284,-1.9385096035399378,-0.18287938833236694,3.0837955474853516,-1.690855860710144,0.5242356657981873,2.582261562347412,5.264764475613394,-0.2106093168258667,0.09181472659111023,-1.5346158186541956,2.3017017504738287e-14,0.04820111021399498,0.7704614400863647,-1.0076210368737173e-37,-0.0002574591198936105,0.8064602017402649,-0.000140894902870059,-0.18099761009216309
290.0,280.0,-0.9338,-0.213,8.9683,-0.0392,-0.0925,-0.1284,-1.9393226108946742,-0.19794553518295288,3.1037254333496094,-1.688764214515686,0.5148151516914368,2.57230806350708,5.263854551106252,-0.2087397575378418,0.08203734457492828,-1.5346553961383265,9.812516043193996e-17,0.05068371072411537,0.7703889608383179,-4.29565241641844e-40,-0.007296510972082615,0.8064319491386414,-0.00013066647807136178,-0.12014582753181458
290.0,280.0,-0.9338,-0.213,8.9683,-0.0392,-0.0925,-0.1284,-1.940603872338766,-0.2271345555782318,3.041680335998535,-1.6856157779693604,0.5066800117492676,2.5665156841278076,5.262778568058767,-0.18160341680049896,0.08839136362075806,-1.534623924885885,2.7313500595326706e-20,0.05237582325935364,0.7704410552978516,-1.1911036946760945e-43,0.008631371892988682,0.8064523935317993,-0.00011783507216023281,-0.1256125122308731
266.0,264.0,-0.8566,-0.0132,9.4762,-0.0535,0.1715,-0.1228,-1.9415208301939906,-0.2360709011554718,3.0635323524475098,-1.6835582256317139,0.5030279159545898,2.6071786880493164,5.262161958008566,-0.14900341629981995,0.12077087163925171,-1.5346434752093714,1.1644171349220722e-22,0.05299924314022064,0.7704172134399414,-0.0,0.0054100509732961655,0.8064200282096863,-0.00022734841331839561,-0.22426997125148773
266.0,264.0,-0.8566,-0.0132,9.4762,-0.0535,0.1715,-0.1228,-1.9428802929320277,-0.22746101021766663,3.099719285964966,-1.6804710626602173,0.5078253149986267,2.577432632446289,5.261425363808431,-0.10735472291707993,0.13692229986190796,-1.5345919767962855,3.241197731662229e-26,0.0451880618929863,0.7704450488090515,-0.0,0.002239788882434368,0.8064080476760864,-0.0003341187839396298,-0.13485968112945557
266.0,264.0,-0.8566,-0.0132,9.4762,-0.0535,0.1715,-0.1228,-1.9437700710692347,-0.22186754643917084,3.098038673400879,-1.678515911102295,0.505862832069397,2.605003595352173,5.2610811469848535,-0.08555091172456741,0.15181437134742737,-1.5346196333514612,1.381773484928313e-28,0.052914246916770935,0.7704654335975647,-0.0,0.0012612807331606746,0.8064402341842651,-0.0023925206623971462,-0.1669040024280548
266.0,264.0,-0.8566,-0.0132,9.4762,-0.0535,0.1715,-0.1228,-1.9446689091124476,-0.22120894491672516,3.1012258529663086,-1.6764507293701172,0.5072888135910034,2.608218193054199,5.260817217617788,-0.0650298222899437,0.14903149008750916,-1.534623924885885,5.890717694654243e-31,0.04622472822666168,0.7704654335975647,-0.0,0.013930678367614746,0.8064162731170654,-0.0037421719171106815,-0.13059179484844208
266.0,264.0,-0.8566,-0.0132,9.4762,-0.0535,0.1715,-0.1228,-1.9460579357542933,-0.22898045182228088,3.137575149536133,-1.673499584197998,0.5045322179794312,2.6140642166137695,5.260525333672323,-0.03046133555471897,0.16512872278690338,-1.5346596876727503,1.6397030392692591e-34,0.045419842004776,0.7704736590385437,-0.0,0.007625246420502663,0.8063762187957764,-0.003249105764552951,-0.16236624121665955
266.0,264.0,-0.8566,-0.0132,9.4762,-0.0535,0.1715,-0.1228,-1.9470201931395472,-0.23718902468681335,3.1373133659362793,-1.6714954376220703,0.501163899898529,2.614396572113037,5.260445403843679,-0.011611510068178177,0.1831664741039276,-1.5346434752093714,6.990311696412342e-37,0.05278364196419716,0.7704369425773621,-0.0,0.00046074693091213703,0.8064489364624023,-0.002727460116147995,-0.1966484785079956
266.0,264.0,-0.8566,-0.0132,9.4762,-0.0535,0.1715,-0.1228,-1.9484755001463832,-0.2489030361175537,3.129021644592285,-1.668494701385498,0.49038460850715637,2.5870518684387207,5.260445403843679,0.008126174099743366,0.1826690286397934,-1.5346196333514612,1.9457729826382247e-40,0.04423891752958298,0.7703970074653625,-0.0,-0.0003765884321182966,0.8063679337501526,-0.0019020646577700973,-0.17908093333244324
266.0,264.0,-0.8566,-0.0132,9.4762,-0.0535,0.1715,-0.1228,-1.9494501552977503,-0.2547925114631653,3.128375291824341,-1.666499376296997,0.4892645478248596,2.5928707122802734,5.260509657650747,0.011388816870748997,0.18569250404834747,-1.5346196333514612,8.295686908802917e-43,0.04930083826184273,0.7704410552978516,-0.0,0.01406259648501873,0.8063360452651978,-0.002444630255922675,-0.10531336069107056
266.0,264.0,-0.8566,-0.0132,9.4762,-0.0535,0.1715,-0.1228,-1.9509583912291468,-0.26502934098243713,3.0865719318389893,-1.6635748147964478,0.4825842082500458,2.5631942749023438,5.260573792248525,0.00836926605552435,0.20237749814987183,-1.5346038977252405,0.0,0.050304610282182693,0.7704930305480957,-0.0,0.004813182633370161,0.8063604235649109,-0.0036178675945848227,-0.20412012934684753
266.0,264.0,-0.8566,-0.0132,9.4762,-0.0535,0.1715,-0.1228,-1.9519173107542933,-0.2665219008922577,3.106583833694458,-1.6617320775985718,0.4889048933982849,2.6388096809387207,5.260581540852346,0.0062943450175225735,0.1995742917060852,-1.534623924885885,0.0,0.060862332582473755,0.7703728079795837,-0.0,-0.004108669236302376,0.8062474131584167,-0.0050844112411141396,-0.14823299646377563
266.0,264.0,-0.8566,-0.0132,9.4762,-0.0535,0.1715,-0.1228,-1.9530335865416468,-0.2608908712863922,3.1019041538238525,-1.6597719192504883,0.48671382665634155,2.626372814178467,5.260541367321768,0.0033682638313621283,0.1979626715183258,-1.534600083027975,0.0,0.04548022896051407,0.7704411149024963,-0.0,0.010512583889067173,0.8062597513198853,-0.00619212631136179,-0.19895094633102417
266.0,264.0,-0.8566,-0.0132,9.4762,-0.0535,0.1715,-0.1228,-1.9545279941954554,-0.25587159395217896,3.1355204582214355,-1.6568554639816284,0.4809516668319702,2.6329355239868164,5.260561454087057,0.0008196805720217526,0.19053950905799866,-1.5346158186541956,0.0,0.052704110741615295,0.7703849673271179,-0.0,-0.006431258283555508,0.8062482476234436,-0.007699769455939531,-0.18937809765338898
