ramyac6/ROB537/final_project/csv/all/bad_35.csv
tof_0,tof_1,accelx,accely,accelz,gyrox,gyroy,gyroz,shoulder_lift_joint_position,shoulder_lift_joint_velocity,shoulder_lift_joint_effort,elbow_joint_position,elbow_joint_velocity,elbow_joint_effort,wrist_1_joint_position,wrist_1_joint_velocity,wrist_1_joint_effort,wrist_2_joint_position,wrist_2_joint_velocity,wrist_2_joint_effort,wrist_3_joint_position,wrist_3_joint_velocity,wrist_3_joint_effort,shoulder_pan_joint_position,shoulder_pan_joint_velocity,shoulder_pan_joint_effort
188.0,225.0,4.3167,-3.0287,7.7354,-0.0431,0.0234,-0.1188,-1.6167174778380335,0.0,2.3503870964050293,-1.5474663972854614,-0.0,2.167623996734619,4.123661203975342,-0.0,0.2810122072696686,-1.441014591847555,-0.0,0.004056683275848627,1.2024720907211304,0.0,-0.000704317120835185,1.0641213655471802,0.0,0.008050588890910149
188.0,225.0,4.3167,-3.0287,7.7354,-0.0431,0.0234,-0.1188,-1.6167217693724574,0.0,2.3647100925445557,-1.5474541187286377,-0.0,2.1897685527801514,4.123641653651855,-0.0,0.28197428584098816,-1.4410103003131312,-0.0,0.008515977300703526,1.2024197578430176,0.0,-0.01935875043272972,1.064073085784912,0.0,-0.02311745285987854
188.0,225.0,4.3167,-3.0287,7.7354,-0.0431,0.0234,-0.1188,-1.6167012653746546,0.0,2.3613758087158203,-1.5474824905395508,-0.0,2.1781280040740967,4.123657866115234,-0.0,0.28300440311431885,-1.44102651277651,-0.0,0.013295668177306652,1.2024601697921753,0.0,-0.01293247751891613,1.064073085784912,0.0,-0.013256730511784554
188.0,225.0,4.3167,-3.0287,7.7354,-0.0431,0.0234,-0.1188,-1.6167336903014125,0.0,2.3904786109924316,-1.5474539995193481,-0.0,2.1960620880126953,4.123589678401611,-0.0,0.27465710043907166,-1.4410103003131312,-0.0,0.009536020457744598,1.2024521827697754,0.0,-0.014512178488075733,1.0641294717788696,0.0,-0.013322765938937664
188.0,225.0,4.3167,-3.0287,7.7354,-0.0431,0.0234,-0.1188,-1.6167379818358363,0.0,2.397855758666992,-1.5474947690963745,-0.0,2.217021942138672,4.123698397273682,-0.0,0.2790125906467438,-1.44102651277651,-0.0,-0.0008430661982856691,1.2024762630462646,0.0,-0.010067809373140335,1.064089059829712,0.0,-0.01768169179558754
188.0,225.0,4.3167,-3.0287,7.7354,-0.0431,0.0234,-0.1188,-1.6167336903014125,0.0,2.4212660789489746,-1.5475066900253296,-0.0,2.209603786468506,4.1236616808125,-0.0,0.2876679003238678,-1.4409902731524866,-0.0,0.004823275376111269,1.2024720907211304,0.0,-0.007110807113349438,1.0641216039657593,0.0,0.0007933811284601688
188.0,225.0,4.3167,-3.0287,7.7354,-0.0431,0.0234,-0.1188,-1.616753717462057,0.0,2.4316959381103516,-1.5474541187286377,-0.0,2.1936726570129395,4.123694105739258,-0.0,0.293760746717453,-1.4410422484027308,-0.0,0.010863171890377998,1.2024359703063965,0.0,-0.023307910189032555,1.0640848875045776,0.0,0.01637011580169201
188.0,225.0,4.3167,-3.0287,7.7354,-0.0431,0.0234,-0.1188,-1.6167050800719203,0.0,2.393519878387451,-1.5474907159805298,-0.0,2.195467233657837,4.123677893275879,-0.0,0.2755543887615204,-1.4409902731524866,-0.0,0.005783219821751118,1.202444314956665,0.0,-0.01780574396252632,1.0641454458236694,0.0,-0.012195700779557228
188.0,225.0,4.3167,-3.0287,7.7354,-0.0431,0.0234,-0.1188,-1.616765638391012,0.0,2.4175562858581543,-1.5474746227264404,-0.0,2.209595203399658,4.123690291041992,-0.0,0.2877693772315979,-1.44102651277651,-0.0,0.0029045725241303444,1.2024840116500854,0.0,0.0025605070404708385,1.0640571117401123,0.0,-0.03887046501040459
178.0,210.0,4.3244,-2.9844,7.7593,-0.042,0.0235,-0.1106,-1.6167379818358363,0.0,2.365832567214966,-1.547486662864685,-0.0,2.202971935272217,4.123626394862793,-0.0,0.2756001651287079,-1.4409940878497522,-0.0,0.007009850814938545,1.2024277448654175,0.0,-0.011837013997137547,1.0641250610351562,0.0,-0.0315043181180954
178.0,210.0,4.3244,-2.9844,7.7593,-0.042,0.0235,-0.1106,-1.6167293987669886,0.0,2.369471549987793,-1.547401785850525,-0.0,2.1918630599975586,4.123682184810303,-0.0,0.27620190382003784,-1.4410021940814417,-0.0,-0.0008651069365441799,1.2024641036987305,0.0,-0.017215389758348465,1.0640811920166016,0.0,-0.026193581521511078
178.0,210.0,4.3244,-2.9844,7.7593,-0.042,0.0235,-0.1106,-1.6167499027647914,0.0,2.399197816848755,-1.547478437423706,-0.0,2.2182302474975586,4.123629255885742,-0.0,0.28501027822494507,-1.4410103003131312,-0.0,-0.006480183452367783,1.2024800777435303,0.0,-0.006147394888103008,1.0640971660614014,0.0,-0.061617862433195114
178.0,210.0,4.3244,-2.9844,7.7593,-0.042,0.0235,-0.1106,-1.616713663140768,0.0,2.402491331100464,-1.5474385023117065,-0.0,2.1755928993225098,4.123641653651855,-0.0,0.28926074504852295,-1.4410021940814417,-0.0,-0.0037474411074072123,1.2024799585342407,0.0,-0.011640703305602074,1.0640848875045776,0.0,-0.025048552080988884
178.0,210.0,4.3244,-2.9844,7.7593,-0.042,0.0235,-0.1106,-1.6167217693724574,0.0,2.3769185543060303,-1.5474746227264404,-0.0,2.215695381164551,4.123637362117432,-0.0,0.27502039074897766,-1.4410384337054651,-0.0,0.00853664055466652,1.2024601697921753,0.0,-0.013996602967381477,1.0640411376953125,0.0,-0.021589191630482674
178.0,210.0,4.3244,-2.9844,7.7593,-0.042,0.0235,-0.1106,-1.6167618236937464,0.0,2.3964977264404297,-1.5474623441696167,-0.0,2.202605724334717,4.1236535745808105,-0.0,0.28282901644706726,-1.4410021940814417,-0.0,0.00047761210589669645,1.2024438381195068,0.0,-0.003234520787373185,1.0640771389007568,0.0,-0.0208536759018898
178.0,210.0,4.3244,-2.9844,7.7593,-0.042,0.0235,-0.1106,-1.6167336903014125,0.0,2.3638737201690674,-1.547486662864685,-0.0,2.1765098571777344,4.123641176814697,-0.0,0.2762931287288666,-1.441014591847555,-0.0,0.00843464769423008,1.202452301979065,0.0,-0.006009183824062347,1.0640571117401123,0.0,0.04482078552246094
178.0,210.0,4.3244,-2.9844,7.7593,-0.042,0.0235,-0.1106,-1.616713663140768,0.0,2.3707220554351807,-1.5474746227264404,-0.0,2.147106647491455,4.123637362117432,-0.0,0.28561148047447205,-1.4409902731524866,-0.0,0.0013412055559456348,1.202452301979065,0.0,-0.008073665201663971,1.06413733959198,0.0,0.02913178689777851
178.0,210.0,4.3244,-2.9844,7.7593,-0.042,0.0235,-0.1106,-1.6167618236937464,0.0,2.3961684703826904,-1.5474541187286377,-0.0,2.1775753498077393,4.123657389278076,-0.0,0.27169203758239746,-1.4410179297076624,-0.0,-0.005399894434958696,1.2024277448654175,0.0,-0.0021838094107806683,1.064080834388733,0.0,-0.02205590531229973
178.0,210.0,4.3244,-2.9844,7.7593,-0.042,0.0235,-0.1106,-1.616781850854391,0.0,2.4002583026885986,-1.5474541187286377,-0.0,2.208420991897583,4.123609705562256,-0.0,0.2804853320121765,-1.4410541693316858,-0.0,-0.003139183856546879,1.2024438381195068,0.0,0.0009269639849662781,1.06413733959198,0.0,-0.01863134279847145
178.0,210.0,4.3244,-2.9844,7.7593,-0.042,0.0235,-0.1106,-1.6167456112303675,0.0,2.36799955368042,-1.5474746227264404,-0.0,2.1803817749023438,4.1236616808125,-0.0,0.2866940200328827,-1.4410222212420862,-0.0,0.004055388271808624,1.2024681568145752,0.0,-0.008815297856926918,1.064101219177246,0.0,0.036689434200525284
178.0,210.0,4.3244,-2.9844,7.7593,-0.042,0.0235,-0.1106,-1.6167499027647914,0.0,2.3900184631347656,-1.5474581718444824,-0.0,2.2038042545318604,4.123665495509766,-0.0,0.28461548686027527,-1.4410021940814417,-0.0,0.004295617341995239,1.2024762630462646,0.0,-0.007503473665565252,1.064109444618225,0.0,-0.02855638787150383
178.0,210.0,4.3244,-2.9844,7.7593,-0.042,0.0235,-0.1106,-1.6167293987669886,0.0,2.375084638595581,-1.5474376678466797,-0.0,2.169610023498535,4.1236936289021,-0.0,0.28480207920074463,-1.4410222212420862,-0.0,0.013810735195875168,1.2024880647659302,0.0,0.002178123453631997,1.064080834388733,0.0,-0.01624440588057041
178.0,210.0,4.3244,-2.9844,7.7593,-0.042,0.0235,-0.1106,-1.6167012653746546,0.0,2.3733856678009033,-1.5474622249603271,-0.0,2.187330484390259,4.123685999507568,-0.0,0.2789207696914673,-1.4410060087787073,-0.0,0.010649971663951874,1.2024919986724854,0.0,-0.01600554585456848,1.0640571117401123,0.0,-0.028194483369588852
178.0,210.0,4.3244,-2.9844,7.7593,-0.042,0.0235,-0.1106,-1.6167174778380335,0.0,2.3635740280151367,-1.5475066900253296,-0.0,2.1736433506011963,4.123645468349121,-0.0,0.2902519702911377,-1.4409902731524866,-0.0,-0.000592502998188138,1.202444314956665,0.0,-0.006324042100459337,1.0641213655471802,0.0,-0.006723195314407349
178.0,210.0,4.3244,-2.9844,7.7593,-0.042,0.0235,-0.1106,-1.6167456112303675,0.0,2.349961757659912,-1.5474824905395508,-0.0,2.221334457397461,4.123677893275879,-0.0,0.2729712426662445,-1.4410060087787073,-0.0,0.013265700079500675,1.2024999856948853,0.0,-0.007412345614284277,1.064089059829712,0.0,-0.01799546554684639
178.0,210.0,4.3244,-2.9844,7.7593,-0.042,0.0235,-0.1106,-1.616741796533102,0.0,2.411776542663574,-1.5474746227264404,-0.0,2.1977195739746094,4.123649283046387,-0.0,0.280224472284317,-1.4409740606891077,-0.0,0.0004547887947410345,1.2024482488632202,0.0,-0.0034521587658673525,1.064089059829712,0.0,-0.02177601121366024
178.0,210.0,4.3244,-2.9844,7.7593,-0.042,0.0235,-0.1106,-1.6167050800719203,0.0,2.3454222679138184,-1.5474984645843506,-0.0,2.1914265155792236,4.123633547420166,-0.0,0.2753991186618805,-1.4410026709186,-0.0,0.010106569156050682,1.202427864074707,0.0,-0.0037195184268057346,1.0641134977340698,0.0,-0.026082392781972885
176.0,200.0,4.264,-2.9767,7.6744,-0.0389,0.0192,-0.1199,-1.6167293987669886,0.0,2.4038209915161133,-1.5474705696105957,-0.0,2.200474500656128,4.123690291041992,-0.0,0.2868952751159668,-1.4409902731524866,-0.0,0.01652953214943409,1.2024880647659302,0.0,-0.013717910274863243,1.0640931129455566,0.0,0.01747448742389679
176.0,200.0,4.264,-2.9767,7.6744,-0.0389,0.0192,-0.1199,-1.6166774235167445,0.0,2.364871025085449,-1.547438621520996,-0.0,2.163430690765381,4.1237098413654785,-0.0,0.2649384140968323,-1.441066090260641,-0.0,0.003367676865309477,1.2024880647659302,0.0,-0.01145237311720848,1.064064860343933,0.0,-0.013061782345175743
176.0,200.0,4.264,-2.9767,7.6744,-0.0389,0.0192,-0.1199,-1.616709371606344,0.0,2.4219512939453125,-1.5474907159805298,-0.0,2.2260971069335938,4.123649759883545,-0.0,0.29250991344451904,-1.4410422484027308,-0.0,-0.0018405694281682372,1.202396035194397,0.0,-0.008819729089736938,1.0641134977340698,0.0,-0.01628643274307251
176.0,200.0,4.264,-2.9767,7.6744,-0.0389,0.0192,-0.1199,-1.6167456112303675,0.0,2.356578826904297,-1.5474302768707275,-0.0,2.23284912109375,4.123685999507568,-0.0,0.2791662812232971,-1.4410021940814417,-0.0,0.008894838392734528,1.202444314956665,0.0,-0.008129914291203022,1.064089059829712,0.0,-0.0320904478430748
176.0,200.0,4.264,-2.9767,7.6744,-0.0389,0.0192,-0.1199,-1.6167456112303675,0.0,2.3953614234924316,-1.547458291053772,-0.0,2.2253034114837646,4.123657866115234,-0.0,0.29058218002319336,-1.4410222212420862,-0.0,-0.007135140243917704,1.202452301979065,0.0,0.003477366641163826,1.0641053915023804,0.0,-0.02332444116473198
176.0,200.0,4.264,-2.9767,7.6744,-0.0389,0.0192,-0.1199,-1.616741796533102,0.0,2.394373893737793,-1.5474385023117065,-0.0,2.2192585468292236,4.1236616808125,-0.0,0.27966246008872986,-1.4409940878497522,-0.0,-0.0038794786669313908,1.2024720907211304,0.0,-0.0006692667957395315,1.0641213655471802,0.0,-0.02561960555613041
176.0,200.0,4.264,-2.9767,7.6744,-0.0389,0.0192,-0.1199,-1.6167260609068812,0.0,2.3716394901275635,-1.5474988222122192,-0.0,2.19098162651062,4.123641653651855,-0.0,0.2825220227241516,-1.4410904089557093,-0.0,0.009449666365981102,1.2024801969528198,0.0,-0.0030571790412068367,1.0640971660614014,0.0,0.019864629954099655
176.0,200.0,4.264,-2.9767,7.6744,-0.0389,0.0192,-0.1199,-1.616709371606344,0.0,2.414295196533203,-1.5475144386291504,-0.0,2.198354482650757,4.123641653651855,-0.0,0.286346971988678,-1.4410026709186,-0.0,-0.0028747471515089273,1.2024999856948853,0.0,-0.003924339544028044,1.0641294717788696,0.0,-0.02834182232618332
176.0,200.0,4.264,-2.9767,7.6744,-0.0389,0.0192,-0.1199,-1.6167336903014125,0.0,2.385300636291504,-1.547478437423706,-0.0,2.1669869422912598,4.123685999507568,-0.0,0.2816309928894043,-1.4410341421710413,-0.0,-0.0004630036128219217,1.2024357318878174,0.0,-0.015861308202147484,1.0640971660614014,0.0,-0.01985463686287403
176.0,200.0,4.264,-2.9767,7.6744,-0.0389,0.0192,-0.1199,-1.6167336903014125,0.0,2.3857436180114746,-1.5474458932876587,-0.0,2.158811569213867,4.123669787044189,-0.0,0.282082200050354,-1.4409821669207972,-0.0,-0.0028121797367930412,1.2024604082107544,0.0,-0.013097220100462437,1.0641134977340698,0.0,-0.0035877833142876625
176.0,200.0,4.264,-2.9767,7.6744,-0.0389,0.0192,-0.1199,-1.616765638391012,0.0,2.39593243598938,-1.5474344491958618,-0.0,2.1556270122528076,4.1236535745808105,-0.0,0.27745240926742554,-1.4410060087787073,-0.0,0.014692697674036026,1.2024357318878174,0.0,-0.0005693870480172336,1.064109444618225,0.0,-0.0011944468133151531
176.0,200.0,4.264,-2.9767,7.6744,-0.0389,0.0192,-0.1199,-1.6167618236937464,0.0,2.396111249923706,-1.5474623441696167,-0.0,2.209333658218384,4.1236616808125,-0.0,0.2670067846775055,-1.4409821669207972,-0.0,0.0012725668493658304,1.2024120092391968,0.0,-0.019168106839060783,1.064109444618225,0.0,0.0341956652700901
176.0,200.0,4.264,-2.9767,7.6744,-0.0389,0.0192,-0.1199,-1.6167217693724574,0.0,2.3842077255249023,-1.5474824905395508,-0.0,2.135699510574341,4.1236535745808105,-0.0,0.28214919567108154,-1.4410465399371546,-0.0,-0.008849048987030983,1.2024601697921753,0.0,-0.007661839947104454,1.064101219177246,0.0,-0.04688384383916855
176.0,200.0,4.264,-2.9767,7.6744,-0.0389,0.0192,-0.1199,-1.6166969738402308,0.0,2.4118452072143555,-1.5474179983139038,-0.0,2.186702251434326,4.12361399709668,-0.0,0.28286096453666687,-1.4410303274737757,-0.0,-0.004833898972719908,1.2024562358856201,0.0,-0.013002610765397549,1.0640689134597778,0.0,-0.030951635912060738
176.0,200.0,4.264,-2.9767,7.6744,-0.0389,0.0192,-0.1199,-1.6167293987669886,0.0,2.3996620178222656,-1.5474541187286377,-0.0,2.1425061225891113,4.123605414027832,-0.0,0.2805308699607849,-1.440998379384176,-0.0,0.0024751033633947372,1.2024720907211304,0.0,0.0007032181601971388,1.0640652179718018,0.0,-0.01600734330713749
176.0,200.0,4.264,-2.9767,7.6744,-0.0389,0.0192,-0.1199,-1.6167260609068812,0.0,2.365891695022583,-1.5474705696105957,-0.0,2.1533000469207764,4.123677893275879,-0.0,0.27994975447654724,-1.4410103003131312,-0.0,-0.005190997384488583,1.202492117881775,0.0,-0.0006200626958161592,1.064117193222046,0.0,-0.015823310241103172
176.0,200.0,4.264,-2.9767,7.6744,-0.0389,0.0192,-0.1199,-1.616725584069723,0.0,2.390549659729004,-1.5474457740783691,-0.0,2.216355085372925,4.123665495509766,-0.0,0.28551340103149414,-1.44094163576235,-0.0,-0.008240998722612858,1.202492117881775,0.0,-0.004792486317455769,1.0640931129455566,0.0,-0.012061834335327148
176.0,200.0,4.264,-2.9767,7.6744,-0.0389,0.0192,-0.1199,-1.6167499027647914,0.0,2.3644351959228516,-1.5474385023117065,-0.0,2.167844533920288,4.123677416438721,-0.0,0.2767986059188843,-1.4410060087787073,-0.0,0.006205884274095297,1.2024602890014648,0.0,-0.005249947775155306,1.0641213655471802,0.0,-0.006766905542463064
176.0,209.0,4.3131,-2.9982,7.7007,-0.026,0.0212,-0.1151,-1.6167260609068812,0.0,2.4085841178894043,-1.5475144386291504,-0.0,2.1979939937591553,4.1236535745808105,-0.0,0.28255322575569153,-1.4409902731524866,-0.0,0.0004406908992677927,1.202492117881775,2.200180915679084e-06,-0.008789397776126862,1.0640811920166016,0.0,-0.021088246256113052
176.0,209.0,4.3131,-2.9982,7.7007,-0.026,0.0212,-0.1151,-1.616765638391012,0.0,2.4118494987487793,-1.5474499464035034,-0.0,2.2241177558898926,4.123722239131592,-0.0,0.2776777446269989,-1.44102651277651,-0.0,-0.0017131767235696316,1.2024800777435303,6.124283857822377e-10,0.0016972993034869432,1.064109444618225,0.0,-0.06480196863412857
176.0,209.0,4.3131,-2.9982,7.7007,-0.026,0.0212,-0.1151,-1.6167456112303675,0.0,2.418424606323242,-1.5474334955215454,-0.0,2.2356767654418945,4.123605414027832,-0.0,0.2853092551231384,-1.4409859816180628,-0.0,0.002272044774144888,1.2024000883102417,0.0001348968071397394,0.0018778739031404257,1.0640571117401123,0.0,0.00014821765944361687
176.0,209.0,4.3131,-2.9982,7.7007,-0.026,0.0212,-0.1151,-1.6167618236937464,0.0,2.4038407802581787,-1.547522783279419,-0.0,2.2128372192382812,4.123633547420166,-0.0,0.2731485962867737,-1.4409859816180628,-0.0,0.004717581439763308,1.2025119066238403,1.135734009949374e-06,-0.015315251424908638,1.064089059829712,0.0,-0.01082624401897192
176.0,209.0,4.3131,-2.9982,7.7007,-0.026,0.0212,-0.1151,-1.6167217693724574,0.0,2.3515055179595947,-1.547486662864685,-0.0,2.172800064086914,4.123677893275879,-0.0,0.278181254863739,-1.4410346190081995,-0.0,0.00016733934171497822,1.2024643421173096,3.161357564618328e-10,-0.012541371397674084,1.0640931129455566,0.0,0.02443506382405758
176.0,209.0,4.3131,-2.9982,7.7007,-0.026,0.0212,-0.1151,-1.616713663140768,0.0,2.4436683654785156,-1.5474705696105957,-0.0,2.1832497119903564,4.123649283046387,-0.0,0.27738332748413086,-1.4410021940814417,-0.0,-0.004798306617885828,1.2024720907211304,1.3477363756259075e-12,-0.0054053934291005135,1.0640448331832886,0.0,0.004540939349681139
176.0,209.0,4.3131,-2.9982,7.7007,-0.026,0.0212,-0.1151,-1.6167499027647914,0.0,2.419999599456787,-1.5474426746368408,-0.0,2.1966805458068848,4.123673601741455,-0.0,0.2828095555305481,-1.4410103003131312,-0.0,-0.0012120066676288843,1.2024238109588623,3.751473983280222e-16,-0.015047397464513779,1.064125418663025,0.0,-0.0048450566828250885
176.0,209.0,4.3131,-2.9982,7.7007,-0.026,0.0212,-0.1151,-1.6167737446227015,0.0,2.424114465713501,-1.547534704208374,-0.0,2.1710164546966553,4.123697443599365,-0.0,0.28696373105049133,-1.441014591847555,-0.0,0.012386654503643513,1.2024317979812622,1.0442364888256074e-19,0.0006493701948784292,1.064089059829712,0.0,-0.014255113899707794
176.0,209.0,4.3131,-2.9982,7.7007,-0.026,0.0212,-0.1151,-1.616741796533102,0.0,2.3353796005249023,-1.5474509000778198,-0.0,2.245255947113037,4.123669787044189,-0.0,0.28360870480537415,-1.4409902731524866,-0.0,-0.006222755182534456,1.2024720907211304,4.4517437841184165e-22,-0.0165878739207983,1.0640771389007568,0.0,-0.016795214265584946
176.0,209.0,4.3131,-2.9982,7.7007,-0.026,0.0212,-0.1151,-1.6167379818358363,0.0,2.3788833618164062,-1.5473980903625488,-0.0,2.2083942890167236,4.123641653651855,-0.0,0.2904459536075592,-1.4410060087787073,-0.0,-0.0026769887190312147,1.2024483680725098,1.2391592266963684e-25,0.0017765859374776483,1.0641134977340698,0.0,-0.006260843016207218
176.0,209.0,4.3131,-2.9982,7.7007,-0.026,0.0212,-0.1151,-1.616713663140768,0.0,2.4088857173919678,-1.5474663972854614,-0.0,2.204612970352173,4.123641653651855,-0.0,0.28162696957588196,-1.440998379384176,-0.0,0.00626177154481411,1.2024800777435303,5.282730985404427e-28,-0.010591045022010803,1.0640931129455566,0.0,-0.037521447986364365
176.0,209.0,4.3131,-2.9982,7.7007,-0.026,0.0212,-0.1151,-1.6166969738402308,0.0,2.4237194061279297,-1.5475305318832397,-0.0,2.2159156799316406,4.123649283046387,-0.0,0.2984163463115692,-1.4410060087787073,-0.0,0.007593786343932152,1.2024483680725098,1.4704677310424887e-31,-0.008613999001681805,1.064064860343933,0.0,-0.033951908349990845
176.0,209.0,4.3131,-2.9982,7.7007,-0.026,0.0212,-0.1151,-1.6167580089964808,0.0,2.340871810913086,-1.5474989414215088,-0.0,2.2502787113189697,4.123685999507568,-0.0,0.28698381781578064,-1.4410179297076624,-0.0,0.0028381426818668842,1.2024317979812622,6.268833771941006e-34,-0.006968020927160978,1.0641175508499146,0.0,-0.02075449749827385
176.0,209.0,4.3131,-2.9982,7.7007,-0.026,0.0212,-0.1151,-1.616765638391012,0.0,2.3767435550689697,-1.5474541187286377,-0.0,2.1896135807037354,4.123633547420166,-0.0,0.2712262272834778,-1.4409979025470179,-0.0,-0.008288060314953327,1.2024682760238647,1.744953460235221e-37,-0.007886023260653019,1.06413733959198,0.0,-0.010332071222364902
176.0,209.0,4.3131,-2.9982,7.7007,-0.026,0.0212,-0.1151,-1.6167217693724574,0.0,2.4202446937561035,-1.5475226640701294,-0.0,2.1840927600860596,4.123653097743652,-0.0,0.2861407399177551,-1.4409902731524866,-0.0,-0.010729177854955196,1.20246422290802,4.857180737042681e-41,-0.009988987818360329,1.0640971660614014,0.0,-0.04715805873274803
176.0,209.0,4.3131,-2.9982,7.7007,-0.026,0.0212,-0.1151,-1.6167499027647914,0.0,2.3708322048187256,-1.5474541187286377,-0.0,2.236959934234619,4.123690291041992,-0.0,0.2910017669200897,-1.4409902731524866,-0.0,0.008352700620889664,1.2024720907211304,2.0739217272007293e-43,-0.0028828296344727278,1.06413733959198,0.0,-0.015040996484458447
176.0,209.0,4.3131,-2.9982,7.7007,-0.026,0.0212,-0.1151,-1.616741796533102,0.0,2.3877012729644775,-1.5474663972854614,-0.0,2.186845064163208,4.123633547420166,-0.0,0.2771354913711548,-1.4410384337054651,-0.0,0.007964881137013435,1.202427864074707,0.0,-0.014319609850645065,1.0640813112258911,0.0,-0.043559689074754715
176.0,209.0,4.3131,-2.9982,7.7007,-0.026,0.0212,-0.1151,-1.616753717462057,0.0,2.3482842445373535,-1.5474344491958618,-0.0,2.247387409210205,4.123657389278076,-0.0,0.27875667810440063,-1.4410422484027308,-0.0,-0.009137570858001709,1.2025196552276611,0.0,-0.017919398844242096,1.0640689134597778,0.0,-0.016053466126322746
183.0,215.0,4.3382,-3.0221,7.6499,-0.0391,0.0214,-0.12,-1.616753717462057,0.0,2.419525623321533,-1.5474742650985718,-0.0,2.2165920734405518,4.123697443599365,-0.0,0.28559398651123047,-1.4410222212420862,-0.0,-0.00229640887118876,1.2024959325790405,0.0,-0.005593710578978062,1.064089059829712,0.0,0.0026834101881831884
183.0,215.0,4.3382,-3.0221,7.6499,-0.0391,0.0214,-0.12,-1.6167174778380335,0.0,2.416762351989746,-1.5474742650985718,-0.0,2.1260123252868652,4.123661203975342,-0.0,0.28489241003990173,-1.4410179297076624,-0.0,-0.009338727220892906,1.202427864074707,0.0,-0.0008769810665398836,1.0640848875045776,0.0,0.007672735955566168
183.0,215.0,4.3382,-3.0221,7.6499,-0.0391,0.0214,-0.12,-1.6166845760741175,0.0,2.4073734283447266,-1.5474541187286377,-0.0,2.1987223625183105,4.123649283046387,-0.0,0.2847434878349304,-1.4410026709186,-0.0,0.0011172095546498895,1.2024317979812622,0.0,0.005851033143699169,1.0641134977340698,0.0,0.0005460307002067566
183.0,215.0,4.3382,-3.0221,7.6499,-0.0391,0.0214,-0.12,-1.616713663140768,0.0,2.387622833251953,-1.5474541187286377,-0.0,2.195629119873047,4.123685999507568,-0.0,0.28914758563041687,-1.4410103003131312,-0.0,-0.00021132780238986015,1.202476143836975,0.0,-0.003322963835671544,1.0640608072280884,0.0,-0.012719602324068546
183.0,215.0,4.3382,-3.0221,7.6499,-0.0391,0.0214,-0.12,-1.6167336903014125,0.0,2.4053192138671875,-1.5474824905395508,-0.0,2.163426399230957,4.123622103328369,-0.0,0.2807042598724365,-1.4410222212420862,-0.0,0.0030142893083393574,1.2024517059326172,0.0,0.005261060781776905,1.064117193222046,0.0,-0.007427412085235119
183.0,215.0,4.3382,-3.0221,7.6499,-0.0391,0.0214,-0.12,-1.6167942486205042,0.0,2.354332447052002,-1.5474541187286377,-0.0,2.21124529838562,4.123665972346924,-0.0,0.27663925290107727,-1.4410184065448206,-0.0,-0.0025888991076499224,1.2024198770523071,0.0,-0.021528426557779312,1.064089059829712,0.0,0.016060249879956245
183.0,215.0,4.3382,-3.0221,7.6499,-0.0391,0.0214,-0.12,-1.6167174778380335,0.0,2.4376962184906006,-1.5474262237548828,-0.0,2.1784677505493164,4.1236182886311035,-0.0,0.2816905975341797,-1.4410622755633753,-0.0,-0.0001437854953110218,1.2024198770523071,0.0,-0.002929635811597109,1.064125418663025,0.0,-0.036175962537527084
183.0,215.0,4.3382,-3.0221,7.6499,-0.0391,0.0214,-0.12,-1.6167012653746546,0.0,2.407345771789551,-1.547478437423706,-0.0,2.1805930137634277,4.123622103328369,-0.0,0.2786024510860443,-1.44102651277651,-0.0,0.007389670703560114,1.202415943145752,0.0,0.0067666093818843365,1.0641175508499146,0.0,-0.019099034368991852
183.0,215.0,4.3382,-3.0221,7.6499,-0.0391,0.0214,-0.12,-1.6167336903014125,0.0,2.356821060180664,-1.5474984645843506,-0.0,2.1989338397979736,4.123673601741455,-0.0,0.2867169678211212,-1.4410222212420862,-0.0,0.0030648200772702694,1.2024602890014648,0.0,-0.016863249242305756,1.0640848875045776,0.0,-0.026661695912480354
183.0,215.0,4.3382,-3.0221,7.6499,-0.0391,0.0214,-0.12,-1.6167580089964808,0.0,2.4158835411071777,-1.5474426746368408,-0.0,2.169510841369629,4.123626394862793,-0.0,0.2786330580711365,-1.4410179297076624,-0.0,-0.005283014383167028,1.2024238109588623,0.0,0.0040143076330423355,1.0640852451324463,0.0,0.00756096700206399
183.0,215.0,4.3382,-3.0221,7.6499,-0.0391,0.0214,-0.12,-1.6167336903014125,0.0,2.396186590194702,-1.547486662864685,-0.0,2.191464900970459,4.123673601741455,-0.0,0.2815554141998291,-1.441014591847555,-0.0,0.00039065279997885227,1.2024438381195068,0.0,-0.013399235904216766,1.0640848875045776,0.0,-0.007931816391646862
183.0,215.0,4.3382,-3.0221,7.6499,-0.0391,0.0214,-0.12,-1.6167980633177699,0.0,2.4054036140441895,-1.5474907159805298,-0.0,2.2342209815979004,4.123673601741455,-0.0,0.2749537527561188,-1.4409902731524866,-0.0,0.0023614566307514906,1.202435851097107,0.0,-0.010657436214387417,1.0640848875045776,0.0,-0.07150775194168091
183.0,215.0,4.3382,-3.0221,7.6499,-0.0391,0.0214,-0.12,-1.6167737446227015,0.0,2.4039440155029297,-1.5474705696105957,-0.0,2.2064566612243652,4.123645468349121,-0.0,0.2845313549041748,-1.440998379384176,-0.0,-0.0025207125581800938,1.202427864074707,0.0,0.004348923452198505,1.0641090869903564,1.629447581308341e-07,0.010963644832372665
183.0,215.0,4.3382,-3.0221,7.6499,-0.0391,0.0214,-0.12,-1.6167456112303675,0.0,2.3833837509155273,-1.5474663972854614,-0.0,2.176833152770996,4.123665495509766,-0.0,0.2849225401878357,-1.4410222212420862,-0.0,0.005761265754699707,1.2024562358856201,0.0,-0.009207142516970634,1.06413733959198,2.9329483286488767e-11,-0.04432249814271927
183.0,215.0,4.3382,-3.0221,7.6499,-0.0391,0.0214,-0.12,-1.616753717462057,0.0,2.4057343006134033,-1.5474746227264404,-0.0,2.1555588245391846,4.1236535745808105,-0.0,0.2812044024467468,-1.4410303274737757,-0.0,0.0030914407689124346,1.202492117881775,0.0,-0.009140769951045513,1.064089059829712,7.082725392306929e-17,0.021382899954915047
183.0,215.0,4.3382,-3.0221,7.6499,-0.0391,0.0214,-0.12,-1.6167174778380335,0.0,2.374288320541382,-1.5474907159805298,-0.0,2.1512813568115234,4.12361399709668,-0.0,0.2900034785270691,-1.440970245991842,-0.0,-0.0005149861099198461,1.2025158405303955,0.0,-0.0059738303534686565,1.064089059829712,1.710395088054735e-22,-0.032660387456417084
183.0,215.0,4.3382,-3.0221,7.6499,-0.0391,0.0214,-0.12,-1.616769929925436,0.0,2.397341728210449,-1.5475107431411743,-0.0,2.2128612995147705,4.123633547420166,-0.0,0.28082624077796936,-1.4410303274737757,-0.0,-0.001645453623495996,1.2024524211883545,0.0,-0.01720496453344822,1.0640608072280884,3.0786507850999016e-26,-0.011453956365585327
183.0,215.0,4.3382,-3.0221,7.6499,-0.0391,0.0214,-0.12,-1.6167456112303675,0.0,2.3728606700897217,-1.5474343299865723,-0.0,2.179875373840332,4.123649283046387,-0.0,0.2666418254375458,-1.4410222212420862,-0.0,0.008749224245548248,1.2024681568145752,0.0,-0.004779667127877474,1.0641090869903564,6.55867115710862e-05,-0.030581725761294365
175.0,215.0,4.2646,-3.0263,7.6905,-0.0319,0.0243,-0.1199,-1.6167217693724574,0.0,2.396763801574707,-1.5474661588668823,-0.0,2.2214808464050293,4.12361399709668,-0.0,0.27532291412353516,-1.4409659544574183,-0.0,-0.004317917861044407,1.2024801969528198,0.0,-0.017186950892210007,1.064080834388733,5.724258880945854e-05,-0.07561298459768295
175.0,215.0,4.2646,-3.0263,7.6905,-0.0319,0.0243,-0.1199,-1.6167174778380335,0.0,2.4266066551208496,-1.5474705696105957,-0.0,2.21053147315979,4.123626394862793,-0.0,0.26669806241989136,-1.4410503546344202,-0.0,0.015137852169573307,1.2024403810501099,0.0,-0.026396503672003746,1.064089059829712,4.806915603694506e-05,-0.0464792437851429
175.0,215.0,4.2646,-3.0263,7.6905,-0.0319,0.0243,-0.1199,-1.6167456112303675,0.0,2.401214838027954,-1.5474944114685059,-0.0,2.1844215393066406,4.123657389278076,-0.0,0.2828039526939392,-1.441014591847555,-7.977667593195292e-08,0.002818604465574026,1.202492117881775,0.0,-0.010562459006905556,1.0641134977340698,4.342940519563854e-05,0.010277584195137024
175.0,215.0,4.2646,-3.0263,7.6905,-0.0319,0.0243,-0.1199,-1.6167012653746546,0.0,2.409212350845337,-1.5474541187286377,-0.0,2.166231155395508,4.123665495509766,-0.0,0.278380811214447,-1.4410303274737757,-2.2206132765933972e-11,0.0028900562319904566,1.2024357318878174,0.0,0.008488171733915806,1.064052939414978,3.793708310695365e-05,0.042669374495744705
175.0,215.0,4.2646,-3.0263,7.6905,-0.0319,0.0243,-0.1199,-1.6167174778380335,0.0,2.4078102111816406,-1.547430396080017,-0.0,2.231325149536133,4.123665495509766,-0.0,0.2782382667064667,-1.44102651277651,-6.181159405117213e-15,-0.0013504030648618937,1.2025119066238403,0.0,-0.009858018718659878,1.0640771389007568,3.367812678334303e-05,0.03917110338807106
175.0,215.0,4.2646,-3.0263,7.6905,-0.0319,0.0243,-0.1199,-1.616741796533102,0.0,2.353804588317871,-1.5475066900253296,-0.0,2.1506781578063965,4.123689337367676,-0.0,0.29039978981018066,-1.4410222212420862,-2.6351251237362937e-17,0.010988638736307621,1.2024762630462646,0.0,-0.003253017785027623,1.064073085784912,3.1332972866948694e-05,0.028515266254544258
175.0,215.0,4.2646,-3.0263,7.6905,-0.0319,0.0243,-0.1199,-1.616725584069723,0.0,2.389793872833252,-1.5474499464035034,-0.0,2.174990653991699,4.123718424434326,-0.0,0.2769721746444702,-1.4410784880267542,-7.33496915185142e-21,-0.006152206100523472,1.202515721321106,0.0,-0.009153861552476883,1.0640971660614014,2.836987368937116e-05,0.0013573719188570976
175.0,215.0,4.2646,-3.0263,7.6905,-0.0319,0.0243,-0.1199,-1.6167217693724574,0.0,2.4277186393737793,-1.5474907159805298,-0.0,2.214134693145752,4.123669787044189,-0.0,0.2956920862197876,-1.4410021940814417,-3.127012442771158e-23,0.0007813380216248333,1.2025039196014404,0.0,-0.005673103500157595,1.064049243927002,2.6687386707635596e-05,0.01726776547729969
175.0,215.0,4.2646,-3.0263,7.6905,-0.0319,0.0243,-0.1199,-1.6167460880675257,0.0,2.423752784729004,-1.5474581718444824,-0.0,2.187211275100708,4.123669787044189,-0.0,0.28162720799446106,-1.4410222212420862,-8.704153331624626e-27,0.0062142061069607735,1.2024483680725098,0.0,-0.014256253838539124,1.0640971660614014,2.4507238777005114e-05,-0.0063733854331076145
175.0,215.0,4.2646,-3.0263,7.6905,-0.0319,0.0243,-0.1199,-1.616769929925436,0.0,2.383913278579712,-1.5474458932876587,-0.0,2.2419114112854004,4.123697443599365,-0.0,0.2791956067085266,-1.441014591847555,-3.7107175109469455e-29,-0.003762169275432825,1.202384352684021,0.0,-0.013964051380753517,1.0641331672668457,2.324148954357952e-05,0.014799459837377071
175.0,215.0,4.2646,-3.0263,7.6905,-0.0319,0.0243,-0.1199,-1.6167293987669886,0.0,2.3947272300720215,-1.5474824905395508,-0.0,2.1904728412628174,4.123629255885742,-0.0,0.2841377854347229,-1.4410384337054651,-1.0328916781093803e-32,-0.02286558225750923,1.202527642250061,0.0,-0.011139022186398506,1.0641134977340698,2.1570413082372397e-05,-0.046072930097579956
175.0,215.0,4.2646,-3.0263,7.6905,-0.0319,0.0243,-0.1199,-1.6167379818358363,0.0,2.371643543243408,-1.547458291053772,-0.0,2.230623960494995,4.123641653651855,-0.0,0.27949059009552,-1.4410222212420862,2.527561446186155e-05,0.007644844241440296,1.2024720907211304,0.0,-0.005332206375896931,1.064044713973999,2.0123488866374828e-05,-0.0040917666628956795
175.0,215.0,4.2646,-3.0263,7.6905,-0.0319,0.0243,-0.1199,-1.6167379818358363,0.0,2.384357452392578,-1.5474824905395508,-0.0,2.1823949813842773,4.12361399709668,-0.0,0.2809921205043793,-1.4409783522235315,3.301710603409447e-05,0.010023231618106365,1.2024879455566406,0.0,-0.005012803245335817,1.064032793045044,1.9262111891293898e-05,-0.022505823522806168
175.0,215.0,4.2646,-3.0263,7.6905,-0.0319,0.0243,-0.1199,-1.6167413196959437,0.0,2.3787598609924316,-1.5474907159805298,-0.0,2.225865364074707,4.1236535745808105,-0.0,0.26890647411346436,-1.4410222212420862,2.9779219403280877e-05,0.00905708596110344,1.2024199962615967,0.0,-0.01776205748319626,1.0640767812728882,1.809997957025189e-05,-0.022039178758859634
175.0,215.0,4.2646,-3.0263,7.6905,-0.0319,0.0243,-0.1199,-1.6167336903014125,0.0,2.3763115406036377,-1.5474499464035034,-0.0,2.2244343757629395,4.123638315791748,-0.0,0.283547580242157,-1.441014591847555,7.249481313920114e-06,-0.004992792848497629,1.2024801969528198,0.0,-0.007596929091960192,1.0641134977340698,1.74001124833012e-05,-0.026361219584941864
175.0,215.0,4.2646,-3.0263,7.6905,-0.0319,0.0243,-0.1199,-1.6167379818358363,0.0,2.435774564743042,-1.547438621520996,-0.0,2.1805167198181152,4.1236817079731445,-0.0,0.2805542051792145,-1.440970245991842,2.017919831232007e-09,-0.003751304466277361,1.2025078535079956,0.0,-0.007860984653234482,1.064129114151001,1.644622716412414e-05,-0.012131141498684883
175.0,215.0,4.2646,-3.0263,7.6905,-0.0319,0.0243,-0.1199,-1.6167336903014125,0.0,2.4271419048309326,-1.547486662864685,-0.0,2.1382997035980225,4.123685999507568,-0.0,0.29467517137527466,-1.4410622755633753,8.602709690441745e-12,-0.005732728634029627,1.2024317979812622,0.0,-0.0027532116509974003,1.0640931129455566,1.5866367903072387e-05,-0.016789164394140244
175.0,215.0,4.2646,-3.0263,7.6905,-0.0319,0.0243,-0.1199,-1.6167012653746546,0.0,2.34124755859375,-1.5474417209625244,-0.0,2.181882858276367,4.1236182886311035,-0.0,0.27428674697875977,-1.44102651277651,2.3945960232057972e-15,-0.002275981241837144,1.202452301979065,0.0,-0.011550888419151306,1.0641131401062012,1.5069386790855788e-05,0.0014795111492276192
181.0,226.0,4.2891,-3.0287,7.7797,-0.0438,0.0228,-0.1196,-1.6167737446227015,0.0,2.4063823223114014,-1.5474824905395508,-0.0,2.1720640659332275,4.123637362117432,-0.0,0.28691887855529785,-1.4410060087787073,6.665446191370674e-19,-0.009282664395868778,1.2024879455566406,0.0,-0.0060545913875103,1.0640931129455566,1.4348640434036497e-05,0.002146471757441759
181.0,226.0,4.2891,-3.0287,7.7797,-0.0438,0.0228,-0.1196,-1.616798540154928,0.0,2.3741800785064697,-1.5474097728729248,-0.0,2.1925466060638428,4.123645468349121,-0.0,0.279333233833313,-1.4410103003131312,2.8415843161762925e-21,0.0074997711926698685,1.2024840116500854,0.0,-0.008816471323370934,1.064064860343933,1.3905267223890405e-05,0.0021752752363681793
181.0,226.0,4.2891,-3.0287,7.7797,-0.0438,0.0228,-0.1196,-1.6167379818358363,0.0,2.397800922393799,-1.5474622249603271,-0.0,2.1695454120635986,4.123705549831055,-0.0,0.28594881296157837,-1.4410541693316858,7.909654875085283e-25,-0.007374366745352745,1.2024602890014648,0.0,0.00018665753304958344,1.064064860343933,1.3289316484588198e-05,-0.016561083495616913
181.0,226.0,4.2891,-3.0287,7.7797,-0.0438,0.0228,-0.1196,-1.616765638391012,0.0,2.368675470352173,-1.5474261045455933,-0.0,2.2452192306518555,4.1236535745808105,-0.0,0.297564834356308,-1.4410222212420862,3.372010206084514e-27,-0.0019115695031359792,1.202439785003662,0.0,-0.007715166546404362,1.0640971660614014,1.29081145132659e-05,-0.028595639392733574
181.0,226.0,4.2891,-3.0287,7.7797,-0.0438,0.0228,-0.1196,-1.6167661152281703,0.0,2.3679890632629395,-1.5474828481674194,-0.0,2.2013561725616455,4.123685999507568,-0.0,0.28836604952812195,-1.4410341421710413,9.38611362351926e-31,-0.016891388222575188,1.2024879455566406,0.0,-0.00533671211451292,1.064052939414978,1.2375637197692413e-05,-0.027407223358750343
181.0,226.0,4.2891,-3.0287,7.7797,-0.0438,0.0228,-0.1196,-1.6166931591429652,0.0,2.4017133712768555,-1.547486662864685,-0.0,2.1937661170959473,4.123673601741455,-0.0,0.29167455434799194,-1.4409940878497522,2.612659483856126e-34,0.00027679139748215675,1.2024602890014648,0.0,-0.009618474170565605,1.0640931129455566,1.1885354069818277e-05,-0.026990633457899094
181.0,226.0,4.2891,-3.0287,7.7797,-0.0438,0.0228,-0.1196,-1.6167012653746546,0.0,2.4111955165863037,-1.5474499464035034,-0.0,2.2447352409362793,4.123649283046387,-0.0,0.2882227301597595,-1.4410222212420862,1.113817757158923e-36,-0.0005200182786211371,1.2024681568145752,0.0,-0.008174261078238487,1.0641292333602905,1.1579517376958393e-05,0.0024278820492327213
181.0,226.0,4.2891,-3.0287,7.7797,-0.0438,0.0228,-0.1196,-1.6167499027647914,0.0,2.3886711597442627,-1.547401785850525,-0.0,2.1956706047058105,4.123669787044189,-0.0,0.28901562094688416,-1.4410141150103968,3.1003588393340145e-40,0.0011737083550542593,1.2024444341659546,0.0,-0.011052119545638561,1.064080834388733,1.114918904931983e-05,0.0019525028765201569
181.0,226.0,4.2891,-3.0287,7.7797,-0.0438,0.0228,-0.1196,-1.6167174778380335,0.0,2.3853816986083984,-1.5474426746368408,-0.0,2.2389211654663086,4.123661203975342,-0.0,0.28090617060661316,-1.4409902731524866,1.3214244518583025e-42,0.002024860354140401,1.2024602890014648,0.0,-0.008482103236019611,1.0641175508499146,1.0879641195060685e-05,-0.01719287969172001
181.0,226.0,4.2891,-3.0287,7.7797,-0.0438,0.0228,-0.1196,-1.6167217693724574,0.0,2.4417290687561035,-1.547413945198059,-0.0,2.2121386528015137,4.123685999507568,-0.0,0.2760559320449829,-1.440998379384176,0.0,-0.003607791615650058,1.202439785003662,0.0,-0.00024654774460941553,1.0640767812728882,1.0498901247046888e-05,0.0015038438141345978
181.0,226.0,4.2891,-3.0287,7.7797,-0.0438,0.0228,-0.1196,-1.6167618236937464,0.0,2.3618063926696777,-1.5474499464035034,-0.0,2.1933205127716064,4.123641176814697,-0.0,0.2970046401023865,-1.4410303274737757,0.0,-8.254311978816986e-05,1.2024801969528198,0.0,-0.010902672074735165,1.0640689134597778,1.02595458884025e-05,-0.031853966414928436
181.0,226.0,4.2891,-3.0287,7.7797,-0.0438,0.0228,-0.1196,-1.6167174778380335,0.0,2.400999069213867,-1.5474541187286377,-0.0,2.1804633140563965,4.123677893275879,-0.0,0.2852151095867157,-1.4410060087787073,0.0,-0.013129862025380135,1.2024879455566406,0.0,-0.00453120656311512,1.0640931129455566,9.920296179188881e-06,0.020898299291729927
181.0,226.0,4.2891,-3.0287,7.7797,-0.0438,0.0228,-0.1196,-1.616725584069723,0.0,2.40175461769104,-1.5474947690963745,-0.0,2.2149624824523926,4.1236182886311035,-0.0,0.28587251901626587,-1.4409940878497522,0.0,0.0012400057166814804,1.2024438381195068,0.0,-0.020237799733877182,1.06413733959198,2.39563438531043e-11,0.005623742938041687
181.0,226.0,4.2891,-3.0287,7.7797,-0.0438,0.0228,-0.1196,-1.6167532406248988,0.0,2.379638433456421,-1.5475026369094849,-0.0,2.2219645977020264,4.123714132899902,-0.0,0.2848254442214966,-1.4409659544574183,0.0,0.010441633872687817,1.2024840116500854,0.0,-0.007302043028175831,1.0640689134597778,4.312057116673826e-15,-0.0021956569980829954
181.0,226.0,4.2891,-3.0287,7.7797,-0.0438,0.0228,-0.1196,-1.616769929925436,0.0,2.4119768142700195,-1.547441840171814,-0.0,2.202324151992798,4.123637362117432,-0.0,0.28712910413742065,-1.4409821669207972,0.0,-0.003751153824850917,1.2024444341659546,0.0,0.0002927384339272976,1.064109444618225,1.0413110159552973e-20,-0.030648857355117798
181.0,226.0,4.2891,-3.0287,7.7797,-0.0438,0.0228,-0.1196,-1.6167050800719203,0.0,2.449357509613037,-1.5475103855133057,-0.0,2.22202730178833,4.1236535745808105,-0.0,0.2867003083229065,-1.4410341421710413,0.0,0.0032883500680327415,1.2024562358856201,0.0,-0.014508824795484543,1.0641132593154907,1.874323255613356e-24,-0.046508632600307465
181.0,226.0,4.2891,-3.0287,7.7797,-0.0438,0.0228,-0.1196,-1.6167336903014125,0.0,2.408024787902832,-1.5474663972854614,-0.0,2.239039659500122,4.123690291041992,-0.0,0.2872350215911865,-1.4410303274737757,0.0,-0.0010387955699115992,1.2024919986724854,0.0,-0.012680799700319767,1.0640767812728882,4.5262701501011184e-30,0.003390844911336899
181.0,226.0,4.2891,-3.0287,7.7797,-0.0438,0.0228,-0.1196,-1.616769929925436,0.0,2.412492513656616,-1.5474343299865723,-0.0,2.1657297611236572,4.1236182886311035,-0.0,0.27771705389022827,-1.4410021940814417,0.0,0.005106499884277582,1.202515721321106,0.0,-0.0037930491380393505,1.064117193222046,8.147126348583688e-34,0.021906746551394463
185.0,226.0,4.3866,-3.0078,7.5829,-0.0273,0.0293,-0.117,-1.616753717462057,0.0,2.404080390930176,-1.5474622249603271,-0.0,2.2304255962371826,4.123693152064941,-0.0,0.2854941785335541,-1.4409940878497522,0.0,0.0032754321582615376,1.2024800777435303,0.0,-0.00573300663381815,1.0641173124313354,1.967435655598222e-39,-0.00238095223903656
185.0,226.0,4.3866,-3.0078,7.5829,-0.0273,0.0293,-0.117,-1.616709371606344,0.0,2.397644519805908,-1.547494888305664,-0.0,2.221435546875,4.123661203975342,-0.0,0.2834357023239136,-1.4410622755633753,0.0,-0.005297859199345112,1.2024604082107544,0.0,-0.0026346975937485695,1.0641213655471802,4.203895392974451e-45,-0.020865535363554955
185.0,226.0,4.3866,-3.0078,7.5829,-0.0273,0.0293,-0.117,-1.6167856655516566,0.0,2.4335849285125732,-1.5474985837936401,-0.0,2.2302863597869873,4.123677416438721,-0.0,0.2729575037956238,-1.4410384337054651,0.0,-0.0007989703444764018,1.2024279832839966,0.0,-0.020627198740839958,1.0641331672668457,0.0,-0.055919498205184937
185.0,226.0,4.3866,-3.0078,7.5829,-0.0273,0.0293,-0.117,-1.6167379818358363,0.0,2.386495590209961,-1.5474581718444824,-0.0,2.206549644470215,4.123629255885742,-0.0,0.29011085629463196,-1.44102651277651,0.0,0.002294863574206829,1.2024765014648438,0.0,-0.01232989877462387,1.064101219177246,0.0,0.0019504781812429428
185.0,226.0,4.3866,-3.0078,7.5829,-0.0273,0.0293,-0.117,-1.616741796533102,0.0,2.418095111846924,-1.5474417209625244,-0.0,2.2320990562438965,4.1236535745808105,-0.0,0.2885980010032654,-1.4410179297076624,0.0,0.003444042755290866,1.20246422290802,0.0,-0.009105224162340164,1.0640848875045776,0.0,-0.030382968485355377
185.0,226.0,4.3866,-3.0078,7.5829,-0.0273,0.0293,-0.117,-1.6167336903014125,0.0,2.4073266983032227,-1.5474907159805298,-0.0,2.256664752960205,4.123682184810303,-0.0,0.2889258861541748,-1.4410222212420862,0.0,0.0035977584775537252,1.2024562358856201,0.0,-0.00022466026712208986,1.064064860343933,0.0,-0.009034422226250172
185.0,226.0,4.3866,-3.0078,7.5829,-0.0273,0.0293,-0.117,-1.6167217693724574,0.0,2.401583433151245,-1.5474824905395508,-0.0,2.2027170658111572,4.123705549831055,-0.0,0.2830039858818054,-1.4410060087787073,0.0,0.0004481938958633691,1.2025084495544434,0.0,-0.005630774423480034,1.064101219177246,0.0,0.00511508621275425
185.0,226.0,4.3866,-3.0078,7.5829,-0.0273,0.0293,-0.117,-1.6167379818358363,0.0,2.401331901550293,-1.5474541187286377,-0.0,2.2262086868286133,4.123633547420166,-0.0,0.28534996509552,-1.4410060087787073,0.0,0.007089364342391491,1.202504277229309,0.0,-0.009665163233876228,1.064117193222046,0.0,0.006482652388513088
185.0,226.0,4.3866,-3.0078,7.5829,-0.0273,0.0293,-0.117,-1.616765638391012,0.0,2.3796796798706055,-1.5474746227264404,-0.0,2.242018222808838,4.123622103328369,-0.0,0.28047552704811096,-1.4410179297076624,0.0,-0.004285764414817095,1.202504277229309,0.0,-0.003000811440870166,1.064109444618225,0.0,0.02504253014922142
185.0,226.0,4.3866,-3.0078,7.5829,-0.0273,0.0293,-0.117,-1.6167217693724574,0.0,2.3924360275268555,-1.54751455783844,-0.0,2.20636248588562,4.123690291041992,-0.0,0.28375232219696045,-1.4410384337054651,0.0,0.010172717273235321,1.202460527420044,0.0,-0.00712977722287178,1.0640652179718018,0.0,-0.012732469476759434
185.0,226.0,4.3866,-3.0078,7.5829,-0.0273,0.0293,-0.117,-1.6166969738402308,0.0,2.3668718338012695,-1.547486662864685,-0.0,2.1718647480010986,4.123649759883545,-0.0,0.27014294266700745,-1.4409783522235315,0.0,-0.014087008312344551,1.2024919986724854,0.0,-0.0026611322537064552,1.064080834388733,0.0,0.05071435496211052
185.0,226.0,4.3866,-3.0078,7.5829,-0.0273,0.0293,-0.117,-1.6167499027647914,0.0,2.4303364753723145,-1.547486662864685,-0.0,2.1815085411071777,4.123649759883545,-0.0,0.29138755798339844,-1.4410622755633753,0.0,-0.004813552834093571,1.202508568763733,0.0,-0.010890606790781021,1.064109444618225,0.0,0.023510083556175232
185.0,226.0,4.3866,-3.0078,7.5829,-0.0273,0.0293,-0.117,-1.6167174778380335,0.0,2.4183452129364014,-1.5474344491958618,-0.0,2.207078218460083,4.123661203975342,-0.0,0.28492236137390137,-1.4409902731524866,0.0,-0.00039549474604427814,1.2024317979812622,0.0,-0.007576971780508757,1.0640848875045776,0.0,-0.011626271530985832
185.0,226.0,4.3866,-3.0078,7.5829,-0.0273,0.0293,-0.117,-1.616753717462057,0.0,2.367109537124634,-1.5474824905395508,-0.0,2.2056100368499756,4.123705549831055,-0.0,0.30251172184944153,-1.4410060087787073,0.0,-0.002008860930800438,1.20247220993042,0.0,-0.0009347447194159031,1.0640931129455566,0.0,-0.027379941195249557
185.0,226.0,4.3866,-3.0078,7.5829,-0.0273,0.0293,-0.117,-1.6167012653746546,0.0,2.3580873012542725,-1.5474824905395508,-0.0,2.2066617012023926,4.123669310207031,-0.0,0.27549320459365845,-1.4410060087787073,0.0,0.002235088497400284,1.202504277229309,0.0,-0.007410003338009119,1.064061164855957,0.0,-0.039298661053180695
185.0,226.0,4.3866,-3.0078,7.5829,-0.0273,0.0293,-0.117,-1.6167293987669886,0.0,2.407447338104248,-1.5474623441696167,-0.0,2.203726053237915,4.123669787044189,-0.0,0.2807273864746094,-1.4410103003131312,0.0,-0.0034315420780330896,1.2024562358856201,0.0,-0.009861907921731472,1.064125418663025,0.0,0.007036821451038122
185.0,226.0,4.3866,-3.0078,7.5829,-0.0273,0.0293,-0.117,-1.6167012653746546,0.0,2.4281318187713623,-1.5475226640701294,-0.0,2.1633238792419434,4.123626394862793,-0.0,0.2805878520011902,-1.4410060087787073,0.0,0.006120804697275162,1.2025521993637085,0.0,-0.018398961052298546,1.064117193222046,0.0,-0.01667754352092743
186.0,226.0,4.3053,-3.0532,7.745,-0.0385,0.036,-0.1234,-1.6167293987669886,0.0,2.4334170818328857,-1.5474499464035034,-0.0,2.2006053924560547,4.123649759883545,-0.0,0.2943006157875061,-1.4409859816180628,0.0,-0.000740555115044117,1.2025202512741089,0.0,-0.013635294511914253,1.0640771389007568,0.0,0.015689924359321594
186.0,226.0,4.3053,-3.0532,7.745,-0.0385,0.036,-0.1234,-1.6167217693724574,0.0,2.397768259048462,-1.5474663972854614,-0.0,2.16791033744812,4.123601599330566,-0.0,0.28344976902008057,-1.440970245991842,0.0,-0.011030442081391811,1.2024562358856201,0.0,-0.0029206506442278624,1.064117193222046,0.0,-0.0027153263799846172
186.0,226.0,4.3053,-3.0532,7.745,-0.0385,0.036,-0.1234,-1.6167737446227015,0.0,2.370053291320801,-1.5474220514297485,-0.0,2.2002811431884766,4.123626394862793,-0.0,0.28915148973464966,-1.4410384337054651,0.0,-0.002145332982763648,1.202460527420044,0.0,-0.004830358549952507,1.064101219177246,0.0,0.025461332872509956
186.0,226.0,4.3053,-3.0532,7.745,-0.0385,0.036,-0.1234,-1.6167012653746546,0.0,2.4004080295562744,-1.5474302768707275,-0.0,2.2121481895446777,4.123701735133789,-0.0,0.28571853041648865,-1.441014591847555,0.0,0.008305147290229797,1.2024883031845093,0.0,-0.012666447088122368,1.064064860343933,0.0,-0.026725944131612778
186.0,226.0,4.3053,-3.0532,7.745,-0.0385,0.036,-0.1234,-1.6167293987669886,0.0,2.3957998752593994,-1.5474824905395508,-0.0,2.20468807220459,4.123665495509766,-0.0,0.29007798433303833,-1.4410384337054651,0.0,-0.0012591176200658083,1.202484130859375,0.0,-0.001756531186401844,1.064117193222046,0.0,-0.007567820139229298
186.0,226.0,4.3053,-3.0532,7.745,-0.0385,0.036,-0.1234,-1.616725584069723,0.0,2.409869432449341,-1.5474984645843506,-0.0,2.2170701026916504,4.123641653651855,-0.0,0.27649393677711487,-1.44102651277651,0.0,0.007984615862369537,1.2024881839752197,0.0,0.004725294187664986,1.064064860343933,0.0,0.019910002127289772
186.0,226.0,4.3053,-3.0532,7.745,-0.0385,0.036,-0.1234,-1.6167336903014125,0.0,2.3607592582702637,-1.5474824905395508,-0.0,2.176626443862915,4.1236535745808105,-0.0,0.2858037054538727,-1.4410503546344202,0.0,-0.013818220235407352,1.2024881839752197,0.0,-0.005682699382305145,1.0640767812728882,0.0,-0.0031788162887096405
186.0,226.0,4.3053,-3.0532,7.745,-0.0385,0.036,-0.1234,-1.6166888676085414,0.0,2.432482957839966,-1.5474663972854614,-0.0,2.193527936935425,4.123601599330566,-0.0,0.2945705056190491,-1.4410103003131312,0.0,-0.011436313390731812,1.2024481296539307,0.0,-0.018381942063570023,1.064073085784912,0.0,-0.017194081097841263
186.0,226.0,4.3053,-3.0532,7.745,-0.0385,0.036,-0.1234,-1.6167217693724574,0.0,2.370523452758789,-1.5474262237548828,-0.0,2.1588187217712402,4.123682184810303,-0.0,0.2892455458641052,-1.440970245991842,0.0,-0.004651509691029787,1.2024641036987305,0.0,-0.004739602096378803,1.064089059829712,0.0,0.018055204302072525
186.0,226.0,4.3053,-3.0532,7.745,-0.0385,0.036,-0.1234,-1.6167293987669886,0.0,2.3993024826049805,-1.5475066900253296,-0.0,2.2195513248443604,4.123626394862793,-0.0,0.29415905475616455,-1.4409940878497522,0.0,-0.00024722894886508584,1.2024599313735962,0.0,0.0073180291801691055,1.064080834388733,0.0,-0.05686718970537186
186.0,226.0,4.3053,-3.0532,7.745,-0.0385,0.036,-0.1234,-1.6167379818358363,0.0,2.4020707607269287,-1.5474907159805298,-0.0,2.217311382293701,4.123669787044189,-0.0,0.290189266204834,-1.4409902731524866,0.0,-0.004375100135803223,1.2024480104446411,0.0,-0.007080621086061001,1.064089059829712,0.0,-0.0013195036444813013
186.0,226.0,4.3053,-3.0532,7.745,-0.0385,0.036,-0.1234,-1.6167379818358363,0.0,2.3869082927703857,-1.5474984645843506,-0.0,2.179080009460449,4.123673601741455,-0.0,0.28035905957221985,-1.4410584608661097,0.0,-0.0066888825967907906,1.2024800777435303,0.0,0.00125719397328794,1.0640971660614014,0.0,0.007300188764929771
186.0,226.0,4.3053,-3.0532,7.745,-0.0385,0.036,-0.1234,-1.6167174778380335,0.0,2.403024673461914,-1.5474499464035034,-0.0,2.169219493865967,4.123609705562256,-0.0,0.29444223642349243,-1.4410584608661097,0.0,-0.003975631669163704,1.2024273872375488,0.0,-0.017513714730739594,1.0640767812728882,0.0,-0.04679135978221893
186.0,226.0,4.3053,-3.0532,7.745,-0.0385,0.036,-0.1234,-1.6166969738402308,0.0,2.407505512237549,-1.547486662864685,-0.0,2.1992743015289307,4.123705549831055,-0.0,0.28728729486465454,-1.4409859816180628,0.0,-0.005095558241009712,1.20247220993042,0.0,-0.013892152346670628,1.064101219177246,0.0,-0.03274155035614967
186.0,226.0,4.3053,-3.0532,7.745,-0.0385,0.036,-0.1234,-1.616725584069723,0.0,2.318678379058838,-1.5474746227264404,-0.0,2.1746864318847656,4.123669787044189,-0.0,0.2835819721221924,-1.440998379384176,0.0,-0.00717518012970686,1.202484130859375,0.0,-0.004051105119287968,1.064101219177246,0.0,-0.01837823912501335
186.0,226.0,4.3053,-3.0532,7.745,-0.0385,0.036,-0.1234,-1.6166979275145472,0.0,2.3899595737457275,-1.5474824905395508,-0.0,2.207240581512451,4.123633547420166,-0.0,0.2954344153404236,-1.4410346190081995,0.0,-0.004086651373654604,1.2024519443511963,0.0,-0.011191990226507187,1.064089059829712,0.0,-0.03212011605501175
186.0,226.0,4.3053,-3.0532,7.745,-0.0385,0.036,-0.1234,-1.6167456112303675,0.0,2.3823511600494385,-1.5474824905395508,-0.0,2.188230514526367,4.123657389278076,-0.0,0.28133687376976013,-1.4409902731524866,0.0,-0.007284603081643581,1.20249605178833,0.0,-0.009260398335754871,1.064117193222046,0.0,-0.007527428679168224
186.0,226.0,4.3053,-3.0532,7.745,-0.0385,0.036,-0.1234,-1.616709371606344,0.0,2.3967339992523193,-1.5474824905395508,-0.0,2.1861608028411865,4.123645468349121,-0.0,0.28598544001579285,-1.440970245991842,0.0,0.00041732826502993703,1.202484130859375,0.0,0.0001679724082350731,1.064073085784912,0.0,0.01778055541217327
187.0,205.0,4.197,-3.1484,7.7228,-0.0327,0.0232,-0.1104,-1.6167499027647914,0.0,2.3801238536834717,-1.5475026369094849,-0.0,2.1900901794433594,4.12363783895459,-0.0,0.2827579975128174,-1.4410179297076624,0.0,-0.00019277073442935944,1.2024354934692383,0.0,-0.0011282803025096655,1.0640608072280884,0.0,-0.009484712965786457
187.0,205.0,4.197,-3.1484,7.7228,-0.0327,0.0232,-0.1104,-1.6167293987669886,0.0,2.412344455718994,-1.547506332397461,-0.0,2.204288959503174,4.1236182886311035,-0.0,0.277626633644104,-1.4410222212420862,0.0,-0.007465605158358812,1.202504277229309,0.0,-0.0018377897795289755,1.064109444618225,0.0,-0.005649883300065994
187.0,205.0,4.197,-3.1484,7.7228,-0.0327,0.0232,-0.1104,-1.616741796533102,0.0,2.4028806686401367,-1.5474944114685059,-0.0,2.200357437133789,4.123657389278076,-0.0,0.298245370388031,-1.4410179297076624,0.0,-0.00451619690284133,1.20247220993042,0.0,-0.006667566951364279,1.0641210079193115,0.0,-0.032499123364686966
187.0,205.0,4.197,-3.1484,7.7228,-0.0327,0.0232,-0.1104,-1.6167174778380335,0.0,2.383986473083496,-1.5474705696105957,-0.0,2.2214159965515137,4.123633547420166,-0.0,0.2744140028953552,-1.4410341421710413,0.0,-0.009588075801730156,1.20249605178833,0.0,-0.0033460757695138454,1.064129114151001,0.0,0.0017499886453151703
187.0,205.0,4.197,-3.1484,7.7228,-0.0327,0.0232,-0.1104,-1.6167618236937464,0.0,2.3861279487609863,-1.5474787950515747,-0.0,2.1779396533966064,4.123665495509766,-0.0,0.2761892080307007,-1.4409902731524866,0.0,-0.003057749243453145,1.2024919986724854,0.0,0.0016018322203308344,1.0641053915023804,0.0,-0.0002776660257950425
187.0,205.0,4.197,-3.1484,7.7228,-0.0327,0.0232,-0.1104,-1.616709371606344,0.0,2.412550926208496,-1.5474824905395508,-0.0,2.1815600395202637,4.123722239131592,-0.0,0.2830897569656372,-1.4410103003131312,0.0,-0.017162680625915527,1.2024924755096436,0.0,-0.0037418005522340536,1.0640848875045776,0.0,0.006924367509782314
187.0,205.0,4.197,-3.1484,7.7228,-0.0327,0.0232,-0.1104,-1.616741796533102,0.0,2.361635208129883,-1.5474302768707275,-8.787319671910154e-08,2.174853801727295,4.123649759883545,-1.4821202043435733e-08,0.2867047190666199,-1.4410298506366175,0.0,-0.012122118845582008,1.202436089515686,0.0,0.005495527293533087,1.0641450881958008,0.0,0.018490077927708626
187.0,205.0,4.197,-3.1484,7.7228,-0.0327,0.0232,-0.1104,-1.6167336903014125,0.0,2.3793301582336426,-1.5474344491958618,-1.5816865178708284e-11,2.2128653526306152,4.123685999507568,-6.318510992198156e-11,0.2602822780609131,-1.4410222212420862,0.0,0.002035513985902071,1.2024961709976196,0.0,0.004610265139490366,1.0641213655471802,0.0,0.0004272777587175369
187.0,205.0,4.197,-3.1484,7.7228,-0.0327,0.0232,-0.1104,-1.6167336903014125,0.0,2.3958942890167236,-1.5474907159805298,-3.8195872112913905e-17,2.218658924102783,4.123669787044189,-1.7587809057447237e-14,0.29115694761276245,-1.4409859816180628,0.0,-0.010755280032753944,1.2025080919265747,0.0,-0.007785472087562084,1.064073085784912,0.0,0.002274803351610899
187.0,205.0,4.197,-3.1484,7.7228,-0.0327,0.0232,-0.1104,-1.616769929925436,0.0,2.386608600616455,-1.5474663972854614,-6.87512216255086e-21,2.186178207397461,4.123657866115234,-7.497958148407728e-17,0.27080482244491577,-1.44102651277651,0.0,-0.005845191422849894,1.2024439573287964,0.0,-0.0033974475227296352,1.064129114151001,0.0,-0.014958951622247696
187.0,205.0,4.197,-3.1484,7.7228,-0.0327,0.0232,-0.1104,-1.6167460880675257,0.0,2.3709146976470947,-1.5474179983139038,8.476153016090393e-05,2.202064037322998,4.123645468349121,-2.0870839604569793e-20,0.28164243698120117,-1.4410222212420862,0.0,-0.004631219897419214,1.2024924755096436,0.0,-0.012299744412302971,1.0641090869903564,0.0,-0.001188973430544138
187.0,205.0,4.197,-3.1484,7.7228,-0.0327,0.0232,-0.1104,-1.6166931591429652,0.0,2.407074451446533,-1.5474623441696167,6.609587580896914e-05,2.2239882946014404,4.123637362117432,-5.809475417496041e-24,0.2793201506137848,-1.440986458455221,0.0,0.00845472514629364,1.2024800777435303,0.0,0.0019152418244630098,1.064129114151001,0.0,-0.016349203884601593
187.0,205.0,4.197,-3.1484,7.7228,-0.0327,0.0232,-0.1104,-1.6166607342162074,0.0,2.423701286315918,-1.5474824905395508,5.762941873399541e-05,2.1699657440185547,4.123714132899902,-2.476670566102561e-26,0.2914012372493744,-1.4409902731524866,0.0,-0.00684887683019042,1.2025161981582642,0.0,-0.009109387174248695,1.0640767812728882,0.0,-0.002374958712607622
187.0,205.0,4.197,-3.1484,7.7228,-0.0327,0.0232,-0.1104,-1.616753717462057,0.0,2.410247325897217,-1.5475026369094849,4.834162973565981e-05,2.1685638427734375,4.123669787044189,-6.893903851753337e-30,0.27317237854003906,-1.4410384337054651,0.0,-0.003787323134019971,1.2025079727172852,0.0,0.006601465400308371,1.0640767812728882,0.0,-0.03363379091024399
187.0,205.0,4.197,-3.1484,7.7228,-0.0327,0.0232,-0.1104,-1.6167131863036097,0.0,2.392442226409912,-1.547494888305664,4.365194763522595e-05,2.18324875831604,4.123649283046387,-2.9389794982599267e-32,0.2896294891834259,-1.44102651277651,0.0,-0.008723590523004532,1.2024558782577515,0.0,0.0006633809534832835,1.0641131401062012,0.0,-0.02414783090353012
187.0,205.0,4.197,-3.1484,7.7228,-0.0327,0.0232,-0.1104,-1.6167499027647914,0.0,2.3726727962493896,-1.5475305318832397,3.810674024862237e-05,2.1552910804748535,4.123661203975342,-8.180756220290819e-36,0.2862558662891388,-1.441014591847555,0.0,-0.003305979073047638,1.202504277229309,0.0,-0.024796755984425545,1.0641213655471802,0.0,-0.02610648050904274
187.0,205.0,4.197,-3.1484,7.7228,-0.0327,0.0232,-0.1104,-1.6167217693724574,0.0,2.372009515762329,-1.5474742650985718,3.513155388645828e-05,2.217592239379883,4.123673601741455,-3.487584688655363e-38,0.2826886475086212,-1.4410021940814417,0.0,0.006567998323589563,1.2025121450424194,0.0,-0.004246170166879892,1.0640848875045776,0.0,-0.04314746707677841
187.0,205.0,4.197,-3.1484,7.7228,-0.0327,0.0232,-0.1104,-1.6167293987669886,0.0,2.3978238105773926,-1.547486662864685,3.144858783343807e-05,2.1981077194213867,4.123701735133789,-9.708195760842333e-42,0.27726539969444275,-1.4410303274737757,0.0,-0.002689140848815441,1.202439546585083,0.0,0.0010122447274625301,1.0641213655471802,0.0,-0.005325916223227978
184.0,224.0,4.3956,-3.0263,7.6068,-0.0351,0.0182,-0.1155,-1.6167012653746546,0.0,2.3661184310913086,-1.5474178791046143,2.846455572580453e-05,2.199265956878662,4.123685999507568,-2.802596928649634e-45,0.28666171431541443,-1.441014591847555,0.0,-0.013507670722901821,1.202460527420044,0.0,-0.006584763061255217,1.0640767812728882,0.0,-0.043185245245695114
184.0,224.0,4.3956,-3.0263,7.6068,-0.0351,0.0182,-0.1155,-1.6167742214598597,0.0,2.3724536895751953,-1.5474746227264404,5.123519830618761e-09,2.206106662750244,4.123649283046387,-0.0,0.28439509868621826,-1.4410422484027308,0.0,-0.008205076679587364,1.2025001049041748,0.0,0.0024715440813452005,1.064073085784912,0.0,-0.03659304603934288
184.0,224.0,4.3956,-3.0263,7.6068,-0.0351,0.0182,-0.1155,-1.616737504998678,0.0,2.4008102416992188,-1.5474907159805298,1.2372695810871238e-14,2.180856704711914,4.123685999507568,-0.0,0.28678643703460693,-1.44102651277651,0.0,-0.006680126301944256,1.2024273872375488,0.0,-0.0024708411656320095,1.0641294717788696,0.0,-0.031624533236026764
184.0,224.0,4.3956,-3.0263,7.6068,-0.0351,0.0182,-0.1155,-1.6166898212828578,0.0,2.3975632190704346,-1.547486662864685,2.227041524233668e-18,2.240147352218628,4.123649759883545,-0.0,0.28384602069854736,-1.4410341421710413,0.0,0.0013758656568825245,1.2024760246276855,0.0,-0.010626114904880524,1.0640971660614014,0.0,0.006373025011271238
184.0,224.0,4.3956,-3.0263,7.6068,-0.0351,0.0182,-0.1155,-1.6166888676085414,0.0,2.377455472946167,-1.5474660396575928,5.378043049695691e-24,2.233616828918457,4.123661203975342,-0.0,0.2915053963661194,-1.440998379384176,0.0,-0.0016707973554730415,1.202484130859375,0.0,-0.006837198510766029,1.0640848875045776,0.0,-0.07166033983230591
184.0,224.0,4.3956,-3.0263,7.6068,-0.0351,0.0182,-0.1155,-1.6166607342162074,0.0,2.3941714763641357,-1.5474581718444824,9.680288197963953e-28,2.2144594192504883,4.123633547420166,-0.0,0.287401020526886,-1.4410341421710413,0.0,0.00010190927423536777,1.2024354934692383,0.0,-0.01104283332824707,1.064101219177246,0.0,-0.021508976817131042
184.0,224.0,4.3956,-3.0263,7.6068,-0.0351,0.0182,-0.1155,-1.6167499027647914,0.0,2.4105849266052246,-1.547486662864685,2.337675860779528e-33,2.2196967601776123,4.123669787044189,-0.0,0.2795408368110657,-1.4410060087787073,0.0,-0.00610382342711091,1.202504277229309,0.0,-0.007304733619093895,1.0640689134597778,0.0,-0.026314349845051765
184.0,224.0,4.3956,-3.0263,7.6068,-0.0351,0.0182,-0.1155,-1.6167012653746546,0.0,2.402677536010742,-1.5474907159805298,5.645210737544992e-39,2.2171032428741455,4.123705549831055,-0.0,0.2796197533607483,-1.4410141150103968,0.0,-0.007603504694998264,1.2023953199386597,0.0,-0.0037874490953981876,1.0641615390777588,0.0,0.02013375423848629
184.0,224.0,4.3956,-3.0263,7.6068,-0.0351,0.0182,-0.1155,-1.6167499027647914,0.0,2.446591854095459,-1.5474663972854614,1.0159413866354924e-42,2.213071346282959,4.1236817079731445,-0.0,0.28979015350341797,-1.441082779561178,0.0,-0.003196252277120948,1.20249605178833,0.0,-0.00892751757055521,1.064073085784912,0.0,-0.021288715302944183
184.0,224.0,4.3956,-3.0263,7.6068,-0.0351,0.0182,-0.1155,-1.6167050800719203,0.0,2.437761068344116,-1.5474742650985718,-0.0,2.184519052505493,4.123649283046387,-0.0,0.2801956534385681,-1.44102651277651,0.0,-0.015511580742895603,1.20249605178833,0.0,-0.0007234375225380063,1.0640971660614014,0.0,-0.012675243429839611
184.0,224.0,4.3956,-3.0263,7.6068,-0.0351,0.0182,-0.1155,-1.616741796533102,0.0,2.392610788345337,-1.5474581718444824,-0.0,2.155696392059326,4.123689337367676,-0.0,0.27969086170196533,-1.4410465399371546,0.0,-0.003723155939951539,1.2024400234222412,0.0,-0.008012008853256702,1.0641131401062012,0.0,-0.021530697122216225
184.0,224.0,4.3956,-3.0263,7.6068,-0.0351,0.0182,-0.1155,-1.616709371606344,0.0,2.4342548847198486,-1.5474746227264404,-0.0,2.1659634113311768,4.123637362117432,-0.0,0.2847060561180115,-1.4410465399371546,0.0,0.003228167537599802,1.2024481296539307,0.0,-0.00546868983656168,1.0640931129455566,0.0,0.029264237731695175
184.0,224.0,4.3956,-3.0263,7.6068,-0.0351,0.0182,-0.1155,-1.6166731319823207,0.0,2.4019575119018555,-1.5474138259887695,-0.0,2.1932404041290283,4.123633547420166,-0.0,0.2926887273788452,-1.4410422484027308,0.0,-0.011425316333770752,1.2024645805358887,0.0,-0.013319786638021469,1.064101219177246,0.0,0.014978215098381042
184.0,224.0,4.3956,-3.0263,7.6068,-0.0351,0.0182,-0.1155,-1.6167012653746546,0.0,2.43369460105896,-1.5474426746368408,-0.0,2.2158079147338867,4.123669787044189,-0.0,0.2813386023044586,-1.4410341421710413,0.0,-0.003362104296684265,1.202431559562683,0.0,-0.006367036607116461,1.0640767812728882,0.0,-0.020261753350496292
184.0,224.0,4.3956,-3.0263,7.6068,-0.0351,0.0182,-0.1155,-1.616685529748434,0.0,2.3633129596710205,-1.5474705696105957,-0.0,2.193557024002075,4.123673601741455,-0.0,0.2889217138290405,-1.4410179297076624,0.0,5.218724254518747e-05,1.2024719715118408,0.0,-0.010070493444800377,1.064073085784912,0.0,-0.03671951964497566
184.0,224.0,4.3956,-3.0263,7.6068,-0.0351,0.0182,-0.1155,-1.6167174778380335,0.0,2.370966911315918,-1.5474622249603271,-0.0,2.196354866027832,4.123677893275879,-0.0,0.2748441994190216,-1.4410503546344202,0.0,-0.0063013602048158646,1.2024883031845093,0.0,-0.0022933778818696737,1.0641213655471802,0.0,0.013733715750277042
184.0,224.0,4.3956,-3.0263,7.6068,-0.0351,0.0182,-0.1155,-1.616769929925436,0.0,2.358457326889038,-1.547441840171814,-0.0,2.197235107421875,4.123669787044189,-0.0,0.28944793343544006,-1.4409902731524866,0.0,-0.01586381159722805,1.2024924755096436,0.0,0.012006526812911034,1.0640411376953125,0.0,-0.01015875767916441
184.0,224.0,4.3956,-3.0263,7.6068,-0.0351,0.0182,-0.1155,-1.6166969738402308,0.0,2.415072441101074,-1.5474663972854614,-0.0,2.212043285369873,4.123641653651855,-0.0,0.2872847318649292,-1.441014591847555,0.0,-0.00756595004349947,1.20247220993042,0.0,0.0034334398806095123,1.0641134977340698,0.0,0.020411677658557892
183.0,212.0,4.3107,-2.6991,7.7264,-0.0075,0.035,-0.1187,-1.6167012653746546,0.0,2.402566909790039,-1.5475066900253296,-0.0,2.2183005809783936,4.123682184810303,-0.0,0.28137239813804626,-1.4410384337054651,0.0,-0.001355683896690607,1.2024195194244385,0.0,-0.002899677027016878,1.0641250610351562,0.0,0.021202588453888893
183.0,212.0,4.3107,-2.6991,7.7264,-0.0075,0.035,-0.1187,-1.6167336903014125,0.0,2.389737129211426,-1.5474622249603271,-0.0,2.2116127014160156,4.123661203975342,1.0989426300511695e-05,0.2977939248085022,-1.441037956868307,0.0,-0.024839099496603012,1.2024439573287964,0.0,-0.0008946904563345015,1.064089059829712,0.0,0.013733605854213238
183.0,212.0,4.3107,-2.6991,7.7264,-0.0075,0.035,-0.1187,-1.6167298756041468,0.0,2.370204448699951,-1.547486662864685,-0.0,2.209867000579834,4.123601599330566,1.0752153684734367e-05,0.2914040982723236,-1.4409859816180628,0.0,-0.005580204539000988,1.202484130859375,0.0,-0.0023817589972168207,1.0640848875045776,0.0,0.016620466485619545
183.0,212.0,4.3107,-2.6991,7.7264,-0.0075,0.035,-0.1187,-1.6167174778380335,0.0,2.407519578933716,-1.5474705696105957,-0.0,2.17151141166687,4.123649283046387,1.7623196413296682e-07,0.2933276295661926,-1.4410341421710413,0.0,0.0030453624203801155,1.2024558782577515,0.0,-0.001950812991708517,1.064117193222046,0.0,-0.014086717739701271
183.0,212.0,4.3107,-2.6991,7.7264,-0.0075,0.035,-0.1187,-1.616713663140768,0.0,2.3767330646514893,-1.5474663972854614,-0.0,2.2189180850982666,4.1236936289021,7.513045185980616e-10,0.2882121205329895,-1.4410422484027308,0.0,0.006005952134728432,1.2024521827697754,0.0,0.003124991897493601,1.064109444618225,0.0,0.025848155841231346
183.0,212.0,4.3107,-2.6991,7.7264,-0.0075,0.035,-0.1187,-1.6166898212828578,0.0,2.366858720779419,-1.5475066900253296,-0.0,2.2152981758117676,4.123682184810303,2.0912836891893993e-13,0.278875470161438,-1.4410341421710413,0.0,0.006697661709040403,1.2024319171905518,0.0,-0.013980070129036903,1.0640571117401123,0.0,-0.0026061851531267166
183.0,212.0,4.3107,-2.6991,7.7264,-0.0075,0.035,-0.1187,-1.6167298756041468,0.0,2.370943546295166,-1.5474951267242432,-0.0,2.156313896179199,4.123657389278076,8.915469638522372e-16,0.28883031010627747,-1.4410741964923304,0.0,0.004397554323077202,1.2024558782577515,0.0,-0.009171145036816597,1.0640771389007568,0.0,-0.03384458273649216
183.0,212.0,4.3107,-2.6991,7.7264,-0.0075,0.035,-0.1187,-1.6167298756041468,0.0,2.4003729820251465,-1.5474541187286377,-0.0,2.209739923477173,4.123641653651855,2.4816535070417777e-19,0.27326494455337524,-1.4409821669207972,0.0,-0.011054161004722118,1.20249605178833,0.0,-0.009316887706518173,1.0640767812728882,2.6111251827387605e-06,-0.021615473553538322
183.0,212.0,4.3107,-2.6991,7.7264,-0.0075,0.035,-0.1187,-1.6167174778380335,5.081521869954031e-10,2.378054141998291,-1.5474138259887695,-0.0,2.202223777770996,4.1236936289021,6.907774112538142e-23,0.28620511293411255,-1.441061798726217,0.0,-0.019602246582508087,1.2024645805358887,0.0,0.0038933129981160164,1.0641331672668457,6.305560240615904e-12,0.04269019514322281
183.0,212.0,4.3107,-2.6991,7.7264,-0.0075,0.035,-0.1187,-1.6166731319823207,9.146558564796653e-14,2.424746036529541,-1.5474581718444824,-0.0,2.174651622772217,4.123641176814697,2.944892454457e-25,0.2767486572265625,-1.4410823027240198,0.0,-0.003492621472105384,1.2024600505828857,0.0,-0.0013181838439777493,1.064101219177246,1.1349784095416107e-15,0.03305050730705261
183.0,212.0,4.3107,-2.6991,7.7264,-0.0075,0.035,-0.1187,-1.6166969738402308,2.208786268500082e-19,2.3765668869018555,-1.5475068092346191,-0.0,2.173466682434082,4.123714132899902,8.197217659086298e-29,0.28879719972610474,-1.4410341421710413,0.0,-0.009603038430213928,1.2024677991867065,0.0,-0.005754867102950811,1.064101219177246,2.7408391297842323e-21,0.009844326414167881
183.0,212.0,4.3107,-2.6991,7.7264,-0.0075,0.035,-0.1187,-1.6166898212828578,3.975736531101409e-23,2.39101505279541,-1.5474499464035034,-0.0,2.1783242225646973,4.1236254411884765,3.4946024701782113e-31,0.2905901074409485,-1.4410341421710413,0.0,-0.010505516082048416,1.2025079727172852,0.0,-0.0060233743861317635,1.064153790473938,4.933413334773833e-25,-0.01309113297611475
183.0,212.0,4.3107,-2.6991,7.7264,-0.0075,0.035,-0.1187,-1.616725584069723,9.600935912024688e-29,2.421388626098633,-1.5474343299865723,-0.0,2.155777931213379,4.123685999507568,9.72735580218607e-35,0.2880604863166809,-1.4410460630999964,0.0,-0.005535215139389038,1.2024356126785278,0.0,-0.008720934391021729,1.0641250610351562,1.191361455688331e-30,-0.03758574277162552
183.0,212.0,4.3107,-2.6991,7.7264,-0.0075,0.035,-0.1187,-1.6167174778380335,1.7281343588885667e-32,2.3668181896209717,-1.5474622249603271,-0.0,2.2038040161132812,4.123665495509766,4.1469242026088614e-37,0.28108903765678406,-1.4410260359393519,0.0,-0.0015215007588267326,1.2024765014648438,0.0,-0.0060770874843001366,1.064101219177246,2.14440842645702e-34,-0.01839274913072586
183.0,212.0,4.3107,-2.6991,7.7264,-0.0075,0.035,-0.1187,-1.616741796533102,4.17324142854796e-38,2.3818483352661133,-1.5475226640701294,-0.0,2.186561346054077,4.123698397273682,1.1543055970029248e-40,0.27776166796684265,-1.4410422484027308,0.0,-0.005201435182243586,1.2024881839752197,0.0,-0.0004919635830447078,1.0640368461608887,5.1784984749123615e-40,0.009342246688902378
183.0,212.0,4.3107,-2.6991,7.7264,-0.0075,0.035,-0.1187,-1.616741796533102,1.0089348943138683e-43,2.387627363204956,-1.5474704504013062,-0.0,2.1887590885162354,4.123649283046387,3.2229864679470793e-44,0.2854868471622467,-1.4410384337054651,0.0,-0.017531607300043106,1.2025245428085327,0.0,0.0071513354778289795,1.064101219177246,1.401298464324817e-45,-0.005519803147763014
183.0,212.0,4.3107,-2.6991,7.7264,-0.0075,0.035,-0.1187,-1.6167298756041468,0.0,2.3871262073516846,-1.547486662864685,-0.0,2.2594923973083496,4.123665972346924,0.0,0.2727702856063843,-1.4410222212420862,0.0,-0.0057302676141262054,1.2024928331375122,1.1247294651184347e-06,0.019741758704185486,1.064052939414978,0.0,-0.001927271019667387
183.0,212.0,4.3107,-2.6991,7.7264,-0.0075,0.035,-0.1187,-1.6166898212828578,0.0,2.3797075748443604,-1.5474786758422852,-0.0,2.176600456237793,4.123682184810303,0.0,0.2780332565307617,-1.4410503546344202,0.0,-0.0016399412415921688,1.202492356300354,3.1307259562574075e-10,-0.012208112515509129,1.0641213655471802,0.0,0.016177190467715263
185.0,207.0,4.2592,-2.8917,7.7988,-0.033,0.0209,-0.1151,-1.6166774235167445,0.0,2.3916285037994385,-1.5474458932876587,-0.0,2.2072691917419434,4.123626394862793,0.0,0.28128546476364136,-1.4410222212420862,0.0,-0.007384049240499735,1.2024765014648438,1.3346775941391886e-12,0.004193813074380159,1.064061164855957,0.0,0.00397554412484169
185.0,207.0,4.2592,-2.8917,7.7988,-0.033,0.0209,-0.1151,-1.6167260609068812,0.0,2.3907206058502197,-1.5474426746368408,-0.0,2.178293228149414,4.123641653651855,0.0,0.29253214597702026,-1.4410341421710413,0.0,-0.00211634230799973,1.202504277229309,3.7151240937443957e-16,-0.00788804516196251,1.0641134977340698,0.0,-0.008215617388486862
185.0,207.0,4.2592,-2.8917,7.7988,-0.033,0.0209,-0.1151,-1.6167580089964808,0.0,2.382869243621826,-1.5474541187286377,-0.0,2.182534694671631,4.123677416438721,0.0,0.281289279460907,-1.4410584608661097,0.0,0.005588935222476721,1.2024881839752197,1.0341183250999793e-19,0.0020006229169666767,1.0641213655471802,0.0,-0.02033899538218975
185.0,207.0,4.2592,-2.8917,7.7988,-0.033,0.0209,-0.1151,-1.6167379818358363,0.0,2.4029269218444824,-1.5474261045455933,-0.0,2.2058262825012207,4.123697443599365,0.0,0.2976417541503906,-1.4410503546344202,0.0,-0.015855392441153526,1.202484130859375,4.408608617385442e-22,0.0025958188343793154,1.064061164855957,0.0,0.00920958910137415
185.0,207.0,4.2592,-2.8917,7.7988,-0.033,0.0209,-0.1151,-1.616685529748434,0.0,2.3992927074432373,-1.5474663972854614,-0.0,2.213609457015991,4.123722239131592,0.0,0.29363811016082764,-1.4410260359393519,0.0,0.002041897037997842,1.202487826347351,1.2271523939403553e-25,-0.005826881155371666,1.0640451908111572,0.0,-0.005438963416963816
185.0,207.0,4.2592,-2.8917,7.7988,-0.033,0.0209,-0.1151,-1.6167260609068812,0.0,2.423107862472534,-1.547486662864685,-0.0,2.204930543899536,4.123649283046387,0.0,0.2934175729751587,-1.4410179297076624,0.0,-0.004155188333243132,1.2025244235992432,5.231542656377531e-28,0.0035761103499680758,1.0641052722930908,0.0,-0.028233973309397697
185.0,207.0,4.2592,-2.8917,7.7988,-0.033,0.0209,-0.1151,-1.6167174778380335,0.0,2.424051284790039,-1.5474907159805298,-0.0,2.2381176948547363,4.123665495509766,0.0,0.2809813320636749,-1.4410384337054651,0.0,-0.0009380339179188013,1.2024919986724854,1.4562192113678665e-31,-0.0073474859818816185,1.0641053915023804,0.0,-0.0014412840828299522
185.0,207.0,4.2592,-2.8917,7.7988,-0.033,0.0209,-0.1151,-1.6167050800719203,0.0,2.4128875732421875,-1.5474947690963745,-0.0,2.1817984580993652,4.123669787044189,0.0,0.2836899757385254,-1.4410584608661097,0.0,0.00025390367954969406,1.2024681568145752,6.208090101362264e-34,-0.007363207638263702,1.064089059829712,0.0,-0.03457571566104889
185.0,207.0,4.2592,-2.8917,7.7988,-0.033,0.0209,-0.1151,-1.6166731319823207,0.0,2.3535914421081543,-1.5475029945373535,-0.0,2.2265090942382812,4.123669787044189,0.0,0.2812623679637909,-1.4410384337054651,0.0,0.0006469561485573649,1.202391266822815,1.7280444961336605e-37,-0.006813954561948776,1.0640811920166016,0.0,0.0028849104419350624
185.0,207.0,4.2592,-2.8917,7.7988,-0.033,0.0209,-0.1151,-1.6167336903014125,0.0,2.390162944793701,-1.5474467277526855,-0.0,2.2336373329162598,4.123629255885742,0.0,0.2757924795150757,-1.4409902731524866,0.0,-0.013927487656474113,1.2024800777435303,4.810097108641367e-41,0.0011410288279876113,1.064073085784912,0.0,-0.03455771878361702
185.0,207.0,4.2592,-2.8917,7.7988,-0.033,0.0209,-0.1151,-1.616753717462057,0.0,2.389868974685669,-1.5473899841308594,-0.0,2.171382188796997,4.12363783895459,0.0,0.2736497223377228,-1.441066090260641,0.0,-0.0023898794315755367,1.2024604082107544,2.045895757914233e-43,-0.0057883355766534805,1.0641295909881592,0.0,-0.005195130594074726
185.0,207.0,4.2592,-2.8917,7.7988,-0.033,0.0209,-0.1151,-1.6167379818358363,-1.9162051103194244e-05,2.400043249130249,-1.547486662864685,-0.0,2.2157511711120605,4.12360589086499,0.0,0.28803548216819763,-1.4410541693316858,0.0,-0.0054004862904548645,1.202484130859375,0.0,0.008138597942888737,1.064089059829712,0.0,0.006083416752517223
185.0,207.0,4.2592,-2.8917,7.7988,-0.033,0.0209,-0.1151,-1.616713663140768,-3.0963394237915054e-05,2.387799024581909,-1.5474541187286377,-0.0,2.2299883365631104,4.123645468349121,0.0,0.2862778604030609,-1.4409979025470179,0.0,-0.005663080140948296,1.2024600505828857,0.0,0.009792985394597054,1.0640571117401123,0.0,0.03356153517961502
185.0,207.0,4.2592,-2.8917,7.7988,-0.033,0.0209,-0.1151,-1.6167336903014125,-4.358146179583855e-05,2.3830652236938477,-1.5474261045455933,-0.0,2.1652755737304688,4.123637362117432,0.0,0.27658480405807495,-1.4410103003131312,0.0,-0.004463920369744301,1.2024924755096436,0.0,-0.009685007855296135,1.0641131401062012,0.0,-0.015162075869739056
185.0,207.0,4.2592,-2.8917,7.7988,-0.033,0.0209,-0.1151,-1.616753717462057,-4.276964318705723e-05,2.4343504905700684,-1.5474705696105957,-0.0,2.1989471912384033,4.123665495509766,0.0,0.2977982759475708,-1.4410222212420862,0.0,-0.0063715288415551186,1.20247220993042,0.0,-0.0059239789843559265,1.0641295909881592,0.0,-0.008180467411875725
185.0,207.0,4.2592,-2.8917,7.7988,-0.033,0.0209,-0.1151,-1.616725584069723,-4.082947998540476e-05,2.3811254501342773,-1.5474581718444824,-0.0,2.1487503051757812,4.123645468349121,0.0,0.27761247754096985,-1.4410384337054651,0.0,-0.010405912064015865,1.20249605178833,0.0,0.004531078971922398,1.06413733959198,0.0,-0.00751089584082365
185.0,207.0,4.2592,-2.8917,7.7988,-0.033,0.0209,-0.1151,-1.6167742214598597,-3.9057584217516705e-05,2.392420530319214,-1.5473977327346802,-0.0,2.134084939956665,4.123629255885742,0.0,0.29476398229599,-1.4410503546344202,0.0,-0.014631256461143494,1.2024760246276855,0.0,-0.0037095427978783846,1.064080834388733,0.0,-0.03910356014966965
185.0,207.0,4.2592,-2.8917,7.7988,-0.033,0.0209,-0.1151,-1.6167737446227015,-3.795939119299874e-05,2.4045426845550537,-1.547494888305664,-0.0,2.165144681930542,4.123637362117432,0.0,0.28063151240348816,-1.4410141150103968,0.0,-0.01816888153553009,1.2024558782577515,0.0,-0.012193059548735619,1.0641175508499146,0.0,-0.03254914656281471
176.0,219.0,4.1115,-2.6614,7.7276,-0.0177,0.0244,-0.1126,-1.6167293987669886,-3.6423185520106927e-05,2.3880598545074463,-1.5474261045455933,-0.0,2.2204337120056152,4.1236535745808105,0.0,0.2826240658760071,-1.4410384337054651,0.0,0.0019250401528552175,1.2024314403533936,0.0,0.00784423016011715,1.064101219177246,1.1970466402999591e-05,0.04486675187945366
176.0,219.0,4.1115,-2.6614,7.7276,-0.0177,0.0244,-0.1126,-1.6167174778380335,-3.546632069628686e-05,2.415043830871582,-1.5474426746368408,-0.0,2.21148943901062,4.1236182886311035,0.0,0.2824115753173828,-1.4410341421710413,0.0,-0.01369487214833498,1.2024314403533936,0.0,-0.01258399523794651,1.064117193222046,2.3162789148045704e-05,-0.023662492632865906
176.0,219.0,4.1115,-2.6614,7.7276,-0.0177,0.0244,-0.1126,-1.6167580089964808,-3.412172372918576e-05,2.3651022911071777,-1.5474385023117065,-0.0,2.206719398498535,4.123641653651855,0.0,0.27529364824295044,-1.4410260359393519,0.0,-0.006811549887061119,1.202532172203064,0.0,0.0006880455184727907,1.064141035079956,4.3587133404798806e-05,-0.03053954616189003
176.0,219.0,4.1115,-2.6614,7.7276,-0.0177,0.0244,-0.1126,-1.6167580089964808,-3.3280575735261664e-05,2.39751935005188,-1.5474509000778198,-0.0,2.193880558013916,4.1237098413654785,0.0,0.29084768891334534,-1.441118065510885,0.0,-0.005774066783487797,1.202487826347351,0.0,0.014771411195397377,1.0641331672668457,0.0006672960007563233,0.007868779823184013
176.0,219.0,4.1115,-2.6614,7.7276,-0.0177,0.0244,-0.1126,-1.6167532406248988,-4.2791070882231e-05,2.384492874145508,-1.5473899841308594,-0.0,2.1801888942718506,4.1236535745808105,0.0,0.28172197937965393,-1.441021744404928,-7.364172347479325e-07,-0.00751323951408267,1.20247220993042,0.0,-0.0014261213364079595,1.0641326904296875,0.0031667505390942097,-0.027497414499521255
176.0,219.0,4.1115,-2.6614,7.7276,-0.0177,0.0244,-0.1126,-1.616725584069723,-4.13183806813322e-05,2.422295331954956,-1.5473941564559937,-0.0,2.2058310508728027,4.123682184810303,0.0,0.29207324981689453,-1.441061798726217,-2.0498441832828007e-10,0.015822747722268105,1.202504277229309,0.0,-0.005389729514718056,1.0642133951187134,0.007032094988971949,-0.006284686736762524
176.0,219.0,4.1115,-2.6614,7.7276,-0.0177,0.0244,-0.1126,-1.6167942486205042,-5.0483577069826424e-05,2.4094080924987793,-1.5474343299865723,1.9079003322985955e-05,2.2071139812469482,4.123649283046387,0.0,0.27461105585098267,-1.4410579840289515,-8.738807203909071e-13,-0.001681086840108037,1.2024919986724854,0.0,0.005383511073887348,1.064241886138916,0.008889289572834969,0.011057879775762558
176.0,219.0,4.1115,-2.6614,7.7276,-0.0177,0.0244,-0.1126,-1.6167170010008753,-0.00012344522110652179,2.376291275024414,-1.5473982095718384,4.6073544285318846e-11,2.2121047973632812,4.123689337367676,0.0,0.2734615206718445,-1.4410579840289515,-2.432478777678358e-16,0.0005082922871224582,1.202391266822815,0.0,-0.009779023937880993,1.0643339157104492,0.011561259627342224,0.03498263657093048
176.0,219.0,4.1115,-2.6614,7.7276,-0.0177,0.0244,-0.1126,-1.6168014011778773,-0.00014049345918465406,2.392667293548584,-1.5474631786346436,8.293074275802885e-15,2.1987557411193848,4.123673601741455,0.0,0.28318482637405396,-1.441061798726217,-1.0370039705162647e-18,-0.01157284714281559,1.2025161981582642,0.0,-0.004890361800789833,1.064345121383667,0.012530842795968056,0.0044540781527757645
176.0,219.0,4.1115,-2.6614,7.7276,-0.0177,0.0244,-0.1126,-1.616809984246725,-0.0001305995974689722,2.4041638374328613,-1.5474581718444824,2.0026798724687462e-20,2.224928379058838,4.123661203975342,0.0,0.2897069752216339,-1.4410579840289515,-2.8865384825607364e-22,-0.01866256259381771,1.2024765014648438,0.0,0.003347594290971756,1.0644583702087402,0.012986231595277786,-0.04284621402621269
176.0,219.0,4.1115,-2.6614,7.7276,-0.0177,0.0244,-0.1126,-1.6168223820128382,-0.00014196385745890439,2.3672268390655518,-1.5474141836166382,4.836236271569018e-26,2.1910433769226074,4.123673601741455,0.0,0.28236687183380127,-1.4410699049579065,-8.034785594245154e-26,0.01245067361742258,1.2024919986724854,0.0,-0.005611924920231104,1.0644490718841553,0.012329661287367344,-0.01911824196577072
176.0,219.0,4.1115,-2.6614,7.7276,-0.0177,0.0244,-0.1126,-1.616737504998678,-0.0001359289017273113,2.4138708114624023,-1.5474745035171509,8.705055894618939e-30,2.1587398052215576,4.123665495509766,0.0,0.2770063579082489,-1.4410656134234827,-3.425354998870141e-28,-0.010475710034370422,1.2024924755096436,0.0,-0.0054828752763569355,1.0645703077316284,0.011460008099675179,-0.0022826516069471836
176.0,219.0,4.1115,-2.6614,7.7276,-0.0177,0.0244,-0.1126,-1.6167975864806117,-0.0002559016866143793,2.36883544921875,-1.5473780632019043,2.1021687473963371e-35,2.2324917316436768,4.1236535745808105,0.0,0.28073590993881226,-1.4410823027240198,-9.534602187464566e-32,0.007563874591141939,1.2025002241134644,0.0,-0.005643665790557861,1.0645689964294434,0.009949848055839539,0.031227154657244682
176.0,219.0,4.1115,-2.6614,7.7276,-0.0177,0.0244,-0.1126,-1.6168056927123011,-0.00033123447792604566,2.395216464996338,-1.547394037246704,3.783829553622265e-39,2.157402992248535,4.123685999507568,0.0,0.28605151176452637,-1.441037956868307,-4.064750180903042e-34,-0.003493891330435872,1.2024481296539307,0.0,-0.003924177028238773,1.0646332502365112,0.008769739419221878,-0.02089070715010166
176.0,219.0,4.1115,-2.6614,7.7276,-0.0177,0.0244,-0.1126,-1.6168014011778773,-0.001118913758546114,2.345400333404541,-1.5474549531936646,9.80908925027372e-45,2.177109718322754,4.123669787044189,0.0,0.2830308675765991,-1.4410575071917933,-1.1314381997271781e-37,-0.0001230428460985422,1.202487826347351,0.0,-0.009791682474315166,1.064669132232666,0.008659481070935726,0.04290466755628586
176.0,219.0,4.1115,-2.6614,7.7276,-0.0177,0.0244,-0.1126,-1.6168095074095667,-0.0021086877677589655,2.4214959144592285,-1.5474467277526855,-0.0,2.185296058654785,4.123677893275879,0.0,0.27399200201034546,-1.4411423842059534,-0.00016287932521663606,0.006714397110044956,1.2025198936462402,0.0,-0.004022857639938593,1.0647088289260864,0.009259006939828396,0.0653122290968895
176.0,219.0,4.1115,-2.6614,7.7276,-0.0177,0.0244,-0.1126,-1.6168576679625453,-0.0060915397480130196,2.4010119438171387,-1.5474827289581299,-0.0,2.178229808807373,4.123677893275879,0.0,0.2816518247127533,-1.4411299864398401,-0.0025197032373398542,-0.010892701335251331,1.2025120258331299,0.0,-0.01825888641178608,1.0648704767227173,0.011534200981259346,0.04051833227276802
176.0,219.0,4.1115,-2.6614,7.7276,-0.0177,0.0244,-0.1126,-1.6168896160521449,-0.010636908002197742,2.386934757232666,-1.5473899841308594,-0.0,2.2201528549194336,4.123705549831055,0.0,0.29340898990631104,-1.441146198903219,-0.006336505990475416,-0.012821940705180168,1.2025039196014404,0.0,-0.014122024178504944,1.064885139465332,0.014190295711159706,0.09701165556907654
186.0,213.0,4.6128,-3.3302,7.7474,-0.0333,0.0003,-0.102,-1.6169496975340785,-0.011771331541240215,2.3556997776031494,-1.547410488128662,-0.0,2.2042157649993896,4.123746080989502,2.3316593797062524e-05,0.2858111262321472,-1.4412058035479944,-0.010606588795781136,-0.010862406343221664,1.2025084495544434,0.0,0.0018970426172018051,1.0649487972259521,0.015627268701791763,0.11385654658079147
186.0,213.0,4.6128,-3.3302,7.7474,-0.0333,0.0003,-0.102,-1.6170255146422328,-0.008099336177110672,2.333338975906372,-1.5474306344985962,-0.0,2.173163890838623,4.123729868526123,0.00018168086535297334,0.28144752979278564,-1.441237751637594,-0.011031214147806168,-0.027120424434542656,1.202523946762085,0.0,-0.01070462353527546,1.0650420188903809,0.015708377584815025,0.08291424810886383
186.0,213.0,4.6128,-3.3302,7.7474,-0.0333,0.0003,-0.102,-1.6169849834837855,-0.004920171573758125,2.371323585510254,-1.5474224090576172,-0.0,2.2188634872436523,4.12373320638623,0.0010876108426600695,0.2904096245765686,-1.441265885029928,-0.006466877181082964,-0.02621418982744217,1.2025161981582642,0.0,0.0025314621161669493,1.0650891065597534,0.013985376805067062,0.06854131817817688
186.0,213.0,4.6128,-3.3302,7.7474,-0.0333,0.0003,-0.102,-1.6170579395689906,-0.0015003206208348274,2.3670284748077393,-1.547398567199707,-0.0,2.2195682525634766,4.12370936452832,0.0006849179044365883,0.27566641569137573,-1.4412615934955042,-0.0019149747677147388,-0.030238967388868332,1.2025120258331299,0.0,-0.007926770485937595,1.0651495456695557,0.011648288927972317,0.06032876670360565
186.0,213.0,4.6128,-3.3302,7.7474,-0.0333,0.0003,-0.102,-1.617021223107809,-0.00107806664891541,2.3623218536376953,-1.547494888305664,-0.0,2.18710994720459,4.123713656062744,0.0004555784980766475,0.2897956967353821,-1.441265885029928,-0.0011326868552714586,-0.019832992926239967,1.2024798393249512,0.0,-0.003404545597732067,1.065213680267334,0.010292788967490196,0.03956330195069313
186.0,213.0,4.6128,-3.3302,7.7474,-0.0333,0.0003,-0.102,-1.617049356500143,-0.0009337179944850504,2.39831805229187,-1.5474622249603271,4.0825081669026986e-05,2.2267210483551025,4.123713656062744,0.00028419395675882697,0.2905723452568054,-1.4412291685687464,-0.0007346412749029696,-0.002383237238973379,1.2025079727172852,0.0,-0.005747214891016483,1.065244436264038,0.008452603593468666,0.025279713794589043
186.0,213.0,4.6128,-3.3302,7.7474,-0.0333,0.0003,-0.102,-1.617073198358053,-0.0031450630631297827,2.3637571334838867,-1.5474787950515747,3.8231140933930874e-05,2.253039836883545,4.1236769396015625,0.00022650750179309398,0.290765643119812,-1.4412739912616175,-0.000544035283382982,-0.007669942919164896,1.2025560140609741,0.0,-0.016613276675343513,1.0653094053268433,0.006455203052610159,-0.0008132103830575943
186.0,213.0,4.6128,-3.3302,7.7474,-0.0333,0.0003,-0.102,-1.6171332798399867,-0.003628235077485442,2.356639862060547,-1.5474064350128174,3.667332566692494e-05,2.1518290042877197,4.12371747076001,0.00013274697994347662,0.28656458854675293,-1.4412816206561487,-0.000463848962681368,-0.01966770365834236,1.202483892440796,0.0,-0.01003748644143343,1.0653542280197144,0.005112841725349426,0.005798514001071453
186.0,213.0,4.6128,-3.3302,7.7474,-0.0333,0.0003,-0.102,-1.617117544213766,-0.00395269226282835,2.4243013858795166,-1.5474828481674194,3.456091872067191e-05,2.170295238494873,4.123766108150146,5.055290966993198e-05,0.2905007004737854,-1.441244904194967,-0.0003798883699346334,-0.020403187721967697,1.2024641036987305,0.0,-0.010942068882286549,1.0653491020202637,0.003667679149657488,-0.0018292737659066916
186.0,213.0,4.6128,-3.3302,7.7474,-0.0333,0.0003,-0.102,-1.6171819172301234,-0.0047018863260746,2.3815550804138184,-1.5474704504013062,3.3282813092228025e-05,2.1685872077941895,4.123765631312988,4.542960232356563e-05,0.28939926624298096,-1.441265885029928,-0.00038696508272551,-0.017362412065267563,1.202544093132019,0.0,-0.003977034706622362,1.0653892755508423,0.0032358570024371147,-0.021827295422554016
186.0,213.0,4.6128,-3.3302,7.7474,-0.0333,0.0003,-0.102,-1.6172214947142542,-0.006689859554171562,2.345874786376953,-1.5474467277526855,4.730034925159998e-05,2.193796157836914,4.123705549831055,7.88940378697589e-05,0.2926517426967621,-1.4412735144244593,-0.0003335552755743265,-0.03052644059062004,1.2024919986724854,5.7282395715674284e-08,0.010411055758595467,1.0653809309005737,0.001881674863398075,0.048981256783008575
186.0,213.0,4.6128,-3.3302,7.7474,-0.0333,0.0003,-0.102,-1.6172415218748988,-0.009040960110723972,2.372434616088867,-1.5474224090576172,4.569928933051415e-05,2.2296719551086426,4.123713179225586,7.254498632391915e-05,0.281869500875473,-1.441305939351217,-0.00030526425689458847,-0.021135076880455017,1.202483892440796,2.4420382382928096e-10,-0.00041519731166772544,1.0653129816055298,0.0011493258643895388,0.024062350392341614
186.0,213.0,4.6128,-3.3302,7.7474,-0.0333,0.0003,-0.102,-1.617293497125143,-0.008354194462299347,2.329414129257202,-1.547426462173462,5.7790311984717846e-05,2.2153515815734863,4.123725576991699,9.700217196950689e-05,0.2857050597667694,-1.441265885029928,-0.0002708125684875995,-0.02359723299741745,1.2025117874145508,6.797503098593394e-14,0.0015890804352238774,1.0653331279754639,0.00035277777351439,0.05905071645975113
186.0,213.0,4.6128,-3.3302,7.7474,-0.0333,0.0003,-0.102,-1.6173411808409632,-0.006370769813656807,2.375624656677246,-1.5474302768707275,5.531508941203356e-05,2.1434431076049805,4.123749418849609,0.00011679902672767639,0.27237266302108765,-1.4412615934955042,-0.0002129403583239764,-0.008650247938930988,1.2025235891342163,1.8921101385105366e-17,-0.008230024017393589,1.0652925968170166,-0.0004737069830298424,0.06647083908319473
186.0,213.0,4.6128,-3.3302,7.7474,-0.0333,0.0003,-0.102,-1.6173693142332972,-0.006208738312125206,2.4187071323394775,-1.5473861694335938,5.36658990313299e-05,2.2321903705596924,4.123737497920654,0.00010971144365612417,0.2828514277935028,-1.4412573019610804,-0.00019944706582464278,-0.019737111404538155,1.2025279998779297,8.066362249470808e-20,0.0050957174971699715,1.0653049945831299,-0.0012095313286408782,0.05031880736351013
186.0,213.0,4.6128,-3.3302,7.7474,-0.0333,0.0003,-0.102,-1.617425104180807,-0.00898109469562769,2.364912509918213,-1.547430157661438,3.8528916775248945e-05,2.1767029762268066,4.1237498956867675,7.624986756127328e-05,0.28228726983070374,-1.441244904194967,-7.015356823103502e-05,-0.01897529326379299,1.2024916410446167,0.00023168533516582102,-0.012509828433394432,1.0653536319732666,-0.0019675358198583126,0.020295115187764168
186.0,213.0,4.6128,-3.3302,7.7474,-0.0333,0.0003,-0.102,-1.6174770794310511,-0.010494425892829895,2.387146472930908,-1.5474385023117065,3.7457546568475664e-05,2.221625328063965,4.1237451273151855,7.140640082070604e-05,0.28501471877098083,-1.441249195729391,-5.0192054914077744e-05,-0.024750279262661934,1.2025437355041504,0.000269016221864149,-0.00021596169972326607,1.0652809143066406,-0.001957512926310301,0.013372373767197132
180.0,218.0,4.0152,-3.1693,7.7402,-0.0281,0.0252,-0.1019,-1.6175409756102503,-0.014152123592793941,2.3765182495117188,-1.5474101305007935,3.596090027713217e-05,2.213989496231079,4.1237498956867675,8.801095827948302e-05,0.3027460277080536,-1.441249195729391,-4.625515794032253e-05,-0.023324159905314445,1.2025519609451294,0.0002506062446627766,-0.001151042291894555,1.0653297901153564,-0.0013617245713248849,0.001659628003835678
180.0,218.0,4.0152,-3.1693,7.7402,-0.0281,0.0252,-0.1019,-1.6176492176451625,-0.01608942821621895,2.397693395614624,-1.5474302768707275,3.457926504779607e-05,2.2204177379608154,4.123749418849609,8.216549758799374e-05,0.2959553897380829,-1.441244904194967,-4.294439349905588e-05,-0.03240583464503288,1.2024792432785034,0.0002377739583607763,-0.00413108803331852,1.0652893781661987,-0.0007141290116123855,0.008586004376411438
180.0,218.0,4.0152,-3.1693,7.7402,-0.0281,0.0252,-0.1019,-1.617709299127096,-0.016538910567760468,2.367495536804199,-1.5474385023117065,3.3715710742399096e-05,2.178100347518921,4.123708887691162,0.00014275391004048288,0.2948550581932068,-1.441249195729391,-4.098848512512632e-05,-0.021788856014609337,1.2025805711746216,0.00021853120415471494,-0.003821292193606496,1.065248966217041,-0.0005419403314590454,-0.011716903187334538
180.0,218.0,4.0152,-3.1693,7.7402,-0.0281,0.0252,-0.1019,-1.6178089580931605,-0.016021568328142166,2.3530282974243164,-1.5474141836166382,4.33251989306882e-05,2.216630458831787,4.123781366939209,0.00020766259694937617,0.3024619519710541,-1.4412086645709437,-3.836732867057435e-05,-0.026229392737150192,1.2025355100631714,0.00019486868404783309,-0.007323051802814007,1.0652730464935303,-0.0003980481415055692,-0.04546289145946503
180.0,218.0,4.0152,-3.1693,7.7402,-0.0281,0.0252,-0.1019,-1.6178809605040492,-0.014562748372554779,2.354623794555664,-1.5474343299865723,4.231247294228524e-05,2.200451374053955,4.123793764705322,0.0010003730421885848,0.30312949419021606,-1.4412534872638147,-3.6798570363316685e-05,-0.01797967404127121,1.2025034427642822,0.0002115084498655051,0.00802528951317072,1.0652689933776855,-0.0003381982387509197,-0.004696965217590332
180.0,218.0,4.0152,-3.1693,7.7402,-0.0281,0.0252,-0.1019,-1.6179610691466273,-0.01457893569022417,2.347846269607544,-1.5474064350128174,5.68226350878831e-05,2.1946983337402344,4.123789950008057,0.0011589850764721632,0.2965470552444458,-1.4412091414081019,-3.467204442131333e-05,-0.025473222136497498,1.2025480270385742,0.00019259215332567692,-0.0055950409732759,1.0652812719345093,-0.00027596435393206775,-0.02569103240966797
180.0,218.0,4.0152,-3.1693,7.7402,-0.0281,0.0252,-0.1019,-1.618033071557516,-0.014567920938134193,2.39209246635437,-1.5474425554275513,9.217496699420735e-05,2.2057976722717285,4.123781366939209,0.001020449330098927,0.29477909207344055,-1.4412573019610804,-3.3385811548214406e-05,-0.023182285949587822,1.202552080154419,0.00018149441166315228,0.007340817712247372,1.0652849674224854,-0.00019665888976305723,-0.00011894479393959045
180.0,218.0,4.0152,-3.1693,7.7402,-0.0281,0.0252,-0.1019,-1.6181251011290492,-0.014673934318125248,2.3778953552246094,-1.5474507808685303,0.0007944460376165807,2.1917409896850586,4.123825712794922,0.0006917851278558373,0.29235029220581055,-1.4412615934955042,-4.740352960652672e-05,-0.03723030164837837,1.202552080154419,0.00016705504094716161,-0.004513971041887999,1.065316915512085,-0.00012674287427216768,-0.0187306459993124
180.0,218.0,4.0152,-3.1693,7.7402,-0.0281,0.0252,-0.1019,-1.618204732934469,-0.01522645354270935,2.3881542682647705,-1.5474385023117065,0.0006918700528331101,2.224987506866455,4.12379710256543,0.0006448783678933978,0.30783459544181824,-1.4412573019610804,-4.506369441514835e-05,-0.01537162996828556,1.2025723457336426,0.00015474441170226783,-1.5431432984769344e-05,1.065333604812622,0.0001103271497413516,0.02920471504330635
180.0,218.0,4.0152,-3.1693,7.7402,-0.0281,0.0252,-0.1019,-1.6182767353453578,-0.015935737639665604,2.3532261848449707,-1.547386646270752,0.000708754756487906,2.199394941329956,4.12379710256543,0.000616548873949796,0.3158031404018402,-1.4412654081927698,-4.360801904113032e-05,-0.020716700702905655,1.202552080154419,0.00014749818365089595,0.0008013908518478274,1.0653332471847534,0.00014767340326216072,-0.0585334375500679
180.0,218.0,4.0152,-3.1693,7.7402,-0.0281,0.0252,-0.1019,-1.6183926067748011,-0.01741821877658367,2.3206095695495605,-1.547434687614441,0.0006155243027023971,2.1653990745544434,4.123837633723877,0.0005187116330489516,0.31427207589149475,-1.4412573019610804,-4.1592698835302144e-05,-0.03140724450349808,1.2025272846221924,0.0001524176768725738,-0.00341084785759449,1.065317153930664,0.00016875786241143942,-0.01470530591905117
180.0,218.0,4.0152,-3.1693,7.7402,-0.0281,0.0252,-0.1019,-1.6184445820250453,-0.017643900588154793,2.332683801651001,-1.547386646270752,0.0005657409783452749,2.188800811767578,4.123837633723877,0.000484765536384657,0.31025704741477966,-1.441249195729391,-4.0349565097130835e-05,-0.020023172721266747,1.202575922012329,0.00015088135842233896,-0.006798435468226671,1.0653295516967773,0.0004977527423761785,-0.017805859446525574
180.0,218.0,4.0152,-3.1693,7.7402,-0.0281,0.0252,-0.1019,-1.6185280285277308,-0.01940261572599411,2.3256702423095703,-1.547358751296997,0.00047448143595829606,2.1600358486175537,4.123845739955566,0.00039576238486915827,0.30191686749458313,-1.441277805958883,-3.861820005113259e-05,-0.028289543464779854,1.202592372894287,0.00014197452401276678,-7.283315062522888e-05,1.0653212070465088,0.00044932865421287715,-0.014247274026274681
180.0,218.0,4.0152,-3.1693,7.7402,-0.0281,0.0252,-0.1019,-1.618648191491598,-0.02011745236814022,2.3277127742767334,-1.5473783016204834,0.0004192189371678978,2.146354913711548,4.123813791865967,0.0003451448865234852,0.3152318596839905,-1.441249195729391,-3.7544232327491045e-05,-0.03116404265165329,1.202531337738037,0.0001365878852084279,-0.013741375878453255,1.0653691291809082,0.0004274655075278133,0.023448634892702103
180.0,218.0,4.0152,-3.1693,7.7402,-0.0281,0.0252,-0.1019,-1.6187602482237757,-0.022261086851358414,2.30645751953125,-1.547386646270752,0.00035687422496266663,2.1720502376556396,4.123845739955566,0.0002895916404668242,0.30093756318092346,-1.4412172476397913,-3.604074663599022e-05,-0.03428787738084793,1.2026320695877075,0.00012923280883114785,-0.0077198403887450695,1.0653252601623535,0.00042112512164749205,0.006806816440075636
180.0,218.0,4.0152,-3.1693,7.7402,-0.0281,0.0252,-0.1019,-1.6189524135985316,-0.02445923164486885,2.252410888671875,-1.5474269390106201,0.00031067393138073385,2.1769821643829346,4.123805208797119,0.00020788583788089454,0.3017292022705078,-1.4412410894977015,-3.465308327577077e-05,-0.029307996854186058,1.202591896057129,0.00012262939708307385,-0.006108494009822607,1.0653412342071533,0.00035983382258564234,0.016805920749902725
180.0,218.0,4.0152,-3.1693,7.7402,-0.0281,0.0252,-0.1019,-1.6190439663329066,-0.0266023650765419,2.2534403800964355,-1.5474467277526855,0.0002859921660274267,2.1127395629882812,4.123792811031006,0.00019028809037990868,0.2927204668521881,-1.441249195729391,1.8403850845061243e-05,-0.018875066190958023,1.202612042427063,9.766940638655797e-05,-0.00665447348728776,1.0653252601623535,0.00032713275868445635,-0.01940436102449894
180.0,218.0,4.0152,-3.1693,7.7402,-0.0281,0.0252,-0.1019,-1.6192485294737757,-0.029730211943387985,2.1949057579040527,-1.5473700761795044,0.0002555399260018021,2.207679271697998,4.1237732607075195,0.0001688625052338466,0.29740941524505615,-1.441249195729391,1.814302049751859e-05,-0.031238645315170288,1.2025678157806396,9.106782090384513e-05,0.0023265741765499115,1.065361499786377,0.0002878890954889357,0.03868425637483597
183.0,219.0,3.7926,-2.8995,7.3789,-0.0556,-0.009,-0.1284,-1.619364400903219,-0.03115972690284252,2.229952573776245,-1.5474026203155518,0.00021901162108406425,2.143679141998291,4.123781366939209,0.0001267422194359824,0.2907160520553589,-1.441221062337057,1.7440124793210998e-05,-0.01870214007794857,1.202552080154419,8.752508438192308e-05,0.011928200721740723,1.0653085708618164,0.0002665710053406656,-0.004976427648216486
183.0,219.0,3.7926,-2.8995,7.3789,-0.0556,-0.009,-0.1284,-1.6195675335326136,-0.03390411287546158,2.211425304412842,-1.5474187135696411,0.00018989764794241637,2.109292984008789,4.123813791865967,0.0001137460203608498,0.30745208263397217,-1.4412372748004358,1.6481950297020376e-05,-0.025802280753850937,1.202636480331421,8.269937825389206e-05,0.006218720227479935,1.0652885437011719,0.00020993327780161053,-0.030246803537011147
183.0,219.0,3.7926,-2.8995,7.3789,-0.0556,-0.009,-0.1284,-1.6196876964964808,-0.03485185652971268,2.242023468017578,-1.5473742485046387,0.0001791005488485098,2.064331531524658,4.123805208797119,8.115520904539153e-05,0.2907557487487793,-1.4412615934955042,1.5899573554634117e-05,-0.01892264187335968,1.202555775642395,9.558205783832818e-05,0.0007479178020730615,1.0653085708618164,8.867080032359809e-05,0.004658783785998821
183.0,219.0,3.7926,-2.8995,7.3789,-0.0556,-0.009,-0.1284,-1.619915624658102,-0.03857500106096268,2.104036331176758,-1.5474109649658203,0.00016502643120475113,2.0779478549957275,4.12373320638623,7.367027137661353e-05,0.2812291383743286,-1.4412253538714808,1.5099340089363977e-05,-0.02160455659031868,1.2025599479675293,9.088755905395374e-05,-0.009065061807632446,1.0653572082519531,6.607335672015324e-05,-0.05341587960720062
183.0,219.0,3.7926,-2.8995,7.3789,-0.0556,-0.009,-0.1284,-1.6201430759825648,-0.0429919958114624,2.122767448425293,-1.5473783016204834,0.0001530024892417714,2.0664069652557373,4.123777552241943,7.1036306508176494e-06,0.27946096658706665,-1.4412253538714808,1.4375770660990383e-05,-0.014494144357740879,1.2025599479675293,8.651885582366958e-05,0.0013778202701359987,1.0653412342071533,5.951874118181877e-05,-0.015081415884196758
183.0,219.0,3.7926,-2.8995,7.3789,-0.0556,-0.009,-0.1284,-1.6203671894469203,-0.04680816829204559,2.091432809829712,-1.547386646270752,0.0001459151244489476,2.051642894744873,4.123777552241943,-5.261137994239107e-05,0.27958738803863525,-1.4412859121905726,2.7740734367398545e-05,-0.009049070999026299,1.202632188796997,8.383252134080976e-05,-0.001286618411540985,1.0653090476989746,5.582670564763248e-05,0.007474083453416824
183.0,219.0,3.7926,-2.8995,7.3789,-0.0556,-0.009,-0.1284,-1.620610853234762,-0.0540660098195076,2.052924871444702,-1.5473700761795044,0.00013643533748108894,2.0502138137817383,4.123781366939209,-4.8597579734632745e-05,0.28352808952331543,-1.4412172476397913,2.662509177753236e-05,-0.00310348579660058,1.2025678157806396,9.170849807560444e-05,-0.0027387693990021944,1.0652766227722168,2.588982169982046e-05,-0.03941900283098221
