ramyac6/ROB537/final_project/csv/all/bad_167.csv
tof_0,tof_1,accelx,accely,accelz,gyrox,gyroy,gyroz,shoulder_lift_joint_position,shoulder_lift_joint_velocity,shoulder_lift_joint_effort,elbow_joint_position,elbow_joint_velocity,elbow_joint_effort,wrist_1_joint_position,wrist_1_joint_velocity,wrist_1_joint_effort,wrist_2_joint_position,wrist_2_joint_velocity,wrist_2_joint_effort,wrist_3_joint_position,wrist_3_joint_velocity,wrist_3_joint_effort,shoulder_pan_joint_position,shoulder_pan_joint_velocity,shoulder_pan_joint_effort
440.0,549.0,-0.5186,0.4672,9.6634,-0.0283,0.0229,-0.1197,-1.7176076374449671,0.0,2.5177223682403564,-1.9911729097366333,-0.0,1.9095149040222168,5.212080913573065,-0.0,0.28675004839897156,-1.6217454115497034,0.0,-0.0076651908457279205,0.7285628914833069,0.0,-0.0067771985195577145,0.847375214099884,0.0,-0.008158925920724869
440.0,549.0,-0.5186,0.4672,9.6634,-0.0283,0.0229,-0.1197,-1.7176557979979457,0.0,2.5163655281066895,-1.991117000579834,-0.0,1.8745200634002686,5.2120404718215845,-0.0,0.276008665561676,-1.6217334906207483,0.0,-0.012801486998796463,0.7285024523735046,0.0,0.0068882787600159645,0.8472786545753479,0.0,0.03206619992852211
440.0,549.0,-0.5186,0.4672,9.6634,-0.0283,0.0229,-0.1197,-1.7176076374449671,0.0,2.5137853622436523,-1.9911459684371948,-0.0,1.9017820358276367,5.212084758072653,-0.0,0.2713282108306885,-1.621789280568258,0.0,-0.00710097374394536,0.7285302877426147,0.0,0.0011305524967610836,0.8473554253578186,0.0,-0.014044111594557762
440.0,549.0,-0.5186,0.4672,9.6634,-0.0283,0.0229,-0.1197,-1.717635294000143,0.0,2.4959444999694824,-1.9911541938781738,-0.0,1.8558651208877563,5.212085115700521,-0.0,0.27327942848205566,-1.6217454115497034,0.0,0.010945294983685017,0.7285425662994385,0.0,0.0056703826412558556,0.8473267555236816,0.0,0.025135615840554237
440.0,549.0,-0.5186,0.4672,9.6634,-0.0283,0.0229,-0.1197,-1.7176643810667933,0.0,2.550055742263794,-1.9911284446716309,-0.0,1.8797168731689453,5.212092894106664,-0.0,0.27830979228019714,-1.621737305318014,0.0,0.009375090710818768,0.7285385131835938,0.0,-0.0006266903365030885,0.8473190069198608,0.0,-0.009868429973721504
440.0,549.0,-0.5186,0.4672,9.6634,-0.0283,0.0229,-0.1197,-1.7176114521422328,0.0,2.4996848106384277,-1.9912101030349731,-0.0,1.867616057395935,5.212112980871954,-0.0,0.2763931155204773,-1.6217253843890589,0.0,-0.00407871650531888,0.7285950779914856,0.0,0.002646342385560274,0.847298800945282,0.0,0.007723593153059483
440.0,549.0,-0.5186,0.4672,9.6634,-0.0283,0.0229,-0.1197,-1.7176357708373011,0.0,2.490535020828247,-1.991097331047058,-0.0,1.8899993896484375,5.2120523927505396,-0.0,0.28057247400283813,-1.6217816511737269,0.0,-0.009907625615596771,0.7285425662994385,0.0,-0.004178521689027548,0.8473594784736633,0.0,0.0030863285064697266
440.0,549.0,-0.5186,0.4672,9.6634,-0.0283,0.0229,-0.1197,-1.7176476917662562,0.0,2.4958767890930176,-1.9911242723464966,-0.0,1.8659080266952515,5.212080973177709,-0.0,0.27882495522499084,-1.6217096487628382,0.0,-0.006839337293058634,0.7285266518592834,0.0,0.008410807698965073,0.8473672866821289,0.0,0.03407735750079155
440.0,549.0,-0.5186,0.4672,9.6634,-0.0283,0.0229,-0.1197,-1.7176319561400355,0.0,2.494295120239258,-1.9911770820617676,-0.0,1.8803112506866455,5.212121146708288,-0.0,0.29181361198425293,-1.6217649618731897,0.0,-0.005664880387485027,0.7285265922546387,0.0,0.006244343239814043,0.8473472595214844,0.0,-0.006479495670646429
445.0,530.0,-0.533,0.5079,9.551,-0.0386,0.0228,-0.121,-1.717680116693014,0.0,2.536115884780884,-1.9911853075027466,-0.0,1.9018127918243408,5.21206875422553,-0.0,0.2722572088241577,-1.6217253843890589,0.0,0.0008840409573167562,0.7285506725311279,0.0,0.0010359198786318302,0.8473632335662842,0.0,-0.02007540501654148
445.0,530.0,-0.533,0.5079,9.551,-0.0386,0.0228,-0.121,-1.7176233730711878,0.0,2.510047435760498,-1.9911541938781738,-0.0,1.8881824016571045,5.21212117651061,-0.0,0.2861536145210266,-1.6217735449420374,0.0,-0.0022452950943261385,0.7284947037696838,0.0,0.0075095100328326225,0.8473309278488159,0.0,0.02434542216360569
445.0,530.0,-0.533,0.5079,9.551,-0.0386,0.0228,-0.121,-1.7176114521422328,0.0,2.542686939239502,-1.991161584854126,-0.0,1.8931982517242432,5.212101089745321,-0.0,0.27023500204086304,-1.6217334906207483,0.0,-0.001468814560212195,0.7285588383674622,0.0,0.005276449024677277,0.847298800945282,0.0,-0.033355712890625
445.0,530.0,-0.533,0.5079,9.551,-0.0386,0.0228,-0.121,-1.7176438770689906,0.0,2.516136884689331,-1.9911853075027466,-0.0,1.8503060340881348,5.212056475668707,-0.0,0.2778380811214447,-1.6217291990863245,0.0,-0.010742672719061375,0.7285386919975281,0.0,0.012909416109323502,0.8473390936851501,0.0,-0.020253892987966537
445.0,530.0,-0.533,0.5079,9.551,-0.0386,0.0228,-0.121,-1.7176076374449671,0.0,2.5083041191101074,-1.9911729097366333,-0.0,1.9239308834075928,5.212085115700521,-0.0,0.28153878450393677,-1.621749226246969,0.0,-0.007475315593183041,0.7285265922546387,0.0,-0.002330710645765066,0.8473231196403503,0.0,0.03565763682126999
445.0,530.0,-0.533,0.5079,9.551,-0.0386,0.0228,-0.121,-1.7176600895323695,0.0,2.5038132667541504,-1.991150140762329,-0.0,1.8508307933807373,5.2121048150356195,-0.0,0.27585238218307495,-1.6217578093158167,0.0,-0.005595490336418152,0.7285344004631042,0.0,-0.006207415834069252,0.8473431468009949,0.0,-0.03462349995970726
445.0,530.0,-0.533,0.5079,9.551,-0.0386,0.0228,-0.121,-1.7175590000548304,0.0,2.482309103012085,-1.9912381172180176,-0.0,1.8578646183013916,5.2120646117027185,-0.0,0.2902880311012268,-1.6217573324786585,0.0,-0.005424049217253923,0.7285547256469727,0.0,0.0007959692738950253,0.8473149538040161,0.0,0.019998764619231224
445.0,530.0,-0.533,0.5079,9.551,-0.0386,0.0228,-0.121,-1.7176686726012171,0.0,2.531055450439453,-1.991150140762329,-0.0,1.907209873199463,5.212064552098074,-0.0,0.27185481786727905,-1.6217573324786585,0.0,-0.0002424372360110283,0.7285988926887512,0.0,0.0034234393388032913,0.8473110795021057,0.0,0.028726590797305107
445.0,530.0,-0.533,0.5079,9.551,-0.0386,0.0228,-0.121,-1.7176195583739222,0.0,2.501035690307617,-1.9911574125289917,-0.0,1.89559006690979,5.212084698468008,-0.0,0.2841044068336487,-1.6217334906207483,0.0,-0.0076650939881801605,0.7286191582679749,0.0,0.006842023693025112,0.8473107814788818,0.0,-0.007174012716859579
445.0,530.0,-0.533,0.5079,9.551,-0.0386,0.0228,-0.121,-1.7176476917662562,0.0,2.4893317222595215,-1.991158366203308,-0.0,1.9200420379638672,5.212085115700521,-0.0,0.2680773437023163,-1.621749226246969,0.0,-0.007203741930425167,0.7285106778144836,0.0,-0.00530414842069149,0.8473554253578186,0.0,-0.02904568240046501
445.0,530.0,-0.533,0.5079,9.551,-0.0386,0.0228,-0.121,-1.7176319561400355,0.0,2.5687005519866943,-1.9911811351776123,-0.0,1.8838560581207275,5.212117093592443,-0.0,0.2854974865913391,-1.621765438710348,0.0,0.0028503332287073135,0.7285065650939941,0.0,-0.0045082042925059795,0.8472946286201477,0.0,0.03647620603442192
445.0,530.0,-0.533,0.5079,9.551,-0.0386,0.0228,-0.121,-1.7176395855345667,0.0,2.525845527648926,-1.9911584854125977,-0.0,1.9154958724975586,5.212068784027853,-0.0,0.2849842309951782,-1.621737305318014,0.0,0.005915832240134478,0.7286273241043091,0.0,0.0038773417472839355,0.8473390936851501,0.0,0.010108137503266335
445.0,530.0,-0.533,0.5079,9.551,-0.0386,0.0228,-0.121,-1.7176319561400355,0.0,2.4918909072875977,-1.9911541938781738,-0.0,1.8613460063934326,5.212060558586874,-0.0,0.28119975328445435,-1.6217291990863245,0.0,0.000473375606816262,0.7285184860229492,0.0,-0.0006101280450820923,0.8473149538040161,0.0,0.014382241293787956
445.0,530.0,-0.533,0.5079,9.551,-0.0386,0.0228,-0.121,-1.7176438770689906,0.0,2.522312879562378,-1.9911811351776123,-0.0,1.9408704042434692,5.212012547045507,-0.0,0.2885664105415344,-1.6217134634601038,0.0,0.003457525745034218,0.7285344004631042,0.0,-0.00026177288964390755,0.8473107814788818,0.0,-0.030152209103107452
445.0,530.0,-0.533,0.5079,9.551,-0.0386,0.0228,-0.121,-1.7176643810667933,0.0,2.5130913257598877,-1.9911284446716309,-0.0,1.9079029560089111,5.212096947222509,-0.0,0.2871156930923462,-1.621777359639303,0.0,-0.008457873947918415,0.7285788059234619,0.0,-0.015623155049979687,0.8473231196403503,0.0,-0.023983068764209747
445.0,530.0,-0.533,0.5079,9.551,-0.0386,0.0228,-0.121,-1.7176114521422328,0.0,2.516706943511963,-1.9911820888519287,-0.0,1.8722312450408936,5.212085115700521,-0.0,0.2830422818660736,-1.6217291990863245,0.0,-0.009039126336574554,0.7285991311073303,0.0,-0.0059130555018782616,0.8473149538040161,0.0,0.02423931285738945
436.0,550.0,-0.3218,0.5821,9.2985,-0.031,0.0267,-0.1168,-1.717635294000143,0.0,2.5140254497528076,-1.9911168813705444,-0.0,1.9069454669952393,5.212096947222509,-0.0,0.27152493596076965,-1.6217411200152796,0.0,-0.010096132755279541,0.7285262942314148,0.0,0.01768493838608265,0.8473590612411499,0.0,-0.0014175125397741795
436.0,550.0,-0.3218,0.5821,9.2985,-0.031,0.0267,-0.1168,-1.7176319561400355,0.0,2.4977118968963623,-1.9911417961120605,-0.0,1.9412095546722412,5.212068724423208,-0.0,0.288595050573349,-1.6217411200152796,0.0,0.00564342038705945,0.7284743189811707,0.0,-0.0033408417366445065,0.8473028540611267,0.0,-0.017770105972886086
436.0,550.0,-0.3218,0.5821,9.2985,-0.031,0.0267,-0.1168,-1.717680116693014,0.0,2.49398136138916,-1.9911894798278809,-0.0,1.8738288879394531,5.212085115700521,-0.0,0.28691089153289795,-1.6217334906207483,0.0,-0.007343814708292484,0.7285709381103516,0.0,0.0017477704677730799,0.8473513126373291,0.0,0.019530776888132095
436.0,550.0,-0.3218,0.5821,9.2985,-0.031,0.0267,-0.1168,-1.7175952396788539,0.0,2.524350166320801,-1.991185188293457,-0.0,1.9225220680236816,5.212112951069631,-0.0,0.26961615681648254,-1.6217334906207483,0.0,-0.009851358830928802,0.7285465598106384,0.0,0.003787239082157612,0.847298800945282,0.0,0.009783422574400902
436.0,550.0,-0.3218,0.5821,9.2985,-0.031,0.0267,-0.1168,-1.7176758251585902,0.0,2.481724977493286,-1.9911894798278809,-0.0,1.8527112007141113,5.212092864304342,-0.0,0.27741190791130066,-1.6217735449420374,0.0,-0.0010707871988415718,0.7285425662994385,0.0,-0.008931854739785194,0.8473190069198608,0.0,-0.009962034411728382
436.0,550.0,-0.3218,0.5821,9.2985,-0.031,0.0267,-0.1168,-1.7175990543761195,0.0,2.4587974548339844,-1.991185188293457,-0.0,1.8979685306549072,5.212085115700521,-0.0,0.2805449068546295,-1.6217096487628382,0.0,-0.0018562095938250422,0.7285829186439514,0.0,0.0031750607304275036,0.8473190069198608,0.0,0.019389966502785683
436.0,550.0,-0.3218,0.5821,9.2985,-0.031,0.0267,-0.1168,-1.7176319561400355,0.0,2.5330851078033447,-1.9911770820617676,-0.0,1.8269727230072021,5.212072777539053,-0.0,0.27988550066947937,-1.6217816511737269,0.0,-0.0022169100120663643,0.7285066246986389,0.0,0.0001554296468384564,0.8473554253578186,0.0,0.014608263969421387
436.0,550.0,-0.3218,0.5821,9.2985,-0.031,0.0267,-0.1168,-1.7176276646056117,0.0,2.494372844696045,-1.9911500215530396,-0.0,1.9053468704223633,5.212088781386175,-0.0,0.28601405024528503,-1.6217530409442347,0.0,-0.008853521198034286,0.7285065650939941,0.0,-0.0025807663332670927,0.8473554253578186,0.0,-0.01981380023062229
436.0,550.0,-0.3218,0.5821,9.2985,-0.031,0.0267,-0.1168,-1.7176562748351039,0.0,2.4787631034851074,-1.9911574125289917,-0.0,1.880523443222046,5.212128925114431,-0.0,0.2806048095226288,-1.621789280568258,0.0,0.00563018536195159,0.7285547256469727,0.0,-0.01111387088894844,0.8473390936851501,0.0,0.013397399336099625
436.0,550.0,-0.3218,0.5821,9.2985,-0.031,0.0267,-0.1168,-1.7175952396788539,0.0,2.497340202331543,-1.9911811351776123,-0.0,1.8839149475097656,5.2120646117027185,-0.0,0.28096136450767517,-1.621765438710348,0.0,-0.0006188424304127693,0.7285425662994385,0.0,-0.0064834109507501125,0.8473231196403503,0.0,-0.03143438324332237
436.0,550.0,-0.3218,0.5821,9.2985,-0.031,0.0267,-0.1168,-1.7176600895323695,0.0,2.5014965534210205,-1.9911729097366333,-0.0,1.886850357055664,5.212088781386175,-0.0,0.29008474946022034,-1.6217253843890589,0.0,-0.004317422863095999,0.7285869121551514,0.0,0.00228244811296463,0.8473190069198608,0.0,0.019590232521295547
436.0,550.0,-0.3218,0.5821,9.2985,-0.031,0.0267,-0.1168,-1.7176686726012171,0.0,2.487196922302246,-1.991133689880371,-0.0,1.875690221786499,5.212117093592443,-0.0,0.273054301738739,-1.621749226246969,0.0,-0.00489948270842433,0.7285506129264832,0.0,-0.002257757820188999,0.8473472595214844,0.0,-0.0035764072090387344
436.0,550.0,-0.3218,0.5821,9.2985,-0.031,0.0267,-0.1168,-1.7175713978209437,0.0,2.5734994411468506,-1.9911770820617676,-0.0,1.8707795143127441,5.212128925114431,-0.0,0.2758636474609375,-1.6217530409442347,0.0,-0.004183764103800058,0.7285708785057068,0.0,0.0033979625441133976,0.8473267555236816,0.0,-0.011840536259114742
436.0,550.0,-0.3218,0.5821,9.2985,-0.031,0.0267,-0.1168,-1.7175952396788539,0.0,2.518035650253296,-1.9911459684371948,-0.0,1.8859837055206299,5.2120646117027185,-0.0,0.27710360288619995,-1.6217291990863245,0.0,-0.010911459103226662,0.7285910248756409,0.0,-0.0025756044778972864,0.8473110198974609,0.0,-0.04543711245059967
436.0,550.0,-0.3218,0.5821,9.2985,-0.031,0.0267,-0.1168,-1.7176033459105433,0.0,2.501014232635498,-1.9911739826202393,-0.0,1.8892370462417603,5.212060558586874,-0.0,0.29481470584869385,-1.6216934362994593,0.0,-0.008333449251949787,0.7285306453704834,0.0,-0.009360714815557003,0.8473471999168396,0.0,0.009773502126336098
436.0,550.0,-0.3218,0.5821,9.2985,-0.031,0.0267,-0.1168,-1.7176562748351039,0.0,2.477297782897949,-1.9911688566207886,-0.0,1.8768794536590576,5.212089168816366,-0.0,0.28351449966430664,-1.621789280568258,0.0,-0.0015425614546984434,0.7285706400871277,0.0,0.0025021429173648357,0.8473471999168396,0.0,-0.023978162556886673
461.0,546.0,-0.5121,0.457,9.6072,-0.0423,0.0208,-0.1228,-1.7176114521422328,0.0,2.555393695831299,-1.9912017583847046,-0.0,1.8677716255187988,5.212080943375387,-0.0,0.2739701569080353,-1.6217411200152796,0.0,-0.022648122161626816,0.7285588383674622,0.0,-0.005366395227611065,0.8473231196403503,0.0,-0.012548098340630531
461.0,546.0,-0.5121,0.457,9.6072,-0.0423,0.0208,-0.1228,-1.7176157436766566,0.0,2.49578857421875,-1.9911408424377441,-0.0,1.8723032474517822,5.212068724423208,-0.0,0.28270235657691956,-1.621737305318014,0.0,-0.0005998942069709301,0.728538453578949,0.0,-0.006356574594974518,0.8473309278488159,0.0,-0.050150685012340546
461.0,546.0,-0.5121,0.457,9.6072,-0.0423,0.0208,-0.1228,-1.7175866566100062,0.0,2.464232921600342,-1.9911365509033203,-0.0,1.8884446620941162,5.212088781386175,-0.0,0.2882755994796753,-1.6217578093158167,0.0,-0.011067216284573078,0.728534460067749,0.0,0.008561746217310429,0.8473349809646606,0.0,0.005735721439123154
461.0,546.0,-0.5121,0.457,9.6072,-0.0423,0.0208,-0.1228,-1.7176319561400355,0.0,2.5127480030059814,-1.9911696910858154,-0.0,1.8514820337295532,5.212052780180731,-0.0,0.2864825129508972,-1.6217697302447718,0.0,-0.004190173931419849,0.7286069393157959,0.0,-0.006408580578863621,0.8472988605499268,0.0,0.009701679460704327
461.0,546.0,-0.5121,0.457,9.6072,-0.0423,0.0208,-0.1228,-1.7176686726012171,0.0,2.5107717514038086,-1.9911812543869019,-0.0,1.9211528301239014,5.212085085898199,-0.0,0.27943605184555054,-1.6217215696917933,0.0,0.001417789957486093,0.728538453578949,0.0,0.007492923177778721,0.8473028540611267,0.0,-0.02056862600147724
461.0,546.0,-0.5121,0.457,9.6072,-0.0423,0.0208,-0.1228,-1.7176438770689906,0.0,2.488919496536255,-1.9911460876464844,-0.0,1.9134571552276611,5.212080943375387,-0.0,0.28359395265579224,-1.621749226246969,0.0,-0.004206553101539612,0.7285465598106384,0.0,0.008319171145558357,0.8473430871963501,0.0,-0.010755821131169796
461.0,546.0,-0.5121,0.457,9.6072,-0.0423,0.0208,-0.1228,-1.7176200352110804,0.0,2.523251533508301,-1.991150140762329,-0.0,1.897696614265442,5.21207286694602,-0.0,0.2769208252429962,-1.6217611471759241,0.0,-0.004767072852700949,0.7285628318786621,0.0,-0.005182070657610893,0.8473231196403503,0.0,-0.006290252320468426
461.0,546.0,-0.5121,0.457,9.6072,-0.0423,0.0208,-0.1228,-1.7176395855345667,0.0,2.516141176223755,-1.9911894798278809,-0.0,1.8675041198730469,5.21207686045722,-0.0,0.2847847640514374,-1.6217697302447718,0.0,-0.0017805977258831263,0.728522539138794,0.0,0.012697757221758366,0.847298800945282,0.0,-0.018751254305243492
461.0,546.0,-0.5121,0.457,9.6072,-0.0423,0.0208,-0.1228,-1.7176715336241664,0.0,2.490856170654297,-1.9911584854125977,-0.0,1.8829925060272217,5.21207686045722,-0.0,0.27964410185813904,-1.6217253843890589,0.0,-0.0010606549913063645,0.7285147309303284,0.0,-0.002629986498504877,0.8473067879676819,0.0,-0.010680684819817543
461.0,546.0,-0.5121,0.457,9.6072,-0.0423,0.0208,-0.1228,-1.7176724872984828,0.0,2.5554091930389404,-1.9911625385284424,-0.0,1.879930019378662,5.212092864304342,-0.0,0.2807386815547943,-1.621777359639303,0.0,0.0016904235817492008,0.728594958782196,0.0,-0.009533140808343887,0.8473309278488159,0.0,0.005885351449251175
461.0,546.0,-0.5121,0.457,9.6072,-0.0423,0.0208,-0.1228,-1.717583795587057,0.0,2.518127679824829,-1.9911772012710571,-0.0,1.8300139904022217,5.21207286694602,-0.0,0.28151997923851013,-1.6217291990863245,0.0,-0.01083461381494999,0.7286028861999512,0.0,0.0012378068640828133,0.847298800945282,0.0,-0.046717192977666855
461.0,546.0,-0.5121,0.457,9.6072,-0.0423,0.0208,-0.1228,-1.7176319561400355,0.0,2.515406608581543,-1.9911284446716309,-0.0,1.897090196609497,5.212128925114431,-0.0,0.28577983379364014,-1.6217253843890589,0.0,-0.00018303794786334038,0.7285948991775513,0.0,-0.003186951857060194,0.847298800945282,0.0,-0.0331067256629467
461.0,546.0,-0.5121,0.457,9.6072,-0.0423,0.0208,-0.1228,-1.7176076374449671,0.0,2.5268893241882324,-1.9911770820617676,-0.0,1.9058136940002441,5.2120646117027185,-0.0,0.2846062481403351,-1.6217973867999476,0.0,-0.0029815651942044497,0.728518545627594,0.0,0.0017912981566041708,0.8473754525184631,0.0,-0.03906876593828201
461.0,546.0,-0.5121,0.457,9.6072,-0.0423,0.0208,-0.1228,-1.7176319561400355,0.0,2.4942755699157715,-1.9911688566207886,-0.0,1.8515225648880005,5.212096947222509,-0.0,0.27278897166252136,-1.6217334906207483,0.0,-0.010679641738533974,0.7285588383674622,0.0,0.0048237331211566925,0.8473069071769714,0.0,0.0233585387468338
461.0,546.0,-0.5121,0.457,9.6072,-0.0423,0.0208,-0.1228,-1.71759094814443,0.0,2.4824466705322266,-1.9911541938781738,-0.0,1.9318921566009521,5.212056475668707,-0.0,0.29713448882102966,-1.621765438710348,0.0,-0.002688338980078697,0.7285788059234619,0.0,-0.006400640122592449,0.8473349809646606,0.0,0.04392438381910324
461.0,546.0,-0.5121,0.457,9.6072,-0.0423,0.0208,-0.1228,-1.7176114521422328,0.0,2.5220770835876465,-1.991161584854126,-0.0,1.9141755104064941,5.212116706162252,-0.0,0.2952859103679657,-1.6217454115497034,0.0,-0.0015645244857296348,0.7285547256469727,0.0,0.0006379103288054466,0.8473231196403503,0.0,0.024300582706928253
448.0,570.0,-0.5569,0.7286,9.5007,-0.0278,0.0325,-0.1257,-1.7176076374449671,0.0,2.5093026161193848,-1.9911324977874756,-0.0,1.9047791957855225,5.212080943375387,-0.0,0.2885414958000183,-1.6217215696917933,0.0,0.006955302320420742,0.7285465598106384,0.0,-0.005997587461024523,0.847298800945282,0.0,-0.0066377343609929085
448.0,570.0,-0.5569,0.7286,9.5007,-0.0278,0.0325,-0.1257,-1.7175866566100062,0.0,2.4988749027252197,-1.9911812543869019,-0.0,1.8987749814987183,5.21210070231513,-0.0,0.2830449938774109,-1.6217334906207483,0.0,-0.0044142212718725204,0.7285304069519043,0.0,0.005109082907438278,0.8473231196403503,0.0,-0.014097782783210278
448.0,570.0,-0.5569,0.7286,9.5007,-0.0278,0.0325,-0.1257,-1.7176600895323695,0.0,2.5060551166534424,-1.991150140762329,-0.0,1.8672294616699219,5.212089168816366,-0.0,0.26949673891067505,-1.6217411200152796,0.0,-0.0009184676455333829,0.7285706400871277,0.0,-0.013621772639453411,0.8473390936851501,0.0,-0.018487486988306046
448.0,570.0,-0.5569,0.7286,9.5007,-0.0278,0.0325,-0.1257,-1.7176643810667933,0.0,2.5089023113250732,-1.991161584854126,-0.0,1.8698123693466187,5.212096917420187,-0.0,0.2785954177379608,-1.6217454115497034,0.0,0.002355518750846386,0.7285668849945068,0.0,0.002500571310520172,0.8472946286201477,0.0,0.0093957195058465
448.0,570.0,-0.5569,0.7286,9.5007,-0.0278,0.0325,-0.1257,-1.7175795040526332,0.0,2.500278949737549,-1.9911408424377441,-0.0,1.8726938962936401,5.212096917420187,-0.0,0.2906111478805542,-1.6217816511737269,0.0,-0.003473420860245824,0.7285306453704834,0.0,-0.0063098277896642685,0.8473149538040161,0.0,0.056619793176651
448.0,570.0,-0.5569,0.7286,9.5007,-0.0278,0.0325,-0.1257,-1.7176195583739222,0.0,2.4928345680236816,-1.9911253452301025,-0.0,1.8975234031677246,5.21203641870574,-0.0,0.2743823826313019,-1.621777359639303,0.0,-0.0067476024851202965,0.728534460067749,0.0,-0.0071327779442071915,0.8473190069198608,0.0,-0.009306346997618675
448.0,570.0,-0.5569,0.7286,9.5007,-0.0278,0.0325,-0.1257,-1.7176195583739222,0.0,2.49436092376709,-1.9911541938781738,-0.0,1.8844523429870605,5.212068724423208,-0.0,0.2822503447532654,-1.6217334906207483,0.0,-0.002082251012325287,0.7285950183868408,0.0,0.005995965097099543,0.8473231196403503,0.0,-0.02080668695271015
448.0,570.0,-0.5569,0.7286,9.5007,-0.0278,0.0325,-0.1257,-1.717635294000143,0.0,2.4998292922973633,-1.991161584854126,-0.0,1.8734238147735596,5.212040442019262,-0.0,0.2744442820549011,-1.621777359639303,0.0,-0.0027389242313802242,0.728538453578949,0.0,-0.019998863339424133,0.8473271727561951,0.0,-0.00013489741832017899
448.0,570.0,-0.5569,0.7286,9.5007,-0.0278,0.0325,-0.1257,-1.7176200352110804,0.0,2.5320980548858643,-1.9911853075027466,-0.0,1.9125587940216064,5.2120404718215845,-0.0,0.2815447151660919,-1.6217578093158167,0.0,-0.01192703377455473,0.728534460067749,0.0,-0.0027621774934232235,0.8473069667816162,0.0,-0.02449086681008339
448.0,570.0,-0.5569,0.7286,9.5007,-0.0278,0.0325,-0.1257,-1.7176076374449671,0.0,2.566596031188965,-1.9911894798278809,-0.0,1.8751513957977295,5.212085085898199,-0.0,0.269683301448822,-1.621737305318014,0.0,0.0031775073148310184,0.7286030054092407,0.0,-0.002613528398796916,0.8473069667816162,0.0,0.04296868294477463
448.0,570.0,-0.5569,0.7286,9.5007,-0.0278,0.0325,-0.1257,-1.7176395855345667,0.0,2.523822546005249,-1.9911696910858154,-0.0,1.8551689386367798,5.212056535273351,-0.0,0.2721729874610901,-1.6217735449420374,0.0,0.001960556488484144,0.7285706400871277,0.0,-0.008035867474973202,0.8473594188690186,0.0,-0.00923539511859417
448.0,570.0,-0.5569,0.7286,9.5007,-0.0278,0.0325,-0.1257,-1.7175990543761195,0.0,2.5106348991394043,-1.9911625385284424,-0.0,1.9488954544067383,5.2120728371436975,-0.0,0.2778690457344055,-1.6217697302447718,0.0,-0.002902315929532051,0.7285266518592834,0.0,-0.0036542771849781275,0.8473028540611267,0.0,-0.019379321485757828
448.0,570.0,-0.5569,0.7286,9.5007,-0.0278,0.0325,-0.1257,-1.7176319561400355,0.0,2.482715129852295,-1.9911977052688599,-0.0,1.8563876152038574,5.212068784027853,-0.0,0.2799634635448456,-1.6217573324786585,0.0,-0.009876296855509281,0.7285066246986389,0.0,0.007389696314930916,0.8473108410835266,0.0,-0.01578689180314541
448.0,570.0,-0.5569,0.7286,9.5007,-0.0278,0.0325,-0.1257,-1.7176276646056117,0.0,2.487776279449463,-1.9911541938781738,-0.0,1.897019624710083,5.2120646117027185,-0.0,0.27445921301841736,-1.6217854658709925,0.0,0.003454220946878195,0.7285266518592834,0.0,-0.0015898931305855513,0.8474113345146179,0.0,-0.027316056191921234
448.0,570.0,-0.5569,0.7286,9.5007,-0.0278,0.0325,-0.1257,-1.7176600895323695,0.0,2.510169506072998,-1.9911656379699707,-0.0,1.8791606426239014,5.212085115700521,-0.0,0.2783089876174927,-1.621777359639303,0.0,-0.003460806328803301,0.728518545627594,0.0,0.009025013074278831,0.8473145961761475,0.0,0.005104150623083115
448.0,570.0,-0.5569,0.7286,9.5007,-0.0278,0.0325,-0.1257,-1.7175990543761195,0.0,2.485058546066284,-1.9911822080612183,-0.0,1.8893413543701172,5.212048667460241,-0.0,0.28646281361579895,-1.621737305318014,0.0,-0.02281578816473484,0.7285066246986389,0.0,-0.003721366636455059,0.847395122051239,0.0005039352690801024,0.01746559515595436
427.0,576.0,-0.4684,0.7466,9.5797,-0.0205,0.0258,-0.1162,-1.7176600895323695,0.0,2.462869644165039,-1.9911459684371948,-0.0,1.898664951324463,5.212052780180731,-0.0,0.2989021837711334,-1.6218369642840784,0.0,-0.0008248673984780908,0.7285266518592834,0.0,0.00012082117609679699,0.8473748564720154,0.0012868146877735853,0.014397146180272102
427.0,576.0,-0.4684,0.7466,9.5797,-0.0205,0.0258,-0.1162,-1.7176476917662562,0.0,2.534956932067871,-1.9911656379699707,-0.0,1.9071170091629028,5.2120728371436975,-0.0,0.28129488229751587,-1.621833626423971,0.0,-0.010954070836305618,0.728518545627594,0.0,0.004990046378225088,0.84738689661026,0.0027920238208025694,0.01904190517961979
427.0,576.0,-0.4684,0.7466,9.5797,-0.0205,0.0258,-0.1162,-1.7176152668394984,0.0,2.498896837234497,-1.991150140762329,-0.0,1.8836747407913208,5.212032693415441,-0.0,0.2848309278488159,-1.6218169371234339,0.0,-0.005156140308827162,0.728574812412262,0.0,-0.005998821463435888,0.8474753499031067,0.005059363786131144,0.0494195818901062
427.0,576.0,-0.4684,0.7466,9.5797,-0.0205,0.0258,-0.1162,-1.717663427392477,0.0,2.511892318725586,-1.9911894798278809,-0.0,1.899569034576416,5.212016659765997,-0.0,0.2840307354927063,-1.6218369642840784,0.0,0.00011790357530117035,0.728522539138794,0.0,-0.0011680587194859982,0.8475033640861511,0.007963581010699272,-0.02625027857720852
427.0,576.0,-0.4684,0.7466,9.5797,-0.0205,0.0258,-0.1162,-1.717680116693014,0.0,2.5615625381469727,-1.9911854267120361,-0.0,1.9256675243377686,5.21201257684783,-0.0,0.2810191214084625,-1.6218131224261683,0.0,-0.011084269732236862,0.7285909652709961,0.0,-0.00020721019245684147,0.8475314378738403,0.010330045595765114,0.032813847064971924
427.0,576.0,-0.4684,0.7466,9.5797,-0.0205,0.0258,-0.1162,-1.7176758251585902,0.0,2.470499038696289,-1.9911408424377441,-0.0,1.8739904165267944,5.212085115700521,-0.0,0.2838849723339081,-1.6218093077289026,0.0,-0.010214569047093391,0.7285706400871277,0.0,0.010411958210170269,0.8475390672683716,0.008707008324563503,0.014439482241868973
427.0,576.0,-0.4684,0.7466,9.5797,-0.0205,0.0258,-0.1162,-1.7176758251585902,0.0,2.5319457054138184,-1.9911696910858154,-0.0,1.8488481044769287,5.2120408592517755,-0.0,0.2767648994922638,-1.6217816511737269,0.0,-0.009923922829329967,0.728538453578949,0.0,-0.003243752522394061,0.847643256187439,0.006085439585149288,0.010779062286019325
427.0,576.0,-0.4684,0.7466,9.5797,-0.0205,0.0258,-0.1162,-1.71765198330068,0.0,2.510439157485962,-1.9911696910858154,-0.0,1.8567904233932495,5.212081002980032,-0.0,0.2752545475959778,-1.6218331495868128,0.0,-0.005142613779753447,0.7285427451133728,0.0,-0.010204712860286236,0.8476191163063049,0.003616389585658908,-0.050669241696596146
427.0,576.0,-0.4684,0.7466,9.5797,-0.0205,0.0258,-0.1162,-1.7176677189269007,0.0,2.4988441467285156,-1.9911365509033203,-0.0,1.894950032234192,5.212069141655721,-0.0,0.2888495624065399,-1.621805493031637,0.0,-0.005040317308157682,0.7285666465759277,0.0,-0.0016916021704673767,0.8476675748825073,0.001993778394535184,0.006782051641494036
427.0,576.0,-0.4684,0.7466,9.5797,-0.0205,0.0258,-0.1162,-1.7177120647826136,0.0,2.4901018142700195,-1.9911729097366333,-0.0,1.8744416236877441,5.212093251734533,-0.0,0.2863846719264984,-1.621789280568258,0.0,-0.003319019451737404,0.7285225987434387,0.0,-0.0015194967854768038,0.8476473093032837,0.0008022980764508247,-0.03638327866792679
427.0,576.0,-0.4684,0.7466,9.5797,-0.0205,0.0258,-0.1162,-1.7176476917662562,0.0,2.5034372806549072,-1.9911696910858154,-0.0,1.9149284362792969,5.212085115700521,-0.0,0.285270631313324,-1.6218374411212366,-6.255267362575978e-05,-0.0053780898451805115,0.7285225987434387,0.0,-0.015001939609646797,0.8476313352584839,0.0005194323020987213,-0.038944587111473083
427.0,576.0,-0.4684,0.7466,9.5797,-0.0205,0.0258,-0.1162,-1.71765198330068,-4.470953354029916e-05,2.490327835083008,-1.991125226020813,-0.0,1.8769748210906982,5.212064641505041,-0.0,0.2731463313102722,-1.6217930952655237,-5.673414852935821e-05,0.007374691776931286,0.7285706996917725,0.0,-0.01137107890099287,0.8476555347442627,0.00030875595984980464,-0.006530577316880226
427.0,576.0,-0.4684,0.7466,9.5797,-0.0205,0.0258,-0.1162,-1.7176438770689906,-4.166936196270399e-05,2.501378059387207,-1.9911253452301025,-0.0,1.871079683303833,5.212064641505041,-0.0,0.27526262402534485,-1.621793572102682,-5.1832608733093366e-05,-0.006648612208664417,0.728546679019928,0.0,0.004096967168152332,0.8475870490074158,0.0001849862455856055,-0.03437667712569237
427.0,576.0,-0.4684,0.7466,9.5797,-0.0205,0.0258,-0.1162,-1.7176395855345667,-2.0262339603505097e-05,2.4968955516815186,-1.9911936521530151,-0.0,1.9184176921844482,5.2120408592517755,-0.0,0.2726689875125885,-1.6217692534076136,-4.7710589569760486e-05,-0.004049505572766066,0.7286068797111511,0.0,0.005224063992500305,0.8476232886314392,-8.026493742363527e-05,0.01952347531914711
427.0,576.0,-0.4684,0.7466,9.5797,-0.0205,0.0258,-0.1162,-1.7176600895323695,-1.8673439626581967e-05,2.517439365386963,-1.9911365509033203,-0.0,1.9103251695632935,5.212048965483465,-0.0,0.2792081832885742,-1.6217854658709925,-4.530861406237818e-05,0.0022962181828916073,0.7285183668136597,0.0,-0.005752015858888626,0.8476272821426392,-9.96305316220969e-05,0.03031366877257824
427.0,576.0,-0.4684,0.7466,9.5797,-0.0205,0.0258,-0.1162,-1.717696329156393,-1.7579101040610112e-05,2.541926622390747,-1.9911584854125977,2.2435122648545303e-09,1.9075511693954468,5.212080973177709,-0.0,0.27778324484825134,-1.621793572102682,-4.212721614749171e-05,-0.007589797489345074,0.7286228537559509,0.0,-0.004257302265614271,0.8475709557533264,-8.544554293621331e-05,-0.03385001793503761
454.0,520.0,-0.6078,0.1926,9.4433,-0.0576,0.0252,-0.1164,-1.7176562748351039,-3.320301038911566e-05,2.511392831802368,-1.991133451461792,0.0008139858255162835,1.9059232473373413,5.21204491236762,-0.0,0.27397406101226807,-1.6217973867999476,-3.9363290852634236e-05,-0.008615176193416119,0.7286188006401062,0.0,0.005511982832103968,0.8476836085319519,-3.757687591132708e-05,-0.0558960847556591
454.0,520.0,-0.6078,0.1926,9.4433,-0.0576,0.0252,-0.1164,-1.7176882229247035,-4.699031342170201e-05,2.515660285949707,-1.9911408424377441,0.0008049720199778676,1.8484230041503906,5.212012636452474,-0.0,0.2678850591182709,-1.6217535177813929,-3.693979306262918e-05,-0.007979934103786945,0.7286347150802612,0.0,0.0018808005843311548,0.8476313352584839,-3.325154466438107e-05,-0.05080687254667282
454.0,520.0,-0.6078,0.1926,9.4433,-0.0576,0.0252,-0.1164,-1.7176314793028773,-4.4852633436676115e-05,2.5168564319610596,-1.9911490678787231,0.0006650625728070736,1.89350163936615,5.212048995285787,-0.0,0.27410051226615906,-1.6217573324786585,-3.479739825706929e-05,-0.01069665513932705,0.7286747694015503,0.0,0.01920619234442711,0.8476354479789734,-2.993360612890683e-05,-0.005219716578722
454.0,520.0,-0.6078,0.1926,9.4433,-0.0576,0.0252,-0.1164,-1.717708250085348,-4.341042586020194e-05,2.5298006534576416,-1.9911179542541504,0.0005613280809484422,1.8904088735580444,5.212081032782354,-0.0,0.2780141532421112,-1.6217330137835901,-3.350201222929172e-05,-0.01969374157488346,0.7286146879196167,0.0,-0.005781655665487051,0.8476473093032837,-2.8066569939255714e-05,-0.015447108075022697
454.0,520.0,-0.6078,0.1926,9.4433,-0.0576,0.0252,-0.1164,-1.717635294000143,-5.5217096814885736e-05,2.4879469871520996,-1.9910807609558105,0.0003949357196688652,1.8818535804748535,5.212076890259542,-0.0,0.27157145738601685,-1.6218016783343714,-3.1730283808428794e-05,-0.010644499212503433,0.7286307215690613,0.0,-0.0031151114962995052,0.8475829362869263,-2.5665396606200375e-05,0.041278984397649765
454.0,520.0,-0.6078,0.1926,9.4433,-0.0576,0.0252,-0.1164,-1.7176033459105433,-5.2788236644119024e-05,2.4482202529907227,-1.9911261796951294,0.0004975274787284434,1.9111788272857666,5.212032961636343,-0.0,0.26888275146484375,-1.6217692534076136,-3.0136543500702828e-05,-0.010211087763309479,0.728618860244751,6.01408700617867e-08,0.013034772127866745,0.84759521484375,-2.3642718588234857e-05,0.0791211873292923
454.0,520.0,-0.6078,0.1926,9.4433,-0.0576,0.0252,-0.1164,-1.7176677189269007,-5.0563958211569116e-05,2.52020001411438,-1.9911013841629028,0.0018693816382437944,1.8892860412597656,5.212008940964498,-0.0,0.2721971571445465,-1.6217449347125452,-2.8695238142972812e-05,-0.030289556831121445,0.7286388874053955,1.6740431957318336e-11,-0.015972310677170753,0.8476113080978394,-3.3571483072591946e-05,0.06528601050376892
454.0,520.0,-0.6078,0.1926,9.4433,-0.0576,0.0252,-0.1164,-1.7176271877684535,-4.851957783102989e-05,2.499505043029785,-1.9910414218902588,0.0029046270065009594,1.9147610664367676,5.21204902508811,-0.0,0.26497066020965576,-1.6217535177813929,-2.7385456633055583e-05,-0.01112694013863802,0.7285585403442383,0.0003088379744440317,0.011041327379643917,0.8475790619850159,-6.287512951530516e-05,0.04652891680598259
454.0,520.0,-0.6078,0.1926,9.4433,-0.0576,0.0252,-0.1164,-1.7176553211607875,-4.80764610983897e-05,2.5137321949005127,-1.991065263748169,0.0035163327120244503,1.8825287818908691,5.212016689568319,-0.0,0.2676517367362976,-1.6217573324786585,-2.657679760886822e-05,-0.02198292687535286,0.7286348938941956,0.0007841233746148646,0.01037854328751564,0.8476313948631287,-5.8814352087210864e-05,0.04248389974236488
454.0,520.0,-0.6078,0.1926,9.4433,-0.0576,0.0252,-0.1164,-1.717720171014303,-8.902035187929869e-05,2.4376721382141113,-1.991081714630127,0.004695508163422346,1.9378831386566162,5.212048995285787,-0.0,0.2706208825111389,-1.621765438710348,-2.5449504391872324e-05,-0.020737335085868835,0.7287067770957947,0.0020404274109750986,0.007682112976908684,0.8475709557533264,-5.3563755500363186e-05,0.05595684051513672
454.0,520.0,-0.6078,0.1926,9.4433,-0.0576,0.0252,-0.1164,-1.7176395855345667,-0.000607202120590955,2.48067045211792,-1.9909729957580566,0.0053164344280958176,1.898101568222046,5.212032991438665,-0.0,0.26418042182922363,-1.6217659155475062,-2.4413973733317107e-05,-0.024754036217927933,0.72870272397995,0.0023643916938453913,0.021709805354475975,0.8476195335388184,-4.91737482661847e-05,0.05025167763233185
454.0,520.0,-0.6078,0.1926,9.4433,-0.0576,0.0252,-0.1164,-1.7176395855345667,-0.0005128753837198019,2.461961507797241,-1.9909894466400146,0.0059928977862000465,1.9237325191497803,5.2120408592517755,-0.0,0.27552852034568787,-1.6217692534076136,-2.3459406293113716e-05,-0.02800167351961136,0.7287027835845947,0.0028317379765212536,0.03939597308635712,0.8475667834281921,-4.544894181890413e-05,0.042530231177806854
454.0,520.0,-0.6078,0.1926,9.4433,-0.0576,0.0252,-0.1164,-1.7177039585509242,-0.00040551918209530413,2.4228386878967285,-1.9909459352493286,0.005889355670660734,1.8805522918701172,5.212037193566122,-0.0,0.25607991218566895,-1.6217930952655237,-2.2576681658392772e-05,-0.03685816377401352,0.7287826538085938,0.004747415892779827,0.037726882845163345,0.8475831747055054,-4.2248659156030044e-05,0.0785006508231163
454.0,520.0,-0.6078,0.1926,9.4433,-0.0576,0.0252,-0.1164,-1.7176357708373011,-0.00033094474929384887,2.4391701221466064,-1.9908974170684814,0.007752490695565939,1.9644558429718018,5.212000715523519,-0.0,0.2700998783111572,-1.6217249075519007,-2.1757987269666046e-05,-0.04783536493778229,0.7288468480110168,0.008846718817949295,0.058532021939754486,0.84759521484375,-1.9735975001822226e-05,0.10057394206523895
454.0,520.0,-0.6078,0.1926,9.4433,-0.0576,0.0252,-0.1164,-1.7176839313902796,-0.00029480463126674294,2.4261345863342285,-1.9908702373504639,0.008162281475961208,1.9322891235351562,5.212020891695776,-0.0,0.2575557827949524,-1.6217291990863245,-2.1244390154606663e-05,-0.03924236819148064,0.7288946509361267,0.010313979350030422,0.06272360682487488,0.84759521484375,-3.0335147727100775e-08,0.16299273073673248
454.0,520.0,-0.6078,0.1926,9.4433,-0.0576,0.0252,-0.1164,-1.717692037621969,-0.0002533123188186437,2.467899799346924,-1.9908133745193481,0.00993660930544138,1.9588561058044434,5.212081390410223,-0.0,0.2660822570323944,-1.6217249075519007,-2.0517923985607922e-05,-0.04381103813648224,0.7289626002311707,0.00856664776802063,0.065678671002388,0.8475911021232605,-7.32558206261412e-14,0.15153878927230835
429.0,559.0,-0.5611,0.591,9.4953,-0.0447,0.0336,-0.1237,-1.7177039585509242,-0.0002585517941042781,2.3679232597351074,-1.9907418489456177,0.011710752733051777,1.9625681638717651,5.212032991438665,-0.0,0.25492560863494873,-1.621793572102682,-1.005641752271913e-05,-0.04345082864165306,0.7289226055145264,0.004714390262961388,0.05572975426912308,0.8476032614707947,-1.7690416744773778e-19,0.12794159352779388
429.0,559.0,-0.5611,0.591,9.4953,-0.0447,0.0336,-0.1237,-1.7177282772459925,-0.00024469694471918046,2.405820846557617,-1.9906858205795288,0.013800307177007198,1.98826003074646,5.212089258223333,-0.0,0.25890979170799255,-1.6217454115497034,-2.799240839124195e-09,-0.03323080390691757,0.7290024161338806,0.0025092505384236574,0.06359130144119263,0.8476032018661499,-4.27202840753201e-25,0.17617806792259216
429.0,559.0,-0.5611,0.591,9.4953,-0.0447,0.0336,-0.1237,-1.7176996670165003,-0.0013834802666679025,2.38175892829895,-1.990553379058838,0.01493206899613142,1.9566365480422974,5.212012666254797,-0.00016412507102359086,0.2702696919441223,-1.6217449347125452,-7.791791300712503e-13,-0.04843135178089142,0.7290830612182617,0.0020087938755750656,0.07514141499996185,0.8475911617279053,-1.031644499174309e-30,0.1687188744544983
429.0,559.0,-0.5611,0.591,9.4953,-0.0447,0.0336,-0.1237,-1.7177316151061,-0.0019169315928593278,2.3909177780151367,-1.9904942512512207,0.015691066160798073,1.9753384590148926,5.211972909956732,-0.00018486822955310345,0.25319379568099976,-1.6217449347125452,-3.3217629459515643e-15,-0.029550321400165558,0.7289984822273254,0.0023973723873496056,0.07643415778875351,0.8476072549819946,-1.8569237194247895e-34,0.16331706941127777
429.0,559.0,-0.5611,0.591,9.4953,-0.0447,0.0336,-0.1237,-1.7177316151061,-0.0024156486615538597,2.3430004119873047,-1.9903690814971924,0.016027050092816353,1.9913082122802734,5.211996632605352,-0.00019752993830479681,0.23731458187103271,-1.6217535177813929,-9.24624970253612e-19,-0.046127818524837494,0.729034423828125,0.0040125176310539246,0.08649730682373047,0.8476195335388184,-4.484253176731917e-40,0.20193849503993988
429.0,559.0,-0.5611,0.591,9.4953,-0.0447,0.0336,-0.1237,-1.7177115879454554,-0.0029804306104779243,2.3096964359283447,-1.990330457687378,0.01701366901397705,2.0038070678710938,5.2119929669196985,-0.0005382142844609916,0.23011314868927002,-1.6217697302447718,-2.5737274919544863e-22,-0.03784707188606262,0.7290547490119934,0.0053181895054876804,0.08719256520271301,0.8476113080978394,-1.401298464324817e-45,0.1673922836780548
429.0,559.0,-0.5611,0.591,9.4953,-0.0447,0.0336,-0.1237,-1.7177802524962367,-0.003599920542910695,2.3098251819610596,-1.9902094602584839,0.017996761947870255,2.052459716796875,5.21202893832282,-0.0005566238542087376,0.2416922003030777,-1.621749226246969,-7.164064346370325e-26,-0.027902495115995407,0.7291627526283264,0.006854673381894827,0.10162149369716644,0.8475871086120605,0.0,0.14766500890254974
429.0,559.0,-0.5611,0.591,9.4953,-0.0447,0.0336,-0.1237,-1.7177792988219203,-0.0044145951978862286,2.2789664268493652,-1.9901151657104492,0.020354609936475754,2.0166900157928467,5.212013023882665,-0.0007241676794365048,0.24568408727645874,-1.6217449347125452,-1.9941436746784475e-29,-0.033271245658397675,0.7291824221611023,0.007316655479371548,0.10021453350782394,0.8475911021232605,0.0,0.10965075343847275
429.0,559.0,-0.5611,0.591,9.4953,-0.0447,0.0336,-0.1237,-1.717816015283102,-0.004717534873634577,2.266432523727417,-1.9899702072143555,0.020622162148356438,2.0083508491516113,5.212001073151388,-0.000681188132148236,0.22829940915107727,-1.6216853300677698,-8.501347355069179e-32,-0.04730018228292465,0.7292386293411255,0.00745745562016964,0.10969527065753937,0.8476154804229736,0.0,0.0836462527513504
429.0,559.0,-0.5611,0.591,9.4953,-0.0447,0.0336,-0.1237,-1.7178803882994593,-0.004312738310545683,2.2772598266601562,-1.9899108409881592,0.021945670247077942,2.052649974822998,5.211976933270254,-0.0007758984575048089,0.21335631608963013,-1.6217134634601038,-2.3663814787443563e-35,-0.026730969548225403,0.7292464375495911,0.00795538630336523,0.10975990444421768,0.8476072549819946,0.0,0.1005103662610054
429.0,559.0,-0.5611,0.591,9.4953,-0.0447,0.0336,-0.1237,-1.7178603611388148,-0.004050609190016985,2.252197027206421,-1.989729642868042,0.02372371405363083,2.0885632038116455,5.211932706623831,-0.0011105979792773724,0.21958276629447937,-1.6217053572284144,-6.586908528943627e-39,-0.024320391938090324,0.7293064594268799,0.007811789400875568,0.12774954736232758,0.8476314544677734,0.0,0.12680980563163757
429.0,559.0,-0.5611,0.591,9.4953,-0.0447,0.0336,-0.1237,-1.7179323635497035,-0.005737193860113621,2.276096820831299,-1.989614725112915,0.02353687584400177,2.0665512084960938,5.212029415159979,-0.0008547327597625554,0.2234315574169159,-1.621737305318014,-1.8328983913368607e-42,-0.021816853433847427,0.7293545007705688,0.007893459871411324,0.11886225640773773,0.8475386500358582,0.0,0.10421755164861679
429.0,559.0,-0.5611,0.591,9.4953,-0.0447,0.0336,-0.1237,-1.7180005512633265,-0.010970981791615486,2.2182159423828125,-1.9894707202911377,0.020557306706905365,2.0211124420166016,5.212005334883489,-0.0009003587765619159,0.21539494395256042,-1.6217253843890589,-0.0,-0.021143997088074684,0.7294063568115234,0.008050624281167984,0.13736394047737122,0.8475948572158813,0.0,0.09994503855705261
429.0,559.0,-0.5611,0.591,9.4953,-0.0447,0.0336,-0.1237,-1.7181130848326625,-0.015818536281585693,2.1953775882720947,-1.9893381595611572,0.018935423344373703,2.119786262512207,5.211965101748266,-0.002991063753142953,0.20940178632736206,-1.621697250996725,-0.0,-0.016842015087604523,0.729470431804657,0.0080519774928689,0.1358955204486847,0.8476109504699707,0.0,0.09513770043849945
429.0,559.0,-0.5611,0.591,9.4953,-0.0447,0.0336,-0.1237,-1.7181765041747035,-0.017189791426062584,2.1900298595428467,-1.9892460107803345,0.019543297588825226,2.043675661087036,5.21194093206481,-0.004662312567234039,0.2131015956401825,-1.6217134634601038,-0.0,-0.016596227884292603,0.7295224070549011,0.008754249662160873,0.13950008153915405,0.8476114273071289,0.000996000599116087,0.12622275948524475
429.0,559.0,-0.5611,0.591,9.4953,-0.0447,0.0336,-0.1237,-1.7182485065855921,-0.016462016850709915,2.1836013793945312,-1.9891588687896729,0.020735858008265495,2.0408012866973877,5.211957263737478,-0.009843914769589901,0.205061674118042,-1.62170917192568,-0.0,0.001241466961801052,0.7295225858688354,0.009361080825328827,0.13991126418113708,0.8476672172546387,0.0011314770672470331,0.1076645702123642
429.0,562.0,-0.3697,0.5073,9.0754,-0.0603,-0.0069,-0.1148,-1.718377252618307,-0.01512790285050869,2.2265539169311523,-1.9890499114990234,0.020785439759492874,2.0901575088500977,5.211853492050924,-0.015542230568826199,0.20084911584854126,-1.6216734091388147,-0.0,-0.0015216709580272436,0.7295786142349243,0.010183114558458328,0.15343303978443146,0.8476391434669495,0.001363518531434238,0.07130241394042969
429.0,562.0,-0.3697,0.5073,9.0754,-0.0603,-0.0069,-0.1148,-1.7184649906554164,-0.015698645263910294,2.199002504348755,-1.9889628887176514,0.020262503996491432,2.1138272285461426,5.211757409363546,-0.015446631237864494,0.1944637894630432,-1.6216891447650355,-0.0,-0.00457303412258625,0.7296944856643677,0.011699379421770573,0.14101438224315643,0.8477033376693726,0.0021531370002776384,0.10346810519695282
429.0,562.0,-0.3697,0.5073,9.0754,-0.0603,-0.0069,-0.1148,-1.718593259850973,-0.018468420952558517,2.1439266204833984,-1.9887909889221191,0.019183078780770302,2.0834767818450928,5.211625623493948,-0.013969874940812588,0.20760807394981384,-1.621765438710348,-0.0,-0.00023635011166334152,0.7297946810722351,0.012468765489757061,0.1482698619365692,0.8477033376693726,0.0027527788188308477,0.08212912827730179
429.0,562.0,-0.3697,0.5073,9.0754,-0.0603,-0.0069,-0.1148,-1.718644758264059,-0.02204301953315735,2.1251461505889893,-1.9887112379074097,0.019615568220615387,2.1271615028381348,5.211561667710104,-0.012988562695682049,0.19877295196056366,-1.6216815153705042,-0.0,-0.011464966461062431,0.729778528213501,0.012765332125127316,0.15510816872119904,0.84776371717453,0.0025428885128349066,0.04993237555027008
429.0,562.0,-0.3697,0.5073,9.0754,-0.0603,-0.0069,-0.1148,-1.7188216648497523,-0.027189163491129875,2.1243841648101807,-1.9885631799697876,0.020163921639323235,2.1067233085632324,5.211529958039083,-0.010298006236553192,0.1755094826221466,-1.621765438710348,-0.0,0.0071580298244953156,0.7299343943595886,0.012627223506569862,0.16633659601211548,0.8477432727813721,0.0018929735524579883,0.07801783084869385
429.0,562.0,-0.3697,0.5073,9.0754,-0.0603,-0.0069,-0.1148,-1.7190057239928187,-0.03034495748579502,2.147576332092285,-1.9884192943572998,0.020977972075343132,2.073917865753174,5.211482274323263,-0.007814690470695496,0.21012921631336212,-1.6217296759234827,-0.0,0.0076100463047623634,0.7299702763557434,0.011327614076435566,0.16203591227531433,0.8477111458778381,0.0012129110982641578,0.07966692745685577
429.0,562.0,-0.3697,0.5073,9.0754,-0.0603,-0.0069,-0.1148,-1.7191735706725062,-0.03470849618315697,2.1015899181365967,-1.988335132598877,0.022701747715473175,2.152090072631836,5.211438315897741,-0.004476536065340042,0.20314565300941467,-1.621697250996725,2.8174425096949562e-05,-0.0014949275646358728,0.7299580574035645,0.009904635138809681,0.16384516656398773,0.8477070927619934,0.0007943789823912084,0.07681698352098465
429.0,562.0,-0.3697,0.5073,9.0754,-0.0603,-0.0069,-0.1148,-1.7193738422789515,-0.03695756196975708,2.0846805572509766,-1.9881672859191895,0.025318995118141174,2.106191396713257,5.211422103434362,-0.00161595712415874,0.1948603093624115,-1.6216815153705042,0.000172342115547508,0.0031285916920751333,0.7301263213157654,0.009045671671628952,0.16373556852340698,0.8477514982223511,0.000658581149764359,0.0653882771730423
429.0,562.0,-0.3697,0.5073,9.0754,-0.0603,-0.0069,-0.1148,-1.7196628055968226,-0.04440879449248314,2.09150767326355,-1.9880553483963013,0.026949314400553703,2.108031749725342,5.21146251538352,-0.0007723215967416763,0.19173040986061096,-1.6216772238360804,0.00018378741515334696,0.0034721256233751774,0.7301502227783203,0.007458055391907692,0.16733615100383759,0.8477111458778381,0.00047451924183405936,0.07955804467201233
429.0,562.0,-0.3697,0.5073,9.0754,-0.0603,-0.0069,-0.1148,-1.7198668919005335,-0.050699520856142044,2.052403450012207,-1.9879072904586792,0.027928287163376808,2.133471727371216,5.211410122900762,-0.0005744066438637674,0.19189311563968658,-1.6216734091388147,0.00019847966905217618,0.011469194665551186,0.73013836145401,0.0069413939490914345,0.16850773990154266,0.8477396368980408,0.0003953846753574908,0.06792403757572174
429.0,562.0,-0.3697,0.5073,9.0754,-0.0603,-0.0069,-0.1148,-1.72021545986318,-0.06052759289741516,2.0638480186462402,-1.9877394437789917,0.029236728325486183,2.1630935668945312,5.211434322386541,-0.0004965527332387865,0.18673212826251984,-1.6216376463519495,0.0005721495836041868,0.026700353249907494,0.7301942706108093,0.006313147954642773,0.1753150224685669,0.8477190732955933,0.00033272639848291874,0.04144153743982315
429.0,562.0,-0.3697,0.5073,9.0754,-0.0603,-0.0069,-0.1148,-1.7206202946104945,-0.07167844474315643,2.0125527381896973,-1.9875632524490356,0.031542640179395676,2.1059510707855225,5.211466628104009,-0.0003901032614521682,0.19114795327186584,-1.6216614882098597,0.0009460537694394588,0.013847790658473969,0.7302621603012085,0.005890475586056709,0.15823805332183838,0.8476831316947937,0.0002872150216717273,0.061592184007167816
429.0,562.0,-0.3697,0.5073,9.0754,-0.0603,-0.0069,-0.1148,-1.7210809193053187,-0.08231749385595322,2.0184333324432373,-1.9873270988464355,0.035986777395009995,2.1306705474853516,5.211466300278463,-0.00032058439683169127,0.19758261740207672,-1.6216777006732386,0.0014995590317994356,0.0124991275370121,0.7302582263946533,0.006045067682862282,0.16254684329032898,0.8477193117141724,4.516022454481572e-05,0.03856268525123596
429.0,562.0,-0.3697,0.5073,9.0754,-0.0603,-0.0069,-0.1148,-1.7216702900328578,-0.09326890110969543,2.076292037963867,-1.9870516061782837,0.03782390058040619,2.09859299659729,5.211446481734075,-0.00027210157713852823,0.1926576793193817,-1.6216619650470179,0.0036005047149956226,0.02277952991425991,0.7303180694580078,0.006260679569095373,0.17158249020576477,0.8477234840393066,2.4040820445492272e-09,0.019029196351766586
429.0,562.0,-0.3697,0.5073,9.0754,-0.0603,-0.0069,-0.1148,-1.72198547939443,-0.10229076445102692,2.0737977027893066,-1.986928105354309,0.04003307595849037,2.113832950592041,5.211466687708654,-0.0002471844491083175,0.18811875581741333,-1.6215899626361292,0.007041167467832565,0.02617599628865719,0.730394184589386,0.006577327847480774,0.1834602653980255,0.8477314114570618,4.327262289813283e-13,0.04835405945777893
429.0,562.0,-0.3697,0.5073,9.0754,-0.0603,-0.0069,-0.1148,-1.7226788006224574,-0.11591345071792603,2.052488088607788,-1.9866641759872437,0.044816263020038605,2.1963491439819336,5.21145840266303,-0.00021733039466198534,0.18983010947704315,-1.6215375105487269,0.019997956231236458,0.025187604129314423,0.7303619980812073,0.008143351413309574,0.17192895710468292,0.8477115631103516,1.0449831615001043e-18,0.021481657400727272
429.0,562.0,-0.3697,0.5073,9.0754,-0.0603,-0.0069,-0.1148,-1.7233754597105921,-0.12392853945493698,1.9653773307800293,-1.9864000082015991,0.05033056437969208,2.1662468910217285,5.211478131800451,-0.000193914893316105,0.1985354721546173,-1.6214302221881312,0.019341833889484406,0.04353290796279907,0.7304660677909851,0.011576554737985134,0.16429565846920013,0.8476669788360596,2.5235114071843302e-24,-0.05139312148094177
456.0,588.0,-0.7908,1.2006,8.994,-0.0037,-0.0484,-0.0406,-1.724168439904684,-0.12189031392335892,1.9788539409637451,-1.9860725402832031,0.056845370680093765,2.182542324066162,5.211470353394308,-0.0001750528608681634,0.19608789682388306,-1.6213505903827112,0.011570021510124207,0.02776356227695942,0.7304902076721191,0.017266714945435524,0.18239787220954895,0.8476912975311279,-0.0006805550074204803,-0.02319943532347679
456.0,588.0,-0.7908,1.2006,8.994,-0.0037,-0.0484,-0.0406,-1.724917551080221,-0.12291529029607773,2.0193252563476562,-1.9857357740402222,0.06171980872750282,2.147092819213867,5.211426096945562,-0.0001792292605387047,0.2031002938747406,-1.621411148701803,0.0032071128953248262,0.03650028258562088,0.7307099103927612,0.0262583177536726,0.18093779683113098,0.8476429581642151,-0.0011546009918674827,-0.022302202880382538
456.0,588.0,-0.7908,1.2006,8.994,-0.0037,-0.0484,-0.0406,-1.7254301510252894,-0.1271057277917862,2.0091371536254883,-1.9854881763458252,0.0646740272641182,2.1511595249176025,5.21145065405921,-0.00017571132048033178,0.1953122317790985,-1.621350113545553,4.9518832383910194e-05,0.03988809511065483,0.7308380603790283,0.03620309755206108,0.18698057532310486,0.8475986123085022,-0.0009571135160513222,-0.07141945511102676
456.0,588.0,-0.7908,1.2006,8.994,-0.0037,-0.0484,-0.0406,-1.7262517414488734,-0.14200007915496826,2.0021884441375732,-1.9850925207138062,0.0661000981926918,2.193859338760376,5.21146251538352,-0.0001837823656387627,0.1911667287349701,-1.6213143507586878,1.3783747476736607e-08,0.04522740840911865,0.7311416268348694,0.05982683226466179,0.1960524171590805,0.8476631045341492,-0.0006583108915947378,0.005660141818225384
456.0,588.0,-0.7908,1.2006,8.994,-0.0037,-0.0484,-0.0406,-1.7271248302855433,-0.15803301334381104,1.9484210014343262,-1.984688401222229,0.07030598074197769,2.1895592212677,5.211406010180273,-0.00017204917094204575,0.198579803109169,-1.6213868300067347,3.836757734437812e-12,0.04421250522136688,0.7316336035728455,0.10192525386810303,0.21447274088859558,0.8476552963256836,-0.0005011425819247961,0.017395392060279846
456.0,588.0,-0.7908,1.2006,8.994,-0.0037,-0.0484,-0.0406,-1.728013654748434,-0.1657824069261551,1.9538625478744507,-1.9841972589492798,0.07788195461034775,2.193253755569458,5.211542832642355,-0.0001605405705049634,0.18420830368995667,-1.6213544050799769,1.0679754564358354e-15,0.027676180005073547,0.7325016856193542,0.17197342216968536,0.22252553701400757,0.8476068377494812,-0.0005056953523308039,-0.0015550076495856047
456.0,588.0,-0.7908,1.2006,8.994,-0.0037,-0.0484,-0.0406,-1.7289310894408167,-0.16203734278678894,2.0164458751678467,-1.983681321144104,0.08860687911510468,2.1952877044677734,5.211510437517919,-0.0001316708658123389,0.19729289412498474,-1.6213343779193323,2.9727488272569203e-19,0.03760417178273201,0.733762800693512,0.2212417870759964,0.2647835612297058,0.8476597666740417,-0.001851821900345385,-0.07015254348516464
456.0,588.0,-0.7908,1.2006,8.994,-0.0037,-0.0484,-0.0406,-1.7299205265440882,-0.15413327515125275,2.0427889823913574,-1.9831695556640625,0.09743545204401016,2.23172664642334,5.211502629309454,-3.711357931024395e-05,0.18813061714172363,-1.6213749090777796,8.274755834227079e-23,0.03234183043241501,0.7351033091545105,0.24115075170993805,0.25377508997917175,0.84759521484375,-0.0016597347566857934,-0.11333117634057999
456.0,588.0,-0.7908,1.2006,8.994,-0.0037,-0.0484,-0.0406,-1.7305613956847132,-0.1522250920534134,2.0395846366882324,-1.9827457666397095,0.10246402770280838,2.2063865661621094,5.211502271681585,-5.087023600935936e-05,0.19745853543281555,-1.621371094380514,3.527658271289332e-25,0.03282436355948448,0.7361888885498047,0.2708077132701874,0.28289490938186646,0.8476313352584839,-0.0012002221774309874,-0.027724426239728928
456.0,588.0,-0.7908,1.2006,8.994,-0.0037,-0.0484,-0.0406,-1.7315298519530238,-0.1601840853691101,2.0185422897338867,-1.9821016788482666,0.1053960844874382,2.244389772415161,5.21145840266303,-5.022474215365946e-05,0.19947324693202972,-1.6213625113116663,9.819367664079797e-29,0.045219626277685165,0.7377692461013794,0.27626916766166687,0.25850507616996765,0.847651481628418,-0.00014122697757557034,-0.05982809513807297
456.0,588.0,-0.7908,1.2006,8.994,-0.0037,-0.0484,-0.0406,-1.7325436077513636,-0.17330648005008698,2.027451276779175,-1.981554388999939,0.10127510130405426,2.237903356552124,5.211478519230642,-4.757057467941195e-05,0.20552776753902435,-1.6213343779193323,2.7332568196696936e-32,0.03622657060623169,0.7395731806755066,0.3276447355747223,0.29079416394233704,0.847651481628418,-3.410465243547378e-10,-0.024874161928892136
456.0,588.0,-0.7908,1.2006,8.994,-0.0037,-0.0484,-0.0406,-1.733504434625143,-0.18536335229873657,2.0817131996154785,-1.9808746576309204,0.10713212192058563,2.213639259338379,5.211470353394308,-4.5182394387666136e-05,0.20273132622241974,-1.621338192616598,7.60812100625136e-36,0.029540764167904854,0.7417672872543335,0.3657941222190857,0.30697745084762573,0.8476391434669495,-8.235872870325381e-16,-0.03281264752149582
456.0,588.0,-0.7908,1.2006,8.994,-0.0037,-0.0484,-0.0406,-1.7346421680846156,-0.18422885239124298,2.017153263092041,-1.9801909923553467,0.1170838251709938,2.245608329772949,5.211490440159597,-4.3022566387662664e-05,0.20394550263881683,-1.6213143507586878,2.1177487379709522e-39,0.034049682319164276,0.744188129901886,0.3995147943496704,0.3273586332798004,0.8476395606994629,-1.9888663197462157e-21,-0.05136586353182793
456.0,588.0,-0.7908,1.2006,8.994,-0.0037,-0.0484,-0.0406,-1.7352987728514613,-0.18037986755371094,2.025108814239502,-1.9797919988632202,0.12544837594032288,2.2361526489257812,5.211482274323263,-4.169379826635122e-05,0.20110243558883667,-1.6213224569903772,9.028566005644796e-42,0.028934668749570847,0.7457270622253418,0.41257914900779724,0.3277967572212219,0.8476191759109497,-3.5798885053049825e-25,-0.0326065793633461
456.0,588.0,-0.7908,1.2006,8.994,-0.0037,-0.0484,-0.0406,-1.736364027062887,-0.1783849149942398,2.034400463104248,-1.978911280632019,0.13944542407989502,2.259280204772949,5.211458432465353,-3.9847789594205096e-05,0.210585355758667,-1.6213868300067347,2.802596928649634e-45,0.0249820277094841,0.748454213142395,0.46076303720474243,0.3376353979110718,0.847578763961792,-0.001193188945762813,-0.059222158044576645
456.0,588.0,-0.7908,1.2006,8.994,-0.0037,-0.0484,-0.0406,-1.7374774418272914,-0.18012404441833496,2.087190628051758,-1.978084683418274,0.15093787014484406,2.319722890853882,5.211531001120367,-3.815820309682749e-05,0.21192070841789246,-1.6213868300067347,0.0,0.041605301201343536,0.7513948082923889,0.4944707751274109,0.33729133009910583,0.8475949168205261,-0.0008721269550733268,-0.03896987810730934
464.0,746.0,-0.9864,0.5306,10.1246,-0.0715,0.0409,0.5683,-1.7385913334288539,-0.18397270143032074,2.1062610149383545,-1.9771603345870972,0.16017773747444153,2.3111000061035156,5.211486327439108,-3.6606317735277116e-05,0.21471944451332092,-1.6213262716876429,0.0,0.0471499003469944,0.7544299960136414,0.5447914004325867,0.3524569272994995,0.847586989402771,-0.0002595722326077521,-0.06599076092243195
464.0,746.0,-0.9864,0.5306,10.1246,-0.0715,0.0409,0.5683,-1.7396885357298792,-0.18888868391513824,2.108833074569702,-1.976165771484375,0.16565421223640442,2.3444480895996094,5.211434322386541,-3.517549703246914e-05,0.22203513979911804,-1.6213386694537562,0.0,0.046144999563694,0.7578970193862915,0.5743930339813232,0.3266982436180115,0.8476032018661499,-0.00018027646001428366,-0.11238742619752884
464.0,746.0,-0.9864,0.5306,10.1246,-0.0715,0.0409,0.5683,-1.7404376469054164,-0.1939956396818161,2.095879554748535,-1.9754738807678223,0.17313437163829803,2.339186668395996,5.211453962116995,1.1946276572416537e-05,0.21283428370952606,-1.6213186422931116,0.0,0.041091155260801315,0.7602124214172363,0.5947641730308533,0.3452908396720886,0.8476274013519287,-0.00022211468603927642,-0.11714057624340057
464.0,746.0,-0.9864,0.5306,10.1246,-0.0715,0.0409,0.5683,-1.7416144810118617,-0.20293237268924713,2.041562080383301,-1.9744386672973633,0.1842767745256424,2.395632028579712,5.211470353394308,2.564351598266512e-05,0.2079770565032959,-1.62134296098818,0.0,0.037849023938179016,0.7640032768249512,0.639187216758728,0.33760929107666016,0.8475951552391052,-0.0003577027528081089,-0.08623239398002625
464.0,746.0,-0.9864,0.5306,10.1246,-0.0715,0.0409,0.5683,-1.742852350274557,-0.2025812566280365,2.093139410018921,-1.9732751846313477,0.20123736560344696,2.3701956272125244,5.211478072195806,2.3627731934539042e-05,0.21907010674476624,-1.6213143507586878,3.554645081749186e-05,0.02604677528142929,0.7678708434104919,0.6657438278198242,0.36334991455078125,0.8475186824798584,-0.0031147622503340244,-0.08553069829940796
464.0,746.0,-0.9864,0.5306,10.1246,-0.0715,0.0409,0.5683,-1.7440978489317835,-0.19943150877952576,2.1138861179351807,-1.9720476865768433,0.2133009135723114,2.4078118801116943,5.211478101998129,4.370735405245796e-05,0.2272593379020691,-1.6213467756854456,5.0446498789824545e-05,0.03962063789367676,0.7718610167503357,0.689526379108429,0.31604188680648804,0.8475512862205505,-0.00598175497725606,-0.03570237755775452
464.0,746.0,-0.9864,0.5306,10.1246,-0.0715,0.0409,0.5683,-1.7452947101988734,-0.19623373448848724,2.109477996826172,-1.970632553100586,0.21963272988796234,2.3532910346984863,5.211510407715597,6.119076715549454e-05,0.21976305544376373,-1.6213024298297327,6.350785406539217e-05,0.036204155534505844,0.7761432528495789,0.7170254588127136,0.3137900233268738,0.8475032448768616,-0.00581694021821022,-0.15494388341903687
464.0,746.0,-0.9864,0.5306,10.1246,-0.0715,0.0409,0.5683,-1.7465769253172816,-0.20167098939418793,2.161465644836426,-1.9692405462265015,0.23184140026569366,2.4698290824890137,5.21149035075263,7.642579294042662e-05,0.23164144158363342,-1.6213386694537562,7.544341497123241e-05,0.04877098649740219,0.7804685831069946,0.7250131964683533,0.32356882095336914,0.8474507927894592,-0.004151112399995327,-0.1333533674478531
464.0,746.0,-0.9864,0.5306,10.1246,-0.0715,0.0409,0.5683,-1.7474218807616175,-0.21173350512981415,2.098656415939331,-1.9682786464691162,0.24273252487182617,2.472632884979248,5.211482274323263,7.333298708545044e-05,0.22978612780570984,-1.6213143507586878,0.0003051551175303757,0.04773114621639252,0.7834177613258362,0.7477603554725647,0.32510900497436523,0.8475197553634644,-0.0034038498997688293,-0.09633296728134155
464.0,746.0,-0.9864,0.5306,10.1246,-0.0715,0.0409,0.5683,-1.7487760982909144,-0.22042585909366608,2.1542391777038574,-1.966840386390686,0.2572151720523834,2.507800817489624,5.211482274323263,6.910967931617051e-05,0.22446708381175995,-1.6212909857379358,0.0004302835732232779,0.05091853439807892,0.7879951000213623,0.7602108716964722,0.3266604542732239,0.8473950028419495,-0.004002569708973169,-0.13320958614349365
464.0,746.0,-0.9864,0.5306,10.1246,-0.0715,0.0409,0.5683,-1.7500530682005824,-0.2140406221151352,2.2000255584716797,-1.9652177095413208,0.2659871578216553,2.479997396469116,5.211514609843054,0.00020960206165909767,0.2331216037273407,-1.6213067213641565,0.0013926755636930466,0.05635311082005501,0.7927801012992859,0.7801859378814697,0.27716270089149475,0.8473830819129944,-0.005914997309446335,-0.1711203157901764
464.0,746.0,-0.9864,0.5306,10.1246,-0.0715,0.0409,0.5683,-1.751371522943014,-0.20794962346553802,2.2509818077087402,-1.963551640510559,0.2798907160758972,2.5754292011260986,5.2115264413650415,0.0002739911142271012,0.25279372930526733,-1.6212628523456019,0.0022202208638191223,0.05470278486609459,0.7973548769950867,0.7890525460243225,0.30283093452453613,0.8473472595214844,-0.006484899204224348,-0.19883593916893005
464.0,746.0,-0.9864,0.5306,10.1246,-0.0715,0.0409,0.5683,-1.7527486286559046,-0.21371284127235413,2.2076046466827393,-1.9618340730667114,0.2964490056037903,2.5096218585968018,5.2115103779132745,0.0006068975199013948,0.24732071161270142,-1.6212509314166468,0.002454198896884918,0.053640417754650116,0.8020992875099182,0.792738139629364,0.31398332118988037,0.847270667552948,-0.008767896331846714,-0.20347057282924652
464.0,746.0,-0.9864,0.5306,10.1246,-0.0715,0.0409,0.5683,-1.7536055050291957,-0.2180631458759308,2.2101244926452637,-1.960578441619873,0.30274516344070435,2.5873234272003174,5.211534637003698,0.0004778702568728477,0.23834097385406494,-1.6212385336505335,0.0028726449236273766,0.06610540300607681,0.8052732944488525,0.8009313941001892,0.29004985094070435,0.8472346663475037,-0.010685776360332966,-0.24546855688095093
464.0,746.0,-0.9864,0.5306,10.1246,-0.0715,0.0409,0.5683,-1.7548829517760218,-0.22133000195026398,2.305460214614868,-1.9587562084197998,0.3136361241340637,2.5841901302337646,5.211494403868475,0.0003622932708822191,0.24603526294231415,-1.621218506489889,0.004721395205706358,0.06661960482597351,0.8100257515907288,0.8018849492073059,0.2671162486076355,0.8472349643707275,-0.010193198919296265,-0.2695777714252472
464.0,746.0,-0.9864,0.5306,10.1246,-0.0715,0.0409,0.5683,-1.7562409840025843,-0.2119143307209015,2.252056121826172,-1.9568513631820679,0.32750576734542847,2.5993337631225586,5.211510467320242,0.0002917771344073117,0.25541844964027405,-1.6211469809161585,0.010908710770308971,0.08450388163328171,0.8148694634437561,0.7919859290122986,0.2636614143848419,0.8471789956092834,-0.009813372045755386,-0.20727752149105072
468.0,627.0,-0.2859,-0.2638,10.4507,-0.0713,0.2037,0.6474,-1.7574826679625453,-0.20683865249156952,2.2880990505218506,-1.954917073249817,0.3386163115501404,2.5263328552246094,5.211453962116995,0.00024424426374025643,0.2631628215312958,-1.6210673491107386,0.013160878792405128,0.05914115905761719,0.8197009563446045,0.8009714484214783,0.2622847557067871,0.8471149206161499,-0.008929755538702011,-0.24178235232830048
468.0,627.0,-0.2859,-0.2638,10.4507,-0.0713,0.2037,0.6474,-1.7587157688536585,-0.2146528959274292,2.2959749698638916,-1.9528712034225464,0.3496479392051697,2.652905225753784,5.211474078684606,0.00021003378788009286,0.2538110017776489,-1.6210153738604944,0.009131724014878273,0.08572462946176529,0.8244552612304688,0.7990829944610596,0.24894475936889648,0.8470065593719482,-0.00915917381644249,-0.273313045501709
468.0,627.0,-0.2859,-0.2638,10.4507,-0.0713,0.2037,0.6474,-1.7599650822081507,-0.21589384973049164,2.281799793243408,-1.9506815671920776,0.35895147919654846,2.6093814373016357,5.211510437517919,0.0001842315396061167,0.2557657063007355,-1.6209595839129847,0.0029501516837626696,0.07255500555038452,0.8291592001914978,0.7832529544830322,0.2476670742034912,0.8469988703727722,-0.010203090496361256,-0.31390899419784546
468.0,627.0,-0.2859,-0.2638,10.4507,-0.0713,0.2037,0.6474,-1.760766168633932,-0.21003007888793945,2.2959258556365967,-1.9492319822311401,0.36343514919281006,2.6221184730529785,5.21153803446845,0.0001702855952316895,0.24057334661483765,-1.6209877173053187,0.0012685440015047789,0.06701268255710602,0.8323010206222534,0.781438410282135,0.24141734838485718,0.8469426035881042,-0.009781322441995144,-0.3013431429862976
468.0,627.0,-0.2859,-0.2638,10.4507,-0.0713,0.2037,0.6474,-1.7620436153807582,-0.20409958064556122,2.280137062072754,-1.9469496011734009,0.3874233365058899,2.65303897857666,5.211542117386617,0.0001834361464716494,0.23843702673912048,-1.6209877173053187,0.0007494246819987893,0.09351342916488647,0.8368931412696838,0.7735038995742798,0.24676448106765747,0.8468986749649048,-0.009222728200256824,-0.3084849417209625
468.0,627.0,-0.2859,-0.2638,10.4507,-0.0713,0.2037,0.6474,-1.7632695637144984,-0.20023906230926514,2.2976675033569336,-1.9446603059768677,0.3978146016597748,2.6160011291503906,5.211529987841406,6.668724381597713e-05,0.24933570623397827,-1.6209233442889612,0.0005635324050672352,0.07637017965316772,0.84145587682724,0.7498162388801575,0.19334474205970764,0.8468506336212158,-0.008780505508184433,-0.34061962366104126
468.0,627.0,-0.2859,-0.2638,10.4507,-0.0713,0.2037,0.6474,-1.764402528802389,-0.19959251582622528,2.28902530670166,-1.9422146081924438,0.40912583470344543,2.6420979499816895,5.2115346668060205,5.8180845371680334e-05,0.24446576833724976,-1.6209076086627405,0.0005669514066539705,0.08461758494377136,0.845920205116272,0.742454469203949,0.22423234581947327,0.846810519695282,-0.007862492464482784,-0.33661529421806335
468.0,627.0,-0.2859,-0.2638,10.4507,-0.0713,0.2037,0.6474,-1.7656003437437953,-0.19874006509780884,2.328477144241333,-1.9397289752960205,0.41045308113098145,2.653191566467285,5.211466270476141,3.56369378096133e-06,0.2499479204416275,-1.6209877173053187,0.0003343507123645395,0.09213484823703766,0.8502762913703918,0.7243748307228088,0.21827754378318787,0.8467827439308167,-0.005102872848510742,-0.33542105555534363
468.0,627.0,-0.2859,-0.2638,10.4507,-0.0713,0.2037,0.6474,-1.7663608990111292,-0.20024901628494263,2.2896604537963867,-1.9380195140838623,0.4123571515083313,2.616118907928467,5.2114544091518304,1.5192586744205983e-08,0.23147882521152496,-1.6209638754474085,0.0002755811146926135,0.09013135731220245,0.8531739115715027,0.7171815633773804,0.20757444202899933,0.8467586636543274,-0.0038951875176280737,-0.313669890165329
468.0,627.0,-0.2859,-0.2638,10.4507,-0.0713,0.2037,0.6474,-1.7675219974913539,-0.19938233494758606,2.3182804584503174,-1.935494303703308,0.427165150642395,2.6421260833740234,5.211470353394308,4.228912792864081e-12,0.2507142424583435,-1.6209114233600062,0.00036587982322089374,0.09337376803159714,0.8573716878890991,0.7036014795303345,0.2197416126728058,0.8467387557029724,-0.004169113002717495,-0.29658979177474976
468.0,627.0,-0.2859,-0.2638,10.4507,-0.0713,0.2037,0.6474,-1.768679758111471,-0.19901438057422638,2.305727958679199,-1.932804822921753,0.43746745586395264,2.6420528888702393,5.211450266629019,1.177133333502326e-15,0.23761212825775146,-1.6208480040179651,0.0006630053394474089,0.10047413408756256,0.8615167737007141,0.6817814111709595,0.18636007606983185,0.8466705679893494,-0.005209633614867926,-0.3349105417728424
468.0,627.0,-0.2859,-0.2638,10.4507,-0.0713,0.2037,0.6474,-1.7698456249632777,-0.19427631795406342,2.3246142864227295,-1.9301632642745972,0.44836553931236267,2.668593645095825,5.211470353394308,3.2765937212447854e-19,0.21236562728881836,-1.6208952108966272,0.0008722951170057058,0.09872525185346603,0.8655883073806763,0.6680684685707092,0.19294145703315735,0.8466424345970154,-0.005520849023014307,-0.3655588626861572
468.0,627.0,-0.2859,-0.2638,10.4507,-0.0713,0.2037,0.6474,-1.7709905109801234,-0.19104497134685516,2.3360283374786377,-1.9274592399597168,0.4568362236022949,2.650911569595337,5.21148635724143,9.120519485352217e-23,0.21626566350460052,-1.6208918730365198,0.0007975565968081355,0.10474852472543716,0.8694258332252502,0.6360086798667908,0.18129199743270874,0.8466668128967285,-0.005670417565852404,-0.3746710419654846
468.0,627.0,-0.2859,-0.2638,10.4507,-0.0713,0.2037,0.6474,-1.7717553577818812,-0.18950219452381134,2.3046791553497314,-1.9256007671356201,0.4682188630104065,2.6944422721862793,5.21149046996192,3.8882202135293383e-25,0.2149742692708969,-1.620899502431051,0.0007377595757134259,0.08782292902469635,0.8720034956932068,0.637969970703125,0.19987741112709045,0.8466183543205261,-0.003967833239585161,-0.33751392364501953
468.0,627.0,-0.2859,-0.2638,10.4507,-0.0713,0.2037,0.6474,-1.7729135952391566,-0.19693663716316223,2.3001863956451416,-1.922811508178711,0.47718682885169983,2.676901340484619,5.211446124106207,1.0823002860020905e-28,0.2119232416152954,-1.6208880583392542,0.0006100541213527322,0.10503539443016052,0.8757529854774475,0.6125535368919373,0.17647406458854675,0.8466063141822815,-0.002121909288689494,-0.32446980476379395
468.0,627.0,-0.2859,-0.2638,10.4507,-0.0713,0.2037,0.6474,-1.774118562737936,-0.20326301455497742,2.3142857551574707,-1.9199585914611816,0.48731791973114014,2.644845485687256,5.21146251538352,-0.0005300206830725074,0.2173478603363037,-1.6208632628070276,0.0004636247758753598,0.09204195439815521,0.8793776631355286,0.6041066646575928,0.1976623237133026,0.8466224670410156,-0.0011465931311249733,-0.3338877260684967
370.0,392.0,-1.3298,0.195,8.9755,-0.0341,0.3282,0.3917,-1.7753483257689417,-0.20211666822433472,2.3263261318206787,-1.9169782400131226,0.4938133656978607,2.6852834224700928,5.211470353394308,-0.000606108398642391,0.19699454307556152,-1.6208799521075647,0.00043000001460313797,0.10423837602138519,0.8829787373542786,0.5757775902748108,0.1909833550453186,0.8466224670410156,-0.000741334748454392,-0.2950611114501953
370.0,392.0,-1.3298,0.195,8.9755,-0.0341,0.3282,0.3917,-1.7765704594054164,-0.2021988183259964,2.27166748046875,-1.9140180349349976,0.509493887424469,2.7014572620391846,5.2114261267478845,-0.00048575448454357684,0.2124149054288864,-1.6209200064288538,0.00040742408600635827,0.10819000005722046,0.8864437341690063,0.573492169380188,0.19665095210075378,0.846574068069458,-0.0005478372913785279,-0.35786405205726624
370.0,392.0,-1.3298,0.195,8.9755,-0.0341,0.3282,0.3917,-1.777815958062643,-0.20800161361694336,2.327089548110962,-1.9109407663345337,0.522222101688385,2.7280778884887695,5.211426096945562,-0.00040492232074029744,0.20315086841583252,-1.620875660573141,0.00034862669417634606,0.10909855365753174,0.8897454142570496,0.5489190816879272,0.16988442838191986,0.8466469049453735,-0.0004965296247974038,-0.33752167224884033
370.0,392.0,-1.3298,0.195,8.9755,-0.0341,0.3282,0.3917,-1.7786766491331996,-0.21896694600582123,2.2685928344726562,-1.9088716506958008,0.5216875672340393,2.6646370887756348,5.211374091892996,-0.0005425369599834085,0.19236944615840912,-1.620903793965475,0.0003178401093464345,0.10688115656375885,0.8918976783752441,0.5478108525276184,0.19924090802669525,0.8465985059738159,-0.00035479525104165077,-0.3451143503189087
370.0,392.0,-1.3298,0.195,8.9755,-0.0341,0.3282,0.3917,-1.7800146541991175,-0.23050229251384735,2.2503371238708496,-1.9056516885757446,0.5210472941398621,2.6879382133483887,5.211430597096243,-0.0033749754074960947,0.1987384855747223,-1.620892349873678,0.00022556108888238668,0.08906462788581848,0.8951510787010193,0.5344480872154236,0.19402757287025452,0.8465905785560608,-0.00114588369615376,-0.36033788323402405
370.0,392.0,-1.3298,0.195,8.9755,-0.0341,0.3282,0.3917,-1.781489988366598,-0.22799843549728394,2.2789206504821777,-1.9023799896240234,0.5311424136161804,2.669893503189087,5.2114023742969415,-0.0014542494900524616,0.20293526351451874,-1.6208561102496546,0.00019598117796704173,0.11276710033416748,0.8981497287750244,0.512491762638092,0.19050776958465576,0.8465459942817688,-0.001393888727761805,-0.33029383420944214
370.0,392.0,-1.3298,0.195,8.9755,-0.0341,0.3282,0.3917,-1.782891412774557,-0.22952990233898163,2.2459523677825928,-1.899181604385376,0.5429834127426147,2.7028603553771973,5.211382198124685,-0.0004070921568199992,0.19605109095573425,-1.6208952108966272,0.0001733300887281075,0.10688140988349915,0.9012355208396912,0.5024949908256531,0.18601077795028687,0.8465905785560608,-0.0010358741274103522,-0.3504905104637146
370.0,392.0,-1.3298,0.195,8.9755,-0.0341,0.3282,0.3917,-1.7843009434142054,-0.24216009676456451,2.228921890258789,-1.8959026336669922,0.5505520701408386,2.628203868865967,5.211406427412786,-0.00032125014695338905,0.1781691163778305,-1.6208561102496546,0.0001823273196350783,0.10193765163421631,0.904185950756073,0.4725554585456848,0.17387166619300842,0.8466150164604187,-0.0007465779199264944,-0.37127256393432617
370.0,392.0,-1.3298,0.195,8.9755,-0.0341,0.3282,0.3917,-1.7853270969786585,-0.2493295818567276,2.2555646896362305,-1.8937227725982666,0.550672173500061,2.624288320541382,5.211414176016607,-0.0009468541829846799,0.18469491600990295,-1.6208880583392542,0.0001743855536915362,0.10049943625926971,0.9060376882553101,0.48500198125839233,0.1936851441860199,0.8465785384178162,-0.0007855232106521726,-0.37534892559051514
370.0,392.0,-1.3298,0.195,8.9755,-0.0341,0.3282,0.3917,-1.7867685757079066,-0.24761776626110077,2.2004499435424805,-1.8904035091400146,0.5540018081665039,2.7036824226379395,5.211362200766363,-0.0018026846228167415,0.18410751223564148,-1.620899502431051,0.0001589964231243357,0.12222592532634735,0.9089276790618896,0.473834753036499,0.17128688097000122,0.8464978933334351,-0.0020942608825862408,-0.34959661960601807
370.0,392.0,-1.3298,0.195,8.9755,-0.0341,0.3282,0.3917,-1.7882715664305628,-0.24331840872764587,2.299293279647827,-1.887120246887207,0.5534371137619019,2.5869178771972656,5.211333918362417,-0.0025279689580202103,0.18518757820129395,-1.6208880583392542,0.00014609095524065197,0.1008189246058464,0.9116248488426208,0.44562727212905884,0.16759654879570007,0.8465464115142822,-0.0028610185254365206,-0.32386642694473267
370.0,392.0,-1.3298,0.195,8.9755,-0.0341,0.3282,0.3917,-1.7898222408690394,-0.25681015849113464,2.280691623687744,-1.8837792873382568,0.5643120408058167,2.659424304962158,5.211338507920065,-0.004064701031893492,0.1799689531326294,-1.6208799521075647,0.0001351233950117603,0.09356164932250977,0.9144410490989685,0.4439491331577301,0.17871510982513428,0.8465384244918823,-0.002606377238407731,-0.33413422107696533
370.0,392.0,-1.3298,0.195,8.9755,-0.0341,0.3282,0.3917,-1.7913395367064417,-0.26659801602363586,2.2835636138916016,-1.8805538415908813,0.5626770853996277,2.607989549636841,5.2113027451331995,-0.008194191381335258,0.16509321331977844,-1.620859448109762,0.00012302752293180674,0.09690715372562408,0.9170091152191162,0.42982611060142517,0.1460145115852356,0.8465306758880615,-0.0018188252579420805,-0.3139849901199341
370.0,392.0,-1.3298,0.195,8.9755,-0.0341,0.3282,0.3917,-1.7923575840392054,-0.2652716636657715,2.273897409439087,-1.87827467918396,0.5629605650901794,2.6897692680358887,5.211214530258932,-0.01107728574424982,0.16495248675346375,-1.620899502431051,0.00012008536577923223,0.08997504413127899,0.9187144637107849,0.4219731390476227,0.15902051329612732,0.8464578986167908,-0.0018315702909603715,-0.3217521905899048
370.0,392.0,-1.3298,0.195,8.9755,-0.0341,0.3282,0.3917,-1.7940079174437464,-0.26769816875457764,2.229048252105713,-1.8748878240585327,0.5552687644958496,2.6480531692504883,5.211203235178747,-0.012547302059829235,0.15686720609664917,-1.620903793965475,9.866581967798993e-05,0.10554321855306625,0.9213356971740723,0.4183293282985687,0.16777116060256958,0.8464986085891724,-0.0035154439974576235,-0.31508874893188477
370.0,392.0,-1.3298,0.195,8.9755,-0.0341,0.3282,0.3917,-1.7956139049925746,-0.274156779050827,2.2875659465789795,-1.8714473247528076,0.5569626688957214,2.606959342956543,5.211163061648168,-0.008869447745382786,0.16241464018821716,-1.6209319273578089,8.8299042545259e-05,0.11244694888591766,0.9238072633743286,0.4016636312007904,0.14542050659656525,0.8464788198471069,-0.004910641815513372,-0.33798128366470337
316.0,331.0,-1.1593,0.1172,8.9958,-0.0168,0.3009,0.2544,-1.7972361050047816,-0.2760898470878601,2.259406328201294,-1.8680530786514282,0.5623286962509155,2.656614303588867,5.211127298861303,-0.0036448806058615446,0.1634184718132019,-1.6209362188922327,8.33890080684796e-05,0.09678960591554642,0.9261060953140259,0.3963645100593567,0.15951506793498993,0.8463940024375916,-0.003939022775739431,-0.30958428978919983
316.0,331.0,-1.1593,0.1172,8.9958,-0.0168,0.3009,0.2544,-1.7988625965514125,-0.2765844166278839,2.2101573944091797,-1.8646982908248901,0.5614904761314392,2.6682798862457275,5.211059260159292,-0.001637485227547586,0.16142573952674866,-1.620899502431051,7.899718184489757e-05,0.09609167277812958,0.9284967184066772,0.3922644853591919,0.14822931587696075,0.8463658094406128,-0.00315239280462265,-0.28699734807014465
316.0,331.0,-1.1593,0.1172,8.9958,-0.0168,0.3009,0.2544,-1.8005138836302699,-0.27832409739494324,2.31063175201416,-1.86133873462677,0.5594205856323242,2.571462392807007,5.211099374085226,-0.0009606780367903411,0.15763217210769653,-1.620943848286764,7.504495442844927e-05,0.10014818608760834,0.9307874441146851,0.37823915481567383,0.15623986721038818,0.8463901877403259,-0.0028292632196098566,-0.3501248359680176
316.0,331.0,-1.1593,0.1172,8.9958,-0.0168,0.3009,0.2544,-1.801638742486471,-0.2826588749885559,2.3295540809631348,-1.8591225147247314,0.561265766620636,2.6554598808288574,5.211027312069692,-0.0012113675475120544,0.15890923142433167,-1.6209076086627405,7.262266444740817e-05,0.09104853868484497,0.9323462247848511,0.3677479922771454,0.1651778519153595,0.8463984131813049,-0.002508049365133047,-0.33303672075271606
316.0,331.0,-1.1593,0.1172,8.9958,-0.0168,0.3009,0.2544,-1.8033820591368617,-0.28858545422554016,2.2412099838256836,-1.855731725692749,0.559188187122345,2.621319055557251,5.211047369032659,-0.001624767086468637,0.15903541445732117,-1.620971981679098,6.92690591677092e-05,0.1060565710067749,0.9346211552619934,0.37750545144081116,0.1633572280406952,0.8463298082351685,-0.0022860346361994743,-0.3014296293258667
316.0,331.0,-1.1593,0.1172,8.9958,-0.0168,0.3009,0.2544,-1.805136343041891,-0.29782870411872864,2.2775659561157227,-1.8523883819580078,0.5644850134849548,2.6280999183654785,5.211083459645071,-0.0018580449977889657,0.14234359562397003,-1.6208718458758753,6.621141073992476e-05,0.09174538403749466,0.9368367791175842,0.3763448894023895,0.17535921931266785,0.8463863134384155,-0.0016435368452221155,-0.32319629192352295
316.0,331.0,-1.1593,0.1172,8.9958,-0.0168,0.3009,0.2544,-1.8069426021971644,-0.2977994382381439,2.273662805557251,-1.8490333557128906,0.5673241019248962,2.6596240997314453,5.211011338024893,-0.0012386506423354149,0.15023143589496613,-1.6208880583392542,6.341227708617225e-05,0.09674786031246185,0.9389839768409729,0.35724231600761414,0.1672876626253128,0.8463218808174133,-0.0013145932462066412,-0.3119692802429199
316.0,331.0,-1.1593,0.1172,8.9958,-0.0168,0.3009,0.2544,-1.808758398095602,-0.3004997670650482,2.350083351135254,-1.845659852027893,0.563252866268158,2.6725549697875977,5.211010980397024,-0.0008136004325933754,0.15936514735221863,-1.6209600607501429,6.084031701902859e-05,0.09169560670852661,0.9412550330162048,0.3742128014564514,0.17369529604911804,0.846333920955658,-0.001865437370724976,-0.29716554284095764
316.0,331.0,-1.1593,0.1172,8.9958,-0.0168,0.3009,0.2544,-1.8100635013976039,-0.30980077385902405,2.3260369300842285,-1.8433438539505005,0.5582961440086365,2.6526994705200195,5.211007225304403,-0.0008624235633760691,0.1543470323085785,-1.620903793965475,5.9238467656541616e-05,0.08928587287664413,0.9427545070648193,0.3674125671386719,0.18045487999916077,0.846350371837616,-0.0023609385825693607,-0.3322716951370239
316.0,331.0,-1.1593,0.1172,8.9958,-0.0168,0.3009,0.2544,-1.8120066128172816,-0.3211100697517395,2.2989847660064697,-1.8399370908737183,0.5557082295417786,2.618710517883301,5.211063819914617,-0.001049220678396523,0.1527208834886551,-1.6209800879107874,2.268102798552718e-05,0.09136521816253662,0.9448973536491394,0.3493926525115967,0.15427559614181519,0.8463301062583923,-0.0019018292659893632,-0.3565783202648163
316.0,331.0,-1.1593,0.1172,8.9958,-0.0168,0.3009,0.2544,-1.8139244518675746,-0.3240511417388916,2.2706775665283203,-1.8365545272827148,0.5595964193344116,2.5899600982666016,5.211067455797949,-0.0006328030140139163,0.14596645534038544,-1.620903793965475,6.401425878266309e-08,0.10003134608268738,0.946985125541687,0.36035284399986267,0.18427611887454987,0.8463141322135925,-0.0014082655543461442,-0.3262256681919098
316.0,331.0,-1.1593,0.1172,8.9958,-0.0168,0.3009,0.2544,-1.8159638843932093,-0.33933213353157043,2.291309356689453,-1.8332793712615967,0.557960569858551,2.668828010559082,5.211047369032659,-0.00048406224232167006,0.13836601376533508,-1.6208913961993616,1.781860596572482e-11,0.09680875390768051,0.9491854310035706,0.35939279198646545,0.1700262725353241,0.8463264107704163,-0.0010627023875713348,-0.3199104368686676
316.0,331.0,-1.1593,0.1172,8.9958,-0.0168,0.3009,0.2544,-1.818071027795309,-0.34360238909721375,2.3281450271606445,-1.8299283981323242,0.5568997263908386,2.6632239818573,5.211019146233358,-0.0004448099934961647,0.1463780403137207,-1.6208952108966272,4.9598742674810195e-15,0.09900419414043427,0.9513847827911377,0.35486918687820435,0.15202844142913818,0.8462619185447693,-0.0025940649211406708,-0.2814871668815613
316.0,331.0,-1.1593,0.1172,8.9958,-0.0168,0.3009,0.2544,-1.8201543293394984,-0.34426939487457275,2.3093457221984863,-1.8265974521636963,0.5545090436935425,2.6508607864379883,5.211063790112295,-0.00036713603185489774,0.14475609362125397,-1.6209357420550745,1.3805990805391538e-18,0.10113057494163513,0.9534687995910645,0.3494923710823059,0.16367799043655396,0.8462861776351929,-0.00416828878223896,-0.29124897718429565
316.0,331.0,-1.1593,0.1172,8.9958,-0.0168,0.3009,0.2544,-1.821508070031637,-0.35370901226997375,2.366885185241699,-1.8243945837020874,0.5484042763710022,2.6272547245025635,5.211011338024893,-0.000351712922565639,0.15395081043243408,-1.6209357420550745,5.885710348464086e-21,0.0788055956363678,0.9549077153205872,0.363089919090271,0.18367326259613037,0.8462663292884827,-0.003910031169652939,-0.2760211229324341
316.0,331.0,-1.1593,0.1172,8.9958,-0.0168,0.3009,0.2544,-1.8236471615233363,-0.35669881105422974,2.2999730110168457,-1.8211522102355957,0.5487589836120605,2.6206111907958984,5.2110637603099725,-0.00032488134456798434,0.142006978392601,-1.6209514776812952,1.6383089903685524e-24,0.10097458213567734,0.9570435285568237,0.3650498390197754,0.18446224927902222,0.8462421298027039,-0.003598532173782587,-0.2611849009990692
285.0,302.0,-1.3442,0.1675,9.1107,-0.0551,0.1875,0.2563,-1.8257786236205042,-0.3622308075428009,2.313467025756836,-1.8178540468215942,0.5473623871803284,2.63197922706604,5.211067455797949,-0.00028614356415346265,0.15450367331504822,-1.6209080854998987,4.560293478035386e-28,0.0775064080953598,0.9591270089149475,0.3467006981372833,0.17112164199352264,0.846230149269104,-0.0031139208003878593,-0.25177255272865295
285.0,302.0,-1.3442,0.1675,9.1107,-0.0551,0.1875,0.2563,-1.827909608880514,-0.36648374795913696,2.349717855453491,-1.8146324157714844,0.5406590104103088,2.652179002761841,5.211035448103704,-0.0002559203712735325,0.1534803956747055,-1.6209161917315882,1.269374384304664e-31,0.07756169885396957,0.9613469243049622,0.375235915184021,0.1986595094203949,0.8461980223655701,-0.003506193868815899,-0.2564971446990967
285.0,302.0,-1.3442,0.1675,9.1107,-0.0551,0.1875,0.2563,-1.8301531277098597,-0.3691709041595459,2.3806025981903076,-1.8113417625427246,0.5334421396255493,2.667496681213379,5.211059677391805,-0.00015702718519605696,0.15279100835323334,-1.620943848286764,3.533350912649853e-35,0.07419310510158539,0.9635698199272156,0.37320542335510254,0.18725556135177612,0.8461499214172363,-0.005782042630016804,-0.2870981991291046
285.0,302.0,-1.3442,0.1675,9.1107,-0.0551,0.1875,0.2563,-1.8315545521178187,-0.37176066637039185,2.3187851905822754,-1.8091648817062378,0.5314515829086304,2.591637134552002,5.211043286114492,-0.00011939102842006832,0.1541731357574463,-1.6209076086627405,1.5063228695251563e-37,0.08411823213100433,0.9650439023971558,0.3697866201400757,0.19568747282028198,0.8460854291915894,-0.00607544369995594,-0.25641241669654846
285.0,302.0,-1.3442,0.1675,9.1107,-0.0551,0.1875,0.2563,-1.8338023624815882,-0.37472042441368103,2.448734998703003,-1.8059442043304443,0.5347623229026794,2.6580631732940674,5.211039113789358,-9.51290930970572e-05,0.15847204625606537,-1.6208952108966272,4.1929652649527176e-41,0.09506745636463165,0.9672034978866577,0.37083813548088074,0.20244669914245605,0.8461259603500366,-0.006227284204214811,-0.31157493591308594
285.0,302.0,-1.3442,0.1675,9.1107,-0.0551,0.1875,0.2563,-1.8360582790770472,-0.37974828481674194,2.3577091693878174,-1.8027819395065308,0.531968355178833,2.6897411346435547,5.211079376726904,-9.81900593615137e-05,0.15566690266132355,-1.620899502431051,1.1210387714598537e-44,0.07101185619831085,0.9695472717285156,0.3887920677661896,0.17771685123443604,0.8460742831230164,-0.006729099899530411,-0.21300704777240753
285.0,302.0,-1.3442,0.1675,9.1107,-0.0551,0.1875,0.2563,-1.838301797906393,-0.37675896286964417,2.3762729167938232,-1.7996636629104614,0.5311835408210754,2.6261072158813477,5.211107629328527,-6.846778705948964e-05,0.1593291163444519,-1.6209161917315882,0.0,0.08358317613601685,0.9719626307487488,0.39664679765701294,0.19885414838790894,0.8460301756858826,-0.008004909381270409,-0.2509806752204895
285.0,302.0,-1.3442,0.1675,9.1107,-0.0551,0.1875,0.2563,-1.8405968151488246,-0.38071975111961365,2.361889600753784,-1.796425700187683,0.5344765186309814,2.650132656097412,5.211079376726904,-6.32872324786149e-05,0.16572073101997375,-1.6209400335894983,0.0,0.07870741933584213,0.9742448925971985,0.3987480103969574,0.21167749166488647,0.8459258079528809,-0.008883056230843067,-0.22800832986831665
285.0,302.0,-1.3442,0.1675,9.1107,-0.0551,0.1875,0.2563,-1.8421474895873011,-0.38629335165023804,2.404620885848999,-1.7943215370178223,0.531996488571167,2.6507534980773926,5.211115437536993,5.499364488059655e-05,0.16855204105377197,-1.6209076086627405,0.0,0.07754005491733551,0.9759553670883179,0.41391679644584656,0.20514976978302002,0.8459099531173706,-0.009962545707821846,-0.2831912636756897
285.0,302.0,-1.3442,0.1675,9.1107,-0.0551,0.1875,0.2563,-1.8445459804930628,-0.3826817572116852,2.453178882598877,-1.7911102771759033,0.5360661149024963,2.7002310752868652,5.211115348130026,8.256061119027436e-05,0.1652994304895401,-1.6209238211261194,0.0,0.07504767179489136,0.9784850478172302,0.42339465022087097,0.22425416111946106,0.8459142446517944,-0.010529152117669582,-0.21828342974185944
285.0,302.0,-1.3442,0.1675,9.1107,-0.0551,0.1875,0.2563,-1.846968790093893,-0.3925871253013611,2.454437255859375,-1.7879087924957275,0.5378293991088867,2.6342272758483887,5.211087453156271,0.00010870344704017043,0.1756826937198639,-1.620903793965475,0.0,0.0673641562461853,0.9809595942497253,0.4191642105579376,0.21202364563941956,0.845829963684082,-0.010783668607473373,-0.19705107808113098
285.0,302.0,-1.3442,0.1675,9.1107,-0.0551,0.1875,0.2563,-1.8493510685362757,-0.3978542685508728,2.4244394302368164,-1.7847729921340942,0.5378214716911316,2.6067564487457275,5.211063015251913,7.317105337278917e-05,0.16657328605651855,-1.6209238211261194,0.0,0.06875589489936829,0.9835887551307678,0.4335518181324005,0.21597301959991455,0.8457660675048828,-0.011157847940921783,-0.2020164579153061
285.0,302.0,-1.3442,0.1675,9.1107,-0.0551,0.1875,0.2563,-1.8518225155272425,-0.4030578136444092,2.4467599391937256,-1.7815014123916626,0.5280139446258545,2.6725881099700928,5.211079376726904,5.844255065312609e-05,0.18186187744140625,-1.6209357420550745,0.0,0.061166033148765564,0.9861549139022827,0.4316416382789612,0.21224810183048248,0.8456899523735046,-0.01226635742932558,-0.19705262780189514
285.0,302.0,-1.3442,0.1675,9.1107,-0.0551,0.1875,0.2563,-1.854260107079977,-0.4153995215892792,2.517411708831787,-1.7783433198928833,0.5227077007293701,2.625352144241333,5.211075264006414,3.0143508411129005e-05,0.1724713295698166,-1.6209281126605433,0.0,0.054254401475191116,0.9888531565666199,0.4467694163322449,0.22788673639297485,0.8455936312675476,-0.013470172882080078,-0.1957918405532837
285.0,302.0,-1.3442,0.1675,9.1107,-0.0551,0.1875,0.2563,-1.8558598957457484,-0.4172939360141754,2.448664426803589,-1.7761991024017334,0.5214340686798096,2.6098954677581787,5.211091625481405,5.192928438191302e-05,0.17797249555587769,-1.620875660573141,0.0,0.06315870583057404,0.9905162453651428,0.4479999244213104,0.2264249324798584,0.8455615639686584,-0.0141025111079216,-0.23614293336868286
285.0,302.0,-1.3442,0.1675,9.1107,-0.0551,0.1875,0.2563,-1.8583656750121058,-0.42124661803245544,2.5037670135498047,-1.7731212377548218,0.5205922722816467,2.6257619857788086,5.211071181088247,4.444688602234237e-05,0.17548200488090515,-1.6208394209491175,0.0,0.07147854566574097,0.9932705163955688,0.4471481740474701,0.21121326088905334,0.8454130291938782,-0.015189655125141144,-0.20144972205162048
269.0,291.0,-1.1551,0.7388,9.0927,-0.0521,0.1286,0.3822,-1.8608080349364222,-0.4171734154224396,2.481522798538208,-1.7699569463729858,0.5234261155128479,2.6686930656433105,5.2111112652118585,7.673012441955507e-05,0.1804780662059784,-1.6209481398211878,0.0,0.06016599386930466,0.9960317611694336,0.4649297595024109,0.22961607575416565,0.8453896045684814,-0.016405001282691956,-0.19013023376464844
269.0,291.0,-1.1551,0.7388,9.0927,-0.0521,0.1286,0.3822,-1.8632546863951625,-0.41303136944770813,2.5342628955841064,-1.7668684720993042,0.5244845151901245,2.6344451904296875,5.211083310633459,0.00010281459981342778,0.17795196175575256,-1.6208871046649378,0.0,0.054414913058280945,0.9988009333610535,0.4730340242385864,0.23874498903751373,0.8452531099319458,-0.01789080537855625,-0.2146979570388794
269.0,291.0,-1.1551,0.7388,9.0927,-0.0521,0.1286,0.3822,-1.86574186901235,-0.4086707830429077,2.4875285625457764,-1.7637436389923096,0.5246710777282715,2.602597713470459,5.211103457003393,9.230551222572103e-05,0.1764211803674698,-1.6209319273578089,0.0,0.07001819461584091,1.0016015768051147,0.4692452549934387,0.241979718208313,0.845145046710968,-0.01796845905482769,-0.18302015960216522
269.0,291.0,-1.1551,0.7388,9.0927,-0.0521,0.1286,0.3822,-1.867392202416891,-0.41428348422050476,2.529702663421631,-1.7616499662399292,0.5235806703567505,2.6253504753112793,5.211071121483602,8.639736915938556e-05,0.17946021258831024,-1.620955769215719,0.0,0.05595137178897858,1.003581166267395,0.4896880090236664,0.23547077178955078,0.8450812697410583,-0.017933573573827744,-0.21555709838867188
269.0,291.0,-1.1551,0.7388,9.0927,-0.0521,0.1286,0.3822,-1.8698183498778285,-0.41361382603645325,2.53578782081604,-1.7584822177886963,0.5241872072219849,2.657500743865967,5.211043286114492,7.88292454672046e-05,0.18093878030776978,-1.6209076086627405,0.0,0.057531580328941345,1.0065326690673828,0.4944854974746704,0.24143683910369873,0.8449888825416565,-0.016674714162945747,-0.21755246818065643
269.0,291.0,-1.1551,0.7388,9.0927,-0.0521,0.1286,0.3822,-1.872458120385641,-0.4247843623161316,2.5245344638824463,-1.75534188747406,0.5301164984703064,2.6891918182373047,5.2111075697238824,7.248039037222043e-05,0.18907108902931213,-1.620899502431051,0.0,0.05693582072854042,1.0095505714416504,0.512615978717804,0.26215025782585144,0.8448688387870789,-0.016124382615089417,-0.2264692783355713
269.0,291.0,-1.1551,0.7388,9.0927,-0.0521,0.1286,0.3822,-1.875023981133932,-0.42367449402809143,2.621678352355957,-1.7522144317626953,0.5284239649772644,2.670269012451172,5.211099374085226,7.283713785000145e-05,0.17836567759513855,-1.6209481398211878,0.0,0.05924632027745247,1.012764811515808,0.5304546356201172,0.26864174008369446,0.844785213470459,-0.018289806321263313,-0.18592771887779236
269.0,291.0,-1.1551,0.7388,9.0927,-0.0521,0.1286,0.3822,-1.8776303730406703,-0.4245542883872986,2.55430006980896,-1.7488939762115479,0.5286983847618103,2.691326379776001,5.211119460850515,8.319534390466288e-05,0.17182420194149017,-1.6209119001971644,0.0,0.06269985437393188,1.0159164667129517,0.53249591588974,0.2645416259765625,0.8446005582809448,-0.021158525720238686,-0.20578579604625702
269.0,291.0,-1.1551,0.7388,9.0927,-0.0521,0.1286,0.3822,-1.8792649708189906,-0.43039175868034363,2.613210678100586,-1.7468204498291016,0.5301781296730042,2.6340761184692383,5.211127745896139,0.00017777192988432944,0.1823512315750122,-1.6209481398211878,0.0,0.06793539971113205,1.0180355310440063,0.5461366176605225,0.23498289287090302,0.8446050882339478,-0.0205160491168499,-0.20186519622802734
269.0,291.0,-1.1551,0.7388,9.0927,-0.0521,0.1286,0.3822,-1.8819152317442835,-0.42577558755874634,2.5672550201416016,-1.7434844970703125,0.5356026887893677,2.69602108001709,5.211103129177847,0.0007372474065050483,0.1840704083442688,-1.6209319273578089,0.0,0.04388606175780296,1.0213099718093872,0.5498249530792236,0.23977884650230408,0.8444808125495911,-0.019630026072263718,-0.155458465218544
269.0,291.0,-1.1551,0.7388,9.0927,-0.0521,0.1286,0.3822,-1.8844663105406703,-0.43315184116363525,2.6059563159942627,-1.7403490543365479,0.5347645878791809,2.665452718734741,5.211091208248892,0.0005272986018098891,0.18960577249526978,-1.6209314505206507,0.0,0.06635884195566177,1.0246964693069458,0.5712972283363342,0.24049490690231323,0.8443442583084106,-0.018772359937429428,-0.23148605227470398
269.0,291.0,-1.1551,0.7388,9.0927,-0.0521,0.1286,0.3822,-1.8870684109129847,-0.43367987871170044,2.6269917488098145,-1.7371889352798462,0.5323692560195923,2.652078151702881,5.211099374085226,0.00014923101116437465,0.18283018469810486,-1.6209400335894983,0.0,0.04573528468608856,1.0281107425689697,0.5669143795967102,0.2298559993505478,0.8442202806472778,-0.020513121038675308,-0.20771080255508423
269.0,291.0,-1.1551,0.7388,9.0927,-0.0521,0.1286,0.3822,-1.8896385631956996,-0.43920937180519104,2.6016242504119873,-1.734009027481079,0.533720076084137,2.634655475616455,5.211143302708425,9.650470747146755e-05,0.17997394502162933,-1.6209400335894983,0.0,0.052848171442747116,1.031564712524414,0.5851619243621826,0.2571478486061096,0.8440763354301453,-0.022778945043683052,-0.2575662434101105
269.0,291.0,-1.1551,0.7388,9.0927,-0.0521,0.1286,0.3822,-1.8921648464598597,-0.4354819059371948,2.6127381324768066,-1.730822205543518,0.5350062251091003,2.6383914947509766,5.21109904625968,7.299279241124168e-05,0.1881340891122818,-1.6209242979632776,0.0,0.06328805536031723,1.0351388454437256,0.5816389918327332,0.23218166828155518,0.8439321517944336,-0.024856775999069214,-0.21088628470897675
269.0,291.0,-1.1551,0.7388,9.0927,-0.0521,0.1286,0.3822,-1.8938881359496058,-0.4330512285232544,2.635232448577881,-1.7286195755004883,0.5403473973274231,2.6994118690490723,5.2111031887824915,6.279838271439075e-05,0.17299149930477142,-1.6209319273578089,0.0,0.05162331461906433,1.0374337434768677,0.595790684223175,0.25463050603866577,0.8438281416893005,-0.026829412207007408,-0.2115802764892578
269.0,291.0,-1.1551,0.7388,9.0927,-0.0521,0.1286,0.3822,-1.8964830837645472,-0.42813268303871155,2.6262001991271973,-1.7255005836486816,0.5405067801475525,2.645428419113159,5.211107212096014,5.192340904613957e-05,0.1759975552558899,-1.6209281126605433,0.0,0.04575330764055252,1.041059136390686,0.5983563661575317,0.23282772302627563,0.8436601161956787,-0.030238855630159378,-0.25394558906555176
269.0,291.0,-1.1551,0.7388,9.0927,-0.0521,0.1286,0.3822,-1.8990007839598597,-0.42975395917892456,2.639620780944824,-1.7222195863723755,0.5427773594856262,2.640235424041748,5.211135464697637,4.426022132975049e-05,0.17532417178153992,-1.6209076086627405,0.0,0.050022758543491364,1.0446066856384277,0.6046798229217529,0.2563059628009796,0.843540370464325,-0.032092150300741196,-0.22108682990074158
253.0,268.0,-1.1737,0.8267,8.997,-0.0279,0.1089,0.4281,-1.9016081295409144,-0.42315664887428284,2.650196075439453,-1.7189275026321411,0.5388791561126709,2.6683053970336914,5.211087095528402,3.856839975924231e-05,0.17398905754089355,-1.6208952108966272,0.0,0.06990401446819305,1.0482187271118164,0.5970854759216309,0.22137250006198883,0.8432836532592773,-0.03567107021808624,-0.2606968879699707
253.0,268.0,-1.1737,0.8267,8.997,-0.0279,0.1089,0.4281,-1.9042540989317835,-0.43245574831962585,2.664881467819214,-1.715664029121399,0.5377810001373291,2.6275196075439453,5.211091178446569,3.417413972783834e-05,0.17616742849349976,-1.6209161917315882,0.0,0.04923439770936966,1.0517385005950928,0.6032720804214478,0.24057744443416595,0.8431079983711243,-0.03852812945842743,-0.25854891538619995
253.0,268.0,-1.1737,0.8267,8.997,-0.0279,0.1089,0.4281,-1.9059721432127894,-0.42947307229042053,2.690314769744873,-1.7134873867034912,0.5426692366600037,2.6716792583465576,5.2111273286636255,6.323787238216028e-05,0.18318498134613037,-1.6209200064288538,0.0,0.059439096599817276,1.0541428327560425,0.6026690602302551,0.22064420580863953,0.8428995013237,-0.04063357785344124,-0.24491286277770996
253.0,268.0,-1.1737,0.8267,8.997,-0.0279,0.1089,0.4281,-1.9085589847960414,-0.42885246872901917,2.6904897689819336,-1.7101951837539673,0.5465162396430969,2.6512584686279297,5.211147326021948,8.612788224127144e-05,0.17220351099967957,-1.6209362188922327,0.0,0.044126540422439575,1.057790994644165,0.5937859416007996,0.232219398021698,0.8426513671875,-0.04614802449941635,-0.23531532287597656
253.0,268.0,-1.1737,0.8267,8.997,-0.0279,0.1089,0.4281,-1.9112287960448207,-0.42919865250587463,2.715061664581299,-1.7070238590240479,0.5475260615348816,2.649364471435547,5.211111026793279,7.863331120461226e-05,0.18761283159255981,-1.6209161917315882,0.0,0.05592183396220207,1.061349630355835,0.5975341796875,0.21495038270950317,0.842391312122345,-0.05360638350248337,-0.26190611720085144
253.0,268.0,-1.1737,0.8267,8.997,-0.0279,0.1089,0.4281,-1.9138065777220667,-0.42397671937942505,2.6979565620422363,-1.7037203311920166,0.5522501468658447,2.7018086910247803,5.211103129177847,7.231451309053227e-05,0.180861234664917,-1.6209281126605433,0.0,0.062390461564064026,1.0649354457855225,0.598371684551239,0.251964271068573,0.8420385122299194,-0.05675789713859558,-0.26253700256347656
253.0,268.0,-1.1737,0.8267,8.997,-0.0279,0.1089,0.4281,-1.916380067864889,-0.4282248616218567,2.7851338386535645,-1.700515627861023,0.5484714508056641,2.645423412322998,5.2111112652118585,6.693599425489083e-05,0.18506896495819092,-1.620875660573141,0.0,0.04922083765268326,1.0684294700622559,0.5954646468162537,0.2237296998500824,0.841661810874939,-0.05624692142009735,-0.25149092078208923
253.0,268.0,-1.1737,0.8267,8.997,-0.0279,0.1089,0.4281,-1.9189945660033167,-0.4302383363246918,2.7798104286193848,-1.6971633434295654,0.5483893752098083,2.6786937713623047,5.211107599526205,-0.0002490188635420054,0.16693323850631714,-1.6209161917315882,0.0,0.06017488241195679,1.0720102787017822,0.5989034175872803,0.23743519186973572,0.841353714466095,-0.05355491116642952,-0.21943187713623047
253.0,268.0,-1.1737,0.8267,8.997,-0.0279,0.1089,0.4281,-1.9207335911192835,-0.4358055889606476,2.731029748916626,-1.6949431896209717,0.5463098883628845,2.65126633644104,5.211091655283727,-0.00011158600682392716,0.1750790774822235,-1.6208871046649378,0.0,0.05362219363451004,1.0744619369506836,0.597028374671936,0.23277229070663452,0.8411540985107422,-0.051012925803661346,-0.22457098960876465
253.0,268.0,-1.1737,0.8267,8.997,-0.0279,0.1089,0.4281,-1.9232436619200648,-0.4356972277164459,2.772757053375244,-1.691723108291626,0.5532585382461548,2.657871723175049,5.211107212096014,-3.1060377381209037e-08,0.18025392293930054,-1.620871369038717,0.0,0.059328287839889526,1.077913522720337,0.5852332711219788,0.22942164540290833,0.8407976627349854,-0.048793114721775055,-0.2028122991323471
