ramyac6/ROB537/final_project/csv/all/bad_25.csv
tof_0,tof_1,accelx,accely,accelz,gyrox,gyroy,gyroz,shoulder_lift_joint_position,shoulder_lift_joint_velocity,shoulder_lift_joint_effort,elbow_joint_position,elbow_joint_velocity,elbow_joint_effort,wrist_1_joint_position,wrist_1_joint_velocity,wrist_1_joint_effort,wrist_2_joint_position,wrist_2_joint_velocity,wrist_2_joint_effort,wrist_3_joint_position,wrist_3_joint_velocity,wrist_3_joint_effort,shoulder_pan_joint_position,shoulder_pan_joint_velocity,shoulder_pan_joint_effort
223.0,285.0,3.5539,-0.4379,8.6656,-0.0371,0.0194,-0.1156,-1.665215631524557,0.0,2.560850143432617,-1.656080961227417,-0.0,2.182427406311035,4.499302073115967,-0.0,0.28515610098838806,-1.3727062384234827,0.0,-0.03139141947031021,0.4837062358856201,-0.0,-0.0015695784240961075,1.208390474319458,0.0,0.024501681327819824
223.0,285.0,3.5539,-0.4379,8.6656,-0.0371,0.0194,-0.1156,-1.6652199230589808,0.0,2.556027889251709,-1.6561130285263062,-0.0,2.1210684776306152,4.499262018794678,-0.0,0.27954888343811035,-1.3727501074420374,0.0,-0.04149388521909714,0.4837021231651306,-0.0,-0.0005939009133726358,1.208390474319458,0.0,-0.010882746428251266
223.0,285.0,3.5539,-0.4379,8.6656,-0.0371,0.0194,-0.1156,-1.6652513943114222,0.0,2.5845947265625,-1.6560609340667725,-0.0,2.185004234313965,4.499241991634033,-0.0,0.2837342619895935,-1.3727462927447718,0.0,-0.03166327625513077,0.4837222099304199,-0.0,-0.0045653535053133965,1.2083741426467896,0.0,0.007547266315668821
223.0,285.0,3.5539,-0.4379,8.6656,-0.0371,0.0194,-0.1156,-1.665231843987936,0.0,2.623300075531006,-1.656044840812683,-0.0,2.1596643924713135,4.499265833491943,-0.0,0.28164142370224,-1.3727343718158167,0.0,-0.024325240403413773,0.4837181866168976,-0.0,-0.00010013731662184,1.2083581686019897,0.0,-0.037449561059474945
223.0,285.0,3.5539,-0.4379,8.6656,-0.0371,0.0194,-0.1156,-1.665255685845846,0.0,2.558964252471924,-1.656052589416504,-0.0,2.2028915882110596,4.49929062902417,-0.0,0.2884211540222168,-1.372742001210348,0.0,-0.031213359907269478,0.48369428515434265,-0.0,-0.007156210020184517,1.2083381414413452,0.0,0.022952059283852577
223.0,285.0,3.5539,-0.4379,8.6656,-0.0371,0.0194,-0.1156,-1.6652399502196253,0.0,2.596893310546875,-1.656072735786438,-0.0,2.1811487674713135,4.499298258418701,-0.0,0.2826072573661804,-1.3727343718158167,0.0,-0.02614905685186386,0.48373866081237793,-0.0,-0.0013012607814744115,1.2083741426467896,0.0,-0.018796732649207115
223.0,285.0,3.5539,-0.4379,8.6656,-0.0371,0.0194,-0.1156,-1.6652761898436488,0.0,2.583225727081299,-1.6561048030853271,-0.0,2.1680479049682617,4.499310656184814,-0.0,0.28376588225364685,-1.3727105299579065,0.0,-0.027975350618362427,0.4836861789226532,-0.0,0.00528430100530386,1.208390474319458,0.0,-0.02685919776558876
223.0,285.0,3.5539,-0.4379,8.6656,-0.0371,0.0194,-0.1156,-1.6652394733824671,0.0,2.610942840576172,-1.6560567617416382,-0.0,2.2286486625671387,4.499262018794678,-0.0,0.2919410467147827,-1.3727143446551722,0.0,-0.036696694791316986,0.4836618900299072,-0.0,-0.006304697599261999,1.208350419998169,0.0,-0.057807326316833496
223.0,285.0,3.5539,-0.4379,8.6656,-0.0371,0.0194,-0.1156,-1.6652637920775355,0.0,2.5512197017669678,-1.6561007499694824,-0.0,2.149596929550171,4.499306364650391,-0.0,0.29457563161849976,-1.372742001210348,0.0,-0.021968724206089973,0.48369431495666504,-0.0,0.014003959484398365,1.2083663940429688,0.0,0.01006747130304575
221.0,288.0,3.5282,-0.4038,8.7242,-0.0406,0.0221,-0.1141,-1.6652637920775355,0.0,2.6245954036712646,-1.6561089754104614,-0.0,2.1901636123657227,4.499330206508301,-0.0,0.28328579664230347,-1.3727105299579065,0.0,-0.011268357746303082,0.48369792103767395,-0.0,0.0009942271281033754,1.2084143161773682,0.0,-0.012158779427409172
221.0,288.0,3.5282,-0.4038,8.7242,-0.0406,0.0221,-0.1141,-1.665243764916891,0.0,2.529125213623047,-1.6560934782028198,-0.0,2.1405045986175537,4.499270125026367,-0.0,0.3071695864200592,-1.3727300802813929,0.0,-0.014011826366186142,0.48375868797302246,-0.0,0.0024338511284440756,1.2084064483642578,0.0,0.05220281705260277
221.0,288.0,3.5282,-0.4038,8.7242,-0.0406,0.0221,-0.1141,-1.6652513943114222,0.0,2.5901272296905518,-1.6561377048492432,-0.0,2.1686959266662598,4.499274416560791,-0.0,0.29781627655029297,-1.372702423726217,0.0,-0.027297472581267357,0.4836902320384979,-0.0,-0.019680719822645187,1.2083783149719238,0.0,0.010726584121584892
221.0,288.0,3.5282,-0.4038,8.7242,-0.0406,0.0221,-0.1141,-1.6652237377562464,0.0,2.58990740776062,-1.6560852527618408,-0.0,2.1692707538604736,4.499274416560791,-0.0,0.2958640158176422,-1.3727105299579065,0.0,-0.019792895764112473,0.483742356300354,-0.0,-0.016435742378234863,1.208402395248413,0.0,-0.009238454513251781
221.0,288.0,3.5282,-0.4038,8.7242,-0.0406,0.0221,-0.1141,-1.6652118168272914,0.0,2.557619094848633,-1.656072735786438,-0.0,2.16908860206604,4.499278708095215,-0.0,0.29576390981674194,-1.372702423726217,0.0,-0.02944643422961235,0.4837546944618225,-0.0,-0.007869563065469265,1.2084187269210815,0.0,-0.032833267003297806
221.0,288.0,3.5282,-0.4038,8.7242,-0.0406,0.0221,-0.1141,-1.6652361355223597,0.0,2.569070816040039,-1.6560449600219727,-0.0,2.1980743408203125,4.49929062902417,-0.0,0.292289674282074,-1.372702423726217,0.0,-0.014610538259148598,0.48372218012809753,-0.0,-0.003359992755576968,1.2084027528762817,0.0,-0.006880537606775761
221.0,288.0,3.5282,-0.4038,8.7242,-0.0406,0.0221,-0.1141,-1.6652118168272914,0.0,2.5808286666870117,-1.656080961227417,-0.0,2.16129207611084,4.499270125026367,-0.0,0.28248995542526245,-1.3727620283709925,0.0,-0.024956371635198593,0.4837505519390106,-0.0,-0.006189367268234491,1.208390474319458,0.0,0.03714017570018768
221.0,288.0,3.5282,-0.4038,8.7242,-0.0406,0.0221,-0.1141,-1.6652800045409144,0.0,2.5596978664398193,-1.6561172008514404,-0.0,2.1598105430603027,4.49928252279248,-0.0,0.2903308570384979,-1.3727143446551722,0.0,-0.011002607643604279,0.48369428515434265,-0.0,-0.006573684513568878,1.2083864212036133,0.0,-0.013286709785461426
221.0,288.0,3.5282,-0.4038,8.7242,-0.0406,0.0221,-0.1141,-1.6652480564513148,0.0,2.587055206298828,-1.656080961227417,-0.0,2.188687324523926,4.499258204097412,-0.0,0.30012524127960205,-1.3727224508868616,0.0,-0.036121491342782974,0.48369836807250977,-0.0,0.011703424155712128,1.2083216905593872,0.0,0.0019452448468655348
221.0,288.0,3.5282,-0.4038,8.7242,-0.0406,0.0221,-0.1141,-1.6652237377562464,0.0,2.582672357559204,-1.6560407876968384,-0.0,2.1987993717193604,4.499302073115967,-0.0,0.28164759278297424,-1.372765843068258,0.0,-0.023529183119535446,0.48371437191963196,-0.0,-0.009459314867854118,1.208354115486145,0.0,-0.07070420682430267
221.0,288.0,3.5282,-0.4038,8.7242,-0.0406,0.0221,-0.1141,-1.6652599773802699,0.0,2.5862016677856445,-1.6560646295547485,-0.0,2.1853244304656982,4.499302073115967,-0.0,0.2912760376930237,-1.3727300802813929,0.0,-0.03941831365227699,0.4836779534816742,-0.0,-0.00830575916916132,1.208362340927124,0.0,0.011631950736045837
221.0,288.0,3.5282,-0.4038,8.7242,-0.0406,0.0221,-0.1141,-1.6652237377562464,0.0,2.539222240447998,-1.6561172008514404,-0.0,2.2097432613372803,4.499274416560791,-0.0,0.30232343077659607,-1.3726866880999964,0.0,-0.02166568860411644,0.48369020223617554,-0.0,0.0014614565297961235,1.208390474319458,0.0,0.017885876819491386
221.0,288.0,3.5282,-0.4038,8.7242,-0.0406,0.0221,-0.1141,-1.665243764916891,0.0,2.540034770965576,-1.6560934782028198,-0.0,2.2028563022613525,4.499265833491943,-0.0,0.3007297217845917,-1.3727582136737269,0.0,-0.01812249794602394,0.48374229669570923,-0.0,-0.011017916724085808,1.2083700895309448,0.0,0.02783031389117241
221.0,288.0,3.5282,-0.4038,8.7242,-0.0406,0.0221,-0.1141,-1.665227552453512,0.0,2.5804104804992676,-1.6561254262924194,-0.0,2.166719913482666,4.499278708095215,-0.0,0.2891305387020111,-1.3727143446551722,0.0,-0.034067392349243164,0.48374274373054504,-0.0,-0.008841065689921379,1.208402395248413,0.0,-0.007123314775526524
221.0,288.0,3.5282,-0.4038,8.7242,-0.0406,0.0221,-0.1141,-1.6652361355223597,0.0,2.5704569816589355,-1.6560609340667725,-0.0,2.1793370246887207,4.49928252279248,-0.0,0.28795135021209717,-1.3727262655841272,0.0,-0.010470454581081867,0.48369020223617554,-0.0,0.003921644762158394,1.2083660364151,0.0,-0.04488340765237808
221.0,288.0,3.5282,-0.4038,8.7242,-0.0406,0.0221,-0.1141,-1.6652595005431117,0.0,2.5870604515075684,-1.6560407876968384,-0.0,2.1915736198425293,4.499278231258057,-0.0,0.3035625219345093,-1.3727620283709925,0.0,-0.027717866003513336,0.48373866081237793,-0.0,-0.006958990357816219,1.208354115486145,0.0,-0.01194949634373188
221.0,288.0,3.5282,-0.4038,8.7242,-0.0406,0.0221,-0.1141,-1.665243764916891,0.0,2.6050167083740234,-1.6560449600219727,-0.0,2.1730685234069824,4.499330206508301,-0.0,0.27453771233558655,-1.3727143446551722,0.0,-0.035507358610630035,0.4836979806423187,-0.0,-0.0072776456363499165,1.2084425687789917,0.0,-0.027694789692759514
221.0,288.0,3.5282,-0.4038,8.7242,-0.0406,0.0221,-0.1141,-1.6652962170042933,0.0,2.5794286727905273,-1.6560490131378174,-0.0,2.1933302879333496,4.499293966884277,-0.0,0.29097625613212585,-1.3727181593524378,0.0,-0.029050176963210106,0.4837382435798645,-0.0,-0.007116094697266817,1.208418846130371,0.0,-0.018862955272197723
228.0,284.0,3.6479,-0.387,8.5753,-0.033,0.0231,-0.113,-1.665199419061178,0.0,2.58341121673584,-1.6560567617416382,-0.0,2.1387276649475098,4.49928252279248,-0.0,0.29112106561660767,-1.3727181593524378,0.0,-0.0342327319085598,0.48371851444244385,-0.0,-0.005001376383006573,1.2083741426467896,0.0,-0.0012324008857831359
228.0,284.0,3.6479,-0.387,8.5753,-0.033,0.0231,-0.113,-1.6652518711485804,0.0,2.5494422912597656,-1.6560769081115723,-0.0,2.193521022796631,4.499298735255859,-0.0,0.3067610263824463,-1.372702423726217,0.0,-0.029677091166377068,0.4836861491203308,-0.0,-0.00668187253177166,1.2083864212036133,0.0,-0.004453425295650959
228.0,284.0,3.6479,-0.387,8.5753,-0.033,0.0231,-0.113,-1.6652757130064906,0.0,2.582150936126709,-1.6560243368148804,-0.0,2.1735434532165527,4.499298258418701,-0.0,0.2768478989601135,-1.3727343718158167,0.0,-0.0256293173879385,0.48371031880378723,-0.0,-0.0005301574128679931,1.2084064483642578,0.0,-0.007006291300058365
228.0,284.0,3.6479,-0.387,8.5753,-0.033,0.0231,-0.113,-1.665215631524557,0.0,2.541080951690674,-1.6561172008514404,-0.0,2.150621175765991,4.499201937312744,-0.0,0.308171808719635,-1.3727224508868616,0.0,-0.025682462379336357,0.48369836807250977,-0.0,0.0007318933494389057,1.2083946466445923,0.0,0.02816879004240036
228.0,284.0,3.6479,-0.387,8.5753,-0.033,0.0231,-0.113,-1.6652800045409144,0.0,2.5290539264678955,-1.6560325622558594,-0.0,2.147772789001465,4.499274416560791,-0.0,0.30130282044410706,-1.3727143446551722,0.0,-0.02485187165439129,0.48374634981155396,-0.0,-0.016516730189323425,1.2083864212036133,0.0,0.006099436432123184
228.0,284.0,3.6479,-0.387,8.5753,-0.033,0.0231,-0.113,-1.6652757130064906,0.0,2.6157188415527344,-1.6560810804367065,-0.0,2.1820759773254395,4.499274416560791,-0.0,0.28908371925354004,-1.3727105299579065,0.0,-0.03599070757627487,0.4837222099304199,-0.0,-0.014218563213944435,1.208398699760437,0.0,0.005980983376502991
228.0,284.0,3.6479,-0.387,8.5753,-0.033,0.0231,-0.113,-1.6652161083617152,0.0,2.560352325439453,-1.6561213731765747,-0.0,2.1862454414367676,4.499278231258057,-0.0,0.2945353388786316,-1.3726866880999964,0.0,-0.03654664009809494,0.48374634981155396,-0.0,-0.0011037279618903995,1.208350419998169,0.0,-0.016382591798901558
228.0,284.0,3.6479,-0.387,8.5753,-0.033,0.0231,-0.113,-1.6652924023070277,0.0,2.606661319732666,-1.6560975313186646,-0.0,2.154439926147461,4.499262018794678,-0.0,0.29669129848480225,-1.372702423726217,0.0,-0.028056081384420395,0.4837382137775421,-0.0,-0.012275389395654202,1.2083663940429688,0.0,0.01623767428100109
228.0,284.0,3.6479,-0.387,8.5753,-0.033,0.0231,-0.113,-1.665255685845846,0.0,2.5926551818847656,-1.6560367345809937,-0.0,2.197230577468872,4.49928252279248,-0.0,0.29240256547927856,-1.3727143446551722,0.0,-0.01975369080901146,0.48369836807250977,-0.0,7.921119686216116e-05,1.2084143161773682,0.0,0.006138786673545837
228.0,284.0,3.6479,-0.387,8.5753,-0.033,0.0231,-0.113,-1.6652599773802699,0.0,2.5257058143615723,-1.656044840812683,-0.0,2.1891045570373535,4.4992381769367675,-0.0,0.29533106088638306,-1.372690502797262,0.0,-0.030918434262275696,0.4837546646595001,-0.0,-0.02987435646355152,1.208362340927124,0.0,-0.020584024488925934
228.0,284.0,3.6479,-0.387,8.5753,-0.033,0.0231,-0.113,-1.665231843987936,0.0,2.573286294937134,-1.6560769081115723,-0.0,2.1582400798797607,4.499302073115967,-0.0,0.2875271439552307,-1.3727343718158167,0.0,-0.019254816696047783,0.48368608951568604,-0.0,0.0010041606146842241,1.2083741426467896,0.0,0.014887735247612
228.0,284.0,3.6479,-0.387,8.5753,-0.033,0.0231,-0.113,-1.6652475796141566,0.0,2.558182716369629,-1.6561048030853271,-0.0,2.162888288497925,4.499298258418701,-0.0,0.2848755419254303,-1.372765843068258,0.0,-0.021629154682159424,0.48370254039764404,-0.0,-1.778639853000641e-05,1.2084064483642578,0.0,-0.023119302466511726
228.0,284.0,3.6479,-0.387,8.5753,-0.033,0.0231,-0.113,-1.6652394733824671,0.0,2.5439672470092773,-1.6560893058776855,-0.0,2.1810526847839355,4.499278231258057,-0.0,0.2927040159702301,-1.372742001210348,0.0,-0.024893743917346,0.4837222099304199,-0.0,-0.015545045956969261,1.2084064483642578,0.0,-0.029723286628723145
228.0,284.0,3.6479,-0.387,8.5753,-0.033,0.0231,-0.113,-1.6652599773802699,0.0,2.6019155979156494,-1.6560449600219727,-0.0,2.1490767002105713,4.499334021205566,-0.0,0.29544538259506226,-1.3727300802813929,0.0,-0.037776101380586624,0.4837021231651306,-0.0,-0.009702456183731556,1.2083823680877686,0.0,-0.005442357622087002
228.0,284.0,3.6479,-0.387,8.5753,-0.033,0.0231,-0.113,-1.6652924023070277,0.0,2.5501270294189453,-1.6560966968536377,-0.0,2.139461040496826,4.49928252279248,-0.0,0.29466962814331055,-1.3727343718158167,0.0,-0.01117310207337141,0.48375868797302246,-0.0,-0.0074266958981752396,1.2084143161773682,0.0,0.012733867391943932
228.0,284.0,3.6479,-0.387,8.5753,-0.033,0.0231,-0.113,-1.6652966938414515,0.0,2.600764274597168,-1.6561017036437988,-0.0,2.1333985328674316,4.49928252279248,-0.0,0.2854893207550049,-1.3727262655841272,0.0,-0.02630756050348282,0.483734130859375,-0.0,-0.009099307470023632,1.2083704471588135,0.0,0.002313072793185711
228.0,284.0,3.6479,-0.387,8.5753,-0.033,0.0231,-0.113,-1.6652800045409144,0.0,2.571323871612549,-1.656125545501709,-0.0,2.2030746936798096,4.499298258418701,-0.0,0.28067368268966675,-1.3727105299579065,0.0,-0.022411756217479706,0.483661949634552,-0.0,-0.0027290398720651865,1.2083660364151,0.0,0.04367779195308685
222.0,290.0,3.5318,-0.3924,8.6465,-0.0403,0.0182,-0.1147,-1.665231843987936,0.0,2.58493971824646,-1.656072735786438,-0.0,2.2234244346618652,4.499250097865723,-0.0,0.280606746673584,-1.3727582136737269,0.0,-0.0320160873234272,0.48372629284858704,-0.0,8.94725089892745e-05,1.208410620689392,0.0,0.02311917394399643
222.0,290.0,3.5318,-0.3924,8.6465,-0.0403,0.0182,-0.1147,-1.6652075252928675,0.0,2.597102642059326,-1.6561212539672852,-0.0,2.133404493331909,4.499258204097412,-0.0,0.2888716161251068,-1.372742001210348,0.0,-0.036789700388908386,0.4836983382701874,-0.0,-0.005813037045300007,1.208362340927124,0.0,-0.026739036664366722
222.0,290.0,3.5318,-0.3924,8.6465,-0.0403,0.0182,-0.1147,-1.665227552453512,0.0,2.551424026489258,-1.656072735786438,-0.0,2.1924309730529785,4.499330206508301,-0.0,0.2908588647842407,-1.3727262655841272,0.0,-0.032952822744846344,0.48371437191963196,-0.0,0.004783257842063904,1.2083783149719238,0.0,0.01955055631697178
222.0,290.0,3.5318,-0.3924,8.6465,-0.0403,0.0182,-0.1147,-1.6652599773802699,0.0,2.5866575241088867,-1.6560527086257935,-0.0,2.1797454357147217,4.4993225771137695,-0.0,0.29088258743286133,-1.3727381865130823,0.0,-0.028625372797250748,0.48371437191963196,-0.0,-0.0030224607326090336,1.2083823680877686,0.0,-0.010986856184899807
222.0,290.0,3.5318,-0.3924,8.6465,-0.0403,0.0182,-0.1147,-1.6652757130064906,0.0,2.5821285247802734,-1.6560850143432617,-0.0,2.150240898132324,4.49931447088208,-0.0,0.2867552638053894,-1.3727143446551722,0.0,-0.03108186088502407,0.48371434211730957,-0.0,0.009595023468136787,1.2083946466445923,0.0,0.017023030668497086
222.0,290.0,3.5318,-0.3924,8.6465,-0.0403,0.0182,-0.1147,-1.6652356586852015,0.0,2.567068576812744,-1.6561017036437988,-0.0,2.173804998397827,4.499286814326904,-0.0,0.2965494990348816,-1.3727262655841272,0.0,-0.02803679183125496,0.4836779236793518,-0.0,-0.0017452030442655087,1.2083741426467896,0.0,0.004016130231320858
222.0,290.0,3.5318,-0.3924,8.6465,-0.0403,0.0182,-0.1147,-1.665255685845846,0.0,2.595486879348755,-1.6560691595077515,-0.0,2.1808700561523438,4.499306364650391,-0.0,0.2932806611061096,-1.3727143446551722,0.0,-0.03738907724618912,0.4837020933628082,-0.0,-0.002754871966317296,1.2083864212036133,0.0,-0.0135468989610672
222.0,290.0,3.5318,-0.3924,8.6465,-0.0403,0.0182,-0.1147,-1.665215631524557,0.0,2.5898284912109375,-1.6561007499694824,-0.0,2.2066025733947754,4.499265833491943,-0.0,0.29057666659355164,-1.372765843068258,0.0,-0.027281049638986588,0.48375457525253296,-0.0,-0.0010922164656221867,1.208398699760437,0.0,0.0039257691241800785
222.0,290.0,3.5318,-0.3924,8.6465,-0.0403,0.0182,-0.1147,-1.6651870212950648,0.0,2.5620813369750977,-1.656052589416504,-0.0,2.180326461791992,4.499286814326904,-0.0,0.27419862151145935,-1.3727224508868616,0.0,-0.028380021452903748,0.4837423861026764,-0.0,0.0056394487619400024,1.2083420753479004,0.0,-0.008581857196986675
222.0,290.0,3.5318,-0.3924,8.6465,-0.0403,0.0182,-0.1147,-1.665227552453512,0.0,2.5997438430786133,-1.6560490131378174,-0.0,2.1906630992889404,4.49928252279248,-0.0,0.2858515977859497,-1.3727300802813929,0.0,-0.034411996603012085,0.4836820065975189,-0.0,-0.008664565160870552,1.2083864212036133,0.0,-0.010147200897336006
222.0,290.0,3.5318,-0.3924,8.6465,-0.0403,0.0182,-0.1147,-1.6652676067748011,0.0,2.559525966644287,-1.6561048030853271,-0.0,2.189946174621582,4.499253912562988,-0.0,0.28406113386154175,-1.3727582136737269,0.0,-0.024868473410606384,0.48370620608329773,-0.0,-0.018766457214951515,1.2083864212036133,0.0,-0.05020740255713463
222.0,290.0,3.5318,-0.3924,8.6465,-0.0403,0.0182,-0.1147,-1.665243764916891,0.0,2.5620551109313965,-1.6561007499694824,-0.0,2.1824123859405518,4.499278231258057,-0.0,0.297324538230896,-1.3726943174945276,0.0,-0.030714888125658035,0.48371031880378723,-0.0,-0.010037650354206562,1.2083946466445923,0.0,-0.021429112181067467
222.0,290.0,3.5318,-0.3924,8.6465,-0.0403,0.0182,-0.1147,-1.6652075252928675,0.0,2.5509395599365234,-1.6560852527618408,-0.0,2.108611583709717,4.499249621028564,-0.0,0.28602683544158936,-1.3727300802813929,0.0,-0.02733122929930687,0.4836578369140625,-0.0,0.006138249766081572,1.208426594734192,0.0,0.03208741545677185
222.0,290.0,3.5318,-0.3924,8.6465,-0.0403,0.0182,-0.1147,-1.665203710595602,0.0,2.5812888145446777,-1.6560486555099487,-0.0,2.2037429809570312,4.49928252279248,-0.0,0.29137158393859863,-1.372702423726217,0.0,-0.031896114349365234,0.48374640941619873,-0.0,-0.002157985232770443,1.2084147930145264,0.0,0.0031800302676856518
222.0,290.0,3.5318,-0.3924,8.6465,-0.0403,0.0182,-0.1147,-1.665215631524557,0.0,2.547255754470825,-1.656072735786438,-0.0,2.1530213356018066,4.499286814326904,-0.0,0.2999914884567261,-1.372742001210348,0.0,-0.026665860787034035,0.4836983382701874,-0.0,-0.012383024208247662,1.2084147930145264,0.0,0.0125359445810318
222.0,290.0,3.5318,-0.3924,8.6465,-0.0403,0.0182,-0.1147,-1.6652237377562464,0.0,2.5256285667419434,-1.6560851335525513,-0.0,2.167201519012451,4.499298258418701,-0.0,0.2823342978954315,-1.372690502797262,0.0,-0.01775626465678215,0.48370617628097534,-0.0,0.0010924686212092638,1.208418846130371,0.0,0.02466793730854988
222.0,290.0,3.5318,-0.3924,8.6465,-0.0403,0.0182,-0.1147,-1.665231843987936,0.0,2.5971508026123047,-1.6560893058776855,-0.0,2.161083221435547,4.499265833491943,-0.0,0.2881197929382324,-1.3727062384234827,0.0,-0.03504449129104614,0.48369836807250977,-0.0,-0.0024020662531256676,1.208354115486145,0.0,0.06338139623403549
222.0,290.0,3.5318,-0.3924,8.6465,-0.0403,0.0182,-0.1147,-1.665243764916891,0.0,2.5955872535705566,-1.6560965776443481,-0.0,2.1604580879211426,4.499250097865723,-0.0,0.28786182403564453,-1.3727300802813929,0.0,-0.030951544642448425,0.4836983382701874,-0.0,-0.008652272634208202,1.2083823680877686,0.0,-0.02109428681433201
222.0,278.0,3.6485,-0.347,8.4251,-0.0342,0.0254,-0.1109,-1.6652757130064906,0.0,2.54400634765625,-1.656052589416504,-0.0,2.1567139625549316,4.499298258418701,-0.0,0.301675409078598,-1.372690502797262,0.0,-0.0350770503282547,0.48373037576675415,-0.0,-0.0072352890856564045,1.2083783149719238,0.0,-0.004303778521716595
222.0,278.0,3.6485,-0.347,8.4251,-0.0342,0.0254,-0.1109,-1.6652118168272914,0.0,2.55617094039917,-1.6560934782028198,-0.0,2.1330361366271973,4.499225779170654,-0.0,0.2868400514125824,-1.372742001210348,0.0,-0.025218185037374496,0.48368212580680847,-0.0,0.003914760425686836,1.2083864212036133,0.0,0.012781649827957153
222.0,278.0,3.6485,-0.347,8.4251,-0.0342,0.0254,-0.1109,-1.665243764916891,0.0,2.553194284439087,-1.6560934782028198,-0.0,2.1809611320495605,4.499298258418701,-0.0,0.2898864150047302,-1.372702423726217,0.0,-0.021930914372205734,0.48371025919914246,-0.0,0.0063678971491754055,1.2083700895309448,0.0,0.01410149410367012
222.0,278.0,3.6485,-0.347,8.4251,-0.0342,0.0254,-0.1109,-1.6652599773802699,0.0,2.55900502204895,-1.656041145324707,-0.0,2.1497130393981934,4.499298258418701,-0.0,0.29300016164779663,-1.372753922139303,0.0,-0.04459270089864731,0.4836820363998413,-0.0,-0.003403999609872699,1.2084184885025024,0.0,0.003293422283604741
222.0,278.0,3.6485,-0.347,8.4251,-0.0342,0.0254,-0.1109,-1.6651951275267542,0.0,2.574937582015991,-1.6561368703842163,-0.0,2.1857502460479736,4.49928252279248,-0.0,0.2848811149597168,-1.372742001210348,0.0,-0.029733113944530487,0.48369425535202026,-0.0,0.00221046875230968,1.2083864212036133,0.0,0.01628604158759117
222.0,278.0,3.6485,-0.347,8.4251,-0.0342,0.0254,-0.1109,-1.665227552453512,0.0,2.56219482421875,-1.656036615371704,-0.0,2.1370339393615723,4.499250097865723,-0.0,0.2942298352718353,-1.372702423726217,0.0,-0.028424890711903572,0.4837222397327423,-0.0,0.011775719001889229,1.2083581686019897,0.0,0.007341504562646151
222.0,278.0,3.6485,-0.347,8.4251,-0.0342,0.0254,-0.1109,-1.6652161083617152,0.0,2.5767250061035156,-1.656072735786438,-0.0,2.1679935455322266,4.49931447088208,-0.0,0.2861827611923218,-1.372742001210348,0.0,-0.02454429306089878,0.4837225675582886,-0.0,0.005927054677158594,1.2083741426467896,0.0,0.014340913854539394
222.0,278.0,3.6485,-0.347,8.4251,-0.0342,0.0254,-0.1109,-1.6652962170042933,0.0,2.5720863342285156,-1.6560769081115723,-0.0,2.1772968769073486,4.499298258418701,-0.0,0.2872834801673889,-1.3727181593524378,0.0,-0.03358760476112366,0.48371025919914246,-0.0,-0.014728261157870293,1.20834219455719,0.0,-0.04290298745036125
222.0,278.0,3.6485,-0.347,8.4251,-0.0342,0.0254,-0.1109,-1.6652480564513148,0.0,2.568997859954834,-1.6560646295547485,-0.0,2.157111406326294,4.499318762416504,-0.0,0.28841325640678406,-1.3727062384234827,0.0,-0.03230077773332596,0.48370254039764404,-0.0,-0.0012549288803711534,1.2083864212036133,0.0,0.013164248317480087
222.0,278.0,3.6485,-0.347,8.4251,-0.0342,0.0254,-0.1109,-1.665243764916891,0.0,2.566412925720215,-1.6561089754104614,-0.0,2.200282096862793,4.49931447088208,-0.0,0.2892506420612335,-1.3727462927447718,0.0,-0.029135525226593018,0.48371028900146484,-0.0,-0.017871974036097527,1.2083864212036133,0.0,-0.005656142719089985
222.0,278.0,3.6485,-0.347,8.4251,-0.0342,0.0254,-0.1109,-1.6652800045409144,0.0,2.6076109409332275,-1.6560975313186646,-0.0,2.174828052520752,4.499334021205566,-0.0,0.30139970779418945,-1.3727181593524378,0.0,-0.021431678906083107,0.4836779534816742,-0.0,-0.0034399661235511303,1.2083942890167236,0.0,-0.026993490755558014
222.0,278.0,3.6485,-0.347,8.4251,-0.0342,0.0254,-0.1109,-1.665231843987936,0.0,2.571852207183838,-1.656053066253662,-0.0,2.1615638732910156,4.499294920558594,-0.0,0.29702895879745483,-1.3727224508868616,0.0,-0.020731760188937187,0.48369020223617554,-0.0,-0.007730277255177498,1.2083581686019897,0.0,-0.02754748985171318
222.0,278.0,3.6485,-0.347,8.4251,-0.0342,0.0254,-0.1109,-1.665227552453512,0.0,2.598289966583252,-1.6560407876968384,-0.0,2.190037250518799,4.49929062902417,-0.0,0.294866681098938,-1.3727462927447718,0.0,-0.03268256410956383,0.48369020223617554,-0.0,-0.0028476938605308533,1.208317756652832,0.0,0.007104096468538046
222.0,278.0,3.6485,-0.347,8.4251,-0.0342,0.0254,-0.1109,-1.665227552453512,0.0,2.5676469802856445,-1.6561130285263062,-0.0,2.158839225769043,4.499253912562988,-0.0,0.29504960775375366,-1.3727262655841272,0.0,-0.036427952349185944,0.4837181270122528,-0.0,-0.014236909337341785,1.20834219455719,0.0,0.010351265780627728
222.0,278.0,3.6485,-0.347,8.4251,-0.0342,0.0254,-0.1109,-1.6652761898436488,0.0,2.5942306518554688,-1.6561172008514404,-0.0,2.1563720703125,4.499241514796875,-0.0,0.29038986563682556,-1.3727343718158167,0.0,-0.02375759929418564,0.48368191719055176,-0.0,-0.012553741224110126,1.20834219455719,0.0,-0.012403713539242744
222.0,278.0,3.6485,-0.347,8.4251,-0.0342,0.0254,-0.1109,-1.6652676067748011,0.0,2.622091770172119,-1.6560975313186646,-0.0,2.1239171028137207,4.499290152187012,-0.0,0.28257283568382263,-1.3727777639972132,0.0,-0.031994275748729706,0.4836660325527191,-0.0,0.005807474255561829,1.20834219455719,0.0,0.033687226474285126
222.0,278.0,3.6485,-0.347,8.4251,-0.0342,0.0254,-0.1109,-1.665203710595602,0.0,2.5855865478515625,-1.656105637550354,-0.0,2.1641006469726562,4.49929062902417,-0.0,0.2744984030723572,-1.3727062384234827,0.0,-0.029396723955869675,0.4836738705635071,-0.0,0.008052932098507881,1.2083663940429688,0.0,0.03790178894996643
227.0,293.0,3.4475,-0.3954,8.8343,-0.0345,0.0279,-0.1144,-1.665199419061178,0.0,2.574986457824707,-1.656049132347107,-0.0,2.2172703742980957,4.49928252279248,-0.0,0.29049620032310486,-1.3727224508868616,0.0,-0.029628530144691467,0.48368608951568604,-0.0,-0.01377023383975029,1.2083983421325684,0.0,0.023481441661715508
227.0,293.0,3.4475,-0.3954,8.8343,-0.0345,0.0279,-0.1144,-1.6652237377562464,0.0,2.5770010948181152,-1.6561048030853271,-0.0,2.1626977920532227,4.499265833491943,-0.0,0.28300684690475464,-1.372702423726217,0.0,-0.03425578773021698,0.4837222397327423,-0.0,0.0032884301617741585,1.2084065675735474,0.0,0.05496740713715553
227.0,293.0,3.4475,-0.3954,8.8343,-0.0345,0.0279,-0.1144,-1.6652513943114222,0.0,2.574544906616211,-1.6561015844345093,-0.0,2.1478495597839355,4.499274416560791,-0.0,0.2822885811328888,-1.3727224508868616,0.0,-0.018915440887212753,0.48371028900146484,-0.0,-0.010461709462106228,1.2084184885025024,0.0,0.0322226919233799
227.0,293.0,3.4475,-0.3954,8.8343,-0.0345,0.0279,-0.1144,-1.665255685845846,0.0,2.604639768600464,-1.6560686826705933,-0.0,2.198216438293457,4.499233885402344,-0.0,0.2891784906387329,-1.3727343718158167,0.0,-0.024432111531496048,0.4836779832839966,-0.0,-0.006387918256223202,1.208402395248413,0.0,0.023219555616378784
227.0,293.0,3.4475,-0.3954,8.8343,-0.0345,0.0279,-0.1144,-1.6652480564513148,0.0,2.580188274383545,-1.6560004949569702,-0.0,2.167776584625244,4.499262018794678,-0.0,0.2832663953304291,-1.372690502797262,0.0,-0.03307073935866356,0.48371443152427673,-0.0,-0.013158319517970085,1.2084027528762817,0.0,-0.004961146041750908
227.0,293.0,3.4475,-0.3954,8.8343,-0.0345,0.0279,-0.1144,-1.665243764916891,0.0,2.566399574279785,-1.6560686826705933,-0.0,2.1428909301757812,4.499293966884277,-0.0,0.3040933609008789,-1.3727381865130823,0.0,-0.031724438071250916,0.4836861193180084,-0.0,-0.0016619350062683225,1.2083864212036133,0.0,0.0024818400852382183
227.0,293.0,3.4475,-0.3954,8.8343,-0.0345,0.0279,-0.1144,-1.6652518711485804,0.0,2.545454263687134,-1.6560407876968384,-0.0,2.181765079498291,4.499298258418701,-0.0,0.28602972626686096,-1.3727143446551722,0.0,-0.02371359057724476,0.4836377501487732,-0.0,-0.010415440425276756,1.208402395248413,0.0,0.019411901012063026
227.0,293.0,3.4475,-0.3954,8.8343,-0.0345,0.0279,-0.1144,-1.665215631524557,0.0,2.596768379211426,-1.6560449600219727,-0.0,2.177281379699707,4.49928252279248,-0.0,0.29135429859161377,-1.3727381865130823,0.0,-0.03425038978457451,0.483702152967453,-0.0,-0.021577203646302223,1.2084146738052368,0.0,0.007867209613323212
227.0,293.0,3.4475,-0.3954,8.8343,-0.0345,0.0279,-0.1144,-1.6652075252928675,0.0,2.5774409770965576,-1.6560367345809937,-0.0,2.182823896408081,4.499258204097412,-0.0,0.292031466960907,-1.3727343718158167,0.0,-0.015804553404450417,0.48366236686706543,-0.0,-0.0038096634671092033,1.208426594734192,0.0,-0.03069443255662918
227.0,293.0,3.4475,-0.3954,8.8343,-0.0345,0.0279,-0.1144,-1.6652480564513148,0.0,2.5905709266662598,-1.6560769081115723,-0.0,2.1614410877227783,4.499257727260254,-0.0,0.29589203000068665,-1.3727105299579065,0.0,-0.03068777546286583,0.48373037576675415,-0.0,-0.0028477825690060854,1.2083864212036133,0.0,0.010234249755740166
227.0,293.0,3.4475,-0.3954,8.8343,-0.0345,0.0279,-0.1144,-1.6652680836119593,0.0,2.5801777839660645,-1.6561130285263062,-0.0,2.1657469272613525,4.499318762416504,-0.0,0.2925715446472168,-1.3727300802813929,0.0,-0.03849076107144356,0.4836738407611847,-0.0,-0.0018639331683516502,1.2083660364151,0.0,-0.012434310279786587
227.0,293.0,3.4475,-0.3954,8.8343,-0.0345,0.0279,-0.1144,-1.6652480564513148,0.0,2.5607614517211914,-1.6560609340667725,-0.0,2.1462788581848145,4.49928252279248,-0.0,0.2932851314544678,-1.3727543989764612,0.0,-0.016139116138219833,0.48369836807250977,-0.0,0.007733878679573536,1.2083823680877686,0.0,-0.012791089713573456
227.0,293.0,3.4475,-0.3954,8.8343,-0.0345,0.0279,-0.1144,-1.665227552453512,0.0,2.5576231479644775,-1.6561294794082642,-0.0,2.1642136573791504,4.499286814326904,-0.0,0.291077196598053,-1.3727462927447718,0.0,-0.03803021088242531,0.4837627112865448,-0.0,-0.0003670186852104962,1.2083783149719238,0.0,-0.008685465902090073
227.0,293.0,3.4475,-0.3954,8.8343,-0.0345,0.0279,-0.1144,-1.6652237377562464,0.0,2.5605082511901855,-1.656064510345459,-0.0,2.1829915046691895,4.499358816737793,-0.0,0.29643017053604126,-1.3727224508868616,0.0,-0.030773034319281578,0.4837382733821869,-0.0,-0.0017212824895977974,1.2083864212036133,0.0,0.030538571998476982
227.0,293.0,3.4475,-0.3954,8.8343,-0.0345,0.0279,-0.1144,-1.6652361355223597,0.0,2.5459518432617188,-1.656080961227417,-0.0,2.201688766479492,4.499265833491943,-0.0,0.2997925877571106,-1.372702423726217,0.0,-0.031840093433856964,0.4836820363998413,-0.0,-0.004044481087476015,1.2083946466445923,0.0,0.0021397462114691734
227.0,293.0,3.4475,-0.3954,8.8343,-0.0345,0.0279,-0.1144,-1.6652361355223597,0.0,2.56455135345459,-1.6560367345809937,-0.0,2.225889205932617,4.499257727260254,-0.0,0.2921195328235626,-1.3726943174945276,0.0,-0.017395075410604477,0.48367390036582947,-0.0,-0.004524741787463427,1.2084224224090576,0.0,-0.008353936485946178
227.0,293.0,3.4475,-0.3954,8.8343,-0.0345,0.0279,-0.1144,-1.6652075252928675,0.0,2.5270862579345703,-1.6560649871826172,-0.0,2.1663312911987305,4.499278231258057,-0.0,0.29501602053642273,-1.3727143446551722,0.0,-0.013645034283399582,0.48366597294807434,-0.0,0.002418337156996131,1.2083463668823242,0.0,0.013577435165643692
227.0,293.0,3.4475,-0.3954,8.8343,-0.0345,0.0279,-0.1144,-1.665243764916891,0.0,2.6376900672912598,-1.656089186668396,-0.0,2.148824691772461,4.499250097865723,-0.0,0.2892475128173828,-1.3727381865130823,0.0,-0.03562459722161293,0.48366978764533997,-0.0,0.0020304350182414055,1.2083057165145874,0.0,0.011006978340446949
225.0,286.0,3.6658,-0.3882,8.6501,-0.0243,0.0115,-0.113,-1.6652637920775355,0.0,2.614037036895752,-1.6560893058776855,-0.0,2.130708694458008,4.499298258418701,-0.0,0.2944227457046509,-1.3727381865130823,0.0,-0.030233141034841537,0.48371031880378723,-0.0,-0.005601903423666954,1.2083864212036133,0.0,-0.009362675249576569
225.0,286.0,3.6658,-0.3882,8.6501,-0.0243,0.0115,-0.113,-1.665231843987936,0.0,2.5713908672332764,-1.6561294794082642,-0.0,2.151395797729492,4.4993225771137695,-0.0,0.288089781999588,-1.3727181593524378,0.0,-0.023505080491304398,0.48373034596443176,-0.0,-0.00475765997543931,1.2083783149719238,0.0,-0.0699576735496521
225.0,286.0,3.6658,-0.3882,8.6501,-0.0243,0.0115,-0.113,-1.6652962170042933,0.0,2.587362289428711,-1.6560649871826172,-0.0,2.1657261848449707,4.499278708095215,-0.0,0.3013710081577301,-1.3727501074420374,0.0,-0.025720007717609406,0.4837382137775421,-0.0,-0.012156021781265736,1.208410620689392,0.0,0.013773350045084953
225.0,286.0,3.6658,-0.3882,8.6501,-0.0243,0.0115,-0.113,-1.6652313671507777,0.0,2.566667079925537,-1.6560568809509277,-0.0,2.175312042236328,4.49928252279248,-0.0,0.2983283996582031,-1.3727343718158167,0.0,-0.024464357644319534,0.4837181866168976,-0.0,0.0035986413713544607,1.208390474319458,0.0,-0.02982240915298462
225.0,286.0,3.6658,-0.3882,8.6501,-0.0243,0.0115,-0.113,-1.6652800045409144,0.0,2.6125950813293457,-1.656080961227417,-0.0,2.1898131370544434,4.49928252279248,-0.0,0.28667259216308594,-1.3727381865130823,0.0,-0.02997724898159504,0.48366597294807434,-0.0,-0.008234303444623947,1.208390474319458,0.0,-0.0005386491538956761
225.0,286.0,3.6658,-0.3882,8.6501,-0.0243,0.0115,-0.113,-1.665243764916891,0.0,2.577308177947998,-1.6561015844345093,-0.0,2.125919818878174,4.499286814326904,-0.0,0.3018980324268341,-1.3727300802813929,0.0,-0.0030018636025488377,0.4836820363998413,-0.0,0.0068422104232013226,1.208362340927124,0.0,0.0236040111631155
225.0,286.0,3.6658,-0.3882,8.6501,-0.0243,0.0115,-0.113,-1.6652561626830042,0.0,2.513223648071289,-1.6560852527618408,-0.0,2.1378917694091797,4.499265833491943,-0.0,0.29835808277130127,-1.372690502797262,0.0,-0.024542713537812233,0.48371437191963196,-0.0,-0.004611250013113022,1.2083741426467896,0.0,0.011421240866184235
225.0,286.0,3.6658,-0.3882,8.6501,-0.0243,0.0115,-0.113,-1.6652118168272914,0.0,2.5175089836120605,-1.6560850143432617,-0.0,2.1606597900390625,4.499310656184814,-0.0,0.2852390706539154,-1.3727224508868616,0.0,-0.024544965475797653,0.4837181568145752,-0.0,-0.01764266937971115,1.2083741426467896,0.0,0.033396270126104355
225.0,286.0,3.6658,-0.3882,8.6501,-0.0243,0.0115,-0.113,-1.6652680836119593,0.0,2.5515449047088623,-1.6560567617416382,-0.0,2.146589756011963,4.499270125026367,-0.0,0.289888858795166,-1.3727262655841272,0.0,-0.031023867428302765,0.48369380831718445,-0.0,-0.007387402467429638,1.2083783149719238,0.0,-0.005005179438740015
225.0,286.0,3.6658,-0.3882,8.6501,-0.0243,0.0115,-0.113,-1.6652513943114222,0.0,2.58585262298584,-1.6560407876968384,-0.0,2.1703100204467773,4.499250097865723,-0.0,0.29845744371414185,-1.3727224508868616,0.0,-0.028648976236581802,0.4837709069252014,-0.0,-0.002204054733738303,1.2083700895309448,0.0,-0.038579896092414856
225.0,286.0,3.6658,-0.3882,8.6501,-0.0243,0.0115,-0.113,-1.6652518711485804,0.0,2.6093392372131348,-1.6561335325241089,-0.0,2.199967861175537,4.499306364650391,-0.0,0.29846999049186707,-1.372702423726217,0.0,-0.03208129107952118,0.4837786853313446,-0.0,0.004428486339747906,1.2083381414413452,0.0,-0.02589517831802368
225.0,286.0,3.6658,-0.3882,8.6501,-0.0243,0.0115,-0.113,-1.665243764916891,0.0,2.5701358318328857,-1.6560567617416382,-0.0,2.1604020595550537,4.499274416560791,-0.0,0.30599644780158997,-1.3727739492999476,0.0,-0.022681599482893944,0.4836861491203308,-0.0,0.0006738505326211452,1.208426594734192,0.0,-0.024594496935606003
225.0,286.0,3.6658,-0.3882,8.6501,-0.0243,0.0115,-0.113,-1.665199419061178,0.0,2.57523250579834,-1.6560893058776855,-0.0,2.184248447418213,4.499265833491943,-0.0,0.29745393991470337,-1.3727224508868616,0.0,-0.02650728076696396,0.48371028900146484,-0.0,-0.004208357539027929,1.2083783149719238,0.0,-0.04651849344372749
225.0,286.0,3.6658,-0.3882,8.6501,-0.0243,0.0115,-0.113,-1.665227552453512,0.0,2.6285881996154785,-1.6560728549957275,-0.0,2.1378705501556396,4.49928252279248,-0.0,0.28606051206588745,-1.3727143446551722,0.0,-0.03199906647205353,0.483734130859375,-0.0,-0.016725223511457443,1.2083864212036133,0.0,-0.026410575956106186
225.0,286.0,3.6658,-0.3882,8.6501,-0.0243,0.0115,-0.113,-1.665231843987936,0.0,2.5602328777313232,-1.6560449600219727,-0.0,2.1609907150268555,4.49931447088208,-0.0,0.28761303424835205,-1.3727462927447718,0.0,-0.01608998328447342,0.48371028900146484,-0.0,-0.005320355296134949,1.208402395248413,0.0,0.011719897389411926
225.0,286.0,3.6658,-0.3882,8.6501,-0.0243,0.0115,-0.113,-1.6652194462218226,0.0,2.6247780323028564,-1.6561212539672852,-0.0,2.192866802215576,4.499265833491943,-0.0,0.2833225727081299,-1.3727224508868616,0.0,-0.006980870850384235,0.48374640941619873,-0.0,0.00383370416238904,1.208398699760437,0.0,-0.022312533110380173
225.0,286.0,3.6658,-0.3882,8.6501,-0.0243,0.0115,-0.113,-1.665215631524557,0.0,2.618590831756592,-1.6561015844345093,-0.0,2.1439576148986816,4.499306364650391,-0.0,0.289628267288208,-1.3727381865130823,0.0,-0.023784928023815155,0.4837345480918884,-0.0,-0.012835158035159111,1.2083983421325684,0.0,-0.040355127304792404
225.0,286.0,3.6658,-0.3882,8.6501,-0.0243,0.0115,-0.113,-1.6652480564513148,0.0,2.560483455657959,-1.6561130285263062,-0.0,2.1581273078918457,4.49934641897168,-0.0,0.2943728566169739,-1.372742001210348,0.0,-0.02480006404221058,0.4837627410888672,-0.0,-0.009413203224539757,1.208362340927124,0.0,-0.023991430178284645
219.0,291.0,3.4624,-0.3541,8.75,-0.0319,0.0319,-0.1205,-1.6652800045409144,0.0,2.5785913467407227,-1.6561089754104614,-0.0,2.153765916824341,4.49928252279248,-0.0,0.2749727666378021,-1.3726866880999964,0.0,-0.024746179580688477,0.4836779534816742,-0.0,-0.012024888768792152,1.208390474319458,0.0,-0.016550665721297264
219.0,291.0,3.4624,-0.3541,8.75,-0.0319,0.0319,-0.1205,-1.6653005085387171,0.0,2.598278045654297,-1.6560649871826172,-0.0,2.1638402938842773,4.499318762416504,-0.0,0.2898012399673462,-1.3727381865130823,0.0,-0.023789960891008377,0.4837263226509094,-0.0,-0.008383408188819885,1.2084064483642578,0.0,-0.028781099244952202
219.0,291.0,3.4624,-0.3541,8.75,-0.0319,0.0319,-0.1205,-1.6652637920775355,0.0,2.549062728881836,-1.656069040298462,-0.0,2.1889939308166504,4.499274416560791,-0.0,0.293022483587265,-1.3727062384234827,0.0,-0.03812635317444801,0.48374229669570923,-0.0,-0.01277390867471695,1.2083864212036133,0.0,-0.004456847440451384
219.0,291.0,3.4624,-0.3541,8.75,-0.0319,0.0319,-0.1205,-1.6652800045409144,0.0,2.4995789527893066,-1.656032681465149,-0.0,2.177980422973633,4.49931447088208,-0.0,0.279574990272522,-1.3727224508868616,0.0,-0.028667975217103958,0.4836902916431427,-0.0,-0.017394958063960075,1.208402395248413,0.0,0.007286998443305492
219.0,291.0,3.4624,-0.3541,8.75,-0.0319,0.0319,-0.1205,-1.665215631524557,0.0,2.588606357574463,-1.656081199645996,-0.0,2.1683425903320312,4.499274416560791,-0.0,0.2844287157058716,-1.3727262655841272,0.0,-0.030900336802005768,0.48374640941619873,-0.0,-0.017728174105286598,1.2084224224090576,0.0,0.010878235101699829
219.0,291.0,3.4624,-0.3541,8.75,-0.0319,0.0319,-0.1205,-1.6652361355223597,0.0,2.571669101715088,-1.6560609340667725,-0.0,2.1720831394195557,4.499278231258057,-0.0,0.28621649742126465,-1.3727620283709925,0.0,-0.029379021376371384,0.4837346076965332,-0.0,-0.004939718171954155,1.2083823680877686,0.0,-0.021166283637285233
219.0,291.0,3.4624,-0.3541,8.75,-0.0319,0.0319,-0.1205,-1.6652075252928675,0.0,2.6091461181640625,-1.656036615371704,-0.0,2.156978130340576,4.499302073115967,-0.0,0.2960510551929474,-1.3727343718158167,0.0,-0.03497324138879776,0.4836902320384979,-0.0,0.0024465820752084255,1.2083901166915894,0.0,-0.020130664110183716
219.0,291.0,3.4624,-0.3541,8.75,-0.0319,0.0319,-0.1205,-1.665255685845846,0.0,2.5225203037261963,-1.6560609340667725,-0.0,2.1546146869659424,4.499330206508301,-0.0,0.2868140637874603,-1.3726986090289515,0.0,-0.02086448110640049,0.483702152967453,-0.0,0.00038811867125332355,1.2083864212036133,0.0,0.042616505175828934
219.0,291.0,3.4624,-0.3541,8.75,-0.0319,0.0319,-0.1205,-1.6652399502196253,0.0,2.5909273624420166,-1.656069040298462,-0.0,2.1484766006469727,4.499265833491943,-0.0,0.2934289872646332,-1.3727462927447718,0.0,-0.03272462263703346,0.48371437191963196,-0.0,-0.0023165729362517595,1.2083581686019897,0.0,-0.0153890335932374
219.0,291.0,3.4624,-0.3541,8.75,-0.0319,0.0319,-0.1205,-1.6652881107726039,0.0,2.561678886413574,-1.6561254262924194,-0.0,2.2034151554107666,4.499265833491943,-0.0,0.28325456380844116,-1.3726986090289515,0.0,-0.030865011736750603,0.48368197679519653,-0.0,-0.010878843255341053,1.208390474319458,0.0,0.028812117874622345
219.0,291.0,3.4624,-0.3541,8.75,-0.0319,0.0319,-0.1205,-1.6652637920775355,0.0,2.571535348892212,-1.6561048030853271,-0.0,2.1696672439575195,4.49929062902417,-0.0,0.2829241156578064,-1.3727062384234827,0.0,-0.03033573552966118,0.4837062358856201,-0.0,0.011842370964586735,1.2083741426467896,0.0,-0.027467049658298492
219.0,291.0,3.4624,-0.3541,8.75,-0.0319,0.0319,-0.1205,-1.6652680836119593,0.0,2.5343825817108154,-1.6560769081115723,-0.0,2.190743923187256,4.499310656184814,-0.0,0.29766976833343506,-1.3727181593524378,0.0,-0.03311626613140106,0.4836779832839966,-0.0,-0.005298756994307041,1.2083741426467896,0.0,-0.05417611449956894
219.0,291.0,3.4624,-0.3541,8.75,-0.0319,0.0319,-0.1205,-1.665227552453512,0.0,2.575955629348755,-1.6560934782028198,-0.0,2.1814064979553223,4.499250097865723,-0.0,0.27492791414260864,-1.3727224508868616,0.0,-0.02543315663933754,0.48373034596443176,-0.0,0.004255128093063831,1.2083946466445923,0.0,0.02570376545190811
219.0,291.0,3.4624,-0.3541,8.75,-0.0319,0.0319,-0.1205,-1.6652075252928675,0.0,2.611063003540039,-1.6560852527618408,-0.0,2.172550678253174,4.499278231258057,-0.0,0.2856977880001068,-1.3727224508868616,0.0,-0.020242609083652496,0.4836820363998413,-0.0,-0.005261617712676525,1.2083581686019897,0.0,0.026687584817409515
219.0,291.0,3.4624,-0.3541,8.75,-0.0319,0.0319,-0.1205,-1.665255685845846,0.0,2.602224349975586,-1.6560646295547485,-0.0,2.140995740890503,4.499325914973877,-0.0,0.28838950395584106,-1.3727062384234827,0.0,-0.026024889200925827,0.4837464392185211,-0.0,0.0008145112078636885,1.2083619832992554,0.0,0.020054394379258156
219.0,291.0,3.4624,-0.3541,8.75,-0.0319,0.0319,-0.1205,-1.665199419061178,0.0,2.5419440269470215,-1.656072735786438,-0.0,2.182173728942871,4.499274416560791,-0.0,0.29932528734207153,-1.3726986090289515,0.0,-0.023279422894120216,0.4836660325527191,-0.0,0.007474335841834545,1.2083864212036133,0.0,-0.00971876922994852
219.0,291.0,3.4624,-0.3541,8.75,-0.0319,0.0319,-0.1205,-1.665255685845846,0.0,2.5603270530700684,-1.6560285091400146,-0.0,2.2108006477355957,4.499265833491943,-0.0,0.2867087721824646,-1.3727224508868616,0.0,-0.021766256541013718,0.4836742579936981,-0.0,0.0018784687854349613,1.2083741426467896,0.0,0.02623198926448822
226.0,300.0,3.5061,-0.4187,8.6602,-0.0371,0.0243,-0.1179,-1.6652480564513148,0.0,2.549534320831299,-1.6560934782028198,-0.0,2.179133653640747,4.49931447088208,-0.0,0.2876362204551697,-1.3727262655841272,0.0,-0.01856110244989395,0.4836820363998413,-0.0,-0.002873303135856986,1.2083463668823242,0.0,0.005830664187669754
226.0,300.0,3.5061,-0.4187,8.6602,-0.0371,0.0243,-0.1179,-1.6652599773802699,0.0,2.6200428009033203,-1.6561015844345093,-0.0,2.147960662841797,4.499306364650391,-0.0,0.2969729006290436,-1.372702423726217,0.0,-0.03602480888366699,0.4837222397327423,-0.0,-0.00643138587474823,1.208354115486145,0.0,-0.023429375141859055
226.0,300.0,3.5061,-0.4187,8.6602,-0.0371,0.0243,-0.1179,-1.6651913128294886,0.0,2.572145462036133,-1.6560850143432617,-0.0,2.164475202560425,4.499270125026367,-0.0,0.2922436594963074,-1.3727105299579065,0.0,-0.01889103278517723,0.483661949634552,-0.0,-0.010701981373131275,1.2083864212036133,0.0,0.020658887922763824
226.0,300.0,3.5061,-0.4187,8.6602,-0.0371,0.0243,-0.1179,-1.6652480564513148,0.0,2.577993631362915,-1.6560893058776855,-0.0,2.1331655979156494,4.4993225771137695,-0.0,0.2894130051136017,-1.372690502797262,0.0,-0.03254517912864685,0.4837266504764557,-0.0,0.0073756324127316475,1.2084064483642578,0.0,-0.011443279683589935
226.0,300.0,3.5061,-0.4187,8.6602,-0.0371,0.0243,-0.1179,-1.6652237377562464,0.0,2.5632505416870117,-1.6561048030853271,-0.0,2.1438021659851074,4.499278231258057,-0.0,0.2847278118133545,-1.3727582136737269,0.0,-0.019272759556770325,0.4836738407611847,-0.0,-0.006078115198761225,1.2083741426467896,0.0,-3.5651028156280518e-06
226.0,300.0,3.5061,-0.4187,8.6602,-0.0371,0.0243,-0.1179,-1.665243764916891,0.0,2.6023483276367188,-1.6561294794082642,-0.0,2.1984400749206543,4.49931447088208,-0.0,0.3109997808933258,-1.3727300802813929,0.0,-0.025508509948849678,0.4836820065975189,-0.0,0.0023070848546922207,1.2083741426467896,0.0,0.03871043026447296
226.0,300.0,3.5061,-0.4187,8.6602,-0.0371,0.0243,-0.1179,-1.665203710595602,0.0,2.60530948638916,-1.6561212539672852,-0.0,2.198451519012451,4.499306364650391,-0.0,0.28785550594329834,-1.3727262655841272,0.0,-0.025257911533117294,0.483702152967453,-0.0,-0.005495758727192879,1.208390474319458,0.0,0.022211335599422455
226.0,300.0,3.5061,-0.4187,8.6602,-0.0371,0.0243,-0.1179,-1.6652757130064906,0.0,2.553414821624756,-1.6560893058776855,-0.0,2.16481876373291,4.499278231258057,-0.0,0.2919512391090393,-1.3727262655841272,0.0,-0.029319653287529945,0.48374229669570923,-0.0,-0.010340562090277672,1.208402395248413,0.0,-0.021310793235898018
226.0,300.0,3.5061,-0.4187,8.6602,-0.0371,0.0243,-0.1179,-1.6652394733824671,0.0,2.6010611057281494,-1.6560449600219727,-0.0,2.1463725566864014,4.499270125026367,-0.0,0.28639015555381775,-1.372742001210348,0.0,-0.012209964916110039,0.48373448848724365,-0.0,-0.014090383425354958,1.2083380222320557,0.0,-0.008819629438221455
226.0,300.0,3.5061,-0.4187,8.6602,-0.0371,0.0243,-0.1179,-1.6652637920775355,0.0,2.5792150497436523,-1.6560769081115723,-0.0,2.123833656311035,4.4992896753498535,-0.0,0.2943187952041626,-1.3726943174945276,0.0,-0.033415280282497406,0.48376283049583435,-0.0,0.00037157628685235977,1.2083864212036133,0.0,-0.04040496051311493
226.0,300.0,3.5061,-0.4187,8.6602,-0.0371,0.0243,-0.1179,-1.665227552453512,0.0,2.5588812828063965,-1.656072735786438,-0.0,2.149352550506592,4.49928252279248,-0.0,0.29037779569625854,-1.3727143446551722,0.0,-0.02841852232813835,0.48371031880378723,-0.0,-0.0035185080487281084,1.2083700895309448,0.0,-0.027136513963341713
226.0,300.0,3.5061,-0.4187,8.6602,-0.0371,0.0243,-0.1179,-1.665215631524557,0.0,2.571661949157715,-1.6561015844345093,-0.0,2.157686710357666,4.499265833491943,-0.0,0.29778456687927246,-1.3727343718158167,0.0,-0.021363409236073494,0.48371437191963196,-0.0,-0.007613245397806168,1.2083783149719238,0.0,0.023312855511903763
226.0,300.0,3.5061,-0.4187,8.6602,-0.0371,0.0243,-0.1179,-1.665255685845846,0.0,2.556866407394409,-1.6560934782028198,-0.0,2.1972484588623047,4.499265833491943,-0.0,0.2870098948478699,-1.3727181593524378,0.0,-0.011875367723405361,0.48370620608329773,-0.0,-0.008235864341259003,1.2084065675735474,0.0,0.012794521637260914
226.0,300.0,3.5061,-0.4187,8.6602,-0.0371,0.0243,-0.1179,-1.6652599773802699,0.0,2.609224557876587,-1.6560367345809937,-0.0,2.1871769428253174,4.499298258418701,-0.0,0.295958012342453,-1.3727062384234827,0.0,-0.02846294268965721,0.4837181270122528,-0.0,0.0030310906004160643,1.2083741426467896,0.0,-0.015527813695371151
226.0,300.0,3.5061,-0.4187,8.6602,-0.0371,0.0243,-0.1179,-1.665243764916891,0.0,2.6090898513793945,-1.6560732126235962,7.181086836283157e-10,2.142052173614502,4.499253912562988,-0.0,0.28933075070381165,-1.3727224508868616,0.0,-0.03575398027896881,0.48373866081237793,-0.0,-0.006188374478369951,1.2083864212036133,0.0,-0.03699216619133949
226.0,300.0,3.5061,-0.4187,8.6602,-0.0371,0.0243,-0.1179,-1.6652480564513148,0.0,2.5824317932128906,-1.6560975313186646,1.292570244630989e-13,2.194851875305176,4.499278231258057,-0.0,0.2997875213623047,-1.372702423726217,0.0,-0.04271988570690155,0.4836820662021637,-0.0,-0.0011338070034980774,1.2083942890167236,0.0,-0.04054920747876167
226.0,300.0,3.5061,-0.4187,8.6602,-0.0371,0.0243,-0.1179,-1.6652242145934046,0.0,2.613308906555176,-1.6561212539672852,3.1214048155600634e-19,2.1139841079711914,4.499253912562988,-0.0,0.29729172587394714,-1.3727224508868616,0.0,-0.034633390605449677,0.48372629284858704,-0.0,-0.002658640965819359,1.208390474319458,0.0,-0.03496650978922844
226.0,300.0,3.5061,-0.4187,8.6602,-0.0371,0.0243,-0.1179,-1.6652361355223597,0.0,2.548605442047119,-1.656041145324707,0.00010323345486540347,2.178934097290039,4.499302073115967,-0.0,0.28767621517181396,-1.3727863470660608,0.0,-0.030513420701026917,0.4837709069252014,-0.0,0.00735721830278635,1.2084064483642578,0.0,0.009563174098730087
220.0,291.0,3.5204,-0.4929,9.0108,-0.0391,0.0312,-0.1225,-1.6652118168272914,0.0,2.6286110877990723,-1.6560330390930176,0.00023015699116513133,2.1715874671936035,4.4993178087421875,-0.0,0.28389424085617065,-1.372798267995016,0.0,-0.02859991043806076,0.4837462902069092,-0.0,0.0009680172661319375,1.2083700895309448,0.0,-0.022288572043180466
220.0,291.0,3.5204,-0.4929,9.0108,-0.0391,0.0312,-0.1225,-1.6652242145934046,0.0,2.558208465576172,-1.656069040298462,0.0008574675302952528,2.195767879486084,4.4993621545979,0.0003235454496461898,0.2867206335067749,-1.3728020826922815,-0.00035957578802481294,-0.028683282434940338,0.4836979806423187,-0.0,-0.0025863891933113337,1.2084383964538574,9.53322887653485e-05,-0.07455065101385117
220.0,291.0,3.5204,-0.4929,9.0108,-0.0391,0.0312,-0.1225,-1.6652361355223597,0.0,2.538728952407837,-1.6560732126235962,0.0011438759975135326,2.1646971702575684,4.499330206508301,0.0003967108204960823,0.3031412959098816,-1.3727944532977503,-0.00043365368037484586,-0.024357594549655914,0.483734130859375,-0.0,-0.010989810340106487,1.2084343433380127,0.0017404132522642612,-0.043268706649541855
220.0,291.0,3.5204,-0.4929,9.0108,-0.0391,0.0312,-0.1225,-1.6651798687376917,0.0,2.6036696434020996,-1.6560332775115967,0.0008021524408832192,2.1762242317199707,4.499358339900635,0.0009708577417768538,0.29377177357673645,-1.3727625052081507,-0.0007074521272443235,-0.035850852727890015,0.4837021231651306,-0.0,0.010234887711703777,1.2084543704986572,0.0037441228050738573,0.009394146502017975
220.0,291.0,3.5204,-0.4929,9.0108,-0.0391,0.0312,-0.1225,-1.665175577203268,0.0,2.5704402923583984,-1.656012773513794,0.0006458083516918123,2.181148052215576,4.499358339900635,0.0007662725984118879,0.3018977642059326,-1.3727944532977503,-0.00048067531315609813,-0.029124118387699127,0.48369765281677246,-0.0,0.017115842550992966,1.208506464958191,0.006948264315724373,-0.0005831662565469742
220.0,291.0,3.5204,-0.4929,9.0108,-0.0391,0.0312,-0.1225,-1.6652199230589808,0.0,2.5755062103271484,-1.6560534238815308,0.0005368452402763069,2.202937126159668,4.499358339900635,0.0006408663466572762,0.29779720306396484,-1.3728497664081019,-0.00039596250280737877,-0.02066992036998272,0.48370614647865295,-0.0,-6.483274046331644e-05,1.2085708379745483,0.007923073135316372,0.035403162240982056
220.0,291.0,3.5204,-0.4929,9.0108,-0.0391,0.0312,-0.1225,-1.6651917896666468,0.0,2.553330898284912,-1.656049370765686,0.0001563966361572966,2.2438721656799316,4.499330206508301,0.0005057462840341032,0.2794303297996521,-1.3727825323687952,-0.0003758308303076774,-0.038042910397052765,0.48374220728874207,-0.0,0.0044838134199380875,1.2085540294647217,0.007363823242485523,0.06522583961486816
220.0,291.0,3.5204,-0.4929,9.0108,-0.0391,0.0312,-0.1225,-1.6652442417540492,0.0,2.616272449493408,-1.6560614109039307,0.00013224805297795683,2.1879687309265137,4.499285860652588,0.0004434165603015572,0.29026514291763306,-1.3728020826922815,-0.0003299029194749892,-0.02506222203373909,0.4837944209575653,-0.0,-0.0035402500070631504,1.2086424827575684,0.006528257858008146,0.0022623538970947266
220.0,291.0,3.5204,-0.4929,9.0108,-0.0391,0.0312,-0.1225,-1.6651951275267542,0.0,2.604151964187622,-1.6560571193695068,0.00010835917782969773,2.1817007064819336,4.499290152187012,0.000327477406244725,0.29549703001976013,-1.3728063742267054,-0.0002787855046335608,-0.016745926812291145,0.48379066586494446,-0.0,0.006230128463357687,1.2086341381072998,0.0048694428987801075,0.00987690594047308
220.0,291.0,3.5204,-0.4929,9.0108,-0.0391,0.0312,-0.1225,-1.6652518711485804,0.0,2.5949013233184814,-1.656041145324707,4.5890879846410826e-05,2.2206687927246094,4.499358339900635,0.00028327733161859214,0.2963199019432068,-1.3728020826922815,-0.000241388232097961,-0.019406426697969437,0.48379477858543396,-0.0,0.0030250223353505135,1.2086702585220337,0.003416759893298149,0.042977843433618546
220.0,291.0,3.5204,-0.4929,9.0108,-0.0391,0.0312,-0.1225,-1.6652637920775355,0.0,2.5710434913635254,-1.656020998954773,8.260195194509379e-09,2.174335241317749,4.4992663103291015,9.935784328263253e-05,0.3003736436367035,-1.372758690510885,-0.00022157425701152533,-0.028624631464481354,0.4837021231651306,9.656535985413939e-05,0.00040227826684713364,1.2086539268493652,0.0022927343379706144,0.012412738054990768
220.0,291.0,3.5204,-0.4929,9.0108,-0.0391,0.0312,-0.1225,-1.6652394733824671,0.0,2.5764384269714355,-1.6560453176498413,1.9947402291140698e-14,2.1740829944610596,4.499322100276611,4.331208401708864e-05,0.29851391911506653,-1.372782055531637,-0.0001666321768425405,-0.02462874725461006,0.4837341606616974,0.00018964585615321994,-0.006826725322753191,1.2086818218231201,0.0014226147904992104,0.008396459743380547
220.0,291.0,3.5204,-0.4929,9.0108,-0.0391,0.0312,-0.1225,-1.6652194462218226,0.0,2.542027473449707,-1.6560732126235962,4.8170630327478286e-20,2.1794092655181885,4.499302073115967,3.389483390492387e-05,0.28941962122917175,-1.3727744261371058,-0.00014816342445556074,-0.03341338038444519,0.483725905418396,0.00018588968669064343,0.019951019436120987,1.2086457014083862,0.0010961400112137198,0.030603524297475815
220.0,291.0,3.5204,-0.4929,9.0108,-0.0391,0.0312,-0.1225,-1.6652194462218226,0.0,2.538154125213623,-1.6560169458389282,8.670542969822384e-24,2.1936802864074707,4.499366446132324,3.151909913867712e-05,0.285793274641037,-1.3727896849261683,-0.00013900810154154897,-0.027927367016673088,0.4837299585342407,0.00017391901928931475,0.007820646278560162,1.2086539268493652,0.0007494972087442875,-0.027731502428650856
220.0,291.0,3.5204,-0.4929,9.0108,-0.0391,0.0312,-0.1225,-1.6652599773802699,0.0,2.6016058921813965,-1.656020998954773,2.0938346234247917e-29,2.1715304851531982,4.499313517207764,2.852211764547974e-05,0.29725801944732666,-1.3727706114398401,-0.00012721761595457792,-0.03255031257867813,0.48368608951568604,0.00015859342238400131,0.018958311527967453,1.208649754524231,0.0004039812774863094,0.008214176632463932
220.0,291.0,3.5204,-0.4929,9.0108,-0.0391,0.0312,-0.1225,-1.665227552453512,0.0,2.586951732635498,-1.6560654640197754,3.768828477962155e-33,2.1585638523101807,4.499309702510498,2.682192462089006e-05,0.2859884202480316,-1.3727706114398401,-0.00012040903675369918,-0.028774913400411606,0.4837586283683777,0.0001743251777952537,0.0196822639554739,1.2086420059204102,0.00024569599190726876,0.06871401518583298
220.0,291.0,3.5204,-0.4929,9.0108,-0.0391,0.0312,-0.1225,-1.665227552453512,0.0,2.573911428451538,-1.6560165882110596,9.101276580361682e-39,2.1750967502593994,4.499330206508301,2.4620512704132125e-05,0.2902331054210663,-1.3727858702289026,-0.00011146115866722539,-0.026401661336421967,0.4837222099304199,0.00016133280587382615,-0.0022421274334192276,1.2086743116378784,-0.00026264539337716997,0.058903761208057404
222.0,294.0,3.2465,0.0431,8.7882,-0.031,0.0556,-0.1232,-1.6652561626830042,0.0,2.5453100204467773,-1.656012773513794,2.2420775429197073e-44,2.2220544815063477,4.499334498042725,2.2753083612769842e-05,0.2877693474292755,-1.3727620283709925,-0.00010375126294093207,-0.030055440962314606,0.483734130859375,0.00014982203720137477,0.00734313391149044,1.2086341381072998,-0.0002740795607678592,0.032840680330991745
222.0,294.0,3.2465,0.0431,8.7882,-0.031,0.0556,-0.1232,-1.6652118168272914,0.0,2.586526870727539,-1.6560730934143066,-0.0,2.1641783714294434,4.499325914973877,2.1657933757524006e-05,0.3033333718776703,-1.3727782408343714,-9.917781426338479e-05,-0.030165329575538635,0.48373040556907654,0.00014301936607807875,0.007372399792075157,1.2086460590362549,-0.0002972944639623165,0.0025360051076859236
222.0,294.0,3.2465,0.0431,8.7882,-0.031,0.0556,-0.1232,-1.6652199230589808,0.0,2.576495885848999,-1.6560003757476807,-0.0,2.1658108234405518,4.499325914973877,2.0199637219775468e-05,0.28643226623535156,-1.3727462927447718,-7.44428689358756e-05,-0.03495117276906967,0.483750581741333,0.00013389998639468104,-0.004548339173197746,1.2086420059204102,-0.0005154894897714257,0.03141912817955017
222.0,294.0,3.2465,0.0431,8.7882,-0.031,0.0556,-0.1232,-1.665243764916891,0.0,2.5465660095214844,-1.656052589416504,-3.701548484968953e-05,2.1694984436035156,4.499270125026367,1.8925295080407523e-05,0.290281742811203,-1.372770134602682,-7.007546810200438e-05,-0.030458562076091766,0.4837546646595001,0.0001258736156160012,0.00034364103339612484,1.2086100578308105,-0.0005399909568950534,0.01577541045844555
222.0,294.0,3.2465,0.0431,8.7882,-0.031,0.0556,-0.1232,-1.6652118168272914,0.0,2.5699563026428223,-1.6560649871826172,-3.419087079237215e-05,2.183354616165161,4.499310656184814,4.688008175435243e-06,0.2892172932624817,-1.3727744261371058,-6.744947313563898e-05,-0.03419765830039978,0.4837299585342407,0.00012103693734388798,0.006390097085386515,1.2086341381072998,-0.0007281712023541331,0.04345408082008362
222.0,294.0,3.2465,0.0431,8.7882,-0.031,0.0556,-0.1232,-1.6652361355223597,0.0,2.600903272628784,-1.6560490131378174,-3.069268132094294e-05,2.1690077781677246,4.499322100276611,1.3049243907659047e-09,0.2887653708457947,-1.372810188923971,-6.386000313796103e-05,-0.020878830924630165,0.48374229669570923,0.00011444070696597919,0.004114367999136448,1.2086142301559448,-0.0011691584950312972,-0.006295211613178253
222.0,294.0,3.2465,0.0431,8.7882,-0.031,0.0556,-0.1232,-1.6652637920775355,0.0,2.572450637817383,-1.6560370922088623,-2.8732842110912316e-05,2.147932529449463,4.499306364650391,5.5630968581743545e-12,0.2877829968929291,-1.3727825323687952,-6.167200626805425e-05,-0.02573157101869583,0.48371028900146484,0.0001104287221096456,-0.011056475341320038,1.2085940837860107,-0.0009980928152799606,0.0007021243218332529
222.0,294.0,3.2465,0.0431,8.7882,-0.031,0.0556,-0.1232,-1.665227552453512,0.0,2.541715145111084,-1.6561254262924194,-2.6221456209896132e-05,2.1252851486206055,4.499298258418701,1.5485083647206327e-15,0.29106080532073975,-1.372742001210348,-5.865736602572724e-05,-0.02935726009309292,0.483734130859375,0.00010491182183614001,0.005156636703759432,1.208578109741211,-0.0007758298306725919,-0.02401469275355339
222.0,294.0,3.2465,0.0431,8.7882,-0.031,0.0556,-0.1232,-1.6651836834349574,0.0,2.586886405944824,-1.656029224395752,-2.4113749532261863e-05,2.170853853225708,4.499285860652588,4.3103306385341953e-19,0.29288387298583984,-1.372753922139303,-5.592375237029046e-05,-0.028834369033575058,0.4837382137775421,9.992008563131094e-05,0.011905902996659279,1.2086100578308105,-0.0005086945020593703,0.002159528434276581
222.0,294.0,3.2465,0.0431,8.7882,-0.031,0.0556,-0.1232,-1.6652118168272914,0.0,2.5720763206481934,-1.656069040298462,-2.2887288650963455e-05,2.1942238807678223,4.499306364650391,1.8375615359473773e-21,0.2896503210067749,-1.3727782408343714,-5.4238651500782e-05,-0.02964538335800171,0.48376232385635376,9.684786346042529e-05,0.00454577524214983,1.208561658859253,-0.00041485068504698575,-0.049488190561532974
222.0,294.0,3.2465,0.0431,8.7882,-0.031,0.0556,-0.1232,-1.665227552453512,0.0,2.5902891159057617,-1.6560370922088623,-2.126501567545347e-05,2.209610939025879,4.499322100276611,5.114919875265807e-25,0.29888513684272766,-1.3727462927447718,-5.1893090130761266e-05,-0.018728960305452347,0.4837139844894409,9.25783533602953e-05,0.005189240910112858,1.2086223363876343,-0.0003249505825806409,-0.03845951706171036
222.0,294.0,3.2465,0.0431,8.7882,-0.031,0.0556,-0.1232,-1.6652518711485804,0.0,2.60587477684021,-1.6560206413269043,-1.9857441657222807e-05,2.20509672164917,4.499350233668945,1.4237568317860102e-28,0.2838844358921051,-1.3727782408343714,-4.974204784957692e-05,-0.02953081578016281,0.48375460505485535,8.866930147632957e-05,0.001591420266777277,1.2086060047149658,-0.00021392785129137337,-0.01565612480044365
222.0,294.0,3.2465,0.0431,8.7882,-0.031,0.0556,-0.1232,-1.6652804813780726,0.0,2.578497886657715,-1.6560288667678833,-1.9018218154087663e-05,2.196460008621216,4.499298258418701,6.069698934708185e-31,0.2915668189525604,-1.3727582136737269,-4.840442124987021e-05,-0.02915429323911667,0.48369020223617554,8.624175825389102e-05,0.003988493233919144,1.208590030670166,-0.0001909907878143713,-0.007198435254395008
222.0,294.0,3.2465,0.0431,8.7882,-0.031,0.0556,-0.1232,-1.6652237377562464,0.0,2.6218478679656982,-1.6560370922088623,-7.156407946240506e-07,2.1794915199279785,4.499298258418701,1.6895232219631184e-34,0.28447866439819336,-1.3727782408343714,-4.652764619095251e-05,-0.0379827581346035,0.4837263524532318,8.28397023724392e-05,0.009009243920445442,1.208618402481079,-0.00012364199210423976,0.02370576187968254
222.0,294.0,3.2465,0.0431,8.7882,-0.031,0.0556,-0.1232,-1.665231843987936,0.0,2.539642333984375,-1.6561057567596436,-1.2881282152044093e-10,2.193317413330078,4.499313517207764,7.2027023568066005e-37,0.2800002992153168,-1.372793976460592,-4.535528933047317e-05,-0.028800582513213158,0.48374229669570923,8.071694173850119e-05,-0.005180027801543474,1.208590030670166,-0.00011320984049234539,-0.0333998017013073
222.0,294.0,3.2465,0.0431,8.7882,-0.031,0.0556,-0.1232,-1.6652676067748011,0.0,2.5736820697784424,-1.6560571193695068,-3.110678470907971e-16,2.177356004714966,4.499281569118164,2.0048937648480888e-40,0.2837982177734375,-1.3727582136737269,-4.370349051896483e-05,-0.020760739222168922,0.483742356300354,7.772941899020225e-05,-0.00200008787214756,1.2086060047149658,8.861074456945062e-05,-0.02964232861995697
222.0,294.0,3.2465,0.0431,8.7882,-0.031,0.0556,-0.1232,-1.6652518711485804,0.0,2.597583770751953,-1.656041145324707,-7.511921785297588e-22,2.182976722717285,4.499281569118164,5.605193857299268e-44,0.2856226861476898,-1.3727462927447718,-1.3108822713547852e-05,-0.023646164685487747,0.4837181270122528,7.495500904042274e-05,-0.0031723130960017443,1.2086260318756104,0.00011125528544653207,0.07653731107711792
222.0,294.0,3.2465,0.0431,8.7882,-0.031,0.0556,-0.1232,-1.665215631524557,0.0,2.607553243637085,-1.6559765338897705,-1.3521194244623925e-25,2.1816675662994385,4.499354525203369,0.0,0.2859136760234833,-1.3727744261371058,-1.0796278729685582e-05,-0.03379613906145096,0.4837382137775421,7.321284647332504e-05,-0.006993942428380251,1.208630084991455,0.0001407852687407285,0.052537962794303894
220.0,291.0,3.7992,-0.3153,8.3916,-0.0304,0.0023,-0.1158,-1.6652680836119593,0.0,2.5560474395751953,-1.6560168266296387,-3.2652099197903855e-31,2.1426234245300293,4.499374552364014,0.0,0.28564298152923584,-1.3727582136737269,-1.0413086783955805e-05,-0.03154017776250839,0.483734130859375,7.074643508531153e-05,-0.019357675686478615,1.208590030670166,0.00012715972843579948,0.006026896182447672
220.0,291.0,3.7992,-0.3153,8.3916,-0.0304,0.0023,-0.1158,-1.6652924023070277,0.0,2.5963997840881348,-1.6559972763061523,-7.885097938861083e-37,2.1861774921417236,4.499382181758545,0.0,0.2912156581878662,-1.3728182951556605,-1.0063775334856473e-05,-0.02928149327635765,0.4837222099304199,1.1607762644416653e-06,0.00988315511494875,1.2086018323898315,0.00014408827701117843,-0.04317551106214523
220.0,291.0,3.7992,-0.3153,8.3916,-0.0304,0.0023,-0.1158,-1.6652757130064906,-0.0010111661395058036,2.581127166748047,-1.656041145324707,-1.4192911366067477e-40,2.19185733795166,4.499285860652588,0.0,0.2872556447982788,-1.3727381865130823,-6.498262337117922e-07,-0.027657104656100273,0.4836656153202057,4.948570886398329e-09,0.007478294428437948,1.2086379528045654,0.00034732744097709656,-0.038076650351285934
220.0,291.0,3.7992,-0.3153,8.3916,-0.0304,0.0023,-0.1158,-1.6653276882567347,-0.005608661565929651,2.5220484733581543,-1.6560654640197754,-0.0,2.1699445247650146,4.499374075526855,0.0,0.28647586703300476,-1.3727896849261683,-1.8088150421924354e-10,-0.031333740800619125,0.483734130859375,1.3774527308704765e-12,-0.010358579456806183,1.2086420059204102,0.00039687257958576083,0.07177174091339111
220.0,291.0,3.7992,-0.3153,8.3916,-0.0304,0.0023,-0.1158,-1.6653720341124476,-0.008008917793631554,2.5891776084899902,-1.656077265739441,-0.0,2.1793136596679688,4.499378367061279,0.0,0.2936808466911316,-1.3727896849261683,-7.711262184351142e-13,-0.023455925285816193,0.4837222397327423,5.872296464197457e-15,-0.003673546714708209,1.20865797996521,0.0007719730492681265,0.0001775640994310379
220.0,291.0,3.7992,-0.3153,8.3916,-0.0304,0.0023,-0.1158,-1.6654683552184046,-0.010552747175097466,2.568748950958252,-1.6560975313186646,-0.0,2.1875250339508057,4.499273462886475,0.0,0.2895851135253906,-1.372753922139303,-2.146458250703242e-16,-0.029917176812887192,0.48370620608329773,1.6345754784440932e-18,-0.004897286184132099,1.208621859550476,0.0006306243012659252,-0.0025998717173933983
220.0,291.0,3.7992,-0.3153,8.3916,-0.0304,0.0023,-0.1158,-1.6655198536314906,-0.00983716081827879,2.5681252479553223,-1.6560490131378174,-0.0,2.18882155418396,4.499330206508301,0.0,0.29100149869918823,-1.3727744261371058,-5.974746243985833e-20,-0.032104723155498505,0.4837299585342407,4.54990130479296e-22,-0.007675450295209885,1.2086539268493652,0.00048494458314962685,0.011088084429502487
220.0,291.0,3.7992,-0.3153,8.3916,-0.0304,0.0023,-0.1158,-1.6655594311156214,-0.007768984884023666,2.578828811645508,-1.656020998954773,-0.0,2.144774913787842,4.499330206508301,0.0,0.3009755611419678,-1.372793976460592,-2.547127859536903e-22,-0.019335918128490448,0.4837181270122528,1.9396941866767584e-24,-0.004683890379965305,1.20865797996521,0.0004202337295282632,0.015582806430757046
220.0,291.0,3.7992,-0.3153,8.3916,-0.0304,0.0023,-0.1158,-1.6655556164183558,-0.004287705756723881,2.542670965194702,-1.6560654640197754,-0.0,2.1750659942626953,4.499258204097412,0.0,0.30206865072250366,-1.3727782408343714,-7.090024203737093e-26,-0.03843804448843002,0.4837382137775421,5.399211228440967e-28,-0.0037300705444067717,1.2086660861968994,0.00014113463112153113,-0.004405723884701729
220.0,291.0,3.7992,-0.3153,8.3916,-0.0304,0.0023,-0.1158,-1.6655756435790003,-0.0016181297833099961,2.5809803009033203,-1.656029224395752,-0.0,2.156613826751709,4.49933831273999,0.0,0.2918552756309509,-1.3727262655841272,-1.9735344187141812e-29,-0.030969997867941856,0.483762264251709,1.5028903337763041e-31,-0.002854730933904648,1.2086260318756104,6.285600829869509e-05,0.013597968965768814
220.0,291.0,3.7992,-0.3153,8.3916,-0.0304,0.0023,-0.1158,-1.6655637226500453,-0.0010680166305974126,2.606224536895752,-1.656049370765686,-0.0,2.148923873901367,4.499262018794678,0.0,0.29370221495628357,-1.3727825323687952,-8.413487968552844e-32,-0.035318419337272644,0.4837258756160736,6.407057673095802e-34,-0.006439153105020523,1.2086260318756104,2.460551797867083e-07,0.03987701237201691
220.0,291.0,3.7992,-0.3153,8.3916,-0.0304,0.0023,-0.1158,-1.6655956707396449,-0.0008086274610832334,2.5201735496520996,-1.656041145324707,-0.0,2.168491840362549,4.499293966884277,0.0,0.2956329584121704,-1.3727224508868616,-2.3419251121456323e-35,-0.04064600169658661,0.48375460505485535,1.7834278471833546e-37,-0.0005970102502033114,1.208590030670166,5.941942359151409e-13,0.01261183526366949
220.0,291.0,3.7992,-0.3153,8.3916,-0.0304,0.0023,-0.1158,-1.6655718288817347,-0.000529742450453341,2.5785555839538574,-1.656089186668396,-0.0,2.1728577613830566,4.499325914973877,0.0,0.289493203163147,-1.3727501074420374,-9.983993719396886e-38,-0.023711051791906357,0.4837181270122528,7.603039090871803e-40,0.01207876019179821,1.2086100578308105,-0.0009707757853902876,-0.034217942506074905
220.0,291.0,3.7992,-0.3153,8.3916,-0.0304,0.0023,-0.1158,-1.6655475101866664,-0.0005538935074582696,2.5702130794525146,-1.6560250520706177,-0.0,2.1901445388793945,4.499350233668945,0.0,0.286448210477829,-1.3727224508868616,-2.779055114448977e-41,-0.02750391513109207,0.48376643657684326,2.1159606811304738e-43,-0.006417377851903439,1.2085821628570557,-0.0016766682965680957,0.034822870045900345
220.0,291.0,3.7992,-0.3153,8.3916,-0.0304,0.0023,-0.1158,-1.665619512597555,-0.0011797120096161962,2.5831122398376465,-1.6560453176498413,-0.0,2.184520721435547,4.499313517207764,0.0,0.29443487524986267,-1.3727582136737269,-8.407790785948902e-45,-0.024666614830493927,0.48373040556907654,0.0,0.007165870163589716,1.2085540294647217,-0.0016424048226326704,0.04323242977261543
220.0,291.0,3.7992,-0.3153,8.3916,-0.0304,0.0023,-0.1158,-1.6655951939024867,-0.0015999507158994675,2.5665946006774902,-1.656041145324707,-0.0,2.2004637718200684,4.499281569118164,0.0,0.2828238010406494,-1.3726986090289515,-0.0,-0.03276173025369644,0.48377835750579834,0.0,-0.004499646835029125,1.2085903882980347,-0.0015638378681614995,0.03909892216324806
220.0,291.0,3.7992,-0.3153,8.3916,-0.0304,0.0023,-0.1158,-1.6656114063658656,-0.0014580253046005964,2.535202741622925,-1.656044840812683,-0.0,2.162508726119995,4.499334498042725,0.0,0.29059839248657227,-1.372753922139303,-0.0,-0.040323950350284576,0.4837098717689514,0.0,-0.0020117314998060465,1.2085585594177246,-0.0018672527512535453,-0.0466637909412384
233.0,279.0,2.9862,-0.6263,9.4804,-0.0626,0.0289,-0.1081,-1.6656033001341761,-0.001257516909390688,2.5332512855529785,-1.656041145324707,-0.0,2.1693456172943115,4.49933831273999,0.0,0.29512661695480347,-1.3727262655841272,-0.0,-0.013009265065193176,0.48372626304626465,0.0,-0.009713646024465561,1.2084859609603882,-0.0030663253273814917,0.018976403400301933
233.0,279.0,2.9862,-0.6263,9.4804,-0.0626,0.0289,-0.1081,-1.665619512597555,-0.0010746428743004799,2.5749597549438477,-1.6560332775115967,-0.0,2.1613070964813232,4.499330206508301,0.0,0.292307585477829,-1.372702423726217,-0.0,-0.03441843390464783,0.48375052213668823,0.0,-0.01181472185999155,1.208498239517212,-0.0031673049088567495,0.020975027233362198
233.0,279.0,2.9862,-0.6263,9.4804,-0.0626,0.0289,-0.1081,-1.6655789814391078,-0.0007885181112214923,2.5746426582336426,-1.6560453176498413,-0.0,2.152167797088623,4.499298258418701,0.0,0.2846359312534332,-1.3726866880999964,-0.0,-0.04215220361948013,0.48371806740760803,0.0,0.017033949494361877,1.2084780931472778,-0.003479923587292433,-0.014054061844944954
233.0,279.0,2.9862,-0.6263,9.4804,-0.0626,0.0289,-0.1081,-1.665602823297018,-0.0007204915746115148,2.631150007247925,-1.6560453176498413,-0.0,2.170241355895996,4.499302073115967,0.0,0.29358309507369995,-1.3726943174945276,-0.0,-0.031794480979442596,0.4837619662284851,0.0,0.002167888218536973,1.2084426879882812,-0.003132455749437213,0.04229552298784256
233.0,279.0,2.9862,-0.6263,9.4804,-0.0626,0.0289,-0.1081,-1.6656352482237757,-0.0005541864666156471,2.529226779937744,-1.6560370922088623,-0.0,2.252119302749634,4.499270125026367,0.0,0.30283433198928833,-1.372690502797262,-0.0,-0.033566590398550034,0.48374220728874207,0.0,-0.0014537896495312452,1.2084864377975464,-0.0023538286332041025,-0.003210265189409256
233.0,279.0,2.9862,-0.6263,9.4804,-0.0626,0.0289,-0.1081,-1.6656152210631312,-0.00035798343014903367,2.584160804748535,-1.6560453176498413,-0.0,2.2273125648498535,4.49927727758374,0.0,0.2918497920036316,-1.372690502797262,-0.0,-0.02243742160499096,0.4837057590484619,0.0,0.01675722375512123,1.2084301710128784,-0.0014028683071956038,-0.004647137597203255
233.0,279.0,2.9862,-0.6263,9.4804,-0.0626,0.0289,-0.1081,-1.665602823297018,-0.0003680190711747855,2.573793888092041,-1.656041145324707,-0.0,2.194505453109741,4.499330206508301,0.0,0.29833662509918213,-1.3727462927447718,-0.0,-0.03288344293832779,0.4837340712547302,0.0,0.011685219593346119,1.2084622383117676,-0.001009240746498108,-0.022540107369422913
233.0,279.0,2.9862,-0.6263,9.4804,-0.0626,0.0289,-0.1081,-1.6656838856139125,-0.00040362373692914844,2.5554866790771484,-1.656041145324707,-0.0,2.1812679767608643,4.499274416560791,0.0,0.30006474256515503,-1.372678581868307,-0.0,-0.03852895647287369,0.48370617628097534,3.9416130448444164e-07,-0.006591673009097576,1.2084904909133911,-0.0007103162351995707,-0.03063368611037731
233.0,279.0,2.9862,-0.6263,9.4804,-0.0626,0.0289,-0.1081,-1.6656228504576625,-0.0005985773750580847,2.5637001991271973,-1.6560571193695068,-0.0,2.168461799621582,4.4993178087421875,0.0,0.3021570146083832,-1.3727181593524378,-0.0,-0.04376659542322159,0.48377013206481934,1.0971624303524052e-10,0.003494041971862316,1.2084420919418335,-0.0004824096104130149,-0.0072921584360301495
233.0,279.0,2.9862,-0.6263,9.4804,-0.0626,0.0289,-0.1081,-1.665647645989889,-0.0010833765845745802,2.5564780235290527,-1.6560617685317993,-0.0,2.1891515254974365,4.499270125026367,0.0,0.29315975308418274,-1.3727062384234827,-0.0,-0.04162529855966568,0.48375412821769714,4.677375023756647e-13,0.020267542451620102,1.2084985971450806,-0.00041617645183578134,0.04987363517284393
233.0,279.0,2.9862,-0.6263,9.4804,-0.0626,0.0289,-0.1081,-1.6656795940794886,-0.0020540724508464336,2.55122709274292,-1.656029224395752,-0.0,2.1827499866485596,4.499274416560791,0.0,0.3027770519256592,-1.3727105299579065,-0.0,-0.03784017264842987,0.48376190662384033,1.3019646817550304e-16,0.012754280120134354,1.2084746360778809,-0.0003473309043329209,0.015329623594880104
233.0,279.0,2.9862,-0.6263,9.4804,-0.0626,0.0289,-0.1081,-1.6656795940794886,-0.0027445091400295496,2.5390615463256836,-1.656001329421997,-0.0,2.163637638092041,4.49928252279248,0.0,0.30084797739982605,-1.3727105299579065,-0.0,-0.0380299910902977,0.48377424478530884,2.5575447580195032e-05,0.01888374611735344,1.2085105180740356,-0.0003128325042780489,0.028560694307088852
233.0,279.0,2.9862,-0.6263,9.4804,-0.0626,0.0289,-0.1081,-1.665682931939596,-0.003995557315647602,2.508167266845703,-1.6560735702514648,-0.0,2.123683452606201,4.499262018794678,0.0,0.28485107421875,-1.3727343718158167,-0.0,-0.04049161821603775,0.48382264375686646,0.0004067581321578473,0.006252962164580822,1.2085024118423462,-0.0002722698263823986,0.03944328427314758
233.0,279.0,2.9862,-0.6263,9.4804,-0.0626,0.0289,-0.1081,-1.6657277546324671,-0.004985201638191938,2.4613242149353027,-1.656057596206665,-0.0,2.15403413772583,4.499298258418701,0.0,0.29727667570114136,-1.3726823965655726,-0.0,-0.04240686073899269,0.48377829790115356,0.00041433892329223454,0.02055433765053749,1.2084823846817017,-0.00024101999588310719,0.03099137172102928
233.0,279.0,2.9862,-0.6263,9.4804,-0.0626,0.0289,-0.1081,-1.6657191715636195,-0.007059806026518345,2.4586193561553955,-1.6561294794082642,-0.0,2.1218619346618652,4.499286814326904,-0.0005775574827566743,0.27925869822502136,-1.3727262655841272,-0.0,-0.0434991717338562,0.4837660491466522,0.0005574558163061738,0.014871962368488312,1.208442211151123,-0.00022388857905752957,0.03065941482782364
233.0,279.0,2.9862,-0.6263,9.4804,-0.0626,0.0289,-0.1081,-1.6657992802061976,-0.008117576129734516,2.41845965385437,-1.656029224395752,-0.0,2.1437909603118896,4.499318762416504,-0.0005135073442943394,0.2827302813529968,-1.372702423726217,-0.0,-0.04718247801065445,0.48377013206481934,0.0004915635217912495,0.03150556609034538,1.2084462642669678,-0.00023005282855592668,0.04388834908604622
233.0,279.0,2.9862,-0.6263,9.4804,-0.0626,0.0289,-0.1081,-1.6658431492247523,-0.009712807834148407,2.419029951095581,-1.6560370922088623,-0.0,2.1494550704956055,4.499250097865723,-0.0004661363491322845,0.29261165857315063,-1.372690502797262,-0.0,-0.04741929471492767,0.4838066101074219,0.000451357860583812,0.014076371677219868,1.2084904909133911,-0.0002109017368638888,0.004604377318173647
233.0,279.0,2.9862,-0.6263,9.4804,-0.0626,0.0289,-0.1081,-1.6658746204771937,-0.009895779192447662,2.3934316635131836,-1.6560168266296387,-0.0,2.11202073097229,4.49928252279248,-0.0004561815003398806,0.29193028807640076,-1.3726866880999964,-0.0,-0.044145356863737106,0.48374223709106445,0.0003948863304685801,0.02352110669016838,1.2084462642669678,-0.00019923002400901169,0.015210889279842377
224.0,291.0,3.6012,-0.5061,8.479,-0.0461,0.0214,-0.128,-1.665983339349264,-0.011227263137698174,2.390324592590332,-1.6560453176498413,-0.0,2.1057419776916504,4.499293966884277,-0.0003888364299200475,0.2749617397785187,-1.3727381865130823,-0.0,-0.050213202834129333,0.483782023191452,0.00037972547579556704,0.012016557157039642,1.2084462642669678,-0.00012017400877084583,0.029408758506178856
224.0,291.0,3.6012,-0.5061,8.479,-0.0461,0.0214,-0.128,-1.665995260278219,-0.01131418440490961,2.3373756408691406,-1.6560250520706177,-0.0,2.1472785472869873,4.499250097865723,-0.00033610727405175567,0.2890778183937073,-1.3727062384234827,-0.0,-0.034243419766426086,0.48381882905960083,0.0003435782273299992,0.023370254784822464,1.2084261178970337,-0.00011407958663767204,0.037965983152389526
224.0,291.0,3.6012,-0.5061,8.479,-0.0461,0.0214,-0.128,-1.6660829983153285,-0.012121996842324734,2.3611841201782227,-1.65608549118042,-0.0,2.1164870262145996,4.499250097865723,-0.00026433015591464937,0.2806583046913147,-1.3727300802813929,-0.0,-0.04594498872756958,0.48370587825775146,0.0002611505624372512,0.0069213672541081905,1.2084662914276123,-0.00010601658868836239,-0.045014943927526474
224.0,291.0,3.6012,-0.5061,8.479,-0.0461,0.0214,-0.128,-1.6661669216551722,-0.012412123382091522,2.347195625305176,-1.6559889316558838,-0.0,2.158480405807495,4.499302073115967,-0.00026944204000756145,0.2743039131164551,-1.3727105299579065,-0.0,-0.02872980758547783,0.4837578237056732,0.0002668114029802382,0.0055688656866550446,1.2084425687789917,-9.901828889269382e-05,-0.00626345444470644
224.0,291.0,3.6012,-0.5061,8.479,-0.0461,0.0214,-0.128,-1.6662351093687953,-0.012615649960935116,2.3495566844940186,-1.6560044288635254,-0.0,2.140220880508423,4.499298735255859,-0.0002451621985528618,0.27975302934646606,-1.3727062384234827,-0.0,-0.050895806401968,0.48372992873191833,0.00024285526887979358,0.011208929121494293,1.2084622383117676,-9.484422480454668e-05,-0.0034999260678887367
224.0,291.0,3.6012,-0.5061,8.479,-0.0461,0.0214,-0.128,-1.6663032970824183,-0.01354612410068512,2.350482940673828,-1.6559807062149048,-0.0,2.104553461074829,4.4992381769367675,-0.0002515632368158549,0.2840816378593445,-1.3727224508868616,-0.0,-0.036969948559999466,0.4837660491466522,0.0002472183550707996,0.013708094134926796,1.2084581851959229,-8.920414256863296e-05,-0.004081306047737598
224.0,291.0,3.6012,-0.5061,8.479,-0.0461,0.0214,-0.128,-1.6663667164244593,-0.013477431610226631,2.3051910400390625,-1.656012773513794,-0.0,2.1199779510498047,4.4992663103291015,-0.0002247808879474178,0.26721376180648804,-1.3727224508868616,-0.0,-0.049906499683856964,0.48377373814582825,0.00022311412612907588,0.02612389624118805,1.2084543704986572,-8.41970177134499e-05,-0.05375528335571289
224.0,291.0,3.6012,-0.5061,8.479,-0.0461,0.0214,-0.128,-1.6663419208922328,-0.013483505696058273,2.3048617839813232,-1.6560168266296387,-0.0,2.0882480144500732,4.499238653773926,-0.00020980731642339379,0.26984941959381104,-1.3727143446551722,-0.0,-0.03777703642845154,0.48379838466644287,0.00023759735631756485,0.03101736679673195,1.2084985971450806,-8.115993841784075e-05,0.0035489043220877647
224.0,291.0,3.6012,-0.5061,8.479,-0.0461,0.0214,-0.128,-1.6665150127806605,-0.013883477076888084,2.2976975440979004,-1.656020998954773,-0.0,2.0878233909606934,4.499238653773926,-0.00021092718816362321,0.2818416953086853,-1.3726986090289515,-0.0,-0.05003523826599121,0.48384255170822144,0.0002166248596040532,0.022650517523288727,1.2084503173828125,-7.699416164541617e-05,-0.03009113296866417
224.0,291.0,3.6012,-0.5061,8.479,-0.0461,0.0214,-0.128,-1.6665665111937464,-0.014151056297123432,2.3160951137542725,-1.6559929847717285,-0.0,2.0968751907348633,4.499262495631836,-0.00020551936177071184,0.2777783274650574,-1.372702423726217,-0.0,-0.035209111869335175,0.48382261395454407,0.0002121461002388969,0.02117954194545746,1.2084782123565674,-7.444672519341111e-05,0.00048389879520982504
224.0,291.0,3.6012,-0.5061,8.479,-0.0461,0.0214,-0.128,-1.6666461429991664,-0.014531616121530533,2.363630771636963,-1.6560003757476807,-0.0,2.0757031440734863,4.499286337489746,-0.00018933278624899685,0.28300341963768005,-1.372702423726217,-0.0,-0.031732816249132156,0.48375776410102844,0.0001925333490362391,0.022976288571953773,1.2084425687789917,-7.092655869200826e-05,0.01316267903894186
224.0,291.0,3.6012,-0.5061,8.479,-0.0461,0.0214,-0.128,-1.6667019329466761,-0.015237240120768547,2.297788619995117,-1.6559640169143677,-0.0,2.1019513607025146,4.4991981226154785,-0.00017548832693137228,0.271007776260376,-1.372702423726217,-0.0,-0.05387722700834274,0.4838343858718872,0.00020357381436042488,0.018711190670728683,1.2084462642669678,-6.772430788259953e-05,0.0571037158370018
224.0,291.0,3.6012,-0.5061,8.479,-0.0461,0.0214,-0.128,-1.6668020687498988,-0.015736235305666924,2.3240444660186768,-1.656012773513794,-0.0,2.123180866241455,4.499234362239502,-0.00016733093070797622,0.2688400149345398,-1.3726943174945276,-0.0,-0.05653438717126846,0.4838102459907532,0.00019031570991501212,0.023237455636262894,1.2084343433380127,-6.574540020665154e-05,0.09894805401563644
224.0,291.0,3.6012,-0.5061,8.479,-0.0461,0.0214,-0.128,-1.666877885858053,-0.015652833506464958,2.309556722640991,-1.656037449836731,-0.0,2.0972766876220703,4.499182386989258,-0.00015642453217878938,0.28377386927604675,-1.372690502797262,-0.0,-0.05679306387901306,0.48375779390335083,0.00020077242515981197,0.012011800892651081,1.2084301710128784,-6.298485095612705e-05,0.019048113375902176
224.0,291.0,3.6012,-0.5061,8.479,-0.0461,0.0214,-0.128,-1.6670505009093226,-0.015654757618904114,2.3354811668395996,-1.6560778617858887,-0.0,2.102756977081299,4.499274416560791,-0.00014685279165860265,0.2858423888683319,-1.3726986090289515,-0.0,-0.05835465341806412,0.4837942123413086,0.00018327897123526782,0.03134550526738167,1.2084823846817017,-4.841354166273959e-05,0.030401259660720825
224.0,291.0,3.6012,-0.5061,8.479,-0.0461,0.0214,-0.128,-1.6670662365355433,-0.015332323499023914,2.3424320220947266,-1.6560453176498413,-0.0,2.132765293121338,4.499270601863525,-0.0001213986543007195,0.2701791822910309,-1.3727343718158167,-0.0,-0.05120379850268364,0.48383036255836487,0.00019772417726926506,0.02819615975022316,1.208478331565857,-4.709231507149525e-05,-0.004973407834768295
224.0,291.0,3.6012,-0.5061,8.479,-0.0461,0.0214,-0.128,-1.6671821079649867,-0.014771443791687489,2.292112350463867,-1.6560168266296387,-0.0,2.0996439456939697,4.499233885402344,-0.00010102218220708892,0.28623470664024353,-1.3727262655841272,1.653330059525615e-06,-0.05851965397596359,0.4837941825389862,0.00018286054546479136,0.024019034579396248,1.2084338665008545,-3.40380756824743e-05,0.03809790313243866
226.0,292.0,3.8411,-0.4253,8.8313,-0.0322,0.0021,-0.1248,-1.6672021351256312,-0.014592867344617844,2.3178296089172363,-1.656029224395752,7.84646108513698e-05,2.1336653232574463,4.499218149776123,-8.542308933101594e-05,0.2842854857444763,-1.3726943174945276,7.048405414877834e-09,-0.043459199368953705,0.4837697148323059,0.00019253521168138832,0.03277983516454697,1.2084581851959229,-3.3151005482068285e-05,0.08530483394861221
226.0,292.0,3.8411,-0.4253,8.8313,-0.0322,0.0021,-0.1248,-1.6673342190184535,-0.013616181910037994,2.355146884918213,-1.6560053825378418,6.313081394182518e-05,2.1154165267944336,4.499274416560791,-9.536809375276789e-05,0.28499549627304077,-1.3727062384234827,1.9619494830841466e-12,-0.06495221704244614,0.48381438851356506,0.0001861929486040026,0.024656489491462708,1.2084380388259888,2.83167482848512e-05,0.03686270862817764
226.0,292.0,3.8411,-0.4253,8.8313,-0.0322,0.0021,-0.1248,-1.667389532128805,-0.013255509547889233,2.355616331100464,-1.656037449836731,4.8421767132822424e-05,2.101191759109497,4.499241991634033,-7.289303175639361e-05,0.27501046657562256,-1.3727143446551722,5.4611586359406e-16,-0.0692693218588829,0.48380205035209656,0.0001986829738598317,0.023654881864786148,1.2084863185882568,3.422383815632202e-05,0.051212772727012634
226.0,292.0,3.8411,-0.4253,8.8313,-0.0322,0.0021,-0.1248,-1.6674539051451625,-0.013312314637005329,2.30926513671875,-1.6560137271881104,4.715330578619614e-05,2.118807315826416,4.499234362239502,-6.272476457525045e-05,0.2917678654193878,-1.372702423726217,2.32817717541777e-18,-0.07603971660137177,0.4837901294231415,0.0001851299311965704,0.029422231018543243,1.2084581851959229,4.922988227917813e-05,0.06551554799079895
226.0,292.0,3.8411,-0.4253,8.8313,-0.0322,0.0021,-0.1248,-1.66748108486318,-0.014666174538433552,2.3392748832702637,-1.655968189239502,4.5370557927526534e-05,2.112730026245117,4.499218149776123,-5.187307397136465e-05,0.28825151920318604,-1.3726823965655726,6.480565795118106e-22,-0.07138379663228989,0.48377785086631775,0.0001958238281076774,0.03587205335497856,1.208482265472412,4.687916225520894e-05,0.09002531319856644
226.0,292.0,3.8411,-0.4253,8.8313,-0.0322,0.0021,-0.1248,-1.6675974331297816,-0.015226364135742188,2.3305399417877197,-1.6559401750564575,5.711394624086097e-05,2.1505587100982666,4.499234362239502,-4.4223543227417395e-05,0.2893364429473877,-1.3726943174945276,1.8038893413045357e-25,-0.06884614378213882,0.4838102459907532,0.00020449707517400384,0.02472781389951706,1.2084343433380127,4.455830276128836e-05,0.07791894674301147
226.0,292.0,3.8411,-0.4253,8.8313,-0.0322,0.0021,-0.1248,-1.6676894627013148,-0.015301060862839222,2.366154670715332,-1.6559929847717285,1.7494439816800877e-05,2.144190788269043,4.499226732844971,-4.0265455027110875e-05,0.2892947793006897,-1.3726986090289515,7.69026330502751e-28,-0.06559855490922928,0.48382213711738586,0.0002552978985477239,0.02057524211704731,1.2084540128707886,4.313459066906944e-05,0.06880984455347061
226.0,292.0,3.8411,-0.4253,8.8313,-0.0322,0.0021,-0.1248,-1.667737146417135,-0.01539484690874815,2.304302215576172,-1.6560053825378418,4.2247018383623214e-11,2.161738872528076,4.499182386989258,-3.549967004801147e-05,0.2786797881126404,-1.3726986090289515,2.140613063765482e-31,-0.06924976408481598,0.483850359916687,0.0002578282728791237,0.03116777166724205,1.2084864377975464,4.116183117730543e-05,0.06558790057897568
226.0,292.0,3.8411,-0.4253,8.8313,-0.0322,0.0021,-0.1248,-1.6677805385985316,-0.015718618407845497,2.2818117141723633,-1.6560332775115967,7.604313669907787e-15,2.085581064224243,4.499250574702881,-3.290352105977945e-05,0.2867884337902069,-1.3727262655841272,9.125768558326436e-34,-0.07657912373542786,0.483826220035553,0.00027591834077611566,0.04293372109532356,1.2084782123565674,3.994399594375864e-05,0.12827247381210327
226.0,292.0,3.8411,-0.4253,8.8313,-0.0322,0.0021,-0.1248,-1.6678487263121546,-0.01654207706451416,2.3124964237213135,-1.656001329421997,1.8363525920950855e-20,2.164212226867676,4.499214335078857,-2.9651044314960018e-05,0.2828195095062256,-1.3727582136737269,2.540191347674449e-37,-0.06588438153266907,0.4838343858718872,0.00041324630728922784,0.026567351073026657,1.2084863185882568,3.82465441362001e-05,0.05226223170757294
226.0,292.0,3.8411,-0.4253,8.8313,-0.0322,0.0021,-0.1248,-1.6679846249022425,-0.01793644018471241,2.3779571056365967,-1.6559722423553467,4.434575723872887e-26,2.1582727432250977,4.499242468471191,-2.6983734642271884e-05,0.290977418422699,-1.3727105299579065,7.070671791290162e-41,-0.07015997171401978,0.48383021354675293,0.0006263747345656157,0.03115546517074108,1.2084741592407227,3.66875174222514e-05,0.08930442482233047
226.0,292.0,3.8411,-0.4253,8.8313,-0.0322,0.0021,-0.1248,-1.6680809460081996,-0.018282977864146233,2.2980852127075195,-1.6560052633285522,7.982079849089199e-30,2.126652956008911,4.499274416560791,-2.545715142332483e-05,0.30199339985847473,-1.3727262655841272,3.0127916982983567e-43,-0.06694765388965607,0.4838137626647949,0.001270183245651424,0.026621654629707336,1.208430290222168,4.761607124237344e-05,0.07244538515806198
226.0,292.0,3.8411,-0.4253,8.8313,-0.0322,0.0021,-0.1248,-1.6681729755797328,-0.01809517852962017,2.316631555557251,-1.6559888124465942,1.9275782767489016e-35,2.14747953414917,4.499274416560791,-2.3465758204110898e-05,0.29182684421539307,-1.3727143446551722,0.0,-0.07981276512145996,0.4837896525859833,0.0027945460751652718,0.04148028418421745,1.208482265472412,0.0001484349340898916,0.13564090430736542
226.0,292.0,3.8411,-0.4253,8.8313,-0.0322,0.0021,-0.1248,-1.6682926617064417,-0.018949011340737343,2.301110029220581,-1.656029224395752,4.654833238794177e-41,2.1653425693511963,4.4992992120930175,-2.1763378754258156e-05,0.2915962040424347,-1.3727143446551722,0.0,-0.07819299399852753,0.4838297367095947,0.00799020566046238,0.042249180376529694,1.208482265472412,0.00013827389921061695,0.07513292133808136
226.0,292.0,3.8411,-0.4253,8.8313,-0.0322,0.0021,-0.1248,-1.6683603725829066,-0.01911698281764984,2.3816871643066406,-1.6560332775115967,8.407790785948902e-45,2.113231658935547,4.499258204097412,-2.075933662126772e-05,0.2931392788887024,-1.3726943174945276,0.0,-0.07533176243305206,0.48393431305885315,0.014486863277852535,0.036974407732486725,1.208498239517212,0.00013026813394390047,0.03684794157743454
226.0,292.0,3.8411,-0.4253,8.8313,-0.0322,0.0021,-0.1248,-1.668488164941305,-0.020164063200354576,2.340245246887207,-1.656057596206665,-0.0,2.158299684524536,4.4992262560078125,-3.34764933995757e-07,0.2854140102863312,-1.3726943174945276,0.0,-0.07832804322242737,0.4840746223926544,0.015391628257930279,0.04624343290925026,1.2084581851959229,0.00011985882883891463,0.09658578783273697
226.0,292.0,3.8411,-0.4253,8.8313,-0.0322,0.0021,-0.1248,-1.668556352654928,-0.021042417734861374,2.3133623600006104,-1.6559886932373047,-0.0,2.119202136993408,4.499222441310547,-1.427155504885036e-09,0.30775412917137146,-1.3726661841021937,0.0,-0.0790579617023468,0.4840739071369171,0.011735683307051659,0.04451927915215492,1.2084945440292358,0.00011379682109691203,0.13102981448173523
226.0,292.0,3.8411,-0.4253,8.8313,-0.0322,0.0021,-0.1248,-1.668676038781637,-0.02176762744784355,2.3189358711242676,-1.655976414680481,-0.0,2.109622001647949,4.499250097865723,-3.9725395282325104e-13,0.3028804659843445,-1.3727181593524378,0.0,-0.08837945759296417,0.4841378927230835,0.004603395238518715,0.04685771465301514,1.2084863185882568,0.00010577236389508471,0.08626234531402588
230.0,293.0,3.3535,0.0389,8.6877,-0.0333,-0.0038,-0.111,-1.668835779229635,-0.023739542812108994,2.328770160675049,-1.6559847593307495,-0.0,2.1637024879455566,4.499250097865723,-1.1057708738706001e-16,0.3015429973602295,-1.3727143446551722,0.0,-0.08196365833282471,0.48407721519470215,0.0009615023154765368,0.03017168492078781,1.2084782123565674,9.880519064608961e-05,0.07902637124061584
230.0,293.0,3.3535,0.0389,8.6877,-0.0333,-0.0038,-0.111,-1.6689239941039027,-0.02358206734061241,2.356478452682495,-1.656001329421997,-0.0,2.1486291885375977,4.499250097865723,-4.714074910581914e-19,0.2932147681713104,-1.3727262655841272,0.0,-0.08597179502248764,0.4841054677963257,0.00022402175818569958,0.03086046129465103,1.208482265472412,9.464887261856347e-05,0.07972293347120285
230.0,293.0,3.3535,0.0389,8.6877,-0.0333,-0.0038,-0.111,-1.669108053246969,-0.02464701607823372,2.334230661392212,-1.6559765338897705,-0.0,2.1562130451202393,4.499250097865723,-1.3121799963653407e-22,0.30305153131484985,-1.3726986090289515,0.0,-0.07716448605060577,0.4841255843639374,0.00011654139234451577,0.040342241525650024,1.2084499597549438,8.903106936486438e-05,0.09923592209815979
230.0,293.0,3.3535,0.0389,8.6877,-0.0333,-0.0038,-0.111,-1.669199605981344,-0.026774564757943153,2.3711163997650146,-1.6560416221618652,-0.0,2.1657371520996094,4.499270601863525,-5.594029122633065e-25,0.3014540672302246,-1.3727381865130823,0.0,-0.10093412548303604,0.4841374158859253,9.252272866433486e-05,0.04457491636276245,1.2084987163543701,6.874820246594027e-05,0.08700839430093765
230.0,293.0,3.3535,0.0389,8.6877,-0.0333,-0.0038,-0.111,-1.6693555317320765,-0.027818311005830765,2.3957583904266357,-1.6559888124465942,-0.0,2.1484007835388184,4.49928252279248,-1.5571185730088335e-28,0.2948712706565857,-1.3727300802813929,0.0,-0.09485290944576263,0.48415374755859375,7.069432467687875e-05,0.05003225803375244,1.2084662914276123,6.481345189968124e-05,0.11469101905822754
230.0,293.0,3.3535,0.0389,8.6877,-0.0333,-0.0038,-0.111,-1.6695362530150355,-0.029590262100100517,2.367781162261963,-1.656029224395752,0.00011541142157511786,2.140524387359619,4.499270601863525,-4.3342977579049115e-32,0.3013346195220947,-1.372690502797262,0.0,-0.1071668192744255,0.484133243560791,5.720466288039461e-05,0.0391501784324646,1.2084457874298096,6.149219552753493e-05,0.11820933222770691
230.0,293.0,3.3535,0.0389,8.6877,-0.0333,-0.0038,-0.111,-1.6696192226805628,-0.030399207025766373,2.3996481895446777,-1.6559971570968628,0.0001338787842541933,2.130310297012329,4.4992262560078125,-1.8477791998948575e-34,0.30660879611968994,-1.3727300802813929,0.0,-0.09558326005935669,0.484117716550827,5.075003718957305e-05,0.04869217425584793,1.2084420919418335,5.946092642261647e-05,0.1071196049451828
230.0,293.0,3.3535,0.0389,8.6877,-0.0333,-0.0038,-0.111,-1.6697913608946742,-0.03176253288984299,2.362424850463867,-1.6559805870056152,0.00014627979544457048,2.1611616611480713,4.499262495631836,-5.14336119617911e-38,0.3111684322357178,-1.3726943174945276,0.0,-0.09743384271860123,0.4840853810310364,8.660477760713547e-05,0.0326642170548439,1.2084699869155884,4.268333941581659e-05,0.12565653026103973
230.0,293.0,3.3535,0.0389,8.6877,-0.0333,-0.0038,-0.111,-1.6700073681273402,-0.032937292009592056,2.362995147705078,-1.6560219526290894,0.000156300506205298,2.146937608718872,4.499230070705078,-1.4317066410006656e-41,0.3086308538913727,-1.372742001210348,0.0,-0.09119697660207748,0.48415374755859375,7.58347669034265e-05,0.03908506780862808,1.2084581851959229,4.0574752347311005e-05,0.09540722519159317
230.0,293.0,3.3535,0.0389,8.6877,-0.0333,-0.0038,-0.111,-1.6701351604857386,-0.034405507147312164,2.3249619007110596,-1.6560053825378418,0.0004234656225889921,2.139267683029175,4.49928252279248,-6.165713243029195e-44,0.32690852880477905,-1.3727062384234827,0.0,-0.10631655156612396,0.4841255843639374,6.994034629315138e-05,0.04579106718301773,1.2084581851959229,3.939084126614034e-05,0.060544662177562714
230.0,293.0,3.3535,0.0389,8.6877,-0.0333,-0.0038,-0.111,-1.6703225574889125,-0.036068134009838104,2.3268563747406006,-1.6559888124465942,0.0003966398071497679,2.161079168319702,4.499241991634033,-0.0,0.31693583726882935,-1.3727105299579065,0.0,-0.10483160614967346,0.48416566848754883,9.388353646500036e-05,0.048685863614082336,1.2084863185882568,-1.4815414942859206e-05,0.10981732606887817
230.0,293.0,3.3535,0.0389,8.6877,-0.0333,-0.0038,-0.111,-1.6704660854735316,-0.03813796117901802,2.3315420150756836,-1.6559443473815918,0.00040345173329114914,2.146185874938965,4.499238653773926,-0.0,0.2991541922092438,-1.3726943174945276,0.0,-0.08981406688690186,0.48408544063568115,8.784183592069894e-05,0.052505914121866226,1.2085022926330566,-4.027389513794333e-05,0.10332155227661133
230.0,293.0,3.3535,0.0389,8.6877,-0.0333,-0.0038,-0.111,-1.6707264385619105,-0.03989877179265022,2.3587498664855957,-1.6559888124465942,0.0003890702791977674,2.1209487915039062,4.499258204097412,-0.0,0.3128902316093445,-1.372702423726217,0.0,-0.09964721649885178,0.4841497838497162,0.00010667562310118228,0.05596502870321274,1.2084462642669678,-3.774495780817233e-05,0.09240619838237762
230.0,293.0,3.3535,0.0389,8.6877,-0.0333,-0.0038,-0.111,-1.670901437798971,-0.040171097964048386,2.3584041595458984,-1.655992865562439,0.00043143032235093415,2.1449952125549316,4.499274416560791,-0.0,0.3058730661869049,-1.372742001210348,0.0,-0.09363208711147308,0.48418211936950684,9.799229155760258e-05,0.05196532607078552,1.2084782123565674,-3.551106055965647e-05,0.13531669974327087
230.0,293.0,3.3535,0.0389,8.6877,-0.0333,-0.0038,-0.111,-1.6710778675475062,-0.03894467279314995,2.4080796241760254,-1.6560137271881104,0.0004935046308673918,2.1671576499938965,4.49928252279248,-0.0,0.3116774559020996,-1.3727224508868616,0.0,-0.09500961005687714,0.48414966464042664,0.00012879681889899075,0.043972644954919815,1.2084301710128784,-3.416310573811643e-05,0.054907768964767456
230.0,293.0,3.3535,0.0389,8.6877,-0.0333,-0.0038,-0.111,-1.6713458500304164,-0.03738770633935928,2.358774185180664,-1.6559805870056152,0.000770232523791492,2.1757092475891113,4.49928252279248,-0.0,0.3140619099140167,-1.3727381865130823,0.0,-0.08482079207897186,0.48419812321662903,0.0001308576756855473,0.05515093356370926,1.2084380388259888,-3.232272865716368e-05,0.10186922550201416
230.0,293.0,3.3535,0.0389,8.6877,-0.0333,-0.0038,-0.111,-1.6715408764281214,-0.035583462566137314,2.3577475547790527,-1.6559607982635498,0.0006524159107357264,2.1322009563446045,4.499326868648193,-0.0,0.3129637837409973,-1.372742001210348,0.0,-0.08295296132564545,0.48414966464042664,0.00013245819718576968,0.04582887142896652,1.2084782123565674,-4.59812545159366e-05,0.07809759676456451
223.0,298.0,3.4409,-0.2584,8.7003,-0.0147,-0.002,-0.1321,-1.671685358087057,-0.036531999707221985,2.342843770980835,-1.6559412479400635,0.000606995599810034,2.1311051845550537,4.499265833491943,-0.0,0.32127225399017334,-1.3727181593524378,0.0,-0.09458263963460922,0.4841214120388031,0.00014659555745311081,0.055179618299007416,1.2084864377975464,-4.448961772141047e-05,0.07080379873514175
223.0,298.0,3.4409,-0.2584,8.7003,-0.0147,-0.002,-0.1321,-1.6719166241087855,-0.03488343954086304,2.3522818088531494,-1.655948519706726,0.0003458603168837726,2.1489615440368652,4.499254389400146,-0.0,0.30886566638946533,-1.3727224508868616,0.0,-0.07247912883758545,0.48415374755859375,0.00015473674284294248,0.05110233277082443,1.2084782123565674,-4.2394000047352165e-05,0.09703326225280762
223.0,298.0,3.4409,-0.2584,8.7003,-0.0147,-0.002,-0.1321,-1.6720768413939417,-0.0348411425948143,2.356712579727173,-1.6560053825378418,0.00029009199352003634,2.1520309448242188,4.499230070705078,-0.0,0.30290013551712036,-1.3727343718158167,0.0,-0.1009424552321434,0.48415374755859375,0.00022808884386904538,0.058061908930540085,1.2084746360778809,-4.110323789063841e-05,0.06734681874513626
223.0,298.0,3.4409,-0.2584,8.7003,-0.0147,-0.002,-0.1321,-1.6722928486266078,-0.03483695909380913,2.384986400604248,-1.655924677848816,0.0002336063189432025,2.153393268585205,4.49928252279248,-0.0,0.31119483709335327,-1.3727262655841272,0.0,-0.10757789015769958,0.4841775894165039,0.00030867167515680194,0.04779576510190964,1.2084581851959229,-3.9308091800194234e-05,0.03993888944387436
223.0,298.0,3.4409,-0.2584,8.7003,-0.0147,-0.002,-0.1321,-1.672488351861471,-0.036036767065525055,2.3752503395080566,-1.6559453010559082,7.379944872809574e-05,2.1444129943847656,4.499278231258057,0.0001844103680923581,0.33134275674819946,-1.3727739492999476,0.0,-0.10639292001724243,0.48415374755859375,0.00034059464815072715,0.052375033497810364,1.2084622383117676,-3.766314694075845e-05,0.1256822794675827
223.0,298.0,3.4409,-0.2584,8.7003,-0.0147,-0.002,-0.1321,-1.6725722752013148,-0.035260848701000214,2.408991575241089,-1.6559576988220215,0.00012644634989555925,2.1520895957946777,4.499285860652588,0.0001982265675906092,0.3216243386268616,-1.3727262655841272,0.0,-0.0951838344335556,0.48417341709136963,0.000486224889755249,0.05213504284620285,1.2084823846817017,-3.6640944017563015e-05,0.09950970113277435
223.0,298.0,3.4409,-0.2584,8.7003,-0.0147,-0.002,-0.1321,-1.6728083095946253,-0.03388957679271698,2.3982179164886475,-1.6558605432510376,0.001005947357043624,2.165626287460327,4.499298258418701,0.00022509258997160941,0.3171376585960388,-1.3727224508868616,-7.108807767508551e-05,-0.11825968325138092,0.4841897487640381,0.0005590742803178728,0.04647158831357956,1.2084301710128784,-3.520761674735695e-05,0.07729669660329819
