ramyac6/ROB537/final_project/csv/all/bad_179.csv
tof_0,tof_1,accelx,accely,accelz,gyrox,gyroy,gyroz,shoulder_lift_joint_position,shoulder_lift_joint_velocity,shoulder_lift_joint_effort,elbow_joint_position,elbow_joint_velocity,elbow_joint_effort,wrist_1_joint_position,wrist_1_joint_velocity,wrist_1_joint_effort,wrist_2_joint_position,wrist_2_joint_velocity,wrist_2_joint_effort,wrist_3_joint_position,wrist_3_joint_velocity,wrist_3_joint_effort,shoulder_pan_joint_position,shoulder_pan_joint_velocity,shoulder_pan_joint_effort
247.0,242.0,0.9117,-3.2136,9.5025,-0.0327,0.0134,-0.117,-1.7795683346190394,0.0,3.0054376125335693,-1.6435834169387817,-0.0,2.077863931655884,4.882903042226591,0.0,0.2765042781829834,-1.1961000601397913,0.0,-0.050847962498664856,0.3137349486351013,0.0,0.00034829569631256163,0.9847888350486755,0.0,0.04689595848321915
247.0,242.0,0.9117,-3.2136,9.5025,-0.0327,0.0134,-0.117,-1.7796045742430628,0.0,3.001880168914795,-1.6436071395874023,-0.0,2.0892081260681152,4.88279469588355,0.0,0.2808690071105957,-1.1960795561419886,0.0,-0.04454933851957321,0.313642293214798,0.0,-0.0015046526677906513,0.9847650527954102,0.0,-0.02300679311156273
247.0,242.0,0.9117,-3.2136,9.5025,-0.0327,0.0134,-0.117,-1.779572149316305,0.0,2.983900547027588,-1.6435515880584717,-0.0,2.0832252502441406,4.882894846587934,0.0,0.28523778915405273,-1.1960962454425257,0.0,-0.047689564526081085,0.3136746883392334,0.0,0.004701883532106876,0.9847569465637207,0.0,-0.021212656050920486
247.0,242.0,0.9117,-3.2136,9.5025,-0.0327,0.0134,-0.117,-1.779588361779684,0.0,3.009214401245117,-1.6435110569000244,-0.0,2.094921112060547,4.882874759822645,0.0,0.2652757167816162,-1.1961444059955042,0.0,-0.04949426278471947,0.313602477312088,0.0,0.001265260623767972,0.9847970008850098,0.0,-0.01714826375246048
247.0,242.0,0.9117,-3.2136,9.5025,-0.0327,0.0134,-0.117,-1.7796408138670863,0.0,3.0046474933624268,-1.6435431241989136,-0.0,2.0881381034851074,4.882822963386335,0.0,0.2748147249221802,-1.196120564137594,0.0,-0.056426577270030975,0.3136705458164215,0.0,-0.011035474017262459,0.984748899936676,0.0,0.008254394866526127
247.0,242.0,0.9117,-3.2136,9.5025,-0.0327,0.0134,-0.117,-1.7796246014037074,0.0,3.0054783821105957,-1.6435835361480713,-0.0,2.1349616050720215,4.882818969875135,0.0,0.2779996693134308,-1.1961563269244593,0.0,-0.04968184977769852,0.3136866092681885,0.0,-0.002321360632777214,0.9847569465637207,0.0,-0.009197413921356201
247.0,242.0,0.9117,-3.2136,9.5025,-0.0327,0.0134,-0.117,-1.7795926533141078,0.0,3.0105690956115723,-1.6436039209365845,-0.0,2.1074135303497314,4.882874744921484,0.0,0.2753037214279175,-1.1960962454425257,0.0,-0.05220073461532593,0.31366652250289917,0.0,0.007285331375896931,0.984792947769165,0.0,0.08492754399776459
247.0,242.0,0.9117,-3.2136,9.5025,-0.0327,0.0134,-0.117,-1.7796045742430628,0.0,2.9789438247680664,-1.6435431241989136,-0.0,2.134512424468994,4.882834660797872,0.0,0.2782387137413025,-1.1961243788348597,0.0,-0.047507986426353455,0.31367063522338867,0.0,-0.006021604873239994,0.9847769737243652,0.0,-0.039442431181669235
247.0,242.0,0.9117,-3.2136,9.5025,-0.0327,0.0134,-0.117,-1.779572149316305,0.0,3.0195655822753906,-1.6435555219650269,-0.0,2.0936644077301025,4.882851007371702,0.0,0.2720384895801544,-1.196120564137594,0.0,-0.03872077167034149,0.3136586844921112,0.0,0.005674366839230061,0.984792947769165,0.0,-0.008219573646783829
247.0,242.0,0.9117,-3.2136,9.5025,-0.0327,0.0134,-0.117,-1.7795397243895472,0.0,3.0247693061828613,-1.6435596942901611,-0.0,2.1044816970825195,4.882850992470541,0.0,0.27779421210289,-1.1961286703692835,0.0,-0.0507805272936821,0.31368258595466614,0.0,0.0002265323419123888,0.9847847819328308,0.0,7.194012869149446e-05
247.0,242.0,0.9117,-3.2136,9.5025,-0.0327,0.0134,-0.117,-1.7796369991698207,0.0,3.0321953296661377,-1.6435834169387817,-0.0,2.115140438079834,4.882830503373899,0.0,0.27921414375305176,-1.1961286703692835,0.0,-0.05553247779607773,0.3136787712574005,0.0,-0.012097654864192009,0.984748899936676,0.0,0.04805542528629303
248.0,244.0,1.0654,-3.0251,8.9252,-0.035,0.0244,-0.1162,-1.779572149316305,0.0,2.9979844093322754,-1.643587589263916,-0.0,2.1490490436553955,4.882818984776296,0.0,0.26849353313446045,-1.196108643208639,0.0,-0.04155970364809036,0.31372714042663574,0.0,-0.004025016445666552,0.9847728610038757,0.0,0.033810585737228394
248.0,244.0,1.0654,-3.0251,8.9252,-0.035,0.0244,-0.1162,-1.7796045742430628,0.0,3.006747245788574,-1.643615484237671,-0.0,2.1368634700775146,4.882866966515341,0.0,0.26443248987197876,-1.196108643208639,0.0,-0.044922925531864166,0.3136787712574005,0.0,-0.0022247182205319405,0.9847847819328308,0.0,-0.02204424887895584
248.0,244.0,1.0654,-3.0251,8.9252,-0.035,0.0244,-0.1162,-1.7795802555479945,0.0,3.0616397857666016,-1.6435596942901611,-0.0,2.155412435531616,4.882858741074362,0.0,0.2838215231895447,-1.1960919539081019,0.0,-0.051772527396678925,0.3137066960334778,0.0,-0.008191702887415886,0.9847848415374756,0.0,-0.02055858075618744
248.0,244.0,1.0654,-3.0251,8.9252,-0.035,0.0244,-0.1162,-1.7796045742430628,0.0,3.012270450592041,-1.6435596942901611,-0.0,2.1199140548706055,4.8828468201454065,0.0,0.28380462527275085,-1.1961124579059046,0.0,-0.043939560651779175,0.3136546015739441,0.0,-0.007945744320750237,0.9847610592842102,0.0,-0.03070840984582901
248.0,244.0,1.0654,-3.0251,8.9252,-0.035,0.0244,-0.1162,-1.77958407024526,0.0,3.0119283199310303,-1.6435030698776245,-0.0,2.0842628479003906,4.882895234018125,0.0,0.26625388860702515,-1.1960838476764124,0.0,-0.057089876383543015,0.3136504888534546,0.0,0.0017397082410752773,0.9847769737243652,0.0,-0.005854872055351734
248.0,244.0,1.0654,-3.0251,8.9252,-0.035,0.0244,-0.1162,-1.7795959911742152,0.0,3.045846462249756,-1.6435792446136475,-0.0,2.0679168701171875,4.882870989828863,0.0,0.27825838327407837,-1.196160141621725,0.0,-0.06276170909404755,0.31363824009895325,0.0,0.008221134543418884,0.984748899936676,0.0,0.06436119973659515
248.0,244.0,1.0654,-3.0251,8.9252,-0.035,0.0244,-0.1162,-1.7795478306212367,0.0,3.0408263206481934,-1.6436318159103394,-0.0,2.09612774848938,4.882810714631834,0.0,0.2717435359954834,-1.1961000601397913,0.0,-0.051175445318222046,0.3136943578720093,0.0,-0.005375415552407503,0.9847328662872314,0.0,0.01514848880469799
248.0,244.0,1.0654,-3.0251,8.9252,-0.035,0.0244,-0.1162,-1.7795959911742152,0.0,2.975897789001465,-1.6435390710830688,-0.0,2.135300636291504,4.882894757180967,0.0,0.26763442158699036,-1.1960962454425257,0.0,-0.05397423729300499,0.3137030005455017,0.0,0.006249775178730488,0.9847807884216309,0.0,-0.018263688310980797
248.0,244.0,1.0654,-3.0251,8.9252,-0.035,0.0244,-0.1162,-1.7796083889403285,0.0,3.009892463684082,-1.6435431241989136,-0.0,2.0961973667144775,4.8828546581561945,0.0,0.27624356746673584,-1.1961644331561487,0.0,-0.058915816247463226,0.3136746883392334,0.0,-0.00882776826620102,0.98478102684021,0.0,-0.0033782077953219414
248.0,244.0,1.0654,-3.0251,8.9252,-0.035,0.0244,-0.1162,-1.779600282708639,0.0,3.000000238418579,-1.6436039209365845,-0.0,2.088958263397217,4.8828066168125055,0.0,0.27711281180381775,-1.1961162726031702,0.0,-0.0516253337264061,0.31367433071136475,0.0,-0.001788661116734147,0.9847807884216309,0.0,-0.016254600137472153
248.0,244.0,1.0654,-3.0251,8.9252,-0.035,0.0244,-0.1162,-1.7795559368529261,0.0,3.0056545734405518,-1.6435555219650269,-0.0,2.074660062789917,4.8828546581561945,0.0,0.28742021322250366,-1.1960518995868128,0.0,-0.05700269713997841,0.3136989176273346,0.0,-0.005327336955815554,0.9847648739814758,0.0,-0.018917571753263474
248.0,244.0,1.0654,-3.0251,8.9252,-0.035,0.0244,-0.1162,-1.77958407024526,0.0,3.017744541168213,-1.6436039209365845,-0.0,2.127281427383423,4.882830488472738,0.0,0.2737969160079956,-1.1960762182818812,0.0,-0.06168937683105469,0.3136463761329651,0.0,-0.00016255280934274197,0.9847689270973206,0.0,-0.01724112778902054
248.0,244.0,1.0654,-3.0251,8.9252,-0.035,0.0244,-0.1162,-1.77958407024526,0.0,3.0019235610961914,-1.6435110569000244,-0.0,2.135262966156006,4.882830503373899,0.0,0.2710530757904053,-1.1960957686053675,0.0,-0.04560990259051323,0.3136906921863556,0.0,-0.0007261339924298227,0.9847728610038757,0.0,0.02827843651175499
248.0,244.0,1.0654,-3.0251,8.9252,-0.035,0.0244,-0.1162,-1.7795764408507289,0.0,2.981271266937256,-1.6435389518737793,-0.0,2.110828399658203,4.882862868696012,0.0,0.2887541651725769,-1.196075741444723,0.0,-0.0647088959813118,0.31368663907051086,0.0,-0.010504992678761482,0.9847489595413208,0.0,0.017802109941840172
248.0,244.0,1.0654,-3.0251,8.9252,-0.035,0.0244,-0.1162,-1.7795559368529261,0.0,2.984745979309082,-1.6435719728469849,-0.0,2.1054439544677734,4.882842707424917,0.0,0.2845335006713867,-1.1961286703692835,0.0,-0.04843808710575104,0.31373131275177,0.0,-0.005255457479506731,0.9847288727760315,0.0,-0.004743549507111311
248.0,244.0,1.0654,-3.0251,8.9252,-0.035,0.0244,-0.1162,-1.7796045742430628,0.0,3.0308966636657715,-1.6435596942901611,-0.0,2.101529598236084,4.8828386692102335,0.0,0.26588836312294006,-1.1961401144610804,0.0,-0.059163257479667664,0.3136586844921112,0.0,-0.005745915230363607,0.9847529530525208,0.0,0.04438357055187225
248.0,244.0,1.0654,-3.0251,8.9252,-0.035,0.0244,-0.1162,-1.7795959911742152,0.0,3.042264938354492,-1.6435189247131348,-0.0,2.1178531646728516,4.882862779289045,0.0,0.28992611169815063,-1.1960919539081019,0.0,-0.05482742190361023,0.3136627674102783,0.0,-1.1339434422552586e-05,0.9847407341003418,0.0,0.006005735136568546
248.0,244.0,1.0654,-3.0251,8.9252,-0.035,0.0244,-0.1162,-1.7796126804747523,0.0,3.03835129737854,-1.6435760259628296,-0.0,2.1491811275482178,4.8828546581561945,0.0,0.2822110950946808,-1.196087662373678,0.0,-0.06796210259199142,0.3137190639972687,0.0,-0.004614001139998436,0.9847569465637207,0.0,-0.012783177196979523
248.0,244.0,1.0654,-3.0251,8.9252,-0.035,0.0244,-0.1162,-1.779616495172018,0.0,3.005021095275879,-1.6435874700546265,-0.0,2.105048894882202,4.882830503373899,0.0,0.27168774604797363,-1.1960638205157679,0.0,-0.04843568056821823,0.31363004446029663,0.0,-0.006422713398933411,0.9847807884216309,0.0,0.02264135144650936
248.0,244.0,1.0654,-3.0251,8.9252,-0.035,0.0244,-0.1162,-1.7795802555479945,0.0,2.9844346046447754,-1.6436196565628052,-0.0,2.127692222595215,4.882830458670416,0.0,0.2769864797592163,-1.1961525122271937,0.0,-0.05895288288593292,0.3136586844921112,0.0,-0.009374837391078472,0.9847848415374756,0.0,0.05365387350320816
248.0,244.0,1.0654,-3.0251,8.9252,-0.035,0.0244,-0.1162,-1.7795802555479945,0.0,3.0312488079071045,-1.6435596942901611,-0.0,2.137888193130493,4.882822337537565,0.0,0.2806274890899658,-1.196120564137594,0.0,-0.055198825895786285,0.3137066960334778,0.0,0.006017859093844891,0.9847366213798523,0.0,-0.04362915828824043
247.0,248.0,1.1282,-3.0538,9.0,-0.0392,0.022,-0.1171,-1.7795802555479945,0.0,3.017119884490967,-1.643511176109314,-0.0,2.098114013671875,4.8828587261732,0.0,0.280712366104126,-1.1961000601397913,0.0,-0.04497683420777321,0.31366273760795593,0.0,-0.0019758318085223436,0.9847847819328308,0.0,0.00502227945253253
247.0,248.0,1.1282,-3.0538,9.0,-0.0392,0.022,-0.1171,-1.779588361779684,0.0,3.0103554725646973,-1.6435390710830688,-0.0,2.0675511360168457,4.882834645896711,0.0,0.28256499767303467,-1.1960838476764124,0.0,-0.052187029272317886,0.3136669397354126,0.0,0.00786641240119934,0.9847928881645203,0.0,-0.04406582564115524
247.0,248.0,1.1282,-3.0538,9.0,-0.0392,0.022,-0.1171,-1.779588361779684,0.0,3.0114474296569824,-1.6435956954956055,-0.0,2.136720657348633,4.8828346756990335,0.0,0.29012537002563477,-1.1961043516742151,0.0,-0.056539762765169144,0.3136866092681885,0.0,-0.004250433761626482,0.9848169684410095,0.0,-0.012741749174892902
247.0,248.0,1.1282,-3.0538,9.0,-0.0392,0.022,-0.1171,-1.7795964680113734,0.0,3.048522472381592,-1.6435792446136475,-0.0,2.117100715637207,4.882850992470541,0.0,0.2718684673309326,-1.1960795561419886,0.0,-0.05461634695529938,0.3136947751045227,0.0,-0.001360930735245347,0.9847728610038757,0.0,-0.01282268576323986
247.0,248.0,1.1282,-3.0538,9.0,-0.0392,0.022,-0.1171,-1.7796246014037074,0.0,2.9825634956359863,-1.6435835361480713,-0.0,2.1387743949890137,4.8828386692102335,0.0,0.2743104100227356,-1.196148697529928,0.0,-0.0537843257188797,0.31370261311531067,0.0,-0.0017130204942077398,0.9848048090934753,0.0,-0.009770800359547138
247.0,248.0,1.1282,-3.0538,9.0,-0.0392,0.022,-0.1171,-1.7795959911742152,0.0,3.045830011367798,-1.6435669660568237,-0.0,2.168081760406494,4.88285097756938,0.0,0.29130929708480835,-1.1960962454425257,0.0,-0.0506591871380806,0.3136627674102783,0.0,-0.0016340967267751694,0.9847489595413208,0.0,-0.007061384618282318
247.0,248.0,1.1282,-3.0538,9.0,-0.0392,0.022,-0.1171,-1.779588361779684,0.0,3.0233356952667236,-1.6435874700546265,-0.0,2.1283228397369385,4.882890704065122,0.0,0.27744972705841064,-1.1961239019977015,0.0,-0.048205986618995667,0.3136746883392334,0.0,-0.012767426669597626,0.9847688674926758,0.0,0.00859507080167532
247.0,248.0,1.1282,-3.0538,9.0,-0.0392,0.022,-0.1171,-1.7795964680113734,0.0,3.0007643699645996,-1.6436080932617188,-0.0,2.1449642181396484,4.882858741074362,0.0,0.2679053544998169,-1.1960881392108362,0.0,-0.05530640482902527,0.31371498107910156,0.0,-0.008646281436085701,0.984768807888031,0.0,0.011575238779187202
247.0,248.0,1.1282,-3.0538,9.0,-0.0392,0.022,-0.1171,-1.7795959911742152,0.0,2.9981987476348877,-1.6436039209365845,-0.0,2.1003782749176025,4.8828468201454065,0.0,0.28368279337882996,-1.196087662373678,0.0,-0.04985485225915909,0.31373900175094604,0.0,0.00033607007935643196,0.9847888350486755,0.0,-0.05677589029073715
247.0,248.0,1.1282,-3.0538,9.0,-0.0392,0.022,-0.1171,-1.779572149316305,0.0,2.9793777465820312,-1.6435792446136475,-0.0,2.106072187423706,4.88285097756938,0.0,0.2843341529369354,-1.196064297352926,0.0,-0.047246143221855164,0.3136669397354126,0.0,-0.01607307232916355,0.9847807884216309,0.0,-0.02290966920554638
247.0,248.0,1.1282,-3.0538,9.0,-0.0392,0.022,-0.1171,-1.7796126804747523,0.0,2.955587148666382,-1.6435431241989136,-0.0,2.0933566093444824,4.882870974927702,0.0,0.2798156142234802,-1.1960919539081019,0.0,-0.04778975993394852,0.31363460421562195,0.0,0.00692408625036478,0.9847967028617859,0.0,0.021707849577069283
247.0,248.0,1.1282,-3.0538,9.0,-0.0392,0.022,-0.1171,-1.77958407024526,0.0,3.0008296966552734,-1.6435353755950928,-0.0,2.0527987480163574,4.882846805244245,0.0,0.28292909264564514,-1.1961243788348597,0.0,-0.05463109910488129,0.3137066662311554,0.0,0.0009555587312206626,0.9847207069396973,0.0,0.01210445910692215
247.0,248.0,1.1282,-3.0538,9.0,-0.0392,0.022,-0.1171,-1.779616495172018,0.0,2.994372844696045,-1.6435915231704712,-0.0,2.1390140056610107,4.882858741074362,0.0,0.28083252906799316,-1.196108643208639,0.0,-0.060979168862104416,0.31364643573760986,0.0,0.0024631922133266926,0.9847529530525208,0.0,-0.02385900169610977
247.0,248.0,1.1282,-3.0538,9.0,-0.0392,0.022,-0.1171,-1.7795926533141078,0.0,2.998955249786377,-1.6435834169387817,-0.0,2.097480535507202,4.882874700218,0.0,0.28042078018188477,-1.196108643208639,0.0,-0.051431842148303986,0.3136546313762665,0.0,-0.005525616928935051,0.9847847819328308,0.0,-0.027381565421819687
247.0,248.0,1.1282,-3.0538,9.0,-0.0392,0.022,-0.1171,-1.779600282708639,0.0,3.0303564071655273,-1.6435431241989136,-0.0,2.109121084213257,4.8828386692102335,0.0,0.26627007126808167,-1.1961525122271937,0.0,-0.04419219121336937,0.3136546015739441,0.0,0.009511965326964855,0.9847366809844971,0.0,0.0025983313098549843
247.0,248.0,1.1282,-3.0538,9.0,-0.0392,0.022,-0.1171,-1.7796203098692835,0.0,3.0249557495117188,-1.6435431241989136,-0.0,2.1359763145446777,4.882866996317663,0.0,0.2776024043560028,-1.1961401144610804,0.0,-0.05442100763320923,0.3136869966983795,0.0,0.003338038921356201,0.9847688674926758,0.0,0.025035804137587547
247.0,248.0,1.1282,-3.0538,9.0,-0.0392,0.022,-0.1171,-1.7796083889403285,0.0,3.0041561126708984,-1.6435679197311401,-0.0,2.0991454124450684,4.882834660797872,0.0,0.2881022095680237,-1.1961081663714808,0.0,-0.04142436757683754,0.3136623799800873,0.0,0.008516665548086166,0.9847286939620972,0.0,-0.02425541914999485
247.0,248.0,1.1282,-3.0538,9.0,-0.0392,0.022,-0.1171,-1.779588361779684,0.0,3.0260400772094727,-1.6435189247131348,-0.0,2.0963311195373535,4.882850992470541,0.0,0.2824534773826599,-1.1960838476764124,0.0,-0.056551337242126465,0.3136787712574005,0.0,0.01116914302110672,0.9847688674926758,0.0,-0.015923526138067245
247.0,248.0,1.1282,-3.0538,9.0,-0.0392,0.022,-0.1171,-1.7795759640135707,0.0,3.009519577026367,-1.6435956954956055,-0.0,2.127283811569214,4.8828546581561945,0.0,0.27548837661743164,-1.196164909993307,0.0,-0.051804713904857635,0.31365054845809937,0.0,0.004711635410785675,0.9848088026046753,0.0,0.014258325099945068
247.0,248.0,1.1282,-3.0538,9.0,-0.0392,0.022,-0.1171,-1.7795926533141078,0.0,3.0293807983398438,-1.6435874700546265,-0.0,2.109891891479492,4.882806706219473,0.0,0.2845836579799652,-1.1960962454425257,0.0,-0.047664791345596313,0.3136947751045227,0.0,0.0012252978049218655,0.9847326874732971,0.0,-0.0256925281137228
247.0,248.0,1.1282,-3.0538,9.0,-0.0392,0.022,-0.1171,-1.7796327076353968,0.0,2.9786787033081055,-1.6435353755950928,-0.0,2.0949506759643555,4.882822978287496,0.0,0.2834404706954956,-1.196120564137594,0.0,-0.05148319900035858,0.31372708082199097,0.0,0.0005643528420478106,0.9847529530525208,0.0,-0.017177816480398178
256.0,241.0,1.2999,-3.0628,8.668,-0.0356,0.0162,-0.1135,-1.7796045742430628,0.0,3.0277810096740723,-1.6435596942901611,-0.0,2.1501550674438477,4.882822978287496,0.0,0.27180010080337524,-1.1961324850665491,0.0,-0.05116737633943558,0.313610702753067,0.0,-0.0028824906330555677,0.9848089814186096,0.0,0.03317037597298622
256.0,241.0,1.2999,-3.0628,8.668,-0.0356,0.0162,-0.1135,-1.779600282708639,0.0,3.0286126136779785,-1.6435596942901611,-0.0,2.1146340370178223,4.8828546581561945,0.0,0.28302595019340515,-1.1960962454425257,0.0,-0.062203846871852875,0.31368255615234375,0.0,0.005383194424211979,0.9847608804702759,0.0,-0.05443866550922394
256.0,241.0,1.2999,-3.0628,8.668,-0.0356,0.0162,-0.1135,-1.7795683346190394,0.0,3.0126118659973145,-1.6435152292251587,-0.0,2.1320393085479736,4.882878842740812,0.0,0.2720854878425598,-1.1961043516742151,0.0,-0.05399218946695328,0.3137107193470001,0.0,0.008206641301512718,0.9847610592842102,0.0,0.028559306636452675
256.0,241.0,1.2999,-3.0628,8.668,-0.0356,0.0162,-0.1135,-1.7795683346190394,0.0,2.9883389472961426,-1.6435556411743164,-0.0,2.1313066482543945,4.882830488472738,0.0,0.2823621332645416,-1.1961162726031702,0.0,-0.04886852204799652,0.3136746883392334,0.0,-0.0129327941685915,0.9847847819328308,0.0,0.014424027875065804
256.0,241.0,1.2999,-3.0628,8.668,-0.0356,0.0162,-0.1135,-1.7795516453185023,0.0,2.9694981575012207,-1.6435760259628296,-0.0,2.081083059310913,4.882882627635755,0.0,0.2689282298088074,-1.1961286703692835,0.0,-0.0470852330327034,0.3136546015739441,0.0,-0.005558410659432411,0.9847688674926758,0.0,0.013200035318732262
256.0,241.0,1.2999,-3.0628,8.668,-0.0356,0.0162,-0.1135,-1.779600282708639,0.0,3.031172275543213,-1.6435679197311401,-0.0,2.0980286598205566,4.882842737227239,0.0,0.27651286125183105,-1.1960919539081019,0.0,-0.04339245334267616,0.3136546015739441,0.0,0.004606832750141621,0.9848046898841858,0.0,0.028666693717241287
256.0,241.0,1.2999,-3.0628,8.668,-0.0356,0.0162,-0.1135,-1.77958407024526,0.0,3.0484936237335205,-1.6435874700546265,-0.0,2.1015138626098633,4.882838654309072,0.0,0.28836843371391296,-1.196087662373678,0.0,-0.05365663394331932,0.31364238262176514,0.0,-0.005121314898133278,0.9847407341003418,0.0,0.005426319316029549
256.0,241.0,1.2999,-3.0628,8.668,-0.0356,0.0162,-0.1135,-1.7796126804747523,0.0,2.991201400756836,-1.6435471773147583,-0.0,2.1869473457336426,4.882818984776296,0.0,0.28255748748779297,-1.1960962454425257,0.0,-0.06484438478946686,0.31367841362953186,0.0,-0.005876324605196714,0.9847888350486755,0.0,-0.039107076823711395
256.0,241.0,1.2999,-3.0628,8.668,-0.0356,0.0162,-0.1135,-1.7795959911742152,0.0,3.0189032554626465,-1.6435669660568237,-0.0,2.1041955947875977,4.882830488472738,0.0,0.28258776664733887,-1.1960919539081019,0.0,-0.049827635288238525,0.3136623799800873,0.0,-0.004862012341618538,0.9847688674926758,0.0,-6.024132017046213e-05
256.0,241.0,1.2999,-3.0628,8.668,-0.0356,0.0162,-0.1135,-1.779600282708639,0.0,2.9841036796569824,-1.6435472965240479,-0.0,2.0994744300842285,4.8828628090913675,0.0,0.26050472259521484,-1.196108643208639,0.0,-0.04052726551890373,0.313638299703598,0.0,0.010815129615366459,0.9847648739814758,0.0,-0.025676067918539047
256.0,241.0,1.2999,-3.0628,8.668,-0.0356,0.0162,-0.1135,-1.779612203637594,0.0,3.012678384780884,-1.6435751914978027,-0.0,2.1125054359436035,4.882855000882902,0.0,0.28947892785072327,-1.196108643208639,0.0,-0.04747334122657776,0.3136947453022003,0.0,0.012973497621715069,0.9847609996795654,0.0,-0.004975977353751659
256.0,241.0,1.2999,-3.0628,8.668,-0.0356,0.0162,-0.1135,-1.7796369991698207,0.0,2.9825949668884277,-1.64351487159729,-0.0,2.1125173568725586,4.8828546581561945,0.0,0.270805299282074,-1.196120564137594,0.0,-0.05085887759923935,0.3136342763900757,0.0,0.0014347550459206104,0.9848250150680542,0.0,0.02880563586950302
256.0,241.0,1.2999,-3.0628,8.668,-0.0356,0.0162,-0.1135,-1.7795921764769496,0.0,3.014758825302124,-1.6435679197311401,-0.0,2.147230386734009,4.882834660797872,0.0,0.2843714654445648,-1.1961243788348597,0.0,-0.05439829081296921,0.3136746883392334,0.0,0.005381821654736996,0.9847688674926758,0.0,-0.010790100321173668
256.0,241.0,1.2999,-3.0628,8.668,-0.0356,0.0162,-0.1135,-1.7795926533141078,0.0,2.9945273399353027,-1.6435390710830688,-0.0,2.1227784156799316,4.882830488472738,0.0,0.2783272862434387,-1.196108643208639,0.0,-0.050664763897657394,0.3137066960334778,0.0,-0.0011893422342836857,0.984768807888031,0.0,-0.0215597040951252
256.0,241.0,1.2999,-3.0628,8.668,-0.0356,0.0162,-0.1135,-1.7795959911742152,0.0,3.030046224594116,-1.6435751914978027,-0.0,2.1310184001922607,4.88280667641715,0.0,0.26844027638435364,-1.1961119810687464,0.0,-0.05420916527509689,0.3136546015739441,0.0,-0.014654062688350677,0.9847887754440308,0.0,0.06046878919005394
256.0,241.0,1.2999,-3.0628,8.668,-0.0356,0.0162,-0.1135,-1.7796489200987757,0.0,3.0295467376708984,-1.6435719728469849,-0.0,2.0900557041168213,4.882887008577146,0.0,0.2634521722793579,-1.1961124579059046,0.0,-0.042917750775814056,0.3136463761329651,0.0,-0.0123664028942585,0.9847849607467651,0.0,0.03377790004014969
256.0,241.0,1.2999,-3.0628,8.668,-0.0356,0.0162,-0.1135,-1.779588361779684,0.0,2.9919610023498535,-1.643559455871582,-0.0,2.0734760761260986,4.882842737227239,0.0,0.27810901403427124,-1.1960919539081019,0.0,-0.04368685558438301,0.3136627674102783,0.0,-0.011402970179915428,0.9847688674926758,0.0,0.033914715051651
256.0,241.0,1.2999,-3.0628,8.668,-0.0356,0.0162,-0.1135,-1.7796045742430628,0.0,3.029069423675537,-1.6435390710830688,-0.0,2.1370620727539062,4.882830488472738,0.0,0.2919310927391052,-1.1960919539081019,0.0,-0.04063227027654648,0.31371891498565674,0.0,-0.0043950933031737804,0.9847888350486755,0.0,-0.05903032422065735
256.0,241.0,1.2999,-3.0628,8.668,-0.0356,0.0162,-0.1135,-1.7795759640135707,0.0,2.9907889366149902,-1.6435874700546265,-0.0,2.072115898132324,4.88287881293849,0.0,0.2791558504104614,-1.196087662373678,0.0,-0.05645618960261345,0.3136587142944336,0.0,-0.001580018550157547,0.9847569465637207,0.0,-0.0007821619510650635
256.0,241.0,1.2999,-3.0628,8.668,-0.0356,0.0162,-0.1135,-1.7795802555479945,0.0,3.005845069885254,-1.6435431241989136,-0.0,2.119098663330078,4.882907050638952,0.0,0.28929758071899414,-1.1960962454425257,0.0,-0.05592750757932663,0.313674658536911,0.0,-0.002280436223372817,0.9847529530525208,0.0,-0.012460778467357159
245.0,248.0,1.1372,-3.1232,9.0377,-0.0301,0.0255,-0.111,-1.7796083889403285,0.0,2.989309787750244,-1.64362370967865,-0.0,2.116337776184082,4.882898974209585,0.0,0.2735699713230133,-1.1961043516742151,0.0,-0.052466608583927155,0.3136542737483978,0.0,0.0037257682997733355,0.9847887754440308,0.0,0.010176817886531353
245.0,248.0,1.1372,-3.1232,9.0377,-0.0301,0.0255,-0.111,-1.7796203098692835,0.0,3.0039732456207275,-1.6435916423797607,-0.0,2.1013739109039307,4.88285097756938,0.0,0.2660008668899536,-1.1961043516742151,0.0,-0.05046708136796951,0.3136586844921112,0.0,0.0023661318700760603,0.9847809672355652,0.0,0.009605214931070805
245.0,248.0,1.1372,-3.1232,9.0377,-0.0301,0.0255,-0.111,-1.779588361779684,0.0,3.000401020050049,-1.6435513496398926,-0.0,2.1260056495666504,4.882862823992529,0.0,0.2738036513328552,-1.1961482206927698,0.0,-0.05712181702256203,0.3137548863887787,0.0,-0.0025892346166074276,0.9847489595413208,0.0,0.014771528542041779
245.0,248.0,1.1372,-3.1232,9.0377,-0.0301,0.0255,-0.111,-1.7795964680113734,0.0,3.0284199714660645,-1.6435834169387817,-0.0,2.13350510597229,4.88285097756938,0.0,0.2809739112854004,-1.1960795561419886,0.0,-0.06438536942005157,0.3136906921863556,0.0,-0.0016226934967562556,0.9847688674926758,0.0,-0.00873948261141777
245.0,248.0,1.1372,-3.1232,9.0377,-0.0301,0.0255,-0.111,-1.7796045742430628,0.0,3.018211603164673,-1.6435679197311401,-0.0,2.088634967803955,4.88285097756938,0.0,0.29153430461883545,-1.1961000601397913,0.0,-0.060225412249565125,0.31364646553993225,0.0,0.006921395659446716,0.9847847819328308,0.0,-0.029121732339262962
245.0,248.0,1.1372,-3.1232,9.0377,-0.0301,0.0255,-0.111,-1.779588361779684,0.0,2.984799385070801,-1.6435760259628296,-0.0,2.086000680923462,4.88285097756938,0.0,0.27148690819740295,-1.1961362997638147,0.0,-0.06353937834501266,0.3136182129383087,0.0,-0.007505340967327356,0.9847807884216309,0.0,0.0029086852446198463
245.0,248.0,1.1372,-3.1232,9.0377,-0.0301,0.0255,-0.111,-1.7795959911742152,0.0,3.0308778285980225,-1.6435353755950928,-0.0,2.054734230041504,4.882866996317663,0.0,0.27568140625953674,-1.1961324850665491,0.0,-0.045769065618515015,0.31367066502571106,0.0,0.009574159979820251,0.9847447872161865,0.0,-0.014834054745733738
245.0,248.0,1.1372,-3.1232,9.0377,-0.0301,0.0255,-0.111,-1.7796408138670863,0.0,3.0523862838745117,-1.6435915231704712,-0.0,2.1473653316497803,4.882838654309072,0.0,0.28345468640327454,-1.1961119810687464,0.0,-0.05295315757393837,0.3137107193470001,0.0,0.0027699489146471024,0.9848087430000305,0.0,-0.0241867583245039
245.0,248.0,1.1372,-3.1232,9.0377,-0.0301,0.0255,-0.111,-1.7795764408507289,0.0,3.009922981262207,-1.6435394287109375,-0.0,2.088860511779785,4.882842752128401,0.0,0.2860420048236847,-1.196087662373678,0.0,-0.04255048930644989,0.3136906921863556,0.0,-0.0070403823629021645,0.9847887754440308,0.0,0.002874805824831128
245.0,248.0,1.1372,-3.1232,9.0377,-0.0301,0.0255,-0.111,-1.779616495172018,0.0,3.002192497253418,-1.6435471773147583,-0.0,2.109753370285034,4.882842737227239,0.0,0.2644643187522888,-1.1961525122271937,0.0,-0.05011150985956192,0.31371068954467773,0.0,0.008961284533143044,0.9847847819328308,0.0,0.014306584373116493
245.0,248.0,1.1372,-3.1232,9.0377,-0.0301,0.0255,-0.111,-1.779600282708639,0.0,2.9840612411499023,-1.6435751914978027,-0.0,2.088616132736206,4.882830503373899,0.0,0.28296923637390137,-1.1961043516742151,0.0,-0.049208834767341614,0.3136947751045227,0.0,-0.004511654376983643,0.9847688674926758,0.0,0.03654040768742561
245.0,248.0,1.1372,-3.1232,9.0377,-0.0301,0.0255,-0.111,-1.7795802555479945,0.0,3.0228452682495117,-1.6435513496398926,2.274199744078942e-07,2.0584189891815186,4.882818984776296,0.0,0.2827620506286621,-1.1961281935321253,0.0,-0.04910977929830551,0.31368288397789,0.0,-0.004605736117810011,0.9847648739814758,0.0,0.014068888500332832
245.0,248.0,1.1372,-3.1232,9.0377,-0.0301,0.0255,-0.111,-1.779600282708639,0.0,2.9849448204040527,-1.6435719728469849,4.093479374911446e-11,2.130509376525879,4.882894757180967,0.0,0.2835524380207062,-1.196120564137594,0.0,-0.04227202385663986,0.31370261311531067,0.0,-0.003632673993706703,0.9847608804702759,0.0,-0.004574247635900974
245.0,248.0,1.1372,-3.1232,9.0377,-0.0301,0.0255,-0.111,-1.779588361779684,0.0,3.020484447479248,-1.6435275077819824,0.0012369963806122541,2.1254193782806396,4.882870974927702,0.0,0.2864904999732971,-1.1960795561419886,0.0,-0.055018629878759384,0.31368663907051086,0.0,0.0022193980403244495,0.9848248362541199,2.385940547355858e-07,-0.002491298597306013
245.0,248.0,1.1372,-3.1232,9.0377,-0.0301,0.0255,-0.111,-1.779588361779684,0.0,3.036015033721924,-1.6434510946273804,0.002325020032003522,2.1224923133850098,4.882830503373899,0.0,0.2882559299468994,-1.1961243788348597,0.0,-0.06389275193214417,0.3136866092681885,0.0,0.000942099723033607,0.9848523139953613,0.0011218521976843476,0.004230952356010675
245.0,248.0,1.1372,-3.1232,9.0377,-0.0301,0.0255,-0.111,-1.7796327076353968,0.0,3.017761707305908,-1.6434756517410278,0.002565487287938595,2.0866892337799072,4.882830503373899,0.0,0.28371915221214294,-1.1961162726031702,0.0,-0.04693669453263283,0.31364643573760986,0.0,-0.0018051282968372107,0.9848361611366272,0.0035406535025686026,-0.014698859304189682
245.0,248.0,1.1372,-3.1232,9.0377,-0.0301,0.0255,-0.111,-1.7796045742430628,0.0,2.9766178131103516,-1.6434922218322754,0.0030330177396535873,2.0971152782440186,4.88289104679183,0.0,0.2805214524269104,-1.196120564137594,0.0,-0.05905362218618393,0.3136746883392334,0.0,-0.008132759481668472,0.9848763942718506,0.006235343404114246,-0.015641793608665466
245.0,248.0,1.1372,-3.1232,9.0377,-0.0301,0.0255,-0.111,-1.779588361779684,0.0,2.9962449073791504,-1.6434757709503174,0.005101618357002735,2.1240272521972656,4.882874744921484,0.0,0.28754928708076477,-1.1961043516742151,0.0,-0.04788370430469513,0.313714861869812,0.0,-0.007738083600997925,0.9849323630332947,0.012652963399887085,0.05203637480735779
245.0,248.0,1.1372,-3.1232,9.0377,-0.0301,0.0255,-0.111,-1.7796045742430628,0.0,3.000593662261963,-1.6434755325317383,0.006533529609441757,2.1357345581054688,4.8828468201454065,0.0,0.29313772916793823,-1.1960838476764124,0.0,-0.05108858644962311,0.3136746883392334,0.0,0.002744137542322278,0.9849843382835388,0.017309512943029404,0.0667610913515091
245.0,248.0,1.1372,-3.1232,9.0377,-0.0301,0.0255,-0.111,-1.7796045742430628,0.0,3.0429766178131104,-1.6434316635131836,0.007323338650166988,2.1167349815368652,4.882859053998747,0.0,0.27478882670402527,-1.1961281935321253,0.0,-0.047989487648010254,0.31369444727897644,0.0,0.010941540822386742,0.9851204752922058,0.019978122785687447,0.017778251320123672
245.0,248.0,1.1372,-3.1232,9.0377,-0.0301,0.0255,-0.111,-1.7796203098692835,0.0,3.0005593299865723,-1.6433871984481812,0.007255829870700836,2.1611948013305664,4.882870676904478,0.0,0.2912806272506714,-1.1961043516742151,0.0,-0.06044131517410278,0.31369438767433167,0.0,-0.005912418011575937,0.9851722717285156,0.021725969389081,-0.012983592227101326
248.0,245.0,1.148,-3.475,8.8762,-0.0681,0.0121,-0.0987,-1.7795959911742152,0.0,3.01204776763916,-1.6432950496673584,0.007266294211149216,2.086625099182129,4.8828386692102335,0.0,0.2875995934009552,-1.196087662373678,0.0,-0.055052872747182846,0.3135984539985657,0.0,-0.0026155931409448385,0.9853276610374451,0.024769838899374008,0.011499213054776192
248.0,245.0,1.148,-3.475,8.8762,-0.0681,0.0121,-0.0987,-1.7795959911742152,-1.9012408074559062e-06,2.9799094200134277,-1.6433358192443848,0.008123192004859447,2.096369981765747,4.882858741074362,0.0,0.277911901473999,-1.196120564137594,0.0,-0.060043320059776306,0.3136669099330902,0.0,-0.008929343894124031,0.9854748845100403,0.028300432488322258,0.004213746637105942
248.0,245.0,1.148,-3.475,8.8762,-0.0681,0.0121,-0.0987,-1.7795921764769496,-3.422166161559659e-10,3.006175994873047,-1.6433037519454956,0.00843289215117693,2.141218662261963,4.882870974927702,0.0,0.2731263339519501,-1.1961362997638147,0.0,-0.0390753298997879,0.3136787712574005,0.0,1.839781180024147e-05,0.9856347441673279,0.03118293173611164,0.020012080669403076
248.0,245.0,1.148,-3.475,8.8762,-0.0681,0.0121,-0.0987,-1.779600282708639,-0.0007283926825039089,2.983635902404785,-1.64326012134552,0.007497802376747131,2.1269140243530273,4.88283463099555,0.0,0.2750853896141052,-1.196087662373678,0.0,-0.05751117318868637,0.313658744096756,0.0,-0.016177678480744362,0.9857227802276611,0.03301326930522919,0.03850407898426056
248.0,245.0,1.148,-3.475,8.8762,-0.0681,0.0121,-0.0987,-1.7796203098692835,-0.0010054453741759062,3.0013375282287598,-1.6432033777236938,0.006452871020883322,2.1222915649414062,4.882826420455732,0.0,0.27106955647468567,-1.1960919539081019,0.0,-0.04471711069345474,0.31371885538101196,0.0,-0.007433371618390083,0.98585444688797,0.03442622348666191,0.05082787945866585
248.0,245.0,1.148,-3.475,8.8762,-0.0681,0.0121,-0.0987,-1.779672761956686,-0.000866093672811985,3.0272040367126465,-1.6431469917297363,0.0046897511929273605,2.1136298179626465,4.88285097756938,0.0,0.2759391963481903,-1.1960919539081019,0.0,-0.06660421192646027,0.3137429654598236,0.0,-0.0031361947767436504,0.9859820604324341,0.03379416838288307,0.021521221846342087
248.0,245.0,1.148,-3.475,8.8762,-0.0681,0.0121,-0.0987,-1.7796408138670863,-0.0007236746605485678,3.0213522911071777,-1.6432161331176758,0.003479579696431756,2.120657444000244,4.8828468201454065,0.0,0.28565967082977295,-1.1961081663714808,0.0,-0.05491268262267113,0.3136906623840332,0.0,0.0013759799767285585,0.9861609935760498,0.03354308009147644,0.05585060268640518
248.0,245.0,1.148,-3.475,8.8762,-0.0681,0.0121,-0.0987,-1.779644628564352,-0.0005559712299145758,3.023505687713623,-1.6431235074996948,0.0024356304202228785,2.126729965209961,4.882874744921484,0.0,0.27059826254844666,-1.1961525122271937,0.0,-0.05874769017100334,0.31368255615234375,0.0,-0.0032894983887672424,0.9863452911376953,0.03171468898653984,0.023488663136959076
248.0,245.0,1.148,-3.475,8.8762,-0.0681,0.0121,-0.0987,-1.779628416100973,-0.0004815805295947939,3.0083167552948,-1.6431515216827393,0.0020141704007983208,2.09283185005188,4.882874744921484,0.0,0.2828359603881836,-1.1960962454425257,0.0,-0.05213921517133713,0.31368255615234375,0.0,0.01113118790090084,0.9864926934242249,0.029576824977993965,0.014101894572377205
248.0,245.0,1.148,-3.475,8.8762,-0.0681,0.0121,-0.0987,-1.7796246014037074,-0.0004247509641572833,2.9810128211975098,-1.6431834697723389,0.0017012624302878976,2.1107544898986816,4.882894816785612,0.0,0.27265995740890503,-1.1961162726031702,0.0,-0.05485391244292259,0.3137025833129883,0.0,-0.0006527500227093697,0.9865162372589111,0.02685338258743286,0.013867580331861973
248.0,245.0,1.148,-3.475,8.8762,-0.0681,0.0121,-0.0987,-1.7796365223326625,-0.00037992000579833984,3.0215864181518555,-1.643175721168518,0.0010351267410442233,2.0753495693206787,4.882842752128401,0.0,0.27473223209381104,-1.1961162726031702,0.0,-0.04747740179300308,0.3136866092681885,0.0,0.005606497637927532,0.9866085052490234,0.023719118908047676,0.005462718196213245
248.0,245.0,1.148,-3.475,8.8762,-0.0681,0.0121,-0.0987,-1.7796646557249964,-0.0002623419277369976,3.0124330520629883,-1.6431834697723389,0.0005730802658945322,2.123366117477417,4.882878842740812,0.0,0.28367990255355835,-1.1961281935321253,0.0,-0.04324405640363693,0.31367066502571106,0.0,0.0018318635411560535,0.986675500869751,0.020030897110700607,0.008971717208623886
248.0,245.0,1.148,-3.475,8.8762,-0.0681,0.0121,-0.0987,-1.7796441517271937,-0.00023483968107029796,3.0184521675109863,-1.6431597471237183,0.0003364695003256202,2.1306304931640625,4.8828386692102335,0.0,0.28010380268096924,-1.1961162726031702,0.0,-0.03827797248959541,0.31364646553993225,0.0,0.006470794789493084,0.9867874979972839,0.017676854506134987,0.028440799564123154
248.0,245.0,1.148,-3.475,8.8762,-0.0681,0.0121,-0.0987,-1.7796203098692835,-0.0002551472280174494,3.02972412109375,-1.6431752443313599,0.00026074014022015035,2.104721784591675,4.882814827352323,0.0,0.2834709584712982,-1.196087662373678,0.0,-0.047535769641399384,0.3135984241962433,0.0,-0.016021156683564186,0.9868515729904175,0.015287443064153194,0.02865152806043625
248.0,245.0,1.148,-3.475,8.8762,-0.0681,0.0121,-0.0987,-1.779612203637594,-0.00026073429035022855,3.0174732208251953,-1.643167495727539,0.00020215169934090227,2.1206889152526855,4.882814827352323,0.0,0.2816872000694275,-1.1961000601397913,0.0,-0.04542458802461624,0.31363430619239807,0.0,-0.0064566973596811295,0.9869031310081482,0.012219801545143127,-0.004450629930943251
248.0,245.0,1.148,-3.475,8.8762,-0.0681,0.0121,-0.0987,-1.7797008953490199,-0.0002738066832534969,2.9908413887023926,-1.6431961059570312,0.00017581810243427753,2.0705292224884033,4.882838684111395,0.0,0.2762107849121094,-1.1961362997638147,0.0,-0.05856029689311981,0.3136383295059204,0.0,-0.0008069027098827064,0.9869794845581055,0.00834158156067133,-0.019422948360443115
248.0,245.0,1.148,-3.475,8.8762,-0.0681,0.0121,-0.0987,-1.779656549493307,-0.000255657359957695,2.9860243797302246,-1.6431711912155151,-0.00012584446812979877,2.070840358734131,4.882838654309072,0.0,0.2622343599796295,-1.1961324850665491,0.0,-0.05573931336402893,0.3137430250644684,0.0,0.00042067584581673145,0.9869629740715027,0.005079430527985096,0.006909424904733896
248.0,245.0,1.148,-3.475,8.8762,-0.0681,0.0121,-0.0987,-1.7796646557249964,-0.00023870558652561158,2.9873385429382324,-1.6432238817214966,-0.0001114845072152093,2.1025094985961914,4.882818984776296,0.0,0.2911662757396698,-1.1960919539081019,0.0,-0.04865249991416931,0.31364646553993225,0.0,-0.0045871976763010025,0.9869589805603027,0.002221066504716873,-0.03272508829832077
248.0,245.0,1.148,-3.475,8.8762,-0.0681,0.0121,-0.0987,-1.779644628564352,-0.00022386149794328958,2.9923572540283203,-1.6432079076766968,-0.0001485496904933825,2.0823311805725098,4.88285097756938,0.0,0.28442704677581787,-1.1961243788348597,0.0,-0.0449947826564312,0.31369471549987793,0.0,0.0012612352147698402,0.9869226813316345,0.0006229004939086735,0.04891985282301903
248.0,245.0,1.148,-3.475,8.8762,-0.0681,0.0121,-0.0987,-1.7795998058714808,-0.00021075592667330056,3.0024592876434326,-1.6432201862335205,-0.00013401957403402776,2.1328537464141846,4.88285097756938,0.0,0.28000590205192566,-1.196120564137594,0.0,-0.04309464246034622,0.3136783838272095,0.0,0.0014869236620143056,0.9869836568832397,-0.000877902377396822,0.015742119401693344
248.0,245.0,1.148,-3.475,8.8762,-0.0681,0.0121,-0.0987,-1.7796365223326625,-0.0001752139360178262,3.0255327224731445,-1.6431752443313599,-0.00012191593123134226,2.11441969871521,4.8828549710805795,0.0,0.2924729287624359,-1.196108643208639,0.0,-0.051068007946014404,0.31374305486679077,0.0,-0.002385167172178626,0.9869553446769714,-0.0032067131251096725,0.004267054609954357
246.0,239.0,1.0379,-2.2355,9.3039,-0.0214,0.0334,-0.0944,-1.7796203098692835,-0.0001608668826520443,3.0045008659362793,-1.6431710720062256,-0.0001431397395208478,2.123192548751831,4.88285097756938,0.0,0.28314486145973206,-1.196120564137594,0.0,-0.05054476112127304,0.3137267827987671,0.0,-0.004931712988764048,0.9868550896644592,-0.006463539320975542,0.027590032666921616
246.0,239.0,1.0379,-2.2355,9.3039,-0.0214,0.0334,-0.0944,-1.7796646557249964,-0.00015305069973692298,3.0357162952423096,-1.6431710720062256,-0.00016530422726646066,2.1265950202941895,4.882794666081228,0.0,0.2831815183162689,-1.1961162726031702,0.0,-0.0396924763917923,0.3136746883392334,0.0,0.010103954002261162,0.9868276119232178,-0.007156935054808855,-0.027236364781856537
246.0,239.0,1.0379,-2.2355,9.3039,-0.0214,0.0334,-0.0944,-1.7796646557249964,-0.0001459589839214459,3.043494701385498,-1.6432037353515625,-0.0001543908438179642,2.1176538467407227,4.882810714631834,0.0,0.2749437093734741,-1.1961444059955042,0.0,-0.041411787271499634,0.31367066502571106,0.0,0.004562159068882465,0.9867435693740845,-0.007901553995907307,0.014845222234725952
246.0,239.0,1.0379,-2.2355,9.3039,-0.0214,0.0334,-0.0944,-1.7796079121031703,-0.00013949531421530992,3.008394241333008,-1.6431711912155151,-0.0001444767403881997,2.117098569869995,4.882838654309072,0.0,0.28005334734916687,-1.1960919539081019,0.0,-0.05790076404809952,0.3136669099330902,0.0,0.0009632699657231569,0.9867354035377502,-0.007693914696574211,0.03329043090343475
246.0,239.0,1.0379,-2.2355,9.3039,-0.0214,0.0334,-0.0944,-1.7796408138670863,-0.0001335797569481656,2.9901914596557617,-1.6431509256362915,-0.00013612481416203082,2.0910823345184326,4.882822352438726,0.0,0.26695889234542847,-1.1961000601397913,0.0,-0.05360965058207512,0.31364232301712036,0.0,-0.0029246488120406866,0.9867115616798401,-0.008005311712622643,-0.020033445209264755
246.0,239.0,1.0379,-2.2355,9.3039,-0.0214,0.0334,-0.0944,-1.7796484432616175,-0.00012814563524443656,3.0094523429870605,-1.6431835889816284,-0.0002025451831286773,2.117074489593506,4.882862823992529,0.0,0.27487999200820923,-1.1961162726031702,0.0,-0.04473646730184555,0.3136906623840332,0.0,-0.012680677697062492,0.9866836071014404,-0.007703710347414017,0.011240364983677864
246.0,239.0,1.0379,-2.2355,9.3039,-0.0214,0.0334,-0.0944,-1.7796203098692835,-0.0001207757813972421,2.9907593727111816,-1.6431993246078491,-0.0002136532129952684,2.1169931888580322,4.882862823992529,0.0,0.2786250412464142,-1.1961162726031702,0.0,-0.04789149388670921,0.31369444727897644,0.0,-0.0024215560406446457,0.9866523146629333,-0.007868492044508457,-0.04449531063437462
246.0,239.0,1.0379,-2.2355,9.3039,-0.0214,0.0334,-0.0944,-1.7796408138670863,-0.00011631614324869588,2.9970908164978027,-1.6432037353515625,-0.00019841367611661553,2.1018753051757812,4.882866981416502,0.0,0.2713819444179535,-1.1960919539081019,0.0,-0.04924368858337402,0.31366658210754395,0.0,-0.0030353893525898457,0.9866001605987549,-0.007750197313725948,-0.03581137955188751
246.0,239.0,1.0379,-2.2355,9.3039,-0.0214,0.0334,-0.0944,-1.7796203098692835,-0.00011217400606255978,3.0017752647399902,-1.6432032585144043,-0.0001848309620982036,2.0909061431884766,4.882878827839651,0.0,0.2846539318561554,-1.196087662373678,0.0,-0.05794019252061844,0.31365469098091125,0.0,-0.006395900156348944,0.9865477681159973,-0.007813532836735249,0.03995942324399948
246.0,239.0,1.0379,-2.2355,9.3039,-0.0214,0.0334,-0.0944,-1.7796203098692835,-0.0001083167881006375,3.035301685333252,-1.6432161331176758,-0.0001729887444525957,2.0773885250091553,4.882826405554571,0.0,0.2829965353012085,-1.1960724035846155,0.0,-0.052560001611709595,0.3137311041355133,0.0,0.003105614334344864,0.9865440726280212,-0.007603086996823549,-0.027707617729902267
246.0,239.0,1.0379,-2.2355,9.3039,-0.0214,0.0334,-0.0944,-1.7795878849425257,-0.00010471607674844563,3.0316739082336426,-1.6432157754898071,-0.00016257233801297843,2.1392579078674316,4.882814827352323,0.0,0.2758694589138031,-1.196087662373678,0.0,-0.043481722474098206,0.3136627972126007,0.0,0.0032128312159329653,0.9865240454673767,-0.007646238896995783,-0.004674432799220085
246.0,239.0,1.0379,-2.2355,9.3039,-0.0214,0.0334,-0.0944,-1.7795959911742152,-0.00010134711919818074,3.0238988399505615,-1.6432477235794067,-0.000153339424286969,2.1205790042877197,4.882810699730673,0.0,0.2875171899795532,-1.1960762182818812,0.0,-0.04225274920463562,0.3136787414550781,0.0,-0.0023997947573661804,0.9864882230758667,-0.0072985864244401455,-0.07264170050621033
246.0,239.0,1.0379,-2.2355,9.3039,-0.0214,0.0334,-0.0944,-1.7796288929381312,-9.818803664529696e-05,3.035191059112549,-1.6432075500488281,-0.00014509861648548394,2.11272931098938,4.882842737227239,0.0,0.28006112575531006,-1.196087662373678,0.0,-0.04247435927391052,0.31365063786506653,0.0,0.0019738650880753994,0.9864404797554016,-0.006912576034665108,0.021285777911543846
246.0,239.0,1.0379,-2.2355,9.3039,-0.0214,0.0334,-0.0944,-1.7796079121031703,-3.496903082123026e-05,3.0001161098480225,-1.6432032585144043,-0.00013427464000415057,2.096205711364746,4.882842737227239,0.0,0.27687907218933105,-1.1961043516742151,0.0,-0.06033666431903839,0.3136865794658661,0.0,-0.016257349401712418,0.9864003658294678,-0.0054961019195616245,-0.04082733020186424
246.0,239.0,1.0379,-2.2355,9.3039,-0.0214,0.0334,-0.0944,-1.7796079121031703,-3.3660737244645134e-05,2.9852771759033203,-1.6431835889816284,-0.0001279133721254766,2.1077096462249756,4.8828386692102335,0.0,0.2741321623325348,-1.1961000601397913,0.0,-0.06440820544958115,0.31363844871520996,0.0,0.006966351065784693,0.9863558411598206,-0.004877727944403887,-0.04104109853506088
246.0,239.0,1.0379,-2.2355,9.3039,-0.0214,0.0334,-0.0944,-1.7795921764769496,-3.244719482609071e-05,2.977694511413574,-1.6431959867477417,-0.0001221274578711018,2.1019437313079834,4.882866623788633,0.0,0.29115164279937744,-1.1961281935321253,0.0,-0.07128853350877762,0.313658744096756,0.0,0.001548086991533637,0.9864045977592468,-0.003908389247953892,0.033865466713905334
246.0,239.0,1.0379,-2.2355,9.3039,-0.0214,0.0334,-0.0944,-1.7795802555479945,-3.131811536150053e-05,3.00216007232666,-1.6432079076766968,-0.00011684251512633637,2.0990915298461914,4.882878857641973,0.0,0.27543172240257263,-1.196087662373678,0.0,-0.05392136052250862,0.31373077630996704,0.0,0.015993205830454826,0.9863846302032471,-0.002996189519762993,-0.03698202222585678
246.0,239.0,1.0379,-2.2355,9.3039,-0.0214,0.0334,-0.0944,-1.7795759640135707,-3.0264980523497798e-05,3.0125274658203125,-1.6431918144226074,-0.00011199591244803742,2.0958926677703857,4.882870662003317,0.0,0.2758883237838745,-1.1960962454425257,0.0,-0.044620830565690994,0.3136383593082428,0.0,0.0007124441908672452,0.9863284230232239,-0.0021453392691910267,0.01794491708278656
246.0,239.0,1.0379,-2.2355,9.3039,-0.0214,0.0334,-0.0944,-1.7796527347960414,-2.9280365197337233e-05,2.985042095184326,-1.6431835889816284,-0.00010753534297691658,2.144301176071167,4.882790687471189,0.0,0.28140461444854736,-1.1961239019977015,0.0,-0.05604619160294533,0.3136787414550781,0.0,-0.00010808704246301204,0.9864085912704468,-0.0014694761484861374,-0.005879491567611694
246.0,239.0,1.0379,-2.2355,9.3039,-0.0214,0.0334,-0.0944,-1.7796489200987757,-2.8357795599731617e-05,3.013169288635254,-1.643248200416565,-0.00010341663437429816,2.1218955516815186,4.882814827352323,0.0,0.2795628011226654,-1.1960919539081019,0.0,-0.0513237863779068,0.3136587142944336,0.0,-0.01199776865541935,0.9863446354866028,-0.0010381372412666678,-0.008863634429872036
246.0,239.0,1.0379,-2.2355,9.3039,-0.0214,0.0334,-0.0944,-1.7796489200987757,-2.7078016501036473e-05,3.0194144248962402,-1.6431996822357178,-9.779784159036353e-05,2.1152772903442383,4.882814827352323,0.0,0.27370208501815796,-1.1960795561419886,0.0,-0.045592136681079865,0.3136587142944336,0.0,0.00800158642232418,0.986328661441803,-0.0006944815395399928,-0.02213428169488907
247.0,244.0,0.947,-3.5701,8.9222,-0.0421,0.0221,-0.1179,-1.779644628564352,-2.628713809826877e-05,3.056701183319092,-1.6431834697723389,-9.437921835342422e-05,2.1138341426849365,4.8828546581561945,0.0,0.28258562088012695,-1.1960600058185022,0.0,-0.0617280974984169,0.31373485922813416,0.0,-0.010523715987801552,0.9863565564155579,-0.0005689754034392536,-0.042859263718128204
247.0,244.0,0.947,-3.5701,8.9222,-0.0421,0.0221,-0.1179,-1.779644628564352,-2.5541145078022964e-05,3.0028295516967773,-1.6432238817214966,-9.119173046201468e-05,2.126595973968506,4.882846849947729,0.0,0.2839038074016571,-1.1960962454425257,0.0,-0.039353352040052414,0.3136424720287323,0.0,-0.0065878937020897865,0.9863965511322021,-0.0004819009336642921,0.0010994115145877004
247.0,244.0,0.947,-3.5701,8.9222,-0.0421,0.0221,-0.1179,-1.7796040974059046,-3.7252197216730565e-05,3.035438060760498,-1.6431834697723389,-8.821237861411646e-05,2.113027334213257,4.882882970362463,0.0,0.2611890435218811,-1.1961239019977015,0.0,-0.03863145783543587,0.3136506676673889,0.0,0.015410756692290306,0.9863684177398682,-0.0004179473326075822,-0.02242174744606018
247.0,244.0,0.947,-3.5701,8.9222,-0.0421,0.0221,-0.1179,-1.7796365223326625,-3.625404860940762e-05,3.0421338081359863,-1.6431995630264282,-8.542160503566265e-05,2.0935988426208496,4.882858741074362,0.0,0.2772039771080017,-1.1961000601397913,0.0,-0.05018923431634903,0.3136747181415558,0.0,-0.0033626307267695665,0.9863806366920471,-0.00012064290785929188,-0.05544762685894966
247.0,244.0,0.947,-3.5701,8.9222,-0.0421,0.0221,-0.1179,-1.7796408138670863,-3.5305922210682184e-05,3.0001614093780518,-1.6431959867477417,-8.280199836008251e-05,2.124882698059082,4.882822978287496,0.0,0.2792259752750397,-1.1960795561419886,0.0,-0.05512412637472153,0.3136866092681885,0.0,-0.006345666944980621,0.9864125847816467,-0.00010604981071082875,0.0073092421516776085
247.0,244.0,0.947,-3.5701,8.9222,-0.0421,0.0221,-0.1179,-1.7796527347960414,-3.3973235986195505e-05,2.9906840324401855,-1.6431955099105835,-7.916057802503929e-05,2.163907766342163,4.882874759822645,0.0,0.28716805577278137,-1.1960838476764124,0.0,-0.05675896257162094,0.3136787414550781,0.0,0.0026870169676840305,0.9863804578781128,-9.011942165670916e-05,-0.026108164340257645
247.0,244.0,0.947,-3.5701,8.9222,-0.0421,0.0221,-0.1179,-1.7796246014037074,-3.313928755233064e-05,2.9869942665100098,-1.6432197093963623,-7.690584607189521e-05,2.127375602722168,4.882846849947729,0.0,0.2784155011177063,-1.196087662373678,0.0,-0.0425826758146286,0.3136743903160095,0.0,-0.008681608363986015,0.9863925576210022,-5.505733861355111e-05,0.05059337243437767
247.0,244.0,0.947,-3.5701,8.9222,-0.0421,0.0221,-0.1179,-1.779668470422262,-3.2345302315661684e-05,3.020425796508789,-1.643251657485962,-7.477604958694428e-05,2.0662615299224854,4.882874774723806,0.0,0.2725931704044342,-1.1961362997638147,0.0,-0.053264930844306946,0.3137229084968567,0.0,0.006595645099878311,0.9863684177398682,-3.7543508369708434e-05,-0.010877268388867378
247.0,244.0,0.947,-3.5701,8.9222,-0.0421,0.0221,-0.1179,-1.779628416100973,-3.1588479032507166e-05,3.0102057456970215,-1.6431918144226074,-7.276091491803527e-05,2.115264892578125,4.882862853794851,0.0,0.27297335863113403,-1.1960795561419886,0.0,-0.05608801916241646,0.31366658210754395,0.0,-0.019888095557689667,0.9863725900650024,-3.46501255990006e-05,-0.0017517255619168282
247.0,244.0,0.947,-3.5701,8.9222,-0.0421,0.0221,-0.1179,-1.7796079121031703,-3.0866260203765705e-05,3.0225229263305664,-1.6432238817214966,-7.08516308804974e-05,2.134799003601074,4.882858755975523,0.0,0.2817082405090332,-1.1961162726031702,0.0,-0.048797689378261566,0.31369468569755554,0.0,0.00013750558719038963,0.9864084720611572,-3.794339818341541e-06,0.017278410494327545
247.0,244.0,0.947,-3.5701,8.9222,-0.0421,0.0221,-0.1179,-1.7796203098692835,-3.0176328436937183e-05,3.0342636108398438,-1.643195629119873,-6.90399538143538e-05,2.087052822113037,4.88288305976943,0.0,0.2771325409412384,-1.1961000601397913,0.0,-0.0452689528465271,0.31369853019714355,0.0,0.006874888204038143,0.9863766431808472,-6.829677934305778e-10,0.03318033367395401
247.0,244.0,0.947,-3.5701,8.9222,-0.0421,0.0221,-0.1179,-1.7795959911742152,-1.1731739277820452e-06,3.0012807846069336,-1.6431996822357178,-6.731865869369358e-05,2.0738303661346436,4.882842737227239,0.0,0.2823013663291931,-1.196087662373678,0.0,-0.05765996873378754,0.31365469098091125,0.0,0.0062806797213852406,0.9864246845245361,-1.2293178898881846e-13,0.017040394246578217
247.0,244.0,0.947,-3.5701,8.9222,-0.0421,0.0221,-0.1179,-1.779612203637594,-2.8330770888984613e-12,3.0252039432525635,-1.6431834697723389,-6.48917630314827e-05,2.127272844314575,4.882842737227239,0.0,0.286286324262619,-1.1961162726031702,0.0,-0.044455982744693756,0.31366661190986633,0.0,0.0020121331326663494,0.9863806366920471,-2.9686579021399627e-19,0.009361036121845245
247.0,244.0,0.947,-3.5701,8.9222,-0.0421,0.0221,-0.1179,-1.779616495172018,-5.099437980375979e-16,2.971999168395996,-1.6431711912155151,-6.336881051538512e-05,2.0747199058532715,4.8828788725431345,0.0,0.2762710452079773,-1.1960714499102991,0.0,-0.04394765570759773,0.31369853019714355,0.0,0.007020667660981417,0.9863523840904236,-5.34347871470298e-23,0.011993583291769028
247.0,244.0,0.947,-3.5701,8.9222,-0.0421,0.0221,-0.1179,-1.7795759640135707,-9.178809667194672e-20,2.9615607261657715,-1.6431835889816284,-6.191567808855325e-05,2.130103826522827,4.882830488472738,0.0,0.28038275241851807,-1.1961081663714808,0.0,-0.054585281759500504,0.31367844343185425,0.0,-0.008552799932658672,0.9864445924758911,-9.618074112598434e-27,-0.04219820350408554
247.0,244.0,0.947,-3.5701,8.9222,-0.0421,0.0221,-0.1179,-1.7796408138670863,-1.6521532034323417e-23,3.039052963256836,-1.6432358026504517,-6.0527723690029234e-05,2.1110899448394775,4.882862823992529,0.0,0.2865387797355652,-1.1961281935321253,0.0,-0.05296008288860321,0.3137066066265106,0.0,-0.0004109025467187166,0.9864164590835571,-1.731219367405167e-30,-0.015510386787354946
247.0,244.0,0.947,-3.5701,8.9222,-0.0421,0.0221,-0.1179,-1.7796365223326625,-2.9738176419206423e-27,2.9920220375061035,-1.6432075500488281,-6.894922080391552e-06,2.0994019508361816,4.882810759335317,0.0,0.2828601896762848,-1.1961644331561487,0.0,-0.05471950024366379,0.31364649534225464,0.0,-0.0034993370063602924,0.9864604473114014,-3.1161340458066296e-34,0.04815882444381714
247.0,244.0,0.947,-3.5701,8.9222,-0.0421,0.0221,-0.1179,-1.779612203637594,-5.352766340734893e-31,2.994434356689453,-1.6431795358657837,-1.241061808876509e-09,2.11841082572937,4.882855000882902,0.0,0.28270626068115234,-1.1961444059955042,0.0,-0.05105564743280411,0.31368258595466614,0.0,-0.0020329346880316734,0.9864325523376465,0.0004294463724363595,-0.02637736313045025
247.0,244.0,0.947,-3.5701,8.9222,-0.0421,0.0221,-0.1179,-1.7796646557249964,-9.634791361777325e-35,3.0427703857421875,-1.6432280540466309,-2.2338672524182396e-13,2.1336183547973633,4.882866981416502,0.0,0.287221223115921,-1.196108643208639,0.0,-0.05068832263350487,0.3136625289916992,0.0,-0.005664612166583538,0.9864164590835571,0.00043386840843595564,0.0031196000054478645
247.0,244.0,0.947,-3.5701,8.9222,-0.0421,0.0221,-0.1179,-1.779612203637594,-2.3266879441956398e-40,3.000214099884033,-1.6432440280914307,-5.394526090177223e-19,2.082846164703369,4.8828468201454065,8.677822904701316e-09,0.27713340520858765,-1.1961324850665491,0.0,-0.04988809674978256,0.3136746883392334,0.0,-0.0011395546607673168,0.9864365458488464,0.00034966826206073165,0.04318702593445778
247.0,244.0,0.947,-3.5701,8.9222,-0.0421,0.0221,-0.1179,-1.7796484432616175,-4.203895392974451e-44,3.061086654663086,-1.6432477235794067,-9.709957615910806e-23,2.0843701362609863,4.882826420455732,3.6994917546051553e-11,0.2758975625038147,-1.1961162726031702,0.0,-0.0522480346262455,0.31367844343185425,0.0,-0.0040434496477246284,0.9864365458488464,0.000309569644741714,-0.024361073970794678
246.0,239.0,1.2999,-3.0526,8.8313,-0.0577,0.0202,-0.1231,-1.7796646557249964,-0.0,3.010671615600586,-1.643195629119873,-1.7477580052232928e-26,2.096883773803711,4.882794755488195,1.577151359814441e-13,0.28165173530578613,-1.1961362997638147,0.0,-0.05231701582670212,0.31367066502571106,0.0,0.01290815882384777,0.9864084720611572,0.00027772365137934685,-0.01170895155519247
246.0,239.0,1.2999,-3.0526,8.8313,-0.0577,0.0202,-0.1231,-1.779628416100973,0.0,2.9827375411987305,-1.6432477235794067,-3.145902556416389e-30,2.0992486476898193,4.882830503373899,6.723644303164189e-16,0.2781848907470703,-1.1960795561419886,0.0,-0.06515519320964813,0.3136466443538666,0.0,-0.007153603248298168,0.9864044189453125,0.0002098731929436326,-0.004550346173346043
246.0,239.0,1.2999,-3.0526,8.8313,-0.0577,0.0202,-0.1231,-1.7796646557249964,0.0,3.0088367462158203,-1.6432116031646729,-5.662513326609389e-34,2.1324706077575684,4.882866981416502,2.866395062274892e-18,0.2889306843280792,-1.1961281935321253,0.0,-0.04398849606513977,0.3136866092681885,0.0,-0.00870009046047926,0.9864124655723572,0.00019194549531675875,-0.019435856491327286
246.0,239.0,1.2999,-3.0526,8.8313,-0.0577,0.0202,-0.1231,-1.7796527347960414,0.0,2.9916305541992188,-1.6432476043701172,-1.019232420156867e-37,2.1508235931396484,4.882862823992529,1.2219892337218995e-20,0.27593955397605896,-1.1961119810687464,0.0,-0.06429482251405716,0.31370657682418823,0.0,-0.012446355074644089,0.9864445924758911,0.0001768574002198875,0.010725577361881733
246.0,239.0,1.2999,-3.0526,8.8313,-0.0577,0.0202,-0.1231,-1.779612203637594,0.0,3.036886692047119,-1.6432275772094727,-1.8345799494940505e-41,2.100346565246582,4.882830503373899,5.2095313951739e-23,0.27901190519332886,-1.1961525122271937,0.0,-0.05695103108882904,0.31370654702186584,0.0,-0.007894231006503105,0.9863724708557129,0.000131631109979935,-0.00189572898671031
246.0,239.0,1.2999,-3.0526,8.8313,-0.0577,0.0202,-0.1231,-1.7796408138670863,0.0,3.032273292541504,-1.6432275772094727,-0.0,2.09167218208313,4.882834586292066,1.450092281920228e-26,0.2705927789211273,-1.1961324850665491,0.0,-0.04219260811805725,0.31371477246284485,0.0,-0.001448916969820857,0.9864005446434021,0.00011824818648165092,0.013106122612953186
246.0,239.0,1.2999,-3.0526,8.8313,-0.0577,0.0202,-0.1231,-1.7796079121031703,0.0,2.996779441833496,-1.6431876420974731,-0.0,2.0954790115356445,4.8827747134263895,6.181970306115674e-29,0.28027185797691345,-1.1961405912982386,0.0,-0.04507520794868469,0.31366661190986633,0.0,0.000905429245904088,0.9863806366920471,8.360297215403989e-05,0.02590063214302063
246.0,239.0,1.2999,-3.0526,8.8313,-0.0577,0.0202,-0.1231,-1.7796246014037074,0.0,3.0158190727233887,-1.6432037353515625,-0.0,2.159585475921631,4.882834660797872,2.635470559684817e-31,0.28802067041397095,-1.1961324850665491,0.0,-0.051060378551483154,0.3136906623840332,0.0,0.0025834667030721903,0.9863846302032471,7.838701276341453e-05,0.03593667224049568
246.0,239.0,1.2999,-3.0526,8.8313,-0.0577,0.0202,-0.1231,-1.779644628564352,0.0,2.9895968437194824,-1.6431432962417603,-0.0,2.1221189498901367,4.8828546581561945,1.123542459632735e-33,0.27861475944519043,-1.1960919539081019,0.0,-0.06674171984195709,0.31365475058555603,0.0,-0.00794333964586258,0.9863724708557129,7.408519013551995e-05,0.014274407178163528
246.0,239.0,1.2999,-3.0526,8.8313,-0.0577,0.0202,-0.1231,-1.7795921764769496,1.0746898624347523e-05,3.026900291442871,-1.643235683441162,-0.0,2.1043879985809326,4.882826420455732,4.7898374269142395e-36,0.281549870967865,-1.1961763540851038,0.0,-0.04644007980823517,0.31365469098091125,0.0,0.00803009420633316,0.9864124655723572,7.023096986813471e-05,0.01387041062116623
246.0,239.0,1.2999,-3.0526,8.8313,-0.0577,0.0202,-0.1231,-1.779612203637594,1.0508651939744595e-05,2.9952242374420166,-1.6431752443313599,-0.0,2.1231346130371094,4.882842752128401,2.0419827720824523e-38,0.284859836101532,-1.196155850087301,0.0,-0.05012372136116028,0.31373098492622375,0.0,-0.005007073748856783,0.9864044189453125,6.675803160760552e-05,-0.024816008284687996
246.0,239.0,1.2999,-3.0526,8.8313,-0.0577,0.0202,-0.1231,-1.7795878849425257,1.0153015864489134e-05,3.0119481086730957,-1.6432156562805176,-0.0,2.1460373401641846,4.882886963873663,5.683666571301458e-42,0.278837651014328,-1.196108643208639,0.0,-0.041305143386125565,0.31369853019714355,0.0,-0.003901025280356407,0.9863724708557129,6.214819586602971e-05,0.011052817106246948
246.0,239.0,1.2999,-3.0526,8.8313,-0.0577,0.0202,-0.1231,-1.7796079121031703,9.92900095297955e-06,3.020698308944702,-1.6432156562805176,-0.0,2.0843505859375,4.882874744921484,2.382207389352189e-44,0.28514352440834045,-1.1961281935321253,0.0,-0.04871206730604172,0.31369468569755554,0.0,-0.001697086845524609,0.9864084720611572,5.941303970757872e-05,-0.0026450008153915405
246.0,239.0,1.2999,-3.0526,8.8313,-0.0577,0.0202,-0.1231,-1.7796527347960414,1.7871850666040245e-09,3.0128281116485596,-1.6432480812072754,-0.0,2.161756992340088,4.882854673057356,0.0,0.27320536971092224,-1.196064297352926,0.0,-0.06330983340740204,0.3136627674102783,0.0,-0.0006958332378417253,0.9864364862442017,5.690852049156092e-05,-0.007970701903104782
246.0,239.0,1.2999,-3.0526,8.8313,-0.0577,0.0202,-0.1231,-1.7796203098692835,3.2168698585986755e-13,2.9849772453308105,-1.6432197093963623,-0.0,2.1275389194488525,4.882830473571577,0.0,0.28594571352005005,-1.1961801687823694,0.0,-0.05582014471292496,0.31367063522338867,0.0,-0.0021575232967734337,0.9864164590835571,5.4606622143182904e-05,-0.00875968299806118
246.0,239.0,1.2999,-3.0526,8.8313,-0.0577,0.0202,-0.1231,-1.7795802555479945,5.790251714725883e-17,3.011455535888672,-1.6432197093963623,-1.4281543769811833e-07,2.099483013153076,4.882862823992529,0.0,0.2877609133720398,-1.1961200873004358,8.517405376551324e-07,-0.05313552916049957,0.31366249918937683,0.0,-0.009321250021457672,0.9863965511322021,6.793194188503549e-05,0.0075663491152226925
246.0,239.0,1.2999,-3.0526,8.8313,-0.0577,0.0202,-0.1231,-1.7796083889403285,1.0422247112588703e-20,3.0039849281311035,-1.6431670188903809,-2.570627391507152e-11,2.1299357414245605,4.882802995830335,0.0,0.2849805951118469,-1.1961239019977015,3.6311031959002094e-09,-0.05935785174369812,0.3136344254016876,0.0,0.00032322597689926624,0.9864084720611572,6.735922943335027e-05,0.013621979393064976
246.0,239.0,1.2999,-3.0526,8.8313,-0.0577,0.0202,-0.1231,-1.7795397243895472,1.8759678333855157e-24,3.0380988121032715,-1.6432476043701172,-4.627038176571599e-15,2.1299099922180176,4.882870691805639,0.0,0.2771545648574829,-1.1961362997638147,1.5479962797715352e-11,-0.051790278404951096,0.31371060013771057,0.0,-0.0028235663194209337,0.9864163994789124,2.4774339181021787e-05,0.031528472900390625
246.0,239.0,1.2999,-3.0526,8.8313,-0.0577,0.0202,-0.1231,-1.7795397243895472,0.00024298086646012962,3.0136404037475586,-1.6431351900100708,-1.1173752008203066e-20,2.1156811714172363,4.882842737227239,0.0,0.2647008001804352,-1.1961043516742151,4.308904460044146e-15,-0.04942099377512932,0.3137350380420685,0.0,0.008048620074987411,0.9864124059677124,1.8263261154061183e-05,-0.04191857576370239
246.0,239.0,1.2999,-3.0526,8.8313,-0.0577,0.0202,-0.1231,-1.779612203637594,0.0002519573026802391,3.002976417541504,-1.643195629119873,-2.0112357849560256e-24,2.113675117492676,4.882874759822645,0.0,0.27165457606315613,-1.1961119810687464,1.8369534043932557e-17,-0.046644654124975204,0.3136943578720093,0.0,-0.014665445312857628,0.9863845109939575,1.75509321707068e-05,0.03565360605716705
246.0,239.0,1.2999,-3.0526,8.8313,-0.0577,0.0202,-0.1231,-1.7795807323851527,0.0002444158890284598,2.9808242321014404,-1.643212080001831,-3.620153664577674e-28,2.092308759689331,4.882858755975523,0.0,0.27536654472351074,-1.1961239019977015,7.831221296950978e-20,-0.04826711490750313,0.31367063522338867,0.0,0.0005536926910281181,0.9864286780357361,1.689211421762593e-05,0.01681697741150856
249.0,243.0,0.8536,-3.6574,9.2339,-0.0255,0.0548,-0.1533,-1.779532094995016,0.00022681787959299982,3.0146737098693848,-1.6431875228881836,-6.516148397766308e-32,2.080591917037964,4.8828505901391885,0.0,0.2775226831436157,-1.1961239019977015,3.338572189559205e-22,-0.05300208181142807,0.31368276476860046,0.0,0.014263894408941269,0.9864286780357361,1.6280966519843787e-05,-0.018280265852808952
249.0,243.0,0.8536,-3.6574,9.2339,-0.0255,0.0548,-0.1533,-1.7795926533141078,0.00021158234449103475,3.0016565322875977,-1.6432358026504517,-1.1728837116045525e-35,2.134896993637085,4.882842767029562,0.0,0.2734011709690094,-1.196120564137594,1.4232856235583878e-24,-0.04991984739899635,0.31368258595466614,0.0,0.00395845714956522,0.9864445328712463,3.142206332995556e-05,-0.009736904874444008
249.0,243.0,0.8536,-3.6574,9.2339,-0.0255,0.0548,-0.1533,-1.7795926533141078,0.00019826448988169432,3.0368683338165283,-1.6431916952133179,-2.1111486222039824e-39,2.100505828857422,4.882867011218824,0.0,0.28416746854782104,-1.1961444059955042,6.067690052854607e-27,-0.04964805394411087,0.31368282437324524,0.0,0.01975555717945099,0.9864405393600464,4.553887993097305e-05,0.0060293469578027725
249.0,243.0,0.8536,-3.6574,9.2339,-0.0255,0.0548,-0.1533,-1.7796007595457972,0.00018652452854439616,2.994296073913574,-1.6432238817214966,-3.797518838320254e-43,2.1136903762817383,4.882870691805639,0.0,0.2737269997596741,-1.1961281935321253,2.5867517167132923e-29,-0.04728405922651291,0.3136906325817108,0.0,0.000824187183752656,0.9864484667778015,5.873950431123376e-05,0.019592203199863434
249.0,243.0,0.8536,-3.6574,9.2339,-0.0255,0.0548,-0.1533,-1.77958407024526,0.00017130830383393914,3.0266671180725098,-1.643167495727539,-0.0,2.0961380004882812,4.882874759822645,0.0,0.281292200088501,-1.1961119810687464,7.200317995229145e-33,-0.05405576527118683,0.3137025535106659,0.0,-0.003593645989894867,0.9864763617515564,0.00024277732882183045,0.0036086430773139
249.0,243.0,0.8536,-3.6574,9.2339,-0.0255,0.0548,-0.1533,-1.779588361779684,9.664070967119187e-05,3.0068490505218506,-1.6431918144226074,-0.0,2.1114397048950195,4.882882970362463,0.0,0.286234974861145,-1.1961324850665491,3.0696086337289936e-35,-0.04468650370836258,0.3136746883392334,0.0,0.002952679293230176,0.9863846302032471,0.0002611675881780684,0.007327968254685402
249.0,243.0,0.8536,-3.6574,9.2339,-0.0255,0.0548,-0.1533,-1.7796203098692835,8.702733612153679e-05,2.980565309524536,-1.643151044845581,-0.0,2.1078951358795166,4.882826420455732,0.0,0.27612727880477905,-1.1961200873004358,1.308622189088231e-37,-0.05435461550951004,0.31372663378715515,0.0,-0.005271244794130325,0.9864484667778015,0.0002396207710262388,-0.019608326256275177
249.0,243.0,0.8536,-3.6574,9.2339,-0.0255,0.0548,-0.1533,-1.7796527347960414,4.129415174247697e-05,3.0320887565612793,-1.6432040929794312,-0.0,2.101915121078491,4.882826405554571,0.0,0.2838192582130432,-1.1961405912982386,5.578863459154605e-40,-0.05244860053062439,0.3136866092681885,0.0,-0.006404833868145943,0.9864404797554016,0.00025676179211586714,0.009165044873952866
249.0,243.0,0.8536,-3.6574,9.2339,-0.0255,0.0548,-0.1533,-1.7796246014037074,3.6461853596847504e-05,2.968278646469116,-1.6432197093963623,-0.0,2.1034374237060547,4.882858785777845,0.0,0.2734107971191406,-1.1961119810687464,2.3780034939592146e-42,-0.043422944843769073,0.3137226402759552,0.0,0.0001566740684211254,0.9863924980163574,0.00023741523909848183,0.003377707675099373
249.0,243.0,0.8536,-3.6574,9.2339,-0.0255,0.0548,-0.1533,-1.7796045742430628,3.3728607377270237e-05,2.982429027557373,-1.6431552171707153,-0.0,2.1435511112213135,4.8828907934720895,0.0,0.27478155493736267,-1.1961239019977015,9.80908925027372e-45,-0.06432463973760605,0.31362247467041016,0.0,-0.0003933585248887539,0.9864484667778015,0.00014565140008926392,-0.0019502993673086166
249.0,243.0,0.8536,-3.6574,9.2339,-0.0255,0.0548,-0.1533,-1.7795678577818812,3.0319688448798843e-05,2.9609780311584473,-1.6431835889816284,-0.0,2.09409236907959,4.882830488472738,0.0,0.27218273282051086,-1.1960919539081019,0.0,-0.03215092793107033,0.31367847323417664,0.0,-0.006098058074712753,0.9864004254341125,5.766653339378536e-05,-0.0005521727725863457
249.0,243.0,0.8536,-3.6574,9.2339,-0.0255,0.0548,-0.1533,-1.7796079121031703,2.840576780727133e-05,3.0619618892669678,-1.6431550979614258,-0.0,2.076634407043457,4.882858741074362,-1.1788460142270196e-05,0.27301982045173645,-1.1960724035846155,0.0,-0.05455528199672699,0.313658744096756,0.0,-0.0008629934163764119,0.9864406585693359,8.678701135522715e-08,0.023334650322794914
249.0,243.0,0.8536,-3.6574,9.2339,-0.0255,0.0548,-0.1533,-1.779612203637594,9.161332855001092e-06,3.014904499053955,-1.64315927028656,5.876519571756944e-05,2.131620168685913,4.882822978287496,-3.464141991571523e-05,0.2805328071117401,-1.196108643208639,0.0,-0.03965156525373459,0.31369465589523315,0.0,-0.02050504833459854,0.9863845705986023,1.5621354904071794e-11,0.02055155485868454
249.0,243.0,0.8536,-3.6574,9.2339,-0.0255,0.0548,-0.1533,-1.779656549493307,1.6490075971375973e-09,2.995532512664795,-1.6431468725204468,6.908627256052569e-05,2.095674753189087,4.882838654309072,-3.419528002268635e-05,0.2813816964626312,-1.1960962454425257,0.0,-0.05955173820257187,0.3137226998806,0.0,-0.015417246147990227,0.9864484667778015,2.8117887606069836e-15,-0.03426415100693703
249.0,243.0,0.8536,-3.6574,9.2339,-0.0255,0.0548,-0.1533,-1.7796484432616175,2.9681555065337595e-13,3.006596803665161,-1.643155574798584,0.00077541678911075,2.12313175201416,4.882770958333769,-0.0003176616155542433,0.27257922291755676,-1.1961362997638147,0.0,-0.047091592103242874,0.3137187957763672,0.0,-0.002035001525655389,0.9864044189453125,5.061120087542185e-19,0.03135429322719574
249.0,243.0,0.8536,-3.6574,9.2339,-0.0255,0.0548,-0.1533,-1.7796765766539515,5.342575280639529e-17,3.0090787410736084,-1.6431357860565186,0.0021304076071828604,2.1534829139709473,4.882775056153097,-0.0007170533062890172,0.25371119379997253,-1.196064297352926,0.0,-0.05474366247653961,0.3136507272720337,0.0,0.005641894415020943,0.9864565134048462,9.1098376776068e-23,-0.005456653423607349
249.0,243.0,0.8536,-3.6574,9.2339,-0.0255,0.0548,-0.1533,-1.7796765766539515,-0.0018248837441205978,2.9920926094055176,-1.643163800239563,0.00301307812333107,2.114521026611328,4.882782849460401,-0.0012369637843221426,0.27294549345970154,-1.1961119810687464,0.0,-0.05585816502571106,0.31365472078323364,0.0,-0.010865418240427971,0.9864286780357361,1.6397387576184348e-26,-0.013417067006230354
249.0,243.0,0.8536,-3.6574,9.2339,-0.0255,0.0548,-0.1533,-1.7797323666014613,-0.007448446471244097,2.943726062774658,-1.6430633068084717,0.008258841931819916,2.1008334159851074,4.882742720633306,-0.001622290350496769,0.2732691168785095,-1.1960919539081019,0.0,-0.05974308401346207,0.31364649534225464,0.0,-0.0028309421613812447,0.9864087700843811,3.959775853778124e-32,-0.05063136667013168
249.0,243.0,0.8536,-3.6574,9.2339,-0.0255,0.0548,-0.1533,-1.7798005543150843,-0.01163733471184969,3.0070884227752686,-1.6429996490478516,0.015787547454237938,2.126098394393921,4.882807332068243,-0.0012496899580582976,0.27991360425949097,-1.1961119810687464,0.0,-0.051707953214645386,0.3136865794658661,0.0,0.011462307535111904,0.9864563941955566,0.00010661286796675995,-0.0010850067483261228
249.0,243.0,0.8536,-3.6574,9.2339,-0.0255,0.0548,-0.1533,-1.7798735104002894,-0.016442393884062767,2.9733338356018066,-1.6428794860839844,0.025631994009017944,2.1374599933624268,4.8827790943677805,-0.0006534522399306297,0.2801126539707184,-1.196120564137594,0.0,-0.04954107850790024,0.3136463463306427,0.0,-0.01700976863503456,0.9864246249198914,0.0002890740870498121,0.0578114278614521
246.0,245.0,0.7585,-2.3408,8.8164,-0.0611,0.048,-0.1329,-1.7799412212767542,-0.018722157925367355,2.9546477794647217,-1.6427639722824097,0.03514772653579712,2.1336233615875244,4.882759052305975,-0.00035910308361053467,0.2744520902633667,-1.1961119810687464,0.0,-0.042870644479990005,0.3136627674102783,0.0,0.0055528911761939526,0.9864763021469116,0.0019356543198227882,-0.009945739060640335
246.0,245.0,0.7585,-2.3408,8.8164,-0.0611,0.048,-0.1329,-1.780069967309469,-0.019360344856977463,2.9385409355163574,-1.642607569694519,0.04149124398827553,2.199023485183716,4.88275499919013,-0.0002830882731359452,0.2843049466609955,-1.1960962454425257,0.0,-0.06068051606416702,0.3137146830558777,0.0,-0.005182581953704357,0.9865239858627319,0.001900465227663517,-0.061656251549720764
246.0,245.0,0.7585,-2.3408,8.8164,-0.0611,0.048,-0.1329,-1.7800971470274867,-0.018623700365424156,2.923336982727051,-1.6424553394317627,0.04512662813067436,2.1677091121673584,4.882754954486646,-0.00023395969765260816,0.28811222314834595,-1.1961119810687464,0.0,-0.05458887666463852,0.3136385977268219,0.0,0.008465557359158993,0.986528217792511,0.0016680160770192742,0.056486960500478745
246.0,245.0,0.7585,-2.3408,8.8164,-0.0611,0.048,-0.1329,-1.780245920220846,-0.018466025590896606,2.9519810676574707,-1.6423113346099854,0.04653578996658325,2.214815616607666,4.8827509609754465,-0.00019937472825404257,0.2713932991027832,-1.1961281935321253,0.0,-0.05659935250878334,0.3136507272720337,0.0,-0.01405254565179348,0.9864921569824219,0.0014610225334763527,0.1069909930229187
246.0,245.0,0.7585,-2.3408,8.8164,-0.0611,0.048,-0.1329,-1.7802931270995082,-0.017996199429035187,2.926844596862793,-1.641971468925476,0.05214032903313637,2.2122325897216797,4.882807361870565,-0.0001631996565265581,0.26368725299835205,-1.1961043516742151,0.0,-0.05638169124722481,0.3137025535106659,0.0,0.004551914986222982,0.9865480661392212,0.002356607234105468,0.058450475335121155
246.0,245.0,0.7585,-2.3408,8.8164,-0.0611,0.048,-0.1329,-1.7804304562010707,-0.018297512084245682,2.963874578475952,-1.6417393684387207,0.057213813066482544,2.227952003479004,4.882782804756918,-0.00014559172268491238,0.27629393339157104,-1.1961000601397913,0.0,-0.051529258489608765,0.31365877389907837,0.0,-0.0038756029680371284,0.9865242838859558,0.003669142024591565,-0.009686022996902466
246.0,245.0,0.7585,-2.3408,8.8164,-0.0611,0.048,-0.1329,-1.7804938755431117,-0.017699535936117172,2.9322547912597656,-1.6414508819580078,0.06326169520616531,2.1970458030700684,4.8827349720294855,-0.0001693468657322228,0.2703447639942169,-1.196120564137594,0.0,-0.04910563677549362,0.31363844871520996,0.0,-0.0073927827179431915,0.986504316329956,0.003860082011669874,0.046195633709430695
246.0,245.0,0.7585,-2.3408,8.8164,-0.0611,0.048,-0.1329,-1.7806111774840296,-0.016095144674181938,2.9788122177124023,-1.6411347389221191,0.06956842541694641,2.215036392211914,4.882779168873586,-0.0001596471993252635,0.2646447718143463,-1.1961119810687464,0.0,-0.045239195227622986,0.313658744096756,0.0,0.004897227510809898,0.9865441918373108,0.002725097583606839,0.08950631320476532
246.0,245.0,0.7585,-2.3408,8.8164,-0.0611,0.048,-0.1329,-1.7806183300414027,-0.014479433186352253,2.9069271087646484,-1.6409149169921875,0.07289870083332062,2.24204421043396,4.88279107490138,-5.5699005315545946e-05,0.25741416215896606,-1.1961324850665491,0.0,-0.06988617777824402,0.3136424720287323,0.0,-0.0027580305468291044,0.9864881634712219,0.0015361944679170847,0.0866047814488411
246.0,245.0,0.7585,-2.3408,8.8164,-0.0611,0.048,-0.1329,-1.7806898556151332,-0.013111789710819721,2.914618968963623,-1.640590786933899,0.07379603385925293,2.206855535507202,4.882699060231008,-6.632409349549562e-05,0.26412954926490784,-1.1961725393878382,0.0,-0.06714089214801788,0.31365877389907837,0.0,0.005383704788982868,0.9865202903747559,3.058775109820999e-05,0.07227741926908493
246.0,245.0,0.7585,-2.3408,8.8164,-0.0611,0.048,-0.1329,-1.7807260952391566,-0.012761615216732025,2.902510643005371,-1.6403430700302124,0.07339104264974594,2.1840062141418457,4.882754939585485,-9.619372576707974e-05,0.2557712197303772,-1.1961405912982386,0.0,-0.07764066755771637,0.3136305809020996,0.0,0.005289825610816479,0.9864567518234253,5.505686573314961e-09,0.10300856828689575
246.0,245.0,0.7585,-2.3408,8.8164,-0.0611,0.048,-0.1329,-1.780846735040182,-0.013615952804684639,2.903425455093384,-1.6399275064468384,0.07103485614061356,2.218642234802246,4.88273078480319,-0.00012523354962468147,0.2448335587978363,-1.1961682478534144,0.0,-0.06275377422571182,0.31361907720565796,0.0,-0.00469261035323143,0.9864644408226013,-0.0026724496856331825,0.10483454167842865
246.0,245.0,0.7585,-2.3408,8.8164,-0.0611,0.048,-0.1329,-1.7809273205199183,-0.014199797064065933,2.881667375564575,-1.639651894569397,0.06851861625909805,2.2178733348846436,4.882755028992452,-0.00011757016181945801,0.24938976764678955,-1.1961119810687464,0.0,-0.0684872567653656,0.31371060013771057,0.0,0.00520849134773016,0.986428439617157,-0.003919948823750019,0.10174721479415894
246.0,245.0,0.7585,-2.3408,8.8164,-0.0611,0.048,-0.1329,-1.7809583149352015,-0.014841719530522823,2.8773586750030518,-1.6393473148345947,0.0667373538017273,2.2600362300872803,4.8827590374048135,-0.00011036296200472862,0.2510523200035095,-1.196064297352926,0.0,-0.07752066105604172,0.31367865204811096,0.0,0.00947367399930954,0.9864124059677124,-0.005452836863696575,0.08853417634963989
246.0,245.0,0.7585,-2.3408,8.8164,-0.0611,0.048,-0.1329,-1.7810026607909144,-0.015042840503156185,2.8655755519866943,-1.6390717029571533,0.06884387135505676,2.2056665420532227,4.882787409215727,-0.00010398664744570851,0.2619408667087555,-1.1961243788348597,0.0,-0.07718795537948608,0.31365472078323364,0.0,0.007905622944235802,0.9864372611045837,-0.006801108364015818,0.11275416612625122
246.0,245.0,0.7585,-2.3408,8.8164,-0.0611,0.048,-0.1329,-1.781078954736227,-0.014497386291623116,2.857750415802002,-1.6388603448867798,0.06871528178453445,2.2138376235961914,4.882763135224142,-0.0002825916453730315,0.24015194177627563,-1.196087662373678,0.0,-0.07473576068878174,0.3136627674102783,0.0,-0.009258555248379707,0.9863165020942688,-0.005986881908029318,0.09215512871742249
246.0,245.0,0.7585,-2.3408,8.8164,-0.0611,0.048,-0.1329,-1.7810493908324183,-0.013812514953315258,2.8437771797180176,-1.638507604598999,0.07075188308954239,2.2025725841522217,4.882779139071264,-0.00025384165928699076,0.2490842640399933,-1.1961000601397913,0.0,-0.06843585520982742,0.31365475058555603,0.0,0.0015690347645431757,0.9863203763961792,-0.00481049157679081,0.13638515770435333
246.0,245.0,0.7585,-2.3408,8.8164,-0.0611,0.048,-0.1329,-1.7811666927733363,-0.0129699083045125,2.790217399597168,-1.6380679607391357,0.07544168829917908,2.236156702041626,4.882750990777769,-0.00023830763529986143,0.24596403539180756,-1.1961405912982386,0.0,-0.0671326071023941,0.3136746883392334,0.0,0.002726634731516242,0.9863368272781372,-0.00487813213840127,0.0973672866821289
246.0,245.0,0.7585,-2.3408,8.8164,-0.0611,0.048,-0.1329,-1.7812348804869593,-0.012161465361714363,2.8235816955566406,-1.637791633605957,0.07981840521097183,2.21740460395813,4.882775443583288,-0.0002374969917582348,0.24915239214897156,-1.1961281935321253,0.0,-0.07816988229751587,0.3136666715145111,0.0,-0.008162636309862137,0.9862410426139832,-0.005848350469022989,0.06606392562389374
246.0,245.0,0.7585,-2.3408,8.8164,-0.0611,0.048,-0.1329,-1.7812868557372035,-0.012713687494397163,2.8281643390655518,-1.6374318599700928,0.08436372876167297,2.216395616531372,4.882759052305975,-0.00021837129315827042,0.232628732919693,-1.1960762182818812,0.0,-0.08948634564876556,0.31371861696243286,0.0,-0.00779965054243803,0.9861931204795837,-0.007692468818277121,0.10990668088197708
246.0,245.0,0.7585,-2.3408,8.8164,-0.0611,0.048,-0.1329,-1.7813264332213343,-0.012961897067725658,2.7768993377685547,-1.6371079683303833,0.08880941569805145,2.2438247203826904,4.882763165026464,-0.0002334168239030987,0.22171270847320557,-1.1960838476764124,0.0,-0.0888914167881012,0.3136305510997772,0.0,-0.007755718659609556,0.9862330555915833,-0.008005635812878609,0.08161997050046921
249.0,246.0,1.4303,-2.138,9.0993,-0.0851,0.0956,-0.0757,-1.781358381310934,-0.013996412977576256,2.783712387084961,-1.6367355585098267,0.09283550083637238,2.2606892585754395,4.882754969387808,-0.00024848757311701775,0.24325639009475708,-1.1961405912982386,0.0,-0.07492659986019135,0.3136507570743561,0.0,-0.00030258484184741974,0.9861531853675842,-0.008512734435498714,0.12295544147491455
249.0,246.0,1.4303,-2.138,9.0993,-0.0851,0.0956,-0.0757,-1.7814470730223597,-0.015303297899663448,2.7827067375183105,-1.636344313621521,0.09660790860652924,2.248274326324463,4.882730799704351,-0.00027327449060976505,0.22563917934894562,-1.1960762182818812,0.0,-0.07963007688522339,0.3136866092681885,0.0,0.001551009714603424,0.9861531853675842,-0.008818820118904114,0.08943004906177521
249.0,246.0,1.4303,-2.138,9.0993,-0.0851,0.0956,-0.0757,-1.7815271816649378,-0.016921689733862877,2.8024091720581055,-1.6358957290649414,0.10063406825065613,2.2517926692962646,4.882699090033331,-0.0002463524870108813,0.23326189815998077,-1.1961167494403284,0.0,-0.08529717475175858,0.31363850831985474,0.0,0.00974153820425272,0.986129105091095,-0.008249649778008461,0.03513297811150551
249.0,246.0,1.4303,-2.138,9.0993,-0.0851,0.0956,-0.0757,-1.7816039524474085,-0.017553454264998436,2.7959256172180176,-1.6352558135986328,0.1075693815946579,2.266003131866455,4.8827754882867715,-0.00024284597020596266,0.23567068576812744,-1.196064297352926,0.0,-0.06714262068271637,0.3136507570743561,0.0,-0.005570573732256889,0.9860978126525879,-0.007824371568858624,0.10904525965452194
249.0,246.0,1.4303,-2.138,9.0993,-0.0851,0.0956,-0.0757,-1.781736513177389,-0.01800210401415825,2.7528457641601562,-1.6348323822021484,0.10902352631092072,2.2303857803344727,4.882783311396398,-0.0002320417988812551,0.23577728867530823,-1.1960762182818812,0.0,-0.08461006730794907,0.3136746883392334,0.0,-0.0004705900209955871,0.9860494136810303,-0.006460702512413263,0.09198424220085144
249.0,246.0,1.4303,-2.138,9.0993,-0.0851,0.0956,-0.0757,-1.781792779962057,-0.01873396709561348,2.752079963684082,-1.6344646215438843,0.10839966684579849,2.1943230628967285,4.882767307549276,-0.00021371411276049912,0.22484630346298218,-1.196087662373678,0.0,-0.08853831887245178,0.31365877389907837,0.0,-0.003938962705433369,0.9860255718231201,-0.005353636108338833,0.06924696266651154
249.0,246.0,1.4303,-2.138,9.0993,-0.0851,0.0956,-0.0757,-1.7818075619139613,-0.018612505868077278,2.7593257427215576,-1.6339963674545288,0.11043305695056915,2.2698140144348145,4.882767307549276,-0.00016726754256524146,0.21127039194107056,-1.1961124579059046,0.0,-0.07793530821800232,0.31365472078323364,0.0,-0.0015717977657914162,0.9860095381736755,-0.003808256471529603,0.1639527827501297
249.0,246.0,1.4303,-2.138,9.0993,-0.0851,0.0956,-0.0757,-1.7819205723204554,-0.01968700811266899,2.726823329925537,-1.6335569620132446,0.11627638339996338,2.2257068157196045,4.88272305110053,-0.00015376131341326982,0.22737783193588257,-1.1961362997638147,0.0,-0.0724581778049469,0.3137187659740448,0.0,-0.00999701488763094,0.9859775900840759,-0.0022683267015963793,0.06411314010620117
249.0,246.0,1.4303,-2.138,9.0993,-0.0851,0.0956,-0.0757,-1.7820245228209437,-0.021727358922362328,2.7800235748291016,-1.6329997777938843,0.12345901131629944,2.2891345024108887,4.882726731687345,-0.00016522481746505946,0.22467301785945892,-1.196087662373678,0.0,-0.07118123024702072,0.3136627674102783,0.0,0.011125416494905949,0.9860420823097229,-0.0015838276594877243,0.12783695757389069
249.0,246.0,1.4303,-2.138,9.0993,-0.0851,0.0956,-0.0757,-1.782083650628561,-0.02457660809159279,2.746641159057617,-1.632613182067871,0.12903079390525818,2.2195401191711426,4.882771405368604,-0.00016228419553954154,0.2190018892288208,-1.1961162726031702,0.0,-0.07941029220819473,0.31367868185043335,0.0,-0.010006798431277275,0.9860014915466309,-0.000995123409666121,0.14719435572624207
249.0,246.0,1.4303,-2.138,9.0993,-0.0851,0.0956,-0.0757,-1.7822853527464808,-0.03388158977031708,2.7217860221862793,-1.631744146347046,0.1408170610666275,2.298485279083252,4.882750975876608,-0.00018587314116302878,0.21702522039413452,-1.1961324850665491,0.0,-0.08195996284484863,0.31361499428749084,0.0,0.007166271097958088,0.9860414862632751,-3.265650505568374e-08,0.17848093807697296
249.0,246.0,1.4303,-2.138,9.0993,-0.0851,0.0956,-0.0757,-1.7824856243529261,-0.04105891287326813,2.7033050060272217,-1.6311721801757812,0.1520102471113205,2.332704782485962,4.882750975876608,-0.00018866629397962242,0.2381252497434616,-1.196108643208639,0.0,-0.07692582905292511,0.3136345148086548,0.0,0.0012210295535624027,0.9860740303993225,0.002975539304316044,0.22708603739738464
249.0,246.0,1.4303,-2.138,9.0993,-0.0851,0.0956,-0.0757,-1.7826458416380824,-0.048635080456733704,2.6295454502105713,-1.6305769681930542,0.1590438336133957,2.3280882835388184,4.882739054947653,-0.00024278671480715275,0.2226574569940567,-1.1960962454425257,0.0,-0.07977618277072906,0.3136906027793884,0.0,-0.026768095791339874,0.9861343502998352,0.00279554957523942,0.1994939148426056
249.0,246.0,1.4303,-2.138,9.0993,-0.0851,0.0956,-0.0757,-1.782881876031393,-0.05728650838136673,2.6938154697418213,-1.6298524141311646,0.16430266201496124,2.3254570960998535,4.882750975876608,-0.0011636607814580202,0.20399942994117737,-1.196087662373678,0.0,-0.09479323029518127,0.31368276476860046,0.0,-0.002357600722461939,0.9860496520996094,0.001901148585602641,0.19870620965957642
249.0,246.0,1.4303,-2.138,9.0993,-0.0851,0.0956,-0.0757,-1.7831345997252406,-0.06610682606697083,2.700282335281372,-1.629224419593811,0.1667894572019577,2.3172504901885986,4.882723036199369,-0.0010337579296901822,0.20736068487167358,-1.1961682478534144,0.0,-0.09076289087533951,0.31366685032844543,0.0,-5.998531560180709e-05,0.9860655665397644,0.001489729038439691,0.18363726139068604
249.0,246.0,1.4303,-2.138,9.0993,-0.0851,0.0956,-0.0757,-1.7833949528136195,-0.07434810698032379,2.6879124641418457,-1.6284884214401245,0.17076152563095093,2.341583490371704,4.882750975876608,-0.00043660137453116477,0.20356886088848114,-1.1961243788348597,0.0,-0.0963076800107956,0.3136507272720337,0.0,0.0028326665051281452,0.9860854148864746,0.000872806878760457,0.19108322262763977
249.0,246.0,1.4303,-2.138,9.0993,-0.0851,0.0956,-0.0757,-1.7838479481139125,-0.0825979933142662,2.666865110397339,-1.627445101737976,0.18196777999401093,2.3201465606689453,4.882735001831808,-0.00023261975729838014,0.20965173840522766,-1.196087662373678,0.0,-0.08966778963804245,0.3136986792087555,0.0,-0.01380060613155365,0.9860695004463196,0.0007715862593613565,0.25068482756614685
249.0,246.0,1.4303,-2.138,9.0993,-0.0851,0.0956,-0.0757,-1.7841955624022425,-0.08889997750520706,2.701845407485962,-1.626672625541687,0.18891461193561554,2.3577866554260254,4.882746803551473,-0.0001847548846853897,0.21666380763053894,-1.1961281935321253,0.0,-0.09202966839075089,0.31367865204811096,0.0,-0.0049263956025242805,0.9860734939575195,0.0006197425536811352,0.16542094945907593
249.0,246.0,1.4303,-2.138,9.0993,-0.0851,0.0956,-0.0757,-1.7845894298949183,-0.09096310287714005,2.6530637741088867,-1.6258814334869385,0.19782350957393646,2.4164624214172363,4.882707360177793,-0.00015325423737522215,0.20914053916931152,-1.1961243788348597,0.0,-0.08039622008800507,0.3135989010334015,0.0,-0.011735732667148113,0.9860328435897827,0.00023030705051496625,0.23662519454956055
249.0,246.0,1.4303,-2.138,9.0993,-0.0851,0.0956,-0.0757,-1.7849608860411585,-0.095575250685215,2.647995710372925,-1.6250896453857422,0.20554061233997345,2.416177272796631,4.882703262358465,-0.0001960803201654926,0.20635859668254852,-1.1961000601397913,0.0,-0.09458263963460922,0.31361865997314453,0.0,0.0006685126572847366,0.9860536456108093,0.00017536674567963928,0.2321491539478302
249.0,246.0,1.4303,-2.138,9.0993,-0.0851,0.0956,-0.0757,-1.785393854180807,-0.09883342683315277,2.6342999935150146,-1.624213457107544,0.20793037116527557,2.4113826751708984,4.882718953281202,-0.00020087564189452678,0.20521819591522217,-1.196120564137594,0.0,-0.0925995334982872,0.3136466145515442,0.0,-0.011991038918495178,0.9860933423042297,0.00014675709826406091,0.19564437866210938
247.0,259.0,0.877,-3.2602,8.4503,-0.0205,0.1461,-0.089,-1.7858063183226527,-0.1028946042060852,2.626561164855957,-1.623389720916748,0.20765629410743713,2.3550119400024414,4.8827311275298975,-0.0003185463137924671,0.20900298655033112,-1.1961444059955042,0.0,-0.1026296615600586,0.313662588596344,0.0,0.0054992930963635445,0.9861092567443848,0.00012617660104297101,0.22198352217674255
247.0,259.0,0.877,-3.2602,8.4503,-0.0205,0.1461,-0.089,-1.7862307033934535,-0.10501024127006531,2.623608112335205,-1.6225380897521973,0.21174129843711853,2.4347050189971924,4.88273939767436,-0.0013166142161935568,0.2001851499080658,-1.196120564137594,0.0,-0.09674802422523499,0.31370267271995544,0.0,-0.005758775398135185,0.9860933423042297,0.00011065968283219263,0.25865018367767334
247.0,259.0,0.877,-3.2602,8.4503,-0.0205,0.1461,-0.089,-1.786889215508932,-0.10758760571479797,2.6345953941345215,-1.6212257146835327,0.21464650332927704,2.4114651679992676,4.8826670972402475,-0.001526644336991012,0.207075297832489,-1.1961000601397913,0.0,-0.09512470662593842,0.3136826455593109,0.0,0.009406983852386475,0.9860774278640747,4.7374236601172015e-05,0.25391024351119995
247.0,259.0,0.877,-3.2602,8.4503,-0.0205,0.1461,-0.089,-1.7873131237425746,-0.10886599123477936,2.6638317108154297,-1.6203657388687134,0.21660232543945312,2.447445869445801,4.882663446455755,-0.004272524733096361,0.20423701405525208,-1.1960962454425257,0.0,-0.09710156917572021,0.3136746883392334,0.0,0.013927837833762169,0.9860576391220093,5.959087161500065e-07,0.26316237449645996
247.0,259.0,0.877,-3.2602,8.4503,-0.0205,0.1461,-0.089,-1.787725111047262,-0.11054080724716187,2.6337995529174805,-1.6195259094238281,0.21675458550453186,2.3948795795440674,4.882639366179266,-0.007395056076347828,0.18534152209758759,-1.1961525122271937,0.0,-0.08650629222393036,0.3136425018310547,0.0,-0.008871836587786674,0.9860695004463196,1.0726147053885526e-10,0.2479783296585083
247.0,259.0,0.877,-3.2602,8.4503,-0.0205,0.1461,-0.089,-1.7881905041136683,-0.11233334243297577,2.6356849670410156,-1.6186985969543457,0.21389977633953094,2.389669418334961,4.8825838444526575,-0.01139264926314354,0.20285530388355255,-1.1961124579059046,0.0,-0.09007184207439423,0.3136906325817108,0.0,-0.0087113156914711,0.9860576391220093,1.9306684546980916e-14,0.22794833779335022
247.0,259.0,0.877,-3.2602,8.4503,-0.0205,0.1461,-0.089,-1.7886764011778773,-0.11827366799116135,2.6972532272338867,-1.6177704334259033,0.21376116573810577,2.3751652240753174,4.882507639914312,-0.013283539563417435,0.20371732115745544,-1.1960962454425257,0.0,-0.08793476223945618,0.3136507570743561,0.0,-0.0013087205588817596,0.9861330389976501,3.475134645845529e-18,0.31609460711479187
247.0,259.0,0.877,-3.2602,8.4503,-0.0205,0.1461,-0.089,-1.7891189060606898,-0.12554499506950378,2.601879119873047,-1.6169021129608154,0.21611487865447998,2.3758621215820312,4.882540005236425,-0.011341400444507599,0.2009628266096115,-1.1961124579059046,0.0,-0.08955109864473343,0.3137187659740448,0.0,0.010798272676765919,0.9860854148864746,6.255118688519059e-22,0.25156646966934204
247.0,259.0,0.877,-3.2602,8.4503,-0.0205,0.1461,-0.089,-1.789617200891012,-0.13069990277290344,2.5900588035583496,-1.6160390377044678,0.22205013036727905,2.418633222579956,4.882496493845739,-0.008236479014158249,0.1947927623987198,-1.1961000601397913,0.0,-0.08754885941743851,0.3137145936489105,0.0,0.002132992958649993,0.9860454201698303,1.1258993850458767e-25,0.2740563154220581
247.0,259.0,0.877,-3.2602,8.4503,-0.0205,0.1461,-0.089,-1.7903772793211878,-0.13430246710777283,2.572150707244873,-1.6147147417068481,0.2272869199514389,2.4367847442626953,4.882424312620916,-0.004573350306600332,0.1912250518798828,-1.1960557142840784,0.0,-0.08422298729419708,0.31367069482803345,0.0,-0.0009133686544373631,0.9860453605651855,2.7189146718700284e-31,0.21125498414039612
247.0,259.0,0.877,-3.2602,8.4503,-0.0205,0.1461,-0.089,-1.790898939172262,-0.13252168893814087,2.5904455184936523,-1.6138033866882324,0.22834543883800507,2.3702845573425293,4.882428082614698,-0.0023841597139835358,0.1960514783859253,-1.1960962454425257,0.0,-0.07616563886404037,0.31367069482803345,0.0,0.002235150197520852,0.9859976768493652,4.893950898429666e-35,0.22417908906936646
247.0,259.0,0.877,-3.2602,8.4503,-0.0205,0.1461,-0.089,-1.791466852227682,-0.1285715103149414,2.672309160232544,-1.6128997802734375,0.23458489775657654,2.3987388610839844,4.8824563203151605,-0.0013630269095301628,0.20254237949848175,-1.196108643208639,0.0,-0.0750502273440361,0.31365877389907837,0.0,-0.004463247489184141,0.9860135912895203,8.808937694734239e-39,0.2548089623451233
247.0,259.0,0.877,-3.2602,8.4503,-0.0205,0.1461,-0.089,-1.7919608555235804,-0.12443772703409195,2.6384496688842773,-1.6120318174362183,0.24024498462677002,2.415424108505249,4.882392319827833,-0.00094969617202878,0.19596102833747864,-1.1961405912982386,0.0,-0.07857105135917664,0.31366685032844543,0.0,0.006415441166609526,0.9860615730285645,1.586269861615693e-42,0.22133076190948486
247.0,259.0,0.877,-3.2602,8.4503,-0.0205,0.1461,-0.089,-1.7925101719298304,-0.12472203373908997,2.6045093536376953,-1.611064076423645,0.2451843023300171,2.4434494972229004,4.8823722181613824,-0.0007142010144889355,0.1926535964012146,-1.1961291472064417,0.0,-0.0768359825015068,0.3136785328388214,0.0,-0.00171611865516752,0.9860534071922302,0.0,0.22064031660556793
247.0,259.0,0.877,-3.2602,8.4503,-0.0205,0.1461,-0.089,-1.793042322198385,-0.13076165318489075,2.6020500659942627,-1.610083818435669,0.24732926487922668,2.4264795780181885,4.882292169123449,-0.00355239724740386,0.19686594605445862,-1.196108643208639,0.0,-0.08176682889461517,0.31367069482803345,0.0,-0.004874267149716616,0.9860494136810303,0.0,0.23810449242591858
247.0,259.0,0.877,-3.2602,8.4503,-0.0205,0.1461,-0.089,-1.7936111889281214,-0.1384086012840271,2.64205265045166,-1.609123706817627,0.24288396537303925,2.446193218231201,4.882377239852705,-0.00725013529881835,0.19629448652267456,-1.1960724035846155,0.0,-0.08147518336772919,0.3136906027793884,0.0,0.005489630624651909,0.986077606678009,-0.00010727472545113415,0.2440398633480072
247.0,259.0,0.877,-3.2602,8.4503,-0.0205,0.1461,-0.089,-1.79453768352651,-0.15568600594997406,2.6219558715820312,-1.607696533203125,0.23766547441482544,2.445352554321289,4.882248762040891,-0.011882954277098179,0.19656997919082642,-1.1960762182818812,0.0,-0.0730934590101242,0.31369462609291077,0.0,-0.003285811748355627,0.9860695600509644,-0.00016128366405609995,0.19580021500587463
247.0,259.0,0.877,-3.2602,8.4503,-0.0205,0.1461,-0.089,-1.7951342068114222,-0.1658843606710434,2.596761465072632,-1.6067160367965698,0.2400757074356079,2.495966911315918,4.882229345827856,-0.01342088170349598,0.19330951571464539,-1.1960762182818812,0.0,-0.07017312943935394,0.31360703706741333,0.0,-0.005048067308962345,0.9860814809799194,-0.0001441429922124371,0.17392846941947937
247.0,259.0,0.877,-3.2602,8.4503,-0.0205,0.1461,-0.089,-1.7958041630186976,-0.17160004377365112,2.595118999481201,-1.6057485342025757,0.2454206943511963,2.404019832611084,4.882177340775289,-0.013736930675804615,0.18301008641719818,-1.1961043516742151,0.0,-0.07097316533327103,0.3136385381221771,0.0,0.005763747729361057,0.9860656261444092,-0.0001684943272266537,0.21794912219047546
247.0,259.0,0.877,-3.2602,8.4503,-0.0205,0.1461,-0.089,-1.7964784107603968,-0.17214451730251312,2.582392692565918,-1.6048091650009155,0.2512489855289459,2.4487452507019043,4.882109316974439,-0.013649022206664085,0.19606135785579681,-1.1961000601397913,0.0,-0.061862122267484665,0.3136666715145111,0.0,0.008924810215830803,0.9860576391220093,-0.00028686303994618356,0.20023134350776672
247.0,259.0,0.877,-3.2602,8.4503,-0.0205,0.1461,-0.089,-1.797117372552389,-0.171809583902359,2.5821688175201416,-1.6037250757217407,0.2515500783920288,2.3986990451812744,4.882042306452551,-0.014155524782836437,0.17855097353458405,-1.1960681120501917,0.0,-0.062589630484581,0.3136627674102783,0.0,-0.007016025949269533,0.9860453605651855,-0.0010872751008719206,0.14313064515590668
256.0,286.0,0.3039,-2.6166,9.1645,-0.0191,0.1324,-0.1083,-1.7977901897826136,-0.16976617276668549,2.6439247131347656,-1.6027045249938965,0.25173071026802063,2.3969321250915527,4.881965714484014,-0.013985267840325832,0.1858128309249878,-1.196080509816305,0.0,-0.06838122755289078,0.3136667013168335,0.0,-0.00016320624854415655,0.986017644405365,-0.0012571209808811545,0.17233964800834656
256.0,286.0,0.3039,-2.6166,9.1645,-0.0191,0.1324,-0.1083,-1.798823972741598,-0.1724030077457428,2.5944976806640625,-1.6012334823608398,0.260008841753006,2.42816162109375,4.881886082678594,-0.011866484768688679,0.18491144478321075,-1.1960280577289026,0.0,-0.050990767776966095,0.31367069482803345,0.0,-0.0023599467240273952,0.9860615730285645,-0.000899665872566402,0.16944533586502075
256.0,286.0,0.3039,-2.6166,9.1645,-0.0191,0.1324,-0.1083,-1.7995816669859828,-0.17629477381706238,2.567206382751465,-1.6002180576324463,0.26645660400390625,2.3934097290039062,4.881810235768118,-0.012262559495866299,0.17258334159851074,-1.1960600058185022,0.0,-0.058028023689985275,0.3137105107307434,0.0,-0.006738121621310711,0.9860057234764099,-0.000719693023711443,0.18817129731178284
256.0,286.0,0.3039,-2.6166,9.1645,-0.0191,0.1324,-0.1083,-1.8002540073790492,-0.1812513917684555,2.591548204421997,-1.5991737842559814,0.2676352262496948,2.4167752265930176,4.8816945282514475,-0.016102731227874756,0.18418484926223755,-1.1960528532611292,0.0,-0.055788613855838776,0.31365877389907837,0.0,0.01368929073214531,0.9860295057296753,-0.0005997453117743134,0.13338804244995117
256.0,286.0,0.3039,-2.6166,9.1645,-0.0191,0.1324,-0.1083,-1.800990720788473,-0.18956264853477478,2.6553144454956055,-1.598153829574585,0.25913095474243164,2.4422504901885986,4.881603035121717,-0.022627750411629677,0.18862593173980713,-1.1960485617267054,0.0,-0.052751220762729645,0.31369462609291077,0.0,-0.011606317944824696,0.9860216379165649,-0.00040439944132231176,0.16703912615776062
256.0,286.0,0.3039,-2.6166,9.1645,-0.0191,0.1324,-0.1083,-1.801772256890768,-0.19817031919956207,2.600280284881592,-1.5971078872680664,0.25581955909729004,2.3541371822357178,4.881595182209768,-0.02854270674288273,0.19360771775245667,-1.1960681120501917,0.0,-0.04461047798395157,0.313646525144577,0.0,-0.021972648799419403,0.9860414266586304,-0.00047833722783252597,0.14780214428901672
256.0,286.0,0.3039,-2.6166,9.1645,-0.0191,0.1324,-0.1083,-1.8026391468443812,-0.20171095430850983,2.6083710193634033,-1.5960453748703003,0.25467649102211,2.4355666637420654,4.8815438626106165,-0.031743232160806656,0.18076501786708832,-1.1960566679583948,0.0,-0.05393233150243759,0.3136945366859436,0.0,-0.022156700491905212,0.9860374927520752,-0.0009826580062508583,0.14424942433834076
256.0,286.0,0.3039,-2.6166,9.1645,-0.0191,0.1324,-0.1083,-1.8033586941161097,-0.2078382968902588,2.574505567550659,-1.5949910879135132,0.25874289870262146,2.371922492980957,4.881371769099989,-0.036217622458934784,0.17626425623893738,-1.1960485617267054,0.0,-0.04797380417585373,0.31365084648132324,0.0,0.006443856284022331,0.9859776496887207,-0.0016330641228705645,0.06865017116069794
256.0,286.0,0.3039,-2.6166,9.1645,-0.0191,0.1324,-0.1083,-1.8045231304564417,-0.21217411756515503,2.5686988830566406,-1.5933700799942017,0.262505441904068,2.3859899044036865,4.881152707129278,-0.04515485465526581,0.17083893716335297,-1.1960566679583948,0.0,-0.05113094672560692,0.31369057297706604,0.0,0.007575921714305878,0.986005425453186,-0.002775403903797269,0.08111977577209473
256.0,286.0,0.3039,-2.6166,9.1645,-0.0191,0.1324,-0.1083,-1.8054505787291468,-0.21332301199436188,2.5890588760375977,-1.5922996997833252,0.2595568299293518,2.40252423286438,4.880949142366209,-0.05302930995821953,0.1738206148147583,-1.1960399786578577,0.0,-0.031228089705109596,0.31363868713378906,0.0,-0.003554193302989006,0.9859377145767212,-0.00481738056987524,0.060155238956213
256.0,286.0,0.3039,-2.6166,9.1645,-0.0191,0.1324,-0.1083,-1.806303163568014,-0.21080122888088226,2.6040937900543213,-1.5912086963653564,0.26163917779922485,2.341679096221924,4.8807817725236795,-0.06063511222600937,0.17729100584983826,-1.1960843245135706,0.0,-0.0257419403642416,0.31367069482803345,0.0,0.0022857929579913616,0.9859416484832764,-0.006262272130697966,0.02766302227973938
256.0,286.0,0.3039,-2.6166,9.1645,-0.0191,0.1324,-0.1083,-1.8071567020811976,-0.20529861748218536,2.6311769485473633,-1.5902035236358643,0.26471683382987976,2.309433698654175,4.88057470598773,-0.06470654904842377,0.16900570690631866,-1.196052376423971,0.0,-0.024996761232614517,0.31369855999946594,0.0,-0.005728652700781822,0.9859338402748108,-0.0071372417733073235,-0.02656206302344799
256.0,286.0,0.3039,-2.6166,9.1645,-0.0191,0.1324,-0.1083,-1.808014532128805,-0.20729117095470428,2.6822848320007324,-1.5891046524047852,0.26980262994766235,2.4101877212524414,4.880279752403059,-0.07059919089078903,0.1674218624830246,-1.1960609594928187,0.0,-0.03235085681080818,0.313658744096756,0.0,-0.010164705105125904,0.9858657121658325,-0.007913511246442795,-0.0021575442515313625
256.0,286.0,0.3039,-2.6166,9.1645,-0.0191,0.1324,-0.1083,-1.8088461361327113,-0.2115323692560196,2.6214566230773926,-1.5880674123764038,0.27180755138397217,2.3887062072753906,4.879941242724218,-0.0756000503897667,0.15519925951957703,-1.1960318724261683,0.0,-0.03368906304240227,0.3136866092681885,0.0,-0.004495101980865002,0.9858658313751221,-0.007723748683929443,0.027277806773781776
256.0,286.0,0.3039,-2.6166,9.1645,-0.0191,0.1324,-0.1083,-1.8097726307311,-0.22199603915214539,2.643340826034546,-1.5869367122650146,0.268338143825531,2.3666329383850098,4.879642176419058,-0.07807241380214691,0.1541479229927063,-1.196080509816305,0.0,-0.03870384395122528,0.3137187659740448,0.0,-0.002244197530671954,0.9858095645904541,-0.007729813456535339,0.06834062188863754
