ramyac6/ROB537/final_project/csv/all/bad_119.csv
tof_0,tof_1,accelx,accely,accelz,gyrox,gyroy,gyroz,shoulder_lift_joint_position,shoulder_lift_joint_velocity,shoulder_lift_joint_effort,elbow_joint_position,elbow_joint_velocity,elbow_joint_effort,wrist_1_joint_position,wrist_1_joint_velocity,wrist_1_joint_effort,wrist_2_joint_position,wrist_2_joint_velocity,wrist_2_joint_effort,wrist_3_joint_position,wrist_3_joint_velocity,wrist_3_joint_effort,shoulder_pan_joint_position,shoulder_pan_joint_velocity,shoulder_pan_joint_effort
974.0,929.0,2.1063,-0.4481,9.1807,-0.0409,0.0203,-0.1237,-1.6606723270811976,0.0,2.387158155441284,-1.935929536819458,-0.0,2.004148006439209,4.88321732261733,0.0,0.2876132130622864,-1.5353944937335413,8.526192658912949e-38,-0.010977141559123993,0.7708401679992676,-0.0,-0.0011152471415698528,0.8127774000167847,0.0,0.027843059971928596
974.0,929.0,2.1063,-0.4481,9.1807,-0.0409,0.0203,-0.1237,-1.6606723270811976,0.0,2.4061899185180664,-1.935945987701416,-0.0,2.025752544403076,4.88318124690608,0.0,0.2916715145111084,-1.5354021231280726,3.6348561125814295e-40,-0.018363041803240776,0.7707358002662659,-0.0,-0.005565590225160122,0.8127328753471375,0.0,-0.046848032623529434
974.0,929.0,2.1063,-0.4481,9.1807,-0.0409,0.0203,-0.1237,-1.6606646976866664,0.0,2.3434560298919678,-1.935945987701416,-0.0,1.9928390979766846,4.883229243546285,0.0,0.29094555974006653,-1.5353744665728968,1.0089348943138683e-43,-0.03046148084104061,0.7707881331443787,-0.0,-0.00689538661390543,0.8127732276916504,0.0,0.03077728860080242
974.0,929.0,2.1063,-0.4481,9.1807,-0.0409,0.0203,-0.1237,-1.6606971226134242,0.0,2.4104764461517334,-1.9359099864959717,-0.0,2.026799201965332,4.883261549263754,0.0,0.2923247218132019,-1.5354021231280726,0.0,-0.015136772766709328,0.7708122730255127,-0.0,-0.007785787805914879,0.8127411007881165,0.0,0.03833784908056259
974.0,929.0,2.1063,-0.4481,9.1807,-0.0409,0.0203,-0.1237,-1.660680433312887,0.0,2.4049549102783203,-1.9359221458435059,-0.0,2.0026791095733643,4.883193540364065,0.0,0.2946629822254181,-1.5354307333575647,0.0,-0.02065233886241913,0.7708443403244019,-0.0,-0.010145059786736965,0.8127812147140503,0.0,0.02185712195932865
974.0,929.0,2.1063,-0.4481,9.1807,-0.0409,0.0203,-0.1237,-1.6606766186156214,0.0,2.3565244674682617,-1.9359099864959717,-0.0,2.034458875656128,4.8832213310296915,0.0,0.2977087199687958,-1.5354307333575647,0.0,-0.023892614990472794,0.7708283066749573,-0.0,-0.00807128194719553,0.8127411007881165,0.0,-0.010771003551781178
974.0,929.0,2.1063,-0.4481,9.1807,-0.0409,0.0203,-0.1237,-1.6606646976866664,0.0,2.390087604522705,-1.9359500408172607,-0.0,1.9588875770568848,4.8831893531377695,0.0,0.2869700789451599,-1.5353863875018519,0.0,-0.008162669837474823,0.7707918882369995,-0.0,-0.00607283553108573,0.8127771019935608,0.0,-0.008905047550797462
974.0,929.0,2.1063,-0.4481,9.1807,-0.0409,0.0203,-0.1237,-1.660668512383932,0.0,2.440701961517334,-1.9359058141708374,-0.0,1.968559980392456,4.883237007051267,0.0,0.2913053333759308,-1.5353863875018519,0.0,-0.007905282080173492,0.7708123326301575,-0.0,0.013816849328577518,0.8127411007881165,0.0,0.032669588923454285
974.0,929.0,2.1063,-0.4481,9.1807,-0.0409,0.0203,-0.1237,-1.6606527767577113,0.0,2.3831427097320557,-1.9358974695205688,-0.0,2.0299174785614014,4.883225160628118,0.0,0.2965824007987976,-1.535410229359762,0.0,-0.021822676062583923,0.7708324790000916,-0.0,-0.008568957448005676,0.8127572536468506,0.0,0.02725588157773018
969.0,929.0,1.9274,-0.4726,9.4253,-0.0328,0.0165,-0.1242,-1.6606642208495082,0.0,2.35990571975708,-1.9359655380249023,-0.0,1.991145372390747,4.8832411644752405,0.0,0.295602947473526,-1.5353906790362757,0.0,-0.010266121476888657,0.7708324790000916,-0.0,-0.0010643647983670235,0.8127932548522949,0.0,-0.0584714412689209
969.0,929.0,1.9274,-0.4726,9.4253,-0.0328,0.0165,-0.1242,-1.660684724847311,0.0,2.3268651962280273,-1.9359532594680786,-0.0,2.0191545486450195,4.883221301227369,0.0,0.2784457206726074,-1.5353782812701624,0.0,-0.01314622350037098,0.7708160281181335,-0.0,-0.006277029402554035,0.8127774000167847,0.0,-0.015765197575092316
969.0,929.0,1.9274,-0.4726,9.4253,-0.0328,0.0165,-0.1242,-1.6606890163817347,0.0,2.4089255332946777,-1.9359500408172607,-0.0,2.016585350036621,4.883249330311575,0.0,0.29363173246383667,-1.5354021231280726,0.0,-0.01919831521809101,0.7708283066749573,-0.0,-0.021272853016853333,0.8127613663673401,0.0,0.0006049927324056625
969.0,929.0,1.9274,-0.4726,9.4253,-0.0328,0.0165,-0.1242,-1.660684724847311,0.0,2.393620252609253,-1.9358974695205688,-0.0,2.0492770671844482,4.883213239699163,0.0,0.295866459608078,-1.5353863875018519,0.0,-0.014163154177367687,0.7708324193954468,-0.0,-0.004341920372098684,0.8127328753471375,0.0,0.0003102675545960665
969.0,929.0,1.9274,-0.4726,9.4253,-0.0328,0.0165,-0.1242,-1.6607252560057582,0.0,2.374540328979492,-1.9359335899353027,-0.0,2.026247978210449,4.883221003204145,0.0,0.2930282950401306,-1.5354021231280726,0.0,-0.02687664143741131,0.7707676291465759,-0.0,-0.004524950869381428,0.8127572536468506,0.0,0.03411344811320305
969.0,929.0,1.9274,-0.4726,9.4253,-0.0328,0.0165,-0.1242,-1.6606484852232875,0.0,2.405747652053833,-1.9359015226364136,-0.0,1.986709475517273,4.883225160628118,0.0,0.29764068126678467,-1.535438362752096,0.0,-0.01286240853369236,0.770820140838623,-0.0,-0.0021427422761917114,0.8127613663673401,0.0,-0.007295301649719477
969.0,929.0,1.9274,-0.4726,9.4253,-0.0328,0.0165,-0.1242,-1.6606933079161585,0.0,2.4027645587921143,-1.935921311378479,-0.0,1.9939526319503784,4.883229243546285,0.0,0.3029687702655792,-1.5353744665728968,0.0,-0.009852148592472076,0.7708241939544678,-0.0,-0.003092230763286352,0.8127853870391846,0.0,0.00016712816432118416
969.0,929.0,1.9274,-0.4726,9.4253,-0.0328,0.0165,-0.1242,-1.6606642208495082,0.0,2.379502773284912,-1.935921311378479,-0.0,2.0294532775878906,4.883229243546285,0.0,0.29458752274513245,-1.5353902021991175,0.0,-0.006448657251894474,0.7708365321159363,-0.0,-0.006791329011321068,0.8127532005310059,0.0,-0.004103545565158129
969.0,929.0,1.9274,-0.4726,9.4253,-0.0328,0.0165,-0.1242,-1.6606890163817347,0.0,2.364060878753662,-1.9359221458435059,-0.0,1.9835059642791748,4.883221003204145,0.0,0.28744834661483765,-1.5354145208941858,0.0,0.00026291608810424805,0.7708807587623596,-0.0,-0.004220076836645603,0.8127691745758057,0.0,-0.0018125977367162704
969.0,929.0,1.9274,-0.4726,9.4253,-0.0328,0.0165,-0.1242,-1.6607047520079554,0.0,2.4176411628723145,-1.935973882675171,-0.0,1.9980709552764893,4.883213239699163,0.0,0.30115655064582825,-1.5354302565204065,0.0,-0.010998794808983803,0.7708361148834229,-0.0,-0.011794475838541985,0.8127976059913635,0.0,1.123407855629921e-05
969.0,929.0,1.9274,-0.4726,9.4253,-0.0328,0.0165,-0.1242,-1.660701414147848,0.0,2.4364864826202393,-1.9359335899353027,-0.0,2.0337302684783936,4.883189263730802,0.0,0.2942115068435669,-1.5353744665728968,0.0,-0.011807180941104889,0.7707841396331787,-0.0,-0.013886441476643085,0.8127654194831848,0.0,-0.013518651016056538
969.0,929.0,1.9274,-0.4726,9.4253,-0.0328,0.0165,-0.1242,-1.6606689892210902,0.0,2.3292617797851562,-1.9359540939331055,-0.0,1.983720302581787,4.883220988302984,0.0,0.2909797728061676,-1.5354226271258753,0.0,-0.00789599772542715,0.7707639336585999,-0.0,-0.009541572071611881,0.8127531409263611,0.0,-0.025310330092906952
969.0,929.0,1.9274,-0.4726,9.4253,-0.0328,0.0165,-0.1242,-1.6606933079161585,0.0,2.3774783611297607,-1.9359335899353027,-0.0,2.022603750228882,4.883209171682157,0.0,0.295044481754303,-1.5354226271258753,0.0,-0.02222672663629055,0.7708001136779785,-0.0,-0.025677654892206192,0.8127651214599609,0.0,0.016223739832639694
969.0,929.0,1.9274,-0.4726,9.4253,-0.0328,0.0165,-0.1242,-1.660656591454977,0.0,2.393280267715454,-1.9359697103500366,-0.0,2.0188143253326416,4.883257481246748,0.0,0.296638548374176,-1.535370175038473,0.0,-0.01159074530005455,0.7707918882369995,-0.0,-0.0070236073806881905,0.8127613663673401,0.0,-0.025804778560996056
969.0,929.0,1.9274,-0.4726,9.4253,-0.0328,0.0165,-0.1242,-1.6606933079161585,0.0,2.348785161972046,-1.9359532594680786,-0.0,1.9688711166381836,4.883205014258184,0.0,0.2920425832271576,-1.535410229359762,0.0,-0.015061240643262863,0.7707558274269104,-0.0,-0.009805560111999512,0.8127411007881165,0.0,-0.0044532776810228825
969.0,929.0,1.9274,-0.4726,9.4253,-0.0328,0.0165,-0.1242,-1.6607128582396449,0.0,2.4282541275024414,-1.9359582662582397,-0.0,1.9938771724700928,4.883213239699163,0.0,0.28968337178230286,-1.5354183355914515,0.0,-0.014377481304109097,0.7708278894424438,-0.0,-0.013490748591721058,0.8127771019935608,0.0,0.030011819675564766
969.0,929.0,1.9274,-0.4726,9.4253,-0.0328,0.0165,-0.1242,-1.6606527767577113,0.0,2.460054874420166,-1.9359180927276611,-0.0,1.9987218379974365,4.8832656917865656,0.0,0.3099026679992676,-1.535426441823141,0.0,-0.02156289853155613,0.7707394957542419,-0.0,-0.0008073016069829464,0.8127490878105164,0.0,-0.014690674841403961
971.0,953.0,1.9825,-0.4493,9.3799,-0.0304,0.0263,-0.1177,-1.660656591454977,0.0,2.396820306777954,-1.935937762260437,-0.0,2.0101099014282227,4.883185329824247,0.0,0.28741610050201416,-1.5353944937335413,0.0,-0.010316159576177597,0.7707799673080444,-0.0,-0.014997033402323723,0.8127812147140503,0.0,-0.0008728001266717911
971.0,953.0,1.9825,-0.4493,9.3799,-0.0304,0.0263,-0.1177,-1.660684724847311,0.0,2.3804879188537598,-1.935945987701416,-0.0,1.9706757068634033,4.883213239699163,0.0,0.3075209856033325,-1.5354340712176722,0.0,0.00014281459152698517,0.77078777551651,-0.0,-0.0036468191538006067,0.8127814531326294,0.0,0.0301128588616848
971.0,953.0,1.9825,-0.4493,9.3799,-0.0304,0.0263,-0.1177,-1.660640378991598,0.0,2.382338523864746,-1.93598210811615,-0.0,2.0049567222595215,4.883289488940992,0.0,0.29512229561805725,-1.5353987852679651,0.0,-0.01676471345126629,0.7708562016487122,-0.0,0.0027854028157889843,0.8127691745758057,0.0,0.02426467463374138
971.0,953.0,1.9825,-0.4493,9.3799,-0.0304,0.0263,-0.1177,-1.6606446705260218,0.0,2.4016573429107666,-1.9359180927276611,-0.0,1.9982266426086426,4.883216890483656,0.0,0.2909160852432251,-1.5354064146624964,0.0,-0.0038058185018599033,0.7708242535591125,-0.0,0.0036164980847388506,0.8127572536468506,0.0,-0.003032014239579439
971.0,953.0,1.9825,-0.4493,9.3799,-0.0304,0.0263,-0.1177,-1.6606689892210902,0.0,2.35774302482605,-1.9359098672866821,-0.0,2.0082435607910156,4.883257525950231,0.0,0.29035094380378723,-1.5354183355914515,0.0,-0.006974814459681511,0.77084881067276,-0.0,0.004325734451413155,0.8127732276916504,0.0,-0.05905551090836525
971.0,953.0,1.9825,-0.4493,9.3799,-0.0304,0.0263,-0.1177,-1.660708566705221,0.0,2.39465069770813,-1.9359861612319946,-0.0,2.011439561843872,4.883221003204145,0.0,0.30114519596099854,-1.5354064146624964,0.0,-0.013614218682050705,0.7707841396331787,-0.0,0.004119296558201313,0.812736988067627,0.0,0.012595316395163536
971.0,953.0,1.9825,-0.4493,9.3799,-0.0304,0.0263,-0.1177,-1.6606961689391078,0.0,2.3943326473236084,-1.9359861612319946,-0.0,1.9846761226654053,4.883209171682157,0.0,0.29575681686401367,-1.5353944937335413,0.0,-0.025049753487110138,0.7708081603050232,-0.0,0.001992609119042754,0.8127732872962952,0.0,-0.03977606073021889
971.0,953.0,1.9825,-0.4493,9.3799,-0.0304,0.0263,-0.1177,-1.6606766186156214,0.0,2.362107992172241,-1.9359945058822632,-0.0,2.0392961502075195,4.883204999357023,0.0,0.2938535511493683,-1.535394016896383,0.0,-0.004368821159005165,0.7707837820053101,-0.0,-0.011154117062687874,0.8127490282058716,0.0,-0.024403661489486694
971.0,953.0,1.9825,-0.4493,9.3799,-0.0304,0.0263,-0.1177,-1.6606484852232875,0.0,2.395982265472412,-1.9359015226364136,-0.0,2.0339865684509277,4.8832251755292795,0.0,0.2928287982940674,-1.5354622046100062,0.0,-0.01509838830679655,0.7708204984664917,-0.0,-0.007324188482016325,0.8127211332321167,0.0,0.033364616334438324
971.0,953.0,1.9825,-0.4493,9.3799,-0.0304,0.0263,-0.1177,-1.6606646976866664,0.0,2.3690032958984375,-1.9359055757522583,-0.0,2.0152812004089355,4.883217352419653,0.0,0.29770612716674805,-1.5354464689837855,0.0,-0.012530369684100151,0.7708562016487122,-0.0,0.0055319881066679955,0.8127853870391846,0.0,-0.053475961089134216
971.0,953.0,1.9825,-0.4493,9.3799,-0.0304,0.0263,-0.1177,-1.660656591454977,0.0,2.3974344730377197,-1.9359780550003052,-0.0,2.031998872756958,4.883185329824247,0.0,0.2956940233707428,-1.5354188124286097,0.0,-0.00019529338169377297,0.7708566188812256,-0.0,0.00480286031961441,0.8126968145370483,0.0,0.020808208733797073
971.0,953.0,1.9825,-0.4493,9.3799,-0.0304,0.0263,-0.1177,-1.660708566705221,0.0,2.369332790374756,-1.9359138011932373,-0.0,1.9765520095825195,4.8832333264644525,0.0,0.28035569190979004,-1.5354183355914515,0.0,-0.014574904926121235,0.7708241939544678,-0.0,0.004197580274194479,0.8127251267433167,0.0,-0.0002798624336719513
971.0,953.0,1.9825,-0.4493,9.3799,-0.0304,0.0263,-0.1177,-1.6606646976866664,0.0,2.379945993423462,-1.9359221458435059,-0.0,2.0390801429748535,4.883205640106954,0.0,0.2821298837661743,-1.5354021231280726,0.0,-0.010208705440163612,0.7707841396331787,-0.0,-0.0074556125327944756,0.8127292394638062,0.0,-0.04470563679933548
971.0,953.0,1.9825,-0.4493,9.3799,-0.0304,0.0263,-0.1177,-1.6606890163817347,0.0,2.388770818710327,-1.9359140396118164,-0.0,2.03271484375,4.883197533875265,0.0,0.29191854596138,-1.5354183355914515,0.0,-0.021379873156547546,0.7707598209381104,-0.0,-0.007945889607071877,0.8127411007881165,0.0,-0.0069654639810323715
971.0,953.0,1.9825,-0.4493,9.3799,-0.0304,0.0263,-0.1177,-1.6607047520079554,0.0,2.381265640258789,-1.935962438583374,-0.0,1.9785051345825195,4.883237305074491,0.0,0.29453206062316895,-1.5354302565204065,0.0,-0.024408435449004173,0.7708001136779785,-0.0,-0.00039667822420597076,0.8128135204315186,0.0,0.02236846089363098
971.0,953.0,1.9825,-0.4493,9.3799,-0.0304,0.0263,-0.1177,-1.660652299920553,0.0,2.395446300506592,-1.9359139204025269,-0.0,2.045584201812744,4.883261564164915,0.0,0.2840985953807831,-1.5354021231280726,0.0,-0.020630117505788803,0.7707639336585999,-0.0,0.002174132037907839,0.8127650618553162,0.0,-0.009935240261256695
971.0,953.0,1.9825,-0.4493,9.3799,-0.0304,0.0263,-0.1177,-1.660684724847311,0.0,2.4096624851226807,-1.9359862804412842,-0.0,2.016141414642334,4.883237007051267,0.0,0.2880260646343231,-1.5354183355914515,0.0,-0.017449382692575455,0.7707918882369995,-0.0,0.0020326680969446898,0.8127531409263611,0.0,0.057839877903461456
971.0,953.0,1.9825,-0.4493,9.3799,-0.0304,0.0263,-0.1177,-1.660656591454977,0.0,2.428144693374634,-1.9359418153762817,-0.0,2.0074996948242188,4.88327348509387,0.0,0.29530656337738037,-1.535398308430807,0.0,-0.011745020747184753,0.7707881927490234,-0.0,-0.0008548181504011154,0.812745213508606,0.0,0.02753962203860283
968.0,931.0,2.1248,-0.478,9.1681,-0.0475,0.0263,-0.1208,-1.6607452831664027,0.0,2.442281484603882,-1.9359500408172607,-0.0,1.9741731882095337,4.883241522103109,0.0,0.29105761647224426,-1.5354226271258753,0.0,-0.0057821981608867645,0.7707964181900024,-0.0,0.001874362351372838,0.8127613663673401,0.0,-0.015218270942568779
968.0,931.0,2.1248,-0.478,9.1681,-0.0475,0.0263,-0.1208,-1.6607166729369105,0.0,2.3768177032470703,-1.9359303712844849,-0.0,1.9826700687408447,4.8832333264644525,0.0,0.2937208414077759,-1.5353744665728968,0.0,-0.03117617964744568,0.7707358002662659,-0.0,0.010640475898981094,0.8127853870391846,0.0,-0.02189716324210167
968.0,931.0,2.1248,-0.478,9.1681,-0.0475,0.0263,-0.1208,-1.6607047520079554,0.0,2.4003758430480957,-1.935973882675171,-0.0,2.0047237873077393,4.88319759347991,0.0,0.3066067099571228,-1.5354421774493616,0.0,-0.012662019580602646,0.7708001136779785,-0.0,-0.0020537928212434053,0.8127893805503845,0.0,0.042138345539569855
968.0,931.0,2.1248,-0.478,9.1681,-0.0475,0.0263,-0.1208,-1.6607128582396449,0.0,2.3892955780029297,-1.9359139204025269,-0.0,2.014333486557007,4.883181217103758,0.0,0.28885790705680847,-1.535410229359762,0.0,8.017010986804962e-05,0.7708442807197571,-0.0,0.0018175404984503984,0.8127490878105164,0.0,0.007674413733184338
968.0,931.0,2.1248,-0.478,9.1681,-0.0475,0.0263,-0.1208,-1.6607128582396449,0.0,2.3529090881347656,-1.935973882675171,-0.0,2.011948823928833,4.883201661496916,0.0,0.2912476658821106,-1.5353782812701624,0.0,-0.004922682419419289,0.7708204984664917,-0.0,0.003640261013060808,0.8127210140228271,0.0,-0.027938198298215866
968.0,931.0,2.1248,-0.478,9.1681,-0.0475,0.0263,-0.1208,-1.6606971226134242,0.0,2.39676570892334,-1.935945987701416,-0.0,2.0221915245056152,4.883245247393408,0.0,0.28940021991729736,-1.5353825728045862,0.0,-0.014787713065743446,0.7707799673080444,-0.0,-0.01104628574103117,0.8127813935279846,0.0,0.053264178335666656
968.0,931.0,2.1248,-0.478,9.1681,-0.0475,0.0263,-0.1208,-1.6606646976866664,0.0,2.3898208141326904,-1.9358735084533691,-0.0,2.067716360092163,4.883249300509252,0.0,0.3013693392276764,-1.5354064146624964,0.0,-0.01223003026098013,0.7707758545875549,-0.0,-0.007932940497994423,0.8127332925796509,0.0,-0.007479393854737282
968.0,931.0,2.1248,-0.478,9.1681,-0.0475,0.0263,-0.1208,-1.6607004604735316,0.0,2.400059938430786,-1.9360140562057495,-0.0,1.9794282913208008,4.883181217103758,0.0,0.303311824798584,-1.5353825728045862,0.0,-0.006594701204448938,0.7708889245986938,-0.0,-0.000526991265360266,0.8127572536468506,0.0,-0.004792188294231892
968.0,931.0,2.1248,-0.478,9.1681,-0.0475,0.0263,-0.1208,-1.660684724847311,0.0,2.342308521270752,-1.9359616041183472,-0.0,1.9746109247207642,4.883233311563291,0.0,0.3148849606513977,-1.5353825728045862,0.0,-0.008436555974185467,0.7707959413528442,-0.0,-0.010615614242851734,0.8128176331520081,0.0,0.004449144937098026
968.0,931.0,2.1248,-0.478,9.1681,-0.0475,0.0263,-0.1208,-1.6606766186156214,0.0,2.403033971786499,-1.9359335899353027,-0.0,1.9399003982543945,4.8832493154104135,0.0,0.2857780456542969,-1.535426441823141,0.0,-0.012744974344968796,0.7707758545875549,-0.0,-0.00028562149964272976,0.8127774000167847,0.0,0.03597492724657059
968.0,931.0,2.1248,-0.478,9.1681,-0.0475,0.0263,-0.1208,-1.6606599293150843,0.0,2.3809547424316406,-1.9359500408172607,-0.0,1.9825305938720703,4.883269700198927,0.0,0.2938394546508789,-1.535410229359762,0.0,-0.015059520490467548,0.7707758545875549,-0.0,0.0072487774305045605,0.8128097057342529,0.0,0.03704505413770676
968.0,931.0,2.1248,-0.478,9.1681,-0.0475,0.0263,-0.1208,-1.660708566705221,0.0,2.3749771118164062,-1.9358655214309692,-0.0,1.9871364831924438,4.883172961860456,0.0,0.2953091561794281,-1.535370175038473,0.0,-0.01321176066994667,0.7707758545875549,-0.0,0.006876504980027676,0.8127812743186951,0.0,0.015503806993365288
968.0,931.0,2.1248,-0.478,9.1681,-0.0475,0.0263,-0.1208,-1.6606689892210902,0.0,2.3618290424346924,-1.9359861612319946,-0.0,2.0267224311828613,4.883237334876814,0.0,0.3000430762767792,-1.535426441823141,0.0,-0.016825012862682343,0.7708041667938232,-0.0,0.011198800057172775,0.8127292394638062,0.0,0.007772674318403006
968.0,931.0,2.1248,-0.478,9.1681,-0.0475,0.0263,-0.1208,-1.660684724847311,0.0,2.3678927421569824,-1.9359418153762817,-0.0,1.9911103248596191,4.883237349777975,0.0,0.2999853193759918,-1.5354464689837855,0.0,-0.009686531499028206,0.7707922458648682,-0.0,-0.006561960093677044,0.812745213508606,0.0,0.0012518325820565224
968.0,931.0,2.1248,-0.478,9.1681,-0.0475,0.0263,-0.1208,-1.6606604061522425,0.0,2.429269552230835,-1.9359861612319946,-0.0,1.9853568077087402,4.8832574663455866,0.0,0.3054145276546478,-1.535398308430807,0.0,-0.01832471787929535,0.7708282470703125,-0.0,0.005400799214839935,0.8127449154853821,0.0,0.010440830141305923
968.0,931.0,2.1248,-0.478,9.1681,-0.0475,0.0263,-0.1208,-1.6607004604735316,0.0,2.3600826263427734,-1.935877799987793,-0.0,1.989050269126892,4.883229243546285,0.0,0.303195983171463,-1.535398308430807,0.0,-0.005131732672452927,0.77078777551651,-0.0,0.007590394001454115,0.8127127885818481,0.0,0.005670653656125069
968.0,931.0,2.1248,-0.478,9.1681,-0.0475,0.0263,-0.1208,-1.660640378991598,0.0,2.3435375690460205,-1.935894250869751,-0.0,2.0392723083496094,4.883261579066076,0.0,0.2925209105014801,-1.5353863875018519,0.0,-0.0030332859605550766,0.7708001136779785,-0.0,-0.0025637676008045673,0.8127492666244507,0.0,0.013766693882644176
980.0,927.0,2.0782,-0.4427,9.28,-0.0762,0.029,-0.1264,-1.6607047520079554,0.0,2.3853766918182373,-1.9359180927276611,-0.0,2.0017805099487305,4.883257481246748,0.0,0.28220507502555847,-1.5354226271258753,0.0,-0.0014594737440347672,0.7707918882369995,-0.0,0.004553309641778469,0.8127691745758057,0.0,0.05475924164056778
980.0,927.0,2.0782,-0.4427,9.28,-0.0762,0.029,-0.1264,-1.6606971226134242,0.0,2.3904671669006348,-1.9359500408172607,-0.0,2.0495657920837402,4.88325326421813,0.0,0.2992813289165497,-1.5354464689837855,0.0,-0.015928179025650024,0.7708362340927124,-0.0,-0.0031744400039315224,0.8127774000167847,0.0,-0.0257011316716671
980.0,927.0,2.0782,-0.4427,9.28,-0.0762,0.029,-0.1264,-1.6606971226134242,0.0,2.379727840423584,-1.93598210811615,-0.0,2.0189595222473145,4.88322131612853,0.0,0.2894655466079712,-1.5353744665728968,0.0,-0.022400278598070145,0.7708808183670044,-0.0,-0.0046069505624473095,0.8127650618553162,0.0,-0.012933248654007912
980.0,927.0,2.0782,-0.4427,9.28,-0.0762,0.029,-0.1264,-1.660656591454977,0.0,2.3321847915649414,-1.9359139204025269,-0.0,2.0182812213897705,4.883261564164915,0.0,0.3019241392612457,-1.5354507605182093,0.0,-0.008297711610794067,0.7708324193954468,-0.0,0.011029930785298347,0.8127490878105164,0.0,0.004190514795482159
980.0,927.0,2.0782,-0.4427,9.28,-0.0762,0.029,-0.1264,-1.6606723270811976,0.0,2.3791167736053467,-1.9359335899353027,-0.0,2.007129669189453,4.8832493154104135,0.0,0.29997920989990234,-1.5354064146624964,0.0,-0.015734687447547913,0.770816445350647,-0.0,-0.0029540807008743286,0.8128015398979187,0.0,-0.023908641189336777
980.0,927.0,2.0782,-0.4427,9.28,-0.0762,0.029,-0.1264,-1.6607047520079554,0.0,2.3864831924438477,-1.9358974695205688,-0.0,2.008096694946289,4.883197548776426,0.0,0.299747496843338,-1.5354145208941858,0.0,0.004545172210782766,0.7708768248558044,-0.0,-0.004928272217512131,0.8127532005310059,0.0,-0.026958461850881577
980.0,927.0,2.0782,-0.4427,9.28,-0.0762,0.029,-0.1264,-1.660741468469137,0.0,2.4434621334075928,-1.9359140396118164,-0.0,2.008114814758301,4.883237007051267,0.0,0.2934854030609131,-1.5353744665728968,0.0,-0.008679850026965141,0.7708242535591125,-0.0,-0.00547858327627182,0.8127411007881165,0.0,0.020624542608857155
980.0,927.0,2.0782,-0.4427,9.28,-0.0762,0.029,-0.1264,-1.6606604061522425,0.0,2.351827621459961,-1.9359180927276611,-0.0,2.003787040710449,4.883237007051267,0.0,0.28513023257255554,-1.535426441823141,0.0,-0.008287052623927593,0.770820140838623,-0.0,0.0014580764109268785,0.8127771019935608,0.0,0.009859725832939148
980.0,927.0,2.0782,-0.4427,9.28,-0.0762,0.029,-0.1264,-1.660652299920553,0.0,2.354254961013794,-1.935973882675171,-0.0,2.0121471881866455,4.88318124690608,0.0,0.2943269610404968,-1.5353906790362757,0.0,-0.016874950379133224,0.7707799077033997,-0.0,-0.014780371449887753,0.8127815127372742,0.0,-0.0029317419975996017
980.0,927.0,2.0782,-0.4427,9.28,-0.0762,0.029,-0.1264,-1.660684724847311,0.0,2.3971033096313477,-1.935945987701416,-0.0,2.039886474609375,4.883241149574079,0.0,0.3034956753253937,-1.5354226271258753,0.0,-0.010750110261142254,0.7707436084747314,-0.0,-0.008689489215612411,0.812745213508606,0.0,-0.03093203529715538
980.0,927.0,2.0782,-0.4427,9.28,-0.0762,0.029,-0.1264,-1.6606890163817347,0.0,2.3669064044952393,-1.9359623193740845,-0.0,1.9835318326950073,4.883249330311575,0.0,0.2823006212711334,-1.5354340712176722,0.0,-0.0009274845942854881,0.770820140838623,-0.0,0.002056380733847618,0.8127976655960083,0.0,0.011939089745283127
980.0,927.0,2.0782,-0.4427,9.28,-0.0762,0.029,-0.1264,-1.6606723270811976,0.0,2.3768367767333984,-1.9359697103500366,-0.0,2.018380641937256,4.883220988302984,0.0,0.29452061653137207,-1.5353825728045862,0.0,-0.005886778235435486,0.7707353830337524,-0.0,-0.0013744162861257792,0.8127732872962952,0.0,0.005070270039141178
980.0,927.0,2.0782,-0.4427,9.28,-0.0762,0.029,-0.1264,-1.660668512383932,0.0,2.3741445541381836,-1.935990571975708,-0.0,2.0268893241882324,4.8832574663455866,0.0,0.2865794897079468,-1.5354307333575647,0.0,-0.014620127156376839,0.7707881927490234,-0.0,-0.0036981937009841204,0.8127531409263611,0.0,-0.0429580993950367
980.0,927.0,2.0782,-0.4427,9.28,-0.0762,0.029,-0.1264,-1.6606446705260218,0.0,2.3850550651550293,-1.9359822273254395,-0.0,1.9562119245529175,4.883200931340017,0.0,0.29112017154693604,-1.5354064146624964,0.0,-0.0030375798232853413,0.7707918882369995,-0.0,0.0007402048213407397,0.8127411007881165,0.0,0.007923165336251259
980.0,927.0,2.0782,-0.4427,9.28,-0.0762,0.029,-0.1264,-1.6607166729369105,0.0,2.412487745285034,-1.935929536819458,-0.0,1.9895539283752441,4.883213239699163,0.0,0.301488995552063,-1.5353863875018519,0.0,-0.008635631762444973,0.7708001136779785,-0.0,-0.00599891971796751,0.8127572536468506,0.0,0.07625716924667358
980.0,927.0,2.0782,-0.4427,9.28,-0.0762,0.029,-0.1264,-1.6607209644713343,0.0,2.4085612297058105,-1.935945987701416,-0.0,2.0250730514526367,4.8832333264644525,0.0,0.2906222939491272,-1.5354064146624964,0.0,-0.01963081583380699,0.77078777551651,-0.0,0.0026230434887111187,0.8127773404121399,0.0,0.03581550717353821
980.0,927.0,2.0782,-0.4427,9.28,-0.0762,0.029,-0.1264,-1.6607004604735316,0.0,2.4259517192840576,-1.9359180927276611,-0.0,1.9929351806640625,4.8832533089216135,0.0,0.3006046712398529,-1.535438362752096,0.0,-0.020130150020122528,0.7707598805427551,-0.0,-0.0027795310597866774,0.8127814531326294,0.0,-0.030185190960764885
960.0,930.0,2.1081,-0.4187,9.1208,-0.0432,0.031,-0.1197,-1.6606604061522425,0.0,2.3993265628814697,-1.9359180927276611,-0.0,2.010732412338257,4.8831893531377695,0.0,0.2967912554740906,-1.535410229359762,0.0,-0.016902249306440353,0.7708324193954468,-0.0,-0.0011554569937288761,0.8127209544181824,0.0,0.016739990562200546
960.0,930.0,2.1081,-0.4187,9.1208,-0.0432,0.031,-0.1197,-1.6607004604735316,0.0,2.385981798171997,-1.935954213142395,-0.0,1.9805935621261597,4.883229258447447,0.0,0.28508734703063965,-1.5354064146624964,0.0,-0.016318701207637787,0.7707841396331787,-0.0,-0.00784123595803976,0.8127692341804504,0.0,0.011387811973690987
960.0,930.0,2.1081,-0.4187,9.1208,-0.0432,0.031,-0.1197,-1.6606809101500453,0.0,2.3975322246551514,-1.935945987701416,-0.0,1.9576090574264526,4.883269625693121,0.0,0.30395644903182983,-1.5353944937335413,0.0,-0.015716826543211937,0.7707918882369995,-0.0,0.007599871605634689,0.8128055930137634,0.0,0.006872385274618864
960.0,930.0,2.1081,-0.4187,9.1208,-0.0432,0.031,-0.1197,-1.6606484852232875,0.0,2.380563735961914,-1.9359500408172607,-0.0,1.9961724281311035,4.883236992150106,0.0,0.2937655746936798,-1.5354226271258753,0.0,-0.008129633963108063,0.770816445350647,-0.0,0.017616257071495056,0.8127771615982056,0.0,0.009323995560407639
960.0,930.0,2.1081,-0.4187,9.1208,-0.0432,0.031,-0.1197,-1.660652299920553,0.0,2.3636772632598877,-1.9359614849090576,-0.0,2.015838384628296,4.883241179376402,0.0,0.2965872883796692,-1.5353782812701624,0.0,-0.016410985961556435,0.7707837224006653,-0.0,0.004224790725857019,0.8127613663673401,0.0,-0.038999199867248535
960.0,930.0,2.1081,-0.4187,9.1208,-0.0432,0.031,-0.1197,-1.6606723270811976,0.0,2.4029338359832764,-1.9359015226364136,-0.0,1.9975281953811646,4.883189263730802,0.0,0.2754656970500946,-1.5353863875018519,0.0,-0.010473927482962608,0.7707918286323547,-0.0,-0.005828366614878178,0.8127613663673401,0.0,0.021516285836696625
960.0,930.0,2.1081,-0.4187,9.1208,-0.0432,0.031,-0.1197,-1.6607128582396449,0.0,2.4014081954956055,-1.9359419345855713,-0.0,2.018078565597534,4.883205669909277,0.0,0.2817336916923523,-1.535370175038473,0.0,-0.022688819095492363,0.7708365321159363,-0.0,-0.0032451916486024857,0.8127046823501587,0.0,0.02296963520348072
960.0,930.0,2.1081,-0.4187,9.1208,-0.0432,0.031,-0.1197,-1.660701414147848,0.0,2.3502275943756104,-1.9358941316604614,-0.0,1.9841511249542236,4.8832696852977655,0.0,0.2867739796638489,-1.535410229359762,0.0,-0.0019955700263381004,0.7707918286323547,-0.0,-0.0080837681889534,0.8127532005310059,0.0,-0.013752806931734085
960.0,930.0,2.1081,-0.4187,9.1208,-0.0432,0.031,-0.1197,-1.6606971226134242,0.0,2.4228954315185547,-1.9359140396118164,-0.0,2.034302234649658,4.88321732261733,0.0,0.2974006235599518,-1.5354025999652308,0.0,-0.014488084241747856,0.7708442211151123,-0.0,-0.007232959382236004,0.8127411007881165,0.0,-0.0006362050771713257
960.0,930.0,2.1081,-0.4187,9.1208,-0.0432,0.031,-0.1197,-1.6607128582396449,0.0,2.374074697494507,-1.935929536819458,-0.0,2.0198826789855957,4.883209141879835,0.0,0.29341447353363037,-1.535394016896383,0.0,-0.013867114670574665,0.7707837224006653,-0.0,0.009780731052160263,0.8127894401550293,0.0,0.047952424734830856
960.0,930.0,2.1081,-0.4187,9.1208,-0.0432,0.031,-0.1197,-1.6606766186156214,0.0,2.3822922706604004,-1.935929536819458,-0.0,2.027017593383789,4.88325751104907,0.0,0.27660876512527466,-1.535398308430807,0.0,-0.021337663754820824,0.7708041071891785,-0.0,-0.013051938265562057,0.8128014802932739,0.0,0.014415468089282513
960.0,930.0,2.1081,-0.4187,9.1208,-0.0432,0.031,-0.1197,-1.660640378991598,0.0,2.361090660095215,-1.9359180927276611,-0.0,2.0087203979492188,4.883261608868398,0.0,0.29958289861679077,-1.535382095967428,0.0,-0.020513705909252167,0.7708442807197571,-0.0,0.00017083901911973953,0.8127531409263611,0.0,-0.002846886869519949
960.0,930.0,2.1081,-0.4187,9.1208,-0.0432,0.031,-0.1197,-1.660640378991598,0.0,2.3785412311553955,-1.935945987701416,-0.0,2.0223922729492188,4.8832172630126855,0.0,0.2938186824321747,-1.5354145208941858,0.0,-0.004666694439947605,0.7708442807197571,-0.0,-0.0026583359576761723,0.8127572536468506,0.0,0.0355050303041935
960.0,930.0,2.1081,-0.4187,9.1208,-0.0432,0.031,-0.1197,-1.660668512383932,0.0,2.379696846008301,-1.935965657234192,-0.0,2.0254361629486084,4.883237051754751,0.0,0.2908549904823303,-1.5354183355914515,0.0,-0.017552722245454788,0.7708282470703125,-0.0,-0.0030085223261266947,0.8128055930137634,0.0,-0.03238693252205849
960.0,930.0,2.1081,-0.4187,9.1208,-0.0432,0.031,-0.1197,-1.6606890163817347,0.0,2.38761830329895,-1.9359140396118164,-0.0,1.985567331314087,4.883197548776426,0.0,0.2953726351261139,-1.5354226271258753,0.0,-0.02317988872528076,0.7708324193954468,-0.0,0.0018950696103274822,0.8127732872962952,0.0,0.0045256041921675205
960.0,930.0,2.1081,-0.4187,9.1208,-0.0432,0.031,-0.1197,-1.6606809101500453,0.0,2.37019944190979,-1.935929536819458,-0.0,2.0131897926330566,4.883249375015058,0.0,0.2919611930847168,-1.5354226271258753,0.0,-0.012619860470294952,0.7707964181900024,-0.0,-0.00844012014567852,0.8127774000167847,0.0,0.06801485270261765
960.0,930.0,2.1081,-0.4187,9.1208,-0.0432,0.031,-0.1197,-1.6606890163817347,0.0,2.3731441497802734,-1.9359614849090576,-0.0,2.006455183029175,4.8832414773996256,0.0,0.2935897707939148,-1.5353859106646937,0.0,-0.01429018098860979,0.7707959413528442,-0.0,-0.008131560869514942,0.8127210140228271,0.0,-0.02802238054573536
978.0,921.0,2.3533,-0.0413,8.7063,-0.0014,0.0015,-0.1249,-1.6606642208495082,0.0,2.4048070907592773,-1.9359180927276611,-0.0,1.9751980304718018,4.883221003204145,0.0,0.2965896725654602,-1.5353906790362757,0.0,-0.011710010468959808,0.7707918882369995,-0.0,-0.0019275672966614366,0.8127572536468506,0.0,0.015436430461704731
978.0,921.0,2.3533,-0.0413,8.7063,-0.0014,0.0015,-0.1249,-1.660656591454977,0.0,2.3952136039733887,-1.9358612298965454,-0.0,2.027381658554077,4.8832493154104135,0.0,0.3052571415901184,-1.5353906790362757,0.0,-0.009295609779655933,0.7708001136779785,-0.0,-0.001564611098729074,0.8127812147140503,0.0,0.02461893856525421
978.0,921.0,2.3533,-0.0413,8.7063,-0.0014,0.0015,-0.1249,-1.660684724847311,0.0,2.402604818344116,-1.9359335899353027,-0.0,2.0002524852752686,4.883209171682157,0.0,0.29402849078178406,-1.5353906790362757,0.0,-0.010518588125705719,0.7708684802055359,-0.0,-0.003838774748146534,0.8127609491348267,0.0,0.04444728046655655
978.0,921.0,2.3533,-0.0413,8.7063,-0.0014,0.0015,-0.1249,-1.660708566705221,0.0,2.4251887798309326,-1.935945987701416,-0.0,1.9795129299163818,4.883181276708402,0.0,0.29020509123802185,-1.5353663603412073,0.0,-0.013970197178423405,0.770816445350647,-0.0,0.011715837754309177,0.812745213508606,0.0,-0.03500216454267502
978.0,921.0,2.3533,-0.0413,8.7063,-0.0014,0.0015,-0.1249,-1.660656591454977,0.0,2.3530445098876953,-1.9359335899353027,-0.0,1.9872852563858032,4.8832373199756525,0.0,0.2966231405735016,-1.5354145208941858,0.0,-0.021354874595999718,0.7708365321159363,-0.0,-0.001743512460961938,0.8127609491348267,0.0,0.0037534204311668873
978.0,921.0,2.3533,-0.0413,8.7063,-0.0014,0.0015,-0.1249,-1.6606809101500453,0.0,2.3709492683410645,-1.9359015226364136,-0.0,2.0414609909057617,4.883204969554701,0.0,0.2830607295036316,-1.5353863875018519,0.0,-0.024739393964409828,0.770816445350647,-0.0,-0.015369448810815811,0.8127732276916504,0.0,0.009970258921384811
978.0,921.0,2.3533,-0.0413,8.7063,-0.0014,0.0015,-0.1249,-1.6607209644713343,0.0,2.3786873817443848,-1.9359419345855713,-0.0,2.0197300910949707,4.883213239699163,0.0,0.29372090101242065,-1.5354226271258753,0.0,-0.005557950586080551,0.7708041071891785,-0.0,0.010473441332578659,0.8127408027648926,0.0,-0.003192282048985362
978.0,921.0,2.3533,-0.0413,8.7063,-0.0014,0.0015,-0.1249,-1.660708566705221,0.0,2.4323058128356934,-1.9359419345855713,-0.0,2.024136543273926,4.8832251755292795,0.0,0.29976892471313477,-1.5353987852679651,0.0,-0.008762307465076447,0.7707922458648682,-0.0,0.0025171199813485146,0.8127774000167847,0.0,0.02962278574705124
978.0,921.0,2.3533,-0.0413,8.7063,-0.0014,0.0015,-0.1249,-1.6606971226134242,0.0,2.408634662628174,-1.935937762260437,-0.0,2.0490620136260986,4.883233311563291,0.0,0.29259321093559265,-1.5353782812701624,0.0,-0.030712246894836426,0.7708324193954468,-0.0,-0.007770368829369545,0.8127209544181824,0.0,0.00671151140704751
978.0,921.0,2.3533,-0.0413,8.7063,-0.0014,0.0015,-0.1249,-1.6607376537718714,0.0,2.409158229827881,-1.9359335899353027,-0.0,1.9709479808807373,4.883237007051267,0.0,0.2961866557598114,-1.5353944937335413,0.0,0.0017992369830608368,0.77078777551651,-0.0,0.00025792233645915985,0.8127771019935608,0.0,0.004310006741434336
978.0,921.0,2.3533,-0.0413,8.7063,-0.0014,0.0015,-0.1249,-1.6607004604735316,0.0,2.380178451538086,-1.9359140396118164,-0.0,2.017864942550659,4.883245247393408,0.0,0.29817676544189453,-1.5354021231280726,0.0,-0.011471835896372795,0.7708443999290466,-0.0,-0.014808855019509792,0.8127732276916504,0.0,-0.006162967532873154
978.0,921.0,2.3533,-0.0413,8.7063,-0.0014,0.0015,-0.1249,-1.6606766186156214,0.0,2.357645034790039,-1.9359221458435059,-0.0,1.987982988357544,4.8832493154104135,0.0,0.2952408790588379,-1.5354340712176722,0.0,-0.02664857916533947,0.7708844542503357,-0.0,-0.00014036940410733223,0.8127732276916504,0.0,0.024734288454055786
978.0,921.0,2.3533,-0.0413,8.7063,-0.0014,0.0015,-0.1249,-1.660652299920553,0.0,2.3831756114959717,-1.9359335899353027,-0.0,2.022688627243042,4.883269640594282,0.0,0.2911340594291687,-1.5354426542865198,0.0,-0.01529413741081953,0.7707840800285339,-0.0,0.004629861563444138,0.8127610087394714,0.0,0.023547567427158356
978.0,921.0,2.3533,-0.0413,8.7063,-0.0014,0.0015,-0.1249,-1.6606604061522425,0.0,2.411322593688965,-1.9359140396118164,-0.0,1.999150037765503,4.883237066655912,0.0,0.30225539207458496,-1.5354145208941858,0.0,-0.010759488679468632,0.7707718014717102,-0.0,0.0011140479473397136,0.8127411007881165,0.0,0.041829612106084824
978.0,921.0,2.3533,-0.0413,8.7063,-0.0014,0.0015,-0.1249,-1.660668512383932,0.0,2.4173994064331055,-1.9359419345855713,-0.0,2.009315013885498,4.883213239699163,0.0,0.2986120879650116,-1.5354145208941858,0.0,0.0013577757636085153,0.7708163857460022,-0.0,-0.0065990714356303215,0.8127773404121399,0.0,0.0150969959795475
978.0,921.0,2.3533,-0.0413,8.7063,-0.0014,0.0015,-0.1249,-1.660656591454977,0.0,2.4111225605010986,-1.935945987701416,-0.0,1.9967246055603027,4.883205625205793,0.0,0.29001718759536743,-1.535438362752096,0.0,-0.02539171651005745,0.770816445350647,-0.0,-0.006539661902934313,0.8127127885818481,0.0,-0.03605418652296066
978.0,921.0,2.3533,-0.0413,8.7063,-0.0014,0.0015,-0.1249,-1.6606971226134242,0.0,2.38981032371521,-1.935929536819458,-0.0,2.0066628456115723,4.883241507201948,0.0,0.29673340916633606,-1.535398308430807,0.0,-0.014937255531549454,0.7707762718200684,-0.0,0.017205994576215744,0.8128055930137634,0.0,0.034991443157196045
978.0,921.0,2.3533,-0.0413,8.7063,-0.0014,0.0015,-0.1249,-1.6607042751707972,0.0,2.406559944152832,-1.9358934164047241,-0.0,1.9720509052276611,4.883233311563291,0.0,0.27547580003738403,-1.5354183355914515,0.0,-0.00031086942180991173,0.7708242535591125,-0.0,-0.0052336216904222965,0.8127853274345398,0.0,0.03520743548870087
977.0,964.0,2.3737,-0.6437,9.0185,-0.0522,0.0221,-0.1193,-1.6607161960997523,0.0,2.3884823322296143,-1.9359740018844604,-0.0,2.01107120513916,4.8832091865833185,0.0,0.2941516935825348,-1.5353782812701624,0.0,-0.013003668747842312,0.770808219909668,-0.0,0.0067597199231386185,0.8127650618553162,0.0,0.03538844361901283
977.0,964.0,2.3737,-0.6437,9.0185,-0.0522,0.0221,-0.1193,-1.6606604061522425,0.0,2.3690099716186523,-1.93600594997406,-0.0,2.0480475425720215,4.883232968836584,0.0,0.2797558009624481,-1.5354340712176722,0.0,-0.02131849154829979,0.7708484530448914,-0.0,-0.006595647893846035,0.8127853274345398,0.0,-0.020794346928596497
977.0,964.0,2.3737,-0.6437,9.0185,-0.0522,0.0221,-0.1193,-1.6607371769347132,0.0,2.370077133178711,-1.9359419345855713,-0.0,1.9943325519561768,4.883245247393408,0.0,0.2957322299480438,-1.5354107061969202,0.0,-0.018383648246526718,0.770816445350647,-0.0,-0.004467494320124388,0.8127292394638062,0.0,-0.03680199757218361
977.0,964.0,2.3737,-0.6437,9.0185,-0.0522,0.0221,-0.1193,-1.660684724847311,0.0,2.39912748336792,-1.9359139204025269,-0.0,1.9734492301940918,4.883237364679136,0.0,0.2915521264076233,-1.5354426542865198,0.0,-0.0028595230542123318,0.7708484530448914,-0.0,-0.00569230318069458,0.8127773404121399,0.0,-0.023262660950422287
977.0,964.0,2.3737,-0.6437,9.0185,-0.0522,0.0221,-0.1193,-1.6606728039183558,0.0,2.389892578125,-1.935990333557129,-0.0,2.008751630783081,4.883253338723936,0.0,0.28861838579177856,-1.5354307333575647,0.0,-0.018054703250527382,0.7708365321159363,-0.0,0.012866831384599209,0.8127654194831848,0.0,-0.03061549924314022
977.0,964.0,2.3737,-0.6437,9.0185,-0.0522,0.0221,-0.1193,-1.6606646976866664,0.0,2.428335189819336,-1.9359139204025269,-0.0,2.032052993774414,4.883257481246748,0.0,0.2953071594238281,-1.5353906790362757,0.0,-0.02084781974554062,0.7707722187042236,-0.0,-0.0002504336298443377,0.8127691745758057,0.0,-0.03389090299606323
977.0,964.0,2.3737,-0.6437,9.0185,-0.0522,0.0221,-0.1193,-1.6607166729369105,0.0,2.4316091537475586,-1.9358934164047241,-0.0,1.972449541091919,4.883269312768736,0.0,0.2935062050819397,-1.5353944937335413,0.0,-0.013839776627719402,0.7708442807197571,-0.0,-0.012137725949287415,0.8127773404121399,0.0,0.008546048775315285
977.0,964.0,2.3737,-0.6437,9.0185,-0.0522,0.0221,-0.1193,-1.6606527767577113,0.0,2.4037880897521973,-1.9359055757522583,9.023894165238744e-08,2.0397396087646484,4.883232909231939,0.0,0.293760746717453,-1.5354340712176722,0.0,-0.01676754280924797,0.7707639336585999,-0.0,0.0029419753700494766,0.8127650618553162,0.0,-0.013825586065649986
977.0,964.0,2.3737,-0.6437,9.0185,-0.0522,0.0221,-0.1193,-1.6606809101500453,0.0,2.3818421363830566,-1.9359263181686401,2.179163967330755e-13,2.0504465103149414,4.88325713852004,0.0,0.2917119562625885,-1.5354064146624964,0.0,-0.011150388047099113,0.7708282470703125,-0.0,-0.001688578980974853,0.8128176331520081,0.0,-0.016996651887893677
977.0,964.0,2.3737,-0.6437,9.0185,-0.0522,0.0221,-0.1193,-1.6606646976866664,0.0,2.409566879272461,-1.9359344244003296,3.9224186654492876e-17,2.033644914627075,4.8832735297973535,0.0,0.2913241982460022,-1.5354226271258753,0.0,-0.015034845098853111,0.770804226398468,-0.0,-0.002666139043867588,0.8127729892730713,0.0,0.004604781046509743
977.0,964.0,2.3737,-0.6437,9.0185,-0.0522,0.0221,-0.1193,-1.6606723270811976,0.0,2.4197840690612793,-1.9359303712844849,9.472181055125261e-23,2.050795555114746,4.88325751104907,0.0,0.28366488218307495,-1.5354183355914515,0.0,-0.0024438814725726843,0.7707758545875549,-0.0,-0.014193781651556492,0.8127609491348267,0.0,-0.045354023575782776
977.0,964.0,2.3737,-0.6437,9.0185,-0.0522,0.0221,-0.1193,-1.6606766186156214,0.0,2.3867695331573486,-1.9359385967254639,0.00015664460079278797,2.0077078342437744,4.883253338723936,0.0,0.2873966097831726,-1.5354145208941858,0.0,-0.00725839426741004,0.7707881927490234,-0.0,0.007163776084780693,0.8128135800361633,0.0,0.025510545819997787
977.0,964.0,2.3737,-0.6437,9.0185,-0.0522,0.0221,-0.1193,-1.660696645776266,0.0,2.391167163848877,-1.935894250869751,0.00013344056787900627,1.9802391529083252,4.883253338723936,0.0,0.2959049344062805,-1.535353962575094,0.0,0.0008942921995185316,0.7708041071891785,-0.0,-0.003668607445433736,0.81280118227005,0.0,0.015509679913520813
977.0,964.0,2.3737,-0.6437,9.0185,-0.0522,0.0221,-0.1193,-1.6606971226134242,0.0,2.4071052074432373,-1.9359376430511475,0.00010915852908510715,1.9596714973449707,4.883245247393408,0.0,0.2908534109592438,-1.5354183355914515,0.0,-0.00735110929235816,0.7707758545875549,-0.0,0.008851859718561172,0.8128052949905396,0.0,-0.04032757133245468
977.0,964.0,2.3737,-0.6437,9.0185,-0.0522,0.0221,-0.1193,-1.6606489620604457,0.0,2.4408395290374756,-1.9359304904937744,4.618041202775203e-05,2.018156051635742,4.883225160628118,7.027581159491092e-05,0.3075940012931824,-1.535454575215475,0.0,-0.007876204326748848,0.7708566188812256,-0.0,-0.01227471511811018,0.8127688765525818,0.0,0.007274293806403875
977.0,964.0,2.3737,-0.6437,9.0185,-0.0522,0.0221,-0.1193,-1.6607042751707972,0.0,2.389462947845459,-1.935894250869751,8.31692450447008e-05,2.009233236312866,4.883277597814359,6.941846368135884e-05,0.2936331033706665,-1.5354021231280726,0.0,-0.025602208450436592,0.7708438634872437,-0.0,-0.005067572463303804,0.812792956829071,0.0,0.017038386315107346
977.0,964.0,2.3737,-0.6437,9.0185,-0.0522,0.0221,-0.1193,-1.660668512383932,0.0,2.377234697341919,-1.9359458684921265,7.349778024945408e-05,2.0207457542419434,4.883257481246748,6.223574746400118e-05,0.30460816621780396,-1.5354183355914515,0.0,-0.021681271493434906,0.7708442807197571,-0.0,-0.004429534077644348,0.8128213286399841,1.5019093098089797e-06,0.015616655349731445
991.0,948.0,1.8939,-0.3111,9.5504,-0.0371,0.0195,-0.1252,-1.6606923542418421,0.0,2.3821334838867188,-1.9359015226364136,6.547671364387497e-05,1.9759650230407715,4.883213239699163,2.822648275468964e-05,0.28868523240089417,-1.5354064146624964,0.0,-0.020396213978528976,0.7707558870315552,-0.0,0.0051783667877316475,0.8128213286399841,0.00021701271180063486,0.021329903975129128
991.0,948.0,1.8939,-0.3111,9.5504,-0.0371,0.0195,-0.1252,-1.6606527767577113,0.0,2.3603575229644775,-1.9359055757522583,6.103610940044746e-05,2.016512393951416,4.883249345212736,2.6530959075898863e-05,0.2944856286048889,-1.5354226271258753,0.0,-0.00462752440944314,0.7708520889282227,-0.0,0.0014873277395963669,0.8128172159194946,0.00023749870888423175,0.04990474134683609
991.0,948.0,1.8939,-0.3111,9.5504,-0.0371,0.0195,-0.1252,-1.6607166729369105,0.0,2.399017095565796,-1.9359015226364136,5.540038546314463e-05,2.005703926086426,4.8832493154104135,8.326418310389272e-07,0.28983068466186523,-1.5354145208941858,0.0,-0.011117380112409592,0.7707720994949341,-0.0,-0.001087117474526167,0.8128331303596497,0.0002792705490719527,-0.02487860433757305
991.0,948.0,1.8939,-0.3111,9.5504,-0.0371,0.0195,-0.1252,-1.6607128582396449,-7.364275370491669e-05,2.419193744659424,-1.9359540939331055,2.5359235223731957e-05,2.003992795944214,4.883193495660581,2.3176889574205717e-10,0.2922489643096924,-1.5354021231280726,0.0,-0.014735359698534012,0.7708282470703125,-0.0,0.0004621168482117355,0.8128454089164734,0.00048170765512622893,-0.011082511395215988
991.0,948.0,1.8939,-0.3111,9.5504,-0.0371,0.0195,-0.1252,-1.6607686481871546,-0.0009040426812134683,2.3896195888519287,-1.9359065294265747,2.4005868908716366e-05,2.0311520099639893,4.883197563677587,9.880670500533872e-13,0.30815446376800537,-1.535410229359762,0.0,-0.009994355030357838,0.7708324790000916,-0.0,-0.0030996541026979685,0.8128210306167603,0.0004824093484785408,-0.01929406076669693
991.0,948.0,1.8939,-0.3111,9.5504,-0.0371,0.0195,-0.1252,-1.6607967815794886,-0.001345719792880118,2.382298469543457,-1.9359263181686401,2.2227244699024595e-05,1.9762319326400757,4.883213239699163,2.7503210089928375e-16,0.29754823446273804,-1.5353906790362757,0.0,-0.018444731831550598,0.7707881927490234,-0.0,0.013656011782586575,0.8128334283828735,0.00045088425395078957,-0.009176760911941528
991.0,948.0,1.8939,-0.3111,9.5504,-0.0371,0.0195,-0.1252,-1.660781045953268,-0.0017130115302279592,2.4482083320617676,-1.9359055757522583,2.0694023987744004e-05,2.0003318786621094,4.883193495660581,7.65561990019392e-20,0.2984055280685425,-1.535438362752096,0.0,-0.010405555367469788,0.7707841396331787,-0.0,-0.009762216359376907,0.8128331303596497,0.0006405318272300065,-0.038764193654060364
991.0,948.0,1.8939,-0.3111,9.5504,-0.0371,0.0195,-0.1252,-1.6607686481871546,-0.00175869173835963,2.426809310913086,-1.9358983039855957,3.947555524064228e-05,2.0017285346984863,4.883169325977125,3.263710678048924e-22,0.2874023914337158,-1.5353744665728968,0.0,-0.016779905185103416,0.7707799673080444,-0.0,-0.010192301124334335,0.8128976225852966,0.0006119604222476482,0.029731392860412598
991.0,948.0,1.8939,-0.3111,9.5504,-0.0371,0.0195,-0.1252,-1.6607843838133753,-0.0018480056896805763,2.3748679161071777,-1.9358900785446167,3.7120466004125774e-05,2.012052536010742,4.883201631694593,9.084659618886003e-26,0.28222063183784485,-1.5353825728045862,4.434509293105293e-08,-0.010355382226407528,0.7707881927490234,-0.0,-0.008951351046562195,0.8128896355628967,0.0008721329504624009,-0.010223740711808205
991.0,948.0,1.8939,-0.3111,9.5504,-0.0371,0.0195,-0.1252,-1.6608010731139125,-0.0015313787152990699,2.3714613914489746,-1.935977816581726,3.495774944894947e-05,1.990818738937378,4.8832533089216135,2.528748424392871e-29,0.2926449775695801,-1.5354021231280726,1.234361918234228e-11,-0.005684702191501856,0.7707881927490234,-0.0,-0.003030010499060154,0.812897264957428,0.0010494472226127982,0.039783090353012085
991.0,948.0,1.8939,-0.3111,9.5504,-0.0371,0.0195,-0.1252,-1.6607886753477992,-0.0014089643955230713,2.3645288944244385,-1.9358571767807007,5.0397415179759264e-05,1.971043348312378,4.883169325977125,1.0780450462930743e-31,0.2933643162250519,-1.5354064146624964,5.262277565738424e-14,0.0014620586298406124,0.77078777551651,-0.0,-0.002629536436870694,0.8129335045814514,0.0012710050214082003,-0.012666299939155579
991.0,948.0,1.8939,-0.3111,9.5504,-0.0371,0.0195,-0.1252,-1.6607967815794886,-0.0015652587171643972,2.3689727783203125,-1.9359221458435059,6.350970215862617e-05,1.9953153133392334,4.883201646595754,3.00077850333043e-35,0.3006856441497803,-1.5353863875018519,1.464774241122984e-17,-0.010587655939161777,0.7707358002662659,-0.0,-0.0011133382795378566,0.8128934502601624,0.0014217764837667346,0.008584810420870781
991.0,948.0,1.8939,-0.3111,9.5504,-0.0371,0.0195,-0.1252,-1.6608363590636195,-0.002615444827824831,2.418370246887207,-1.9359344244003296,3.6095578252570704e-05,1.9738764762878418,4.8832179484661005,8.352778610836439e-39,0.28761211037635803,-1.535410229359762,4.0772528069402176e-21,-0.019308310002088547,0.7707557082176208,-0.0,-0.0046398150734603405,0.8129011392593384,0.0014851761516183615,-0.010040566325187683
991.0,948.0,1.8939,-0.3111,9.5504,-0.0371,0.0195,-0.1252,-1.6608764133849085,-0.004186405334621668,2.3807852268218994,-1.9359385967254639,5.176478225621395e-05,1.9800947904586792,4.883217993169584,3.560979657542225e-41,0.2972301244735718,-1.5353944937335413,1.7381969444918752e-23,-0.020395617932081223,0.770808219909668,-0.0,0.007018748205155134,0.8129134178161621,0.0012972446857020259,-0.0036147860810160637
991.0,948.0,1.8939,-0.3111,9.5504,-0.0371,0.0195,-0.1252,-1.660872598687643,-0.005744544789195061,2.3697948455810547,-1.9359303712844849,4.916134639643133e-05,1.980067253112793,4.88319348075942,-0.0001269469503313303,0.28247731924057007,-1.5353944937335413,4.838334302613236e-27,-0.016481615602970123,0.7707762718200684,-0.0,-0.005372287705540657,0.8129253387451172,0.0011386778205633163,0.02884240821003914
991.0,948.0,1.8939,-0.3111,9.5504,-0.0371,0.0195,-0.1252,-1.6609727344908656,-0.007300498429685831,2.366574764251709,-1.935877799987793,6.212868902366608e-05,2.040482759475708,4.883161458164015,-0.00022272179194260389,0.2972124218940735,-1.5353944937335413,1.3467682035563058e-30,-0.02719133161008358,0.7707598805427551,-0.0,-0.004794470965862274,0.8129175305366516,0.0009894507238641381,-0.012838855385780334
991.0,948.0,1.8939,-0.3111,9.5504,-0.0371,0.0195,-0.1252,-1.6609960995116175,-0.007447125855833292,2.388551950454712,-1.9359220266342163,6.007898264215328e-05,1.9903063774108887,4.883117201715269,-0.0005358980852179229,0.2954196333885193,-1.53538686433901,5.741483955452592e-33,-0.006339848041534424,0.7707881927490234,-0.0,0.0071154432371258736,0.8129010796546936,0.0008639759616926312,-0.007504789158701897
971.0,926.0,2.1691,-0.5581,9.3069,-0.0391,0.0107,-0.1161,-1.6610318622984828,-0.008814261294901371,2.3692545890808105,-1.9359303712844849,5.721458364860155e-05,2.036468744277954,4.88312545695857,-0.0008554203668609262,0.27574047446250916,-1.5353582541095179,1.5981632758329665e-36,-0.021009068936109543,0.7708082795143127,-0.0,0.005468616262078285,0.812917172908783,0.0007053269655443728,0.009214414283633232
971.0,926.0,2.1691,-0.5581,9.3069,-0.0391,0.0107,-0.1161,-1.6611606083311976,-0.010658558458089828,2.3598461151123047,-1.9358654022216797,5.461087130242959e-05,1.9847289323806763,4.883149656444349,-0.0008668232476338744,0.2920270264148712,-1.53538686433901,4.448548091860921e-40,-0.024110225960612297,0.7708041667938232,-0.0,-0.006761586759239435,0.8129410147666931,0.0006763556157238781,-0.003964407369494438
971.0,926.0,2.1691,-0.5581,9.3069,-0.0391,0.0107,-0.1161,-1.6612206898131312,-0.010870817117393017,2.387829303741455,-1.9358818531036377,5.2233812311897054e-05,2.027550458908081,4.883129554777899,-0.0006844892632216215,0.2869594693183899,-1.5353582541095179,1.233142648605839e-43,-0.032563842833042145,0.7708324790000916,-0.0,-0.005152539815753698,0.8129492998123169,0.0008579896530136466,0.013570601120591164
971.0,926.0,2.1691,-0.5581,9.3069,-0.0391,0.0107,-0.1161,-1.6612802944579066,-0.011427749879658222,2.3533029556274414,-1.9358456134796143,5.0760801968863234e-05,1.981186866760254,4.883133682399549,-0.0006321175605989993,0.29393714666366577,-1.5354269186602991,0.0,-0.032452479004859924,0.7707518339157104,-0.0,-0.023293692618608475,0.8129410147666931,0.001281467149965465,0.004155137576162815
971.0,926.0,2.1691,-0.5581,9.3069,-0.0391,0.0107,-0.1161,-1.661327978173727,-0.01168911624699831,2.3508479595184326,-1.9358571767807007,6.0391022998373955e-05,1.9825034141540527,4.883161577373304,-0.0005071874475106597,0.302010178565979,-1.5354025999652308,0.0,-0.01329873688519001,0.7708282470703125,-0.0,0.0015955734997987747,0.8129614591598511,0.0018733416218310595,-0.013438235968351364
971.0,926.0,2.1691,-0.5581,9.3069,-0.0391,0.0107,-0.1161,-1.6614281139769496,-0.010864933021366596,2.3675150871276855,-1.9358694553375244,0.00015793000056874007,2.0102858543395996,4.883145901351728,-0.0004186661681160331,0.2972310483455658,-1.5354107061969202,0.0,-0.028423821553587914,0.7707681655883789,-0.0,-0.007157512474805117,0.8129895329475403,0.00226908503100276,0.011143885552883148
971.0,926.0,2.1691,-0.5581,9.3069,-0.0391,0.0107,-0.1161,-1.6614557705321253,-0.01053811889141798,2.418454885482788,-1.9358735084533691,0.00017757693422026932,2.0146396160125732,4.883125486760893,-0.00037503361818380654,0.29466596245765686,-1.5353577772723597,0.0,-0.010199138894677162,0.7708442807197571,-0.0,-0.010193003341555595,0.8129491806030273,0.002885733498260379,-0.03938522934913635
971.0,926.0,2.1691,-0.5581,9.3069,-0.0391,0.0107,-0.1161,-1.661515852014059,-0.008184516802430153,2.3824856281280518,-1.9358818531036377,0.0002062861021840945,1.9920449256896973,4.883149626642027,-0.000324336375342682,0.2996097505092621,-1.5353987852679651,0.0,-0.015903763473033905,0.770808219909668,-0.0,-0.0005530619528144598,0.8130172491073608,0.0035647337790578604,0.0007328982464969158
971.0,926.0,2.1691,-0.5581,9.3069,-0.0391,0.0107,-0.1161,-1.6615516148009242,-0.006457374896854162,2.3801486492156982,-1.9358652830123901,0.0005494297365657985,1.9920294284820557,4.883177938848295,-0.00028571620350703597,0.306568443775177,-1.5353782812701624,0.0,-0.01534269005060196,0.7708041667938232,-0.0,0.00678653921931982,0.81305330991745,0.004533505532890558,0.01896573230624199
971.0,926.0,2.1691,-0.5581,9.3069,-0.0391,0.0107,-0.1161,-1.6615716419615687,-0.005437277723103762,2.4073970317840576,-1.935894250869751,0.0005567909101955593,1.9756200313568115,4.883105712919988,-0.00026470422744750977,0.29246771335601807,-1.5353658835040491,0.0,-0.02487204223871231,0.7707722187042236,-0.0,0.005561302416026592,0.8130574226379395,0.005027735605835915,-0.01910407654941082
971.0,926.0,2.1691,-0.5581,9.3069,-0.0391,0.0107,-0.1161,-1.6615797481932582,-0.004834400024265051,2.390962600708008,-1.935857892036438,0.0008243730408139527,1.9964921474456787,4.8831176338489435,-0.00023840641370043159,0.28509318828582764,-1.5353501478778284,0.0,-0.03347935527563095,0.7708602547645569,-0.0,0.013585081323981285,0.8131378293037415,0.005312541965395212,0.008770005777478218
971.0,926.0,2.1691,-0.5581,9.3069,-0.0391,0.0107,-0.1161,-1.6615916691222132,-0.0030113868415355682,2.3465335369110107,-1.9358301162719727,0.0011720912298187613,2.009169578552246,4.883125799685278,-0.00021686169202439487,0.2850227952003479,-1.535342041646139,0.0,-0.016085930168628693,0.7708001136779785,-0.0,-0.0020976136438548565,0.813173770904541,0.005983158480376005,0.04705185815691948
971.0,926.0,2.1691,-0.5581,9.3069,-0.0391,0.0107,-0.1161,-1.661647459069723,-0.002304190071299672,2.402829885482788,-1.9358577728271484,0.0017761609051376581,2.0042877197265625,4.883153694659033,-0.0002045392757281661,0.30378878116607666,-1.53538686433901,0.0,-0.009361017495393753,0.770808219909668,-0.0,-0.008538567461073399,0.813173770904541,0.0067774588242173195,-0.0024047410115599632
971.0,926.0,2.1691,-0.5581,9.3069,-0.0391,0.0107,-0.1161,-1.6615992985167445,-0.0013779487926512957,2.403322219848633,-1.935857892036438,0.003389327321201563,2.004487991333008,4.883145558625021,-0.00018847547471523285,0.2995506227016449,-1.53538686433901,0.0,-0.027415184304118156,0.7708442807197571,-0.0,-0.00359108904376626,0.813213586807251,0.007328331936150789,-0.009028269909322262
971.0,926.0,2.1691,-0.5581,9.3069,-0.0391,0.0107,-0.1161,-1.661619325677389,-0.0008781543583609164,2.392683982849121,-1.9357895851135254,0.00572612602263689,2.0252254009246826,4.883129554777899,-0.0001747512724250555,0.3038930892944336,-1.5354068914996546,0.0,-0.01959134079515934,0.7708361148834229,-0.0,-0.005738344043493271,0.8132616281509399,0.00815586932003498,0.01969059929251671
971.0,926.0,2.1691,-0.5581,9.3069,-0.0391,0.0107,-0.1161,-1.6616035900511683,-0.000705862941686064,2.375448226928711,-1.9357057809829712,0.006530670449137688,2.0543408393859863,4.883153709560194,-0.00016666093142703176,0.29212430119514465,-1.5353544394122522,0.0,-0.034446991980075836,0.770808219909668,-0.0,0.006034519523382187,0.8132855892181396,0.009283717721700668,0.07359280437231064
971.0,926.0,2.1691,-0.5581,9.3069,-0.0391,0.0107,-0.1161,-1.6615992985167445,-0.0005514368531294167,2.384752035140991,-1.935742735862732,0.007500589359551668,1.997818946838379,4.883121269732275,-0.000155838715727441,0.3037959933280945,-1.5353782812701624,0.0,-0.0205070860683918,0.7707918882369995,-0.0,-0.0015356962103396654,0.813309371471405,0.010883738286793232,0.0004792008548974991
947.0,953.0,1.6193,-0.7962,9.5725,-0.0402,0.0318,-0.0933,-1.6616155109801234,-0.0003685107221826911,2.3797097206115723,-1.9356178045272827,0.008544383570551872,2.034041404724121,4.883190262108602,-0.00014633634418714792,0.28460702300071716,-1.5353620688067835,0.0,-0.009173694998025894,0.7708365321159363,-0.0,-0.00027187285013496876,0.813433825969696,0.012095036916434765,0.03126642853021622
947.0,953.0,1.6193,-0.7962,9.5725,-0.0402,0.0318,-0.0933,-1.6616441212096156,-0.0003741121618077159,2.4159927368164062,-1.9356465339660645,0.008820997551083565,2.0005927085876465,4.883137318282881,-0.000140620133606717,0.3039781451225281,-1.5353501478778284,0.0,-0.018930800259113312,0.7708324193954468,-0.0,-0.002788722515106201,0.8134980797767639,0.01367317233234644,-0.0035580950789153576
947.0,953.0,1.6193,-0.7962,9.5725,-0.0402,0.0318,-0.0933,-1.661687513391012,-0.0003675817570183426,2.4065351486206055,-1.9355700016021729,0.007856176234781742,1.998949408531189,4.883141863137045,-0.0001328369544353336,0.2986663281917572,-1.5354345480548304,0.0,-0.01772807538509369,0.7708324193954468,-0.0,-0.01221727579832077,0.8135902881622314,0.01540984958410263,-0.010286820121109486
947.0,953.0,1.6193,-0.7962,9.5725,-0.0402,0.0318,-0.0933,-1.661647459069723,-0.00048576080007478595,2.4287116527557373,-1.9355067014694214,0.007183086592704058,1.9822518825531006,4.883149641543188,-0.00012587012315634638,0.28563809394836426,-1.5353739897357386,5.6615681387484074e-05,-0.0032415043096989393,0.7708442807197571,-0.0,0.0012127893278375268,0.8136658072471619,0.017918985337018967,-0.003724898211658001
947.0,953.0,1.6193,-0.7962,9.5725,-0.0402,0.0318,-0.0933,-1.661647459069723,-0.0005417384090833366,2.3352901935577393,-1.935470461845398,0.006753475405275822,2.0107040405273438,4.883141788631239,-0.00012161782069597393,0.2883129119873047,-1.5353501478778284,5.53356294403784e-05,-0.011536246165633202,0.770816445350647,-0.0,-0.02276461198925972,0.8137582540512085,0.01933237351477146,0.005302600562572479
947.0,953.0,1.6193,-0.7962,9.5725,-0.0402,0.0318,-0.0933,-1.6616360149779261,-0.0008830261649563909,2.318906545639038,-1.935462236404419,0.00609881104901433,2.0249369144439697,4.88310572782115,-0.00011580475984374061,0.2785157263278961,-1.5353501478778284,6.394891534000635e-05,-0.014816289767622948,0.7708361148834229,-0.0,-0.00441263010725379,0.8138944506645203,0.020802531391382217,-0.07885822653770447
947.0,953.0,1.6193,-0.7962,9.5725,-0.0402,0.0318,-0.0933,-1.6616393528380335,-0.0013730295468121767,2.3707685470581055,-1.935426950454712,0.005066822748631239,1.9815787076950073,4.8831418035324,-7.364900375250727e-05,0.29815706610679626,-1.5353458563434046,7.146662392187864e-05,-0.013337420299649239,0.770808219909668,-0.0,-0.006046109367161989,0.8140062093734741,0.02290230430662632,-0.03029324673116207
947.0,953.0,1.6193,-0.7962,9.5725,-0.0402,0.0318,-0.0933,-1.6617118320860804,-0.0023667800705879927,2.36647891998291,-1.9353907108306885,0.004963212180882692,2.0334951877593994,4.8831499246652506,-8.461943070869893e-05,0.2980060875415802,-1.5353544394122522,8.026785508263856e-05,-0.006279065273702145,0.7708122730255127,-0.0,-0.0005175183760002255,0.814170777797699,0.0234947819262743,-0.04535564407706261
947.0,953.0,1.6193,-0.7962,9.5725,-0.0402,0.0318,-0.0933,-1.6616994343199671,-0.0035201366990804672,2.322878360748291,-1.9353421926498413,0.004198644310235977,2.0016798973083496,4.883133637696066,-9.506376227363944e-05,0.2691701650619507,-1.5353501478778284,0.000292851822450757,-0.0020189511124044657,0.7707557082176208,-0.0,-0.005643446929752827,0.814274787902832,0.02479197084903717,-0.02008926123380661
947.0,953.0,1.6193,-0.7962,9.5725,-0.0402,0.0318,-0.0933,-1.6617032490172328,-0.004856821149587631,2.295957326889038,-1.9353502988815308,0.003773851552978158,1.9624674320220947,4.883125814586439,-0.00010416770965093747,0.2709168791770935,-1.5353582541095179,0.00029743328923359513,-0.009832167997956276,0.7708402276039124,-0.0,0.001747887465171516,0.8144346475601196,0.026278609409928322,-0.05472550541162491
947.0,953.0,1.6193,-0.7962,9.5725,-0.0402,0.0318,-0.0933,-1.6617394886412562,-0.006269383709877729,2.3389720916748047,-1.9353058338165283,0.0036695480812340975,1.976879596710205,4.883101674705305,-0.00034919107565656304,0.27563321590423584,-1.5353463331805628,0.00031105009838938713,-0.0005407448625192046,0.7708406448364258,-0.0,-0.002404463943094015,0.814522922039032,0.025832252576947212,-0.07400643080472946
947.0,953.0,1.6193,-0.7962,9.5725,-0.0402,0.0318,-0.0933,-1.6617752514281214,-0.007768960203975439,2.2938437461853027,-1.935318946838379,0.0036764133255928755,1.952836275100708,4.883121984988012,-0.00034159619826823473,0.2867438495159149,-1.5353181997882288,0.0004360073362477124,0.0037113004364073277,0.7708644866943359,-0.0,-0.007779904641211033,0.8146750330924988,0.026999494060873985,0.0018763989210128784
947.0,953.0,1.6193,-0.7962,9.5725,-0.0402,0.0318,-0.0933,-1.6618758640685023,-0.009714068844914436,2.28497576713562,-1.9353272914886475,0.004497087560594082,1.9867949485778809,4.883145841747083,-0.00037971558049321175,0.27875280380249023,-1.5353344122516077,0.0005764631787315011,0.01235676184296608,0.7707837224006653,-0.0,0.010587521828711033,0.8148434162139893,0.02647087536752224,-0.059672266244888306
947.0,953.0,1.6193,-0.7962,9.5725,-0.0402,0.0318,-0.0933,-1.6619278393187464,-0.011354743503034115,2.2431716918945312,-1.935258150100708,0.004521919880062342,1.9910500049591064,4.8830978749092,-0.0004807641380466521,0.2560189962387085,-1.5353429953204554,0.0010724334279075265,0.016519704833626747,0.7709048986434937,-0.0,-0.007706651464104652,0.8149304389953613,0.02637024037539959,-0.0823013186454773
947.0,953.0,1.6193,-0.7962,9.5725,-0.0402,0.0318,-0.0933,-1.6619636021056117,-0.013030444271862507,2.2178640365600586,-1.9351897239685059,0.005078309681266546,2.005246639251709,4.883077788143911,-0.0005446097929961979,0.25792697072029114,-1.5352900663958948,0.0014847622951492667,0.006700949743390083,0.7707959413528442,-0.0,-0.0021267011761665344,0.8151195645332336,0.026543840765953064,-0.09191370755434036
947.0,953.0,1.6193,-0.7962,9.5725,-0.0402,0.0318,-0.0933,-1.6620594463744105,-0.015592506155371666,2.181849956512451,-1.9352104663848877,0.005089875310659409,1.9527008533477783,4.883085968881407,-0.0008886668947525322,0.23733949661254883,-1.5353191534625452,0.003551189322024584,0.024115893989801407,0.7708485126495361,-0.0,-0.012470194138586521,0.8152716159820557,0.024921363219618797,-0.08579105883836746
947.0,953.0,1.6193,-0.7962,9.5725,-0.0402,0.0318,-0.0933,-1.662159105340475,-0.01869773119688034,2.1925578117370605,-1.9351783990859985,0.005249126348644495,1.9612460136413574,4.883129897504606,-0.0009919458534568548,0.24712076783180237,-1.535250488911764,0.015698116272687912,0.04416263476014137,0.7708324193954468,-0.0,-0.0012361709959805012,0.8153756856918335,0.02437499910593033,-0.10162822902202606
947.0,953.0,1.6193,-0.7962,9.5725,-0.0402,0.0318,-0.0933,-1.6622034511961878,-0.020789286121726036,2.2041189670562744,-1.9351099729537964,0.005296102724969387,1.9924908876419067,4.883069950133123,-0.0008742149802856147,0.23964819312095642,-1.5351460615741175,0.02964429184794426,0.0401826947927475,0.7708402276039124,-0.0,-0.008246217854321003,0.8155118227005005,0.024272387847304344,-0.14476677775382996
986.0,952.0,1.8084,-0.9918,8.9928,-0.0841,0.0002,-0.1009,-1.6623674831786097,-0.024555524811148643,2.1327836513519287,-1.9351346492767334,0.005004659295082092,2.0044102668762207,4.883085953980245,-0.0009528954979032278,0.23435235023498535,-1.5349701086627405,0.03329236060380936,0.03522004187107086,0.7708684802055359,-0.0,-0.01096031442284584,0.8156198263168335,0.02324855886399746,-0.15059348940849304
986.0,952.0,1.8084,-0.9918,8.9928,-0.0841,0.0002,-0.1009,-1.6625353298582972,-0.02754511497914791,2.092790126800537,-1.9351305961608887,0.005764300469309092,1.975102424621582,4.883041354804792,-0.0010724470485001802,0.23144862055778503,-1.534778896962301,0.028901977464556694,0.05167252570390701,0.7708807587623596,-0.0,-0.0026115726213902235,0.8157636523246765,0.022417554631829262,-0.12941603362560272
986.0,952.0,1.8084,-0.9918,8.9928,-0.0841,0.0002,-0.1009,-1.6626225910582484,-0.030110949650406837,2.1320598125457764,-1.935062289237976,0.006181804928928614,1.9669313430786133,4.883005547314443,-0.0010455561568960547,0.2305956929922104,-1.5347111860858362,0.021259836852550507,0.04152265191078186,0.7708241939544678,-0.0,0.013927671127021313,0.8158357739448547,0.021818110719323158,-0.17091408371925354
986.0,952.0,1.8084,-0.9918,8.9928,-0.0841,0.0002,-0.1009,-1.6628228626646937,-0.033760156482458115,2.144672393798828,-1.93501877784729,0.006921371445059776,1.9714515209197998,4.883069950133123,-0.0016305348835885525,0.23777735233306885,-1.5346234480487269,0.006393962539732456,0.04611256718635559,0.770816445350647,-0.0,0.010817915201187134,0.8160161972045898,0.020199256017804146,-0.16738885641098022
986.0,952.0,1.8084,-0.9918,8.9928,-0.0841,0.0002,-0.1009,-1.6630422077574671,-0.039317239075899124,2.082695245742798,-1.9349833726882935,0.008568329736590385,2.009182929992676,4.883054020791807,-0.0027368832379579544,0.2311331033706665,-1.534619156514303,3.45637381542474e-05,0.038499616086483,0.7708807587623596,-0.0,-0.0021182503551244736,0.8161482810974121,0.018192412331700325,-0.166999951004982
986.0,952.0,1.8084,-0.9918,8.9928,-0.0841,0.0002,-0.1009,-1.6631742916502894,-0.04354846104979515,2.0987610816955566,-1.9349225759506226,0.008551755920052528,1.9518721103668213,4.882997917919912,-0.00489236181601882,0.22845837473869324,-1.5346358458148401,-0.0020457895006984472,0.032720934599637985,0.7708278894424438,-0.0,0.0040258485823869705,0.8161802291870117,0.016601625829935074,-0.18329162895679474
986.0,952.0,1.8084,-0.9918,8.9928,-0.0841,0.0002,-0.1009,-1.6634460888304652,-0.052520330995321274,2.1078362464904785,-1.9348746538162231,0.010117645375430584,2.012906074523926,4.882986309915342,-0.01168221328407526,0.21155688166618347,-1.5346396605121058,-0.0006685565458610654,0.04686935245990753,0.7708041667938232,-0.0,0.0011797191109508276,0.8162842392921448,0.01396948006004095,-0.21333542466163635
986.0,952.0,1.8084,-0.9918,8.9928,-0.0841,0.0002,-0.1009,-1.6637822590269984,-0.05926673114299774,2.125631332397461,-1.9348516464233398,0.012497331015765667,1.9775540828704834,4.882962617069044,-0.011618444696068764,0.2224733531475067,-1.5346158186541956,-4.405957952258177e-06,0.04581855237483978,0.7707919478416443,-0.0,-0.00995420478284359,0.8163319230079651,0.011126388795673847,-0.1849800944328308
986.0,952.0,1.8084,-0.9918,8.9928,-0.0841,0.0002,-0.1009,-1.664014001885885,-0.06467779725790024,2.0915656089782715,-1.934718370437622,0.014528707601130009,2.0133204460144043,4.882866236358442,-0.008465957827866077,0.24104738235473633,-1.5346553961383265,-1.8783291366730737e-08,0.05389648675918579,0.7707796692848206,-0.0,-0.010497256182134151,0.8163961172103882,0.009478554129600525,-0.17627525329589844
986.0,952.0,1.8084,-0.9918,8.9928,-0.0841,0.0002,-0.1009,-1.6644374332823695,-0.07428094744682312,2.0629971027374268,-1.9346312284469604,0.016821907833218575,2.00771427154541,4.882862451463499,-0.003519167425110936,0.23998503386974335,-1.5346315542804163,-5.228398009676782e-12,0.05494061857461929,0.7708765864372253,-0.0,-0.0006157764000818133,0.8164077401161194,0.00716108363121748,-0.21629008650779724
986.0,952.0,1.8084,-0.9918,8.9928,-0.0841,0.0002,-0.1009,-1.664929052392477,-0.08156141638755798,2.0308470726013184,-1.9345637559890747,0.01954437792301178,1.9959254264831543,4.882898855000295,-0.0005959445261396468,0.22916311025619507,-1.5346515814410608,-1.4553436343686058e-15,0.05439189076423645,0.7708521485328674,-0.0,-0.0075960420072078705,0.8164722323417664,0.005253904033452272,-0.20783714950084686
986.0,952.0,1.8084,-0.9918,8.9928,-0.0841,0.0002,-0.1009,-1.6652447185912074,-0.08925529569387436,2.022986650466919,-1.934451699256897,0.022298244759440422,2.0298848152160645,4.882850560336866,-0.0003298073133919388,0.22620899975299835,-1.5346396605121058,-6.20435751996014e-18,0.04883759468793869,0.7708241939544678,-0.0,-0.01457227859646082,0.8164841532707214,0.004323056433349848,-0.19900962710380554
986.0,952.0,1.8084,-0.9918,8.9928,-0.0841,0.0002,-0.1009,-1.6657964191832484,-0.09824393689632416,2.0407261848449707,-1.9342995882034302,0.02502811700105667,1.9863622188568115,4.882862406760015,-0.00021241385547909886,0.23172155022621155,-1.5346596876727503,-1.727005898633146e-21,0.03747960925102234,0.7708602547645569,-0.0,-0.008922248147428036,0.8165401220321655,0.0034906945656985044,-0.20093336701393127
986.0,952.0,1.8084,-0.9918,8.9928,-0.0841,0.0002,-0.1009,-1.6664473019041957,-0.10549721866846085,1.9965617656707764,-1.9341473579406738,0.02826664224267006,2.014207363128662,4.882826301246443,-0.00015681248623877764,0.22574520111083984,-1.5346553961383265,-4.807184250062958e-25,0.04581795632839203,0.7708888053894043,-0.0,-0.00035537267103791237,0.8165645003318787,0.0032063741236925125,-0.19295141100883484
986.0,952.0,1.8084,-0.9918,8.9928,-0.0841,0.0002,-0.1009,-1.666818758050436,-0.10955013334751129,2.0767173767089844,-1.9340201616287231,0.029246985912322998,1.9547144174575806,4.882870662003317,-0.00013352611858863384,0.23272451758384705,-1.5346315542804163,-2.04937781677658e-27,0.0423862524330616,0.7708402276039124,-0.0,0.0007319544674828649,0.8165521621704102,0.0034097409807145596,-0.21571879088878632
986.0,952.0,1.8084,-0.9918,8.9928,-0.0841,0.0002,-0.1009,-1.6675344906248988,-0.11298925429582596,2.0622668266296387,-1.9338116645812988,0.03186690807342529,2.0259203910827637,4.882890718966284,-0.00010920788190560415,0.21806812286376953,-1.5345914999591272,-5.704519389483993e-31,0.052608877420425415,0.7708282470703125,-0.0,-0.004711834713816643,0.816600501537323,0.0026254598051309586,-0.17493194341659546
986.0,952.0,1.8084,-0.9918,8.9928,-0.0841,0.0002,-0.1009,-1.6682621441283167,-0.118062824010849,2.0351858139038086,-1.9336481094360352,0.033330488950014114,2.028317928314209,4.8828587261732,-0.00013694931112695485,0.22445610165596008,-1.5346320311175745,-1.5878739550969438e-34,0.049801915884017944,0.7708484530448914,-0.0,-0.0001850370317697525,0.8165881633758545,0.001983633963391185,-0.18813255429267883
935.0,899.0,1.7366,-0.1083,8.9611,-0.0394,-0.0709,-0.1323,-1.6687294445433558,-0.12130988389253616,2.037970542907715,-1.933456301689148,0.034896258264780045,2.049933910369873,4.882858755975523,-0.00012566712393891066,0.21809391677379608,-1.5346320311175745,-6.769355402973114e-37,0.05530012398958206,0.7707918286323547,-0.0,-0.0023033195175230503,0.8166043162345886,0.0014510172186419368,-0.22719384729862213
935.0,899.0,1.7366,-0.1083,8.9611,-0.0394,-0.0709,-0.1323,-1.6694723568358363,-0.12854793667793274,2.0633764266967773,-1.9332565069198608,0.035870812833309174,2.016279697418213,4.882870662003317,-0.00011027228174498305,0.20845457911491394,-1.5346115271197718,-1.8842699930390085e-40,0.04443094879388809,0.770799994468689,-0.0,0.0008463398553431034,0.8165721297264099,0.0010747510241344571,-0.2525048553943634
935.0,899.0,1.7366,-0.1083,8.9611,-0.0394,-0.0709,-0.1323,-1.6702519855894984,-0.13741159439086914,1.9728224277496338,-1.9330925941467285,0.03940068557858467,2.002607822418213,4.8828784106071375,-0.0001308281789533794,0.2248113453388214,-1.5346038977252405,-5.184804318001823e-44,0.05798587203025818,0.7708601951599121,-0.0,-0.0015523487236350775,0.8166002035140991,0.0006111746188253164,-0.20784315466880798
935.0,899.0,1.7366,-0.1083,8.9611,-0.0394,-0.0709,-0.1323,-1.670779367486471,-0.14372028410434723,1.986905574798584,-1.9328532218933105,0.041455380618572235,2.022766590118408,4.882867011218824,-0.00012209254782646894,0.21103492379188538,-1.5346077124225062,-0.0,0.06632541120052338,0.770808219909668,-0.0,-0.006095147226005793,0.8165963292121887,0.00048053747741505504,-0.22463327646255493
935.0,899.0,1.7366,-0.1083,8.9611,-0.0394,-0.0709,-0.1323,-1.6716019115843714,-0.1487363874912262,2.0080339908599854,-1.9325767755508423,0.04800119996070862,2.0217812061309814,4.882870676904478,-6.029863652656786e-05,0.2171296775341034,-1.5345519224749964,-0.0,0.044695183634757996,0.7707753777503967,-0.0,-0.012364257127046585,0.8165680170059204,0.00029114086646586657,-0.24351763725280762
935.0,899.0,1.7366,-0.1083,8.9611,-0.0394,-0.0709,-0.1323,-1.6725250683226527,-0.15087883174419403,1.9875643253326416,-1.9322452545166016,0.05254943668842316,1.9976645708084106,4.882870662003317,-5.4766671382822096e-05,0.2106764316558838,-1.5345643202411097,-0.0,0.05906616151332855,0.7708324193954468,-0.0,0.0014023329131305218,0.8166043162345886,0.0002342745428904891,-0.27304333448410034
935.0,899.0,1.7366,-0.1083,8.9611,-0.0394,-0.0709,-0.1323,-1.6731087170042933,-0.15405674278736115,1.9845576286315918,-1.932077407836914,0.058059919625520706,2.054076671600342,4.8828587261732,-8.987880573840812e-05,0.21981693804264069,-1.5345833937274378,0.00029899197397753596,0.06892358511686325,0.7708361148834229,-0.0,-0.002669398207217455,0.8166249394416809,0.0002072903444059193,-0.27162182331085205
935.0,899.0,1.7366,-0.1083,8.9611,-0.0394,-0.0709,-0.1323,-1.674124380151266,-0.16497080028057098,1.9608168601989746,-1.9317104816436768,0.06304462254047394,2.0510756969451904,4.882810714631834,-0.0003385279269423336,0.21581944823265076,-1.5345681349383753,0.0003254093462601304,0.07060924917459488,0.7707799673080444,-0.0,-0.011867486871778965,0.8165680170059204,0.00017675438721198589,-0.2285328209400177
935.0,899.0,1.7366,-0.1083,8.9611,-0.0394,-0.0709,-0.1323,-1.6751066646971644,-0.17604370415210724,1.9745450019836426,-1.9312547445297241,0.06919215619564056,2.101689338684082,4.882834660797872,-0.0013092570006847382,0.21027648448944092,-1.5345752874957483,0.0003326362930238247,0.06108669191598892,0.77078777551651,-0.0,0.01318814791738987,0.8165886402130127,0.00011554543016245589,-0.27445292472839355
935.0,899.0,1.7366,-0.1083,8.9611,-0.0394,-0.0709,-0.1323,-1.6761981449522914,-0.18505653738975525,1.9432806968688965,-1.9308276176452637,0.0770714208483696,2.0516557693481445,4.882866996317663,-0.001227125758305192,0.20758438110351562,-1.5345681349383753,0.0004083235398866236,0.06194367632269859,0.7708848118782043,-0.0,0.005632959771901369,0.8166043162345886,0.00010239787661703303,-0.32766205072402954
935.0,899.0,1.7366,-0.1083,8.9611,-0.0394,-0.0709,-0.1323,-1.6768933735289515,-0.18567970395088196,1.925564169883728,-1.930478811264038,0.08233876526355743,2.0472421646118164,4.882871004730024,-0.0010449308902025223,0.21428915858268738,-1.5345357100116175,0.00042587591451592743,0.06114146485924721,0.77079176902771,-0.0,-0.0047798557206988335,0.8165844678878784,9.517838043393567e-05,-0.27742043137550354
935.0,899.0,1.7366,-0.1083,8.9611,-0.0394,-0.0709,-0.1323,-1.6780320606627406,-0.19224034249782562,1.9515515565872192,-1.929915189743042,0.08794274926185608,2.0552539825439453,4.882818999677458,-0.0008353576413355768,0.2088242620229721,-1.5345833937274378,0.00040460709715262055,0.06548593193292618,0.7707958817481995,-0.0,0.0034346377942711115,0.8166124820709229,8.607524796389043e-05,-0.27493393421173096
935.0,899.0,1.7366,-0.1083,8.9611,-0.0394,-0.0709,-0.1323,-1.6791779003539027,-0.20474553108215332,1.9645559787750244,-1.9294289350509644,0.09320608526468277,2.0589489936828613,4.882799136429586,-0.0007108667050488293,0.2047450840473175,-1.5345357100116175,0.00038681982550770044,0.06699290871620178,0.7708442807197571,-0.0,0.008794051595032215,0.8165762424468994,7.856151933083311e-05,-0.2709655165672302
935.0,899.0,1.7366,-0.1083,8.9611,-0.0394,-0.0709,-0.1323,-1.6800176105894984,-0.2095101922750473,1.919677972793579,-1.9289743900299072,0.10035674273967743,2.0700523853302,4.882850992470541,-0.0006713374168612063,0.19895470142364502,-1.5345881620990198,0.00035072630271315575,0.0789036974310875,0.7708361148834229,-0.0,-0.0052033052779734135,0.8165518641471863,-1.2287886420381255e-05,-0.26939302682876587
935.0,899.0,1.7366,-0.1083,8.9611,-0.0394,-0.0709,-0.1323,-1.6813165150084437,-0.22064267098903656,1.9385724067687988,-1.9283472299575806,0.11260833591222763,2.107104778289795,4.882814797550001,-0.0005264445790089667,0.19594982266426086,-1.5345476309405726,0.0003297424118500203,0.05806612968444824,0.7708041071891785,-0.0,-0.01134096272289753,0.8165881633758545,-5.255309588392265e-05,-0.32156306505203247
935.0,899.0,1.7366,-0.1083,8.9611,-0.0394,-0.0709,-0.1323,-1.6827360592284144,-0.22339674830436707,1.8950493335723877,-1.927669882774353,0.12110647559165955,2.1193416118621826,4.882823008089819,-0.0004241091082803905,0.2083427608013153,-1.5345681349383753,0.00032060855301097035,0.07122233510017395,0.7708283066749573,-0.0,-0.005693078972399235,0.8165762424468994,-0.00011981660645687953,-0.26889047026634216
935.0,899.0,1.7366,-0.1083,8.9611,-0.0394,-0.0709,-0.1323,-1.6836582622923792,-0.22953137755393982,1.966916799545288,-1.9271280765533447,0.12960299849510193,2.1167807579040527,4.882870974927702,-0.00035698062856681645,0.2124355137348175,-1.5345876852618616,0.0002895468205679208,0.07353469729423523,0.7708848714828491,-0.0,-0.00305365351960063,0.816536009311676,-0.0006312902551144361,-0.30313414335250854
938.0,909.0,1.6092,-0.5874,8.7075,-0.0217,-0.0918,-0.1355,-1.6851126156248988,-0.24701052904129028,1.9455852508544922,-1.9263715744018555,0.1416315883398056,2.1899008750915527,4.882826420455732,-0.0003454311809036881,0.2101222574710846,-1.5345681349383753,0.0002908000024035573,0.07754048705101013,0.7708480358123779,-0.0,-0.0016549899009987712,0.8165963292121887,-0.000555075821466744,-0.32750770449638367
938.0,909.0,1.6092,-0.5874,8.7075,-0.0217,-0.0918,-0.1355,-1.6866876087584437,-0.25999751687049866,1.8835432529449463,-1.925480604171753,0.15138287842273712,2.1546647548675537,4.882830503373899,-0.00029017875203862786,0.20645569264888763,-1.5345600287066858,0.00027343706460669637,0.0791449099779129,0.7708479762077332,-0.0,-0.0008624716429039836,0.8165845274925232,-0.0002449520688969642,-0.32779625058174133
938.0,909.0,1.6092,-0.5874,8.7075,-0.0217,-0.0918,-0.1355,-1.6877500019469203,-0.2603209614753723,1.93560791015625,-1.92484450340271,0.15585140883922577,2.173635482788086,4.882870930224218,-0.0002620103186927736,0.22006025910377502,-1.5345595518695276,0.00027008060715161264,0.080043725669384,0.7708320617675781,-0.0,0.0012081882450729609,0.8165926933288574,-0.00028870595269836485,-0.2754150927066803
938.0,909.0,1.6092,-0.5874,8.7075,-0.0217,-0.0918,-0.1355,-1.6893722019591273,-0.2657216191291809,1.9474372863769531,-1.9238691329956055,0.16634432971477509,2.211437702178955,4.882831129222669,-0.00022871076362207532,0.21671614050865173,-1.5345876852618616,0.00024282257072627544,0.07740241289138794,0.7708725333213806,-0.0,-0.00274902256205678,0.8165559768676758,-0.00029133702628314495,-0.34789079427719116
938.0,909.0,1.6092,-0.5874,8.7075,-0.0217,-0.0918,-0.1355,-1.6910387478270472,-0.28046688437461853,1.9014806747436523,-1.9228428602218628,0.18207770586013794,2.2454352378845215,4.882818969875135,-0.00020292199042160064,0.2014627307653427,-1.5345681349383753,0.00022050975530873984,0.08418776094913483,0.7708725333213806,-0.0,-0.014911329373717308,0.8165886402130127,-0.00023449557193089277,-0.3156474530696869
938.0,909.0,1.6092,-0.5874,8.7075,-0.0217,-0.0918,-0.1355,-1.6921693287291468,-0.2898350954055786,1.9237021207809448,-1.9221254587173462,0.18984436988830566,2.2582521438598633,4.882842752128401,-0.0001887352264020592,0.21508383750915527,-1.5345638434039515,0.00020778138423338532,0.06901264935731888,0.7708200812339783,-0.0,0.004406714346259832,0.8164955377578735,-0.0001654749212320894,-0.311717689037323
938.0,909.0,1.6092,-0.5874,8.7075,-0.0217,-0.0918,-0.1355,-1.6940199337401332,-0.2878952920436859,1.9367446899414062,-1.9209085702896118,0.19957777857780457,2.226229667663574,4.882871004730024,-0.0001708219642750919,0.2184830754995346,-1.534555737172262,0.00016896419401746243,0.06963348388671875,0.7708041071891785,-0.0,-0.008207287639379501,0.8165483474731445,-0.00011572551738936454,-0.30838334560394287
938.0,909.0,1.6092,-0.5874,8.7075,-0.0217,-0.0918,-0.1355,-1.6957575283446253,-0.2986144721508026,1.908456802368164,-1.9196656942367554,0.20669430494308472,2.26815128326416,4.882822978287496,-0.0001560145610710606,0.20318207144737244,-1.534527603779928,0.00015128045924939215,0.07777246832847595,0.7708081603050232,-0.0,-0.0008450769819319248,0.8165239691734314,-0.00014551689673680812,-0.3216484785079956
938.0,909.0,1.6092,-0.5874,8.7075,-0.0217,-0.0918,-0.1355,-1.6969768009581507,-0.3107588291168213,1.8609659671783447,-1.9188170433044434,0.2117747664451599,2.246129035949707,4.882842737227239,-0.00014749146066606045,0.20376309752464294,-1.5345514456378382,0.00014174824173096567,0.08404452353715897,0.7707959413528442,-0.0,-0.013878196477890015,0.8165683150291443,-0.00013135648623574525,-0.30899980664253235
938.0,909.0,1.6092,-0.5874,8.7075,-0.0217,-0.0918,-0.1355,-1.6987539730467738,-0.3164692223072052,1.9186269044876099,-1.9175190925598145,0.22603191435337067,2.3038601875305176,4.882879140764036,-0.0001363207120448351,0.2133321464061737,-1.5345400015460413,0.00015518067812081426,0.07057468593120575,0.7708246111869812,-0.0,-0.0023018107749521732,0.8165156841278076,-0.00011462548718554899,-0.32057011127471924
938.0,909.0,1.6092,-0.5874,8.7075,-0.0217,-0.0918,-0.1355,-1.7006765804686488,-0.3150307834148407,1.9011613130569458,-1.9160372018814087,0.24445421993732452,2.336216688156128,4.8828346756990335,-0.00012672315642703325,0.2139749825000763,-1.534543816243307,0.0001607265294296667,0.06892570108175278,0.7708000540733337,-0.0,-0.012567460536956787,0.8165401220321655,-0.00010167530854232609,-0.36300498247146606
938.0,909.0,1.6092,-0.5874,8.7075,-0.0217,-0.0918,-0.1355,-1.7019387684264125,-0.3176428973674774,1.9310226440429688,-1.9151304960250854,0.25267472863197327,2.3299033641815186,4.882866981416502,-0.00012104165216442198,0.21494361758232117,-1.534543816243307,0.00015847617760300636,0.07225197553634644,0.7708484530448914,-0.0,-0.000600790255703032,0.8165000081062317,-0.00014674951671622694,-0.31226980686187744
938.0,909.0,1.6092,-0.5874,8.7075,-0.0217,-0.0918,-0.1355,-1.7038046322264613,-0.3177957832813263,1.9066107273101807,-1.9135947227478027,0.2598121166229248,2.3458340167999268,4.882871004730024,-0.0001134148842538707,0.2191857248544693,-1.5344956556903284,0.00016806821804493666,0.07084523886442184,0.7708443403244019,-0.0,0.004914076998829842,0.8165280818939209,-0.00028050210676155984,-0.3408334255218506
938.0,909.0,1.6092,-0.5874,8.7075,-0.0217,-0.0918,-0.1355,-1.705726762811178,-0.3234683871269226,1.9676413536071777,-1.9119327068328857,0.2784682512283325,2.3641161918640137,4.882862853794851,-8.895037899492308e-05,0.22343474626541138,-1.5345161596881312,0.0001573863992234692,0.07513095438480377,0.7708282470703125,-0.0,-0.006671214941889048,0.8165562152862549,-0.00024319154908880591,-0.29308173060417175
938.0,909.0,1.6092,-0.5874,8.7075,-0.0217,-0.0918,-0.1355,-1.7069813213744105,-0.3276658058166504,1.9219292402267456,-1.910799503326416,0.2910047471523285,2.378650188446045,4.882798734098234,-0.00010039516928372905,0.2176305055618286,-1.534527603779928,0.00019973769667558372,0.08158024400472641,0.7707558274269104,-0.0,-0.010305962525308132,0.8165562152862549,-0.000223095717956312,-0.3717533349990845
938.0,909.0,1.6092,-0.5874,8.7075,-0.0217,-0.0918,-0.1355,-1.7089482746519984,-0.3315853476524353,1.9755196571350098,-1.909040927886963,0.29548224806785583,2.369887113571167,4.882799136429586,-0.0001273103553103283,0.21415141224861145,-1.534543816243307,0.00017924801795743406,0.06601960957050323,0.770808219909668,-0.0,0.004113979637622833,0.8164918422698975,-0.0002314168814336881,-0.3009185194969177
938.0,909.0,1.6092,-0.5874,8.7075,-0.0217,-0.0918,-0.1355,-1.7109853229918421,-0.3422546088695526,2.0077333450317383,-1.907149076461792,0.3063291609287262,2.3987503051757812,4.882842767029562,-7.529942377004772e-05,0.20820245146751404,-1.5345318953143519,0.00019212473125662655,0.07083746045827866,0.7707958221435547,-0.0,-0.006983812898397446,0.8165120482444763,-0.0003347073507029563,-0.3490556478500366
964.0,924.0,2.0399,-0.6861,9.7322,-0.0241,0.0536,-0.1268,-1.7123767338194789,-0.34582552313804626,1.9288010597229004,-1.9058696031570435,0.3188067078590393,2.3809993267059326,4.882846835046568,-5.306244202074595e-05,0.21093404293060303,-1.5345075766192835,0.0002089961781166494,0.0733928233385086,0.770796000957489,-0.0,-0.002548901829868555,0.8165081739425659,-0.00041508767753839493,-0.37278270721435547
964.0,924.0,2.0399,-0.6861,9.7322,-0.0241,0.0536,-0.1268,-1.7143908939757289,-0.342023104429245,1.958632230758667,-1.9039140939712524,0.33893850445747375,2.4014272689819336,4.882870602398672,0.0002604025648906827,0.22153045237064362,-1.5345318953143519,0.00021565395582001656,0.09115031361579895,0.7708041667938232,-0.0,-0.018925774842500687,0.8165082335472107,-0.0012629488483071327,-0.3237932324409485
964.0,924.0,2.0399,-0.6861,9.7322,-0.0241,0.0536,-0.1268,-1.7165218792357386,-0.3484400808811188,1.9746272563934326,-1.901787281036377,0.3518935441970825,2.4556655883789062,4.882842737227239,0.0001817083393689245,0.23216328024864197,-1.534543816243307,0.00019941187929362059,0.07913339138031006,0.7707799673080444,-0.0,-0.000735950656235218,0.8164395689964294,-0.002189470222219825,-0.40993180871009827
964.0,924.0,2.0399,-0.6861,9.7322,-0.0241,0.0536,-0.1268,-1.7187210522093714,-0.3493877947330475,2.0230872631073,-1.899574637413025,0.36567702889442444,2.502542734146118,4.882842737227239,0.00013943279918748885,0.2105417549610138,-1.5345118681537073,0.00025008420925587416,0.086392343044281,0.7708241939544678,-0.0,-0.0008120054844766855,0.8164882063865662,-0.0018558378797024488,-0.3247511088848114
964.0,924.0,2.0399,-0.6861,9.7322,-0.0241,0.0536,-0.1268,-1.7201501331725062,-0.3492855727672577,1.9479799270629883,-1.8980637788772583,0.3737853467464447,2.491854190826416,4.8828468201454065,0.0001789027010090649,0.2149701714515686,-1.5344999472247522,0.00022563710808753967,0.07821941375732422,0.7708402276039124,-0.0,-0.002507410943508148,0.8164841532707214,-0.0015468938509002328,-0.33548861742019653
964.0,924.0,2.0399,-0.6861,9.7322,-0.0241,0.0536,-0.1268,-1.722360750237936,-0.3621099889278412,2.0045628547668457,-1.8957802057266235,0.39044588804244995,2.4993138313293457,4.882858741074362,0.00015073352551553398,0.2280822992324829,-1.5345199743853968,0.00019612908363342285,0.07449337840080261,0.770820140838623,-0.0,-0.00996824074536562,0.8164676427841187,-0.0010213725036010146,-0.3545248508453369
964.0,924.0,2.0399,-0.6861,9.7322,-0.0241,0.0536,-0.1268,-1.7246080837645472,-0.3688252568244934,1.973600149154663,-1.8933998346328735,0.4066718816757202,2.534649133682251,4.882810759335317,0.0001721112203085795,0.22560282051563263,-1.5344999472247522,0.00017344593652524054,0.09242616593837738,0.7708204984664917,-0.0,-0.0014396555488929152,0.8163833618164062,-0.0007163045811466873,-0.36018693447113037
964.0,924.0,2.0399,-0.6861,9.7322,-0.0241,0.0536,-0.1268,-1.7260500393309535,-0.3655948042869568,2.039364814758301,-1.8918370008468628,0.41552025079727173,2.478809118270874,4.882786977082052,0.00010166193533223122,0.2307068109512329,-1.5345161596881312,0.0001910558348754421,0.06921365857124329,0.7708402276039124,-0.0,-0.004010492004454136,0.8164478540420532,-0.0004719201533589512,-0.4025310277938843
964.0,924.0,2.0399,-0.6861,9.7322,-0.0241,0.0536,-0.1268,-1.7282844982542933,-0.37701505422592163,2.0281362533569336,-1.8892889022827148,0.4238511025905609,2.558117389678955,4.8828346756990335,3.262798372816178e-06,0.22396470606327057,-1.534543816243307,0.00017450048471800983,0.07227040082216263,0.7708241939544678,-0.0,-0.00934293307363987,0.8164800405502319,-0.00041879137279465795,-0.3700414299964905
964.0,924.0,2.0399,-0.6861,9.7322,-0.0241,0.0536,-0.1268,-1.7305470905699671,-0.3817596435546875,2.0172622203826904,-1.88671875,0.42943865060806274,2.523130416870117,4.8828748045261285,9.082120611125788e-10,0.2277001142501831,-1.5345080534564417,0.0001720883883535862,0.07062356919050217,0.7708159685134888,-0.0,0.0005659628659486771,0.816447913646698,-0.0003397412074264139,-0.34562909603118896
964.0,924.0,2.0399,-0.6861,9.7322,-0.0241,0.0536,-0.1268,-1.732009073297018,-0.38134512305259705,1.9973959922790527,-1.884962797164917,0.442823201417923,2.555427074432373,4.882890778570928,3.871850756675954e-12,0.20503729581832886,-1.53453237215151,0.0001752061943989247,0.07724840193986893,0.7708041667938232,-0.0,-0.00449669873341918,0.8164758682250977,-0.00030176504515111446,-0.3534039855003357
964.0,924.0,2.0399,-0.6861,9.7322,-0.0241,0.0536,-0.1268,-1.7342239818968714,-0.38175421953201294,2.0394906997680664,-1.8823354244232178,0.458148717880249,2.573803424835205,4.882834660797872,1.0777438639000456e-15,0.20934656262397766,-1.534527603779928,0.0001617620582692325,0.07121004164218903,0.7708241939544678,-0.0,-0.0048141167499125,0.8164882659912109,-0.00025843398179858923,-0.3744000196456909
964.0,924.0,2.0399,-0.6861,9.7322,-0.0241,0.0536,-0.1268,-1.7365027866759242,-0.3785364031791687,2.0424957275390625,-1.8796236515045166,0.47350576519966125,2.5698413848876953,4.882790910988607,2.999939804955187e-19,0.21636539697647095,-1.5345357100116175,0.00015019231068436056,0.08119604736566544,0.7707841396331787,-0.0,-0.0037775065284222364,0.8164359331130981,-0.00022598591749556363,-0.3500245213508606
964.0,924.0,2.0399,-0.6861,9.7322,-0.0241,0.0536,-0.1268,-1.7379476032652796,-0.3809179663658142,2.066009998321533,-1.8776606321334839,0.47639933228492737,2.5472662448883057,4.882799136429586,-0.00017346465028822422,0.21622434258460999,-1.534543816243307,0.0001433567376807332,0.08765862137079239,0.770840585231781,-0.0,-0.006797190755605698,0.8164882659912109,-0.00020853124442510307,-0.37016892433166504
964.0,924.0,2.0399,-0.6861,9.7322,-0.0241,0.0536,-0.1268,-1.7402430973448695,-0.3807109296321869,2.054039716720581,-1.8747016191482544,0.48286762833595276,2.5607237815856934,4.882838639407911,-0.00044494145549833775,0.21422350406646729,-1.5344880262957972,0.0001341955066891387,0.07633199542760849,0.7707717418670654,-0.0,-0.0033888763282448053,0.8164841532707214,-0.00018688016280066222,-0.342791348695755
964.0,924.0,2.0399,-0.6861,9.7322,-0.0241,0.0536,-0.1268,-1.7425137958922328,-0.3916197419166565,2.0165443420410156,-1.871789574623108,0.49530938267707825,2.604687213897705,4.882826405554571,-0.00014826505503151566,0.19848090410232544,-1.5345519224749964,0.0001261349389096722,0.06500142812728882,0.7707799673080444,-0.0,-0.002703792881220579,0.8164598345756531,-0.00014147613546811044,-0.3461129069328308
964.0,924.0,2.0399,-0.6861,9.7322,-0.0241,0.0536,-0.1268,-1.744131704370016,-0.39351457357406616,2.0338783264160156,-1.8696871995925903,0.5042300820350647,2.551921844482422,4.882863107114591,-0.0001109226795961149,0.20236150920391083,-1.5345237890826624,0.00012127855734433979,0.06212976202368736,0.770816445350647,-0.0,-0.009381151758134365,0.8165086507797241,-0.00013276048412080854,-0.3434769809246063
964.0,924.0,2.0399,-0.6861,9.7322,-0.0241,0.0536,-0.1268,-1.7465440235533656,-0.3940371572971344,2.0566515922546387,-1.8665969371795654,0.5144340395927429,2.54089093208313,4.882874744921484,-0.00016166534624062479,0.20512157678604126,-1.534543816243307,0.00011465676652733237,0.06559614837169647,0.7708361148834229,-0.0,0.0023422054946422577,0.8164400458335876,-0.0001463584922021255,-0.3350849747657776
932.0,867.0,1.9053,-0.4887,10.3693,-0.048,0.1591,-0.1155,-1.749007364312643,-0.4002581238746643,2.029005527496338,-1.8634477853775024,0.5259743332862854,2.574815273284912,4.88285097756938,-7.242376159410924e-05,0.19476407766342163,-1.5345199743853968,0.00010872072743950412,0.07317295670509338,0.770820140838623,-0.0,-0.006332687567919493,0.8164640665054321,-0.00017782427312340587,-0.4014085829257965
932.0,867.0,1.9053,-0.4887,10.3693,-0.048,0.1591,-0.1155,-1.7505880794920863,-0.3942627012729645,2.068145275115967,-1.8613247871398926,0.5348142981529236,2.5342483520507812,4.882850560336866,-1.0639643051035819e-06,0.202030211687088,-1.5345199743853968,0.0001050934151862748,0.0648261159658432,0.7708041667938232,-0.0,0.0007928952109068632,0.8164841532707214,-0.0001718547282507643,-0.3353521227836609
932.0,867.0,1.9053,-0.4887,10.3693,-0.048,0.1591,-0.1155,-1.753139158288473,-0.3967517912387848,2.04533052444458,-1.85813570022583,0.55021733045578,2.566201686859131,4.8828587261732,-2.961583756011521e-10,0.20891675353050232,-1.5345199743853968,0.00010019247565651312,0.08094151318073273,0.770816445350647,-0.0,0.0026079248636960983,0.8164922595024109,-0.0001269322820007801,-0.3343656659126282
932.0,867.0,1.9053,-0.4887,10.3693,-0.048,0.1591,-0.1155,-1.7555858097472132,-0.40667855739593506,2.0991435050964355,-1.85482656955719,0.5561436414718628,2.556602954864502,4.882810714631834,-0.00023676318232901394,0.2028839886188507,-1.5345762411700647,9.553167910780758e-05,0.06508935242891312,0.7708287835121155,-0.0,-0.012151055037975311,0.816451907157898,-0.00011702877964125946,-0.3331263065338135
932.0,867.0,1.9053,-0.4887,10.3693,-0.048,0.1591,-0.1155,-1.7572642765440882,-0.4076341390609741,2.1026570796966553,-1.8526273965835571,0.5570585131645203,2.615225315093994,4.882838684111395,-0.0004980007652193308,0.20216010510921478,-1.5345400015460413,9.271975432056934e-05,0.06368127465248108,0.7708448767662048,-0.0,0.0024052488151937723,0.8164640665054321,-0.00011124269803985953,-0.3427160978317261
932.0,867.0,1.9053,-0.4887,10.3693,-0.048,0.1591,-0.1155,-1.7597347698607386,-0.424664705991745,2.1040797233581543,-1.8492765426635742,0.5600589513778687,2.5934500694274902,4.8828468201454065,-0.0004228131438139826,0.20990681648254395,-1.5345161596881312,8.879900997271761e-05,0.058945588767528534,0.7708484530448914,-0.0,-0.012373127043247223,0.816460132598877,-0.00010356225538998842,-0.31008023023605347
932.0,867.0,1.9053,-0.4887,10.3693,-0.048,0.1591,-0.1155,-1.7622176609435023,-0.42993754148483276,2.0571937561035156,-1.845882773399353,0.5609978437423706,2.469841480255127,4.882854926377096,-0.0004341822932474315,0.20628471672534943,-1.5345237890826624,8.519648690707982e-05,0.06465911120176315,0.7708442807197571,-0.0,-0.005789546296000481,0.8164601922035217,-9.687396232038736e-05,-0.3347817659378052
932.0,867.0,1.9053,-0.4887,10.3693,-0.048,0.1591,-0.1155,-1.7639481029906214,-0.4322899580001831,2.05900239944458,-1.8436870574951172,0.5595959424972534,2.5167365074157715,4.882787006884374,-0.0005921210977248847,0.22299225628376007,-1.5345199743853968,8.295293810078874e-05,0.07679867744445801,0.7708241939544678,-0.0,-0.001409805379807949,0.816447913646698,-0.00011119584087282419,-0.340181440114975
932.0,867.0,1.9053,-0.4887,10.3693,-0.048,0.1591,-0.1155,-1.7664066753783167,-0.42991453409194946,2.1136856079101562,-1.8402754068374634,0.5633420944213867,2.5313949584960938,4.882859083801069,-0.00036180263850837946,0.2161969244480133,-1.5345280806170862,7.98007458797656e-05,0.07234217971563339,0.7708484530448914,-0.0,0.00028803665190935135,0.8164359331130981,-0.00010495206515770406,-0.32417434453964233
932.0,867.0,1.9053,-0.4887,10.3693,-0.048,0.1591,-0.1155,-1.768886228600973,-0.4232843518257141,2.1100897789001465,-1.836738109588623,0.5673245191574097,2.557652473449707,4.882887038379469,-0.00011306431406410411,0.20833085477352142,-1.5345357100116175,7.687930337851867e-05,0.0686957985162735,0.7707639336585999,-0.0,-0.01008292194455862,0.8164600729942322,-9.916978888213634e-05,-0.331999808549881
932.0,867.0,1.9053,-0.4887,10.3693,-0.048,0.1591,-0.1155,-1.7705398998656214,-0.4197005033493042,2.1328864097595215,-1.834507703781128,0.5684183835983276,2.499392509460449,4.882798793702879,-8.9919580204878e-05,0.2142883688211441,-1.5345638434039515,7.504766836063936e-05,0.07545733451843262,0.7707356810569763,-0.0,-0.0040510063990950584,0.816431999206543,-8.51634395075962e-05,-0.2732682526111603
932.0,867.0,1.9053,-0.4887,10.3693,-0.048,0.1591,-0.1155,-1.7730757198729457,-0.41739556193351746,2.1435189247131348,-1.8311165571212769,0.5723530054092407,2.499584197998047,4.882866996317663,-7.044296944513917e-05,0.19854527711868286,-1.534555737172262,7.245827873703092e-05,0.07085298001766205,0.7707959413528442,-0.0,-0.00623482558876276,0.8165205717086792,-6.062366082915105e-05,-0.2820571959018707
932.0,867.0,1.9053,-0.4887,10.3693,-0.048,0.1591,-0.1155,-1.7755586109557093,-0.41918087005615234,2.13572359085083,-1.8277541399002075,0.5750877261161804,2.5663883686065674,4.882822978287496,-0.0001084838731912896,0.210478276014328,-1.5345805327044886,3.652431405498646e-05,0.07565948367118835,0.770820140838623,-0.0,-0.005270324647426605,0.8165246248245239,5.912678534514271e-05,-0.22609519958496094
932.0,867.0,1.9053,-0.4887,10.3693,-0.048,0.1591,-0.1155,-1.7772609196104945,-0.4185786545276642,2.191818952560425,-1.825381875038147,0.5715761780738831,2.4638118743896484,4.882806974440374,-0.00014894506603013724,0.19928380846977234,-1.5345242659198206,-0.00019092581351287663,0.060635585337877274,0.7707958817481995,-0.0,-0.00016532232984900475,0.8164598941802979,2.850446617230773e-05,-0.31546729803085327
932.0,867.0,1.9053,-0.4887,10.3693,-0.048,0.1591,-0.1155,-1.779849191705221,-0.4287322461605072,2.1788570880889893,-1.8219853639602661,0.5711559057235718,2.5741539001464844,4.8828750280435465,-0.00012847004109062254,0.19862797856330872,-1.534543816243307,-0.00012023190356558189,0.05057867243885994,0.7707681059837341,-0.0,-0.007286935579031706,0.8164800405502319,2.5918743631336838e-05,-0.3404391407966614
932.0,867.0,1.9053,-0.4887,10.3693,-0.048,0.1591,-0.1155,-1.7824403248228968,-0.4241163730621338,2.186243772506714,-1.8185349702835083,0.5747545957565308,2.4569056034088135,4.882846805244245,0.00013066969404462725,0.20925763249397278,-1.5345481077777308,-8.578505367040634e-05,0.07540585100650787,0.7708241939544678,-0.0,0.00828984472900629,0.8165123462677002,2.3857528503867798e-05,-0.2749643921852112
932.0,867.0,1.9053,-0.4887,10.3693,-0.048,0.1591,-0.1155,-1.7850810490050257,-0.430380642414093,2.1941494941711426,-1.8150497674942017,0.5799475908279419,2.5199756622314453,4.8828229931886575,0.00011982543946942315,0.21776233613491058,-1.5345242659198206,-6.669450522167608e-05,0.06283152103424072,0.770808219909668,-0.0,-0.0008037583902478218,0.8164722323417664,2.2100024580140598e-05,-0.26225268840789795
929.0,876.0,2.275,-0.3936,8.8457,-0.0307,0.1356,-0.1136,-1.7868148289122523,-0.4295942485332489,2.207212448120117,-1.812801718711853,0.5760858654975891,2.5399231910705566,4.882799121528425,1.1524245564942248e-05,0.22240670025348663,-1.5345519224749964,-5.808054993394762e-05,0.062485046684741974,0.7708204984664917,-0.0,-0.0020980758126825094,0.8164557814598083,2.1065492546767928e-05,-0.24550658464431763
929.0,876.0,2.275,-0.3936,8.8457,-0.0307,0.1356,-0.1136,-1.7894264660277308,-0.4296504557132721,2.259126901626587,-1.8093199729919434,0.5691527724266052,2.5066821575164795,4.882870945125379,3.2078160128179434e-09,0.20991863310337067,-1.5345357100116175,-4.865622031502426e-05,0.045488014817237854,0.770840585231781,-0.0,-0.01522664912045002,0.8164441585540771,5.087068613573997e-11,-0.26530778408050537
929.0,876.0,2.275,-0.3936,8.8457,-0.0307,0.1356,-0.1136,-1.7920299969115199,-0.44252678751945496,2.336812973022461,-1.8059239387512207,0.5661892294883728,2.528277635574341,4.882787021785536,8.929073843158553e-13,0.21158702671527863,-1.5345681349383753,-4.186419027973898e-05,0.05867580324411392,0.7707841396331787,-0.0,0.003611084306612611,0.8165163993835449,1.2284672358750808e-16,-0.22306746244430542
929.0,876.0,2.275,-0.3936,8.8457,-0.0307,0.1356,-0.1136,-1.7938171825804652,-0.4458276629447937,2.2646374702453613,-1.803626298904419,0.5634378790855408,2.485217571258545,4.882838654309072,-0.00015058355347719043,0.2228439599275589,-1.5345318953143519,-3.830015702988021e-05,0.05556860566139221,0.7707881331443787,-0.0,0.007272770628333092,0.8164763450622559,2.2111978877265862e-20,-0.25841137766838074
