ramyac6/ROB537/final_project/csv/all/bad_125.csv
tof_0,tof_1,accelx,accely,accelz,gyrox,gyroy,gyroz,shoulder_lift_joint_position,shoulder_lift_joint_velocity,shoulder_lift_joint_effort,elbow_joint_position,elbow_joint_velocity,elbow_joint_effort,wrist_1_joint_position,wrist_1_joint_velocity,wrist_1_joint_effort,wrist_2_joint_position,wrist_2_joint_velocity,wrist_2_joint_effort,wrist_3_joint_position,wrist_3_joint_velocity,wrist_3_joint_effort,shoulder_pan_joint_position,shoulder_pan_joint_velocity,shoulder_pan_joint_effort
428.0,884.0,-0.0042,0.1585,9.5827,-0.0451,0.0278,-0.1168,-1.6864248714842738,0.0,2.3342533111572266,-2.0182039737701416,-0.0,1.8928788900375366,5.156122135906973,-0.0,0.2837240695953369,-1.5968058745013636,-0.0,-0.009634189307689667,0.8254625797271729,-0.0,0.0009121440816670656,0.7091467380523682,0.0,-0.007408442907035351
428.0,884.0,-0.0042,0.1585,9.5827,-0.0451,0.0278,-0.1168,-1.686460634271139,0.0,2.4023609161376953,-2.0182929039001465,-0.0,1.9042816162109375,5.156162309437551,-0.0,0.28474053740501404,-1.5967419783221644,-0.0,-0.005413830745965242,0.8255102634429932,-0.0,-0.006295805796980858,0.709150493144989,0.0,-0.024217495694756508
428.0,884.0,-0.0042,0.1585,9.5827,-0.0451,0.0278,-0.1168,-1.6864649258055628,0.0,2.3910326957702637,-2.0182204246520996,-0.0,1.8875758647918701,5.156133997231283,-0.0,0.2896348834037781,-1.5967538992511194,-0.0,-0.013670243322849274,0.8254704475402832,-0.0,0.004691530484706163,0.7091307640075684,0.0,0.03572217375040054
428.0,884.0,-0.0042,0.1585,9.5827,-0.0451,0.0278,-0.1168,-1.686448713342184,0.0,2.4089417457580566,-2.018280506134033,-0.0,1.903911828994751,5.1561704752738855,-0.0,0.28715693950653076,-1.5967257658587855,-0.0,-0.006358115002512932,0.8254985809326172,-0.0,-0.005975824315100908,0.7091628909111023,0.0,-0.02218945324420929
428.0,884.0,-0.0042,0.1585,9.5827,-0.0451,0.0278,-0.1168,-1.68642057994985,0.0,2.3804938793182373,-2.018235921859741,-0.0,1.8943545818328857,5.156149971276083,-0.0,0.30145031213760376,-1.5967782179461878,-0.0,-0.0045931376516819,0.8254905343055725,-0.0,0.001942197559401393,0.7091628909111023,0.0,-0.022268306463956833
428.0,884.0,-0.0042,0.1585,9.5827,-0.0451,0.0278,-0.1168,-1.6864286861815394,0.0,2.398531436920166,-2.0182607173919678,-0.0,1.876805305480957,5.1561704752738855,-0.0,0.28121355175971985,-1.5967419783221644,-0.0,-0.006256900727748871,0.8255184292793274,-0.0,-0.005781843326985836,0.7091549038887024,0.0,-0.005672108381986618
428.0,884.0,-0.0042,0.1585,9.5827,-0.0451,0.0278,-0.1168,-1.6864968738951625,0.0,2.364598274230957,-2.0182526111602783,-0.0,1.88521146774292,5.156150388508596,-0.0,0.2970011234283447,-1.5966938177691858,-0.0,-0.009461610578000546,0.8254225254058838,-0.0,0.0063362824730575085,0.7091829776763916,0.0,0.03932764753699303
428.0,884.0,-0.0042,0.1585,9.5827,-0.0451,0.0278,-0.1168,-1.6864687405028285,0.0,2.373286247253418,-2.01826810836792,-0.0,1.8853662014007568,5.156134384661474,-0.0,0.2787933051586151,-1.5967534224139612,-0.0,-0.017735891044139862,0.825462281703949,-0.0,-0.00646155746653676,0.7091747522354126,0.0,-0.01355113834142685
428.0,884.0,-0.0042,0.1585,9.5827,-0.0451,0.0278,-0.1168,-1.686448713342184,0.0,2.4014461040496826,-2.018216371536255,-0.0,1.8774733543395996,5.156122135906973,-0.0,0.2826577425003052,-1.5967453161822718,-0.0,-0.004499272909015417,0.8254221081733704,-0.0,-0.00783226452767849,0.7092074751853943,0.0,-0.03002755530178547
413.0,922.0,-0.0586,0.1316,9.6323,-0.0385,0.0177,-0.1174,-1.6864568195738734,0.0,2.343839645385742,-2.0182929039001465,-0.0,1.889911413192749,5.156166362553396,-0.0,0.2805587649345398,-1.596729580556051,-0.0,-0.011455582454800606,0.8254504203796387,-0.0,-0.0004729274660348892,0.7091711163520813,0.0,0.02177116647362709
413.0,922.0,-0.0586,0.1316,9.6323,-0.0385,0.0177,-0.1174,-1.6864649258055628,0.0,2.3898704051971436,-2.0182764530181885,-0.0,1.8636424541473389,5.156149971276083,-0.0,0.29272565245628357,-1.5967453161822718,-0.0,0.0025985375978052616,0.8254785537719727,-0.0,-0.0008562211878597736,0.7091389298439026,0.0,0.007976138032972813
413.0,922.0,-0.0586,0.1316,9.6323,-0.0385,0.0177,-0.1174,-1.6864568195738734,0.0,2.393754720687866,-2.0182764530181885,-0.0,1.8871432542800903,5.15617053487853,-0.0,0.2995474636554718,-1.596717659627096,-0.0,0.0008013730403035879,0.8254704475402832,-0.0,0.0006859880522824824,0.7091389298439026,0.0,0.005731502082198858
413.0,922.0,-0.0586,0.1316,9.6323,-0.0385,0.0177,-0.1174,-1.6864530048766078,0.0,2.3958654403686523,-2.0181875228881836,-0.0,1.9183349609375,5.156146305590429,-0.0,0.2864389419555664,-1.5967863241778772,-0.0,-0.020834963768720627,0.825510561466217,-0.0,0.003326446982100606,0.7091628909111023,0.0,0.003165705129504204
413.0,922.0,-0.0586,0.1316,9.6323,-0.0385,0.0177,-0.1174,-1.6864406071104945,0.0,2.3955752849578857,-2.0182247161865234,-0.0,1.9271080493927002,5.156190532236852,-0.0,0.2832142114639282,-1.5967701117144983,-0.0,-0.0006425187457352877,0.8254666924476624,-0.0,0.007203459739685059,0.7091549038887024,0.0,-0.002135980874300003
413.0,922.0,-0.0586,0.1316,9.6323,-0.0385,0.0177,-0.1174,-1.686432500878805,0.0,2.387826681137085,-2.0182886123657227,-0.0,1.8950583934783936,5.1561302719409845,-0.0,0.2933241128921509,-1.5967214743243616,-0.0,-0.01220547966659069,0.8254823684692383,-0.0,0.009563686326146126,0.7091467380523682,0.0,-0.010287441313266754
413.0,922.0,-0.0586,0.1316,9.6323,-0.0385,0.0177,-0.1174,-1.6864525280394496,0.0,2.4057435989379883,-2.0182526111602783,-0.0,1.862441062927246,5.15611423829154,-0.0,0.2776004374027252,-1.5967219511615198,-0.0,-0.014915814623236656,0.825462281703949,-0.0,0.00425176415592432,0.7091426253318787,0.0,0.0063813189044594765
413.0,922.0,-0.0586,0.1316,9.6323,-0.0385,0.0177,-0.1174,-1.6864682636656703,0.0,2.3686423301696777,-2.0182442665100098,-0.0,1.8876467943191528,5.156158226519384,-0.0,0.28684982657432556,-1.5967214743243616,-0.0,-0.016823170706629753,0.8255187273025513,-0.0,-0.006963769439607859,0.7091789245605469,0.0,0.024852601811289787
413.0,922.0,-0.0586,0.1316,9.6323,-0.0385,0.0177,-0.1174,-1.686448713342184,0.0,2.389110565185547,-2.018232822418213,-0.0,1.8804314136505127,5.156146275788107,-0.0,0.285930335521698,-1.5967376867877405,-0.0,0.0007814104319550097,0.8255146741867065,-0.0,0.0012035442050546408,0.7091788649559021,0.0,0.003391982987523079
413.0,922.0,-0.0586,0.1316,9.6323,-0.0385,0.0177,-0.1174,-1.6864568195738734,0.0,2.3884665966033936,-2.018240213394165,-0.0,1.8782479763031006,5.156186449318685,-0.0,0.2782440483570099,-1.5967419783221644,-0.0,-0.004459964111447334,0.8255667090415955,-0.0,-0.004287430085241795,0.7091911435127258,0.0,0.0019762562587857246
413.0,922.0,-0.0586,0.1316,9.6323,-0.0385,0.0177,-0.1174,-1.6865126095213832,0.0,2.418837070465088,-2.0182244777679443,-0.0,1.8684511184692383,5.156117933779516,-0.0,0.28043800592422485,-1.5967615286456507,-0.0,0.0035610273480415344,0.8255547881126404,-0.0,0.007102925330400467,0.7091385722160339,0.0,0.02386307902634144
413.0,922.0,-0.0586,0.1316,9.6323,-0.0385,0.0177,-0.1174,-1.6864649258055628,0.0,2.4222464561462402,-2.0182721614837646,-0.0,1.9028207063674927,5.15617452838973,-0.0,0.27204757928848267,-1.596733872090475,-0.0,-0.013001256622374058,0.8254343867301941,-0.0,-0.010938574559986591,0.7091307640075684,0.0,-0.012974821962416172
413.0,922.0,-0.0586,0.1316,9.6323,-0.0385,0.0177,-0.1174,-1.6864687405028285,0.0,2.4006662368774414,-2.018256664276123,-0.0,1.941939115524292,5.1561622498329065,-0.0,0.29830202460289,-1.59674579301943,-0.0,-0.0023923548869788647,0.8254302740097046,-0.0,-0.000608064467087388,0.7091466784477234,0.0,-0.041428226977586746
413.0,922.0,-0.0586,0.1316,9.6323,-0.0385,0.0177,-0.1174,-1.686504980126852,0.0,2.4203977584838867,-2.018256664276123,-0.0,1.904144287109375,5.15612621882514,-0.0,0.2846684455871582,-1.596701447163717,-0.0,0.0005129794590175152,0.8254625797271729,-0.0,-0.0035560219548642635,0.709102213382721,0.0,0.06223737820982933
413.0,922.0,-0.0586,0.1316,9.6323,-0.0385,0.0177,-0.1174,-1.68644442180776,0.0,2.4407119750976562,-2.0182368755340576,-0.0,1.9148046970367432,5.156174617796697,-0.0,0.2823939919471741,-1.5967376867877405,-0.0,-0.006453035399317741,0.8254625797271729,-0.0,-0.001710359938442707,0.7091385722160339,0.0,0.040751975029706955
413.0,922.0,-0.0586,0.1316,9.6323,-0.0385,0.0177,-0.1174,-1.686488767663473,0.0,2.396721839904785,-2.018240213394165,-0.0,1.8989708423614502,5.156130301743307,-0.0,0.28918248414993286,-1.5967100302325647,-0.0,-0.013383854180574417,0.8254384398460388,-0.0,0.00020841226796619594,0.7091386318206787,0.0,-0.02825220674276352
425.0,876.0,-0.015,0.1531,9.6485,-0.0348,0.022,-0.1119,-1.686460634271139,0.0,2.4102768898010254,-2.0182247161865234,-0.0,1.837194561958313,5.156154143601217,-0.0,0.2896912395954132,-1.5967538992511194,-0.0,-0.0062973275780677795,0.8254625797271729,-0.0,-0.0042483750730752945,0.7091307640075684,0.0,0.0231911763548851
425.0,876.0,-0.015,0.1531,9.6485,-0.0348,0.022,-0.1119,-1.686476846734518,0.0,2.3611791133880615,-2.01826810836792,-0.0,1.874147653579712,5.156158196717062,-0.0,0.2906365990638733,-1.5967777411090296,-0.0,-0.013249950483441353,0.8254945874214172,-0.0,-0.0039258841425180435,0.7091747522354126,0.0,0.0057418933138251305
425.0,876.0,-0.015,0.1531,9.6485,-0.0348,0.022,-0.1119,-1.6864763698973597,0.0,2.384316921234131,-2.0182442665100098,-0.0,1.890499234199524,5.156146275788107,-0.0,0.28436708450317383,-1.5966857115374964,-0.0,-0.009667174890637398,0.8254745006561279,-0.0,-0.006861655041575432,0.7091952562332153,0.0,0.0049657393246889114
425.0,876.0,-0.015,0.1531,9.6485,-0.0348,0.022,-0.1119,-1.68644442180776,0.0,2.371769905090332,-2.018240213394165,-0.0,1.9181928634643555,5.156122135906973,-0.0,0.28737586736679077,-1.5967214743243616,-0.0,0.004854514263570309,0.8255265951156616,-0.0,0.014254565350711346,0.7091711163520813,0.0,0.008568483404815197
425.0,876.0,-0.015,0.1531,9.6485,-0.0348,0.022,-0.1119,-1.686432500878805,0.0,2.401926040649414,-2.0182762145996094,-0.0,1.8977406024932861,5.156158226519384,-0.0,0.28398433327674866,-1.5967376867877405,-0.0,-0.0068940287455916405,0.8254904747009277,-0.0,-0.0051765949465334415,0.7091225385665894,0.0,-0.0038121063262224197
425.0,876.0,-0.015,0.1531,9.6485,-0.0348,0.022,-0.1119,-1.6864167652525843,0.0,2.4036455154418945,-2.018216371536255,-0.0,1.826099157333374,5.156158166914739,-0.0,0.27960652112960815,-1.5967138449298304,-0.0,-0.005726807285100222,0.8254663348197937,-0.0,-0.0009680002694949508,0.7091467380523682,0.0,-0.020526066422462463
425.0,876.0,-0.015,0.1531,9.6485,-0.0348,0.022,-0.1119,-1.686472555200094,0.0,2.3953051567077637,-2.018216371536255,-0.0,1.9303722381591797,5.156149971276083,-0.0,0.2777585983276367,-1.596733872090475,-0.0,-0.013520537875592709,0.8255383968353271,-0.0,0.012881899252533913,0.7091829776763916,0.0,-0.019047556445002556
425.0,876.0,-0.015,0.1531,9.6485,-0.0348,0.022,-0.1119,-1.6864682636656703,0.0,2.4124655723571777,-2.0181915760040283,-0.0,1.8555302619934082,5.156133967428961,-0.0,0.2855377197265625,-1.596717659627096,-0.0,-0.0075836204923689365,0.8255265355110168,-0.0,-0.002865804824978113,0.7091628909111023,0.0,-0.030631348490715027
425.0,876.0,-0.015,0.1531,9.6485,-0.0348,0.022,-0.1119,-1.6864644489684046,0.0,2.3515872955322266,-2.0182080268859863,-0.0,1.8636181354522705,5.156101989537039,-0.0,0.27974775433540344,-1.5967620054828089,-0.0,-0.0006787533638998866,0.8254704475402832,-0.0,0.010811648331582546,0.7091710567474365,0.0,0.035492025315761566
425.0,876.0,-0.015,0.1531,9.6485,-0.0348,0.022,-0.1119,-1.6864806614317835,0.0,2.394566297531128,-2.0182650089263916,-0.0,1.869192361831665,5.1561704752738855,-0.0,0.29096442461013794,-1.5967257658587855,-0.0,-0.0006841563154011965,0.8254585266113281,-0.0,0.0006675214972347021,0.7091670036315918,0.0,0.011399068869650364
425.0,876.0,-0.015,0.1531,9.6485,-0.0348,0.022,-0.1119,-1.686448713342184,0.0,2.3949735164642334,-2.018228769302368,-0.0,1.8618972301483154,5.156145918160238,-0.0,0.29362785816192627,-1.596733872090475,-0.0,-0.007803997024893761,0.8255023956298828,-0.0,0.006117365323007107,0.7091549634933472,0.0,-0.018502365797758102
425.0,876.0,-0.015,0.1531,9.6485,-0.0348,0.022,-0.1119,-1.686472555200094,0.0,2.417691707611084,-2.01826810836792,-0.0,1.8924723863601685,5.156129914313116,-0.0,0.28133922815322876,-1.5967453161822718,-0.0,-0.01646788977086544,0.8254745006561279,-0.0,-4.4804648496210575e-05,0.7091508507728577,0.0,-0.016665900126099586
425.0,876.0,-0.015,0.1531,9.6485,-0.0348,0.022,-0.1119,-1.6864568195738734,0.0,2.408663272857666,-2.0182886123657227,-0.0,1.892716884613037,5.156154143601217,-0.0,0.287763774394989,-1.5967820326434534,-0.0,-0.0022131092846393585,0.8254666328430176,-0.0,0.005168667994439602,0.7091625332832336,0.0,-0.02047072723507881
425.0,876.0,-0.015,0.1531,9.6485,-0.0348,0.022,-0.1119,-1.6864286861815394,0.0,2.388016700744629,-2.0182764530181885,-0.0,1.9124653339385986,5.156166332751074,-0.0,0.2848897874355316,-1.5967820326434534,-0.0,0.0018707667477428913,0.8254462480545044,-0.0,0.0033830422908067703,0.7091302871704102,0.0,0.04384685307741165
425.0,876.0,-0.015,0.1531,9.6485,-0.0348,0.022,-0.1119,-1.6864530048766078,0.0,2.3855209350585938,-2.01826810836792,-0.0,1.889519214630127,5.156122553139486,-0.0,0.2872118651866913,-1.5967581907855433,-0.0,-0.012867821380496025,0.8255143165588379,-0.0,-0.013688474893569946,0.7091788649559021,0.0,0.058678038418293
425.0,876.0,-0.015,0.1531,9.6485,-0.0348,0.022,-0.1119,-1.686432500878805,0.0,2.3822708129882812,-2.018264055252075,-0.0,1.891129732131958,5.156142222672262,-0.0,0.28111758828163147,-1.5967534224139612,-0.0,-0.00665393378585577,0.8254785537719727,-0.0,0.0030218465253710747,0.7091628909111023,0.0,0.006581985857337713
431.0,883.0,0.1017,0.402,9.463,-0.0191,0.0206,-0.1174,-1.686432500878805,0.0,2.4012677669525146,-2.018264055252075,-0.0,1.8583413362503052,5.15612621882514,-0.0,0.28140902519226074,-1.596729580556051,-0.0,0.0019123852252960205,0.825579047203064,-0.0,-0.0014655586564913392,0.7091426253318787,0.0,0.018438315019011497
431.0,883.0,0.1017,0.402,9.463,-0.0191,0.0206,-0.1174,-1.6864367924132289,0.0,2.3678531646728516,-2.018280506134033,-0.0,1.890122652053833,5.156162309437551,-0.0,0.29337823390960693,-1.59674579301943,-0.0,-0.010793696157634258,0.8255347609519958,-0.0,-0.011829138733446598,0.709191083908081,0.0,0.012909265235066414
431.0,883.0,0.1017,0.402,9.463,-0.0191,0.0206,-0.1174,-1.6864687405028285,0.0,2.383349657058716,-2.0182721614837646,-0.0,1.9133328199386597,5.156122135906973,-0.0,0.2781922221183777,-1.5967496077166956,-0.0,-0.00695254560559988,0.8254666328430176,-0.0,-0.0052233850583434105,0.7091705799102783,0.0,0.023768402636051178
431.0,883.0,0.1017,0.402,9.463,-0.0191,0.0206,-0.1174,-1.68644442180776,0.0,2.3641998767852783,-2.0182721614837646,-0.0,1.8847477436065674,5.156142282276907,-0.0,0.27527427673339844,-1.5967496077166956,-0.0,-0.030879490077495575,0.8254503607749939,-0.0,-0.0018588370876386762,0.7092030644416809,0.0,-0.005911783315241337
431.0,883.0,0.1017,0.402,9.463,-0.0191,0.0206,-0.1174,-1.686448713342184,0.0,2.3855409622192383,-2.0182929039001465,-0.0,1.838247299194336,5.156158226519384,-0.0,0.2843928933143616,-1.5967376867877405,-0.0,-0.0054868897423148155,0.8254703879356384,-0.0,-0.002607567235827446,0.7092273831367493,0.0,0.024091878905892372
431.0,883.0,0.1017,0.402,9.463,-0.0191,0.0206,-0.1174,-1.6864525280394496,0.0,2.400273323059082,-2.0182929039001465,-0.0,1.936708688735962,5.156110214978018,-0.0,0.29167503118515015,-1.596757713948385,-0.0,0.00467176316305995,0.8254745006561279,-0.0,-0.010949043557047844,0.7091706991195679,0.0,-0.01387098990380764
431.0,883.0,0.1017,0.402,9.463,-0.0191,0.0206,-0.1174,-1.6864763698973597,0.0,2.384702682495117,-2.018296957015991,-0.0,1.9131847620010376,5.156154143601217,-0.0,0.27862557768821716,-1.5967376867877405,-0.0,-0.0010447357781231403,0.8255023956298828,-0.0,-0.007525322027504444,0.7091307044029236,0.0,0.02223234996199608
431.0,883.0,0.1017,0.402,9.463,-0.0191,0.0206,-0.1174,-1.6864406071104945,0.0,2.4048540592193604,-2.018256664276123,-0.0,1.8756476640701294,5.156146305590429,-0.0,0.2838138937950134,-1.5967620054828089,-0.0,-0.015206774696707726,0.8255065083503723,-0.0,0.0048174685798585415,0.7091385126113892,0.0,-0.01115688681602478
431.0,883.0,0.1017,0.402,9.463,-0.0191,0.0206,-0.1174,-1.6864930591978968,0.0,2.399684190750122,-2.0182607173919678,-0.0,1.8956032991409302,5.156150388508596,-0.0,0.28248706459999084,-1.5967777411090296,-0.0,-0.002137958537787199,0.8254462480545044,-0.0,-0.007052164059132338,0.709182858467102,0.0,0.012374768033623695
431.0,883.0,0.1017,0.402,9.463,-0.0191,0.0206,-0.1174,-1.6864406071104945,0.0,2.3799798488616943,-2.0182442665100098,-0.0,1.8945503234863281,5.156154143601217,-0.0,0.28541433811187744,-1.5967534224139612,-0.0,-0.00929945893585682,0.8254823684692383,-0.0,0.005889101419597864,0.7091464400291443,0.0,0.012248590588569641
431.0,883.0,0.1017,0.402,9.463,-0.0191,0.0206,-0.1174,-1.6864687405028285,0.0,2.3721225261688232,-2.0182485580444336,-0.0,1.8860132694244385,5.156110214978018,-0.0,0.28085488080978394,-1.5967581907855433,-0.0,-0.008334011770784855,0.8254462480545044,-0.0,-0.014226168394088745,0.7092191576957703,0.0,0.018124666064977646
431.0,883.0,0.1017,0.402,9.463,-0.0191,0.0206,-0.1174,-1.6864086590208949,0.0,2.385666847229004,-2.018280506134033,-0.0,1.8676598072052002,5.1561704752738855,-0.0,0.284945547580719,-1.5967939535724085,-0.0,-0.0009771648328751326,0.8254704475402832,-0.0,0.004392073955386877,0.7091952562332153,0.0,0.023775963112711906
431.0,883.0,0.1017,0.402,9.463,-0.0191,0.0206,-0.1174,-1.6864892445006312,0.0,2.3947103023529053,-2.0182526111602783,-0.0,1.88206148147583,5.156125831394949,-0.0,0.294295072555542,-1.5967662970172327,-0.0,-0.011315209791064262,0.8254782557487488,-0.0,0.0036683077923953533,0.7091870307922363,0.0,-0.0013197348453104496
431.0,883.0,0.1017,0.402,9.463,-0.0191,0.0206,-0.1174,-1.686448713342184,0.0,2.4003570079803467,-2.018235921859741,-0.0,1.8838175535202026,5.1561098275478265,-0.0,0.28870099782943726,-1.5967896620379847,-0.0,-0.014253060333430767,0.8254785537719727,-0.0,-0.0014169432688504457,0.7091747522354126,0.0,-0.04252658784389496
431.0,883.0,0.1017,0.402,9.463,-0.0191,0.0206,-0.1174,-1.68644442180776,0.0,2.411868095397949,-2.018235921859741,-0.0,1.910348653793335,5.156170505076208,-0.0,0.28117212653160095,-1.5967662970172327,-0.0,-0.013266542926430702,0.8254704475402832,-0.0,-0.0017403706442564726,0.709214985370636,0.0,-0.024242550134658813
431.0,883.0,0.1017,0.402,9.463,-0.0191,0.0206,-0.1174,-1.686432500878805,0.0,2.3792245388031006,-2.018273115158081,-0.0,1.9009114503860474,5.156149971276083,-0.0,0.28362393379211426,-1.5967620054828089,-0.0,-0.014246189966797829,0.8254945874214172,-0.0,0.004265077877789736,0.7091583609580994,0.0,0.026510562747716904
431.0,883.0,0.1017,0.402,9.463,-0.0191,0.0206,-0.1174,-1.6864367924132289,0.0,2.3615400791168213,-2.0182762145996094,-0.0,1.8363605737686157,5.1562024531658075,-0.0,0.2927335202693939,-1.596802059804098,-0.0,0.002386363223195076,0.825486421585083,-0.0,0.0032787108793854713,0.709219217300415,7.820056634955108e-05,-0.04281839728355408
427.0,885.0,-0.0526,0.1836,9.4756,-0.0454,0.0269,-0.1164,-1.6864124737181605,0.0,2.448798179626465,-2.0182318687438965,-0.0,1.9036192893981934,5.156170445471563,-0.0,0.29215216636657715,-1.5967896620379847,-0.0,-1.629692269489169e-05,0.8254904747009277,-0.0,0.0033434522338211536,0.7091988921165466,7.436333544319496e-05,0.024345681071281433
427.0,885.0,-0.0526,0.1836,9.4756,-0.0454,0.0269,-0.1164,-1.6864124737181605,0.0,2.3708629608154297,-2.0182204246520996,-0.0,1.9014134407043457,5.156182306795873,-0.0,0.27459171414375305,-1.5967939535724085,-0.0,-0.008611784316599369,0.8254462480545044,-0.0,0.0018128599040210247,0.7091866135597229,8.445575804216787e-05,-0.01997070387005806
427.0,885.0,-0.0526,0.1836,9.4756,-0.0454,0.0269,-0.1164,-1.68642057994985,0.0,2.356412410736084,-2.0182442665100098,-0.0,1.9302982091903687,5.156166302948751,-0.0,0.2949337363243103,-1.5967052618609827,-0.0,0.011320695281028748,0.8255023956298828,-0.0,-0.0006666589179076254,0.709174633026123,8.242551848525181e-05,-0.052138082683086395
427.0,885.0,-0.0526,0.1836,9.4756,-0.0454,0.0269,-0.1164,-1.686460634271139,0.0,2.3858566284179688,-2.018264055252075,-0.0,1.8928959369659424,5.156158226519384,-0.0,0.288290798664093,-1.5967701117144983,-0.0,0.003145397175103426,0.8255023956298828,-0.0,-0.007863354869186878,0.7091947793960571,7.88165198173374e-05,-0.010410869494080544
427.0,885.0,-0.0526,0.1836,9.4756,-0.0454,0.0269,-0.1164,-1.6864329777159632,0.0,2.3948707580566406,-2.0182080268859863,-0.0,1.941072940826416,5.156158196717062,-0.0,0.27846622467041016,-1.5967777411090296,-0.0,-0.011920646764338017,0.8254983425140381,-0.0,-0.0037106620147824287,0.7091870307922363,8.809511928120628e-05,-0.0308062881231308
427.0,885.0,-0.0526,0.1836,9.4756,-0.0454,0.0269,-0.1164,-1.6864286861815394,0.0,2.3720695972442627,-2.0182483196258545,-0.0,1.8865749835968018,5.156130301743307,-0.0,0.28121429681777954,-1.596825901662008,-0.0,-0.008705013431608677,0.8254904747009277,-0.0,-0.0021790892351418734,0.7092394232749939,9.665854304330423e-05,-0.0022756047546863556
427.0,885.0,-0.0526,0.1836,9.4756,-0.0454,0.0269,-0.1164,-1.686460634271139,0.0,2.4141738414764404,-2.018325090408325,-0.0,1.8865820169448853,5.156106161862173,-0.0,0.2771606147289276,-1.5968297163592737,-0.0,0.0018975662533193827,0.8254942893981934,-0.0,-0.010904672555625439,0.7091505527496338,0.00025614077458158135,-0.062161918729543686
427.0,885.0,-0.0526,0.1836,9.4756,-0.0454,0.0269,-0.1164,-1.686448713342184,0.0,2.3998570442199707,-2.0182607173919678,-0.0,1.8589781522750854,5.156142222672262,-0.0,0.2775178551673889,-1.5968177954303187,-0.0,-0.01548765692859888,0.8255102634429932,-0.0,0.011391260661184788,0.7092188596725464,0.000693894166033715,-0.013489584438502789
427.0,885.0,-0.0526,0.1836,9.4756,-0.0454,0.0269,-0.1164,-1.6864763698973597,0.0,2.4047718048095703,-2.0182080268859863,-0.0,1.8369996547698975,5.156101989537039,-0.0,0.2762947976589203,-1.5967977682696741,-0.0,-0.01288611814379692,0.8255584836006165,-0.0,-0.00558130070567131,0.7092510461807251,0.0009189188131131232,0.011971388012170792
427.0,885.0,-0.0526,0.1836,9.4756,-0.0454,0.0269,-0.1164,-1.6864568195738734,0.0,2.350999355316162,-2.018273115158081,-0.0,1.901597023010254,5.156077909260549,-0.0,0.28880390524864197,-1.5968096891986292,-0.0,-0.007538176141679287,0.8255023956298828,-0.0,0.0048240674659609795,0.709234893321991,0.0013634864008054137,0.05370771512389183
427.0,885.0,-0.0526,0.1836,9.4756,-0.0454,0.0269,-0.1164,-1.6864525280394496,0.0,2.3528707027435303,-2.0182721614837646,-0.0,1.865294098854065,5.156146275788107,-0.0,0.2854222357273102,-1.5967777411090296,-0.0,-0.004671063274145126,0.8255383968353271,-0.0,0.0014500769320875406,0.7092387080192566,0.0019421913893893361,-0.0045456839725375175
427.0,885.0,-0.0526,0.1836,9.4756,-0.0454,0.0269,-0.1164,-1.686432500878805,0.0,2.4069056510925293,-2.0182042121887207,-0.0,1.9077543020248413,5.1561582563217065,-0.0,0.28269103169441223,-1.5968135038958948,-0.0,-0.013231056742370129,0.8255061507225037,-0.0,-0.002462998265400529,0.7092585563659668,0.002199482871219516,-0.009201145730912685
427.0,885.0,-0.0526,0.1836,9.4756,-0.0454,0.0269,-0.1164,-1.686476846734518,0.0,2.4038007259368896,-2.0182278156280518,-0.0,1.9321422576904297,5.1561061320598505,-0.0,0.28555944561958313,-1.5967820326434534,-0.0,-0.02092694118618965,0.8255667686462402,-0.0,0.0022684724535793066,0.7092909812927246,0.002734727691859007,0.0016729501076042652
427.0,885.0,-0.0526,0.1836,9.4756,-0.0454,0.0269,-0.1164,-1.6864568195738734,0.0,2.3420963287353516,-2.0182721614837646,-0.0,1.8705661296844482,5.156158315926351,-0.0,0.28147000074386597,-1.596773926411764,-0.0,-0.008169419132173061,0.8255224227905273,-0.0,0.002091800794005394,0.7092382907867432,0.003296687500551343,0.04355943948030472
427.0,885.0,-0.0526,0.1836,9.4756,-0.0454,0.0269,-0.1164,-1.686460634271139,0.0,2.3845622539520264,-2.018252372741699,-0.0,1.9051587581634521,5.156122135906973,-0.0,0.2731064260005951,-1.5968096891986292,-0.0,-0.017122361809015274,0.8255183696746826,-0.0,-0.002690317574888468,0.7093429565429688,0.004555696155875921,0.025608183816075325
427.0,885.0,-0.0526,0.1836,9.4756,-0.0454,0.0269,-0.1164,-1.6864849529662074,0.0,2.3395395278930664,-2.018216371536255,-0.0,1.8624894618988037,5.156154531031408,-0.0,0.28100261092185974,-1.5967777411090296,-0.0,-0.015120428055524826,0.8255503177642822,-0.0,0.003250794019550085,0.7093066573143005,0.0070626400411129,0.054324671626091
418.0,904.0,0.1184,-0.1358,9.53,-0.0438,0.0189,-0.1014,-1.686516901055807,0.0,2.371454954147339,-2.018284559249878,-0.0,1.8752741813659668,5.156142580300131,-0.0,0.26852551102638245,-1.5968058745013636,-0.0,-0.0104999840259552,0.8255060911178589,-0.0,0.00026034328038804233,0.7093908190727234,0.008840782567858696,0.0833764597773552
418.0,904.0,0.1184,-0.1358,9.53,-0.0438,0.0189,-0.1014,-1.6865326366820277,-0.00021268482669256628,2.363508701324463,-2.0182442665100098,-0.0,1.9299626350402832,5.156090217619695,-0.0004505431861616671,0.28284597396850586,-1.5968335310565394,-0.0,-0.020864203572273254,0.8255541324615479,-0.0,0.005694085266441107,0.7094789743423462,0.012183965183794498,0.08065144717693329
418.0,904.0,0.1184,-0.1358,9.53,-0.0438,0.0189,-0.1014,-1.686545034448141,-0.00025472414563409984,2.2817749977111816,-2.0182275772094727,-0.0,1.8844447135925293,5.15610625126914,-0.0007592422771267593,0.25812026858329773,-1.596837345753805,-0.0,-0.023738011717796326,0.8255864381790161,-0.0,0.006873142905533314,0.7095427513122559,0.016353804618120193,0.11328092217445374
418.0,904.0,0.1184,-0.1358,9.53,-0.0438,0.0189,-0.1014,-1.686528821984762,-0.0006254242616705596,2.3014721870422363,-2.01826810836792,-0.0,1.921382188796997,5.156102049141683,-0.0006507444195449352,0.2640745937824249,-1.5968101660357874,-4.242946438637318e-09,-0.047493934631347656,0.8255741596221924,-0.0,0.0032120980322360992,0.7095903754234314,0.019824065268039703,0.19300784170627594
418.0,904.0,0.1184,-0.1358,9.53,-0.0438,0.0189,-0.1014,-1.6864639721312464,-0.000530886638443917,2.3356974124908447,-2.018235921859741,-0.0,1.8767094612121582,5.156066375761785,-0.0006099437596276402,0.2549924850463867,-1.596825901662008,-1.181039749505175e-12,-0.03715630993247032,0.8256058692932129,-0.0,0.01976211741566658,0.7097627520561218,0.024731187149882317,0.22138726711273193
418.0,904.0,0.1184,-0.1358,9.53,-0.0438,0.0189,-0.1014,-1.6864882908263148,-0.0004773063992615789,2.3152358531951904,-2.018325090408325,-0.0,1.9112420082092285,5.156070458679952,-0.0006437823758460581,0.25831079483032227,-1.596837345753805,-3.287466952494152e-16,-0.035428110510110855,0.8256381750106812,-0.0,0.0002074204385280609,0.7099307179450989,0.030212508514523506,0.21194791793823242
418.0,904.0,0.1184,-0.1358,9.53,-0.0438,0.0189,-0.1014,-1.686528821984762,-0.0003895540430676192,2.2780380249023438,-2.0182409286499023,-0.0,1.9193997383117676,5.156066375761785,-0.0008026722935028374,0.24259360134601593,-1.5967896620379847,-9.15078569277017e-20,-0.04204196110367775,0.8255820274353027,0.00011994997475994751,0.024751469492912292,0.7101189494132996,0.03502151370048523,0.22603169083595276
418.0,904.0,0.1184,-0.1358,9.53,-0.0438,0.0189,-0.1014,-1.686460634271139,-0.000346675660694018,2.269449234008789,-2.018256664276123,-0.0,1.9138847589492798,5.15607042887763,-0.0007718271808698773,0.2401600182056427,-1.5968220869647425,-3.9011234161129644e-22,-0.05120434612035751,0.8255696892738342,0.00012152856652392074,0.02694239467382431,0.7102463841438293,0.039088670164346695,0.2582579255104065
418.0,904.0,0.1184,-0.1358,9.53,-0.0438,0.0189,-0.1014,-1.6865250072874964,-0.00032541490509174764,2.2886877059936523,-2.0182442665100098,-0.0,1.9186668395996094,5.156086462527075,-0.0009770311880856752,0.24179846048355103,-1.5968096891986292,-1.0858920577185602e-25,-0.0462862104177475,0.8255939483642578,0.00013474287698045373,0.023939140141010284,0.7105269432067871,0.043636955320835114,0.278516560792923
418.0,904.0,0.1184,-0.1358,9.53,-0.0438,0.0189,-0.1014,-1.6865164242186488,-0.00029785113292746246,2.2548139095306396,-2.018264055252075,-0.0,1.949554681777954,5.156046616822042,-0.0016183322295546532,0.2270839810371399,-1.5968058745013636,-3.0226203576366124e-29,-0.05493897944688797,0.8256099224090576,0.00014505312719848007,0.027455102652311325,0.710827112197876,0.047861579805612564,0.2946992516517639
418.0,904.0,0.1184,-0.1358,9.53,-0.0438,0.0189,-0.1014,-1.686528821984762,-0.0002554541570134461,2.2326574325561523,-2.018280506134033,-0.0,1.8879940509796143,5.155982243805685,-0.002074029529467225,0.23317688703536987,-1.596854035054342,-8.413575102071599e-33,-0.06343576312065125,0.8255939483642578,0.00015628981054760516,0.0342535674571991,0.7110745906829834,0.05182267352938652,0.32731279730796814
418.0,904.0,0.1184,-0.1358,9.53,-0.0438,0.0189,-0.1014,-1.6865207157530726,-0.0002983029989991337,2.255927324295044,-2.0182764530181885,-0.0,1.946566104888916,5.156018364220419,-0.003949384670704603,0.23001903295516968,-1.59682542482485,-2.34194954182254e-36,-0.06700433790683746,0.8256140351295471,0.00026160795823670924,0.04255160316824913,0.7113987803459167,0.05385584011673927,0.3662850856781006
418.0,904.0,0.1184,-0.1358,9.53,-0.0438,0.0189,-0.1014,-1.686512132684225,-0.0006559050525538623,2.2696712017059326,-2.018256664276123,-0.0,1.9194716215133667,5.156006949930944,-0.0081174960359931,0.2288902997970581,-1.596830193196432,-9.984097415483246e-39,-0.06751266121864319,0.8256503939628601,0.0003139729960821569,0.0404185950756073,0.7116513252258301,0.057331908494234085,0.3659798502922058
418.0,904.0,0.1184,-0.1358,9.53,-0.0438,0.0189,-0.1014,-1.6865245304503382,-0.000666557636577636,2.2104709148406982,-2.0182886123657227,-0.0,1.9159445762634277,5.155911105662145,-0.01488694828003645,0.22133567929267883,-1.5968101660357874,-2.7787748547561123e-42,-0.06368257105350494,0.825602114200592,0.00031771266367286444,0.036632437258958817,0.7119823098182678,0.060909442603588104,0.40466195344924927
418.0,904.0,0.1184,-0.1358,9.53,-0.0438,0.0189,-0.1014,-1.686500688592428,-0.0007091223378665745,2.2447140216827393,-2.0182721614837646,-0.0,1.9308996200561523,5.155851173191824,-0.01363015454262495,0.2085004448890686,-1.5968659559832972,-1.401298464324817e-45,-0.07563011348247528,0.8257303833961487,0.0003156432940158993,0.04236983507871628,0.7124192118644714,0.06237253174185753,0.4508765935897827
418.0,904.0,0.1184,-0.1358,9.53,-0.0438,0.0189,-0.1014,-1.686540266076559,-0.0006820493144914508,2.219167709350586,-2.0181965827941895,-0.0,1.9076948165893555,5.155815499811926,-0.0074081942439079285,0.2174435406923294,-1.5968459288226526,-0.000126363942399621,-0.08474434167146683,0.8255975842475891,0.00046364066656678915,0.04439333453774452,0.7127504944801331,0.06410615146160126,0.4882752001285553
418.0,904.0,0.1184,-0.1358,9.53,-0.0438,0.0189,-0.1014,-1.686528821984762,-0.0007676071836613119,2.176743984222412,-2.018256664276123,-0.0,1.9300251007080078,5.15579508522109,-0.002898203209042549,0.20335182547569275,-1.596882168446676,-0.00011990163329755887,-0.08470948040485382,0.8256216645240784,0.00045303168008103967,0.055669333785772324,0.7130424380302429,0.06724254041910172,0.5331206917762756
420.0,886.0,0.1454,-0.2237,9.5246,-0.0348,0.0037,-0.0509,-1.6865765057005824,-0.0010678002145141363,2.155538558959961,-2.0182368755340576,-0.0,1.970729112625122,5.155774938851156,-0.0007915314054116607,0.2073073387145996,-1.5968459288226526,-0.00013322601444087923,-0.0823238343000412,0.8256418704986572,0.00043575133895501494,0.06167762726545334,0.7134259939193726,0.07339517027139664,0.5664990544319153
420.0,886.0,0.1454,-0.2237,9.5246,-0.0348,0.0037,-0.0509,-1.686552187005514,-0.0015243705129250884,2.1875951290130615,-2.018273115158081,-0.0,1.9148117303848267,5.155763494759359,-0.0001424568035872653,0.20667964220046997,-1.5968335310565394,-0.00014463302795775235,-0.08418528735637665,0.8255935311317444,0.0004267828189767897,0.06333907693624496,0.7139142155647278,0.08202730119228363,0.5354645252227783
420.0,886.0,0.1454,-0.2237,9.5246,-0.0348,0.0037,-0.0509,-1.686552187005514,-0.0020548012107610703,2.1552066802978516,-2.0182607173919678,-0.0,1.927049994468689,5.155799555569448,-9.483976464252919e-05,0.21012064814567566,-1.5968659559832972,-0.00013539419160224497,-0.08983093500137329,0.8256258964538574,0.0003991456760559231,0.05913234502077103,0.7144664525985718,0.09690045565366745,0.5797392725944519
420.0,886.0,0.1454,-0.2237,9.5246,-0.0348,0.0037,-0.0509,-1.686540266076559,-0.0023277183063328266,2.1232728958129883,-2.0182368755340576,-0.0,1.9557037353515625,5.1557148275669,-7.831153925508261e-05,0.19286522269248962,-1.5968292395221155,-0.0001298142015002668,-0.08991797268390656,0.8256258964538574,0.00039787162677384913,0.06779083609580994,0.714874267578125,0.10701547563076019,0.6211321949958801
420.0,886.0,0.1454,-0.2237,9.5246,-0.0348,0.0037,-0.0509,-1.6866289577879847,-0.002972520887851715,2.156554937362671,-2.018216371536255,-0.0,1.9189229011535645,5.15577124336318,-0.00012413738295435905,0.20089572668075562,-1.5968659559832972,-0.00012225659156683832,-0.10277451574802399,0.8256377577781677,0.0003400117566343397,0.05920296534895897,0.7155706286430359,0.11944247782230377,0.6520336866378784
420.0,886.0,0.1454,-0.2237,9.5246,-0.0348,0.0037,-0.0509,-1.6866089306273402,-0.003809890476986766,2.127636671066284,-2.018245220184326,0.00024413579376414418,1.9403749704360962,5.155727016716757,-0.00015075178816914558,0.18977290391921997,-1.5968659559832972,-0.00011553056538105011,-0.09988007694482803,0.8255894184112549,0.00033440906554460526,0.07833169400691986,0.7163504958152771,0.13212396204471588,0.6559333205223083
420.0,886.0,0.1454,-0.2237,9.5246,-0.0348,0.0037,-0.0509,-1.6865879497923792,-0.004367929883301258,2.1483335494995117,-2.018256425857544,0.000209963065572083,1.935800313949585,5.155763494759359,-0.00017573540390003473,0.19307303428649902,-1.596858326588766,-0.00010950608702842146,-0.1082441434264183,0.8255893588066101,0.0002935139636974782,0.0508560910820961,0.717166006565094,0.14336134493350983,0.69344162940979
420.0,886.0,0.1454,-0.2237,9.5246,-0.0348,0.0037,-0.0509,-1.6866852245726527,-0.004495969042181969,2.139047622680664,-2.018195867538452,0.00023044236877467483,1.9178962707519531,5.155739325075903,-0.00032928562723100185,0.1906910389661789,-1.5968616644488733,-0.00010582707182038575,-0.10389666259288788,0.8255496621131897,0.0002542449801694602,0.044909436255693436,0.7177256941795349,0.15050095319747925,0.7473974227905273
420.0,886.0,0.1454,-0.2237,9.5246,-0.0348,0.0037,-0.0509,-1.6866432629027308,-0.00411625299602747,2.1440443992614746,-2.0182650089263916,0.00020429289725143462,1.9450280666351318,5.155739325075903,-0.0011564509477466345,0.2009430229663849,-1.5968216101275843,-0.00010074984311359003,-0.10313040763139725,0.8256582617759705,0.00021710392320528626,0.07073917984962463,0.7187139391899109,0.15296050906181335,0.698491096496582
420.0,886.0,0.1454,-0.2237,9.5246,-0.0348,0.0037,-0.0509,-1.6867605648436488,-0.004072730429470539,2.135652542114258,-2.0182082653045654,0.00018346915021538734,1.9248045682907104,5.155706989556112,-0.001746780821122229,0.19287511706352234,-1.596842114125387,-9.613759175408632e-05,-0.08889307081699371,0.8256299495697021,0.00018964764603879303,0.06358286738395691,0.7196700572967529,0.1615702211856842,0.7030566930770874
420.0,886.0,0.1454,-0.2237,9.5246,-0.0348,0.0037,-0.0509,-1.6867810688414515,-0.003608708269894123,2.125375986099243,-2.018188238143921,0.00016649811004754156,1.9494571685791016,5.155695158034124,-0.002106170170009136,0.19786381721496582,-1.5968897978412073,-0.00010168122389586642,-0.11360402405261993,0.8255975842475891,0.00020086337462998927,0.06397426873445511,0.7206335663795471,0.17312610149383545,0.7200155258178711
420.0,886.0,0.1454,-0.2237,9.5246,-0.0348,0.0037,-0.0509,-1.6867286167540492,-0.0025384495966136456,2.1194372177124023,-2.018195629119873,0.00015240092761814594,1.9498097896575928,5.155683237105169,-0.0020879076328128576,0.20463845133781433,-1.5968220869647425,-0.00010065452079288661,-0.10917661339044571,0.8256217241287231,0.0001816390868043527,0.05538943409919739,0.7217255234718323,0.18444371223449707,0.7271701097488403
420.0,886.0,0.1454,-0.2237,9.5246,-0.0348,0.0037,-0.0509,-1.6867648563780726,-0.0016841453034430742,2.0911407470703125,-2.0182204246520996,0.00014425322297029197,1.9572588205337524,5.155699240952291,-0.002005314687266946,0.20268525183200836,-1.5968502203570765,-9.791774937184528e-05,-0.10260312259197235,0.8255976438522339,0.00017018866492435336,0.06290954351425171,0.722477376461029,0.19342690706253052,0.7345890402793884
420.0,886.0,0.1454,-0.2237,9.5246,-0.0348,0.0037,-0.0509,-1.6868049106993617,-0.0008975251112133265,2.1456844806671143,-2.018235921859741,0.00015550694661214948,1.964157223701477,5.155703294068136,-0.0013759623980149627,0.19823086261749268,-1.596837345753805,-8.309743134304881e-05,-0.11021904647350311,0.8256303668022156,0.00015548609371762723,0.07846519351005554,0.7236611843109131,0.1997535228729248,0.7679734826087952
420.0,886.0,0.1454,-0.2237,9.5246,-0.0348,0.0037,-0.0509,-1.6867686710753382,-0.0005986320902593434,2.1356043815612793,-2.0182368755340576,0.00019285696907900274,1.928401231765747,5.155646848469534,-0.0008440508972853422,0.1783471405506134,-1.5968220869647425,-7.921453652670607e-05,-0.1130334660410881,0.8256582617759705,0.00014312220446299762,0.0663372129201889,0.7248807549476624,0.20556682348251343,0.8337019085884094
420.0,886.0,0.1454,-0.2237,9.5246,-0.0348,0.0037,-0.0509,-1.6867648563780726,-0.00044921188964508474,2.1608285903930664,-2.018184185028076,0.0015054041286930442,1.977083444595337,5.155695545464315,-0.0005748620606027544,0.1834912747144699,-1.5968053976642054,-7.63348798500374e-05,-0.09799260646104813,0.8256222009658813,0.00013257961836643517,0.07484349608421326,0.7261777520179749,0.2136111855506897,0.8078508377075195
476.0,884.0,-0.5037,-1.3322,9.7179,-0.0399,0.0498,0.1287,-1.6867567501463832,-0.00044898423948325217,2.106234073638916,-2.0181727409362793,0.0019103862578049302,1.9246912002563477,5.155695128231802,-0.00047383675700984895,0.1862088441848755,-1.5967977682696741,-7.452885620296001e-05,-0.11549637466669083,0.8256180286407471,0.00012637398322112858,0.04868105426430702,0.7270087003707886,0.21929527819156647,0.7699350118637085
476.0,884.0,-0.5037,-1.3322,9.7179,-0.0399,0.0498,0.1287,-1.6868001423277796,-0.0004165219725109637,2.14202880859375,-2.0181686878204346,0.002202549483627081,1.9247668981552124,5.155703294068136,-0.0003750270407181233,0.19519522786140442,-1.5968454519854944,-7.197447121143341e-05,-0.10689861327409744,0.8256542086601257,0.00011808318231487647,0.06207247078418732,0.7284525632858276,0.22914372384548187,0.75397789478302
476.0,884.0,-0.5037,-1.3322,9.7179,-0.0399,0.0498,0.1287,-1.6868201694884242,-0.002211057348176837,2.118429183959961,-2.0181562900543213,0.0028645803686231375,1.9732065200805664,5.155703323870458,-0.00031033484265208244,0.18445083498954773,-1.5968177954303187,-6.958946323720738e-05,-0.10241928696632385,0.8256340026855469,0.00011081341654062271,0.0697062611579895,0.7298642992973328,0.24042336642742157,0.8518807888031006
476.0,884.0,-0.5037,-1.3322,9.7179,-0.0399,0.0498,0.1287,-1.6868201694884242,-0.0024909384083002806,2.151059627532959,-2.0180838108062744,0.003906877711415291,1.9563138484954834,5.155663180142202,-0.0003086914657615125,0.20275253057479858,-1.5967939535724085,-1.9370480330849205e-08,-0.09495662152767181,0.825637698173523,0.00010438685421831906,0.07416972517967224,0.7313759922981262,0.250167578458786,0.8102208375930786
476.0,884.0,-0.5037,-1.3322,9.7179,-0.0399,0.0498,0.1287,-1.686840673486227,-0.0027807175647467375,2.0810701847076416,-2.0180962085723877,0.004297422710806131,1.9511405229568481,5.155707436590948,-0.00031864989432506263,0.20472592115402222,-1.5968058745013636,-8.257940858902302e-11,-0.09651243686676025,0.8256222009658813,0.00010050131822936237,0.053787730634212494,0.7324009537696838,0.2522401213645935,0.7875399589538574
476.0,884.0,-0.5037,-1.3322,9.7179,-0.0399,0.0498,0.1287,-1.6868840656676234,-0.003027211409062147,2.1371188163757324,-2.018068313598633,0.004131962079554796,1.9645389318466187,5.155671316176214,-0.0002450888860039413,0.18069180846214294,-1.5967658201800745,-2.863131885533221e-05,-0.091682568192482,0.8256418704986572,9.518652223050594e-05,0.05191120505332947,0.733875036239624,0.2576375901699066,0.7850943803787231
476.0,884.0,-0.5037,-1.3322,9.7179,-0.0399,0.0498,0.1287,-1.6868888340392054,-0.003531278343871236,2.149461269378662,-2.018101215362549,0.004134904593229294,1.9630229473114014,5.155639636307516,-0.00028641222161240876,0.18949702382087708,-1.5967820326434534,-2.6421672373544425e-05,-0.10884647816419601,0.8256222009658813,9.040567965712398e-05,0.05500347167253494,0.7355033159255981,0.2689847946166992,0.8123779296875
476.0,884.0,-0.5037,-1.3322,9.7179,-0.0399,0.0498,0.1287,-1.6869126758971156,-0.0033028600737452507,2.1341910362243652,-2.0180163383483887,0.003467923030257225,1.912919044494629,5.155635642796316,-0.0005250365938991308,0.1974239945411682,-1.5967896620379847,-2.5306972020189278e-05,-0.10117635130882263,0.8256335854530334,8.608217467553914e-05,0.057744476944208145,0.7371390461921692,0.27843302488327026,0.857617199420929
476.0,884.0,-0.5037,-1.3322,9.7179,-0.0399,0.0498,0.1287,-1.68687166790151,-0.0027747685089707375,2.1267740726470947,-2.0179965496063232,0.003341175615787506,1.9245667457580566,5.155671345978536,-0.00044059951324015856,0.200679212808609,-1.5967977682696741,-2.461484655214008e-05,-0.10326084494590759,0.825637698173523,8.342247019754723e-05,0.04688256233930588,0.738254725933075,0.2802754342556,0.8637197017669678
476.0,884.0,-0.5037,-1.3322,9.7179,-0.0399,0.0498,0.1287,-1.6869241199889125,-0.0025179306976497173,2.1198525428771973,-2.018017292022705,0.0040284194983541965,1.9521273374557495,5.155647235899725,-0.0004061650834046304,0.19193270802497864,-1.5968216101275843,-2.364480860705953e-05,-0.10020499676465988,0.8255857825279236,7.972745515871793e-05,0.06003011018037796,0.7399703860282898,0.2875959873199463,0.8031529188156128
476.0,884.0,-0.5037,-1.3322,9.7179,-0.0399,0.0498,0.1287,-1.6869684658446253,-0.003127274801954627,2.135446071624756,-2.0180203914642334,0.005048785358667374,1.9110028743743896,5.155651318817892,-0.00042883915011771023,0.19560351967811584,-1.5967581907855433,-2.2748361516278237e-05,-0.09033075720071793,0.8256904482841492,7.634583016624674e-05,0.06365961581468582,0.7417141199111938,0.30679336190223694,0.8500526547431946
476.0,884.0,-0.5037,-1.3322,9.7179,-0.0399,0.0498,0.1287,-1.6870166263976039,-0.004140851087868214,2.1293115615844727,-2.0179200172424316,0.0058703115209937096,1.9312503337860107,5.155643093376913,-0.0004850667901337147,0.19922053813934326,-1.5967538992511194,-2.1917381673119962e-05,-0.09375916421413422,0.8256180286407471,7.32394473743625e-05,0.049619123339653015,0.7435664534568787,0.31537896394729614,0.9124072790145874
476.0,884.0,-0.5037,-1.3322,9.7179,-0.0399,0.0498,0.1287,-1.6870323620238246,-0.004403081722557545,2.146101474761963,-2.0179367065429688,0.006350144278258085,1.9697182178497314,5.155579048186102,-0.0010483242804184556,0.20361432433128357,-1.5967620054828089,-1.0618656233418733e-05,-0.07637645304203033,0.8256581425666809,7.037596515147015e-05,0.05452723056077957,0.7454293966293335,0.31508228182792664,0.8565465211868286
476.0,884.0,-0.5037,-1.3322,9.7179,-0.0399,0.0498,0.1287,-1.6869875393309535,-0.003990395460277796,2.1744606494903564,-2.0178961753845215,0.007668502163141966,1.9223836660385132,5.155631887703695,-0.0012062055757269263,0.20053671300411224,-1.5967453161822718,-1.0330001714464743e-05,-0.10099969804286957,0.8256059288978577,6.858824053779244e-05,0.05984325706958771,0.7467093467712402,0.3227318227291107,0.846768856048584
476.0,884.0,-0.5037,-1.3322,9.7179,-0.0399,0.0498,0.1287,-1.6870318851866664,-0.0030996669083833694,2.1187658309936523,-2.0178444385528564,0.01000688225030899,1.9684929847717285,5.155623632460394,-0.0015678465133532882,0.1939706802368164,-1.5967500845538538,-2.565896238593268e-06,-0.07645776867866516,0.825645923614502,6.607065733987838e-05,0.057083286345005035,0.7486456632614136,0.33425742387771606,0.8419202566146851
476.0,884.0,-0.5037,-1.3322,9.7179,-0.0399,0.0498,0.1287,-1.687056680718893,-0.002578209852799773,2.19580340385437,-2.0177531242370605,0.013323166407644749,1.9510843753814697,5.155575680523672,-0.001425833092071116,0.19296346604824066,-1.5967538992511194,-7.142267333115626e-10,-0.06905485689640045,0.8255936503410339,6.373136420734227e-05,0.062419891357421875,0.7506441473960876,0.3362313508987427,0.8230639696121216
633.0,894.0,0.0347,-0.4152,9.7328,-0.0267,0.0339,0.2352,-1.6870395145811976,-0.0034900803584605455,2.1686606407165527,-2.017669200897217,0.016125280410051346,1.9626826047897339,5.155619638949194,-0.0011969339102506638,0.19731375575065613,-1.5967534224139612,-1.9880761804608876e-13,-0.07499922066926956,0.8255816698074341,6.155201845103875e-05,0.05052114278078079,0.7526772022247314,0.34124600887298584,0.8025007843971252
633.0,894.0,0.0347,-0.4152,9.7328,-0.0267,0.0339,0.2352,-1.6871119938292445,-0.003596663475036621,2.1341123580932617,-2.0175843238830566,0.018300460651516914,1.954383134841919,5.15562783458785,-0.0010997314238920808,0.19771212339401245,-1.596729580556051,-8.475481021049086e-16,-0.06252793222665787,0.8256745934486389,6.0180133004905656e-05,0.05816324055194855,0.7540881633758545,0.3455645740032196,0.8203953504562378
633.0,894.0,0.0347,-0.4152,9.7328,-0.0267,0.0339,0.2352,-1.6870881519713343,-0.0037713791243731976,2.1157498359680176,-2.0174765586853027,0.0216508898884058,1.9353138208389282,5.155595767288961,-0.0010440293699502945,0.19676807522773743,-1.596689526234762,-2.359181404041118e-19,-0.07995112240314484,0.8256298899650574,1.2861283948950586e-07,0.0564749538898468,0.756118893623352,0.34455692768096924,0.771812915802002
633.0,894.0,0.0347,-0.4152,9.7328,-0.0267,0.0339,0.2352,-1.6871243915953578,-0.0029335783328861,2.1780624389648438,-2.0173449516296387,0.02454596385359764,1.9684324264526367,5.1555921016033075,-0.0010371513199061155,0.18352538347244263,-1.5967415014850062,-6.566867556802519e-23,-0.05805372819304466,0.825641930103302,3.579985960455723e-11,0.04102056473493576,0.758258581161499,0.34303978085517883,0.8066014647483826
633.0,894.0,0.0347,-0.4152,9.7328,-0.0267,0.0339,0.2352,-1.687143941918844,-0.002124575199559331,2.1869957447052,-2.017164707183838,0.02897321805357933,1.9735331535339355,5.155555712967672,-0.0009428855846635997,0.19040679931640625,-1.5967496077166956,-1.8279121280207785e-26,-0.053865946829319,0.8256422281265259,9.965021598959834e-15,0.05514257028698921,0.7603297829627991,0.3427065908908844,0.7902328968048096
633.0,894.0,0.0347,-0.4152,9.7328,-0.0267,0.0339,0.2352,-1.687172075311178,-0.0019273002399131656,2.124187469482422,-2.0170528888702393,0.030245384201407433,1.9505680799484253,5.155531483679571,-0.0009359860559925437,0.20114105939865112,-1.596729580556051,-7.792677277973975e-29,-0.04294823855161667,0.8256499767303467,4.248245108733925e-17,0.041347257792949677,0.7617537975311279,0.342430979013443,0.6969399452209473
633.0,894.0,0.0347,-0.4152,9.7328,-0.0267,0.0339,0.2352,-1.687172075311178,-0.00207999418489635,2.1307809352874756,-2.0168404579162598,0.03296230733394623,1.9822759628295898,5.1555396793182275,-0.0010973665630444884,0.2047652304172516,-1.596785847340719,-2.1691204768523724e-32,-0.04687757045030594,0.8255976438522339,1.1825145431478638e-20,0.042105019092559814,0.7637656927108765,0.33713236451148987,0.7001804113388062
633.0,894.0,0.0347,-0.4152,9.7328,-0.0267,0.0339,0.2352,-1.6871916256346644,-0.0028097322210669518,2.1648037433624268,-2.0166332721710205,0.0366627499461174,1.985379934310913,5.155571687012472,-0.0014932813355699182,0.18699383735656738,-1.5967496077166956,-6.037827292375496e-36,-0.050338320434093475,0.8256582021713257,3.291573402993511e-24,0.04521884396672249,0.7657953500747681,0.3306041657924652,0.6968261003494263
633.0,894.0,0.0347,-0.4152,9.7328,-0.0267,0.0339,0.2352,-1.6871959171690882,-0.0032080989331007004,2.0772922039031982,-2.016369342803955,0.03849486634135246,1.9585891962051392,5.155547874956884,-0.0019179744413122535,0.18247124552726746,-1.5967019240008753,-1.6806515170833623e-39,-0.043268389999866486,0.8256503939628601,9.162215931818703e-28,0.04463948681950569,0.7678252458572388,0.33239686489105225,0.6364085674285889
633.0,894.0,0.0347,-0.4152,9.7328,-0.0267,0.0339,0.2352,-1.6871916256346644,-0.002475420944392681,2.1263835430145264,-2.0162572860717773,0.040588658303022385,2.027618408203125,5.155547874956884,-0.0018078710418194532,0.1879475712776184,-1.5967257658587855,-7.16483904809279e-42,-0.03984849154949188,0.8255656957626343,3.905996575804982e-30,0.042357586324214935,0.7691420316696167,0.3234487771987915,0.652047872543335
633.0,894.0,0.0347,-0.4152,9.7328,-0.0267,0.0339,0.2352,-1.6871878109373988,-0.001588810351677239,2.129796266555786,-2.0159494876861572,0.04396694898605347,1.972672700881958,5.155568021326818,-0.001644802512601018,0.2010307013988495,-1.596733872090475,-1.401298464324817e-45,-0.02987537533044815,0.8255976438522339,1.087248612373616e-33,0.02569577470421791,0.7710114121437073,0.3136585056781769,0.5892698168754578
633.0,894.0,0.0347,-0.4152,9.7328,-0.0267,0.0339,0.2352,-1.687200208703512,-0.0007967615965753794,2.166886806488037,-2.0157454013824463,0.048211272805929184,2.0274415016174316,5.155531871109762,-0.0015556419966742396,0.18490085005760193,-1.5967257658587855,-0.0,-0.02715114876627922,0.8255776762962341,3.026396400621039e-37,0.03906960040330887,0.7728729248046875,0.31439605355262756,0.6086180806159973
633.0,894.0,0.0347,-0.4152,9.7328,-0.0267,0.0339,0.2352,-1.6872607670226039,-0.0006917082355357707,2.1548538208007812,-2.0154097080230713,0.052220575511455536,2.0457632541656494,5.1554837105567834,-0.002273284364491701,0.18772664666175842,-1.596705738698141,-0.0,-0.036246903240680695,0.8255939483642578,8.42404584813507e-41,0.03780662268400192,0.7747227549552917,0.30789607763290405,0.5591436624526978
633.0,894.0,0.0347,-0.4152,9.7328,-0.0267,0.0339,0.2352,-1.6872240505614222,-0.0005667934310622513,2.1628832817077637,-2.0150575637817383,0.054050520062446594,1.9998254776000977,5.155447500735082,-0.0027607737574726343,0.1891981065273285,-1.5967534224139612,-0.0,-0.03303970396518707,0.8255976438522339,2.382207389352189e-44,0.031026262789964676,0.7764798998832703,0.2935742437839508,0.536309003829956
633.0,894.0,0.0347,-0.4152,9.7328,-0.0267,0.0339,0.2352,-1.6872078380980433,-0.0006273035542108119,2.089326858520508,-2.0148699283599854,0.05425122380256653,1.988214373588562,5.155420112400808,-0.0027567471843212843,0.1861041784286499,-1.596717659627096,-0.0,-0.025942664593458176,0.8256058692932129,0.0,0.04185076430439949,0.77764892578125,0.29181843996047974,0.5549935698509216
633.0,894.0,0.0347,-0.4152,9.7328,-0.0267,0.0339,0.2352,-1.687267919579977,-0.0009751738980412483,2.1296112537384033,-2.0145301818847656,0.057051271200180054,2.045839786529541,5.155395912915029,-0.0033805635757744312,0.1895914077758789,-1.5967376867877405,-0.0,-0.025969233363866806,0.8255976438522339,0.0,0.03665800392627716,0.7793418169021606,0.28874826431274414,0.5106253027915955
633.0,894.0,0.0347,-0.4152,9.7328,-0.0267,0.0339,0.2352,-1.6872436008849085,-0.000747502373997122,2.155311107635498,-2.014186143875122,0.05830869451165199,1.9873549938201904,5.155428188830175,-0.004081861115992069,0.1898731291294098,-1.5967219511615198,-0.0,-0.010359292849898338,0.8255739212036133,0.0,0.03186281770467758,0.78102707862854,0.2791132926940918,0.49518540501594543
743.0,876.0,0.0622,0.1107,9.7304,-0.0134,0.0867,0.1788,-1.6872436008849085,-0.0005844321567565203,2.1200053691864014,-2.0138192176818848,0.05851927772164345,1.9754459857940674,5.155400264054098,-0.0047997948713600636,0.19898423552513123,-1.596729580556051,0.00010983588435919955,-0.020644355565309525,0.8255497217178345,0.0,0.04364103078842163,0.78270024061203,0.2720964252948761,0.46595123410224915
743.0,876.0,0.0622,0.1107,9.7304,-0.0134,0.0867,0.1788,-1.687239786187643,-0.000646861910354346,2.1160764694213867,-2.013615131378174,0.057922277599573135,2.055833101272583,5.155331927328863,-0.005550261586904526,0.18800470232963562,-1.596733872090475,0.00010576506610959768,-0.020759323611855507,0.8256099224090576,0.0,0.040467824786901474,0.7837412357330322,0.2696041166782379,0.45367932319641113
743.0,876.0,0.0622,0.1107,9.7304,-0.0134,0.0867,0.1788,-1.6872240505614222,-0.0009465062757954001,2.1350598335266113,-2.013211250305176,0.05639875680208206,1.9831926822662354,5.155291813402929,-0.005215371027588844,0.1904953420162201,-1.59674579301943,9.880290599539876e-05,-0.015655146911740303,0.8256180286407471,0.0,0.032292917370796204,0.7852980494499207,0.2689468562602997,0.42266958951950073
743.0,876.0,0.0622,0.1107,9.7304,-0.0134,0.0867,0.1788,-1.687239786187643,-0.0007248327019624412,2.1830029487609863,-2.0128672122955322,0.056080035865306854,2.0350656509399414,5.155324566155233,-0.004435578361153603,0.18879824876785278,-1.596705738698141,0.0001088039789465256,0.0005344210658222437,0.825645923614502,0.0,0.03365540876984596,0.786899209022522,0.2608812153339386,0.43489184975624084
743.0,876.0,0.0622,0.1107,9.7304,-0.0134,0.0867,0.1788,-1.687239786187643,-0.0005387794808484614,2.1455202102661133,-2.012559413909912,0.05506414175033569,2.0238680839538574,5.155240255385198,-0.0035929821897298098,0.18891525268554688,-1.5967257658587855,0.00010476134048076347,-0.012842655181884766,0.8256058692932129,0.0,0.05382520332932472,0.7884690761566162,0.2524645924568176,0.4327232241630554
743.0,876.0,0.0622,0.1107,9.7304,-0.0134,0.0867,0.1788,-1.6872192821898402,-0.000460064533399418,2.137552261352539,-2.0123190879821777,0.05637439712882042,1.9817529916763306,5.155288564949789,-0.0031979104969650507,0.2050798237323761,-1.5966981093036097,0.0001008488834486343,-0.01334090530872345,0.825654149055481,0.0,0.026391422376036644,0.7894980311393738,0.24916015565395355,0.3869348466396332
743.0,876.0,0.0622,0.1107,9.7304,-0.0134,0.0867,0.1788,-1.6871992550291957,-0.0004336412821430713,2.153475761413574,-2.0119833946228027,0.06056436151266098,2.0038414001464844,5.155228334456243,-0.003902979427948594,0.18977196514606476,-1.5966981093036097,9.54982970142737e-05,0.006566837430000305,0.8256099224090576,0.0,0.03793663904070854,0.7910069823265076,0.24474334716796875,0.4010344445705414
743.0,876.0,0.0622,0.1107,9.7304,-0.0134,0.0867,0.1788,-1.6872598133482875,-0.001103340182453394,2.1090359687805176,-2.011615514755249,0.06579268723726273,2.026764154434204,5.155180620938101,-0.00500976899638772,0.17968875169754028,-1.5967100302325647,0.00010190640750806779,-0.004424314014613628,0.8255579471588135,0.0,0.03974274545907974,0.7924849390983582,0.24270066618919373,0.37162908911705017
743.0,876.0,0.0622,0.1107,9.7304,-0.0134,0.0867,0.1788,-1.6872431240477503,-0.003068743972107768,2.120574951171875,-2.011228322982788,0.07042957842350006,2.0486392974853516,5.155160653382101,-0.007198684383183718,0.18019944429397583,-1.5967019240008753,0.00010072552686324343,0.0063367486000061035,0.825569748878479,0.0,0.022131411358714104,0.7939206957817078,0.23463009297847748,0.3501083254814148
743.0,876.0,0.0622,0.1107,9.7304,-0.0134,0.0867,0.1788,-1.6873241863646449,-0.004581073299050331,2.1118876934051514,-2.0108561515808105,0.0774914026260376,2.0617520809173584,5.1551368711288355,-0.009062564931809902,0.1871119737625122,-1.5966938177691858,9.76055016508326e-05,0.006679873913526535,0.825630247592926,0.0,0.022823063656687737,0.7948938608169556,0.2300344854593277,0.34432753920555115
743.0,876.0,0.0622,0.1107,9.7304,-0.0134,0.0867,0.1788,-1.6873637638487757,-0.006217747461050749,2.1244444847106934,-2.010416030883789,0.0833154171705246,2.0350217819213867,5.155056971102514,-0.011525185778737068,0.17470522224903107,-1.5966900030719202,9.327034786110744e-05,0.008006645366549492,0.8256102204322815,0.0,0.0325847789645195,0.7961940169334412,0.22258096933364868,0.3394513428211212
743.0,876.0,0.0622,0.1107,9.7304,-0.0134,0.0867,0.1788,-1.6874362430968226,-0.007750105112791061,2.1214962005615234,-2.009848117828369,0.09130505472421646,2.102799654006958,5.15495319941596,-0.01533751655369997,0.16603925824165344,-1.5966981093036097,0.0001020543641061522,0.011669494211673737,0.8256422877311707,0.0,0.030854657292366028,0.7975276112556458,0.2216787189245224,0.32459354400634766
743.0,876.0,0.0622,0.1107,9.7304,-0.0134,0.0867,0.1788,-1.6874519787230433,-0.008743311278522015,2.0997579097747803,-2.009345531463623,0.09687977284193039,2.081401824951172,5.154857355147161,-0.019871385768055916,0.16244778037071228,-1.5967376867877405,9.789853356778622e-05,0.014369538053870201,0.825569748878479,0.0,0.02415117807686329,0.7988039255142212,0.21867476403713226,0.30279093980789185
743.0,876.0,0.0622,0.1107,9.7304,-0.0134,0.0867,0.1788,-1.687483926812643,-0.008645853959023952,2.092813491821289,-2.008697271347046,0.10214731842279434,2.0783650875091553,5.154709386616506,-0.02598230168223381,0.1885145902633667,-1.5966900030719202,0.00012064576003467664,0.0276943389326334,0.8255497813224792,0.0,0.025039922446012497,0.800076961517334,0.20203080773353577,0.2772352397441864
743.0,876.0,0.0622,0.1107,9.7304,-0.0134,0.0867,0.1788,-1.6875397167601527,-0.008373517543077469,2.111105442047119,-2.0082454681396484,0.10322803258895874,2.077862024307251,5.154589819699087,-0.03180444985628128,0.17484350502490997,-1.596705738698141,0.000134427726152353,0.043073851615190506,0.8255898952484131,0.0,0.0216299369931221,0.8009019494056702,0.1940198391675949,0.24552515149116516
743.0,876.0,0.0622,0.1107,9.7304,-0.0134,0.0867,0.1788,-1.6875354252257289,-0.008044544607400894,2.0816609859466553,-2.0076982975006104,0.10475070029497147,2.096439838409424,5.154325413494863,-0.04933738708496094,0.1589539498090744,-1.5966861883746546,0.00012769266322720796,0.03794851526618004,0.8256017565727234,0.0,0.022632304579019547,0.8019701242446899,0.18543662130832672,0.2058371603488922
595.0,755.0,-0.4379,0.2692,9.5462,-0.0254,0.091,0.1045,-1.687599321404928,-0.008486083708703518,2.1344964504241943,-2.007014513015747,0.10839565843343735,2.0749266147613525,5.153990942030706,-0.07856005430221558,0.15829962491989136,-1.5966861883746546,0.00013893264986108989,0.037378840148448944,0.8255620002746582,0.0,0.015133892185986042,0.8030792474746704,0.18498606979846954,0.21154451370239258
595.0,755.0,-0.4379,0.2692,9.5462,-0.0254,0.091,0.1045,-1.6876236400999964,-0.00698479451239109,2.176642656326294,-2.006366014480591,0.11417336016893387,2.143831253051758,5.153396266489782,-0.11517421156167984,0.12730489671230316,-1.596649471913473,0.0001304644683841616,0.03910847380757332,0.8256381154060364,0.0,0.021901313215494156,0.8041802048683167,0.17906099557876587,0.14970451593399048
595.0,755.0,-0.4379,0.2692,9.5462,-0.0254,0.091,0.1045,-1.6876551113524378,-0.005911622196435928,2.1151604652404785,-2.005911111831665,0.1180863305926323,2.1048197746276855,5.152848738222875,-0.13196556270122528,0.13204224407672882,-1.5966981093036097,0.00014309283869806677,0.032593488693237305,0.8255901336669922,0.0,0.025257103145122528,0.8048281669616699,0.17025505006313324,0.18019935488700867
595.0,755.0,-0.4379,0.2692,9.5462,-0.0254,0.091,0.1045,-1.6877480945982875,-0.004804428666830063,2.068753480911255,-2.00516414642334,0.12676718831062317,2.119497776031494,5.151998775988378,-0.14427269995212555,0.1285759061574936,-1.5967062155352991,0.00013511200086213648,0.04152096062898636,0.8255457282066345,0.0,0.021065227687358856,0.8058652877807617,0.15642456710338593,0.1806841939687729
595.0,755.0,-0.4379,0.2692,9.5462,-0.0254,0.091,0.1045,-1.6877552471556605,-0.00612414488568902,2.118321180343628,-2.004336357116699,0.13739904761314392,2.110031843185425,5.151093083411016,-0.14807814359664917,0.1263151615858078,-1.5966618696795862,0.00020482740364968777,0.038139328360557556,0.8255817294120789,0.0,0.024588074535131454,0.8067622780799866,0.14125987887382507,0.15416906774044037
595.0,755.0,-0.4379,0.2692,9.5462,-0.0254,0.091,0.1045,-1.6878358326353968,-0.010502664372324944,2.0933523178100586,-2.00350022315979,0.1444554477930069,2.149704933166504,5.150054859905996,-0.1674179583787918,0.11421141028404236,-1.5966818968402308,0.00018477614503353834,0.042508818209171295,0.8256340026855469,0.0,0.033615726977586746,0.8075746297836304,0.1333988606929779,0.10556023567914963
595.0,755.0,-0.4379,0.2692,9.5462,-0.0254,0.091,0.1045,-1.687871595422262,-0.01263262890279293,2.124049186706543,-2.0028443336486816,0.1433359533548355,2.106473207473755,5.149352508574285,-0.18920114636421204,0.0976397842168808,-1.5966938177691858,0.00017075227515306324,0.045019131153821945,0.8256058692932129,0.0,0.022187866270542145,0.8080671429634094,0.1298418641090393,0.11213544756174088
595.0,755.0,-0.4379,0.2692,9.5462,-0.0254,0.091,0.1045,-1.6879025898375453,-0.014373431913554668,2.090609312057495,-2.0019690990448,0.1440298855304718,2.132779836654663,5.148167151003637,-0.2003450095653534,0.08644677698612213,-1.596638027821676,0.00018388718308415264,0.051629453897476196,0.8255660533905029,7.446455896342741e-09,0.01840316131711006,0.8087671399116516,0.12376022338867188,0.043039482086896896
595.0,755.0,-0.4379,0.2692,9.5462,-0.0254,0.091,0.1045,-1.6880036793150843,-0.012679943814873695,2.131787061691284,-2.001077890396118,0.15278251469135284,2.1723344326019287,5.147010522871771,-0.21196936070919037,0.07905927300453186,-1.5966537634478968,0.00019465199147816747,0.054933346807956696,0.8256102204322815,2.0727482230586958e-12,0.016635503619909286,0.8095236420631409,0.12080060690641403,0.04442432522773743
595.0,755.0,-0.4379,0.2692,9.5462,-0.0254,0.091,0.1045,-1.6880389652647914,-0.009183445014059544,2.1049365997314453,-2.0001308917999268,0.16323113441467285,2.1803832054138184,5.145513045578756,-0.2418552041053772,0.06856200844049454,-1.5966656843768519,0.0002034226927207783,0.05673404037952423,0.8255698084831238,5.769571272969771e-16,0.03082192689180374,0.810300886631012,0.11391827464103699,0.007598479278385639
595.0,755.0,-0.4379,0.2692,9.5462,-0.0254,0.091,0.1045,-1.6881400547423304,-0.008501817472279072,2.09246563911438,-1.9994182586669922,0.1666862964630127,2.1176791191101074,5.14452417471961,-0.25078651309013367,0.07036403566598892,-1.596638027821676,0.00019274360965937376,0.04387178272008896,0.825581967830658,2.4596585677588395e-18,0.03009006567299366,0.8107050657272339,0.10865909606218338,0.07911147177219391
595.0,755.0,-0.4379,0.2692,9.5462,-0.0254,0.091,0.1045,-1.6881629429259242,-0.010731713846325874,2.0901293754577637,-1.998415470123291,0.17622394859790802,2.1956779956817627,5.142919319659033,-0.2752076983451843,0.034371525049209595,-1.5967024008380335,0.00022526911925524473,0.06378565728664398,0.825577974319458,6.846551311881536e-22,0.020365463569760323,0.8112648725509644,0.0925263911485672,-0.016084421426057816
595.0,755.0,-0.4379,0.2692,9.5462,-0.0254,0.091,0.1045,-1.6882711849608363,-0.016795974224805832,2.0861620903015137,-1.9972798824310303,0.17914962768554688,2.1898322105407715,5.141171800881185,-0.3126193583011627,0.04242550954222679,-1.5966418425189417,0.00023389069247059524,0.0511886402964592,0.8256222605705261,1.9057627153452607e-25,0.023136751726269722,0.8118293285369873,0.07927146553993225,-0.021777385845780373
595.0,755.0,-0.4379,0.2692,9.5462,-0.0254,0.091,0.1045,-1.6883708439269007,-0.022838912904262543,2.0905776023864746,-1.9961371421813965,0.18659748136997223,2.1975255012512207,5.139203953533926,-0.35542032122612,0.025872603058815002,-1.5966575781451624,0.000208060082513839,0.0530911460518837,0.8255820274353027,5.304760373961436e-29,0.021213557571172714,0.812253475189209,0.06982716172933578,-0.06644094735383987
595.0,755.0,-0.4379,0.2692,9.5462,-0.0254,0.091,0.1045,-1.688502927819723,-0.025144604966044426,2.071925163269043,-1.994969367980957,0.1945934146642685,2.2053186893463135,5.136881875782766,-0.3834902048110962,0.013250470161437988,-1.5966537634478968,0.0001864998775999993,0.0759134590625763,0.8256020545959473,1.4765994328373242e-32,0.02885708399116993,0.8126257658004761,0.06286296993494034,-0.07798165082931519
595.0,755.0,-0.4379,0.2692,9.5462,-0.0254,0.091,0.1045,-1.688639303246969,-0.024562472477555275,2.112154722213745,-1.9941902160644531,0.20250418782234192,2.1696670055389404,5.1353293536003015,-0.4099200367927551,-0.01086338609457016,-1.5966299215899866,0.00020301340555306524,0.06398477405309677,0.8255935907363892,6.294975434688599e-35,0.019195429980754852,0.8127932548522949,0.05778273195028305,-0.02953389659523964
595.0,755.0,-0.4379,0.2692,9.5462,-0.0254,0.091,0.1045,-1.6887504063048304,-0.024336596950888634,2.1405632495880127,-1.9928944110870361,0.21285055577754974,2.252187728881836,5.13267462232665,-0.43816691637039185,-0.013517280109226704,-1.5966337362872522,0.00018553978588897735,0.08031223714351654,0.8255857825279236,1.7522292821216883e-38,0.022327736020088196,0.8131542205810547,0.04793781787157059,-0.09875857084989548
530.0,750.0,-1.7216,1.7773,9.9069,0.0122,-0.1419,-0.0632,-1.6888944111266078,-0.025515615940093994,2.0852439403533936,-1.9915542602539062,0.2205238789319992,2.2382359504699707,5.129933672934332,-0.47908103466033936,-0.037455640733242035,-1.5966699759112757,0.00019477453315630555,0.06745031476020813,0.825630247592926,4.877919954314688e-42,0.018083222210407257,0.8134060502052307,0.039993032813072205,-0.09374935925006866
530.0,750.0,-1.7216,1.7773,9.9069,0.0122,-0.1419,-0.0632,-1.6890584431090296,-0.03052905574440956,2.0814547538757324,-1.9902032613754272,0.2354932725429535,2.283534526824951,5.1269205687339685,-0.5157331228256226,-0.04215680807828903,-1.5966456572162073,0.0002046108857030049,0.06910725682973862,0.8256099224090576,1.401298464324817e-45,0.025327609851956367,0.8136342167854309,0.033769574016332626,-0.12403015047311783
530.0,750.0,-1.7216,1.7773,9.9069,0.0122,-0.1419,-0.0632,-1.6891776523985804,-0.03335966169834137,2.13350248336792,-1.9892640113830566,0.2440202236175537,2.2545480728149414,5.124773967057028,-0.5492738485336304,-0.0621260404586792,-1.5966456572162073,0.0001877905597211793,0.08007143437862396,0.8255860805511475,0.0,0.0189721267670393,0.81374192237854,0.031508248299360275,-0.12993013858795166
530.0,750.0,-1.7216,1.7773,9.9069,0.0122,-0.1419,-0.0632,-1.6894504032530726,-0.03782640025019646,2.116220474243164,-1.9877855777740479,0.25572434067726135,2.2872331142425537,5.121199089079656,-0.5892912745475769,-0.04081419110298157,-1.5966418425189417,0.00020023265096824616,0.07229483127593994,0.825577974319458,0.0,0.012927234172821045,0.8139183521270752,0.024170806631445885,-0.14038105309009552
530.0,750.0,-1.7216,1.7773,9.9069,0.0122,-0.1419,-0.0632,-1.6896735630431117,-0.0439804270863533,2.092594861984253,-1.9861692190170288,0.26277273893356323,2.2849388122558594,5.1174732623393915,-0.6355669498443604,-0.0601472407579422,-1.5966337362872522,0.0001802181504899636,0.07853621989488602,0.8255939483642578,0.0,0.019029932096600533,0.8140504956245422,0.017059970647096634,-0.1521637737751007
530.0,750.0,-1.7216,1.7773,9.9069,0.0122,-0.1419,-0.0632,-1.6899973354735316,-0.04928431287407875,2.074190139770508,-1.9846035242080688,0.27861618995666504,2.2938482761383057,5.113527077227392,-0.6649836301803589,-0.04916880652308464,-1.5966056028949183,0.00019087443070020527,0.08561976999044418,0.8256220817565918,0.0,0.017671987414360046,0.8141226172447205,0.010870271362364292,-0.20318754017353058
530.0,750.0,-1.7216,1.7773,9.9069,0.0122,-0.1419,-0.0632,-1.690169473687643,-0.05401613190770149,2.048200845718384,-1.9834907054901123,0.28959372639656067,2.3791255950927734,5.110828953772344,-0.6909888982772827,-0.047463029623031616,-1.5966337362872522,0.0001801834732759744,0.0820295661687851,0.825577974319458,0.0,0.006227370351552963,0.8141502141952515,0.0069552152417600155,-0.20861411094665527
530.0,750.0,-1.7216,1.7773,9.9069,0.0122,-0.1419,-0.0632,-1.690608640710348,-0.0577688105404377,2.028316020965576,-1.9810854196548462,0.29933178424835205,2.359377861022949,5.105055558472433,-0.7358547449111938,-0.05054168403148651,-1.5965974966632288,0.00016168589354492724,0.0879100114107132,0.8255898952484131,0.0,0.01394566334784031,0.8141300678253174,0.0017239850712940097,-0.1759125292301178
530.0,750.0,-1.7216,1.7773,9.9069,0.0122,-0.1419,-0.0632,-1.6910134754576625,-0.06333009898662567,2.1039230823516846,-1.9792699813842773,0.315048485994339,2.3539962768554688,5.100637930422582,-0.7680190205574036,-0.04098397493362427,-1.5966418425189417,0.00017084335559047759,0.08994507044553757,0.8255898952484131,0.0,0.01623150333762169,0.814154326915741,-0.0008746284293010831,-0.21251745522022247
530.0,750.0,-1.7216,1.7773,9.9069,0.0122,-0.1419,-0.0632,-1.6913963756956996,-0.0691012516617775,2.022494077682495,-1.9773712158203125,0.3365297317504883,2.3971211910247803,5.095980840712347,-0.8023320436477661,-0.03993339091539383,-1.596614185963766,0.00016053028230089694,0.08099163323640823,0.8256020545959473,0.0,0.02151613123714924,0.8141303658485413,-0.0030682547949254513,-0.23027178645133972
530.0,750.0,-1.7216,1.7773,9.9069,0.0122,-0.1419,-0.0632,-1.691700120965475,-0.07069426774978638,2.0725815296173096,-1.9759708642959595,0.3404025733470917,2.3696296215057373,5.0927125690277,-0.8199697732925415,-0.0480167418718338,-1.5965898672686976,0.00016914296429604292,0.0879896879196167,0.8255860805511475,0.0,0.013970848172903061,0.8141143321990967,-0.0025932497810572386,-0.22118209302425385
530.0,750.0,-1.7216,1.7773,9.9069,0.0122,-0.1419,-0.0632,-1.6920958958067835,-0.06957385689020157,2.0443217754364014,-1.9739245176315308,0.3524011969566345,2.404153823852539,5.0876042423541925,-0.8522058725357056,-0.05422797426581383,-1.5966299215899866,0.00018195896700490266,0.10117188841104507,0.8255980014801025,0.0,0.01552637480199337,0.8141226172447205,-0.0024530699010938406,-0.20670893788337708
530.0,750.0,-1.7216,1.7773,9.9069,0.0122,-0.1419,-0.0632,-1.692559381524557,-0.06429021060466766,2.086620807647705,-1.9717539548873901,0.36679357290267944,2.4316697120666504,5.082262533694067,-0.8818551301956177,-0.0434081107378006,-1.596581761037008,0.00018965690105687827,0.09875799715518951,0.825577974319458,0.0,0.015781214460730553,0.8140864372253418,-0.0023668541107326746,-0.2202969193458557
530.0,750.0,-1.7216,1.7773,9.9069,0.0122,-0.1419,-0.0632,-1.6929670772948207,-0.06023314967751503,2.126181125640869,-1.9695688486099243,0.3692672550678253,2.448946475982666,5.076816487103262,-0.9111245274543762,-0.06837976723909378,-1.5965974966632288,0.00017701151955407113,0.0852939635515213,0.8255898952484131,0.0,0.010561510920524597,0.8140583634376526,-0.0018504714826121926,-0.29225894808769226
530.0,750.0,-1.7216,1.7773,9.9069,0.0122,-0.1419,-0.0632,-1.6932860813536585,-0.05912549048662186,2.0805153846740723,-1.9672551155090332,0.3821183741092682,2.446535587310791,5.071291672974386,-0.9387176632881165,-0.04233984649181366,-1.5965736548053187,0.00018655855092220008,0.08364103734493256,0.8256100416183472,0.0,0.010025151073932648,0.81402987241745,-0.001168082351796329,-0.25711503624916077
530.0,750.0,-1.7216,1.7773,9.9069,0.0122,-0.1419,-0.0632,-1.6935211620726527,-0.05844767764210701,2.0364763736724854,-1.9657166004180908,0.3885418772697449,2.3757169246673584,5.0674956915672205,-0.956250786781311,-0.04237983748316765,-1.5965898672686976,0.0002534606319386512,0.10052093863487244,0.8255898952484131,0.0,0.04242107272148132,0.8140542507171631,-0.0009644621168263257,-0.26116621494293213
573.0,893.0,-0.0221,0.2088,10.3609,-0.0638,-0.6202,-0.1174,-1.693829198876852,-0.056831538677215576,2.0780789852142334,-1.963371753692627,0.3933793008327484,2.430126905441284,5.061803507595815,-0.9855248332023621,-0.04922178387641907,-1.5965779463397425,0.00023722564219497144,0.0920896902680397,0.8255580067634583,0.0,0.02527277171611786,0.8140625357627869,-0.0009430390200577676,-0.2759324610233307
573.0,893.0,-0.0221,0.2088,10.3609,-0.0638,-0.6202,-0.1174,-1.6941572628416957,-0.05683538317680359,2.1601054668426514,-1.9608734846115112,0.40436118841171265,2.4771385192871094,5.055726933270254,-1.0082265138626099,-0.059755027294158936,-1.5965498129474085,0.0002457813825458288,0.10539496690034866,0.8255580067634583,0.0,0.011851869523525238,0.8140625357627869,-0.0014583622105419636,-0.27195510268211365
573.0,893.0,-0.0221,0.2088,10.3609,-0.0638,-0.6202,-0.1174,-1.6944643459715785,-0.05711691081523895,2.0506579875946045,-1.9584368467330933,0.4212486445903778,2.5080699920654297,5.0496577499206445,-1.0194096565246582,-0.06976021081209183,-1.5965617338763636,0.00025228853337466717,0.10472290217876434,0.8255701065063477,0.0,0.01809997484087944,0.8140222430229187,-0.001849875901825726,-0.29231104254722595
573.0,893.0,-0.0221,0.2088,10.3609,-0.0638,-0.6202,-0.1174,-1.6947409115233363,-0.05661163851618767,2.041649580001831,-1.9566928148269653,0.43399858474731445,2.474705696105957,5.045479166298666,-1.0295464992523193,-0.049169473350048065,-1.5965336004840296,0.0002335873869014904,0.09769755601882935,0.8255500793457031,0.0,0.010161414742469788,0.8140222430229187,-0.0015187532408162951,-0.275141179561615
573.0,893.0,-0.0221,0.2088,10.3609,-0.0638,-0.6202,-0.1174,-1.6950599155821742,-0.05737161263823509,2.050410509109497,-1.9541330337524414,0.44853588938713074,2.481640100479126,5.039208757668295,-1.041841983795166,-0.058568671345710754,-1.596541706715719,0.00021020315762143582,0.11399068683385849,0.8255660533905029,0.0,0.012121080420911312,0.81399005651474,-0.0010977261699736118,-0.30631905794143677
573.0,893.0,-0.0221,0.2088,10.3609,-0.0638,-0.6202,-0.1174,-1.6954075298705042,-0.06150759384036064,2.0588057041168213,-1.9514318704605103,0.45990467071533203,2.5594444274902344,5.033012795239248,-1.0561745166778564,-0.0422976128757,-1.596541706715719,0.0001910748251248151,0.10494257509708405,0.825566291809082,0.0,0.0064477464184165,0.813981831073761,-0.0010493479203432798,-0.26119697093963623
573.0,893.0,-0.0221,0.2088,10.3609,-0.0638,-0.6202,-0.1174,-1.6957832775511683,-0.06740091741085052,2.04345440864563,-1.9486147165298462,0.46979621052742004,2.5261788368225098,5.02673106172637,-1.066412329673767,-0.04903888702392578,-1.5965736548053187,0.00017513797502033412,0.10547278076410294,0.8255820274353027,0.0,0.005927369464188814,0.8139941692352295,-0.0008802483789622784,-0.3003491163253784
573.0,893.0,-0.0221,0.2088,10.3609,-0.0638,-0.6202,-0.1174,-1.6960951290526332,-0.07157183438539505,2.070016384124756,-1.9466772079467773,0.48483139276504517,2.5412933826446533,5.02239345291213,-1.065250277519226,-0.05780430883169174,-1.5965293089496058,0.00016591281746514142,0.09725698083639145,0.8255580067634583,0.0,0.0008708899840712547,0.8139822483062744,-0.0006216851761564612,-0.28224486112594604
573.0,893.0,-0.0221,0.2088,10.3609,-0.0638,-0.6202,-0.1174,-1.696526666680807,-0.07783554494380951,2.158228874206543,-1.943759560585022,0.49784284830093384,2.5528883934020996,5.016031670361318,-1.067466378211975,-0.04929427057504654,-1.596581761037008,0.0001756798883434385,0.0935162752866745,0.8255341649055481,0.0,0.007628913037478924,0.8140103220939636,-0.0005242803017608821,-0.2766803503036499
573.0,893.0,-0.0221,0.2088,10.3609,-0.0638,-0.6202,-0.1174,-1.697026868859762,-0.08139002323150635,2.0810751914978027,-1.94073486328125,0.5115803480148315,2.5682485103607178,5.009550320893087,-1.0753710269927979,-0.03729793429374695,-1.5965736548053187,0.00016374026017729193,0.10527435690164566,0.8256020545959473,0.0,0.02454173006117344,0.814014732837677,-0.00047336809802800417,-0.2883726954460144
573.0,893.0,-0.0221,0.2088,10.3609,-0.0638,-0.6202,-0.1174,-1.6975137195982875,-0.081812284886837,2.065885066986084,-1.9375343322753906,0.5135161876678467,2.5270824432373047,5.003160673170843,-1.0857303142547607,-0.05478967726230621,-1.5965374151812952,0.00015328226436395198,0.08861856162548065,0.8255503177642822,0.0,0.008109474554657936,0.8139541149139404,-0.0016046498203650117,-0.28402838110923767
573.0,893.0,-0.0221,0.2088,10.3609,-0.0638,-0.6202,-0.1174,-1.6978537044920863,-0.08084406703710556,2.108628511428833,-1.935433030128479,0.5220116376876831,2.576347589492798,4.9988432107265375,-1.0878058671951294,-0.01957813836634159,-1.596541706715719,0.00014702208864036947,0.09960886836051941,0.825526237487793,0.0,0.00612880103290081,0.8139498829841614,-0.0018552691908553243,-0.3605732321739197
573.0,893.0,-0.0221,0.2088,10.3609,-0.0638,-0.6202,-0.1174,-1.6983372173705042,-0.07853685319423676,2.0742785930633545,-1.9322562217712402,0.5361286401748657,2.552529811859131,4.992143201618948,-1.0915658473968506,-0.025839228183031082,-1.596557919179098,0.00013853525160811841,0.09631772339344025,0.8255341649055481,0.0,-0.000392374349758029,0.8139864206314087,-0.0010804682970046997,-0.28932011127471924
573.0,893.0,-0.0221,0.2088,10.3609,-0.0638,-0.6202,-0.1174,-1.6988254986205042,-0.07703685760498047,2.119046926498413,-1.928980827331543,0.5491166710853577,2.536098003387451,4.98558001497344,-1.0951063632965088,-0.05090571567416191,-1.5965898672686976,0.0001309748477069661,0.09182162582874298,0.8255341053009033,-3.2921008141784114e-08,0.01566680520772934,0.8139137625694275,-0.0007873050053603947,-0.32684847712516785
573.0,893.0,-0.0221,0.2088,10.3609,-0.0638,-0.6202,-0.1174,-1.6992961368956507,-0.07735709846019745,2.1313817501068115,-1.925634503364563,0.5568766593933105,2.5641674995422363,4.978978532343664,-1.101007342338562,-0.05395728349685669,-1.5965498129474085,0.0001241970603587106,0.08628439158201218,0.8255980014801025,-9.163683700741387e-12,0.0038267537020146847,0.8139177560806274,-0.0006078565493226051,-0.2993990480899811
573.0,893.0,-0.0221,0.2088,10.3609,-0.0638,-0.6202,-0.1174,-1.6997600994505824,-0.07676777243614197,2.0823562145233154,-1.9223558902740479,0.5651828646659851,2.565624713897705,4.972555029183187,-1.1095681190490723,-0.05196381360292435,-1.5965736548053187,0.00011808618728537112,0.10086983442306519,0.8255580067634583,-2.5507444294497594e-15,0.006134876050055027,0.8139622807502747,-0.0009613067959435284,-0.28005746006965637
862.0,918.0,1.3573,0.0108,10.1426,-0.0577,-0.6396,-0.1122,-1.7000066242613734,-0.07664352655410767,2.121638536453247,-1.9201147556304932,0.5701711177825928,2.593094825744629,4.968141960888662,-1.1118041276931763,-0.03616982698440552,-1.5965259710894983,0.00011433567124186084,0.0854576900601387,0.8255581855773926,-1.0874224693282346e-17,0.006288676522672176,0.8139461278915405,-0.0009318770025856793,-0.33041149377822876
862.0,918.0,1.3573,0.0108,10.1426,-0.0577,-0.6396,-0.1122,-1.7005030117430628,-0.07669488340616226,2.1811020374298096,-1.9166418313980103,0.5804592967033386,2.545398235321045,4.961414891272344,-1.1177841424942017,-0.05150992423295975,-1.5965221563922327,0.00010913638107012957,0.08897226303815842,0.8255620002746582,-3.0268806493754484e-21,0.00012310966849327087,0.8139499425888062,-0.0007663068827241659,-0.3155971169471741
862.0,918.0,1.3573,0.0108,10.1426,-0.0577,-0.6396,-0.1122,-1.7009741268553675,-0.07941094785928726,2.1290478706359863,-1.913205623626709,0.59003084897995,2.5144152641296387,4.9547550705964944,-1.1197664737701416,-0.05478600785136223,-1.5965097586261194,0.00010438942990731448,0.09280838072299957,0.8255622386932373,-8.425433828593674e-25,0.004988700617104769,0.813982367515564,-0.0006347420276142657,-0.3270717263221741
862.0,918.0,1.3573,0.0108,10.1426,-0.0577,-0.6396,-0.1122,-1.7013970814146937,-0.08219354599714279,2.187626361846924,-1.909593105316162,0.5997419953346252,2.602421760559082,4.947856473713674,-1.1234644651412964,-0.04853396117687225,-1.5965455214129847,0.00010003824718296528,0.08670400083065033,0.8255460858345032,-2.3452503933752732e-28,0.005855252966284752,0.81395024061203,-0.0004695084353443235,-0.3189992308616638
862.0,918.0,1.3573,0.0108,10.1426,-0.0577,-0.6396,-0.1122,-1.7017575703062953,-0.08486875891685486,2.119025468826294,-1.9072014093399048,0.596928596496582,2.5531880855560303,4.943437608867445,-1.132351040840149,-0.02956560254096985,-1.5965374151812952,9.733355545904487e-05,0.10005912184715271,0.8255739808082581,-9.998170962500889e-31,0.00019137770868837833,0.81395024061203,-0.0004665567830670625,-0.3350678086280823
862.0,918.0,1.3573,0.0108,10.1426,-0.0577,-0.6396,-0.1122,-1.7022930584349574,-0.08956892788410187,2.0637896060943604,-1.903458595275879,0.6010544896125793,2.5589306354522705,4.936681392579832,-1.1357064247131348,-0.033500008285045624,-1.5965617338763636,9.3539958470501e-05,0.10038299858570099,0.8256179690361023,-2.7830274157874023e-34,0.001054333639331162,0.8139342069625854,-0.00048507031169719994,-0.34674304723739624
862.0,918.0,1.3573,0.0108,10.1426,-0.0577,-0.6396,-0.1122,-1.7027999363341273,-0.08835577219724655,2.1446573734283447,-1.899792194366455,0.60989910364151,2.5702600479125977,4.929803269892492,-1.1386135816574097,-0.04090730845928192,-1.5965617338763636,9.003108425531536e-05,0.09951229393482208,0.8256179690361023,-7.746659291519225e-38,-0.007741834968328476,0.8139865398406982,-0.0004529309517238289,-0.2856404185295105
862.0,918.0,1.3573,0.0108,10.1426,-0.0577,-0.6396,-0.1122,-1.703294416467184,-0.08571964502334595,2.125122547149658,-1.8961337804794312,0.6185348629951477,2.506932258605957,4.922995838313856,-1.140968680381775,-0.040850523859262466,-1.5965736548053187,8.677584264660254e-05,0.08840616047382355,0.8256101012229919,-2.1563180769030285e-41,0.007234659511595964,0.8139342069625854,-0.0004074268217664212,-0.27871569991111755
862.0,918.0,1.3573,0.0108,10.1426,-0.0577,-0.6396,-0.1122,-1.703622957269186,-0.08604224026203156,2.112037181854248,-1.8936617374420166,0.6229832768440247,2.5435423851013184,4.9183939574058435,-1.1374874114990234,-0.06306999921798706,-1.596597973500387,8.473345951642841e-05,0.10885490477085114,0.8255261182785034,-9.248569864543793e-44,0.00201275572180748,0.8139663934707642,-0.0003807673929259181,-0.3094455599784851
862.0,918.0,1.3573,0.0108,10.1426,-0.0577,-0.6396,-0.1122,-1.704174657861227,-0.0869753360748291,2.1564247608184814,-1.8900079727172852,0.6270089745521545,2.6041555404663086,4.911499771266737,-1.1441137790679932,-0.057474806904792786,-1.5965374151812952,8.184392936527729e-05,0.08419117331504822,0.8255782127380371,-0.0,0.0018208806868642569,0.8138977885246277,-0.0003298972442280501,-0.35907673835754395
862.0,918.0,1.3573,0.0108,10.1426,-0.0577,-0.6396,-0.1122,-1.7047463856139125,-0.08917364478111267,2.1288952827453613,-1.8862553834915161,0.6241257786750793,2.553287982940674,4.904708328634062,-1.1486825942993164,-0.061300866305828094,-1.5965455214129847,2.033525743172504e-05,0.10510410368442535,0.8255501389503479,-0.0,0.009682138450443745,0.8139342069625854,-0.0003484455810394138,-0.3067219853401184
862.0,918.0,1.3573,0.0108,10.1426,-0.0577,-0.6396,-0.1122,-1.705301900903219,-0.09406118094921112,2.1564507484436035,-1.8824787139892578,0.6296992301940918,2.5833165645599365,4.8976676789815805,-1.1500409841537476,-0.06699835509061813,-1.5966218153582972,5.6603925990827975e-09,0.08204403519630432,0.8255221843719482,-0.0,0.003498256905004382,0.8139787912368774,-0.0003837075491901487,-0.30355945229530334
862.0,918.0,1.3573,0.0108,10.1426,-0.0577,-0.6396,-0.1122,-1.7058373890318812,-0.09695062786340714,2.0792741775512695,-1.8788015842437744,0.6425920128822327,2.6085283756256104,4.890765431314268,-1.1431570053100586,-0.06634116917848587,-1.5965855757342737,1.575590894732637e-12,0.08307511359453201,0.8255900740623474,-0.0,-0.0068922508507966995,0.8139622807502747,-0.0003351121849846095,-0.27373024821281433
862.0,918.0,1.3573,0.0108,10.1426,-0.0577,-0.6396,-0.1122,-1.706216951409811,-0.09501881897449493,2.1738197803497314,-1.8761852979660034,0.6370788216590881,2.553288698196411,4.886206361442365,-1.1445763111114502,-0.04608476161956787,-1.5965617338763636,6.716991177000862e-15,0.09951761364936829,0.8255781531333923,-0.0,-0.00862863939255476,0.8139302134513855,-0.0004804925119969994,-0.2930866777896881
862.0,918.0,1.3573,0.0108,10.1426,-0.0577,-0.6396,-0.1122,-1.7068001232542933,-0.10063251852989197,2.11995792388916,-1.8723231554031372,0.6317328810691833,2.5323798656463623,4.879488590150633,-1.1485332250595093,-0.05225779116153717,-1.596513573323385,1.8696990860204537e-18,0.09096779674291611,0.8255822062492371,-0.0,0.012492617592215538,0.8139183521270752,-0.001643261406570673,-0.3299373686313629
862.0,918.0,1.3573,0.0108,10.1426,-0.0577,-0.6396,-0.1122,-1.7074080906310023,-0.10247215628623962,2.0997538566589355,-1.8684319257736206,0.6332733035087585,2.573884963989258,4.872598472028532,-1.1416999101638794,-0.05126234516501427,-1.5965302626239222,5.204376157603845e-22,0.09851930290460587,0.8255581855773926,-0.0,-0.0012720284285023808,0.8139183521270752,-0.002354186028242111,-0.2848754823207855
862.0,918.0,1.3573,0.0108,10.1426,-0.0577,-0.6396,-0.1122,-1.7079736195006312,-0.10028333961963654,2.155761241912842,-1.8645641803741455,0.6426039338111877,2.5533127784729004,4.8657230017478845,-1.1295156478881836,-0.029433133080601692,-1.596513573323385,1.448657140555429e-25,0.08761408925056458,0.8255701065063477,-0.0,-0.008916077204048634,0.8138335943222046,-0.0019452200504019856,-0.333257257938385
935.0,913.0,1.4578,0.0885,8.4748,-0.068,-0.5669,-0.1184,-1.7083703480162562,-0.09627614170312881,2.177767038345337,-1.8620580434799194,0.6479727029800415,2.5761685371398926,4.8612369177635095,-1.126038908958435,-0.051807258278131485,-1.596581761037008,6.175852589647328e-28,0.09670953452587128,0.8255939483642578,-0.0,-0.003986858297139406,0.8138741254806519,-0.0021630735136568546,-0.3152835965156555
935.0,913.0,1.4578,0.0885,8.4748,-0.068,-0.5669,-0.1184,-1.7089463673033656,-0.09326598048210144,2.241525650024414,-1.8581452369689941,0.6502149701118469,2.5854408740997314,4.854497644096174,-1.1169521808624268,-0.052851203829050064,-1.5965779463397425,1.719071150506933e-31,0.08730697631835938,0.8254940509796143,-0.0,0.0028384244069457054,0.8138137459754944,-0.00289976061321795,-0.3123055398464203
935.0,913.0,1.4578,0.0885,8.4748,-0.068,-0.5669,-0.1184,-1.7095490894713343,-0.09956925362348557,2.2144925594329834,-1.854327917098999,0.6472498774528503,2.5675971508026123,4.847997250943937,-1.117032766342163,-0.06323729455471039,-1.5965660254107874,4.7850974238758224e-35,0.0963936597108841,0.8255943655967712,-0.0,-0.009273029863834381,0.813846230506897,-0.003281290177255869,-0.26445087790489197
935.0,913.0,1.4578,0.0885,8.4748,-0.068,-0.5669,-0.1184,-1.7101732693114222,-0.1103004664182663,2.1195571422576904,-1.8504078388214111,0.6513033509254456,2.562561511993408,4.841431098967352,-1.1021039485931396,-0.03941364213824272,-1.5965455214129847,1.3319493243641533e-38,0.08624173700809479,0.8255660533905029,-0.0,0.00594691326841712,0.8138017654418945,-0.0030231617856770754,-0.3453693985939026
935.0,913.0,1.4578,0.0885,8.4748,-0.068,-0.5669,-0.1184,-1.7105843029417933,-0.1141185387969017,2.1558427810668945,-1.8477846384048462,0.6613518595695496,2.633693218231201,4.836920159846105,-1.0889830589294434,-0.04336799308657646,-1.5965741316424769,5.678341637137024e-41,0.08212672173976898,0.8255822062492371,-0.0,-0.012275118380784988,0.8138384222984314,-0.002313027624040842,-0.315611332654953
935.0,913.0,1.4578,0.0885,8.4748,-0.068,-0.5669,-0.1184,-1.711376806298727,-0.11860082298517227,2.1480181217193604,-1.8438466787338257,0.6600320935249329,2.5507311820983887,4.830412569433012,-1.0742148160934448,-0.03734423965215683,-1.5965374151812952,6.30242666943559e-08,0.08811695128679276,0.8255462646484375,-0.0,-0.0021596630103886127,0.8137335181236267,-0.0028262247797101736,-0.3325040936470032
935.0,913.0,1.4578,0.0885,8.4748,-0.068,-0.5669,-0.1184,-1.7120219669737757,-0.12138504534959793,2.188319206237793,-1.8398573398590088,0.6525440216064453,2.579601764678955,4.823976228922167,-1.0618890523910522,-0.034768182784318924,-1.5965340773211878,1.754303473322505e-11,0.08432985842227936,0.8255382180213928,-0.0,-0.005308382213115692,0.8137862682342529,-0.004137274343520403,-0.3003567159175873
935.0,913.0,1.4578,0.0885,8.4748,-0.068,-0.5669,-0.1184,-1.7128526173033656,-0.122650146484375,2.2149605751037598,-1.8358410596847534,0.6558809876441956,2.537041664123535,4.817815232067861,-1.0479899644851685,-0.05595644563436508,-1.5965097586261194,1.5550696844002232e-05,0.07586108148097992,0.8255343437194824,-0.0,0.004526918288320303,0.8137341737747192,-0.003940494265407324,-0.3266109526157379
935.0,913.0,1.4578,0.0885,8.4748,-0.068,-0.5669,-0.1184,-1.7133127651610316,-0.12307713180780411,2.1947004795074463,-1.8331936597824097,0.6601571440696716,2.536912441253662,4.813749003201284,-1.0365177392959595,-0.03389648348093033,-1.5965178648578089,8.76960257301107e-05,0.09829620271921158,0.8255343437194824,-0.0,0.0015242497902363539,0.8137500286102295,-0.0027796656358987093,-0.2335454225540161
935.0,913.0,1.4578,0.0885,8.4748,-0.068,-0.5669,-0.1184,-1.7140652141966761,-0.1221407875418663,2.1954503059387207,-1.829280972480774,0.6683091521263123,2.5381927490234375,4.80754521021203,-1.0150063037872314,-0.056925639510154724,-1.5965340773211878,6.808248144807294e-05,0.08421248942613602,0.8255462646484375,-1.8590657418826595e-05,-0.003995178733021021,0.8137019276618958,-0.001871095155365765,-0.30775243043899536
935.0,913.0,1.4578,0.0885,8.4748,-0.068,-0.5669,-0.1184,-1.7148591480650843,-0.12580983340740204,2.2416951656341553,-1.825319766998291,0.6655675172805786,2.546769618988037,4.801345284074106,-1.0034472942352295,-0.03637268394231796,-1.5965412298785608,7.514001026720507e-06,0.08138276636600494,0.8255503177642822,-5.3044768719701096e-05,-0.0033750319853425026,0.813714325428009,-0.002271427772939205,-0.32176581025123596
935.0,913.0,1.4578,0.0885,8.4748,-0.068,-0.5669,-0.1184,-1.7156478367247523,-0.1379372477531433,2.219449996948242,-1.821351170539856,0.6595277190208435,2.5854268074035645,4.795326481550493,-1.0012542009353638,-0.03135564178228378,-1.5965493361102503,2.091550044269752e-09,0.07932247966527939,0.8255422115325928,-5.124250310473144e-05,-0.011511341668665409,0.8136575222015381,-0.0037556765601038933,-0.3553970456123352
935.0,913.0,1.4578,0.0885,8.4748,-0.068,-0.5669,-0.1184,-1.7164966068663539,-0.15129946172237396,2.2042086124420166,-1.8173131942749023,0.667926013469696,2.6289772987365723,4.789487312525072,-0.9896416068077087,-0.04216552525758743,-1.5965574423419397,5.821905999826849e-13,0.08106477558612823,0.8255701065063477,-2.5116200049524195e-05,0.003937716595828533,0.8136537671089172,-0.0027038920670747757,-0.28594040870666504
935.0,913.0,1.4578,0.0885,8.4748,-0.068,-0.5669,-0.1184,-1.7171212635436,-0.15661753714084625,2.2383861541748047,-1.8146275281906128,0.6721844673156738,2.5379772186279297,4.785575251072206,-0.9796151518821716,-0.04275783896446228,-1.596569840108053,2.4819695892974464e-15,0.08715178072452545,0.8255783915519714,-1.070742996489571e-07,0.00983402505517006,0.8136541843414307,-0.002371925860643387,-0.35486602783203125
935.0,913.0,1.4578,0.0885,8.4748,-0.068,-0.5669,-0.1184,-1.7180949650206507,-0.15194587409496307,2.2238306999206543,-1.8105751276016235,0.6741621494293213,2.592613697052002,4.779898258834638,-0.9644201993942261,-0.04546850547194481,-1.5965617338763636,6.908653318085632e-19,0.09323541820049286,0.8255503177642822,-2.980452690204416e-11,-0.004627011716365814,0.8135616183280945,-0.0042978012934327126,-0.2790171802043915
935.0,913.0,1.4578,0.0885,8.4748,-0.068,-0.5669,-0.1184,-1.7190524540343226,-0.14290578663349152,2.2210378646850586,-1.8065382242202759,0.6703267693519592,2.6025161743164062,4.774033139436998,-0.9492849111557007,-0.010218515060842037,-1.5965541044818323,1.9230490164727597e-22,0.0771695077419281,0.8255741596221924,-8.296199827378253e-15,-0.009633265435695648,0.8135979175567627,-0.005321737378835678,-0.2739318907260895
937.0,883.0,1.8574,-0.1208,9.1645,-0.0421,-0.4088,-0.1242,-1.7200023136534632,-0.14906030893325806,2.254364490509033,-1.802480936050415,0.6708818674087524,2.6280436515808105,4.768379005580702,-0.9361284971237183,-0.034628164023160934,-1.5965340773211878,5.352877918432978e-26,0.08636661618947983,0.8255981206893921,-2.3092777527821585e-18,-0.005358424037694931,0.8135938048362732,-0.0032008772250264883,-0.27252212166786194
937.0,883.0,1.8574,-0.1208,9.1645,-0.0421,-0.4088,-0.1242,-1.7206298313536585,-0.15825708210468292,2.1830854415893555,-1.799857258796692,0.6731906533241272,2.567427635192871,4.764653540193596,-0.929675281047821,-0.033896174281835556,-1.5965340773211878,2.282015613287478e-28,0.08279554545879364,0.8255701065063477,-9.844813652715602e-21,-0.005478769540786743,0.8135979175567627,-0.001750623108819127,-0.31190934777259827
937.0,883.0,1.8574,-0.1208,9.1645,-0.0421,-0.4088,-0.1242,-1.721591135064596,-0.17325131595134735,2.1810755729675293,-1.7958375215530396,0.6769676804542542,2.615499973297119,4.759174845158615,-0.9112398028373718,-0.031716108322143555,-1.596581761037008,6.352074071772884e-32,0.09336646646261215,0.8255941271781921,-2.7403402793913195e-24,-0.012205824255943298,0.8135334253311157,-0.0004974029725417495,-0.25164127349853516
937.0,883.0,1.8574,-0.1208,9.1645,-0.0421,-0.4088,-0.1242,-1.7226406536498011,-0.18125571310520172,2.238715648651123,-1.79180908203125,0.6703343391418457,2.579305648803711,4.753701030253925,-0.9088988304138184,-0.02999279648065567,-1.5965455214129847,1.7681231568260795e-35,0.08298848569393158,0.8255941271781921,-7.627838137740086e-28,-0.008055407553911209,0.8135498762130737,-0.002747495658695698,-0.32138901948928833
937.0,883.0,1.8574,-0.1208,9.1645,-0.0421,-0.4088,-0.1242,-1.7236877880492152,-0.17807988822460175,2.2442402839660645,-1.787811517715454,0.667249858379364,2.5401737689971924,4.748333471804418,-0.9018648266792297,-0.02937847375869751,-1.5965216795550745,4.9216362625062295e-39,0.09006057679653168,0.8255382180213928,-2.123237141370497e-31,-0.00918733049184084,0.8135581016540527,-0.004051044583320618,-0.2974349856376648
937.0,883.0,1.8574,-0.1208,9.1645,-0.0421,-0.4088,-0.1242,-1.7244144878783167,-0.1701374500989914,2.2100136280059814,-1.7850927114486694,0.6758745908737183,2.6556193828582764,4.744684583484688,-0.8932386636734009,-0.028611868619918823,-1.5965302626239222,2.0981641906335486e-41,0.07896540313959122,0.8255582451820374,-9.051692210415477e-34,-0.006981237791478634,0.8135342001914978,-0.003472139360383153,-0.3216552734375
937.0,883.0,1.8574,-0.1208,9.1645,-0.0421,-0.4088,-0.1242,-1.7255131206908167,-0.16283464431762695,2.271523952484131,-1.7810546159744263,0.6738529801368713,2.6035518646240234,4.739283791720428,-0.8780912160873413,-0.026579950004816055,-1.596541706715719,5.605193857299268e-45,0.07939188182353973,0.8255662322044373,-2.5195718573432336e-37,-0.01030562724918127,0.8135581016540527,-0.002116589806973934,-0.29510557651519775
937.0,883.0,1.8574,-0.1208,9.1645,-0.0421,-0.4088,-0.1242,-1.726497312585348,-0.17118391394615173,2.248828172683716,-1.7770609855651855,0.6617197394371033,2.559904098510742,4.734072563215651,-0.8795903325080872,-0.03983813524246216,-1.5965178648578089,0.0,0.08264178037643433,0.825498104095459,-7.013358684099277e-41,-0.007243267260491848,0.8135461211204529,-0.0014049119781702757,-0.3386297821998596
937.0,883.0,1.8574,-0.1208,9.1645,-0.0421,-0.4088,-0.1242,-1.72755827526235,-0.1924843043088913,2.195857048034668,-1.7730714082717896,0.6502935290336609,2.5561137199401855,4.728872840269961,-0.8738623857498169,-0.03366091474890709,-1.596541706715719,0.0,0.07873976230621338,0.825566291809082,-1.961817850054744e-44,-0.007551254238933325,0.8135218620300293,-0.0007761088199913502,-0.33585065603256226
937.0,883.0,1.8574,-0.1208,9.1645,-0.0421,-0.4088,-0.1242,-1.7283045254149378,-0.1994665414094925,2.228595018386841,-1.7704094648361206,0.6500436067581177,2.608185291290283,4.7254792647208355,-0.8707166910171509,-0.04481681436300278,-1.5965617338763636,0.0,0.08546501398086548,0.8255943655967712,-0.0,-0.01528099738061428,0.813549816608429,-0.000622560502961278,-0.27204322814941406
937.0,883.0,1.8574,-0.1208,9.1645,-0.0421,-0.4088,-0.1242,-1.7293969593443812,-0.19809284806251526,2.2593371868133545,-1.766596794128418,0.6542558073997498,2.5351662635803223,4.720368549204924,-0.8577508926391602,-0.027741558849811554,-1.5965178648578089,0.0,0.07703204452991486,0.8256140947341919,-0.0,-0.00544279720634222,0.8135095834732056,-0.0005544316954910755,-0.305277556180954
937.0,883.0,1.8574,-0.1208,9.1645,-0.0421,-0.4088,-0.1242,-1.7305265865721644,-0.18579690158367157,2.224177360534668,-1.7626861333847046,0.6566734910011292,2.5220699310302734,4.715195329837062,-0.8426703214645386,-0.01952812448143959,-1.5964978376971644,0.0,0.08400480449199677,0.825522243976593,-0.0,-0.017576858401298523,0.8134897947311401,-0.0022611820604652166,-0.35247713327407837
937.0,883.0,1.8574,-0.1208,9.1645,-0.0421,-0.4088,-0.1242,-1.7316400013365687,-0.17678414285182953,2.2399508953094482,-1.7588446140289307,0.6535188555717468,2.5558249950408936,4.710104628200195,-0.8365828990936279,-0.01611979678273201,-1.5965302626239222,0.0,0.07980381697416306,0.8255621790885925,-0.0,-0.01662173494696617,0.8134574890136719,-0.0035828978288918734,-0.32591304183006287
937.0,883.0,1.8574,-0.1208,9.1645,-0.0421,-0.4088,-0.1242,-1.732765337029928,-0.18037497997283936,2.2906389236450195,-1.7548989057540894,0.6541860699653625,2.64475154876709,4.70518605291333,-0.8180315494537354,-0.02451518177986145,-1.5965455214129847,0.0,0.0857044905424118,0.8255422711372375,-0.0,-0.0064478181302547455,0.8135178685188293,-0.0019395251292735338,-0.2949265241622925
937.0,883.0,1.8574,-0.1208,9.1645,-0.0421,-0.4088,-0.1242,-1.7335096798338832,-0.18810993432998657,2.2674973011016846,-1.7523133754730225,0.6511322855949402,2.6412124633789062,4.701859636897705,-0.8128610849380493,0.0006988316308706999,-1.5965259710894983,0.0,0.0667831152677536,0.8255462646484375,-0.0,-0.005064091179519892,0.8134573101997375,-0.0008210987434722483,-0.31630903482437134
937.0,883.0,1.8574,-0.1208,9.1645,-0.0421,-0.4088,-0.1242,-1.734692235986227,-0.19877412915229797,2.2872886657714844,-1.748351812362671,0.6442492604255676,2.5766477584838867,4.697058840388916,-0.8036683201789856,-0.03833623602986336,-1.5965178648578089,0.0,0.07293839752674103,0.8255343437194824,-0.0,0.0002802623203024268,0.8134413361549377,0.00028454416315071285,-0.2876981794834137
937.0,883.0,1.8574,-0.1208,9.1645,-0.0421,-0.4088,-0.1242,-1.735861440698141,-0.2091461420059204,2.255054473876953,-1.7444978952407837,0.6332563161849976,2.5964736938476562,4.692292852992676,-0.8017187118530273,-0.0287461020052433,-1.5965536276446741,0.0,0.07032118737697601,0.8255143761634827,-0.0,-0.014962058514356613,0.8134778738021851,5.181260007702804e-07,-0.24602852761745453
890.0,851.0,2.4879,0.4211,9.9894,-0.0388,-0.3291,-0.118,-1.737030645410055,-0.21181418001651764,2.2001380920410156,-1.7406120300292969,0.6292247772216797,2.619831085205078,4.687596006984375,-0.7855323553085327,-0.020978499203920364,-1.5965340773211878,0.0,0.07285492867231369,0.8255422711372375,-0.0,0.00014757653116248548,0.8134335279464722,1.251213325656475e-12,-0.26512715220451355
890.0,851.0,2.4879,0.4211,9.9894,-0.0388,-0.3291,-0.118,-1.7378603420653285,-0.2078913003206253,2.2743237018585205,-1.738114595413208,0.6334471106529236,2.5175366401672363,4.684424563045166,-0.7752244472503662,-0.024021832272410393,-1.596473519002096,0.0,0.07101019471883774,0.8255583643913269,-0.0,-0.0034207787830382586,0.8134376406669617,-0.0009960379684343934,-0.27898311614990234
890.0,851.0,2.4879,0.4211,9.9894,-0.0388,-0.3291,-0.118,-1.738992830316061,-0.19813507795333862,2.288691520690918,-1.7343387603759766,0.6399421095848083,2.592474937438965,4.679724856013916,-0.7575013041496277,-0.02935657650232315,-1.5965383688556116,0.0,0.07577614486217499,0.8255581855773926,-0.0,-0.018161006271839142,0.8134379982948303,-0.0016260548727586865,-0.265627384185791
890.0,851.0,2.4879,0.4211,9.9894,-0.0388,-0.3291,-0.118,-1.7401663265623988,-0.1887274831533432,2.3290488719940186,-1.7305610179901123,0.6363649964332581,2.5492665767669678,4.675239725703857,-0.7447860240936279,-0.015954647213220596,-1.596557919179098,0.0,0.08525343239307404,0.8255860209465027,-0.0,0.001640179893001914,0.81346595287323,-0.002195522887632251,-0.297487735748291
