ramyac6/ROB537/final_project/csv/all/bad_34.csv
tof_0,tof_1,accelx,accely,accelz,gyrox,gyroy,gyroz,shoulder_lift_joint_position,shoulder_lift_joint_velocity,shoulder_lift_joint_effort,elbow_joint_position,elbow_joint_velocity,elbow_joint_effort,wrist_1_joint_position,wrist_1_joint_velocity,wrist_1_joint_effort,wrist_2_joint_position,wrist_2_joint_velocity,wrist_2_joint_effort,wrist_3_joint_position,wrist_3_joint_velocity,wrist_3_joint_effort,shoulder_pan_joint_position,shoulder_pan_joint_velocity,shoulder_pan_joint_effort
154.0,198.0,3.7484,-2.948,7.9448,-0.0336,0.0165,-0.1159,-1.674657484094137,0.0,2.6339058876037598,-1.5610463619232178,-0.0,2.1636617183685303,4.278001947993896,0.0,0.2885587513446808,-1.3798349539386194,-0.0,-0.01997269317507744,1.1092898845672607,-0.0,-0.0024506310001015663,1.130804419517517,0.0,0.034929875284433365
154.0,198.0,3.7484,-2.948,7.9448,-0.0336,0.0165,-0.1159,-1.6746894321837367,0.0,2.6523385047912598,-1.5610578060150146,-0.0,2.1500649452209473,4.277966185207031,0.0,0.2748330235481262,-1.3798349539386194,-0.0,-0.020266227424144745,1.109305739402771,-0.0,0.0004949811846017838,1.130800485610962,0.0,0.006750826723873615
154.0,198.0,3.7484,-2.948,7.9448,-0.0336,0.0165,-0.1159,-1.674713750878805,0.0,2.668515205383301,-1.561042308807373,-0.0,2.197488307952881,4.277990980739258,0.0,0.28118377923965454,-1.3798349539386194,-0.0,-0.025416336953639984,1.1092981100082397,-0.0,-0.020421357825398445,1.1307885646820068,0.0,0.0503728874027729
154.0,198.0,3.7484,-2.948,7.9448,-0.0336,0.0165,-0.1159,-1.674645563165182,0.0,2.6223411560058594,-1.5611145496368408,-0.0,2.231557607650757,4.278022928828857,0.0,0.2755974233150482,-1.3798072973834437,-0.0,-0.02200251817703247,1.1092250347137451,-0.0,-0.00431043840944767,1.130792260169983,0.0,-0.01187134813517332
154.0,198.0,3.7484,-2.948,7.9448,-0.0336,0.0165,-0.1159,-1.6747218571104945,0.0,2.631784439086914,-1.561042308807373,-0.0,2.1271297931671143,4.27803008138623,0.0,0.28846344351768494,-1.3798111120807093,-0.0,-0.021220054477453232,1.1093260049819946,-0.0,0.0025761539582163095,1.130792260169983,0.0,0.009851808659732342
154.0,198.0,3.7484,-2.948,7.9448,-0.0336,0.0165,-0.1159,-1.6746937237181605,0.0,2.666717767715454,-1.5610743761062622,-0.0,2.1464405059814453,4.2780467706867675,0.0,0.2810363471508026,-1.3798311392413538,-0.0,-0.016084028407931328,1.1092332601547241,-0.0,-0.014106227084994316,1.1308045387268066,0.0,0.058629587292671204
154.0,198.0,3.7484,-2.948,7.9448,-0.0336,0.0165,-0.1159,-1.6746818027892054,0.0,2.6237149238586426,-1.5610175132751465,-0.0,2.1874475479125977,4.278002424831055,0.0,0.2773059606552124,-1.3797953764544886,-0.0,-0.02167542092502117,1.109285593032837,-0.0,-0.010695930570363998,1.1308528184890747,0.0,0.0063384356908500195
154.0,198.0,3.7484,-2.948,7.9448,-0.0336,0.0165,-0.1159,-1.6746937237181605,0.0,2.626798152923584,-1.5610216856002808,-0.0,2.211515426635742,4.278014822597168,0.0,0.27852731943130493,-1.3798111120807093,-0.0,-0.032419655472040176,1.1091892719268799,-0.0,0.0002730706473812461,1.130792260169983,0.0,-0.007831803523004055
154.0,198.0,3.7484,-2.948,7.9448,-0.0336,0.0165,-0.1159,-1.674645563165182,0.0,2.61883544921875,-1.5610463619232178,-0.0,2.1881473064422607,4.278014822597168,0.0,0.2825981378555298,-1.3798349539386194,-0.0,-0.011082402430474758,1.1093060970306396,-0.0,-0.010612367652356625,1.130756139755249,0.0,0.017601378262043
156.0,196.0,3.7017,-2.8869,8.0907,-0.0331,0.0195,-0.1103,-1.6746775112547816,0.0,2.643012762069702,-1.5609978437423706,-0.0,2.1497182846069336,4.278031035060547,0.0,0.2871607542037964,-1.3798630873309534,-0.0,-0.024364082142710686,1.109253168106079,-0.0,-0.008480582386255264,1.1308168172836304,0.0,0.01738632842898369
156.0,196.0,3.7017,-2.8869,8.0907,-0.0331,0.0195,-0.1103,-1.6746775112547816,0.0,2.6212158203125,-1.5610339641571045,-0.0,2.180947780609131,4.278033896083496,0.0,0.2800408601760864,-1.3797910849200647,-0.0,-0.01757742464542389,1.109273076057434,-0.0,-0.005880999844521284,1.130764365196228,0.0,0.023061636835336685
156.0,196.0,3.7017,-2.8869,8.0907,-0.0331,0.0195,-0.1103,-1.6746694050230921,0.0,2.639248847961426,-1.5610339641571045,-0.0,2.2359659671783447,4.278002424831055,0.0,0.2795940041542053,-1.3798592726336878,-0.0,-0.02071337215602398,1.1092450618743896,-0.0,-0.005859913304448128,1.130764365196228,0.0,-0.00693478062748909
156.0,196.0,3.7017,-2.8869,8.0907,-0.0331,0.0195,-0.1103,-1.674657484094137,0.0,2.6424736976623535,-1.5610226392745972,-0.0,2.192852020263672,4.27800623952832,0.0,0.28714945912361145,-1.3798230330096644,-0.0,-0.023208435624837875,1.109305739402771,-0.0,-0.002824814058840275,1.130828619003296,0.0,0.01681775599718094
156.0,196.0,3.7017,-2.8869,8.0907,-0.0331,0.0195,-0.1103,-1.6746732197203578,0.0,2.6137452125549316,-1.5610421895980835,-0.0,2.2312748432159424,4.2780467706867675,0.0,0.2819947600364685,-1.3798511664019983,-0.0,-0.025882940739393234,1.1092568635940552,-0.0,-0.00048562558367848396,1.1308085918426514,0.0,0.017307685688138008
156.0,196.0,3.7017,-2.8869,8.0907,-0.0331,0.0195,-0.1103,-1.6746694050230921,0.0,2.6553802490234375,-1.5609896183013916,-0.0,2.1598119735717773,4.278010531062744,0.0,0.28409671783447266,-1.3798230330096644,-0.0,-0.03496738150715828,1.109233021736145,-0.0,-0.021243970841169357,1.1308245658874512,0.0,0.003579726442694664
156.0,196.0,3.7017,-2.8869,8.0907,-0.0331,0.0195,-0.1103,-1.6746612987914027,0.0,2.61472225189209,-1.561025857925415,-0.0,2.183526039123535,4.277982874507568,0.0,0.2879502773284912,-1.379815403615133,-0.0,-0.015825532376766205,1.1093339920043945,-0.0,-0.0012170925037935376,1.1307803392410278,0.0,0.020097654312849045
156.0,196.0,3.7017,-2.8869,8.0907,-0.0331,0.0195,-0.1103,-1.6747013531126917,0.0,2.6398448944091797,-1.56105375289917,-0.0,2.185340404510498,4.277999086970947,0.0,0.27929115295410156,-1.3798349539386194,-0.0,-0.027725130319595337,1.1093099117279053,-0.0,-0.005335444584488869,1.1308085918426514,0.0,-0.0007634572684764862
156.0,196.0,3.7017,-2.8869,8.0907,-0.0331,0.0195,-0.1103,-1.674673696557516,0.0,2.63934326171875,-1.5610339641571045,-0.0,2.1522297859191895,4.278014822597168,0.0,0.27846506237983704,-1.3798349539386194,-0.0,-0.028858143836259842,1.1093021631240845,-0.0,-0.010989250615239143,1.130776286125183,0.0,0.016214577481150627
156.0,196.0,3.7017,-2.8869,8.0907,-0.0331,0.0195,-0.1103,-1.6746894321837367,0.0,2.6469902992248535,-1.561034083366394,-0.0,2.165099620819092,4.277994795436523,0.0,0.279887855052948,-1.3798230330096644,-0.0,-0.025178831070661545,1.1092690229415894,-0.0,0.005036505870521069,1.1308003664016724,0.0,0.021841663867235184
156.0,196.0,3.7017,-2.8869,8.0907,-0.0331,0.0195,-0.1103,-1.6746732197203578,0.0,2.638035774230957,-1.5610390901565552,-0.0,2.192744731903076,4.278054876918457,0.0,0.28231579065322876,-1.3798192183123987,-0.0,-0.025527816265821457,1.1093299388885498,-0.0,0.0056025367230176926,1.130820870399475,0.0,0.0268029123544693
156.0,196.0,3.7017,-2.8869,8.0907,-0.0331,0.0195,-0.1103,-1.6746651134886683,0.0,2.664217472076416,-1.5610862970352173,-0.0,2.176546096801758,4.277993841762207,0.0,0.2856793999671936,-1.379815403615133,-0.0,-0.03549889475107193,1.109269380569458,-0.0,0.0018486989429220557,1.1308085918426514,0.0,0.01282392255961895
156.0,196.0,3.7017,-2.8869,8.0907,-0.0331,0.0195,-0.1103,-1.6746775112547816,0.0,2.6162071228027344,-1.561090350151062,-0.0,2.245574474334717,4.278002424831055,0.0,0.2886292338371277,-1.3798230330096644,-0.0,-0.030882593244314194,1.1092898845672607,-0.0,-0.008176556788384914,1.13084876537323,0.0,-0.0052877068519592285
156.0,196.0,3.7017,-2.8869,8.0907,-0.0331,0.0195,-0.1103,-1.674645563165182,0.0,2.6246836185455322,-1.5610703229904175,-0.0,2.18510103225708,4.2780186372944335,0.0,0.291667640209198,-1.3798311392413538,-0.0,-0.018282322213053703,1.1092774868011475,-0.0,-0.015276937745511532,1.1308205127716064,0.0,-0.029205724596977234
156.0,196.0,3.7017,-2.8869,8.0907,-0.0331,0.0195,-0.1103,-1.6746775112547816,0.0,2.618569850921631,-1.5610144138336182,-0.0,2.1901299953460693,4.2779785829731445,0.0,0.28601497411727905,-1.379803482686178,-0.0,-0.019497841596603394,1.1092528104782104,-0.0,-0.0014069636818021536,1.1308085918426514,0.0,-0.01923695206642151
156.0,196.0,3.7017,-2.8869,8.0907,-0.0331,0.0195,-0.1103,-1.6747094593443812,0.0,2.609633445739746,-1.5610218048095703,-0.0,2.205669641494751,4.2780420023151855,0.0,0.29545289278030396,-1.3798311392413538,-0.0,-0.0297107994556427,1.1092450618743896,-0.0,-0.0014549845363944769,1.130812644958496,0.0,-0.03018605150282383
152.0,196.0,3.8183,-2.9204,8.0399,-0.0379,0.0191,-0.1159,-1.6746412716307582,0.0,2.584866762161255,-1.5609978437423706,-0.0,2.1726441383361816,4.27800623952832,0.0,0.2851090729236603,-1.3798349539386194,-0.0,-0.026038939133286476,1.109249234199524,-0.0,-0.011916573159396648,1.1308085918426514,0.0,0.0018405439332127571
152.0,196.0,3.8183,-2.9204,8.0399,-0.0379,0.0191,-0.1159,-1.6746493778624476,0.0,2.5789742469787598,-1.5609937906265259,-0.0,2.169417381286621,4.278038664455078,0.0,0.2980732321739197,-1.3798192183123987,-0.0,-0.02722744643688202,1.109269380569458,-0.0,-0.004703882150352001,1.1307963132858276,0.0,-0.005714300088584423
152.0,196.0,3.8183,-2.9204,8.0399,-0.0379,0.0191,-0.1159,-1.6747094593443812,0.0,2.592867374420166,-1.5610381364822388,-0.0,2.1764378547668457,4.278042479152344,0.0,0.2805488109588623,-1.3798630873309534,-0.0,-0.035701461136341095,1.109249234199524,-0.0,-0.017871195450425148,1.130792260169983,0.0,0.003425188362598419
152.0,196.0,3.8183,-2.9204,8.0399,-0.0379,0.0191,-0.1159,-1.6746412716307582,0.0,2.642119884490967,-1.5610218048095703,-0.0,2.1417744159698486,4.278010531062744,0.0,0.2786518335342407,-1.379875961934225,-0.0,-0.03020712360739708,1.1093217134475708,-0.0,0.005255982745438814,1.130820870399475,0.0,0.02495909295976162
152.0,196.0,3.8183,-2.9204,8.0399,-0.0379,0.0191,-0.1159,-1.6746851406493128,0.0,2.5943546295166016,-1.561025857925415,-0.0,2.205656051635742,4.27803008138623,0.0,0.2900387644767761,-1.3798192183123987,-0.0,-0.018525024875998497,1.109285593032837,-0.0,0.007439900655299425,1.1308647394180298,0.0,0.01658264733850956
152.0,196.0,3.8183,-2.9204,8.0399,-0.0379,0.0191,-0.1159,-1.6746818027892054,0.0,2.6009089946746826,-1.5609978437423706,-0.0,2.2428150177001953,4.2780186372944335,0.0,0.28654158115386963,-1.3798592726336878,-0.0,-0.01975209452211857,1.1092450618743896,-0.0,-0.003546935273334384,1.1307806968688965,0.0,-0.020495695993304253
152.0,196.0,3.8183,-2.9204,8.0399,-0.0379,0.0191,-0.1159,-1.6746612987914027,0.0,2.6512861251831055,-1.561061978340149,-0.0,2.1844115257263184,4.27798239767041,0.0,0.28878527879714966,-1.379803482686178,-0.0,-0.02475450187921524,1.1092898845672607,-0.0,-0.004353757947683334,1.1308168172836304,0.0,-0.027434784919023514
152.0,196.0,3.8183,-2.9204,8.0399,-0.0379,0.0191,-0.1159,-1.6747461758055628,0.0,2.62760591506958,-1.5610547065734863,-0.0,2.1951076984405518,4.278083010310791,0.0,0.2825147807598114,-1.3798349539386194,-0.0,-0.01815330982208252,1.1093021631240845,-0.0,-0.004939190577715635,1.1307685375213623,0.0,-0.0029154811054468155
152.0,196.0,3.8183,-2.9204,8.0399,-0.0379,0.0191,-0.1159,-1.674685617486471,0.0,2.6214990615844727,-1.5610142946243286,-0.0,2.154902935028076,4.27803008138623,0.0,0.2818267345428467,-1.3798230330096644,-0.0,-0.020023692399263382,1.109294056892395,-0.0,-0.004541416652500629,1.1307963132858276,0.0,0.023408718407154083
152.0,196.0,3.8183,-2.9204,8.0399,-0.0379,0.0191,-0.1159,-1.6746493778624476,0.0,2.611548900604248,-1.561050534248352,-0.0,2.173753499984741,4.2780186372944335,0.0,0.2895095944404602,-1.3798711935626429,-0.0,-0.02190256118774414,1.109337568283081,-0.0,-0.01552304532378912,1.1308085918426514,0.0,-0.01650361716747284
152.0,196.0,3.8183,-2.9204,8.0399,-0.0379,0.0191,-0.1159,-1.6746694050230921,0.0,2.63161039352417,-1.5609900951385498,-0.0,2.1851344108581543,4.2780467706867675,0.0,0.30007970333099365,-1.3798111120807093,-0.0,-0.004907818511128426,1.109302043914795,-0.0,-0.007322919089347124,1.130776286125183,0.0,0.0031107915565371513
152.0,196.0,3.8183,-2.9204,8.0399,-0.0379,0.0191,-0.1159,-1.6746851406493128,0.0,2.6715409755706787,-1.561042308807373,-0.0,2.2230684757232666,4.27803008138623,0.0,0.28720685839653015,-1.3798592726336878,-0.0,-0.02431260421872139,1.1092733144760132,-0.0,0.0014454093761742115,1.1307882070541382,0.0,-0.047600552439689636
152.0,196.0,3.8183,-2.9204,8.0399,-0.0379,0.0191,-0.1159,-1.6746612987914027,0.0,2.661896228790283,-1.5610463619232178,-0.0,2.1910018920898438,4.278010531062744,0.0,0.2936186194419861,-1.3798349539386194,-0.0,-0.025023017078638077,1.1092488765716553,-0.0,0.0012563695199787617,1.130800485610962,0.0,-0.013755008578300476
152.0,196.0,3.8183,-2.9204,8.0399,-0.0379,0.0191,-0.1159,-1.6746937237181605,0.0,2.626070976257324,-1.5609776973724365,-0.0,2.1689321994781494,4.277993841762207,0.0,0.27454161643981934,-1.379815403615133,-0.0,-0.02480785921216011,1.1092650890350342,-0.0,-0.0024687545374035835,1.130792260169983,0.0,0.03316311165690422
152.0,196.0,3.8183,-2.9204,8.0399,-0.0379,0.0191,-0.1159,-1.6746612987914027,0.0,2.633974552154541,-1.5610339641571045,-0.0,2.193906545639038,4.2780420023151855,0.0,0.2845412790775299,-1.3798511664019983,-0.0,-0.018126940354704857,1.1092898845672607,-0.0,-0.0077889300882816315,1.1307885646820068,0.0,-0.005802864208817482
152.0,196.0,3.8183,-2.9204,8.0399,-0.0379,0.0191,-0.1159,-1.6747261486449183,0.0,2.619279146194458,-1.561025857925415,-0.0,2.243103265762329,4.2780467706867675,0.0,0.2822556793689728,-1.3797953764544886,-0.0,-0.030948812142014503,1.1092981100082397,-0.0,-0.006093776784837246,1.1308045387268066,0.0,-0.041636332869529724
152.0,196.0,3.8183,-2.9204,8.0399,-0.0379,0.0191,-0.1159,-1.674657484094137,0.0,2.648238182067871,-1.5610018968582153,-0.0,2.2093122005462646,4.277994795436523,0.0,0.28364986181259155,-1.379815403615133,-0.0,-0.02109844610095024,1.1092774868011475,-0.0,-0.0016047265380620956,1.130828619003296,0.0,-0.022561747580766678
150.0,198.0,3.731,-2.9228,8.0967,-0.0359,0.0232,-0.1176,-1.6746775112547816,0.0,2.633920192718506,-1.5610464811325073,-0.0,2.143409013748169,4.278002424831055,0.0,0.29507315158843994,-1.3798192183123987,-0.0,-0.025069886818528175,1.1093178987503052,-0.0,-2.640055026859045e-05,1.1307963132858276,0.0,-0.041106730699539185
150.0,198.0,3.731,-2.9228,8.0967,-0.0359,0.0232,-0.1176,-1.6746775112547816,0.0,2.6262316703796387,-1.561050534248352,-0.0,2.195521116256714,4.278026743526123,0.0,0.2894536554813385,-1.379854981099264,-0.0,-0.0356481708586216,1.1092615127563477,-0.0,-0.012973207980394363,1.1308127641677856,0.0,0.02113744243979454
150.0,198.0,3.731,-2.9228,8.0967,-0.0359,0.0232,-0.1176,-1.674645563165182,0.0,2.651916980743408,-1.561058759689331,-0.0,2.2109217643737793,4.278050585384033,0.0,0.29316094517707825,-1.3798311392413538,-0.0,-0.025563795119524002,1.1092779636383057,-0.0,-0.009180882014334202,1.1307885646820068,0.0,-0.02266678959131241
150.0,198.0,3.731,-2.9228,8.0967,-0.0359,0.0232,-0.1176,-1.6747218571104945,0.0,2.6227574348449707,-1.5610463619232178,-0.0,2.215602159500122,4.2779738146015625,0.0,0.2744216322898865,-1.3798273245440882,-0.0,-0.012828020378947258,1.109269380569458,-0.0,-0.0009392641950398684,1.1307803392410278,0.0,-0.007376966066658497
150.0,198.0,3.731,-2.9228,8.0967,-0.0359,0.0232,-0.1176,-1.6746655903258265,0.0,2.593871593475342,-1.56105375289917,-0.0,2.1883082389831543,4.277961893672607,0.0,0.2866625487804413,-1.3798068205462855,-0.0,-0.022121159359812737,1.1092650890350342,-0.0,-0.005949835292994976,1.130776286125183,0.0,0.032677970826625824
150.0,198.0,3.731,-2.9228,8.0967,-0.0359,0.0232,-0.1176,-1.6746894321837367,0.0,2.622189521789551,-1.561025857925415,-0.0,2.2114994525909424,4.278033896083496,0.0,0.2700078785419464,-1.3798273245440882,-0.0,-0.012955009005963802,1.1092774868011475,-0.0,0.004156007431447506,1.130840539932251,0.0,-0.01306490134447813
150.0,198.0,3.731,-2.9228,8.0967,-0.0359,0.0232,-0.1176,-1.6747056446471156,0.0,2.6671786308288574,-1.56105375289917,-0.0,2.215090036392212,4.2780749040791015,0.0,0.3023277521133423,-1.3798273245440882,-0.0,-0.02803327515721321,1.1092816591262817,-0.0,-0.0032238157000392675,1.1308084726333618,0.0,-0.024849068373441696
150.0,198.0,3.731,-2.9228,8.0967,-0.0359,0.0232,-0.1176,-1.674697061578268,0.0,2.6487059593200684,-1.56105375289917,-0.0,2.216743230819702,4.278074427241943,0.0,0.2979860305786133,-1.3798554579364222,-0.0,-0.025590475648641586,1.1092733144760132,-0.0,0.0029669427312910557,1.1307963132858276,0.0,0.022090069949626923
150.0,198.0,3.731,-2.9228,8.0967,-0.0359,0.0232,-0.1176,-1.6746531925597132,0.0,2.6539499759674072,-1.561025857925415,-0.0,2.228701114654541,4.27803818761792,0.0,0.2782157063484192,-1.379815403615133,-0.0,-0.024647455662488937,1.1092774868011475,-0.0,-0.00341704860329628,1.1307684183120728,0.0,-0.022394513711333275
150.0,198.0,3.731,-2.9228,8.0967,-0.0359,0.0232,-0.1176,-1.6746612987914027,0.0,2.6405625343322754,-1.561042308807373,-0.0,2.219221591949463,4.27803818761792,0.0,0.29532966017723083,-1.3798468748675745,-0.0,-0.023738665506243706,1.1092489957809448,-0.0,-0.004260950721800327,1.130800485610962,0.0,-0.009175215847790241
150.0,198.0,3.731,-2.9228,8.0967,-0.0359,0.0232,-0.1176,-1.6746818027892054,0.0,2.637526512145996,-1.5609776973724365,-0.0,2.1973705291748047,4.277974291438721,0.0,0.28567054867744446,-1.3797953764544886,-0.0,-0.014460504986345768,1.1092369556427002,-0.0,-0.005203299690037966,1.130800485610962,0.0,-0.02712351642549038
150.0,198.0,3.731,-2.9228,8.0967,-0.0359,0.0232,-0.1176,-1.6746651134886683,0.0,2.645841598510742,-1.5610463619232178,-0.0,2.217698574066162,4.278001947993896,0.0,0.2971508800983429,-1.3798587957965296,-0.0,-0.012169616296887398,1.1092250347137451,-0.0,-0.00597313791513443,1.130840539932251,0.0,0.0029649767093360424
150.0,198.0,3.731,-2.9228,8.0967,-0.0359,0.0232,-0.1176,-1.6746851406493128,0.0,2.6213173866271973,-1.5610339641571045,-0.0,2.1870040893554688,4.277982874507568,0.0,0.2881917953491211,-1.3798430601703089,-0.0,-0.017680471763014793,1.109233021736145,-0.0,-0.00747009739279747,1.1308245658874512,0.0,0.06034807488322258
150.0,198.0,3.731,-2.9228,8.0967,-0.0359,0.0232,-0.1176,-1.6747180424132289,0.0,2.6225290298461914,-1.5610061883926392,-0.0,2.175138473510742,4.277990980739258,0.0,0.2762770652770996,-1.3798630873309534,-0.0,-0.01738877408206463,1.1092650890350342,-0.0,-0.007558370474725962,1.1307806968688965,0.0,-0.04294605553150177
150.0,198.0,3.731,-2.9228,8.0967,-0.0359,0.0232,-0.1176,-1.6746937237181605,0.0,2.6395978927612305,-1.5610660314559937,-0.0,2.2170567512512207,4.278042479152344,0.0,0.28981906175613403,-1.3798068205462855,-0.0,-0.015089884400367737,1.109285593032837,-0.0,-0.006789710838347673,1.1308168172836304,0.0,0.007611517328768969
150.0,198.0,3.731,-2.9228,8.0967,-0.0359,0.0232,-0.1176,-1.6746851406493128,0.0,2.5942535400390625,-1.5610102415084839,-0.0,2.2335753440856934,4.27798239767041,0.0,0.2973981499671936,-1.379815403615133,-0.0,-0.02150498516857624,1.1092815399169922,-0.0,-0.0053007532842457294,1.1307963132858276,0.0,0.04989813640713692
150.0,198.0,3.731,-2.9228,8.0967,-0.0359,0.0232,-0.1176,-1.6746732197203578,0.0,2.6274993419647217,-1.5610101222991943,-0.0,2.2117133140563965,4.278014822597168,0.0,0.29233652353286743,-1.3797991911517542,-0.0,-0.011598750948905945,1.109269380569458,-0.0,-0.00266505079343915,1.1308327913284302,0.0,0.002538830041885376
152.0,202.0,3.7065,-2.8947,8.1547,-0.0325,0.0255,-0.1126,-1.674657484094137,0.0,2.6638193130493164,-1.5610463619232178,-0.0,2.165498733520508,4.277998133296631,0.0,0.2878611087799072,-1.379803482686178,-0.0,-0.02618512511253357,1.1093215942382812,-0.0,-0.0074178799986839294,1.1308369636535645,0.0,-0.01783623732626438
152.0,202.0,3.7065,-2.8947,8.1547,-0.0325,0.0255,-0.1126,-1.6747056446471156,0.0,2.6468582153320312,-1.5610299110412598,-0.0,2.181248188018799,4.278002424831055,0.0,0.27428871393203735,-1.3798630873309534,-0.0,-0.032423391938209534,1.1092981100082397,-0.0,-0.006728630978614092,1.130800485610962,0.0,0.0025665382854640484
152.0,202.0,3.7065,-2.8947,8.1547,-0.0325,0.0255,-0.1126,-1.6746894321837367,0.0,2.677274465560913,-1.561018466949463,-0.0,2.1540987491607666,4.27801434576001,0.0,0.28866153955459595,-1.3798230330096644,-0.0,-0.0259612575173378,1.109241008758545,-0.0,-0.003827265929430723,1.1308045387268066,0.0,0.030711714178323746
152.0,202.0,3.7065,-2.8947,8.1547,-0.0325,0.0255,-0.1126,-1.6746694050230921,0.0,2.638477087020874,-1.5610504150390625,-0.0,2.1641759872436523,4.278022928828857,0.0,0.29235535860061646,-1.3798230330096644,-0.0,-0.011852959170937538,1.1093178987503052,-0.0,-0.011991550214588642,1.1307967901229858,0.0,0.0005979547277092934
152.0,202.0,3.7065,-2.8947,8.1547,-0.0325,0.0255,-0.1126,-1.6746732197203578,0.0,2.631526470184326,-1.5610382556915283,-0.0,2.1637773513793945,4.278042479152344,0.0,0.2856101989746094,-1.3798511664019983,-0.0,-0.0282449871301651,1.1093099117279053,-0.0,-0.003353530541062355,1.1308045387268066,0.0,-0.02354263886809349
152.0,202.0,3.7065,-2.8947,8.1547,-0.0325,0.0255,-0.1126,-1.6746694050230921,0.0,2.650881290435791,-1.5610226392745972,-0.0,2.1622538566589355,4.278050585384033,0.0,0.2840258479118347,-1.3798311392413538,-0.0,-0.02829108200967312,1.109269380569458,-0.0,-0.008007936179637909,1.1307963132858276,0.0,0.005870555993169546
152.0,202.0,3.7065,-2.8947,8.1547,-0.0325,0.0255,-0.1126,-1.6747056446471156,0.0,2.6141481399536133,-1.5610382556915283,-0.0,2.189476490020752,4.277993841762207,0.0,0.29110947251319885,-1.3798192183123987,-0.0,-0.03252704069018364,1.1092734336853027,-0.0,0.004370477050542831,1.1308364868164062,0.0,-0.003050641156733036
152.0,202.0,3.7065,-2.8947,8.1547,-0.0325,0.0255,-0.1126,-1.6746975384154261,0.0,2.628443717956543,-1.5610061883926392,-0.0,2.171929359436035,4.278058214778564,0.0,0.2919826805591583,-1.3798554579364222,-0.0,-0.026533734053373337,1.109302043914795,-0.0,-0.028673015534877777,1.1308369636535645,0.0,-0.023219306021928787
152.0,202.0,3.7065,-2.8947,8.1547,-0.0325,0.0255,-0.1126,-1.6747013531126917,0.0,2.644223213195801,-1.5609978437423706,-0.0,2.1882152557373047,4.2779785829731445,0.0,0.29002922773361206,-1.3798511664019983,-0.0,-0.022142495959997177,1.1092774868011475,-0.0,0.000414868351072073,1.130800485610962,0.0,-0.01780056394636631
152.0,202.0,3.7065,-2.8947,8.1547,-0.0325,0.0255,-0.1126,-1.674657484094137,0.0,2.6565537452697754,-1.5609897375106812,-0.0,2.18851375579834,4.27801434576001,0.0,0.28818145394325256,-1.3798311392413538,-0.0,-0.025712380185723305,1.109169602394104,-0.0,-0.008506067097187042,1.1307601928710938,0.0,-0.034141603857278824
152.0,202.0,3.7065,-2.8947,8.1547,-0.0325,0.0255,-0.1126,-1.6746851406493128,0.0,2.5906763076782227,-1.561042308807373,-0.0,2.1731390953063965,4.277990980739258,0.0,0.2767992615699768,-1.3798111120807093,-0.0,-0.030145905911922455,1.1093097925186157,-0.0,-0.006589790806174278,1.1308250427246094,0.0,-0.006761177908629179
152.0,202.0,3.7065,-2.8947,8.1547,-0.0325,0.0255,-0.1126,-1.6746937237181605,0.0,2.61458158493042,-1.5610339641571045,-0.0,2.1751677989959717,4.278034372920654,0.0,0.28444936871528625,-1.379814926777975,-0.0,-0.02124057337641716,1.1093018054962158,-0.0,-0.006136689335107803,1.1307963132858276,0.0,-0.005210323259234428
152.0,202.0,3.7065,-2.8947,8.1547,-0.0325,0.0255,-0.1126,-1.6746937237181605,0.0,2.612974166870117,-1.5610463619232178,-0.0,2.194160223007202,4.278033896083496,0.0,0.2823847234249115,-1.3798349539386194,-0.0,-0.016995849087834358,1.1092650890350342,-0.0,-0.016090858727693558,1.1308568716049194,0.0,0.0075558628886938095
152.0,202.0,3.7065,-2.8947,8.1547,-0.0325,0.0255,-0.1126,-1.6747218571104945,0.0,2.654303550720215,-1.5610144138336182,-0.0,2.1791980266571045,4.27803008138623,0.0,0.29785746335983276,-1.3798468748675745,-0.0,-0.02032376267015934,1.1093218326568604,-0.0,0.0037248018197715282,1.130820870399475,0.0,0.004955765791237354
152.0,202.0,3.7065,-2.8947,8.1547,-0.0325,0.0255,-0.1126,-1.6747423611082972,0.0,2.617292881011963,-1.561025857925415,-0.0,2.141139507293701,4.278066797847412,0.0,0.2821807265281677,-1.3798030058490198,-0.0,-0.026071742177009583,1.1092610359191895,-0.0,0.0012266964185982943,1.1308770179748535,0.0,-0.033513154834508896
152.0,202.0,3.7065,-2.8947,8.1547,-0.0325,0.0255,-0.1126,-1.6746531925597132,0.0,2.659701347351074,-1.5610299110412598,-0.0,2.201014280319214,4.278034372920654,0.0,0.27999669313430786,-1.3798511664019983,-0.0,-0.02139868773519993,1.10931396484375,-0.0,-0.015246575698256493,1.1307843923568726,0.0,-0.006495180074125528
156.0,198.0,3.7376,-2.9342,8.0471,-0.0429,0.025,-0.1173,-1.6746732197203578,0.0,2.704087257385254,-1.5610618591308594,-0.0,2.173143148422241,4.278054876918457,0.0,0.3001362383365631,-1.379854981099264,-0.0,-0.021018441766500473,1.109305739402771,-0.0,-0.008986415341496468,1.1308250427246094,0.0,0.003737028455361724
156.0,198.0,3.7376,-2.9342,8.0471,-0.0429,0.025,-0.1173,-1.6747013531126917,0.0,2.6298933029174805,-1.5610504150390625,-0.0,2.1478452682495117,4.278070612544678,0.0,0.28455376625061035,-1.3798192183123987,-0.0,-0.02557513862848282,1.1092898845672607,-0.0,-0.008077184669673443,1.1307963132858276,0.0,0.00679889228194952
156.0,198.0,3.7376,-2.9342,8.0471,-0.0429,0.025,-0.1173,-1.6746937237181605,0.0,2.632852554321289,-1.5610299110412598,-0.0,2.1528830528259277,4.277990027064941,0.0,0.2848345935344696,-1.3798349539386194,-0.0,-0.03314688429236412,1.1092854738235474,-0.0,-0.010587679222226143,1.1308085918426514,0.0,-0.0292015690356493
156.0,198.0,3.7376,-2.9342,8.0471,-0.0429,0.025,-0.1173,-1.674645563165182,0.0,2.601217746734619,-1.5609936714172363,-0.0,2.181394577026367,4.278058691615723,0.0,0.2877327799797058,-1.3798273245440882,-0.0,-0.023577045649290085,1.109294056892395,-0.0,0.006985061336308718,1.1308610439300537,0.0,-0.010884109884500504
156.0,198.0,3.7376,-2.9342,8.0471,-0.0429,0.025,-0.1173,-1.6746775112547816,0.0,2.6147546768188477,-1.561018466949463,-0.0,2.1631836891174316,4.277993841762207,0.0,0.29609939455986023,-1.3798349539386194,-0.0,-0.02864827588200569,1.1092092990875244,-0.0,0.0018952768296003342,1.130828619003296,0.0,0.027986157685518265
156.0,198.0,3.7376,-2.9342,8.0471,-0.0429,0.025,-0.1173,-1.6747094593443812,0.0,2.6222164630889893,-1.561065912246704,-0.0,2.2186009883880615,4.278054876918457,0.0,0.2915441691875458,-1.379854981099264,-0.0,-0.03266835957765579,1.1092450618743896,-0.0,-0.02330215834081173,1.1308085918426514,0.0,-0.012948169372975826
156.0,198.0,3.7376,-2.9342,8.0471,-0.0429,0.025,-0.1173,-1.6746851406493128,0.0,2.6543335914611816,-1.561025857925415,-0.0,2.185762882232666,4.2780467706867675,0.0,0.29287707805633545,-1.3797991911517542,-0.0,-0.030053643509745598,1.1092898845672607,-0.0,0.004020825959742069,1.130829095840454,0.0,-0.037163812667131424
156.0,198.0,3.7376,-2.9342,8.0471,-0.0429,0.025,-0.1173,-1.6746698818602503,0.0,2.66743803024292,-1.5610226392745972,-0.0,2.185368299484253,4.27803818761792,0.0,0.29382848739624023,-1.379815403615133,-0.0,-0.023877818137407303,1.1092529296875,-0.0,-0.0018095043487846851,1.130800485610962,0.0,-0.0021839533001184464
156.0,198.0,3.7376,-2.9342,8.0471,-0.0429,0.025,-0.1173,-1.6746493778624476,0.0,2.6694536209106445,-1.5610018968582153,-0.0,2.168595790863037,4.27798239767041,0.0,0.2934768497943878,-1.3798192183123987,-0.0,-0.01181012112647295,1.1092734336853027,-0.0,-0.0025181148666888475,1.1308205127716064,0.0,0.02508251741528511
156.0,198.0,3.7376,-2.9342,8.0471,-0.0429,0.025,-0.1173,-1.674713750878805,0.0,2.6393539905548096,-1.5609937906265259,-0.0,2.2180638313293457,4.27800623952832,0.0,0.28596457839012146,-1.379815403615133,-0.0,-0.02975532039999962,1.1092898845672607,-0.0,0.002951784059405327,1.130792260169983,0.0,-0.03695989400148392
156.0,198.0,3.7376,-2.9342,8.0471,-0.0429,0.025,-0.1173,-1.6746250591673792,0.0,2.615414619445801,-1.5609978437423706,-0.0,2.198324203491211,4.278054876918457,0.0,0.29067426919937134,-1.3798468748675745,-0.0,-0.014334263280034065,1.1092734336853027,-0.0,-0.010420463047921658,1.1308168172836304,0.0,0.0022968659177422523
156.0,198.0,3.7376,-2.9342,8.0471,-0.0429,0.025,-0.1173,-1.6746894321837367,0.0,2.6039929389953613,-1.5610020160675049,-0.0,2.164611339569092,4.277986212367676,2.49005165642302e-06,0.2767707109451294,-1.3797834555255335,-0.0,-0.00935472920536995,1.1092729568481445,-0.0,-0.008942117914557457,1.130856990814209,0.0,-0.014457322657108307
156.0,198.0,3.7376,-2.9342,8.0471,-0.0429,0.025,-0.1173,-1.6746775112547816,0.0,2.630265712738037,-1.561025857925415,-0.0,2.2173514366149902,4.27803818761792,1.0615479162368047e-08,0.2884316146373749,-1.3798750082599085,-0.0,-0.01937830075621605,1.109289526939392,-0.0,-0.012604856863617897,1.1308205127716064,0.0,0.011807410977780819
156.0,198.0,3.7376,-2.9342,8.0471,-0.0429,0.025,-0.1173,-1.6746775112547816,0.0,2.66357684135437,-1.561050534248352,-0.0,2.185302734375,4.278034372920654,2.954857712678116e-12,0.2884446084499359,-1.3798192183123987,-0.0,-0.01910502463579178,1.1093257665634155,-0.0,-0.007420213893055916,1.130820870399475,0.0,0.008793824352324009
156.0,198.0,3.7376,-2.9342,8.0471,-0.0429,0.025,-0.1173,-1.674645563165182,0.0,2.638171911239624,-1.5609859228134155,-0.0,2.175929069519043,4.27803008138623,8.224954086239681e-16,0.2947462201118469,-1.3798311392413538,-0.0,-0.03119795024394989,1.1092729568481445,-0.0,-0.011067586950957775,1.1307963132858276,0.0,0.03142279013991356
156.0,198.0,3.7376,-2.9342,8.0471,-0.0429,0.025,-0.1173,-1.6746818027892054,0.0,2.6579091548919678,-1.5610381364822388,-0.0,2.156540870666504,4.277998133296631,2.2894462009937763e-19,0.28723132610321045,-1.379814926777975,-0.0,-0.024315277114510536,1.1092981100082397,-0.0,-0.0051942975260317326,1.1308045387268066,0.0,-0.014181911945343018
156.0,198.0,3.7376,-2.9342,8.0471,-0.0429,0.025,-0.1173,-1.6746498546996058,0.0,2.6546239852905273,-1.5610463619232178,-0.0,2.206195116043091,4.278022928828857,9.76026876630865e-22,0.28879979252815247,-1.3798192183123987,-0.0,-0.023970264941453934,1.1093298196792603,-0.0,-0.008189242333173752,1.130792260169983,0.0,0.002997990697622299
152.0,200.0,3.74,-2.9354,8.0788,-0.0336,0.0217,-0.1133,-1.6746694050230921,0.0,2.632329225540161,-1.561018466949463,-0.0,2.1842892169952393,4.278014822597168,2.71680663574012e-25,0.29604339599609375,-1.3798349539386194,-0.0,-0.017886469140648842,1.1092939376831055,-0.0,-0.006282205693423748,1.130800485610962,0.0,0.012156156823039055
152.0,200.0,3.74,-2.9354,8.0788,-0.0336,0.0217,-0.1133,-1.6746818027892054,0.0,2.6553568840026855,-1.5610226392745972,-0.0,2.1616668701171875,4.27800623952832,7.562330639947293e-29,0.2995595932006836,-1.3798235098468226,-0.0,-0.027411045506596565,1.109302043914795,-0.0,-0.007348068058490753,1.130812644958496,0.0,0.01666310615837574
152.0,200.0,3.74,-2.9354,8.0788,-0.0336,0.0217,-0.1133,-1.6746818027892054,0.0,2.6113452911376953,-1.5610381364822388,-0.0,2.1783287525177,4.2780467706867675,2.1050026966763892e-32,0.29137903451919556,-1.3798468748675745,-0.0,-0.01354870293289423,1.109241008758545,-0.0,-0.010776061564683914,1.1308205127716064,0.0,0.006048460491001606
152.0,200.0,3.74,-2.9354,8.0788,-0.0336,0.0217,-0.1133,-1.6746374569334925,0.0,2.6157243251800537,-1.5610339641571045,-0.0,2.201979637145996,4.2780186372944335,8.973956906748844e-35,0.28478914499282837,-1.3798230330096644,-0.0,-0.00847491342574358,1.1092808246612549,-0.0,-0.00509352283552289,1.1308327913284302,0.0,-0.04550126940011978
152.0,200.0,3.74,-2.9354,8.0788,-0.0336,0.0217,-0.1133,-1.6746732197203578,0.0,2.6183700561523438,-1.5609936714172363,-0.0,2.171778678894043,4.278038664455078,2.497933903288147e-38,0.27015185356140137,-1.3798311392413538,-0.0,-0.009005367755889893,1.1092450618743896,-0.0,-0.010093577206134796,1.130820870399475,0.0,0.008518136106431484
152.0,200.0,3.74,-2.9354,8.0788,-0.0336,0.0217,-0.1133,-1.6746937237181605,0.0,2.6587259769439697,-1.561026692390442,-0.0,2.136674404144287,4.2780467706867675,6.953242979979742e-42,0.27560722827911377,-1.379883114491598,-0.0,-0.01898319646716118,1.1092820167541504,-0.0,-0.013609234243631363,1.1308245658874512,0.0,-0.01293572410941124
152.0,200.0,3.74,-2.9354,8.0788,-0.0336,0.0217,-0.1133,-1.6746937237181605,0.0,2.674952983856201,-1.5609937906265259,-0.0,2.2138471603393555,4.278058691615723,2.060755832644645e-05,0.28123193979263306,-1.379866902028219,-0.0,-0.019497523084282875,1.1092450618743896,-0.0,0.016675718128681183,1.130792260169983,0.0,0.004206789657473564
152.0,200.0,3.74,-2.9354,8.0788,-0.0336,0.0217,-0.1133,-1.674713750878805,0.0,2.6530964374542236,-1.5609855651855469,-0.0,2.1952104568481445,4.278001947993896,2.5801682568271644e-05,0.2902694046497345,-1.3798111120807093,-0.0,-0.012931281700730324,1.1092939376831055,-0.0,-0.018437735736370087,1.1308168172836304,0.0,0.020821863785386086
152.0,200.0,3.74,-2.9354,8.0788,-0.0336,0.0217,-0.1133,-1.6746975384154261,0.0,2.6488399505615234,-1.5609978437423706,-0.0,2.181225299835205,4.27800623952832,2.3782769858371466e-05,0.2860840857028961,-1.3798430601703089,-0.0,-0.017928794026374817,1.1092939376831055,-0.0,0.0005746972747147083,1.1308168172836304,0.0,-0.012494338676333427
152.0,200.0,3.74,-2.9354,8.0788,-0.0336,0.0217,-0.1133,-1.6746331653990687,0.0,2.6356420516967773,-1.5609817504882812,-0.0,2.183056354522705,4.27801434576001,2.2035756046534516e-05,0.2842673063278198,-1.3798273245440882,-0.0,-0.029063263908028603,1.1093018054962158,-0.0,0.0011749471304938197,1.1308168172836304,0.0,-0.018605535849928856
152.0,200.0,3.74,-2.9354,8.0788,-0.0336,0.0217,-0.1133,-1.6747094593443812,0.0,2.662649631500244,-1.5610743761062622,-0.0,2.2010791301727295,4.277986212367676,2.1007035684306175e-05,0.28601816296577454,-1.3798273245440882,-0.0,-0.027973249554634094,1.1092733144760132,-0.0,0.0032188952900469303,1.130828619003296,0.0,-0.050480060279369354
152.0,200.0,3.74,-2.9354,8.0788,-0.0336,0.0217,-0.1133,-1.6746937237181605,0.0,2.6499416828155518,-1.5610382556915283,-0.0,2.1866488456726074,4.278027220363281,1.963226532097906e-05,0.2939521372318268,-1.3798587957965296,-0.0,-0.0369047150015831,1.1092491149902344,-0.0,0.0001606823643669486,1.130800485610962,0.0,0.029624823480844498
152.0,200.0,3.74,-2.9354,8.0788,-0.0336,0.0217,-0.1133,-1.6746899090208949,0.0,2.6496334075927734,-1.5610628128051758,-0.0,2.2086100578308105,4.2779785829731445,1.842637539084535e-05,0.2972755432128906,-1.3798230330096644,-0.0,-0.01482514850795269,1.1092820167541504,-0.0,-0.0070860981941223145,1.130776286125183,0.0,-0.00713313976302743
152.0,200.0,3.74,-2.9354,8.0788,-0.0336,0.0217,-0.1133,-1.6746775112547816,0.0,2.6345648765563965,-1.5610578060150146,-0.0,2.1973884105682373,4.2780467706867675,1.736009471642319e-05,0.28053018450737,-1.3797953764544886,-0.0,-0.02012551948428154,1.1092898845672607,-0.0,-0.009477231651544571,1.1307803392410278,0.0,0.023676756769418716
152.0,200.0,3.74,-2.9354,8.0788,-0.0336,0.0217,-0.1133,-1.6746894321837367,0.0,2.612985372543335,-1.5609737634658813,-0.0,2.199348211288452,4.278034372920654,1.671523023105692e-05,0.28366127610206604,-1.379854981099264,-0.0,-0.025208167731761932,1.1092568635940552,-0.0,-0.012979408726096153,1.130792260169983,0.0,0.0032685305923223495
152.0,200.0,3.74,-2.9354,8.0788,-0.0336,0.0217,-0.1133,-1.6746331653990687,0.0,2.656735897064209,-1.5610618591308594,-0.0,2.149982452392578,4.27800623952832,1.583303492225241e-05,0.28353452682495117,-1.3798111120807093,-0.0,-0.02578551694750786,1.1092774868011475,-0.0,0.00012594484724104404,1.130792260169983,0.0,0.0068923793733119965
152.0,200.0,3.74,-2.9354,8.0788,-0.0336,0.0217,-0.1133,-1.6746655903258265,0.0,2.590585231781006,-1.5610060691833496,-0.0,2.1540703773498535,4.2780467706867675,1.503930616308935e-05,0.27604037523269653,-1.379854981099264,-0.0,-0.010875100269913673,1.1092650890350342,-0.0,-0.010601919144392014,1.13084876537323,0.0,0.022587381303310394
156.0,196.0,3.743,-2.9312,8.0255,-0.0339,0.0197,-0.1145,-1.674713750878805,0.0,2.6213784217834473,-1.5610299110412598,-0.0,2.2229092121124268,4.277990980739258,1.4321348317025695e-05,0.28571370244026184,-1.3798230330096644,-0.0,-0.015271872282028198,1.1092609167099,-0.0,0.00991404801607132,1.1307882070541382,0.0,0.0300455242395401
156.0,196.0,3.743,-2.9312,8.0255,-0.0339,0.0197,-0.1145,-1.6747261486449183,0.0,2.602329730987549,-1.561026692390442,-0.0,2.1379847526550293,4.278034372920654,1.3879625839763321e-05,0.29468291997909546,-1.3798230330096644,-0.0,-0.0241559948772192,1.1093261241912842,-0.0,-0.0036406083963811398,1.1307803392410278,0.0,0.019277794286608696
156.0,196.0,3.743,-2.9312,8.0255,-0.0339,0.0197,-0.1145,-1.6746732197203578,0.0,2.6250686645507812,-1.5610743761062622,-0.0,2.211793899536133,4.278054876918457,1.3265886991575826e-05,0.3006960153579712,-1.3798349539386194,-0.0,-0.02094149962067604,1.1093058586120605,-0.0,-0.00920153595507145,1.130800485610962,0.0,0.02973647229373455
156.0,196.0,3.743,-2.9312,8.0255,-0.0339,0.0197,-0.1145,-1.6746775112547816,0.0,2.6340560913085938,-1.561018466949463,-0.0,2.214700698852539,4.278042479152344,1.2704099390248302e-05,0.2905315160751343,-1.379866902028219,-0.0,-0.01638718694448471,1.109313726425171,-0.0,0.0006392179057002068,1.1308445930480957,0.0,-0.03429508954286575
156.0,196.0,3.743,-2.9312,8.0255,-0.0339,0.0197,-0.1145,-1.6747094593443812,0.0,2.6358041763305664,-1.561018466949463,-0.0,2.2180492877960205,4.278058691615723,1.2187982974865008e-05,0.2887280583381653,-1.3798630873309534,-0.0,-0.018097879365086555,1.1092448234558105,-0.0,-0.005526796914637089,1.1307885646820068,0.0,-0.004493517801165581
156.0,196.0,3.743,-2.9312,8.0255,-0.0339,0.0197,-0.1145,-1.6746732197203578,0.0,2.615769863128662,-1.5610103607177734,-0.0,2.1893153190612793,4.278059645290039,1.1866587556141894e-05,0.28670749068260193,-1.3798072973834437,-0.0,-0.02700648084282875,1.1092525720596313,-0.0,-0.004532285034656525,1.130792260169983,0.0,-0.013765388168394566
156.0,196.0,3.743,-2.9312,8.0255,-0.0339,0.0197,-0.1145,-1.6746894321837367,0.0,2.6353678703308105,-1.5610218048095703,-0.0,2.1931588649749756,4.278051062221191,1.1415065273467917e-05,0.28988510370254517,-1.3798072973834437,-0.0,-0.016565073281526566,1.1092731952667236,-0.0,-0.008204802870750427,1.130776286125183,0.0,0.0027706751134246588
156.0,196.0,3.743,-2.9312,8.0255,-0.0339,0.0197,-0.1145,-1.6746732197203578,0.0,2.664792537689209,-1.5609978437423706,-0.0,2.190157890319824,4.278022928828857,1.0996643140970264e-05,0.28388023376464844,-1.37982684770693,-0.0,-0.02121596783399582,1.109236478805542,-0.0,-0.010603634640574455,1.130828619003296,0.0,0.028609707951545715
156.0,196.0,3.743,-2.9312,8.0255,-0.0339,0.0197,-0.1145,-1.6746369800963343,0.0,2.636181116104126,-1.561042308807373,-0.0,2.217827796936035,4.27803008138623,1.0734332136053126e-05,0.2891649305820465,-1.3798072973834437,-0.0,-0.023172155022621155,1.1093463897705078,-0.0,-0.00033033499494194984,1.1307483911514282,0.0,0.00527065247297287
156.0,196.0,3.743,-2.9312,8.0255,-0.0339,0.0197,-0.1145,-1.6747261486449183,0.0,2.6141514778137207,-1.5610299110412598,-0.0,2.198793411254883,4.278010531062744,1.0363515684730373e-05,0.2818225622177124,-1.3798630873309534,-0.0,-0.012778082862496376,1.109248399734497,-0.0,-0.0018554400885477662,1.1308327913284302,0.0,-0.03157605975866318
156.0,196.0,3.743,-2.9312,8.0255,-0.0339,0.0197,-0.1145,-1.674645563165182,0.0,2.607116222381592,-1.5609897375106812,-0.0,2.202183485031128,4.278042479152344,1.0017462045652792e-05,0.28163236379623413,-1.3798072973834437,-0.0,-0.008532095700502396,1.1092817783355713,-0.0,-0.0023908871226012707,1.1308327913284302,0.0,-0.0026259454898536205
156.0,196.0,3.743,-2.9312,8.0255,-0.0339,0.0197,-0.1145,-1.6746694050230921,0.0,2.6095170974731445,-1.5610463619232178,-0.0,2.1242172718048096,4.277993841762207,2.1408849804060992e-08,0.2774363160133362,-1.3798349539386194,-0.0,-0.03036937303841114,1.1092650890350342,-0.0,-0.011358741670846939,1.130784511566162,0.0,0.016252752393484116
156.0,196.0,3.743,-2.9312,8.0255,-0.0339,0.0197,-0.1145,-1.6747013531126917,0.0,2.6107330322265625,-1.5610299110412598,-0.0,2.208859920501709,4.27803008138623,9.126928379732391e-11,0.2793534994125366,-1.3798349539386194,-0.0,-0.028954999521374702,1.1092731952667236,-0.0,0.0022194692865014076,1.130812644958496,0.0,0.02608201652765274
156.0,196.0,3.743,-2.9312,8.0255,-0.0339,0.0197,-0.1145,-1.6746612987914027,0.0,2.60780668258667,-1.561018466949463,-0.0,2.1805429458618164,4.278022928828857,2.5405138808095272e-14,0.29377281665802,-1.3798311392413538,-0.0,-0.023590724915266037,1.1092941761016846,-0.0,-0.0011845969129353762,1.1308205127716064,0.0,-0.019745618104934692
156.0,196.0,3.743,-2.9312,8.0255,-0.0339,0.0197,-0.1145,-1.6746894321837367,0.0,2.630007266998291,-1.5610545873641968,-0.0,2.178321361541748,4.277965708369873,7.071614206010749e-18,0.29643547534942627,-1.3798511664019983,-0.0,-0.02779562771320343,1.1093058586120605,-0.0,0.008267774246633053,1.1307963132858276,0.0,-0.004539806395769119
156.0,196.0,3.743,-2.9312,8.0255,-0.0339,0.0197,-0.1145,-1.6746818027892054,0.0,2.6508846282958984,-1.5609859228134155,-0.0,2.1787195205688477,4.27801434576001,1.9684095535084755e-21,0.28178831934928894,-1.3798072973834437,-0.0,-0.011450927704572678,1.1092817783355713,-0.0,-0.002486099023371935,1.130828619003296,0.0,-0.017902279272675514
151.0,198.0,3.7382,-2.8899,8.0536,-0.0449,0.0229,-0.122,-1.6747175655760707,0.0,2.633030891418457,-1.561018466949463,-0.0,2.1703734397888184,4.278022928828857,8.39163883019878e-24,0.29134270548820496,-1.3798311392413538,-0.0,-0.01833084598183632,1.1092650890350342,-0.0,-0.0009730606689117849,1.1308045387268066,0.0,0.0052969371899962425
151.0,198.0,3.7382,-2.8899,8.0536,-0.0449,0.0229,-0.122,-1.6746732197203578,0.0,2.672891855239868,-1.5610463619232178,-0.0,2.14750337600708,4.278070612544678,2.335843525599654e-27,0.2905093729496002,-1.3798230330096644,-0.0,-0.020911578088998795,1.1092491149902344,-0.0,0.0006778310053050518,1.130812644958496,0.0,0.044039588421583176
151.0,198.0,3.7382,-2.8899,8.0536,-0.0449,0.0229,-0.122,-1.6747056446471156,0.0,2.591691732406616,-1.561025857925415,-0.0,2.1658036708831787,4.27801434576001,6.501906578409485e-31,0.3007963299751282,-1.3798111120807093,-0.0,-0.024677585810422897,1.1092288494110107,-0.0,0.004749523941427469,1.1308127641677856,0.0,-0.018452750518918037
151.0,198.0,3.7382,-2.8899,8.0536,-0.0449,0.0229,-0.122,-1.6746894321837367,0.0,2.6838111877441406,-1.5610743761062622,-0.0,2.1607141494750977,4.278058691615723,1.80982955864001e-34,0.2938520312309265,-1.3798072973834437,-0.0,-0.020942986011505127,1.109318494796753,-0.0,-0.006537138484418392,1.1307803392410278,0.0,-0.03717292100191116
151.0,198.0,3.7382,-2.8899,8.0536,-0.0449,0.0229,-0.122,-1.6746894321837367,0.0,2.6256895065307617,-1.5610826015472412,-0.0,2.1813955307006836,4.27803008138623,7.715587011475164e-37,0.28309541940689087,-1.3798072973834437,-0.0,-0.02096843346953392,1.109241247177124,-0.0,0.003773935604840517,1.130812644958496,0.0,-0.029840432107448578
151.0,198.0,3.7382,-2.8899,8.0536,-0.0449,0.0229,-0.122,-1.674697061578268,0.0,2.6658225059509277,-1.5610824823379517,-0.0,2.1796751022338867,4.277993841762207,2.147658052393501e-40,0.2820972800254822,-1.3798311392413538,-0.0,-0.019009362906217575,1.1092941761016846,-0.0,-0.0027336981147527695,1.1308045387268066,0.0,0.018263064324855804
151.0,198.0,3.7382,-2.8899,8.0536,-0.0449,0.0229,-0.122,-1.6747218571104945,0.0,2.683722972869873,-1.561018466949463,-0.0,2.2244186401367188,4.278001947993896,6.025583396596713e-44,0.29039761424064636,-1.3798230330096644,-0.0,-0.02529306337237358,1.109342098236084,-0.0,-0.003244117833673954,1.130800485610962,0.0,0.02639910951256752
151.0,198.0,3.7382,-2.8899,8.0536,-0.0449,0.0229,-0.122,-1.6747094593443812,0.0,2.6358299255371094,-1.5610867738723755,-0.0,2.1665241718292236,4.277999086970947,0.0,0.2794862985610962,-1.3798430601703089,-0.0,-0.03255406394600868,1.1092572212219238,-0.0,0.005341654643416405,1.1308045387268066,0.0,-0.018496733158826828
151.0,198.0,3.7382,-2.8899,8.0536,-0.0449,0.0229,-0.122,-1.6746531925597132,0.0,2.6759111881256104,-1.561025857925415,-0.0,2.1890761852264404,4.2780467706867675,0.0,0.29402291774749756,-1.3798192183123987,-0.0,-0.0214657224714756,1.109236478805542,-0.0,-0.005449018441140652,1.1307685375213623,0.0,-0.02548893913626671
151.0,198.0,3.7382,-2.8899,8.0536,-0.0449,0.0229,-0.122,-1.6746570072569789,0.0,2.6466317176818848,-1.5610463619232178,-0.0,2.1951522827148438,4.278034372920654,0.0,0.2940886616706848,-1.3798311392413538,-0.0,-0.033079080283641815,1.1093624830245972,-0.0,-0.000506396871060133,1.130792260169983,0.0,-0.03885575756430626
151.0,198.0,3.7382,-2.8899,8.0536,-0.0449,0.0229,-0.122,-1.6746851406493128,0.0,2.6597225666046143,-1.5609897375106812,-0.0,2.1691808700561523,4.2780186372944335,0.0,0.30088967084884644,-1.3798111120807093,-0.0,-0.016554635018110275,1.1092331409454346,-0.0,-0.0016893112333491445,1.130836844444275,0.0,-0.054210465401411057
151.0,198.0,3.7382,-2.8899,8.0536,-0.0449,0.0229,-0.122,-1.6746813259520472,0.0,2.619149684906006,-1.561042308807373,-0.0,2.1871554851531982,4.278062983150146,0.0,0.2850428521633148,-1.379854981099264,-0.0,-0.03385411202907562,1.1092817783355713,-0.0,0.004254614003002644,1.130808711051941,0.0,-0.020037636160850525
151.0,198.0,3.7382,-2.8899,8.0536,-0.0449,0.0229,-0.122,-1.6746851406493128,0.0,2.663376808166504,-1.5610382556915283,-0.0,2.207467555999756,4.278058691615723,0.0,0.2824380099773407,-1.3798511664019983,-0.0,-0.025425884872674942,1.1092941761016846,-0.0,-0.0007862078491598368,1.1307882070541382,0.0,-0.012298271991312504
151.0,198.0,3.7382,-2.8899,8.0536,-0.0449,0.0229,-0.122,-1.6746531925597132,0.0,2.6685023307800293,-1.5610547065734863,-0.0,2.224668025970459,4.278062506312988,0.0,0.28450509905815125,-1.3798311392413538,-0.0,-0.015437236055731773,1.1093100309371948,-0.0,0.004148621112108231,1.1308084726333618,0.0,-0.019171250984072685
151.0,198.0,3.7382,-2.8899,8.0536,-0.0449,0.0229,-0.122,-1.674713750878805,0.0,2.6344332695007324,-1.5610547065734863,-0.0,2.1866793632507324,4.277994795436523,0.0,0.289944589138031,-1.3798230330096644,-0.0,-0.021335937082767487,1.109318494796753,-0.0,-0.01343817263841629,1.130820870399475,0.0,-0.010051698423922062
151.0,198.0,3.7382,-2.8899,8.0536,-0.0449,0.0229,-0.122,-1.6747056446471156,0.0,2.6762561798095703,-1.561065912246704,-0.0,2.1888599395751953,4.278034372920654,0.0,0.28490033745765686,-1.3798392454730433,-0.0,-0.01981172524392605,1.1092607975006104,-0.0,-0.008163832128047943,1.1307963132858276,0.0,0.03539109230041504
151.0,198.0,3.7382,-2.8899,8.0536,-0.0449,0.0229,-0.122,-1.6746732197203578,0.0,2.6199188232421875,-1.561026692390442,-0.0,2.2039637565612793,4.2780467706867675,0.0,0.27546611428260803,-1.3798311392413538,-0.0,-0.019884757697582245,1.1092983484268188,-0.0,-0.004883130080997944,1.1308168172836304,0.0,-0.021722471341490746
148.0,197.0,3.7687,-2.9061,8.0285,-0.0353,0.0221,-0.1165,-1.6746894321837367,0.0,2.606505870819092,-1.5610463619232178,-0.0,2.1841938495635986,4.27803008138623,0.0,0.28593766689300537,-1.3798273245440882,-0.0,-0.028700463473796844,1.1092898845672607,-0.0,-0.011544588953256607,1.1308085918426514,0.0,0.02982812002301216
148.0,197.0,3.7687,-2.9061,8.0285,-0.0353,0.0221,-0.1165,-1.674645563165182,0.0,2.604517936706543,-1.561025857925415,-0.0,2.2116432189941406,4.278042479152344,0.0,0.28105229139328003,-1.3798230330096644,-0.0,-0.030190501362085342,1.1092941761016846,-0.0,0.0027004603762179613,1.1308045387268066,0.0,-0.02484772726893425
148.0,197.0,3.7687,-2.9061,8.0285,-0.0353,0.0221,-0.1165,-1.6747304401793421,0.0,2.671450138092041,-1.5610142946243286,-0.0,2.2540180683135986,4.27800623952832,0.0,0.2872735559940338,-1.379798714314596,-0.0,-0.020063677802681923,1.1092650890350342,-0.0,0.0014675180427730083,1.1307963132858276,0.0,-0.014017750509083271
148.0,197.0,3.7687,-2.9061,8.0285,-0.0353,0.0221,-0.1165,-1.674741884271139,0.0,2.648697853088379,-1.5610463619232178,-0.0,2.194653034210205,4.278042479152344,0.0,0.30027106404304504,-1.3798430601703089,-0.0,-0.017251640558242798,1.1092170476913452,-0.0,-0.0016109267016872764,1.130776286125183,0.0,-0.012397891841828823
148.0,197.0,3.7687,-2.9061,8.0285,-0.0353,0.0221,-0.1165,-1.674657484094137,0.0,2.6415390968322754,-1.561042308807373,-0.0,2.1771504878997803,4.278054400081299,0.0,0.2892216444015503,-1.3798349539386194,-0.0,-0.014224011451005936,1.1092650890350342,-0.0,-0.003967506345361471,1.130820870399475,0.0,0.013461804017424583
148.0,197.0,3.7687,-2.9061,8.0285,-0.0353,0.0221,-0.1165,-1.6746894321837367,0.0,2.669229507446289,-1.561042308807373,-0.0,2.219557285308838,4.27803008138623,0.0,0.294384241104126,-1.3798630873309534,-0.0,-0.02770620957016945,1.1092731952667236,-0.0,0.010686054825782776,1.1308045387268066,0.0,0.027584847062826157
148.0,197.0,3.7687,-2.9061,8.0285,-0.0353,0.0221,-0.1165,-1.6746655903258265,0.0,2.6109938621520996,-1.5610381364822388,-0.0,2.16902494430542,4.277998133296631,0.0,0.28749555349349976,-1.3798273245440882,-0.0,-0.017303865402936935,1.109285831451416,-0.0,0.001764360349625349,1.130812644958496,0.0,0.020931856706738472
148.0,197.0,3.7687,-2.9061,8.0285,-0.0353,0.0221,-0.1165,-1.6747056446471156,0.0,2.6560959815979004,-1.561042308807373,-0.0,2.2223687171936035,4.278062506312988,0.0,0.2923356294631958,-1.3798788229571741,-0.0,-0.019594743847846985,1.109256625175476,-0.0,-0.005088252015411854,1.1308445930480957,0.0,0.0034963011275976896
148.0,197.0,3.7687,-2.9061,8.0285,-0.0353,0.0221,-0.1165,-1.6746612987914027,0.0,2.620655059814453,-1.5609900951385498,-0.0,2.179067373275757,4.278010531062744,0.0,0.30002355575561523,-1.3798311392413538,-0.0,-0.033674031496047974,1.1093177795410156,-0.0,0.005492410156875849,1.1308327913284302,0.0,0.007963709533214569
148.0,197.0,3.7687,-2.9061,8.0285,-0.0353,0.0221,-0.1165,-1.6747056446471156,0.0,2.6271228790283203,-1.5610545873641968,-0.0,2.22318696975708,4.2780186372944335,0.0,0.2772727310657501,-1.3798311392413538,-0.0,-0.02471037209033966,1.1092774868011475,-0.0,-0.011588197201490402,1.1307886838912964,0.0,0.008114118129014969
148.0,197.0,3.7687,-2.9061,8.0285,-0.0353,0.0221,-0.1165,-1.6746374569334925,0.0,2.6603212356567383,-1.561025857925415,-0.0,2.1910438537597656,4.278022928828857,0.0,0.295925110578537,-1.3798511664019983,-0.0,-0.020841648802161217,1.1092939376831055,-0.0,-0.01330895908176899,1.1308327913284302,0.0,-0.027435455471277237
148.0,197.0,3.7687,-2.9061,8.0285,-0.0353,0.0221,-0.1165,-1.6746818027892054,0.0,2.638096809387207,-1.5610103607177734,-0.0,2.1769349575042725,4.27801434576001,0.0,0.2953580319881439,-1.3798349539386194,-0.0,-0.01750781759619713,1.109236478805542,-0.0,0.007482503540813923,1.130812644958496,0.0,-0.00782066397368908
148.0,197.0,3.7687,-2.9061,8.0285,-0.0353,0.0221,-0.1165,-1.6746937237181605,0.0,2.6321277618408203,-1.5610382556915283,-0.0,2.1835131645202637,4.278054876918457,0.0,0.2981891632080078,-1.379815403615133,-0.0,-0.022941606119275093,1.1092087030410767,-0.0,-5.6549120927229524e-05,1.1307647228240967,0.0,0.017349928617477417
148.0,197.0,3.7687,-2.9061,8.0285,-0.0353,0.0221,-0.1165,-1.6746698818602503,0.0,2.6391353607177734,-1.5610463619232178,-0.0,2.1847851276397705,4.2780467706867675,0.0,0.2975420355796814,-1.3798311392413538,-0.0,-0.031158920377492905,1.1092405319213867,-0.0,0.002144953701645136,1.1308085918426514,0.0,-0.02585827000439167
148.0,197.0,3.7687,-2.9061,8.0285,-0.0353,0.0221,-0.1165,-1.674645563165182,0.0,2.606856346130371,-1.5610226392745972,-0.0,2.234781265258789,4.278021975154541,0.0,0.29385650157928467,-1.379838768635885,-0.0,-0.021738436073064804,1.1092288494110107,-0.0,-0.007574897725135088,1.130800485610962,0.0,0.023837793618440628
148.0,197.0,3.7687,-2.9061,8.0285,-0.0353,0.0221,-0.1165,-1.6746288738646449,1.459872464693035e-06,2.6447041034698486,-1.56097412109375,-0.0,2.1748485565185547,4.278010531062744,0.0,0.302806556224823,-1.3798111120807093,-0.0,-0.020101988688111305,1.1092607975006104,-0.0,-0.004085931461304426,1.1308085918426514,0.0,0.023789824917912483
148.0,197.0,3.7687,-2.9061,8.0285,-0.0353,0.0221,-0.1165,-1.6746937237181605,3.5254206238316543e-12,2.6523375511169434,-1.5610668659210205,-0.0,2.2035722732543945,4.278025789851807,0.0,0.2780187726020813,-1.3798354307757776,-0.0,-0.02003546990454197,1.1093058586120605,-0.0,-0.017003929242491722,1.1308045387268066,0.0,0.013549262657761574
150.0,205.0,3.7149,-3.1896,8.1099,-0.0305,0.0298,-0.1067,-1.6746775112547816,6.345632027650316e-16,2.622422456741333,-1.5609941482543945,-0.0,2.180008888244629,4.278034372920654,0.0,0.2864110469818115,-1.3798587957965296,-0.0,-0.01966916024684906,1.1092491149902344,-0.0,-0.0036163809709250927,1.1307963132858276,0.0,0.041101306676864624
150.0,205.0,3.7149,-3.1896,8.1099,-0.0305,0.0298,-0.1067,-1.6747056446471156,1.5323955036587071e-21,2.6212596893310547,-1.5609740018844604,9.928349982146756e-07,2.1871118545532227,4.278062506312988,0.0,0.2892208695411682,-1.3798311392413538,-0.0,-0.027880899608135223,1.109285831451416,-0.0,-0.007974936626851559,1.130800485610962,0.0,0.04302414506673813
150.0,205.0,3.7149,-3.1896,8.1099,-0.0305,0.0298,-0.1067,-1.6746169529356898,3.700554980483522e-27,2.5872411727905273,-1.5610101222991943,2.3975797475844773e-12,2.2023568153381348,4.27798239767041,0.0,0.29009026288986206,-1.3798068205462855,-0.0,-0.008482617326080799,1.1093144416809082,-0.0,0.001756713492795825,1.1308085918426514,0.0,-0.016238123178482056
150.0,205.0,3.7149,-3.1896,8.1099,-0.0305,0.0298,-0.1067,-1.6746369800963343,8.936404867274612e-33,2.6577565670013428,-1.561018466949463,5.78987261785115e-18,2.1847238540649414,4.278042479152344,0.0,0.2826117277145386,-1.3798311392413538,-0.0,-0.03281072899699211,1.1092898845672607,-0.0,0.016795454546809196,1.1307963132858276,0.0,0.021974215283989906
150.0,205.0,3.7149,-3.1896,8.1099,-0.0305,0.0298,-0.1067,-1.6746207676329554,1.608521494715052e-36,2.6320126056671143,-1.5609703063964844,1.0421566950405334e-21,2.1876559257507324,4.27803008138623,0.0,0.29136332869529724,-1.379854981099264,-0.0,-0.02430465817451477,1.1092941761016846,-0.0,0.0021779281087219715,1.130812644958496,0.0,-0.045780688524246216
150.0,205.0,3.7149,-3.1896,8.1099,-0.0305,0.0298,-0.1067,-1.6746775112547816,3.884399343108393e-42,2.6002488136291504,-1.560965895652771,2.5166856510756934e-27,2.1793320178985596,4.278050585384033,0.0,0.28213202953338623,-1.3798592726336878,-0.0,-0.024350738152861595,1.109285831451416,-0.0,-0.00994463637471199,1.1308327913284302,0.0,-0.04650618135929108
150.0,205.0,3.7149,-3.1896,8.1099,-0.0305,0.0298,-0.1067,-1.6746698818602503,0.0,2.6336402893066406,-1.5610102415084839,6.0774993829771275e-33,2.1943581104278564,4.278021975154541,0.0,0.2865460515022278,-1.379815403615133,-0.0,-0.0194870475679636,1.10932195186615,-0.0,-0.00424045417457819,1.1308410167694092,0.0,0.008798506110906601
150.0,205.0,3.7149,-3.1896,8.1099,-0.0305,0.0298,-0.1067,-1.6746288738646449,0.0,2.604043960571289,-1.5609900951385498,1.4676446216764327e-38,2.194589614868164,4.278066321010254,0.0,0.27787426114082336,-1.379814926777975,-0.0,-0.016770638525485992,1.1093261241912842,-0.0,-0.005989812780171633,1.130776286125183,0.0,0.0005729736294597387
150.0,205.0,3.7149,-3.1896,8.1099,-0.0305,0.0298,-0.1067,-1.6746579609312953,0.0,2.6246981620788574,-1.56097412109375,2.6414476052522802e-42,2.2236337661743164,4.27803818761792,0.0,0.2796010673046112,-1.3798630873309534,-0.0,-0.016304200515151024,1.1093101501464844,-0.0,0.0018312454922124743,1.1308045387268066,0.0,-0.04851614683866501
150.0,205.0,3.7149,-3.1896,8.1099,-0.0305,0.0298,-0.1067,-1.6746818027892054,0.0,2.61635422706604,-1.5610381364822388,-0.0,2.2026968002319336,4.278066797847412,0.0,0.27511048316955566,-1.3798311392413538,-0.0,-0.017397919669747353,1.1092983484268188,-0.0,-0.011088108643889427,1.1308327913284302,0.0,0.024203188717365265
150.0,205.0,3.7149,-3.1896,8.1099,-0.0305,0.0298,-0.1067,-1.674657484094137,0.0,2.6235032081604004,-1.5609620809555054,-0.0,2.1651220321655273,4.278002424831055,0.0,0.28904157876968384,-1.3797953764544886,-0.0,-0.013828717172145844,1.1092774868011475,-0.0,-2.9283459298312664e-05,1.130792260169983,0.0,0.01023152656853199
150.0,205.0,3.7149,-3.1896,8.1099,-0.0305,0.0298,-0.1067,-1.674657484094137,0.0,2.6173505783081055,-1.5610381364822388,-0.0,2.1878623962402344,4.278066321010254,0.0,0.2884846031665802,-1.3798273245440882,-0.0,-0.02641989290714264,1.1092405319213867,-0.0,0.00571819581091404,1.130820870399475,0.0,0.029456384479999542
150.0,205.0,3.7149,-3.1896,8.1099,-0.0305,0.0298,-0.1067,-1.674645563165182,0.0,2.648649215698242,-1.561018466949463,-0.0,2.156193256378174,4.278062506312988,0.0,0.28412026166915894,-1.3798630873309534,-0.0,-0.022997044026851654,1.1093143224716187,-0.0,-0.007255048956722021,1.1308245658874512,0.0,0.029586633667349815
150.0,205.0,3.7149,-3.1896,8.1099,-0.0305,0.0298,-0.1067,-1.6746818027892054,0.0,2.6352696418762207,-1.5610101222991943,-0.0,2.199014186859131,4.278033896083496,0.0,0.297091543674469,-1.3798187414752405,-0.0,-0.027495820075273514,1.1092324256896973,-0.0,-0.010145660489797592,1.1307803392410278,0.0,-0.019064487889409065
150.0,205.0,3.7149,-3.1896,8.1099,-0.0305,0.0298,-0.1067,-1.6746694050230921,0.0,2.653573989868164,-1.5609818696975708,-0.0,2.1891040802001953,4.278010531062744,0.0,0.2812064290046692,-1.3798072973834437,-0.0,-0.018295489251613617,1.1092448234558105,-0.0,-0.0036300569772720337,1.1308327913284302,0.0,-0.020464962348341942
150.0,205.0,3.7149,-3.1896,8.1099,-0.0305,0.0298,-0.1067,-1.6746937237181605,0.0,2.6721749305725098,-1.5610339641571045,-0.0,2.140927314758301,4.278054876918457,0.0,0.28454798460006714,-1.3798030058490198,-0.0,-0.022800127044320107,1.1092898845672607,-0.0,-0.004929543472826481,1.1308045387268066,0.0,-0.008406602777540684
153.0,205.0,3.8249,-2.9856,8.0459,-0.0502,0.0217,-0.124,-1.6746412716307582,3.66715612472035e-05,2.6395673751831055,-1.5610339641571045,-0.0,2.22192120552063,4.277998133296631,0.0,0.29243484139442444,-1.3798192183123987,-0.0,-0.01839744858443737,1.1093422174453735,-0.0,-0.004473465494811535,1.1308327913284302,0.0,0.0006427569314837456
153.0,205.0,3.8249,-2.9856,8.0459,-0.0502,0.0217,-0.124,-1.6746694050230921,3.456005288171582e-05,2.607365131378174,-1.5609937906265259,-0.0,2.1570377349853516,4.278025789851807,0.0,0.28640520572662354,-1.3798349539386194,-0.0,-0.011685330420732498,1.1093101501464844,-0.0,0.002205353230237961,1.130812644958496,0.0,0.00403730571269989
153.0,205.0,3.8249,-2.9856,8.0459,-0.0502,0.0217,-0.124,-1.6746612987914027,3.2677813578629866e-05,2.6209988594055176,-1.5609863996505737,-0.0,2.216336727142334,4.2779857355305175,0.0,0.2997007668018341,-1.3798230330096644,-0.0,-0.007488137576729059,1.1092650890350342,-0.0,-0.002089441055431962,1.1307482719421387,0.0,-0.013219572603702545
153.0,205.0,3.8249,-2.9856,8.0459,-0.0502,0.0217,-0.124,-1.6746894321837367,3.153290526825003e-05,2.632652759552002,-1.5610226392745972,-0.0,2.171755313873291,4.278058691615723,0.0,0.28049615025520325,-1.3798230330096644,-0.0,-0.027018360793590546,1.109313726425171,-0.0,-0.0003226085100322962,1.1307566165924072,0.0,0.007473185192793608
153.0,205.0,3.8249,-2.9856,8.0459,-0.0502,0.0217,-0.124,-1.6746732197203578,2.9958466257085092e-05,2.646348476409912,-1.5609900951385498,-0.0,2.191413402557373,4.278031035060547,0.0,0.2731461524963379,-1.3798111120807093,-0.0,-0.016344698145985603,1.1092817783355713,-0.0,-0.00443060789257288,1.130776286125183,0.0,0.024457251653075218
153.0,205.0,3.8249,-2.9856,8.0459,-0.0502,0.0217,-0.124,-1.6746732197203578,2.8533782824524678e-05,2.681009292602539,-1.56106698513031,-0.0,2.199306011199951,4.278042479152344,0.0,0.2750900983810425,-1.3798311392413538,-0.0,-0.017782628536224365,1.1092609167099,-0.0,-0.0044202618300914764,1.1308045387268066,0.0,-0.015409305691719055
153.0,205.0,3.8249,-2.9856,8.0459,-0.0502,0.0217,-0.124,-1.6746775112547816,2.7238451366429217e-05,2.667210102081299,-1.5610226392745972,-0.0,2.1782140731811523,4.27803008138623,0.0,0.2827485203742981,-1.3798230330096644,-0.0,-0.020718878135085106,1.1092607975006104,-0.0,0.009773457422852516,1.130820870399475,0.0,-0.01551688089966774
153.0,205.0,3.8249,-2.9856,8.0459,-0.0502,0.0217,-0.124,-1.6746374569334925,2.6438297936692834e-05,2.637773036956787,-1.560945749282837,-0.0,2.1719601154327393,4.278042479152344,0.0,0.2946372628211975,-1.3798349539386194,-0.0,-0.028122372925281525,1.1092525720596313,-0.0,-0.002369100460782647,1.1308085918426514,0.0,-0.040504083037376404
153.0,205.0,3.8249,-2.9856,8.0459,-0.0502,0.0217,-0.124,-1.6746975384154261,2.532251710363198e-05,2.6566884517669678,-1.561026692390442,-0.0,2.150139808654785,4.27803818761792,0.0,0.2895681858062744,-1.3798587957965296,-0.0,-0.02112986147403717,1.1092731952667236,-0.0,-0.02307542972266674,1.130764365196228,0.0,-0.04579560458660126
153.0,205.0,3.8249,-2.9856,8.0459,-0.0502,0.0217,-0.124,-1.6746775112547816,2.429709093121346e-05,2.6229562759399414,-1.561026692390442,-0.0,2.2002453804016113,4.27800623952832,0.0,0.2885887026786804,-1.3798592726336878,-0.0,-0.028006210923194885,1.1092898845672607,-0.0,-0.006882998161017895,1.130812644958496,0.0,0.021476363763213158
153.0,205.0,3.8249,-2.9856,8.0459,-0.0502,0.0217,-0.124,-1.6746531925597132,1.1831391020677984e-05,2.6619696617126465,-1.5609937906265259,-0.0,2.1777544021606445,4.278054876918457,0.0,0.29160070419311523,-1.3798349539386194,-0.0,-0.02483629435300827,1.1093018054962158,-0.0,-0.006111722439527512,1.130860686302185,0.0,-0.015944872051477432
153.0,205.0,3.8249,-2.9856,8.0459,-0.0502,0.0217,-0.124,-1.6746851406493128,4.529019577148574e-07,2.6356589794158936,-1.560982346534729,-0.0,2.1601884365081787,4.278050585384033,0.0,0.29042869806289673,-1.3798912207232874,-0.0,-0.020187608897686005,1.1093143224716187,-0.0,-0.0001230790512636304,1.1308605670928955,0.0,-0.026842664927244186
153.0,205.0,3.8249,-2.9856,8.0459,-0.0502,0.0217,-0.124,-1.6747180424132289,1.0937049876869054e-12,2.649580717086792,-1.5610102415084839,-0.0,2.20127010345459,4.27803008138623,0.0,0.2813881039619446,-1.3798430601703089,-0.0,-0.019927605986595154,1.1093177795410156,-0.0,0.0004510751459747553,1.1309089660644531,0.0004882856737822294,-0.042543984949588776
153.0,205.0,3.8249,-2.9856,8.0459,-0.0502,0.0217,-0.124,-1.6747337780394496,2.6411686707277286e-18,2.630016326904297,-1.5610225200653076,-0.0,2.2171413898468018,4.278066797847412,0.0,0.2866143584251404,-1.379911247883932,-0.0,-0.027502357959747314,1.1092607975006104,-0.0,0.0055032754316926,1.130924940109253,0.002935109194368124,-0.009144581854343414
153.0,205.0,3.8249,-2.9856,8.0459,-0.0502,0.0217,-0.124,-1.6747380695738734,4.754010039450141e-22,2.6124532222747803,-1.560985803604126,3.974572337028803e-06,2.174581527709961,4.27803818761792,0.0,0.2782648205757141,-1.3798311392413538,-0.0,-0.032622069120407104,1.1093378067016602,-0.0,0.0035293910186737776,1.1309609413146973,0.004667392931878567,0.05352465808391571
153.0,205.0,3.8249,-2.9856,8.0459,-0.0502,0.0217,-0.124,-1.674697061578268,1.1480375953854982e-27,2.648771286010742,-1.5610225200653076,6.562146154465154e-05,2.2029945850372314,4.278042479152344,0.0,0.28291046619415283,-1.3798869291888636,-0.0,-0.02546309307217598,1.109285831451416,-0.0,-0.01039047259837389,1.1309767961502075,0.005456998012959957,0.01121024414896965
153.0,205.0,3.8249,-2.9856,8.0459,-0.0502,0.0217,-0.124,-1.674713750878805,2.7723756920945254e-33,2.599250078201294,-1.5610225200653076,0.0008706539520062506,2.2203197479248047,4.278025789851807,0.0,0.2846336364746094,-1.379906956349508,-0.0,-0.018472587689757347,1.1092898845672607,-0.0,-0.0023705093190073967,1.1310447454452515,0.006561288610100746,-0.013658702373504639
155.0,200.0,4.1312,-2.6608,8.1081,-0.0142,-0.0046,-0.1067,-1.6746732197203578,6.694961252229249e-39,2.648895025253296,-1.5609345436096191,0.001745760440826416,2.2030653953552246,4.2780138689228515,0.0,0.3060770034790039,-1.3798750082599085,-0.00010728963388828561,-0.02064729481935501,1.1093058586120605,-0.0,-4.7772424295544624e-05,1.1310001611709595,0.006186809856444597,-0.022517330944538116
155.0,200.0,4.1312,-2.6608,8.1081,-0.0142,-0.0046,-0.1067,-1.674697061578268,1.2051166793193427e-42,2.622222900390625,-1.5609304904937744,0.00254681590013206,2.1686477661132812,4.278058691615723,0.0,0.3017934560775757,-1.3799031416522425,-0.0001024543889798224,-0.025820497423410416,1.1092406511306763,-0.0,-3.7425197660923004e-05,1.1311532258987427,0.005253438372164965,0.014376964420080185
155.0,200.0,4.1312,-2.6608,8.1081,-0.0142,-0.0046,-0.1067,-1.674697061578268,0.0,2.591007947921753,-1.5609019994735718,0.003687984775751829,2.1828367710113525,4.278025789851807,0.0,0.27090054750442505,-1.379911247883932,-9.590384433977306e-05,-0.01306471973657608,1.1092650890350342,-0.0,-0.00334748113527894,1.1310844421386719,0.0035549155436456203,-0.06658923625946045
155.0,200.0,4.1312,-2.6608,8.1081,-0.0142,-0.0046,-0.1067,-1.6747619114317835,0.0,2.6722488403320312,-1.5608900785446167,0.005650990176945925,2.229278087615967,4.27808587133374,0.0,0.2933342456817627,-1.3798545042621058,-0.00010351517994422466,-0.013693679124116898,1.1093058586120605,-0.0,-0.003890149062499404,1.1310925483703613,0.0019305465975776315,0.02981184422969818
155.0,200.0,4.1312,-2.6608,8.1081,-0.0142,-0.0046,-0.1067,-1.6746851406493128,-3.666387056000531e-05,2.646901845932007,-1.5608620643615723,0.00604238361120224,2.270906925201416,4.278058691615723,0.0,0.2977614402770996,-1.379918400441305,-0.00010203546116827056,-0.027246560901403427,1.109285831451416,-0.0,0.0002497179666534066,1.1310644149780273,0.0011719065951183438,-0.0031419117003679276
155.0,200.0,4.1312,-2.6608,8.1081,-0.0142,-0.0046,-0.1067,-1.67472567180776,-6.778337410651147e-05,2.626037120819092,-1.5608506202697754,0.004860364366322756,2.2126145362854004,4.278054400081299,0.0,0.2931501269340515,-1.3798907438861292,-9.832096111495048e-05,-0.016178613528609276,1.1093058586120605,-0.0,-0.007731158286333084,1.1311123371124268,0.0009663847740739584,0.01918167993426323
155.0,200.0,4.1312,-2.6608,8.1081,-0.0142,-0.0046,-0.1067,-1.6747738323607386,-0.00011138142144773155,2.665447235107422,-1.5608142614364624,0.002454770030453801,2.2158188819885254,4.278054400081299,0.0,0.2860143482685089,-1.3798587957965296,-9.322846017312258e-05,-0.016053255647420883,1.1093456745147705,-0.0,0.0014688174705952406,1.1311204433441162,0.0006735596107318997,0.03072519414126873
155.0,200.0,4.1312,-2.6608,8.1081,-0.0142,-0.0046,-0.1067,-1.674713750878805,-0.0004611432959791273,2.5969316959381104,-1.5608346462249756,0.001228154986165464,2.2063634395599365,4.277998133296631,0.0,0.2935432195663452,-1.3798711935626429,-7.392978295683861e-05,-0.01894795522093773,1.1092816591262817,-0.0,-0.0042996578849852085,1.1310925483703613,0.00022978981724008918,0.019811324775218964
155.0,200.0,4.1312,-2.6608,8.1081,-0.0142,-0.0046,-0.1067,-1.6747333012022914,-0.00042453681817278266,2.6797800064086914,-1.5608588457107544,0.00013703660806640983,2.1965229511260986,4.278050108546875,0.0,0.29115208983421326,-1.379814926777975,-7.039804040687159e-05,-0.017252102494239807,1.1092898845672607,-0.0,-0.0058149127289652824,1.131008267402649,8.811733096081298e-06,0.03847048804163933
155.0,200.0,4.1312,-2.6608,8.1081,-0.0142,-0.0046,-0.1067,-1.6747213802733363,-0.0003668468270916492,2.6116855144500732,-1.560814619064331,0.00010158053919440135,2.2046937942504883,4.278058691615723,0.0,0.29553520679473877,-1.3798754850970667,-5.8124929637415335e-05,-0.02076532505452633,1.1093218326568604,-0.0,0.0006252822931855917,1.131028413772583,1.586081044280263e-09,0.04543687775731087
155.0,200.0,4.1312,-2.6608,8.1081,-0.0142,-0.0046,-0.1067,-1.6747333012022914,-0.00040025293128564954,2.6207141876220703,-1.560806155204773,7.587589061586186e-05,2.21061635017395,4.278070612544678,0.0,0.29244914650917053,-1.379866902028219,-4.0880735468817875e-05,-0.017806056886911392,1.1092731952667236,-0.0,-0.0041327103972435,1.130980372428894,-0.003479204373434186,-0.01047605648636818
155.0,200.0,4.1312,-2.6608,8.1081,-0.0142,-0.0046,-0.1067,-1.6747375927367152,-0.0004887734539806843,2.6387288570404053,-1.560866117477417,6.055611447663978e-05,2.201165199279785,4.278042479152344,0.0,0.295043408870697,-1.3798792997943323,-3.754101271624677e-05,-0.019079672172665596,1.1092524528503418,-0.0,-0.0037805046886205673,1.1309726238250732,-0.0054125054739415646,-0.006091895513236523
155.0,200.0,4.1312,-2.6608,8.1081,-0.0142,-0.0046,-0.1067,-1.674737115899557,-0.0008951850468292832,2.641083240509033,-1.5608510971069336,5.337259062798694e-05,2.1405365467071533,4.278054400081299,0.0,0.29775863885879517,-1.3798311392413538,4.608192830346525e-05,-0.018967751413583755,1.109285831451416,-0.0,-0.02235935628414154,1.130964994430542,-0.0057973554357886314,-0.014355912804603577
155.0,200.0,4.1312,-2.6608,8.1081,-0.0142,-0.0046,-0.1067,-1.6747614345946253,-0.0010246351594105363,2.6310927867889404,-1.5608104467391968,4.531028025667183e-05,2.1846230030059814,4.278074427241943,0.0,0.2803594768047333,-1.3798225561725062,6.557830784004182e-05,-0.028731495141983032,1.1092983484268188,-0.0,0.006197051145136356,1.1309047937393188,-0.006654420867562294,0.013239288702607155
155.0,200.0,4.1312,-2.6608,8.1081,-0.0142,-0.0046,-0.1067,-1.6748258076109828,-0.001187590416520834,2.5843234062194824,-1.560866117477417,9.21465681535949e-10,2.226059913635254,4.278070612544678,1.3888898138247896e-06,0.29028192162513733,-1.3798354307757776,6.647243571933359e-05,-0.025594905018806458,1.1093379259109497,-0.0,0.0044706412591040134,1.1308687925338745,-0.0062251463532447815,0.032012879848480225
155.0,200.0,4.1312,-2.6608,8.1081,-0.0142,-0.0046,-0.1067,-1.6747976742186488,-0.00166472012642771,2.6372504234313965,-1.560882568359375,2.2252311501275894e-15,2.214158535003662,4.278053923244141,3.8660261103551363e-10,0.29888802766799927,-1.3798516432391565,6.190188287291676e-05,-0.024456962943077087,1.1093178987503052,-0.0,-0.005598942283540964,1.1308045387268066,-0.007102262694388628,0.049714189022779465
155.0,200.0,4.1312,-2.6608,8.1081,-0.0142,-0.0046,-0.1067,-1.6747852764525355,-0.0016237411182373762,2.6458821296691895,-1.5607980489730835,4.005338031446413e-19,2.214176654815674,4.278106375331543,1.64814754725906e-12,0.29281359910964966,-1.3798230330096644,5.9187830629525706e-05,-0.02439548820257187,1.109269142150879,-0.0,0.0034165638498961926,1.1307566165924072,-0.007731428369879723,-0.007638697512447834
151.0,208.0,3.6778,-3.1537,7.992,-0.0457,0.0336,-0.1268,-1.6747809849181117,-0.0016039161710068583,2.6691527366638184,-1.5608866214752197,9.672419788065e-25,2.2071642875671387,4.27808587133374,4.587679731886244e-16,0.284404456615448,-1.37982684770693,5.5535489082103595e-05,-0.024345774203538895,1.109277606010437,-0.0,0.00972464494407177,1.1307084560394287,-0.0078098527155816555,0.00496402895078063
151.0,208.0,3.6778,-3.1537,7.992,-0.0457,0.0336,-0.1268,-1.6747690639891566,-0.0013595973141491413,2.658202648162842,-1.5608347654342651,2.335775735874877e-30,2.22027325630188,4.278134508723877,0.0002946265449281782,0.2897721827030182,-1.3799002806292933,5.2307703299447894e-05,-0.022436149418354034,1.1092524528503418,-0.0,0.0003163912333548069,1.1306605339050293,-0.007989275269210339,0.037867385894060135
151.0,208.0,3.6778,-3.1537,7.992,-0.0457,0.0336,-0.1268,-1.674817224542135,-0.0014370856806635857,2.646700382232666,-1.5608469247817993,5.640623345998689e-36,2.2224864959716797,4.278081579799316,0.0004233557847328484,0.29700034856796265,-1.3798230330096644,4.943451131111942e-05,-0.020637106150388718,1.1092609167099,-0.0,0.001595491310581565,1.1305921077728271,-0.007777747698128223,0.016976695507764816
151.0,208.0,3.6778,-3.1537,7.992,-0.0457,0.0336,-0.1268,-1.674821516076559,-0.0015531200915575027,2.678609609603882,-1.560822606086731,1.01529258544651e-39,2.204892158508301,4.278106375331543,0.00043945989455096424,0.29888463020324707,-1.3798192183123987,4.768824510392733e-05,-0.02154640480875969,1.1092491149902344,-0.0,-0.0015693261520937085,1.1305766105651855,-0.007168230600655079,-0.06703750789165497
151.0,208.0,3.6778,-3.1537,7.992,-0.0457,0.0336,-0.1268,-1.674845357934469,-0.0018096049316227436,2.6128292083740234,-1.5608069896697998,2.802596928649634e-45,2.1969523429870605,4.278089686031006,0.0006516328430734575,0.2937048673629761,-1.3798430601703089,4.528850331553258e-05,-0.014854245819151402,1.1092735528945923,-0.0,-0.012844658456742764,1.1305524110794067,-0.0064933826215565205,-0.013895304873585701
151.0,208.0,3.6778,-3.1537,7.992,-0.0457,0.0336,-0.1268,-1.674896856347555,-0.0022896735463291407,2.631028890609741,-1.5608669519424438,-0.0,2.19860577583313,4.278089686031006,0.000637049728538841,0.30212169885635376,-1.3798230330096644,4.3118758185300976e-05,-0.03391272574663162,1.1093024015426636,-0.0,0.0023703225888311863,1.130552887916565,-0.004791154991835356,0.015401836484670639
151.0,208.0,3.6778,-3.1537,7.992,-0.0457,0.0336,-0.1268,-1.6748649082579554,-0.0028229013551026583,2.6630706787109375,-1.5608224868774414,-0.0,2.1593456268310547,4.278134508723877,0.0005182106979191303,0.2964622974395752,-1.3798354307757776,4.114737021154724e-05,-0.02668904885649681,1.109289526939392,-0.0,0.00313958409242332,1.1305407285690308,-0.002862493507564068,0.04615386947989464
151.0,208.0,3.6778,-3.1537,7.992,-0.0457,0.0336,-0.1268,-1.6749535999693812,-0.0033841042313724756,2.6319875717163086,-1.5607463121414185,-0.0,2.194929838180542,4.278089686031006,0.00042130399378947914,0.3057865500450134,-1.3798792997943323,3.993030622950755e-05,-0.03096645139157772,1.1093178987503052,-0.0,0.0030094976536929607,1.130528450012207,-0.0020124248694628477,-0.010801431722939014
151.0,208.0,3.6778,-3.1537,7.992,-0.0457,0.0336,-0.1268,-1.6749330959715785,-0.004203405696898699,2.6399588584899902,-1.5608428716659546,-0.0,2.1627020835876465,4.278142138118408,0.00039460562402382493,0.30695974826812744,-1.3798349539386194,3.823400038527325e-05,-0.02992182970046997,1.109297752380371,-0.0,-0.021935079246759415,1.130500078201294,-0.001195054384879768,-0.0022874553687870502
151.0,208.0,3.6778,-3.1537,7.992,-0.0457,0.0336,-0.1268,-1.6749574146666468,-0.004101079422980547,2.6588351726531982,-1.5608350038528442,-0.0,2.1361804008483887,4.278122110957764,0.0003774513606913388,0.29441356658935547,-1.3798468748675745,3.667591226985678e-05,-0.018865074962377548,1.1092936992645264,-0.0,-0.01891116239130497,1.130569338798523,-0.0007705362513661385,0.01949962228536606
151.0,208.0,3.6778,-3.1537,7.992,-0.0457,0.0336,-0.1268,-1.6749726734557093,-0.004521079361438751,2.6529932022094727,-1.5607703924179077,-0.0,2.1946702003479004,4.278130694026611,0.0003849153872579336,0.2867966294288635,-1.3798354307757776,3.5705870686797425e-05,-0.035142987966537476,1.1093101501464844,-0.0,0.002548431744799018,1.1305124759674072,-0.00021540709713008255,0.026666272431612015
151.0,208.0,3.6778,-3.1537,7.992,-0.0457,0.0336,-0.1268,-1.6750332317748011,-0.005501471925526857,2.646751880645752,-1.5608701705932617,-0.0,2.19464373588562,4.278101606959961,0.00030147371580824256,0.30959421396255493,-1.3798511664019983,2.870078242267482e-05,-0.03674246370792389,1.1092774868011475,-0.0,-0.014470904134213924,1.130520224571228,-0.00015843247820157558,0.029891571030020714
151.0,208.0,3.6778,-3.1537,7.992,-0.0457,0.0336,-0.1268,-1.6750856838622035,-0.00684113334864378,2.6678051948547363,-1.5608184337615967,-0.0,2.181044578552246,4.278145952815674,0.00032552966149523854,0.3133021593093872,-1.3798311392413538,2.205564123869408e-05,-0.01583528332412243,1.109313726425171,-0.0,-0.003488932503387332,1.1304839849472046,-0.00012532919936347753,0.021421410143375397
151.0,208.0,3.6778,-3.1537,7.992,-0.0457,0.0336,-0.1268,-1.6751252613463343,-0.006747490726411343,2.6902027130126953,-1.5608069896697998,-0.0,2.2253975868225098,4.278118296260498,0.00034242370747961104,0.30630582571029663,-1.3798711935626429,2.1272133380989544e-05,-0.04036719352006912,1.109289526939392,-0.0,0.004535704851150513,1.130472183227539,-0.00010367025242885575,0.0010337894782423973
151.0,208.0,3.6778,-3.1537,7.992,-0.0457,0.0336,-0.1268,-1.6751448116698207,-0.006602375768125057,2.608919382095337,-1.5607786178588867,-0.0,2.195319414138794,4.278125448817871,0.0005395458429120481,0.3126981258392334,-1.3798511664019983,2.078097895719111e-05,-0.034709639847278595,1.109297752380371,-0.0,-0.005873707123100758,1.130544662475586,-4.6707307774340734e-05,0.012549754232168198
151.0,208.0,3.6778,-3.1537,7.992,-0.0457,0.0336,-0.1268,-1.6752172909178675,-0.005874171853065491,2.633108139038086,-1.5608184337615967,-0.0,2.2352004051208496,4.2781335550495605,0.000852197699714452,0.31550341844558716,-1.379814926777975,2.0085335563635454e-05,-0.028591513633728027,1.1092936992645264,-0.0,0.0028296990785747766,1.1305407285690308,-4.0244638512376696e-05,3.72803770005703e-05
144.0,194.0,3.9021,-2.6967,7.9908,-0.0189,0.0101,-0.1167,-1.6752287350096644,-0.006182814482599497,2.6681246757507324,-1.560811161994934,-0.0,2.2416326999664307,4.278178377742432,0.002005697228014469,0.31836074590682983,-1.3798230330096644,8.468202850053785e-08,-0.03263978660106659,1.1092406511306763,-0.0,0.003722476540133357,1.1305487155914307,-3.5484212276060134e-05,0.05169671028852463
144.0,194.0,3.9021,-2.6967,7.9908,-0.0189,0.0101,-0.1167,-1.6752850017943324,-0.006399827543646097,2.65231990814209,-1.560822606086731,-0.0,2.233064889907837,4.278157396907471,0.010351383127272129,0.32723239064216614,-1.3798468748675745,2.3571550961110077e-11,-0.030293023213744164,1.109378457069397,-0.0,-0.008572449907660484,1.1305363178253174,-3.1730909540783614e-05,-0.0041004931554198265
144.0,194.0,3.9021,-2.6967,7.9908,-0.0189,0.0101,-0.1167,-1.6752687893309535,-0.00711130490526557,2.657050132751465,-1.5608184337615967,-0.0,2.224163055419922,4.278278036708496,0.023583361878991127,0.3313693404197693,-1.379854981099264,1.0048922414671035e-13,-0.034709226340055466,1.1093783378601074,-0.0,0.006232195999473333,1.1305160522460938,-5.711452200074518e-09,-0.057743415236473083
144.0,194.0,3.9021,-2.6967,7.9908,-0.0189,0.0101,-0.1167,-1.6753412685790003,-0.007839360274374485,2.6299705505371094,-1.560822606086731,-0.0,2.236966848373413,4.278389616603516,0.02379547245800495,0.3235270380973816,-1.3798230330096644,2.797154916484406e-17,-0.04110649973154068,1.1093498468399048,-0.0,-0.0026097982190549374,1.1305487155914307,-1.379248481376237e-14,-0.004445488099008799
144.0,194.0,3.9021,-2.6967,7.9908,-0.0189,0.0101,-0.1167,-1.6753646335997523,-0.007742594927549362,2.6205568313598633,-1.5607906579971313,-0.0,2.227292060852051,4.278529329890869,0.020535854622721672,0.3310994803905487,-1.379854981099264,7.785984534084557e-21,-0.04350622743368149,1.109313726425171,-0.0,0.0016846460057422519,1.1305688619613647,-3.33072254644918e-20,-0.038148656487464905
144.0,194.0,3.9021,-2.6967,7.9908,-0.0189,0.0101,-0.1167,-1.6754609547057093,-0.0075377002358436584,2.683645248413086,-1.56083083152771,-0.0,2.1992435455322266,4.27862469732251,0.014008262194693089,0.334267795085907,-1.3797991911517542,2.167257680866769e-24,-0.050004199147224426,1.1093177795410156,-0.0,0.00025013252161443233,1.1305406093597412,-8.043302826831212e-26,0.0031332485377788544
144.0,194.0,3.9021,-2.6967,7.9908,-0.0189,0.0101,-0.1167,-1.6754847965636195,-0.007254704367369413,2.6642796993255615,-1.56083083152771,-0.0,2.260312557220459,4.278696699733398,0.009586097672581673,0.3309824764728546,-1.3798111120807093,9.239360789078084e-27,-0.027459219098091125,1.1093058586120605,-0.0,-0.0005842250538989902,1.1305283308029175,-1.447766226789126e-29,0.03444097563624382
144.0,194.0,3.9021,-2.6967,7.9908,-0.0189,0.0101,-0.1167,-1.6755410633482875,-0.005957214627414942,2.6542677879333496,-1.5608267784118652,-0.0,2.2203845977783203,4.278717203731201,0.0031587891280651093,0.3338308036327362,-1.3798587957965296,2.5718095472262047e-30,-0.04226742312312126,1.1092735528945923,-0.0,-0.004979332443326712,1.1305243968963623,-3.496185374340639e-35,-0.007764678448438644
144.0,194.0,3.9021,-2.6967,7.9908,-0.0189,0.0101,-0.1167,-1.6755086384215296,-0.0050889430567622185,2.6646103858947754,-1.5607905387878418,-0.0,2.2192254066467285,4.278659983272217,0.0006721990648657084,0.3284398019313812,-1.3798587957965296,7.1587266173741525e-34,-0.04134158417582512,1.109325647354126,-0.0,-0.014782111160457134,1.1305243968963623,-8.442823247557023e-41,0.025480983778834343
144.0,194.0,3.9021,-2.6967,7.9908,-0.0189,0.0101,-0.1167,-1.675584455529684,-0.004709173459559679,2.66574764251709,-1.5608545541763306,-0.0,2.2518057823181152,4.278704805965088,0.00041884995880536735,0.3192085027694702,-1.379815403615133,3.051877567054771e-36,-0.03808557987213135,1.1092774868011475,-0.0,0.009813601151108742,1.1305688619613647,-1.5414283107572988e-44,-0.03019549511373043
144.0,194.0,3.9021,-2.6967,7.9908,-0.0189,0.0101,-0.1167,-1.6755763492979945,-0.0052531068213284016,2.6681127548217773,-1.5608546733856201,-0.0,2.1972157955169678,4.278696699733398,0.0002854613121598959,0.32516661286354065,-1.3798273245440882,8.495007602368479e-40,-0.05261823534965515,1.1093416213989258,-0.0,0.007556488271802664,1.1305646896362305,0.0,0.047676220536231995
144.0,194.0,3.9021,-2.6967,7.9908,-0.0189,0.0101,-0.1167,-1.6756445370116175,-0.005138872656971216,2.657583236694336,-1.5607988834381104,-0.0,2.2004175186157227,4.27869622289624,0.00021665639360435307,0.331127792596817,-1.3798468748675745,2.368194404708941e-43,-0.044093288481235504,1.1093018054962158,-0.0,-0.0006114663556218147,1.1305407285690308,0.0,0.010869399644434452
144.0,194.0,3.9021,-2.6967,7.9908,-0.0189,0.0101,-0.1167,-1.6756764851012171,-0.005461425054818392,2.6832783222198486,-1.560778260231018,-0.0,2.213515520095825,4.27869622289624,0.00017459606169722974,0.3283919095993042,-1.3798273245440882,0.0,-0.04076216369867325,1.1092935800552368,-0.0,-0.0049799527041614056,1.130544662475586,0.0,-0.0011619424913078547
144.0,194.0,3.9021,-2.6967,7.9908,-0.0189,0.0101,-0.1167,-1.6756440601744593,-0.005070832557976246,2.6522529125213623,-1.5608550310134888,-0.0,2.219738245010376,4.278717203731201,0.00015459256246685982,0.3314642310142517,-1.3798192183123987,0.0,-0.037500299513339996,1.1093379259109497,-0.0,0.006654746830463409,1.1305606365203857,0.0,-0.013239092193543911
144.0,194.0,3.9021,-2.6967,7.9908,-0.0189,0.0101,-0.1167,-1.6756764851012171,-0.005009795539081097,2.617370843887329,-1.560794711112976,-0.0,2.1714134216308594,4.278740568751953,0.00013192393817007542,0.3261951208114624,-1.379883114491598,0.0,-0.05335476994514465,1.109313726425171,-0.0,-0.009190794080495834,1.130536437034607,0.0,-0.04751076549291611
144.0,194.0,3.9021,-2.6967,7.9908,-0.0189,0.0101,-0.1167,-1.6756884060301722,-0.004083257634192705,2.6630258560180664,-1.5608469247817993,-0.0,2.2144179344177246,4.27872817098584,0.00011505458678584546,0.32098230719566345,-1.3798468748675745,0.0,-0.04119563847780228,1.1093261241912842,-0.0,-0.004944066051393747,1.1305606365203857,0.0,0.02241707220673561
144.0,194.0,3.9021,-2.6967,7.9908,-0.0189,0.0101,-0.1167,-1.6756679020323695,-0.0038974122144281864,2.6567163467407227,-1.5607948303222656,-0.0,2.206716299057007,4.278688593501709,0.00010201118129771203,0.3271317780017853,-1.3798630873309534,0.0,-0.03874346241354942,1.1093498468399048,-0.0,0.007925905287265778,1.1305241584777832,0.0,0.004388582892715931
153.0,204.0,3.5354,-3.0538,8.269,-0.0363,0.0276,-0.1119,-1.6757518253722132,-0.004027314018458128,2.683824062347412,-1.560839056968689,-0.0,2.2152793407440186,4.278676672572754,9.484341717325151e-05,0.31179624795913696,-1.379854981099264,0.0,-0.04118097946047783,1.1092652082443237,-0.0,-0.0009645327227190137,1.130544662475586,0.0,-0.050622936338186264
153.0,204.0,3.5354,-3.0538,8.269,-0.0363,0.0276,-0.1119,-1.6757685146727503,-0.004329759161919355,2.6387457847595215,-1.5608432292938232,-0.0,2.2366280555725098,4.278704805965088,8.580049325246364e-05,0.32873648405075073,-1.379854981099264,0.0,-0.051188625395298004,1.1093058586120605,-0.0,-0.006596047431230545,1.130592942237854,4.773904220201075e-05,0.005961750168353319
153.0,204.0,3.5354,-3.0538,8.269,-0.0363,0.0276,-0.1119,-1.6758409939207972,-0.004208054859191179,2.6691384315490723,-1.5608266592025757,0.00013414406566880643,2.2480697631835938,4.278692408198975,7.83321593189612e-05,0.3242378532886505,-1.379854981099264,0.0,-0.04069789499044418,1.109277606010437,-0.0,-0.004546273499727249,1.130544662475586,4.9957645387621596e-05,-0.024575812742114067
153.0,204.0,3.5354,-3.0538,8.269,-0.0363,0.0276,-0.1119,-1.6758328876891078,-0.0038764076307415962,2.67692232131958,-1.560811161994934,0.00018480316794011742,2.2461185455322266,4.27869622289624,7.205994916148484e-05,0.3207283318042755,-1.379866902028219,0.0,-0.04707981273531914,1.1093699932098389,-1.969044433280942e-06,0.000718023395165801,1.130556583404541,4.611774784279987e-05,-0.005828508175909519
153.0,204.0,3.5354,-3.0538,8.269,-0.0363,0.0276,-0.1119,-1.675852438012594,-0.0039595975540578365,2.6840975284576416,-1.5608266592025757,0.000200246213353239,2.249907970428467,4.278752489680908,8.820869697956368e-05,0.32981741428375244,-1.3798392454730433,0.0,-0.035640981048345566,1.1092816591262817,-8.394344774842466e-09,0.003546038642525673,1.1305646896362305,4.3869775254279375e-05,0.039119523018598557
153.0,204.0,3.5354,-3.0538,8.269,-0.0363,0.0276,-0.1119,-1.6758924923338832,-0.004891958087682724,2.67462158203125,-1.560786485671997,0.000616936944425106,2.257571220397949,4.27872817098584,8.476665971102193e-05,0.32239770889282227,-1.3798430601703089,0.0,-0.044568534940481186,1.1092898845672607,-2.3365968448291197e-12,-0.007889734581112862,1.1305323839187622,4.0880735468817875e-05,0.0027088294737040997
153.0,204.0,3.5354,-3.0538,8.269,-0.0363,0.0276,-0.1119,-1.6758681736388148,-0.005325005855411291,2.678736448287964,-1.5608266592025757,0.00046654153265990317,2.2057645320892334,4.27872817098584,7.9174387792591e-05,0.3134671151638031,-1.3798468748675745,0.0,-0.056647688150405884,1.1092817783355713,-6.504003365985229e-16,-0.0030282456427812576,1.1305570602416992,1.913666164909955e-05,0.03774081915616989
153.0,204.0,3.5354,-3.0538,8.269,-0.0363,0.0276,-0.1119,-1.6759406528868617,-0.005825819447636604,2.641390800476074,-1.5607703924179077,0.0004322355962358415,2.2304396629333496,4.278712912196777,7.427374657709152e-05,0.3250802755355835,-1.3798072973834437,0.0,-0.02902296558022499,1.109325647354126,-1.8104132420611882e-19,0.0024529886431992054,1.1305766105651855,1.798903576855082e-05,-0.004629271570593119
153.0,204.0,3.5354,-3.0538,8.269,-0.0363,0.0276,-0.1119,-1.6759401760497035,-0.005990250501781702,2.6198713779449463,-1.5607424974441528,0.0003800731210503727,2.2054731845855713,4.278684301967285,7.133043254725635e-05,0.32870984077453613,-1.3798592726336878,0.0,-0.05302632600069046,1.1092817783355713,-7.718074742550123e-22,0.010012045502662659,1.1305407285690308,1.729755604173988e-05,0.014356434345245361
153.0,204.0,3.5354,-3.0538,8.269,-0.0363,0.0276,-0.1119,-1.6760159931578578,-0.006559689994901419,2.6228790283203125,-1.560778260231018,0.00032182104769162834,2.184347629547119,4.278717203731201,1.889317536551971e-05,0.33212965726852417,-1.3798192183123987,0.0,-0.034266289323568344,1.1093177795410156,-2.1483544535139906e-25,-0.01038527861237526,1.1305078268051147,1.635459193494171e-05,0.05021302402019501
153.0,204.0,3.5354,-3.0538,8.269,-0.0363,0.0276,-0.1119,-1.6760317287840785,-0.006379498168826103,2.6568384170532227,-1.5607987642288208,0.0003189175040461123,2.25277042388916,4.278717203731201,1.626595258130692e-05,0.3222043514251709,-1.3798511664019983,0.0,-0.043590810149908066,1.109269142150879,-5.980023310678305e-29,0.0007698785047978163,1.1305323839187622,1.550911838421598e-05,0.0388842411339283
153.0,204.0,3.5354,-3.0538,8.269,-0.0363,0.0276,-0.1119,-1.6760436497130335,-0.0062811546958982944,2.6881933212280273,-1.560794711112976,0.0002929636393673718,2.2116475105285645,4.2787367540546875,1.569805681356229e-05,0.32916951179504395,-1.379854981099264,0.0,-0.041993480175733566,1.10932195186615,-2.5493780587272033e-31,-0.007640632335096598,1.130519986152649,1.4992409887781832e-05,0.019056955352425575
153.0,204.0,3.5354,-3.0538,8.269,-0.0363,0.0276,-0.1119,-1.6760755978026332,-0.006216360721737146,2.6822891235351562,-1.5607744455337524,0.00026109092868864536,2.2264046669006348,4.278668566341064,1.4917472981323954e-05,0.3275502324104309,-1.3798392454730433,0.0,-0.04102781414985657,1.109313726425171,-7.096287204358853e-35,0.0004542602109722793,1.1305766105651855,1.4278843991633039e-05,-0.0019873324781656265
153.0,204.0,3.5354,-3.0538,8.269,-0.0363,0.0276,-0.1119,-1.676159521142477,-0.007304580416530371,2.713942527770996,-1.5608102083206177,0.0001863713696366176,2.210265874862671,4.27872006475415,1.421083197783446e-05,0.3390100598335266,-1.3798874060260218,0.0,-0.06039533019065857,1.109285831451416,-1.9752774619344302e-38,0.0045281825587153435,1.1305283308029175,1.3630115972773638e-05,-0.019647978246212006
153.0,204.0,3.5354,-3.0538,8.269,-0.0363,0.0276,-0.1119,-1.6762200794615687,-0.00789031945168972,2.6465792655944824,-1.5607306957244873,0.0001655946543905884,2.2259833812713623,4.278704805965088,1.35681275423849e-05,0.3253266513347626,-1.3798626104937952,0.0,-0.04254845529794693,1.1092650890350342,-5.498695174010582e-42,0.01386177446693182,1.1305890083312988,1.3066546671325341e-05,-0.03544312343001366
153.0,204.0,3.5354,-3.0538,8.269,-0.0363,0.0276,-0.1119,-1.6762281856932582,-0.008033499121665955,2.659743309020996,-1.5607905387878418,0.0001850848930189386,2.2099995613098145,4.278656168574951,1.3171003956813365e-05,0.32367339730262756,-1.3798349539386194,0.0,-0.035477109253406525,1.109330415725708,-2.382207389352189e-44,-0.00022868008818477392,1.1305160522460938,2.350704016862437e-05,0.018080927431583405
153.0,204.0,3.5354,-3.0538,8.269,-0.0363,0.0276,-0.1119,-1.6762882671751917,-0.008230681531131268,2.635007858276367,-1.5607630014419556,0.00019578891806304455,2.201108694076538,4.278717203731201,1.2617071661225054e-05,0.319057434797287,-1.379854981099264,0.0,-0.04163428395986557,1.1092811822891235,-0.0,-0.008427844382822514,1.1305606365203857,2.1800769900437444e-05,-0.026315782219171524
149.0,209.0,3.6347,-2.9222,8.0183,-0.0338,0.0269,-0.1142,-1.676267763177389,-0.008719056844711304,2.656383752822876,-1.5607388019561768,0.00020467684953473508,2.2411692142486572,4.2786475855061035,1.2107861948607024e-05,0.33976587653160095,-1.3798750082599085,0.0,-0.045123837888240814,1.1093018054962158,-0.0,0.005552202463150024,1.1305322647094727,2.0323841454228386e-05,-0.01041206531226635
149.0,209.0,3.6347,-2.9222,8.0183,-0.0338,0.0269,-0.1142,-1.6763841114439906,-0.008623403497040272,2.6993141174316406,-1.5608068704605103,0.00029663139139302075,2.220722198486328,4.278700514430664,1.1638155228865799e-05,0.33627957105636597,-1.3798792997943323,0.0,-0.042816437780857086,1.1093865633010864,-0.0,-0.007184501737356186,1.1305606365203857,1.903433985717129e-05,0.00958713423460722
149.0,209.0,3.6347,-2.9222,8.0183,-0.0338,0.0269,-0.1142,-1.676387449304098,-0.008437015116214752,2.6621828079223633,-1.5607547760009766,0.00031442398903891444,2.269021987915039,4.27869622289624,1.1344754966557957e-05,0.32614755630493164,-1.3798511664019983,0.0,-0.049567922949790955,1.109289526939392,-0.0,-0.0011091860942542553,1.130544662475586,1.826190054998733e-05,-0.05696703866124153
149.0,209.0,3.6347,-2.9222,8.0183,-0.0338,0.0269,-0.1142,-1.676483770410055,-0.009065988473594189,2.6405575275421143,-1.5607749223709106,0.00031227440922521055,2.23060941696167,4.278692408198975,1.0931377801171038e-05,0.33218133449554443,-1.379854981099264,0.0,-0.04493432119488716,1.1093497276306152,-0.0,-0.005816739052534103,1.1305283308029175,3.4427725040586665e-05,0.04309475049376488
149.0,209.0,3.6347,-2.9222,8.0183,-0.0338,0.0269,-0.1142,-1.6765433750548304,-0.00971225742250681,2.6890668869018555,-1.560794711112976,0.00027201217017136514,2.214599609375,4.278704805965088,1.054707172443159e-05,0.32043662667274475,-1.3798392454730433,0.0,-0.03827047348022461,1.1093456745147705,-0.0,-0.0042371489107608795,1.1305160522460938,3.2559830287937075e-05,0.01650058478116989
149.0,209.0,3.6347,-2.9222,8.0183,-0.0338,0.0269,-0.1142,-1.6765877209105433,-0.010087176226079464,2.736542224884033,-1.560762643814087,0.00024081754963845015,2.270866632461548,4.2787486749836425,1.0188862688664813e-05,0.3270697593688965,-1.3798430601703089,0.0,-0.04744243621826172,1.109337568283081,-0.0,-0.0009687277488410473,1.1305524110794067,3.088387893512845e-05,-0.003220829414203763
149.0,209.0,3.6347,-2.9222,8.0183,-0.0338,0.0269,-0.1142,-1.6766559086241664,-0.010644436813890934,2.63002872467041,-1.5607584714889526,0.00022371404338628054,2.2491443157196045,4.278700514430664,9.963280717784073e-06,0.33355170488357544,-1.3798511664019983,0.0,-0.055972110480070114,1.10932195186615,-0.0,-0.0011135011445730925,1.1305524110794067,2.9859264031983912e-05,0.015461443923413754
149.0,209.0,3.6347,-2.9222,8.0183,-0.0338,0.0269,-0.1142,-1.6767474613585414,-0.011069769971072674,2.6531600952148438,-1.5607824325561523,0.00023091997718438506,2.184504270553589,4.278717203731201,5.4710636021582104e-09,0.34101685881614685,-1.3798587957965296,0.0,-0.045096106827259064,1.1093865633010864,-0.0,-0.0010535350302234292,1.1305683851242065,4.266535324859433e-05,0.032541677355766296
149.0,209.0,3.6347,-2.9222,8.0183,-0.0338,0.0269,-0.1142,-1.6767555675902308,-0.011218407191336155,2.655949592590332,-1.560718059539795,0.00021076606935821474,2.207862615585327,4.27869622289624,1.5228908628941995e-12,0.3485451340675354,-1.3798511664019983,0.0,-0.05486104637384415,1.10934579372406,-0.0,-0.008864841423928738,1.1305725574493408,4.073460149811581e-05,0.00875914841890335
149.0,209.0,3.6347,-2.9222,8.0183,-0.0338,0.0269,-0.1142,-1.6767870388426722,-0.010898311622440815,2.673360824584961,-1.5607507228851318,0.00019910883565898985,2.2467141151428223,4.278700514430664,6.492322887521711e-15,0.3410513997077942,-1.3798468748675745,0.0,-0.033334434032440186,1.109277606010437,-0.0,0.004387879744172096,1.1305766105651855,3.9541508158436045e-05,-0.008913042955100536
149.0,209.0,3.6347,-2.9222,8.0183,-0.0338,0.0269,-0.1142,-1.6768270931639613,-0.010697598569095135,2.648320198059082,-1.5607346296310425,0.0001786697976058349,2.266735315322876,4.27872817098584,1.8071621637599134e-18,0.3367248773574829,-1.379854981099264,0.0,-0.06570243835449219,1.1092694997787476,-0.0,-0.0002145696198567748,1.130604863166809,5.0444523367332295e-05,-0.00169826066121459
149.0,209.0,3.6347,-2.9222,8.0183,-0.0338,0.0269,-0.1142,-1.6768995724120082,-0.010369050316512585,2.6604089736938477,-1.5607547760009766,0.00015756330685690045,2.229739189147949,4.278717203731201,5.030301692636707e-22,0.3326012194156647,-1.379866902028219,0.0,-0.06377190351486206,1.1093337535858154,-0.0,-0.009951348416507244,1.130556583404541,4.846360025112517e-05,0.015154598280787468
149.0,209.0,3.6347,-2.9222,8.0183,-0.0338,0.0269,-0.1142,-1.6769591770567835,-0.010340041480958462,2.6717026233673096,-1.5607749223709106,0.00014258542796596885,2.200486421585083,4.278676195735596,1.400202961825942e-25,0.35033249855041504,-1.3798311392413538,0.0,-0.05139125883579254,1.1093096733093262,-0.0,0.00223046587780118,1.1305683851242065,4.658233592635952e-05,0.0439312644302845
149.0,209.0,3.6347,-2.9222,8.0183,-0.0338,0.0269,-0.1142,-1.6770230732359828,-0.010127417743206024,2.6237635612487793,-1.5607547760009766,0.0001340881863143295,2.24902081489563,4.278700514430664,5.969284566049644e-28,0.3372899293899536,-1.3798630873309534,0.0,-0.05946628004312515,1.109337568283081,-0.0,0.004901847802102566,1.1305806636810303,4.540728696156293e-05,-0.01536082848906517
149.0,209.0,3.6347,-2.9222,8.0183,-0.0338,0.0269,-0.1142,-1.677075048486227,-0.010599086992442608,2.653913974761963,-1.5607346296310425,0.0001230850612046197,2.19372296333313,4.278704805965088,1.6615723145342011e-31,0.33051598072052,-1.3798711935626429,0.0,-0.054313674569129944,1.109297275543213,-0.0,-0.0016007181257009506,1.1305766105651855,4.375178832560778e-05,0.00013899733312427998
149.0,209.0,3.6347,-2.9222,8.0183,-0.0338,0.0269,-0.1142,-1.677115102807516,-0.009879393503069878,2.671685218811035,-1.5607388019561768,0.00011375109170330688,2.206519603729248,4.278664274806641,4.625047382129452e-35,0.34259599447250366,-1.3798349539386194,0.0,-0.047801289707422256,1.109305500984192,-0.0,-0.006878363434225321,1.1305725574493408,4.2212730477331206e-05,0.04368417710065842
156.0,193.0,3.7615,-2.9007,8.1075,-0.0373,0.0168,-0.1203,-1.677195211450094,-0.010586223565042019,2.6922285556793213,-1.5608389377593994,0.00010573283361736685,2.2265748977661133,4.278676195735596,1.2873988231967995e-38,0.3295874297618866,-1.379866902028219,0.0,-0.059643760323524475,1.1093498468399048,-0.0,-0.002944388659670949,1.130536437034607,4.077831908944063e-05,0.03096284531056881
156.0,193.0,3.7615,-2.9007,8.1075,-0.0373,0.0168,-0.1203,-1.67724670986318,-0.009999046102166176,2.6757781505584717,-1.560827612876892,0.00010098719940287992,2.208132266998291,4.278716726894043,5.488325565374579e-41,0.341791033744812,-1.3798511664019983,0.0,-0.052956849336624146,1.109370231628418,-0.0,-0.014788352884352207,1.130556583404541,3.9874961657915264e-05,0.008122378960251808
156.0,193.0,3.7615,-2.9007,8.1075,-0.0373,0.0168,-0.1203,-1.677302976647848,-0.010271009057760239,2.6398091316223145,-1.5607470273971558,9.461722947889939e-05,2.216792583465576,4.278716726894043,1.5414283107572988e-44,0.33334749937057495,-1.3798587957965296,0.0,-0.0536489337682724,1.1093175411224365,-0.0,3.317953087389469e-06,1.1305971145629883,2.821531341901107e-10,0.007559590041637421
156.0,193.0,3.7615,-2.9007,8.1075,-0.0373,0.0168,-0.1203,-1.6773225269713343,-0.009861456230282784,2.6265223026275635,-1.560811161994934,0.00010680338891688734,2.2389774322509766,4.278659983272217,0.0,0.3493468761444092,-1.3798750082599085,0.0,-0.05028482526540756,1.1093215942382812,-0.0,0.004861597437411547,1.1305725574493408,6.813666435402784e-16,0.03550273925065994
156.0,193.0,3.7615,-2.9007,8.1075,-0.0373,0.0168,-0.1203,-1.6773745022215785,-0.009619590826332569,2.696100950241089,-1.560762643814087,0.00011754648585338145,2.2302308082580566,4.278684778804443,0.0,0.3361419439315796,-1.379854981099264,0.0,-0.048321522772312164,1.1093215942382812,-0.0,0.007519333623349667,1.1305606365203857,1.64542016201031e-21,0.02908378094434738
156.0,193.0,3.7615,-2.9007,8.1075,-0.0373,0.0168,-0.1203,-1.6774026356139125,-0.009966865181922913,2.6736321449279785,-1.5608069896697998,0.0001276962284464389,2.22998046875,4.278696699733398,0.0,0.34275349974632263,-1.3798630873309534,0.0,-0.05811092257499695,1.109285831451416,-0.0,0.012080585584044456,1.1305888891220093,2.9616981499666023e-25,-0.013096984475851059
156.0,193.0,3.7615,-2.9007,8.1075,-0.0373,0.0168,-0.1203,-1.6774584255614222,-0.010823828168213367,2.6446566581726074,-1.560726523399353,0.00013514285092242062,2.217348098754883,4.278688593501709,0.0,0.340413361787796,-1.3798707167254847,0.0,-0.047642383724451065,1.109305500984192,-0.0,0.008458977565169334,1.1305971145629883,6.607927934965119e-05,0.007885685190558434
156.0,193.0,3.7615,-2.9007,8.1075,-0.0373,0.0168,-0.1203,-1.6774984798827113,-0.010456310585141182,2.724247455596924,-1.5607304573059082,0.0001489461283199489,2.1818618774414062,4.278721018428467,0.0,0.3465586006641388,-1.37990647951235,0.0,-0.07515963166952133,1.1093215942382812,-0.0,-0.0003682340029627085,1.1305606365203857,6.329144525807351e-05,0.03942291438579559
156.0,193.0,3.7615,-2.9007,8.1075,-0.0373,0.0168,-0.1203,-1.6775704822936,-0.010766245424747467,2.6286323070526123,-1.5607190132141113,0.00016050261911004782,2.232522487640381,4.278716726894043,0.0,0.33221983909606934,-1.3798630873309534,0.0,-0.05443652719259262,1.109337568283081,-0.0,0.0061392695643007755,1.1306090354919434,6.0729093092959374e-05,0.037893254309892654
156.0,193.0,3.7615,-2.9007,8.1075,-0.0373,0.0168,-0.1203,-1.6776262722411097,-0.011415012180805206,2.657799005508423,-1.560706615447998,0.00017443722754251212,2.2351415157318115,4.278712912196777,0.0,0.3431783616542816,-1.3798587957965296,0.0,-0.0614042803645134,1.1092935800552368,-0.0,0.004851881880313158,1.130604863166809,5.91330899624154e-05,0.005845497827976942
