ramyac6/ROB537/final_project/csv/all/bad_157.csv
tof_0,tof_1,accelx,accely,accelz,gyrox,gyroy,gyroz,shoulder_lift_joint_position,shoulder_lift_joint_velocity,shoulder_lift_joint_effort,elbow_joint_position,elbow_joint_velocity,elbow_joint_effort,wrist_1_joint_position,wrist_1_joint_velocity,wrist_1_joint_effort,wrist_2_joint_position,wrist_2_joint_velocity,wrist_2_joint_effort,wrist_3_joint_position,wrist_3_joint_velocity,wrist_3_joint_effort,shoulder_pan_joint_position,shoulder_pan_joint_velocity,shoulder_pan_joint_effort
977.0,990.0,0.7825,0.277,9.3918,-0.0327,0.0191,-0.1162,-1.6406833134093226,0.0,2.0311503410339355,-2.2216005325317383,-0.0,1.7099025249481201,5.249535250454702,0.0,0.3015116751194,-1.6387632528888147,0.0,-0.004232632927596569,0.9844539165496826,-0.0,-0.00732811214402318,0.7887866497039795,0.0,-0.004828232806175947
977.0,990.0,0.7825,0.277,9.3918,-0.0327,0.0191,-0.1162,-1.640663286248678,0.0,2.0215325355529785,-2.2216849327087402,-0.0,1.7297959327697754,5.249570834427633,0.0,0.2920919358730316,-1.6387184301959437,0.0,-0.0043846238404512405,0.9843459129333496,-0.0,-0.003940239083021879,0.7887787818908691,0.0,0.05003304407000542
977.0,990.0,0.7825,0.277,9.3918,-0.0327,0.0191,-0.1162,-1.6406427822508753,0.0,2.024186134338379,-2.221665382385254,-0.0,1.6972275972366333,5.2496070740516565,0.0,0.2845343351364136,-1.6387794653521937,0.0,-0.0001763880718499422,0.9844018816947937,-0.0,-0.009633131325244904,0.7887825965881348,0.0,-0.040783923119306564
977.0,990.0,0.7825,0.277,9.3918,-0.0327,0.0191,-0.1162,-1.6406752071776332,0.0,2.011949300765991,-2.2215769290924072,-0.0,1.723311424255371,5.249582755356588,0.0,0.2882983684539795,-1.6387227217303675,0.0,0.003993417136371136,0.9844259023666382,-0.0,-0.00597019400447607,0.7888469696044922,0.0,-0.09602729231119156
977.0,990.0,0.7825,0.277,9.3918,-0.0327,0.0191,-0.1162,-1.6406871281065882,0.0,2.002736806869507,-2.221661329269409,-0.0,1.729357361793518,5.249599027424612,0.0,0.29223859310150146,-1.638726536427633,0.0,0.0005413035396486521,0.9844054579734802,-0.0,0.00892829429358244,0.7888067960739136,0.0,0.0052870651707053185
977.0,990.0,0.7825,0.277,9.3918,-0.0327,0.0191,-0.1162,-1.6407314739623011,0.0,2.016900062561035,-2.2216200828552246,-0.0,1.7297954559326172,5.249578642636099,0.0,0.2915950417518616,-1.6387470404254358,0.0,-0.014366582967340946,0.9844256043434143,-0.0,-0.003540635807439685,0.7888026237487793,0.0,0.054233524948358536
977.0,990.0,0.7825,0.277,9.3918,-0.0327,0.0191,-0.1162,-1.6406837902464808,0.0,1.9888663291931152,-2.221644878387451,-0.0,1.7092050313949585,5.249586748867788,0.0,0.2854807376861572,-1.6387713591205042,0.0,-0.004941105376929045,0.9843932390213013,-0.0,-0.0008460592362098396,0.7887904047966003,0.0,0.014595462009310722
961.0,8190.0,0.6891,0.3051,9.5563,-0.0331,0.0252,-0.1214,-1.6407114468016566,0.0,2.0261993408203125,-2.221632480621338,-0.0,1.7085444927215576,5.249570596009054,0.0,0.2909637689590454,-1.6387594381915491,0.0,6.992393173277378e-05,0.9844179153442383,-0.0,-0.0034064692445099354,0.7887664437294006,0.0,-0.003474149852991104
961.0,8190.0,0.6891,0.3051,9.5563,-0.0331,0.0252,-0.1214,-1.6407233677306117,0.0,2.041581153869629,-2.221628427505493,-0.0,1.7435827255249023,5.249566840916433,0.0,0.2883167862892151,-1.638742748891012,0.0,-8.536851964890957e-05,0.9844658970832825,-0.0,-0.003290808293968439,0.7887784838676453,0.0,0.0045793987810611725
961.0,8190.0,0.6891,0.3051,9.5563,-0.0331,0.0252,-0.1214,-1.640651365319723,0.0,1.9502649307250977,-2.22161602973938,-0.0,1.672616958618164,5.249586748867788,0.0,0.291462779045105,-1.638742748891012,0.0,-0.006772269960492849,0.9843935966491699,-0.0,0.0031238007359206676,0.7887908220291138,0.0,0.03086279146373272
961.0,8190.0,0.6891,0.3051,9.5563,-0.0331,0.0252,-0.1214,-1.6406713924803675,0.0,2.005457639694214,-2.221676826477051,-0.0,1.7323064804077148,5.249578642636099,0.0,0.29316186904907227,-1.638770882283346,0.0,0.004504737444221973,0.9843894839286804,-0.0,-0.01535634696483612,0.7887746095657349,0.0,0.0468539223074913
961.0,8190.0,0.6891,0.3051,9.5563,-0.0331,0.0252,-0.1214,-1.640663286248678,0.0,2.0144667625427246,-2.221644878387451,-0.0,1.7033268213272095,5.249586748867788,0.0,0.2885083854198456,-1.6387632528888147,0.0,0.0041494350880384445,0.9844214916229248,-0.0,-0.007394148502498865,0.7887904047966003,0.0,0.03034522943198681
961.0,8190.0,0.6891,0.3051,9.5563,-0.0331,0.0252,-0.1214,-1.6407400570311488,0.0,2.0269370079040527,-2.2216243743896484,-0.0,1.7062382698059082,5.2496030805404565,0.0,0.2851831614971161,-1.6387184301959437,0.0,-0.0008782034274190664,0.9844136238098145,-0.0,-0.0026691954117268324,0.788798987865448,0.0,-0.01683182641863823
961.0,8190.0,0.6891,0.3051,9.5563,-0.0331,0.0252,-0.1214,-1.6407033405699671,0.0,1.9814555644989014,-2.221621036529541,-0.0,1.678708791732788,5.249599027424612,0.0,0.29061660170555115,-1.638702694569723,0.0,0.006786390207707882,0.9843016862869263,-0.0,0.004595271777361631,0.7887784838676453,0.0,-0.02072528935968876
961.0,8190.0,0.6891,0.3051,9.5563,-0.0331,0.0252,-0.1214,-1.640691419641012,0.0,2.011244297027588,-2.2216408252716064,-0.0,1.7518150806427002,5.249603020935812,0.0,0.3035691976547241,-1.638742748891012,0.0,-6.435258546844125e-05,0.9843339920043945,-0.0,0.006809678860008717,0.7887943983078003,0.0,-0.008017919957637787
961.0,8190.0,0.6891,0.3051,9.5563,-0.0331,0.0252,-0.1214,-1.6406432590880335,0.0,1.991115689277649,-2.2217211723327637,-0.0,1.700796365737915,5.249578642636099,0.0,0.28979966044425964,-1.6387470404254358,0.0,-0.002515737432986498,0.9844098687171936,-0.0,-0.007869365625083447,0.7888147234916687,0.0,0.005910725332796574
961.0,8190.0,0.6891,0.3051,9.5563,-0.0331,0.0252,-0.1214,-1.6407400570311488,0.0,2.0382204055786133,-2.221676826477051,-0.0,1.7351350784301758,5.249535250454702,0.0,0.2896036207675934,-1.6387551466571253,0.0,-0.005047491751611233,0.9844139814376831,-0.0,0.005816347897052765,0.7888067364692688,0.0,-0.012184159830212593
961.0,8190.0,0.6891,0.3051,9.5563,-0.0331,0.0252,-0.1214,-1.640707632104391,0.0,2.03930401802063,-2.221644878387451,-0.0,1.7041501998901367,5.249570834427633,0.0,0.30375635623931885,-1.6387994925128382,0.0,-0.0016892952844500542,0.9843733310699463,-0.0,-0.019841579720377922,0.7888228893280029,0.0,0.013206737115979195
961.0,8190.0,0.6891,0.3051,9.5563,-0.0331,0.0252,-0.1214,-1.6407233677306117,0.0,2.0159599781036377,-2.2216367721557617,-0.0,1.732464075088501,5.249554919987478,0.0,0.2945377826690674,-1.6387551466571253,0.0,0.004346975591033697,0.9843894839286804,-0.0,-0.01028429251164198,0.788826584815979,0.0,-0.016280122101306915
961.0,8190.0,0.6891,0.3051,9.5563,-0.0331,0.0252,-0.1214,-1.6406752071776332,0.0,2.0247626304626465,-2.221649169921875,-0.0,1.7234861850738525,5.249570834427633,0.0,0.2983667552471161,-1.638730827962057,0.0,0.0014015878550708294,0.9843976497650146,-0.0,-0.006974297109991312,0.788790762424469,0.0,-0.0033215146977454424
961.0,8190.0,0.6891,0.3051,9.5563,-0.0331,0.0252,-0.1214,-1.6406594715514125,0.0,2.027458906173706,-2.221632480621338,-0.0,1.6810524463653564,5.249599027424612,0.0,0.2842608094215393,-1.6387551466571253,0.0,-0.005626912694424391,0.9844219088554382,-0.0,-0.0044442228972911835,0.7887704968452454,0.0,0.01047458779066801
970.0,975.0,0.6915,0.2656,9.6162,-0.035,0.025,-0.1199,-1.6407276592650355,0.0,2.0305662155151367,-2.2216203212738037,-0.0,1.7060858011245728,5.249558734684744,0.0,0.2933555245399475,-1.638742748891012,0.0,0.005612283945083618,0.9843650460243225,-0.0,-0.0019616023637354374,0.7887866497039795,0.0,0.005442105699330568
970.0,975.0,0.6915,0.2656,9.6162,-0.035,0.025,-0.1199,-1.6406952343382777,0.0,2.024251937866211,-2.221688985824585,-0.0,1.713591456413269,5.249558675080099,0.0,0.2926185131072998,-1.6387713591205042,0.0,0.010047833435237408,0.9844054579734802,-0.0,-0.004990775138139725,0.7888026237487793,0.0,0.012615233659744263
970.0,975.0,0.6915,0.2656,9.6162,-0.035,0.025,-0.1199,-1.6406871281065882,0.0,1.993888020515442,-2.221644878387451,-0.0,1.7065653800964355,5.249586748867788,0.0,0.30438992381095886,-1.6387551466571253,0.0,-0.00873060803860426,0.9843894839286804,-0.0,-0.008651142939925194,0.7887625694274902,0.0,0.023994801566004753
970.0,975.0,0.6915,0.2656,9.6162,-0.035,0.025,-0.1199,-1.640707632104391,0.0,2.005756139755249,-2.2216203212738037,-0.0,1.6853264570236206,5.249554860382833,0.0,0.29967397451400757,-1.6387594381915491,0.0,-0.0030509731732308865,0.9843527674674988,-0.0,-0.0002866433933377266,0.7888026237487793,0.0,0.008921520784497261
970.0,975.0,0.6915,0.2656,9.6162,-0.035,0.025,-0.1199,-1.6407276592650355,0.0,2.0326268672943115,-2.221661329269409,-0.0,1.7163479328155518,5.249574827938833,0.0,0.29209595918655396,-1.6387713591205042,0.0,-0.004568604752421379,0.9844219088554382,-0.0,-0.001255605136975646,0.7887181043624878,0.0,-0.023262569680809975
970.0,975.0,0.6915,0.2656,9.6162,-0.035,0.025,-0.1199,-1.6407033405699671,0.0,2.000232219696045,-2.2216694355010986,-0.0,1.7041531801223755,5.249599027424612,0.0,0.2969876527786255,-1.6387470404254358,0.0,0.006881045643240213,0.984441876411438,-0.0,0.0003859689168166369,0.7887746095657349,0.0,-0.0367153026163578
970.0,975.0,0.6915,0.2656,9.6162,-0.035,0.025,-0.1199,-1.6407276592650355,0.0,2.02400803565979,-2.221672773361206,-0.0,1.7392945289611816,5.249611007958212,0.0,0.29560208320617676,-1.638686482106344,0.0,-0.022816849872469902,0.9843456149101257,-0.0,-0.0044907452538609505,0.7887582182884216,0.0,0.027874577790498734
970.0,975.0,0.6915,0.2656,9.6162,-0.035,0.025,-0.1199,-1.6406432590880335,0.0,2.0171847343444824,-2.2216687202453613,-0.0,1.7545596361160278,5.249578761845388,0.0,0.2793022394180298,-1.6387470404254358,0.0,0.004234727006405592,0.9843295812606812,-0.0,0.0034075132571160793,0.7888106107711792,0.0,-0.006860172376036644
970.0,975.0,0.6915,0.2656,9.6162,-0.035,0.025,-0.1199,-1.640691419641012,0.0,2.01318359375,-2.2216694355010986,-0.0,1.7315773963928223,5.249570596009054,0.0,0.28649571537971497,-1.6387594381915491,0.0,0.0034656838979572058,0.9844179153442383,-0.0,-0.006816581357270479,0.7887985706329346,0.0,-0.028178662061691284
970.0,975.0,0.6915,0.2656,9.6162,-0.035,0.025,-0.1199,-1.640719553033346,0.0,2.026188611984253,-2.221665620803833,-0.0,1.6995165348052979,5.249566840916433,0.0,0.29455965757369995,-1.6387594381915491,0.0,0.0035930597223341465,0.9844297170639038,-0.0,0.0006163790822029114,0.7887944579124451,0.0,-0.023490939289331436
970.0,975.0,0.6915,0.2656,9.6162,-0.035,0.025,-0.1199,-1.6407233677306117,0.0,2.0419018268585205,-2.2216687202453613,-0.0,1.7280420064926147,5.249594914704122,0.0,0.28140324354171753,-1.6387751738177698,0.0,0.010392449796199799,0.9844255447387695,-0.0,0.01623622514307499,0.788818359375,0.0,-0.05000218376517296
970.0,975.0,0.6915,0.2656,9.6162,-0.035,0.025,-0.1199,-1.6406995258727015,0.0,2.031606912612915,-2.221632719039917,-0.0,1.7124404907226562,5.249586748867788,0.0,0.2958260476589203,-1.638730827962057,0.0,0.0002328266855329275,0.9843415021896362,-0.0,0.010765786282718182,0.7887904047966003,0.0,0.03452880308032036
970.0,975.0,0.6915,0.2656,9.6162,-0.035,0.025,-0.1199,-1.6407438717284144,0.0,1.985672950744629,-2.221608877182007,-0.0,1.7158230543136597,5.249630856304922,0.0,0.27975988388061523,-1.638742748891012,0.0,0.01020706444978714,0.9843538403511047,-0.0,-0.004933196119964123,0.7888109087944031,0.0,0.009326610714197159
969.0,8190.0,0.746,0.2925,9.4875,-0.036,0.0232,-0.1179,-1.6407233677306117,0.0,2.0317893028259277,-2.221608877182007,-0.0,1.696319580078125,5.249603020935812,0.0,0.2842370867729187,-1.638726536427633,0.0,0.0010060056811198592,0.9843810200691223,-0.0,0.0004052750300616026,0.7888106107711792,0.0,0.02923295646905899
969.0,8190.0,0.746,0.2925,9.4875,-0.036,0.0232,-0.1179,-1.640707632104391,0.0,2.0105645656585693,-2.221672773361206,-0.0,1.7054955959320068,5.2496070740516565,0.0,0.28915470838546753,-1.6387670675860804,0.0,-0.00956265814602375,0.9844018816947937,-0.0,-0.009989159181714058,0.7888106107711792,0.0,-0.002476026304066181
969.0,8190.0,0.746,0.2925,9.4875,-0.036,0.0232,-0.1179,-1.640663286248678,0.0,2.0238184928894043,-2.2216367721557617,-0.0,1.7336841821670532,5.249582755356588,0.0,0.28981056809425354,-1.638742748891012,0.0,-0.0009376452653668821,0.9844179153442383,-0.0,0.009281422942876816,0.7888065576553345,0.0,0.0008787969127297401
969.0,8190.0,0.746,0.2925,9.4875,-0.036,0.0232,-0.1179,-1.6406475506224574,0.0,1.9925856590270996,-2.2216646671295166,-0.0,1.696432113647461,5.2496187565620325,0.0,0.29494208097457886,-1.6387346426593226,0.0,-0.011269629932940006,0.9843932390213013,-0.0,-0.004670262336730957,0.7887904047966003,0.0,-0.009702705778181553
969.0,8190.0,0.746,0.2925,9.4875,-0.036,0.0232,-0.1179,-1.6407157383360804,0.0,1.986314296722412,-2.221665382385254,-0.0,1.7201483249664307,5.249570834427633,0.0,0.2973819375038147,-1.6387227217303675,0.0,0.003325441852211952,0.9844018816947937,-0.0,-0.004800104536116123,0.7887704968452454,0.0,0.029726635664701462
969.0,8190.0,0.746,0.2925,9.4875,-0.036,0.0232,-0.1179,-1.6406752071776332,0.0,1.9916765689849854,-2.221648931503296,-0.0,1.6926634311676025,5.249578642636099,0.0,0.2895398437976837,-1.6387832800494593,0.0,-0.009505768306553364,0.9843650460243225,-0.0,0.005884881131350994,0.7887784838676453,0.0,0.00791073963046074
969.0,8190.0,0.746,0.2925,9.4875,-0.036,0.0232,-0.1179,-1.640679498712057,0.0,2.017463207244873,-2.221649169921875,-0.0,1.694047212600708,5.249562728195944,0.0,0.29310283064842224,-1.6387632528888147,0.0,-0.007071817759424448,0.9844295978546143,-0.0,0.011641589924693108,0.7888147234916687,0.0,-0.01848241686820984
969.0,8190.0,0.746,0.2925,9.4875,-0.036,0.0232,-0.1179,-1.640735765496725,0.0,1.9705994129180908,-2.221628427505493,-0.0,1.7105560302734375,5.2496030805404565,0.0,0.28395718336105347,-1.6387470404254358,0.0,0.0024055878166109324,0.9844295978546143,-0.0,0.004748194944113493,0.7887985706329346,0.0,0.013034680858254433
969.0,8190.0,0.746,0.2925,9.4875,-0.036,0.0232,-0.1179,-1.6406837902464808,0.0,2.030531406402588,-2.2215728759765625,-0.0,1.6906726360321045,5.249578642636099,0.0,0.2876083254814148,-1.6386988798724573,0.0,-0.00456082820892334,0.9843976497650146,-0.0,-0.0218503437936306,0.7887746095657349,0.0,0.027297817170619965
969.0,8190.0,0.746,0.2925,9.4875,-0.036,0.0232,-0.1179,-1.6407438717284144,0.0,1.9866065979003906,-2.221644878387451,-0.0,1.7140016555786133,5.249578583031454,0.0,0.29501980543136597,-1.6387713591205042,0.0,-0.010397735051810741,0.984409511089325,-0.0,0.003910556901246309,0.7887825965881348,0.0,-0.0035231411457061768
969.0,8190.0,0.746,0.2925,9.4875,-0.036,0.0232,-0.1179,-1.6406752071776332,0.0,2.054084300994873,-2.2216808795928955,-0.0,1.700972557067871,5.249539243965902,0.0,0.3074255585670471,-1.6387346426593226,0.0,-0.0022485186345875263,0.9843497276306152,-0.0,0.00883536972105503,0.7887825965881348,0.0,0.03161247447133064
969.0,8190.0,0.746,0.2925,9.4875,-0.036,0.0232,-0.1179,-1.640695711175436,0.0,1.9868125915527344,-2.2215850353240967,-0.0,1.7186059951782227,5.249615001469412,0.0,0.2971678078174591,-1.6387184301959437,0.0,-0.004445815458893776,0.9844657778739929,-0.0,0.0007579218363389373,0.7888147234916687,0.0,-0.020714465528726578
969.0,8190.0,0.746,0.2925,9.4875,-0.036,0.0232,-0.1179,-1.6406990490355433,0.0,2.0264079570770264,-2.22159743309021,-0.0,1.6946401596069336,5.249638962536611,0.0,0.29186326265335083,-1.6387794653521937,0.0,0.0010899783810600638,0.9843893051147461,-0.0,0.001854798523709178,0.7888147234916687,0.0,0.028188589960336685
969.0,8190.0,0.746,0.2925,9.4875,-0.036,0.0232,-0.1179,-1.6406871281065882,0.0,1.9534857273101807,-2.221580982208252,-0.0,1.714010238647461,5.249586748867788,0.0,0.29745709896087646,-1.6387551466571253,0.0,-0.0033798892982304096,0.9843894839286804,-0.0,0.00960591621696949,0.7887825965881348,0.0,0.04242166876792908
979.0,917.0,0.7202,0.3242,9.5312,-0.0373,0.0257,-0.1168,-1.6406671009459437,0.0,2.038269281387329,-2.2216005325317383,-0.0,1.6862176656723022,5.249586808472433,0.0,0.29749369621276855,-1.6387508551227015,0.0,-0.005470843054354191,0.984429657459259,-0.0,-0.006123139522969723,0.788790762424469,0.0,0.013747713528573513
979.0,917.0,0.7202,0.3242,9.5312,-0.0373,0.0257,-0.1168,-1.6407152614989222,0.0,1.9530760049819946,-2.221604585647583,-0.0,1.7194420099258423,5.249615001469412,0.0,0.2927578389644623,-1.6387346426593226,0.0,-0.004296913743019104,0.984393298625946,-0.0,-0.008881405927240849,0.7887784242630005,0.0,-0.005798026919364929
979.0,917.0,0.7202,0.3242,9.5312,-0.0373,0.0257,-0.1168,-1.6407071552672328,0.0,2.003521203994751,-2.221628427505493,-0.0,1.7036609649658203,5.249586748867788,0.0,0.29130345582962036,-1.6387713591205042,0.0,0.00832430087029934,0.9843692779541016,-0.0,0.0001125093549489975,0.788790762424469,0.0,-0.008966469205915928
979.0,917.0,0.7202,0.3242,9.5312,-0.0373,0.0257,-0.1168,-1.640691419641012,0.0,1.9865365028381348,-2.2216408252716064,-0.0,1.7077738046646118,5.249566840916433,0.0,0.28703150153160095,-1.638730827962057,0.0,0.006454948335886002,0.9843496680259705,-0.0,-0.0008590960642322898,0.7888064980506897,0.0,0.0222190972417593
979.0,917.0,0.7202,0.3242,9.5312,-0.0373,0.0257,-0.1168,-1.6407319507994593,0.0,2.0176784992218018,-2.2216687202453613,-0.0,1.693711757659912,5.249582755356588,0.0,0.2882145047187805,-1.6387594381915491,0.0,0.00505949417129159,0.9844136238098145,-0.0,0.002303898800164461,0.7887866497039795,0.0,-0.0054917410016059875
979.0,917.0,0.7202,0.3242,9.5312,-0.0373,0.0257,-0.1168,-1.6407114468016566,0.0,1.9981842041015625,-2.221632480621338,-0.0,1.759657382965088,5.249566781311788,0.0,0.2856009006500244,-1.6387794653521937,0.0,-0.004005394410341978,0.984393298625946,-0.0,-0.005173894576728344,0.7887866497039795,0.0,-0.03280055150389671
979.0,917.0,0.7202,0.3242,9.5312,-0.0373,0.0257,-0.1168,-1.640707632104391,0.0,2.0257954597473145,-2.2216405868530273,-0.0,1.73002290725708,5.249599027424612,0.0,0.28699466586112976,-1.6387346426593226,0.0,-0.003159592393785715,0.9843894839286804,-0.0,-0.00018884075689129531,0.7887746095657349,0.0,0.07264398038387299
979.0,917.0,0.7202,0.3242,9.5312,-0.0373,0.0257,-0.1168,-1.6407319507994593,0.0,1.9677138328552246,-2.221648931503296,-0.0,1.7068400382995605,5.249618994980612,0.0,0.3088253140449524,-1.6387470404254358,0.0,0.0016900342889130116,0.9844098687171936,-0.0,-0.002295782556757331,0.7888026237487793,0.0,-0.009237452410161495
979.0,917.0,0.7202,0.3242,9.5312,-0.0373,0.0257,-0.1168,-1.6407114468016566,0.0,1.9990935325622559,-2.2216532230377197,-0.0,1.6941843032836914,5.249582755356588,0.0,0.2780179977416992,-1.6387470404254358,0.0,-0.018050363287329674,0.9843813180923462,-0.0,0.0014299411559477448,0.7887825965881348,0.0,-0.002048778347671032
979.0,917.0,0.7202,0.3242,9.5312,-0.0373,0.0257,-0.1168,-1.640735765496725,0.0,2.009646415710449,-2.2216687202453613,-0.0,1.7212154865264893,5.249599027424612,0.0,0.2791941165924072,-1.6387952009784144,0.0,0.004226312506943941,0.9843579530715942,-0.0,0.0004994357004761696,0.7888306975364685,0.0,-0.027860127389431
979.0,917.0,0.7202,0.3242,9.5312,-0.0373,0.0257,-0.1168,-1.6406909428038539,0.0,2.056849956512451,-2.2216408252716064,-0.0,1.670456051826477,5.249566781311788,0.0,0.29641592502593994,-1.6387913862811487,0.0,-0.014238915406167507,0.9843618869781494,-0.0,-0.003728169482201338,0.7887904047966003,0.0,-0.012569178827106953
979.0,917.0,0.7202,0.3242,9.5312,-0.0373,0.0257,-0.1168,-1.6407114468016566,0.0,2.0131049156188965,-2.221661329269409,-0.0,1.6995518207550049,5.249586808472433,0.0,0.2813074588775635,-1.6387227217303675,0.0,-0.0031015421263873577,0.9844616651535034,-0.0,-0.0013676623348146677,0.7888187766075134,0.0,-0.0058380477130413055
979.0,917.0,0.7202,0.3242,9.5312,-0.0373,0.0257,-0.1168,-1.6406833134093226,0.0,2.0035998821258545,-2.2216849327087402,-0.0,1.7032787799835205,5.249614941864767,0.0,0.2989989221096039,-1.638726536427633,0.0,-0.0051090600900352,0.9843059182167053,-0.0,0.0060087451711297035,0.7888067364692688,0.0,-0.017820196226239204
975.0,949.0,0.789,0.3655,9.4421,-0.0438,0.0223,-0.1232,-1.6406713924803675,0.0,2.0118329524993896,-2.2216243743896484,-0.0,1.747194766998291,5.249578642636099,0.0,0.3024301528930664,-1.6387675444232386,0.0,-0.0108235077932477,0.9843852519989014,-0.0,-0.0033584958873689175,0.7887904047966003,0.0,-0.04243849217891693
975.0,949.0,0.789,0.3655,9.4421,-0.0438,0.0223,-0.1232,-1.6407114468016566,0.0,1.9958562850952148,-2.2216687202453613,-0.0,1.7213705778121948,5.249562668591299,0.0,0.2871488332748413,-1.638702694569723,0.0,0.01453542523086071,0.984421968460083,-0.0,-0.007811419665813446,0.788790762424469,0.0,-0.002118706703186035
975.0,949.0,0.789,0.3655,9.4421,-0.0438,0.0223,-0.1232,-1.6407400570311488,0.0,1.9952051639556885,-2.221672773361206,-0.0,1.7014797925949097,5.249603020935812,0.0,0.2899482846260071,-1.638758961354391,0.0,-0.001031282590702176,0.9844059944152832,-0.0,0.000992925139144063,0.7888065576553345,0.0,0.02842380665242672
975.0,949.0,0.789,0.3655,9.4421,-0.0438,0.0223,-0.1232,-1.6406752071776332,0.0,2.015993118286133,-2.2216930389404297,-0.0,1.7290117740631104,5.249562668591299,0.0,0.2898905277252197,-1.638787094746725,0.0,0.003319102805107832,0.98442143201828,-0.0,-0.002898238832131028,0.7887825965881348,0.0,-0.003891156055033207
975.0,949.0,0.789,0.3655,9.4421,-0.0438,0.0223,-0.1232,-1.6407114468016566,0.0,1.9778459072113037,-2.221688985824585,-0.0,1.7468020915985107,5.249546754151144,0.0,0.2728438973426819,-1.638787094746725,0.0,0.005805641878396273,0.9843727946281433,-0.0,-0.00622240686789155,0.7888065576553345,2.278180769033078e-11,-0.014504560269415379
975.0,949.0,0.789,0.3655,9.4421,-0.0438,0.0223,-0.1232,-1.6406995258727015,0.0,1.9872970581054688,-2.22161602973938,-0.0,1.7342902421951294,5.249594914704122,0.0,0.29661962389945984,-1.6387909094439905,0.0,-0.006606869399547577,0.984409511089325,-0.0,-0.001970232930034399,0.7887701988220215,5.5015375568040495e-17,-0.0011249149683862925
975.0,949.0,0.789,0.3655,9.4421,-0.0438,0.0223,-0.1232,-1.6406837902464808,0.0,2.0408213138580322,-2.2216243743896484,-0.0,1.711690902709961,5.249550866871633,0.0,0.28918710350990295,-1.6387632528888147,0.0,-0.0033999988809227943,0.9843059778213501,-0.0,-0.010169074870646,0.7888106107711792,1.328556622539984e-22,0.006840330548584461
975.0,949.0,0.789,0.3655,9.4421,-0.0438,0.0223,-0.1232,-1.6406551800169886,0.0,2.0575098991394043,-2.2216572761535645,-0.0,1.7547147274017334,5.249610888748922,0.0,0.29216304421424866,-1.6387303511248987,0.0,0.005345936864614487,0.9843935966491699,-0.0,-0.012967981398105621,0.7888143062591553,4.304354872259099e-30,0.004544015042483807
975.0,949.0,0.789,0.3655,9.4421,-0.0438,0.0223,-0.1232,-1.6406713924803675,0.0,2.0082452297210693,-2.2217252254486084,-0.0,1.6965503692626953,5.249578642636099,0.0,0.29204902052879333,-1.6387913862811487,0.0,0.009861770085990429,0.9843456149101257,-0.0,0.004615095444023609,0.7888064980506897,1.0394510404758737e-35,-0.020477816462516785
975.0,949.0,0.789,0.3655,9.4421,-0.0438,0.0223,-0.1232,-1.6406995258727015,0.0,1.9921998977661133,-2.221632480621338,-0.0,1.7162835597991943,5.2496030805404565,0.0,0.2789507806301117,-1.6387670675860804,0.0,-0.0005717470194213092,0.9843618869781494,-0.0,-0.004376903176307678,0.788818359375,2.510145939145045e-41,0.004936253651976585
975.0,949.0,0.789,0.3655,9.4421,-0.0438,0.0223,-0.1232,-1.640707632104391,0.0,2.005953073501587,-2.2216687202453613,-0.0,1.6968603134155273,5.249582755356588,0.0,0.2852384150028229,-1.6387832800494593,0.0,-0.0001467785332351923,0.9843618869781494,-0.0,-0.0047643156722188,0.7888709902763367,0.0,-0.008982830680906773
975.0,949.0,0.789,0.3655,9.4421,-0.0438,0.0223,-0.1232,-1.6407114468016566,0.0,1.9888744354248047,-2.2216572761535645,-0.0,1.7336597442626953,5.249538647919454,0.0,0.2888789176940918,-1.6387794653521937,0.0,-0.0006263144314289093,0.9843810200691223,-0.0,-0.00038436532486230135,0.7888225317001343,0.0001551200111862272,-0.030584005638957024
975.0,949.0,0.789,0.3655,9.4421,-0.0438,0.0223,-0.1232,-1.6407114468016566,0.0,2.0374557971954346,-2.2216203212738037,-0.0,1.6946030855178833,5.2496030805404565,0.0,0.2881443202495575,-1.6387789885150355,0.0,0.0028112810105085373,0.9843769073486328,-0.0,0.003064332529902458,0.788826584815979,0.00015677718329243362,0.013536845333874226
975.0,949.0,0.789,0.3655,9.4421,-0.0438,0.0223,-0.1232,-1.6406871281065882,0.0,2.0147953033447266,-2.221693277359009,-0.0,1.7405757904052734,5.249566781311788,0.0,0.28832173347473145,-1.6388071219073694,0.0,0.0025181586388498545,0.9843769073486328,-0.0,-0.005487370304763317,0.7888306975364685,0.00013760116416960955,-0.0055818562395870686
932.0,8190.0,0.7095,0.2835,9.5611,-0.0336,0.0261,-0.1112,-1.6407438717284144,0.0,2.0206446647644043,-2.2216405868530273,-0.0,1.6948754787445068,5.249554562359609,0.0,0.30594244599342346,-1.638758961354391,0.0,0.006356164813041687,0.9843459129333496,-0.0,-0.007773995399475098,0.7888388633728027,0.00012603869254235178,0.025332342833280563
932.0,8190.0,0.7095,0.2835,9.5611,-0.0336,0.0261,-0.1112,-1.6406151256956996,0.0,2.0304718017578125,-2.221648931503296,-0.0,1.7003073692321777,5.249594914704122,0.0,0.2801843583583832,-1.6387751738177698,0.0,-0.003997625317424536,0.9843462109565735,-0.0,0.006419645622372627,0.7888467311859131,0.00011626903869910166,0.011865684762597084
932.0,8190.0,0.7095,0.2835,9.5611,-0.0336,0.0261,-0.1112,-1.6406871281065882,0.0,2.0547029972076416,-2.2216365337371826,-0.0,1.7212355136871338,5.249603020935812,0.0,0.2874397039413452,-1.638787094746725,0.0,-0.002961490536108613,0.9843419790267944,-0.0,-0.002506352961063385,0.7888792157173157,0.0001053781743394211,-0.03764307498931885
932.0,8190.0,0.7095,0.2835,9.5611,-0.0336,0.0261,-0.1112,-1.640691419641012,3.491790678822326e-08,2.00892972946167,-2.2216687202453613,-0.0,1.7040624618530273,5.249614941864767,0.0,0.28782230615615845,-1.6387713591205042,0.0,-0.006509585306048393,0.9843379259109497,-0.0,-0.00134966429322958,0.7888306975364685,9.84611178864725e-05,0.0065112244337797165
932.0,8190.0,0.7095,0.2835,9.5611,-0.0336,0.0261,-0.1112,-1.6406995258727015,1.1312956161660674e-15,2.006059408187866,-2.221648931503296,-0.0,1.7241718769073486,5.249562668591299,0.0,0.2932467758655548,-1.6387789885150355,0.0,0.0008192607201635838,0.9843336343765259,-0.0,-0.002019183011725545,0.7887904047966003,9.053719986695796e-05,0.06415493041276932
932.0,8190.0,0.7095,0.2835,9.5611,-0.0336,0.0261,-0.1112,-1.6406671009459437,2.731945726508937e-21,1.9972574710845947,-2.221648931503296,-0.0,1.7038466930389404,5.249590921192922,0.0,0.2857357859611511,-1.638714615498678,0.0,0.0010863554198294878,0.9843810200691223,-0.0,0.009799527935683727,0.7888467311859131,8.538363181287423e-05,-0.0022088694386184216
932.0,8190.0,0.7095,0.2835,9.5611,-0.0336,0.0261,-0.1112,-1.6407314739623011,6.597326180164942e-27,2.0563552379608154,-2.2216129302978516,-0.0,1.6878807544708252,5.249566840916433,0.0,0.29640260338783264,-1.638726536427633,0.0,0.003816101932898164,0.9843813180923462,-0.0,0.006409609690308571,0.7888142466545105,8.0785175669007e-05,0.009715335443615913
932.0,8190.0,0.7095,0.2835,9.5611,-0.0336,0.0261,-0.1112,-1.6406752071776332,2.13745051009061e-34,2.0200693607330322,-2.221676826477051,-0.0,1.72580885887146,5.249586808472433,0.0,0.288460910320282,-1.638758961354391,0.0,0.0010462957434356213,0.9843579530715942,-0.0,0.005065819248557091,0.7888550162315369,7.537283818237484e-05,0.04241215065121651
932.0,8190.0,0.7095,0.2835,9.5611,-0.0336,0.0261,-0.1112,-1.6407233677306117,5.161696906325107e-40,2.0381407737731934,-2.2216734886169434,-0.0,1.7276266813278198,5.249566781311788,0.0,0.29173845052719116,-1.6387746969806116,0.0,-0.0032280392479151487,0.9843733310699463,-0.0,-0.010484833270311356,0.7888225317001343,7.17667062417604e-05,-0.005491262301802635
932.0,8190.0,0.7095,0.2835,9.5611,-0.0336,0.0261,-0.1112,-1.640707632104391,1.401298464324817e-45,2.034895896911621,-2.2216129302978516,-0.0,1.7005293369293213,5.249610888748922,0.0,0.27813535928726196,-1.6387508551227015,0.0,0.0012218384072184563,0.9843976497650146,-0.0,-0.006373593583703041,0.788818359375,6.848986959084868e-05,0.04652649536728859
932.0,8190.0,0.7095,0.2835,9.5611,-0.0336,0.0261,-0.1112,-1.640667577783102,0.0,1.9912916421890259,-2.2216408252716064,-0.0,1.742667555809021,5.249623107701101,0.0,0.2867489457130432,-1.6387713591205042,1.141190697495631e-09,0.000709962216205895,0.9844018816947937,-0.0,-0.00018619699403643608,0.7888347506523132,6.45595500827767e-05,-0.012610911391675472
932.0,8190.0,0.7095,0.2835,9.5611,-0.0336,0.0261,-0.1112,-1.6406871281065882,0.0,2.0015621185302734,-2.2216570377349854,-0.0,1.6757042407989502,5.249598908215322,1.9002568478754256e-06,0.2922084927558899,-1.6387794653521937,3.1765462113995946e-13,-0.006837867666035891,0.9843618869781494,-0.0,0.0005022629629820585,0.7888147234916687,6.189562554936856e-05,-0.02754955179989338
932.0,8190.0,0.7095,0.2835,9.5611,-0.0336,0.0261,-0.1112,-1.640663286248678,0.0,1.9964340925216675,-2.221661329269409,-0.0,1.6662702560424805,5.249610590725698,5.289434445998609e-10,0.2862434983253479,-1.6387670675860804,8.842032676088812e-17,0.008624466136097908,0.9843976497650146,-0.0,0.0014619037974625826,0.7887861728668213,5.944281292613596e-05,0.010194960050284863
976.0,910.0,0.4845,0.5587,9.5587,-0.0283,0.0231,-0.117,-1.6406599483885707,0.0,1.9768778085708618,-2.2216367721557617,-0.0,1.7214477062225342,5.249634730606832,0.0009466478950344026,0.2954742908477783,-1.6387909094439905,1.6069957444371788e-21,-0.011645184829831123,0.9843810200691223,-0.0,-0.01679452694952488,0.7887903451919556,4.516774424700998e-05,0.03455987572669983
976.0,910.0,0.4845,0.5587,9.5587,-0.0283,0.0231,-0.117,-1.6406108341612757,0.00012923797476105392,1.9822137355804443,-2.2216532230377197,-0.0,1.704358696937561,5.249638783722677,0.0009907528292387724,0.2820540964603424,-1.6388309637652796,4.473131238985806e-25,-0.010476124472916126,0.9843894839286804,-0.0,6.895896513015032e-05,0.7887582182884216,1.578200863150414e-05,0.060366660356521606
976.0,910.0,0.4845,0.5587,9.5587,-0.0283,0.0231,-0.117,-1.6406356296935023,0.001423681853339076,1.9783425331115723,-2.221648931503296,-0.0,1.7093555927276611,5.2496588108833215,0.0008672489202581346,0.29294246435165405,-1.638782803212301,1.2451123849695112e-28,-0.002694459166377783,0.9844059944152832,-0.0,-0.012578962370753288,0.7888184189796448,1.487685221945867e-05,-0.011407576501369476
976.0,910.0,0.4845,0.5587,9.5587,-0.0283,0.0231,-0.117,-1.6405993900694789,0.0018352069891989231,1.982720971107483,-2.2217140197753906,-0.0,1.7123448848724365,5.249646591931143,0.0006200193893164396,0.3065565526485443,-1.63879901567568,2.2629300321015774e-33,-0.0025929787661880255,0.9843932390213013,-0.0,-0.0020788125693798065,0.7888225317001343,5.579575736192055e-05,0.0031968243420124054
976.0,910.0,0.4845,0.5587,9.5587,-0.0283,0.0231,-0.117,-1.6406756840147914,0.001441095257177949,2.01025128364563,-2.221672773361206,-0.0,1.720862865447998,5.249642836838522,0.0004610184987541288,0.29013919830322266,-1.6387746969806116,6.2989478041861816e-37,0.004845003131777048,0.9844018816947937,-0.0,-0.0019634361378848553,0.7888830304145813,0.0006376959499903023,-0.04077260568737984
976.0,910.0,0.4845,0.5587,9.5587,-0.0283,0.0231,-0.117,-1.640611310998434,0.0009390704217366874,2.0095019340515137,-2.2215850353240967,-0.0,1.764138102531433,5.249638783722677,0.0003435928956605494,0.28439590334892273,-1.6388104597674769,1.1448608453533755e-41,-0.010434715077280998,0.9843810200691223,-0.0,-0.006087031681090593,0.7888826131820679,0.0014115404337644577,-0.04659810662269592
976.0,910.0,0.4845,0.5587,9.5587,-0.0283,0.0231,-0.117,-1.6406356296935023,0.0006748589221388102,2.0009725093841553,-2.2216367721557617,-0.0,1.6818935871124268,5.249646949559011,0.00028849818045273423,0.30303794145584106,-1.6388428846942347,2.802596928649634e-45,-0.0029992894269526005,0.984429657459259,-0.0,-0.0031471503898501396,0.7888907194137573,0.0015907800989225507,0.015804309397935867
976.0,910.0,0.4845,0.5587,9.5587,-0.0283,0.0231,-0.117,-1.6406480274596156,0.0005267056403681636,2.0107955932617188,-2.2216243743896484,-0.0,1.7170655727386475,5.249626564770498,0.0002486346638761461,0.29980772733688354,-1.6388309637652796,0.0,0.002792108803987503,0.9844214916229248,-0.0,0.005649874918162823,0.7888702750205994,0.002797555411234498,0.01936373859643936
976.0,910.0,0.4845,0.5587,9.5587,-0.0283,0.0231,-0.117,-1.6406556568541468,0.00040745476144365966,2.0053303241729736,-2.22161602973938,-0.0,1.682485818862915,5.249610888748922,0.00017496604414191097,0.2859143614768982,-1.6388385931598108,0.0,-0.0015970326494425535,0.9844375252723694,-0.0,-0.00857869815081358,0.7889708876609802,0.005477204918861389,0.03404838219285011
976.0,910.0,0.4845,0.5587,9.5587,-0.0283,0.0231,-0.117,-1.6406437359251917,0.0003047765349037945,1.9843568801879883,-2.221648931503296,-0.0,1.7086261510849,5.249626803189077,0.00015668541891500354,0.2823464274406433,-1.6388385931598108,0.0,-0.006569783203303814,0.9844813346862793,-0.0,-0.007336619310081005,0.7889989018440247,0.006474950350821018,-0.03534586727619171
976.0,910.0,0.4845,0.5587,9.5587,-0.0283,0.0231,-0.117,-1.6406556568541468,0.0002661466132849455,2.0232796669006348,-2.2216367721557617,-0.0,1.7284793853759766,5.249634730606832,0.00011540473497007042,0.28648585081100464,-1.6388228575335901,0.0,-0.0060904305428266525,0.9844214916229248,-0.0,-0.009701821953058243,0.789050817489624,0.0067345513962209225,-0.03157429397106171
976.0,910.0,0.4845,0.5587,9.5587,-0.0283,0.0231,-0.117,-1.640623231927389,0.0002276721497764811,2.0209481716156006,-2.221644878387451,-0.0,1.6870298385620117,5.249662923603811,0.00010078189370688051,0.2937825620174408,-1.6388509909259241,0.0,0.011165806092321873,0.984429657459259,-0.0,-0.0065131597220897675,0.7891230583190918,0.007150887977331877,0.03393435850739479
976.0,910.0,0.4845,0.5587,9.5587,-0.0283,0.0231,-0.117,-1.6406032047667445,0.00020540232071653008,1.9692246913909912,-2.2216737270355225,-0.0,1.7173871994018555,5.249638783722677,9.297307406086475e-05,0.2830711603164673,-1.6388347784625452,0.0,0.003481865394860506,0.9843935966491699,-0.0,-0.012652297504246235,0.789175271987915,0.0069813197478652,-0.021303726360201836
976.0,910.0,0.4845,0.5587,9.5587,-0.0283,0.0231,-0.117,-1.6406437359251917,0.0001871016138466075,2.008242130279541,-2.221613645553589,-0.0,1.7050995826721191,5.249614703446188,8.628742216387764e-05,0.3000968098640442,-1.6387785116778772,0.0,-0.007852310314774513,0.9843608736991882,-8.23954904305424e-10,0.005201574880629778,0.7892393469810486,0.0063395085744559765,0.003128700191155076
952.0,981.0,0.8871,0.2453,9.5611,-0.0449,0.0186,-0.1098,-1.640667577783102,5.140282883075997e-05,2.0339102745056152,-2.221597194671631,-0.0,1.6896693706512451,5.249610590725698,7.87380849942565e-05,0.28720200061798096,-1.6388228575335901,-4.133014226681553e-05,-0.007554058451205492,0.9844214916229248,-1.4974973301315475e-14,0.002904492663219571,0.7892227172851562,0.007425426039844751,-0.008741466328501701
952.0,981.0,0.8871,0.2453,9.5611,-0.0449,0.0186,-0.1098,-1.6406837902464808,8.110639100777917e-06,1.9951196908950806,-2.2216851711273193,3.690503902475939e-09,1.7030205726623535,5.2496187565620325,7.388964149868116e-05,0.29177531599998474,-1.6387866179095667,-4.905300374957733e-05,0.00026528583839535713,0.9843853712081909,-4.168338882534874e-18,-0.011502780020236969,0.7892789840698242,0.009220694191753864,0.0033084331080317497
952.0,981.0,0.8871,0.2453,9.5611,-0.0449,0.0186,-0.1098,-1.6406995258727015,1.9586235411317432e-11,1.9962084293365479,-2.221644878387451,8.912133387501374e-15,1.6915578842163086,5.249618696957388,6.960374594200402e-05,0.28682854771614075,-1.63879901567568,-4.5348464482231066e-05,0.008533860556781292,0.9844339489936829,-1.1602723713736196e-21,-0.016411250457167625,0.78937166929245,0.009456048719584942,0.04918355494737625
952.0,981.0,0.8871,0.2453,9.5611,-0.0449,0.0186,-0.1098,-1.6406356296935023,6.345691253782175e-19,1.9700323343276978,-2.221621036529541,2.887418220242239e-22,1.730881929397583,5.249594616680898,6.460704753408208e-05,0.29121291637420654,-1.6388104597674769,-4.119669392821379e-05,0.013445688411593437,0.984358012676239,-2.1087376739645168e-26,-0.014751343056559563,0.789423406124115,0.008798498660326004,0.0292498841881752
952.0,981.0,0.8871,0.2453,9.5611,-0.0449,0.0186,-0.1098,-1.6406713924803675,1.5324097386537418e-24,1.9716713428497314,-2.221609592437744,0.0004703235754277557,1.712557315826416,5.24969111660079,6.130636029411107e-05,0.2855391204357147,-1.6387785116778772,-3.8549729652004316e-05,-0.011265238747000694,0.9843727946281433,-5.869748850266083e-30,-0.00011523952707648277,0.7894913554191589,0.008665441535413265,0.011620520614087582
952.0,981.0,0.8871,0.2453,9.5611,-0.0449,0.0186,-0.1098,-1.6406995258727015,3.700589376388622e-30,2.044099807739258,-2.221593141555786,0.0013126665726304054,1.6914458274841309,5.2496588108833215,5.832649185322225e-05,0.29156240820884705,-1.63879901567568,-3.622237272793427e-05,-0.0010099764913320541,0.9843932390213013,-1.6338660669689534e-33,-0.0014070776524022222,0.7895476818084717,0.008378016762435436,0.025021038949489594
952.0,981.0,0.8871,0.2453,9.5611,-0.0449,0.0186,-0.1098,-1.6406995258727015,1.1989439035320533e-37,1.9962389469146729,-2.221565008163452,0.0030335283372551203,1.7155691385269165,5.249662923603811,5.477656304719858e-05,0.2959374189376831,-1.6388347784625452,-3.352384737809189e-05,0.0027286142576485872,0.9844179153442383,-2.969470836533448e-38,-0.004758052993565798,0.7895428538322449,0.007369829807430506,0.035939618945121765
952.0,981.0,0.8871,0.2453,9.5611,-0.0449,0.0186,-0.1098,-1.6406871281065882,2.9006878211523713e-43,2.0054612159729004,-2.221585512161255,0.00537980766966939,1.7578213214874268,5.249590980797567,5.2385319577297196e-05,0.29048022627830505,-1.6388185659991663,-3.1749870686326176e-05,-0.0003144203219562769,0.9844136834144592,-8.266259641052096e-42,0.003511331509798765,0.7896314859390259,0.007503904402256012,0.023617399856448174
952.0,981.0,0.8871,0.2453,9.5611,-0.0449,0.0186,-0.1098,-1.6407033405699671,-0.00021983952319715172,2.0062923431396484,-2.2214696407318115,0.009801027365028858,1.7273861169815063,5.249582755356588,4.95039057568647e-05,0.3017846345901489,-1.6387746969806116,-2.9657367122126743e-05,-0.004041928332298994,0.9844014048576355,-0.0,0.008857682347297668,0.7896710634231567,0.007931331172585487,0.029251979663968086
952.0,981.0,0.8871,0.2453,9.5611,-0.0449,0.0186,-0.1098,-1.6406713924803675,-0.00023008477000985295,2.0281059741973877,-2.2214179039001465,0.011813562363386154,1.7676963806152344,5.249638783722677,4.75426422781311e-05,0.28203585743904114,-1.6388071219073694,-2.8260501494514756e-05,-0.0006607712712138891,0.9844179153442383,-0.0,-0.007486973889172077,0.7897514700889587,0.00931375939399004,0.05163265019655228
952.0,981.0,0.8871,0.2453,9.5611,-0.0449,0.0186,-0.1098,-1.6406995258727015,-0.00020400722860358655,2.0573341846466064,-2.221257448196411,0.013805516995489597,1.7507842779159546,5.249654996186056,4.573083424475044e-05,0.29556238651275635,-1.638810936604635,-2.698927346500568e-05,-0.0004989987937733531,0.9844174385070801,-0.0,0.0008593624224886298,0.7898116111755371,0.01038210466504097,0.029080068692564964
952.0,981.0,0.8871,0.2453,9.5611,-0.0449,0.0186,-0.1098,-1.6406837902464808,-0.00020676208077929914,1.9832199811935425,-2.2211742401123047,0.018151964992284775,1.740978479385376,5.249622809677877,4.351952884462662e-05,0.2851613163948059,-1.6388071219073694,-2.5462146368226968e-05,0.0009014286333695054,0.984397292137146,-0.0,-0.0017549775075167418,0.7899116277694702,0.01245820987969637,0.06798494607210159
952.0,981.0,0.8871,0.2453,9.5611,-0.0449,0.0186,-0.1098,-1.640663286248678,-0.00011564073793124408,2.0207881927490234,-2.2210335731506348,0.021736130118370056,1.7422828674316406,5.249666976719656,4.199650720693171e-05,0.2973637580871582,-1.6388071219073694,-2.442559889459517e-05,0.008639881387352943,0.9844139814376831,-0.0,0.0029824068769812584,0.7899673581123352,0.013881022110581398,0.01910325139760971
8190.0,949.0,0.6921,0.1065,9.7053,-0.0127,0.0715,-0.1147,-1.640695711175436,-5.046646037953906e-05,2.0059642791748047,-2.2207934856414795,0.024545155465602875,1.7417644262313843,5.249602782517233,4.057644764543511e-05,0.2987772226333618,-1.638742748891012,-2.347015106352046e-05,-0.0005469151074066758,0.9843935966491699,-0.0,-0.002892878605052829,0.7900596261024475,0.015572963282465935,0.039781879633665085
8190.0,949.0,0.6921,0.1065,9.7053,-0.0127,0.0715,-0.1147,-1.640679498712057,-4.72418241770356e-06,2.038078784942627,-2.2206151485443115,0.029091646894812584,1.7462916374206543,5.2496306774909876,8.575062082627483e-08,0.2910575568675995,-1.638810936604635,-2.2306738173938356e-05,-0.006121239624917507,0.9843769073486328,-0.0,-0.0014623331371694803,0.7902038097381592,0.015935534611344337,0.04249041527509689
8190.0,949.0,0.6921,0.1065,9.7053,-0.0127,0.0715,-0.1147,-1.6406556568541468,-1.140834475499286e-11,2.0039968490600586,-2.2204346656799316,0.032225728034973145,1.7053700685501099,5.249622511654653,2.3868998791365392e-11,0.2982592284679413,-1.63879901567568,-2.1507154087885283e-05,-0.006071225740015507,0.984429657459259,-0.0,0.002742068376392126,0.7903439402580261,0.015926891937851906,-0.01330261304974556
8190.0,949.0,0.6921,0.1065,9.7053,-0.0127,0.0715,-0.1147,-1.640695711175436,-2.7549809475172673e-17,2.059178113937378,-2.220254421234131,0.033366426825523376,1.780881404876709,5.249582755356588,6.644024370792588e-15,0.2911022901535034,-1.6388147513019007,-2.0762905478477478e-05,0.003602652344852686,0.9843649864196777,-0.0,0.0022705653682351112,0.7904402017593384,0.016244811937212944,0.042660441249608994
8190.0,949.0,0.6921,0.1065,9.7053,-0.0127,0.0715,-0.1147,-1.640667577783102,-8.9257875931766e-25,1.9863821268081665,-2.2199435234069824,0.039168696850538254,1.7724192142486572,5.249622809677877,1.207518645945822e-19,0.29202890396118164,-1.6387508551227015,-1.0060121894639451e-05,-0.006133508402854204,0.9844859838485718,-0.0,0.0018804330611601472,0.7905479073524475,0.018940363079309464,0.0166010782122612
8190.0,949.0,0.6921,0.1065,9.7053,-0.0127,0.0715,-0.1147,-1.6406995258727015,-2.1554725818937746e-30,2.0399844646453857,-2.2196154594421387,0.043320994824171066,1.7983720302581787,5.249606835633077,4.213500517380453e-07,0.29802072048187256,-1.6387952009784144,-2.800272014269467e-09,-0.008314786478877068,0.9843527674674988,-0.0,-0.005498072598129511,0.7907000780105591,0.01962006278336048,0.05847236514091492
8190.0,949.0,0.6921,0.1065,9.7053,-0.0127,0.0715,-0.1147,-1.6406718693175257,-5.2052126046284955e-36,2.0123071670532227,-2.2193894386291504,0.049162063747644424,1.7608641386032104,5.249594974308767,1.1728433502167235e-10,0.3063335418701172,-1.6388228575335901,-7.794660099660899e-13,0.014930877834558487,0.9844136238098145,-0.0,0.004181187599897385,0.7907959222793579,0.02177838608622551,0.033101458102464676
8190.0,949.0,0.6921,0.1065,9.7053,-0.0127,0.0715,-0.1147,-1.6406752071776332,-1.6815581571897805e-43,2.03070068359375,-2.2188735008239746,0.05957615748047829,1.8167860507965088,5.249623167305746,2.1315848815450485e-15,0.3030628263950348,-1.638770882283346,-1.4166409321507684e-17,-5.086086457595229e-05,0.9844214916229248,-0.0,-0.00498285423964262,0.7910245060920715,0.02329767309129238,0.024984948337078094
8190.0,949.0,0.6921,0.1065,9.7053,-0.0127,0.0715,-0.1147,-1.6406837902464808,0.0,1.9693238735198975,-2.2185440063476562,0.06754625588655472,1.8122366666793823,5.249558913498678,-0.0004739660944323987,0.3001411259174347,-1.638787094746725,-3.943272165926502e-21,0.00034922955092042685,0.984421968460083,-0.0,-0.010581055656075478,0.7911725640296936,0.023866970092058182,0.04778096824884415
8190.0,949.0,0.6921,0.1065,9.7053,-0.0127,0.0715,-0.1147,-1.640735765496725,0.0,1.9910304546356201,-2.2179088592529297,0.08268475532531738,1.8132892847061157,5.249550747662344,-0.0004678084806073457,0.2930465340614319,-1.6387789885150355,-7.16670271631974e-26,0.005786611698567867,0.9843894839286804,-0.0,-0.00579146109521389,0.7913647890090942,0.0262901671230793,0.03134768083691597
8190.0,949.0,0.6921,0.1065,9.7053,-0.0127,0.0715,-0.1147,-1.640667577783102,0.0,1.9898055791854858,-2.21743106842041,0.09256718307733536,1.8479582071304321,5.249510931759634,-0.0005543439765460789,0.2812291383743286,-1.6388309637652796,-1.994878085933022e-29,0.0013986802659928799,0.9844096302986145,-0.0,-0.009642187505960464,0.7915493845939636,0.02798377349972725,0.037721555680036545
8190.0,949.0,0.6921,0.1065,9.7053,-0.0127,0.0715,-0.1147,-1.640707632104391,-0.00030416061053983867,2.0261573791503906,-2.2168166637420654,0.10485336929559708,1.8807122707366943,5.249519097595968,-0.0005653342814184725,0.27301743626594543,-1.6387470404254358,-5.5528163774616455e-33,-0.003660517744719982,0.9844374656677246,-0.0,-0.004908536095172167,0.7916568517684937,0.029788749292492867,0.002931502414867282
8190.0,949.0,0.6921,0.1065,9.7053,-0.0127,0.0715,-0.1147,-1.64068665126943,-0.0009859575657173991,1.8998470306396484,-2.2158994674682617,0.11837248504161835,1.8737766742706299,5.249507117062368,-0.0006907234201207757,0.2877460718154907,-1.638770882283346,-1.0091969931786356e-37,-0.0005972092039883137,0.9844338297843933,-0.0,0.009706924669444561,0.7919531464576721,0.03230049088597298,0.07065936923027039
8190.0,949.0,0.6921,0.1065,9.7053,-0.0127,0.0715,-0.1147,-1.6407801113524378,-0.0009791707852855325,1.9489617347717285,-2.2151098251342773,0.12448050081729889,1.8966891765594482,5.249523150711813,-0.0005945184384472668,0.28470927476882935,-1.6387832800494593,-2.809183031431961e-41,-0.0026292831171303988,0.9844735860824585,-0.0,-0.0009830771014094353,0.7921735644340515,0.033691905438899994,0.07176551222801208
977.0,940.0,0.5198,0.3165,10.2473,-0.0075,0.2045,-0.0866,-1.6407071552672328,-0.0007208278984762728,1.9943034648895264,-2.214303731918335,0.13179291784763336,1.8898481130599976,5.249530958920278,-0.0004764304612763226,0.2776218056678772,-1.6387746969806116,-8.407790785948902e-45,-0.0021986074279993773,0.9843772649765015,-0.0,-0.0036853631027042866,0.7924099564552307,0.03630957752466202,0.12712520360946655
977.0,940.0,0.5198,0.3165,10.2473,-0.0075,0.2045,-0.0866,-1.6407276592650355,-0.0003515889111440629,1.960360050201416,-2.2131588459014893,0.14724856615066528,1.974414348602295,5.249539184361257,-0.0003685462870635092,0.26412782073020935,-1.6387785116778772,-0.0,-0.012711284682154655,0.984469473361969,-0.0,0.002220498165115714,0.792730450630188,0.039533451199531555,0.10328364372253418
977.0,940.0,0.5198,0.3165,10.2473,-0.0075,0.2045,-0.0866,-1.6407071552672328,-0.0002718956093303859,1.9719822406768799,-2.2123055458068848,0.15638229250907898,1.9456819295883179,5.249491202622213,-0.0004240205744281411,0.26704439520835876,-1.6388185659991663,-0.0,-0.02251121588051319,0.9844293594360352,-0.0,-0.0021310201846063137,0.7929260730743408,0.03903461992740631,0.11107081174850464
977.0,940.0,0.5198,0.3165,10.2473,-0.0075,0.2045,-0.0866,-1.6407314739623011,-0.00013081783254165202,1.9371224641799927,-2.211284875869751,0.16672958433628082,1.937791347503662,5.249495255738058,-0.0007767811766825616,0.2588110864162445,-1.638754669819967,-0.0,-0.018748044967651367,0.9844654202461243,-0.0,0.009808517061173916,0.7931463122367859,0.03862965106964111,0.07430907338857651
977.0,940.0,0.5198,0.3165,10.2473,-0.0075,0.2045,-0.0866,-1.6407634220519007,-0.00023899607185740024,1.9162402153015137,-2.209805727005005,0.18282711505889893,1.9880626201629639,5.249487149506368,-0.000603954482357949,0.2676575779914856,-1.638770882283346,-0.0,-0.025231726467609406,0.9844293594360352,-0.0,0.01769772544503212,0.7934986352920532,0.0385059118270874,0.11872172355651855
977.0,940.0,0.5198,0.3165,10.2473,-0.0075,0.2045,-0.0866,-1.6407958469786585,-0.0017426975537091494,1.8923516273498535,-2.2087326049804688,0.19671699404716492,2.003211259841919,5.249499428063192,-0.0005935471854172647,0.27100589871406555,-1.638770882283346,-0.0,-0.0161052867770195,0.9844773411750793,-0.0,0.0107440035790205,0.7937347292900085,0.03952902555465698,0.17063990235328674
977.0,940.0,0.5198,0.3165,10.2473,-0.0075,0.2045,-0.0866,-1.640799184838766,-0.0020460484083741903,1.9087231159210205,-2.2074971199035645,0.2069457471370697,2.0378236770629883,5.249471175461569,-0.0011331760324537754,0.25644493103027344,-1.6387222448932093,-0.0,-0.006018069572746754,0.9844732284545898,-0.0,0.020019030198454857,0.7939791679382324,0.04088986665010452,0.17007961869239807
977.0,940.0,0.5198,0.3165,10.2473,-0.0075,0.2045,-0.0866,-1.6408115826048792,-0.00288592092692852,1.9135732650756836,-2.2056851387023926,0.22531157732009888,2.0371594429016113,5.249394941120901,-0.0015524592017754912,0.25610846281051636,-1.6387952009784144,-0.0,-0.017676550894975662,0.9844613075256348,-0.0,0.02132319286465645,0.7943353056907654,0.04570392891764641,0.2063639760017395
977.0,940.0,0.5198,0.3165,10.2473,-0.0075,0.2045,-0.0866,-1.6408034763731898,-0.003584200283512473,1.914699912071228,-2.2043495178222656,0.2377619594335556,2.0853183269500732,5.249447035580435,-0.0012685146648436785,0.26940932869911194,-1.6387866179095667,-0.0,-0.02814880758523941,0.9844654202461243,-0.0,0.01805591955780983,0.7946395874023438,0.04972517490386963,0.18974226713180542
977.0,940.0,0.5198,0.3165,10.2473,-0.0075,0.2045,-0.0866,-1.640855451623434,-0.0036620788741856813,1.8825151920318604,-2.202833652496338,0.2536381185054779,2.0594587326049805,5.249423253327169,-0.0015294181648641825,0.25687986612319946,-1.6388071219073694,-0.0,-0.017635971307754517,0.9844532012939453,0.00026803193031810224,0.03455024212598801,0.7949556112289429,0.056155622005462646,0.16384679079055786
977.0,940.0,0.5198,0.3165,10.2473,-0.0075,0.2045,-0.0866,-1.640939851800436,-0.004373019095510244,1.9201765060424805,-2.2006914615631104,0.27332615852355957,2.1284687519073486,5.249451446324148,-0.007754880469292402,0.24811212718486786,-1.6388071219073694,-0.0,-0.03273249417543411,0.9844972491264343,0.00028940747142769396,0.03889402002096176,0.7954724431037903,0.06458034366369247,0.22791197896003723
977.0,940.0,0.5198,0.3165,10.2473,-0.0075,0.2045,-0.0866,-1.640963693658346,-0.005548715591430664,1.9147292375564575,-2.199017286300659,0.28083452582359314,2.0837583541870117,5.249315488129415,-0.020432472229003906,0.23251959681510925,-1.6388228575335901,-0.0,-0.015203259885311127,0.9845295548439026,0.0003218745987396687,0.04457082971930504,0.7958967089653015,0.07038217782974243,0.23620983958244324
977.0,940.0,0.5198,0.3165,10.2473,-0.0075,0.2045,-0.0866,-1.6409994564452113,-0.005214302334934473,1.922999382019043,-2.196744441986084,0.3093442916870117,2.1216132640838623,5.249155628472128,-0.013726018369197845,0.23754703998565674,-1.6387866179095667,-0.0,-0.029559236019849777,0.9845337271690369,0.000461163988802582,0.02106640860438347,0.7964932322502136,0.08108727633953094,0.22485320270061493
938.0,1024.0,0.3015,-0.2411,10.3926,0.0945,0.4053,-0.036,-1.6409837208189906,-0.004369348753243685,1.962307333946228,-2.1948535442352295,0.32228711247444153,2.1190297603607178,5.249067950039663,-0.012552416883409023,0.2536243796348572,-1.638782803212301,-0.0,-0.027254970744252205,0.9845487475395203,0.0004857928433921188,0.03122628666460514,0.7969614267349243,0.09541285037994385,0.2724567949771881
938.0,1024.0,0.3015,-0.2411,10.3926,0.0945,0.4053,-0.036,-1.641031404534811,-0.005763594526797533,1.8660237789154053,-2.192826747894287,0.3271777331829071,2.1735119819641113,5.2490285513694666,-0.009908297099173069,0.2247476875782013,-1.6387866179095667,-0.0,-0.03100183978676796,0.9845486879348755,0.0005220707389526069,0.03334487974643707,0.7975862622261047,0.10625302046537399,0.3153797388076782
938.0,1024.0,0.3015,-0.2411,10.3926,0.0945,0.4053,-0.036,-1.6411034069456996,-0.006536832079291344,1.8950881958007812,-2.1901118755340576,0.3488711416721344,2.19919490814209,5.248960482865133,-0.002324938541278243,0.23681268095970154,-1.6387789885150355,-0.0,-0.016461066901683807,0.9845132827758789,0.0004344703920651227,0.06251415610313416,0.7984868884086609,0.11683417856693268,0.3447280526161194
938.0,1024.0,0.3015,-0.2411,10.3926,0.0945,0.4053,-0.036,-1.641122957269186,-0.007563453633338213,1.949141502380371,-2.1879262924194336,0.3572539985179901,2.206159830093384,5.248948561936178,-0.0007220834377221763,0.24589237570762634,-1.6388147513019007,-0.0,-0.014244618825614452,0.9844366312026978,0.0003533112758304924,0.050752367824316025,0.7992355823516846,0.11880423128604889,0.290043443441391
938.0,1024.0,0.3015,-0.2411,10.3926,0.0945,0.4053,-0.036,-1.6412154636778773,-0.009422599337995052,1.862748622894287,-2.185804605484009,0.3704335689544678,2.2323994636535645,5.248972403794088,-0.00013834288984071463,0.23809853196144104,-1.638810936604635,-0.0,-0.028699137270450592,0.9845333099365234,0.00034452162799425423,0.051205724477767944,0.7999521493911743,0.12035863846540451,0.36775878071784973
938.0,1024.0,0.3015,-0.2411,10.3926,0.0945,0.4053,-0.036,-1.6413189373412074,-0.01238594762980938,1.8917738199234009,-2.1827023029327393,0.38153186440467834,2.2714505195617676,5.248956668167867,-0.0005004014819860458,0.23681701719760895,-1.6388190428363245,-0.0,-0.017579156905412674,0.9844694137573242,0.0003226942499168217,0.04675561934709549,0.8009008765220642,0.12268450111150742,0.3386774957180023
938.0,1024.0,0.3015,-0.2411,10.3926,0.0945,0.4053,-0.036,-1.6413465938963832,-0.014965412206947803,1.868115782737732,-2.1803359985351562,0.39092352986335754,2.3170695304870605,5.248940694123068,-0.0022944523952901363,0.22179903090000153,-1.6388071219073694,-0.0,-0.01843906193971634,0.984576940536499,0.0002847278374247253,0.059473298490047455,0.8016858100891113,0.1253306120634079,0.3579736351966858
938.0,1024.0,0.3015,-0.2411,10.3926,0.0945,0.4053,-0.036,-1.641459127465719,-0.015259459614753723,1.873932957649231,-2.1779837608337402,0.4056539535522461,2.244661331176758,5.2488924143608,-0.001192622003145516,0.23417964577674866,-1.638827149068014,-0.0,-0.023082036525011063,0.9844812750816345,0.000254526938078925,0.050369735807180405,0.8023978471755981,0.13177311420440674,0.33922427892684937
938.0,1024.0,0.3015,-0.2411,10.3926,0.0945,0.4053,-0.036,-1.6415144405760707,-0.012955746613442898,1.9311741590499878,-2.174696207046509,0.41990384459495544,2.3431546688079834,5.248908746033468,-0.0008299932233057916,0.22886669635772705,-1.6388190428363245,-0.0,-0.010589350014925003,0.9845527410507202,0.0002032155025517568,0.03737038001418114,0.8035596609115601,0.1460709273815155,0.39685580134391785
938.0,1024.0,0.3015,-0.2411,10.3926,0.0945,0.4053,-0.036,-1.6416593990721644,-0.012064655311405659,1.8834969997406006,-2.1721925735473633,0.42491966485977173,2.340437412261963,5.2488523600395105,-0.0019517397740855813,0.23295190930366516,-1.638742748891012,-0.0,-0.02540598064661026,0.9844973087310791,0.0001627023157197982,0.05629841238260269,0.8043676614761353,0.14881210029125214,0.37511950731277466
938.0,1024.0,0.3015,-0.2411,10.3926,0.0945,0.4053,-0.036,-1.6417352161803187,-0.012513570487499237,1.9050118923187256,-2.1695642471313477,0.4350234568119049,2.364409923553467,5.248832690506735,-0.004282743204385042,0.2316717505455017,-1.6388195196734827,-0.0,-0.010939409956336021,0.9845608472824097,0.0001467745896661654,0.04878995195031166,0.8053210377693176,0.1485319584608078,0.3487345576286316
938.0,1024.0,0.3015,-0.2411,10.3926,0.0945,0.4053,-0.036,-1.6418549023070277,-0.01632623001933098,1.8663992881774902,-2.1660821437835693,0.44942936301231384,2.359656810760498,5.248824822693624,-0.010377801023423672,0.2136496603488922,-1.6387627760516565,-0.0,-0.006809194106608629,0.9845094680786133,0.00012983393389731646,0.05410371720790863,0.8065016865730286,0.14639760553836823,0.325440913438797
938.0,1024.0,0.3015,-0.2411,10.3926,0.0945,0.4053,-0.036,-1.641918798486227,-0.01802431233227253,1.8750708103179932,-2.1633965969085693,0.4653123915195465,2.3808693885803223,5.248752820282736,-0.007436166517436504,0.21702727675437927,-1.6388033072101038,-0.0,-0.012116268277168274,0.9845254421234131,0.00011949060717597604,0.05268540233373642,0.8074105978012085,0.14768393337726593,0.28307586908340454
938.0,1024.0,0.3015,-0.2411,10.3926,0.0945,0.4053,-0.036,-1.642006059686178,-0.017810793593525887,1.8785245418548584,-2.1596791744232178,0.472781240940094,2.438390016555786,5.24870132186965,-0.008271625265479088,0.22457179427146912,-1.63879901567568,-0.0,-0.005569742061197758,0.9845337867736816,0.00010801700409501791,0.039167795330286026,0.8085231184959412,0.15611647069454193,0.3337876796722412
1012.0,961.0,-0.0532,2.4694,9.7364,0.1509,0.5111,-0.0191,-1.6421824894347132,-0.018133800476789474,1.830960988998413,-2.1568315029144287,0.4736705720424652,2.3462259769439697,5.2486129877860925,-0.008857632987201214,0.22338630259037018,-1.638758961354391,-1.3534329212916418e-08,-0.00559653015807271,0.9845447540283203,8.09565608506091e-05,0.05551787465810776,0.8095099329948425,0.16028431057929993,0.3429858386516571
1012.0,961.0,-0.0532,2.4694,9.7364,0.1509,0.5111,-0.0191,-1.642250200311178,-0.017368800938129425,1.877837896347046,-2.153867244720459,0.485347181558609,2.4087116718292236,5.248568761139669,-0.005959780421108007,0.22079050540924072,-1.6387627760516565,-3.7673306314822685e-12,-0.0017651570960879326,0.9844775199890137,7.553458272013813e-05,0.04658954590559006,0.8105272650718689,0.1613253355026245,0.32046598196029663
1012.0,961.0,-0.0532,2.4694,9.7364,0.1509,0.5111,-0.0191,-1.6424304447569789,-0.01764623448252678,1.856447696685791,-2.149920701980591,0.4941987097263336,2.3958568572998047,5.248525607376852,-0.002248140750452876,0.21217508614063263,-1.6387713591205042,-6.846936566081953e-17,0.0020018485374748707,0.984440803527832,6.96858114679344e-05,0.03701198473572731,0.8117818832397461,0.15705904364585876,0.27227771282196045
1012.0,961.0,-0.0532,2.4694,9.7364,0.1509,0.5111,-0.0191,-1.6425782642760218,-0.019457655027508736,1.9209513664245605,-2.1469056606292725,0.4995461702346802,2.4109368324279785,5.248533475189962,-0.003358944784849882,0.20665080845355988,-1.6387794653521937,-1.9058701755554917e-20,-0.0035043172538280487,0.9844326972961426,6.586109520867467e-05,0.049048759043216705,0.8126621246337891,0.1541425734758377,0.2534430921077728
1012.0,961.0,-0.0532,2.4694,9.7364,0.1509,0.5111,-0.0191,-1.642642160455221,-0.020985197275877,1.8226628303527832,-2.1438581943511963,0.506841778755188,2.4792704582214355,5.248521554261007,-0.003629580605775118,0.2127838432788849,-1.6387832800494593,-5.3050592164664534e-24,0.0030615783762186766,0.9844653606414795,6.243438110686839e-05,0.03077712655067444,0.8137057423591614,0.15501952171325684,0.2427544891834259
1012.0,961.0,-0.0532,2.4694,9.7364,0.1509,0.5111,-0.0191,-1.6427942715086878,-0.02213296853005886,1.908698320388794,-2.1397552490234375,0.5123104453086853,2.4246551990509033,5.248465764313497,-0.004174367990344763,0.1999691277742386,-1.6387227217303675,-9.641682571116846e-29,0.02120741829276085,0.9845333099365234,5.838416836922988e-05,0.010352257639169693,0.8148492574691772,0.15737231075763702,0.24784472584724426
1012.0,961.0,-0.0532,2.4694,9.7364,0.1509,0.5111,-0.0191,-1.642909666100973,-0.023460067808628082,1.912217140197754,-2.1366636753082275,0.5144113898277283,2.451906442642212,5.248437869339742,-0.007790144067257643,0.20497184991836548,-1.6387746969806116,-2.6837981887324335e-32,0.014495760202407837,0.9845527410507202,5.567532207351178e-05,0.029031138867139816,0.8158652782440186,0.16127461194992065,0.24335983395576477
1012.0,961.0,-0.0532,2.4694,9.7364,0.1509,0.5111,-0.0191,-1.6430899105467738,-0.02379448153078556,1.9084514379501343,-2.1335883140563965,0.5223029255867004,2.468350648880005,5.248377787857809,-0.008659051731228828,0.1940181404352188,-1.638742748891012,9.218430932378396e-05,0.028571074828505516,0.9844934940338135,5.320676427800208e-05,0.029994886368513107,0.8168381452560425,0.1589072048664093,0.23839043080806732
1012.0,961.0,-0.0532,2.4694,9.7364,0.1509,0.5111,-0.0191,-1.6433178387083949,-0.024748045951128006,1.8715981245040894,-2.1294097900390625,0.5250434875488281,2.4435908794403076,5.248253571778097,-0.01072691474109888,0.20368054509162903,-1.6387108008014124,0.00018150337564293295,0.004293376114219427,0.9845259189605713,3.850923530990258e-05,0.02919245883822441,0.8180505037307739,0.15212135016918182,0.22658011317253113
1012.0,961.0,-0.0532,2.4694,9.7364,0.1509,0.5111,-0.0191,-1.643501421014303,-0.026864944025874138,1.8615210056304932,-2.126383066177368,0.5225287079811096,2.465773820877075,5.248210477619924,-0.016403745859861374,0.20103320479393005,-1.6387227217303675,0.0001925873220898211,0.019391559064388275,0.984513521194458,3.61639067705255e-05,0.028781354427337646,0.8189229369163513,0.14647276699543,0.21084009110927582
1012.0,961.0,-0.0532,2.4694,9.7364,0.1509,0.5111,-0.0191,-1.6436730823912562,-0.030112776905298233,1.8955020904541016,-2.1231932640075684,0.51852947473526,2.5209598541259766,5.248102652817526,-0.02309052273631096,0.19430026412010193,-1.6387470404254358,0.00017951436166185886,0.026967808604240417,0.9844691753387451,3.476666461210698e-05,0.02870108187198639,0.8198522329330444,0.14316552877426147,0.14908882975578308
1012.0,961.0,-0.0532,2.4694,9.7364,0.1509,0.5111,-0.0191,-1.6438971958556117,-0.03224576264619827,1.9263134002685547,-2.1189708709716797,0.517900288105011,2.459750175476074,5.247854757099905,-0.03088710829615593,0.1933017373085022,-1.6387713591205042,0.00018416695820633322,0.0327545702457428,0.9844934940338135,3.306370854261331e-05,0.014366005547344685,0.8209804892539978,0.14337344467639923,0.18031218647956848
1012.0,961.0,-0.0532,2.4694,9.7364,0.1509,0.5111,-0.0191,-1.6440488300719203,-0.03380966931581497,1.9129033088684082,-2.1158902645111084,0.5228261947631836,2.4495067596435547,5.247655200749197,-0.03951793536543846,0.1756330281496048,-1.6387384573565882,0.00023942238476593047,0.02245315909385681,0.9844412803649902,-2.937955650850199e-05,0.021911144256591797,0.821808934211731,0.144389346241951,0.1965159773826599
854.0,810.0,-1.1731,2.732,9.2489,0.0887,0.3403,-0.0214,-1.644224306146139,-0.03182121366262436,1.8469903469085693,-2.112739086151123,0.5241449475288391,2.5824432373046875,5.24735193231658,-0.05536630004644394,0.16870003938674927,-1.638730827962057,0.0002470938488841057,0.029831480234861374,0.9844608902931213,-2.8493643185356632e-05,0.004409567918628454,0.8227020502090454,0.13859987258911133,0.1683875322341919
854.0,810.0,-1.1731,2.732,9.2489,0.0887,0.3403,-0.0214,-1.6445533237852992,-0.03146428242325783,1.865443468093872,-2.1086347103118896,0.5203402638435364,2.5084826946258545,5.246789204865255,-0.09274095296859741,0.157125324010849,-1.6387389341937464,0.0002902864071074873,0.036554887890815735,0.9844732284545898,-2.6797011742019095e-05,0.01558685302734375,0.8237466216087341,0.1334918588399887,0.1524556279182434
854.0,810.0,-1.1731,2.732,9.2489,0.0887,0.3403,-0.0214,-1.644684454003805,-0.03251061961054802,1.874513864517212,-2.105477809906006,0.5180158615112305,2.510829448699951,5.246086764126577,-0.12523742020130157,0.15309542417526245,-1.6387231985675257,0.0005968712503090501,0.03129306435585022,0.9844289422035217,-3.762751293834299e-05,0.012767712585628033,0.8245272040367126,0.12549510598182678,0.08946286141872406
854.0,810.0,-1.1731,2.732,9.2489,0.0887,0.3403,-0.0214,-1.6450168095030726,-0.03491479903459549,1.8762898445129395,-2.101367473602295,0.5307936668395996,2.5489840507507324,5.244961428433218,-0.14171390235424042,0.1295040249824524,-1.6386907736407679,0.0034821804147213697,0.046949602663517,0.9844534993171692,-3.640200520749204e-05,0.010415589436888695,0.8255764245986938,0.11603846400976181,0.15169203281402588
854.0,810.0,-1.1731,2.732,9.2489,0.0887,0.3403,-0.0214,-1.6452280483641566,-0.036296576261520386,1.9144729375839233,-2.0982682704925537,0.5274477601051331,2.527172803878784,5.243959235935964,-0.15516304969787598,0.12466973811388016,-1.638663117085592,0.012999653816223145,0.034814849495887756,0.9844212532043457,-3.4986940590897575e-05,-0.0026672305539250374,0.8262606263160706,0.11240798979997635,0.10935408622026443
854.0,810.0,-1.1731,2.732,9.2489,0.0887,0.3403,-0.0214,-1.6454688511290492,-0.03817778825759888,1.930467128753662,-2.0950756072998047,0.5174856185913086,2.5003445148468018,5.242905723839559,-0.19973456859588623,0.08994731307029724,-1.6385472456561487,0.020892100408673286,0.059045612812042236,0.9844215512275696,-3.367772660567425e-05,0.013455832377076149,0.8269050121307373,0.10738178342580795,0.06317942589521408
854.0,810.0,-1.1731,2.732,9.2489,0.0887,0.3403,-0.0214,-1.6457520924010218,-0.038748130202293396,1.8964433670043945,-2.0907328128814697,0.5213111042976379,2.501720905303955,5.241174268513479,-0.2223907709121704,0.09026440978050232,-1.638496224080221,0.010225575417280197,0.044719889760017395,0.9844096302986145,-4.276955587556586e-05,-0.008558985777199268,0.827669084072113,0.09999873489141464,0.03866368904709816
854.0,810.0,-1.1731,2.732,9.2489,0.0887,0.3403,-0.0214,-1.645947595635885,-0.036814991384744644,1.9340547323226929,-2.0876123905181885,0.523236870765686,2.52388596534729,5.239726471691885,-0.23690931499004364,0.08418960124254227,-1.6384480635272425,0.001796350465156138,0.047973282635211945,0.9843973517417908,-4.129786611883901e-05,0.003066952805966139,0.8282818794250488,0.0978686735033989,0.05360458791255951
854.0,810.0,-1.1731,2.732,9.2489,0.0887,0.3403,-0.0214,-1.6461717091002406,-0.03500433266162872,1.9013428688049316,-2.0844502449035645,0.5233476758003235,2.480837821960449,5.238193022995748,-0.2614733874797821,0.08102308958768845,-1.6384599844561976,-0.0006170494598336518,0.056820400059223175,0.9844136238098145,-3.992389974882826e-05,-0.01367274485528469,0.8288060426712036,0.09862571209669113,0.072843536734581
854.0,810.0,-1.1731,2.732,9.2489,0.0887,0.3403,-0.0214,-1.6464516125121058,-0.03535963222384453,1.8779245615005493,-2.0803146362304688,0.5214259624481201,2.4899892807006836,5.236006188183584,-0.2990994453430176,0.06234227120876312,-1.638411823903219,-0.00010788179497467354,0.05774334818124771,0.9843769669532776,-1.4314460727860023e-09,0.0031384245958179235,0.8295948505401611,0.08947135508060455,0.008515231311321259
854.0,810.0,-1.1731,2.732,9.2489,0.0887,0.3403,-0.0214,-1.6466909847655238,-0.0367412269115448,1.9337072372436523,-2.0772063732147217,0.5225622653961182,2.576526641845703,5.233983206539907,-0.33062219619750977,0.04192904382944107,-1.6384275595294397,-7.922192889964208e-05,0.04750441759824753,0.9843336939811707,-3.9844825572635245e-13,0.005453475285321474,0.8301030993461609,0.07735274732112885,-0.024880426004529
854.0,810.0,-1.1731,2.732,9.2489,0.0887,0.3403,-0.0214,-1.6469232044615687,-0.04018625244498253,1.9126358032226562,-2.0740714073181152,0.5222151279449463,2.498002052307129,5.231940018921652,-0.3673696517944336,0.030714694410562515,-1.6384275595294397,-6.266036507440731e-05,0.04976285621523857,0.9843688607215881,-1.1090954120141243e-16,0.012379098683595657,0.8305917382240295,0.06801477074623108,-0.050904422998428345
854.0,810.0,-1.1731,2.732,9.2489,0.0887,0.3403,-0.0214,-1.6472670040526332,-0.04717346280813217,1.9040203094482422,-2.069843053817749,0.5325339436531067,2.5604841709136963,5.228827166348257,-0.40893638134002686,-0.006302679888904095,-1.6384242216693323,-1.138821259516476e-09,0.05595773085951805,0.9843772053718567,-2.0157258597439642e-21,0.007153649348765612,0.8310394883155823,0.05745074898004532,-0.09714237600564957
854.0,810.0,-1.1731,2.732,9.2489,0.0887,0.3403,-0.0214,-1.6475631199278773,-0.050334278494119644,1.8885180950164795,-2.0667226314544678,0.5326154828071594,2.5662636756896973,5.22631328085021,-0.4319031536579132,-0.01735890656709671,-1.6384480635272425,-3.1699512806349084e-13,0.0574914813041687,0.9843497276306152,-5.610846651056245e-25,0.007342193275690079,0.8312916159629822,0.04591555520892143,-0.08993276953697205
448.0,454.0,-1.5697,1.5517,9.865,-0.0435,-0.111,-0.1345,-1.6478382549681605,-0.05203081667423248,1.9090243577957153,-2.063469171524048,0.5296639800071716,2.524672269821167,5.223620104580679,-0.47120583057403564,-0.0067830765619874,-1.6384156386004847,-8.823675883935035e-17,0.05872234329581261,0.9843539595603943,-6.974273128435016e-05,0.0007615048671141267,0.831544041633606,0.03233944997191429,-0.08182930946350098
448.0,454.0,-1.5697,1.5517,9.865,-0.0435,-0.111,-0.1345,-1.6482259235777796,-0.053521573543548584,1.931455135345459,-2.059109926223755,0.5363831520080566,2.5702192783355713,5.219732630043783,-0.520193338394165,-0.03911888226866722,-1.6384199301349085,-1.6036594560314946e-21,0.057190656661987305,0.9843852519989014,-8.076899393927306e-05,-0.00795531552284956,0.8317840695381165,0.019965190440416336,-0.08460250496864319
448.0,454.0,-1.5697,1.5517,9.865,-0.0435,-0.111,-0.1345,-1.6486064396300257,-0.05567467585206032,1.939704418182373,-2.0558435916900635,0.5384394526481628,2.5860748291015625,5.216449367790975,-0.5536948442459106,-0.04620420187711716,-1.6384885946856897,-4.463844867017157e-25,0.06092976778745651,0.9843220710754395,-7.664239092264324e-05,-0.01378045603632927,0.8318437337875366,0.011601528152823448,-0.13105057179927826
448.0,454.0,-1.5697,1.5517,9.865,-0.0435,-0.111,-0.1345,-1.649017950097555,-0.05402875319123268,1.9124271869659424,-2.051564931869507,0.5441438555717468,2.5921072959899902,5.2117566643054865,-0.6012527942657471,-0.042851194739341736,-1.6384442488299769,-8.112816638075789e-30,0.06933274865150452,0.9843650460243225,-8.610376244178042e-05,-0.003577996278181672,0.8318598866462708,0.0024232862051576376,-0.0982588455080986
448.0,454.0,-1.5697,1.5517,9.865,-0.0435,-0.111,-0.1345,-1.6493493519225062,-0.0519874207675457,1.9252007007598877,-2.048283100128174,0.546424388885498,2.546476364135742,5.208049523621359,-0.6325136423110962,-0.057863522320985794,-1.6384323279010218,-2.2582322791311115e-33,0.06070453301072121,0.9843499660491943,-8.217395952669904e-05,-0.0012560399482026696,0.8318881392478943,9.907685694088286e-08,-0.11418597400188446
448.0,454.0,-1.5697,1.5517,9.865,-0.0435,-0.111,-0.1345,-1.6496650181212367,-0.0494314469397068,1.9353792667388916,-2.0450222492218018,0.5503999590873718,2.604128360748291,5.204115110426702,-0.6593892574310303,-0.034645311534404755,-1.6384719053851526,-6.285871559540365e-37,0.07433320581912994,0.9843618869781494,-9.162648348137736e-05,0.008468186482787132,0.8318718075752258,-0.0024179902393370867,-0.19248580932617188
448.0,454.0,-1.5697,1.5517,9.865,-0.0435,-0.111,-0.1345,-1.6500326595702113,-0.045384448021650314,1.9446601867675781,-2.040623426437378,0.5561504364013672,2.5183746814727783,5.198564517288961,-0.7001197934150696,-0.041871123015880585,-1.6384199301349085,-1.1424786379640234e-41,0.06653851270675659,0.984397292137146,-8.664050255902112e-05,-0.008842915296554565,0.8317872881889343,-0.0011199293658137321,-0.146446093916893
448.0,454.0,-1.5697,1.5517,9.865,-0.0435,-0.111,-0.1345,-1.6503483257689417,-0.042874015867710114,1.9612524509429932,-2.0373575687408447,0.5600719451904297,2.5378246307373047,5.194231170206823,-0.7269444465637207,-0.044362884014844894,-1.6384199301349085,-2.802596928649634e-45,0.08282671868801117,0.9843852519989014,-9.508096991339698e-05,0.0007169621530920267,0.8318036794662476,-0.0007222422282211483,-0.13482233881950378
448.0,454.0,-1.5697,1.5517,9.865,-0.0435,-0.111,-0.1345,-1.6506482563414515,-0.042047034949064255,1.9541821479797363,-2.034024238586426,0.5594330430030823,2.5973429679870605,5.189717936306753,-0.7617613077163696,-0.051870040595531464,-1.638383690510885,-0.0,0.07642367482185364,0.9843380451202393,-0.00016383641923312098,0.0009822288993746042,0.8317875266075134,-0.0012992307310923934,-0.20825132727622986
448.0,454.0,-1.5697,1.5517,9.865,-0.0435,-0.111,-0.1345,-1.6509953937926234,-0.042194824665784836,2.004760980606079,-2.029592990875244,0.549336850643158,2.5813889503479004,5.183424967318334,-0.8085408806800842,-0.03613486886024475,-1.6383760611163538,0.00017593440134078264,0.0721520483493805,0.9843459129333496,-0.00017030580784194171,-0.012651794590055943,0.8317956924438477,-0.0011055603390559554,-0.16573302447795868
448.0,454.0,-1.5697,1.5517,9.865,-0.0435,-0.111,-0.1345,-1.6512195072569789,-0.04141727462410927,1.9762853384017944,-2.0261588096618652,0.5505865812301636,2.565546989440918,5.1784177897270105,-0.8433114290237427,-0.044313497841358185,-1.6384242216693323,0.00016135528858285397,0.06633561849594116,0.9843380451202393,-0.0001799376477720216,-0.026144923642277718,0.8317875266075134,-0.000711053900886327,-0.17569202184677124
448.0,454.0,-1.5697,1.5517,9.865,-0.0435,-0.111,-0.1345,-1.6514469585814417,-0.039741408079862595,1.9640824794769287,-2.022832155227661,0.5539940595626831,2.5638179779052734,5.1733251986797235,-0.8707162141799927,-0.062186237424612045,-1.6383960882769983,0.00017480234964750707,0.09066247940063477,0.9843180775642395,-0.0001895850000437349,-0.01825556345283985,0.8317998051643372,-0.0005096091772429645,-0.16675661504268646
448.0,454.0,-1.5697,1.5517,9.865,-0.0435,-0.111,-0.1345,-1.6516748867430628,-0.034079886972904205,1.9487698078155518,-2.0184550285339355,0.5590865015983582,2.603565216064453,5.166106480150976,-0.907784640789032,-0.05447680503129959,-1.6383960882769983,0.0001788370282156393,0.07957562059164047,0.9842901229858398,-0.0003313013294246048,-0.01150735467672348,0.8317875266075134,-0.00021055297111161053,-0.16863705217838287
388.0,434.0,-1.5517,0.609,8.7852,-0.1078,-0.4679,-0.1093,-1.6519023380675257,-0.03129079192876816,2.0008859634399414,-2.0151541233062744,0.5582273006439209,2.5416882038116455,5.160547303944387,-0.9286912679672241,-0.049067892134189606,-1.6384084860431116,0.0001662722061155364,0.0796077623963356,0.9843339920043945,-0.00033263154909946024,-0.007251576520502567,0.8317674994468689,-0.00018735617049969733,-0.21752312779426575
388.0,434.0,-1.5517,0.609,8.7852,-0.1078,-0.4679,-0.1093,-1.6521102390685023,-0.032077908515930176,1.9707283973693848,-2.011796712875366,0.5544021725654602,2.5715599060058594,5.1549008069332025,-0.9599317908287048,-0.04930612072348595,-1.6383917967425745,0.00015407323371618986,0.07311716675758362,0.9842982292175293,-0.0003308402665425092,-0.02423275075852871,0.8317995667457581,-0.00015506928320974112,-0.17060086131095886
388.0,434.0,-1.5517,0.609,8.7852,-0.1078,-0.4679,-0.1093,-1.6524378261961878,-0.038561202585697174,2.0132246017456055,-2.0072743892669678,0.5656596422195435,2.578242063522339,5.147080021887579,-0.9880332350730896,-0.055950555950403214,-1.6383960882769983,0.0001603693817742169,0.07174155116081238,0.9843142032623291,-0.00033982392051257193,-0.014469257555902004,0.8318195939064026,0.0001586867292644456,-0.14331649243831635
388.0,434.0,-1.5517,0.609,8.7852,-0.1078,-0.4679,-0.1093,-1.6526819668211878,-0.04514939337968826,1.908149242401123,-2.003915786743164,0.5690767765045166,2.5835728645324707,5.141100603133001,-1.0092267990112305,-0.03908336162567139,-1.6384361425982874,0.00015034452371764928,0.07496882975101471,0.9843102097511292,-0.00029206578619778156,-0.03611418604850769,0.8318114876747131,0.00012557723675854504,-0.19516414403915405
388.0,434.0,-1.5517,0.609,8.7852,-0.1078,-0.4679,-0.1093,-1.6530853710570277,-0.04932105168700218,1.960363507270813,-1.9992749691009521,0.5625001788139343,2.562464714050293,5.132845955878057,-1.0405038595199585,-0.056864287704229355,-1.6383760611163538,0.00013875492732040584,0.0842212587594986,0.9843621253967285,-0.00027816399233415723,-0.02020660974085331,0.8318560123443604,1.1909027097800617e-09,-0.22118675708770752
388.0,434.0,-1.5517,0.609,8.7852,-0.1078,-0.4679,-0.1093,-1.6533695660033167,-0.055021144449710846,1.9439128637313843,-1.995869755744934,0.564477801322937,2.5725255012512207,5.126538681774893,-1.0603138208389282,-0.038446832448244095,-1.6384199301349085,0.00013117110938765109,0.08817297220230103,0.9843384027481079,-0.000240965629927814,-0.027797769755125046,0.8317351937294006,2.8758903082310577e-15,-0.22729966044425964
388.0,434.0,-1.5517,0.609,8.7852,-0.1078,-0.4679,-0.1093,-1.6536842785277308,-0.06001151353120804,1.9798266887664795,-1.992361307144165,0.5710639357566833,2.596364736557007,5.12002985456542,-1.0784622430801392,-0.044529788196086884,-1.638359848652975,0.00012437345867510885,0.0745890736579895,0.9842780232429504,-0.000247886375291273,-0.03099406138062477,0.8318158984184265,6.944936529367762e-21,-0.17047002911567688
388.0,434.0,-1.5517,0.609,8.7852,-0.1078,-0.4679,-0.1093,-1.654168268243307,-0.06253521144390106,2.011237859725952,-1.98780357837677,0.5793329477310181,2.6213064193725586,5.111268090992727,-1.0947422981262207,-0.044623956084251404,-1.6383960882769983,0.00011839281796710566,0.08130496740341187,0.9842941761016846,-0.0002142049343092367,-0.044496506452560425,0.8317434191703796,2.250071176264899e-28,-0.1720408797264099
388.0,434.0,-1.5517,0.609,8.7852,-0.1078,-0.4679,-0.1093,-1.6545635662474574,-0.0624854676425457,2.021484613418579,-1.9843084812164307,0.579375147819519,2.635890007019043,5.104601877718725,-1.108067512512207,-0.0564286895096302,-1.638388458882467,0.00010973159805871546,0.0792749896645546,0.9842416048049927,-0.0002221272879978642,-0.037003543227910995,0.8318118453025818,5.433657433473752e-34,-0.14485211670398712
388.0,434.0,-1.5517,0.609,8.7852,-0.1078,-0.4679,-0.1093,-1.655043741265768,-0.06283845007419586,2.0031135082244873,-1.9808945655822754,0.5764679312705994,2.5730199813842773,5.0980684635932825,-1.124780297279358,-0.06223972886800766,-1.6383522192584437,0.0001022510914481245,0.06349290162324905,0.9842939376831055,-0.0002035406359937042,-0.03179747611284256,0.8318200707435608,-0.00026766801602207124,-0.1831364929676056
388.0,434.0,-1.5517,0.609,8.7852,-0.1078,-0.4679,-0.1093,-1.6555868587889613,-0.06500359624624252,2.022029399871826,-1.9763344526290894,0.5849171280860901,2.6115942001342773,5.089028972178259,-1.141417384147644,-0.024166248738765717,-1.6383922735797327,9.373157081427053e-05,0.0742245689034462,0.9843182563781738,-0.0001639725232962519,-0.04777534306049347,0.8317916393280029,-0.0001782678154995665,-0.17370201647281647
388.0,434.0,-1.5517,0.609,8.7852,-0.1078,-0.4679,-0.1093,-1.6559950313963832,-0.06263232976198196,2.009549617767334,-1.9729313850402832,0.5894206762313843,2.635265350341797,5.081998365908422,-1.1508886814117432,-0.02697717398405075,-1.6383679548846644,8.821889787213877e-05,0.07113246619701385,0.9842619895935059,-0.00014781202480662614,-0.041858967393636703,0.8317916393280029,-0.00014061016554478556,-0.19011276960372925
388.0,434.0,-1.5517,0.609,8.7852,-0.1078,-0.4679,-0.1093,-1.6563860378661097,-0.05823187157511711,2.059483528137207,-1.9693949222564697,0.5758289098739624,2.590465784072876,5.0749030885990045,-1.1642881631851196,-0.02349591627717018,-1.6383760611163538,8.331859135068953e-05,0.07413619011640549,0.9842697381973267,-0.00016144609253387898,-0.046292662620544434,0.8318400382995605,-8.60495783854276e-05,-0.15854795277118683
388.0,434.0,-1.5517,0.609,8.7852,-0.1078,-0.4679,-0.1093,-1.6568294964232386,-0.05802388861775398,2.035177230834961,-1.9646912813186646,0.570139467716217,2.593437671661377,5.065773206740179,-1.1807018518447876,-0.038064293563365936,-1.63837176958193,7.757326238788664e-05,0.06915098428726196,0.9842856526374817,-0.00016783045430202037,-0.042295265942811966,0.8318077921867371,-6.119463068898767e-05,-0.14393948018550873
388.0,452.0,0.4337,-0.0861,9.2883,-0.161,-0.684,-0.0907,-1.6571933231749476,-0.05962752178311348,2.0749058723449707,-1.9612038135528564,0.5747000575065613,2.5749573707580566,5.058626967459478,-1.186509132385254,-0.03133168816566467,-1.6383798758136194,7.375884160865098e-05,0.0657205581665039,0.9843019843101501,-0.00015576738223899156,-0.061190422624349594,0.8318237662315369,-3.566687611922248e-09,-0.211319237947464
388.0,452.0,0.4337,-0.0861,9.2883,-0.161,-0.684,-0.0907,-1.6575046978392542,-0.05949227139353752,2.0145277976989746,-1.9578033685684204,0.5762614607810974,2.6086974143981934,5.051412302046575,-1.1933507919311523,-0.03442534804344177,-1.6383841673480433,7.030184497125447e-05,0.07577872276306152,0.9842420220375061,-0.00016563422104809433,-0.049628846347332,0.8317756652832031,-8.613131604153553e-15,-0.16745999455451965
388.0,452.0,0.4337,-0.0861,9.2883,-0.161,-0.684,-0.0907,-1.6580363712706507,-0.057629890739917755,2.138378143310547,-1.9532890319824219,0.5735943913459778,2.591458559036255,5.04172648766593,-1.1980432271957397,-0.018282368779182434,-1.6383197943316858,6.616709288209677e-05,0.07372172176837921,0.9843183159828186,-0.00015175425505731255,-0.051972031593322754,0.8317956924438477,-2.7905448389036503e-22,-0.17958895862102509
388.0,452.0,0.4337,-0.0861,9.2883,-0.161,-0.684,-0.0907,-1.658379694024557,-0.05871417373418808,2.0740373134613037,-1.9498564004898071,0.5713785886764526,2.5724844932556152,5.03459860661582,-1.2043282985687256,-0.03571696579456329,-1.6383922735797327,6.337158993119374e-05,0.06612945348024368,0.9842619895935059,-0.00016766678891144693,-0.045471034944057465,0.8318241834640503,-6.738837060613202e-28,-0.1923421025276184
388.0,452.0,0.4337,-0.0861,9.2883,-0.161,-0.684,-0.0907,-1.6588322124876917,-0.06389822065830231,2.0683200359344482,-1.946403980255127,0.5768145322799683,2.614575147628784,5.0274778483207605,-1.2025492191314697,-0.029979774728417397,-1.6383722464190882,6.080284947529435e-05,0.06959809362888336,0.9842898845672607,-0.0001509189751232043,-0.052876003086566925,0.8318036794662476,-1.627349787503567e-33,-0.16449061036109924
388.0,452.0,0.4337,-0.0861,9.2883,-0.161,-0.684,-0.0907,-1.6593429050841273,-0.0717010498046875,2.066295862197876,-1.9418022632598877,0.582270085811615,2.609689712524414,5.0179525194461725,-1.1912717819213867,-0.01270509883761406,-1.638359848652975,5.768520713900216e-05,0.05685821548104286,0.984281599521637,-0.00015876725956331939,-0.05514614284038544,0.8317554593086243,-0.00013129190483596176,-0.1458326280117035
388.0,452.0,0.4337,-0.0861,9.2883,-0.161,-0.684,-0.0907,-1.6597825489439906,-0.0790032371878624,2.052989959716797,-1.938413381576538,0.5686601400375366,2.5996837615966797,5.010682660132208,-1.1925338506698608,-0.006832277402281761,-1.6383522192584437,5.554897870752029e-05,0.058119285851716995,0.9842939376831055,-0.00014666709466837347,-0.049412552267313004,0.8317675590515137,-0.00021017789549659938,-0.16560226678848267
388.0,452.0,0.4337,-0.0861,9.2883,-0.161,-0.684,-0.0907,-1.6604534588255824,-0.0888795554637909,2.0379583835601807,-1.933681607246399,0.5616893172264099,2.567662239074707,5.00130249836997,-1.1865592002868652,-0.032171830534935,-1.6383722464190882,5.293518916005269e-05,0.057505685836076736,0.9842697381973267,-0.00013229377509560436,-0.061903923749923706,0.8317797183990479,-0.00017461026436649263,-0.14954613149166107
388.0,452.0,0.4337,-0.0861,9.2883,-0.161,-0.684,-0.0907,-1.6609488926329554,-0.08844121545553207,2.153365135192871,-1.9303200244903564,0.5640528202056885,2.5857152938842773,4.9941435036952875,-1.1778632402420044,-0.03866453468799591,-1.6383965651141565,5.113079896545969e-05,0.05725782364606857,0.9842537641525269,-0.0001333329128101468,-0.04894057661294937,0.8317635655403137,-0.0001524288090877235,-0.1387079358100891
388.0,452.0,0.4337,-0.0861,9.2883,-0.161,-0.684,-0.0907,-1.6615449390807093,-0.0759374350309372,2.1111934185028076,-1.9270178079605103,0.5643994808197021,2.6086478233337402,4.9869936881359,-1.1659421920776367,-0.03086289018392563,-1.6383522192584437,1.2704302207566798e-05,0.05252642184495926,0.9842820167541504,-0.0001345592172583565,-0.058476824313402176,0.8317756652832031,-0.00013524843961931765,-0.16579803824424744
388.0,452.0,0.4337,-0.0861,9.2883,-0.161,-0.684,-0.0907,-1.6621157131590785,-0.06455720961093903,2.1658782958984375,-1.9225788116455078,0.5558643937110901,2.5927553176879883,4.977706450014868,-1.1579281091690063,-0.0034018228761851788,-1.6383679548846644,2.3089442857671116e-10,0.051879942417144775,0.9842820167541504,-0.00013268354814499617,-0.06339054554700851,0.8317756652832031,-9.826970199355856e-05,-0.1713251769542694
388.0,452.0,0.4337,-0.0861,9.2883,-0.161,-0.684,-0.0907,-1.6625272236266078,-0.06424687057733536,2.1567842960357666,-1.9193190336227417,0.5442697405815125,2.5817394256591797,4.970962333470144,-1.155584454536438,0.024912236258387566,-1.6384041945086878,6.427031216255097e-14,0.05307537317276001,0.9842860102653503,-0.0001337800786131993,-0.06920664757490158,0.8318036794662476,-8.03144575911574e-05,-0.12440459430217743
388.0,452.0,0.4337,-0.0861,9.2883,-0.161,-0.684,-0.0907,-1.6628910503783167,-0.06858877837657928,2.158663749694824,-1.9160065650939941,0.540007472038269,2.6281356811523438,4.964104729681768,-1.146089792251587,0.014432869851589203,-1.638376537953512,1.7889881785215108e-17,0.043116889894008636,0.9842419624328613,-0.00013345225306693465,-0.06271520256996155,0.8318036794662476,3.7352583603933454e-05,-0.1643783301115036
405.0,559.0,1.989,-0.1801,9.1795,-0.1469,-0.5883,-0.0921,-1.663365980187887,-0.07144483178853989,2.1468617916107178,-1.911820650100708,0.5371305346488953,2.6192574501037598,4.955074253469267,-1.1227796077728271,0.0007192366756498814,-1.638359848652975,3.2513978846047447e-22,0.04674256965517998,0.9842541813850403,-0.00012505445920396596,-0.05840401351451874,0.8317757248878479,4.456526312424103e-07,-0.11137621104717255
405.0,559.0,1.989,-0.1801,9.1795,-0.1469,-0.5883,-0.0921,-1.6637383900084437,-0.06627561897039413,2.1792821884155273,-1.908623218536377,0.5308840870857239,2.61185884475708,4.948300125985899,-1.1080516576766968,0.013773850165307522,-1.6383679548846644,9.050385461446897e-26,0.030916057527065277,0.984214186668396,-0.00013850296090822667,-0.07156215608119965,0.831771731376648,1.0761987004684337e-12,-0.11246271431446075
405.0,559.0,1.989,-0.1801,9.1795,-0.1469,-0.5883,-0.0921,-1.6641298733153285,-0.061787329614162445,2.1928184032440186,-1.905395269393921,0.5207881927490234,2.6284780502319336,4.941818836122312,-1.0935885906219482,0.029952874407172203,-1.6383798758136194,2.5192081498574167e-29,0.04306475445628166,0.9841777682304382,-0.00014986620226409286,-0.07469604164361954,0.8317112922668457,2.5988931239813685e-18,-0.11455808579921722
405.0,559.0,1.989,-0.1801,9.1795,-0.1469,-0.5883,-0.0921,-1.6646610699095667,-0.06274989992380142,2.2210967540740967,-1.9011656045913696,0.5217980146408081,2.659555435180664,4.933236214309492,-1.0612736940383911,0.034936413168907166,-1.6383922735797327,4.578536261950905e-34,0.03330704942345619,0.9842540621757507,-0.00015656749019399285,-0.07558448612689972,0.8317194581031799,8.42008313298498e-26,-0.16919618844985962
405.0,559.0,1.989,-0.1801,9.1795,-0.1469,-0.5883,-0.0921,-1.6650530300536097,-0.06380774080753326,2.218707323074341,-1.8979967832565308,0.5218482613563538,2.614928960800171,4.926863255887785,-1.0375076532363892,0.029002372175455093,-1.6383560339557093,1.274452366814749e-37,0.03026125207543373,0.9842660427093506,-0.0002618923026602715,-0.06883911788463593,0.8317556381225586,2.0333508499450394e-31,-0.1591588258743286
405.0,559.0,1.989,-0.1801,9.1795,-0.1469,-0.5883,-0.0921,-1.6654077968993128,-0.06928903609514236,2.2546486854553223,-1.8949390649795532,0.5163700580596924,2.618192672729492,4.9207073775823496,-1.0190377235412598,0.026133202016353607,-1.638376537953512,1.0461135389050469e-05,0.028374139219522476,0.984197735786438,-0.00026760631590150297,-0.07393108308315277,0.8317434191703796,4.910303177098095e-37,-0.10375075042247772
405.0,559.0,1.989,-0.1801,9.1795,-0.1469,-0.5883,-0.0921,-1.665967126885885,-0.0716838538646698,2.2560842037200928,-1.890847086906433,0.5098401308059692,2.6908020973205566,4.912749337940969,-0.9958864450454712,0.03509356454014778,-1.6383922735797327,1.901259566450264e-10,0.03509024530649185,0.984218180179596,-0.0002606732305139303,-0.07446953654289246,0.8317838311195374,1.5414283107572988e-44,-0.10976731777191162
405.0,559.0,1.989,-0.1801,9.1795,-0.1469,-0.5883,-0.0921,-1.6663667164244593,-0.07073690742254257,2.279357433319092,-1.8878204822540283,0.5042067170143127,2.5718002319335938,4.906836065440931,-0.9768434762954712,0.03709869459271431,-1.6383560339557093,5.292225262621547e-14,0.03333345800638199,0.9841503500938416,-0.0002647532965056598,-0.08343686908483505,0.8317758440971375,-0.00024730790755711496,-0.11969462782144547
405.0,559.0,1.989,-0.1801,9.1795,-0.1469,-0.5883,-0.0921,-1.6669789753355921,-0.06732793152332306,2.2996013164520264,-1.8838105201721191,0.5058433413505554,2.604048728942871,4.899069535523214,-0.9516969919204712,0.04276498034596443,-1.6383398214923304,9.618360003020397e-19,0.019235679879784584,0.984266459941864,-0.00038586711161769927,-0.07179759442806244,0.831731379032135,-0.0008245779317803681,-0.13973259925842285
405.0,559.0,1.989,-0.1801,9.1795,-0.1469,-0.5883,-0.0921,-1.6673780880370082,-0.06439968198537827,2.272364854812622,-1.8809267282485962,0.49953725934028625,2.6171088218688965,4.893455195217886,-0.9294919967651367,0.037173230201005936,-1.638376537953512,2.6773060647697087e-22,0.021283656358718872,0.9842262268066406,-0.0006606974056921899,-0.07604160159826279,0.8317678570747375,-0.0007783900946378708,-0.12416417896747589
405.0,559.0,1.989,-0.1801,9.1795,-0.1469,-0.5883,-0.0921,-1.6677295170226039,-0.06317638605833054,2.3185369968414307,-1.877987027168274,0.4930901825428009,2.6072139739990234,4.88784051218585,-0.9161153435707092,0.05275078862905502,-1.6384242216693323,7.45238068127696e-26,0.03310169652104378,0.9842100143432617,-0.0009802841814234853,-0.07099645584821701,0.8317316770553589,-0.0006369755137711763,-0.09842853248119354
405.0,559.0,1.989,-0.1801,9.1795,-0.1469,-0.5883,-0.0921,-1.6683412990965785,-0.0675470158457756,2.2831194400787354,-1.8740525245666504,0.48027294874191284,2.620603084564209,4.880723508983412,-0.9015259146690369,0.0323481485247612,-1.6383679548846644,1.3544333671191478e-30,0.031065624207258224,0.9841747283935547,-0.002613960998132825,-0.0874127745628357,0.8317036628723145,-0.001047943951562047,-0.10079926252365112
405.0,559.0,1.989,-0.1801,9.1795,-0.1469,-0.5883,-0.0921,-1.668680330316061,-0.06878498941659927,2.2970640659332275,-1.871129035949707,0.47197625041007996,2.5650837421417236,4.875418099551954,-0.8924589157104492,0.03166336193680763,-1.6384123007403772,3.7701152769343206e-34,0.026557208970189095,0.9840949773788452,-0.006853981874883175,-0.10455593466758728,0.8316752910614014,-0.0018099232111126184,-0.13917571306228638
405.0,559.0,1.989,-0.1801,9.1795,-0.1469,-0.5883,-0.0921,-1.6690598926939906,-0.065914086997509,2.253918170928955,-1.868257999420166,0.468807190656662,2.6102466583251953,4.870009171753683,-0.8703364729881287,0.015127521008253098,-1.6383360067950647,1.0494253573885953e-37,0.02830493077635765,0.984122633934021,-0.017165247350931168,-0.0915960893034935,0.8316996097564697,-0.0023052033502608538,-0.11850742995738983
410.0,588.0,1.8293,0.0975,8.9276,-0.1089,-0.4023,-0.1141,-1.6695882282652796,-0.06171067804098129,2.289107084274292,-1.8644909858703613,0.46357262134552,2.6199727058410645,4.8631354598100565,-0.8491970896720886,0.027039580047130585,-1.6383522192584437,1.907167209946076e-42,0.033148832619190216,0.9839475750923157,-0.014162342064082623,-0.10322976112365723,0.8317159414291382,-0.0028853381518274546,-0.12371352314949036
410.0,588.0,1.8293,0.0975,8.9276,-0.1089,-0.4023,-0.1141,-1.6699391804137171,-0.05993378162384033,2.307222366333008,-1.8617910146713257,0.45996028184890747,2.578497886657715,4.858005749970236,-0.8361993432044983,0.02747800573706627,-1.6383355299579065,0.0,0.009119262918829918,0.9839074611663818,-0.008491993881762028,-0.102387934923172,0.8316435813903809,-0.0028207949362695217,-0.14575761556625366
410.0,588.0,1.8293,0.0975,8.9276,-0.1089,-0.4023,-0.1141,-1.6702586613097132,-0.06094049662351608,2.318397283554077,-1.859046220779419,0.45970913767814636,2.570530891418457,4.853227811842718,-0.8141987323760986,0.04199587553739548,-1.6383684317218226,0.0,0.02022738754749298,0.9837920665740967,-0.004823528695851564,-0.09071332216262817,0.8316558003425598,-0.0023885886184871197,-0.12262268364429474
410.0,588.0,1.8293,0.0975,8.9276,-0.1089,-0.4023,-0.1141,-1.6708346805968226,-0.06650738418102264,2.282395124435425,-1.8554701805114746,0.4508216381072998,2.5652096271514893,4.846868935018339,-0.7987052798271179,0.04104035347700119,-1.638364617024557,0.0,0.018042441457509995,0.9838199615478516,-0.002158723073080182,-0.09754806011915207,0.8316436409950256,-0.0013955783797428012,-0.12335637956857681
410.0,588.0,1.8293,0.0975,8.9276,-0.1089,-0.4023,-0.1141,-1.6712218723692835,-0.06841884553432465,2.3455066680908203,-1.8527424335479736,0.45196565985679626,2.5620760917663574,4.8421713439519785,-0.7798227667808533,0.029983729124069214,-1.6383479277240198,0.0,0.00501900352537632,0.9838280081748962,-0.0017121044220402837,-0.09692713618278503,0.8316476345062256,-0.0007183871348388493,-0.15257883071899414
410.0,588.0,1.8293,0.0975,8.9276,-0.1089,-0.4023,-0.1141,-1.6715971432127894,-0.0687236487865448,2.354051113128662,-1.8501076698303223,0.4481699466705322,2.581777572631836,4.8374061463172815,-0.7680289149284363,0.04080292955040932,-1.6383479277240198,0.0,0.01256871223449707,0.9837841987609863,-0.0021950199734419584,-0.10862579941749573,0.8316677212715149,-0.0004855990409851074,-0.14001668989658356
410.0,588.0,1.8293,0.0975,8.9276,-0.1089,-0.4023,-0.1141,-1.6721731624998988,-0.06661675125360489,2.328273057937622,-1.846522569656372,0.4410519301891327,2.535202980041504,4.831345635443487,-0.7436573505401611,0.031076446175575256,-1.638343636189596,0.0,0.01800060272216797,0.983776330947876,-0.002647829707711935,-0.11193789541721344,0.8316034078598022,-0.0004747932543978095,-0.1546713262796402
410.0,588.0,1.8293,0.0975,8.9276,-0.1089,-0.4023,-0.1141,-1.6725641689696253,-0.06745568662881851,2.293745279312134,-1.8438522815704346,0.4280114769935608,2.6186769008636475,4.826902906387605,-0.7371318340301514,0.0378531739115715,-1.6383727232562464,0.0,0.010827546939253807,0.9837520122528076,-0.0034856388811022043,-0.11172027885913849,0.8315832614898682,-0.0003400165296625346,-0.16142818331718445
410.0,588.0,1.8293,0.0975,8.9276,-0.1089,-0.4023,-0.1141,-1.6729561291136683,-0.0721481442451477,2.337987184524536,-1.8412286043167114,0.42265182733535767,2.6113438606262207,4.822544339090147,-0.7173390984535217,0.043308574706315994,-1.6383279005633753,0.0,0.017057090997695923,0.9837520122528076,-0.004084952175617218,-0.11570608615875244,0.8316313624382019,-0.0002770611026789993,-0.1098889485001564
410.0,588.0,1.8293,0.0975,8.9276,-0.1089,-0.4023,-0.1141,-1.67352356533193,-0.07112506031990051,2.320251941680908,-1.8378626108169556,0.41610968112945557,2.5329232215881348,4.816953818290987,-0.7028829455375671,0.03246317058801651,-1.6383279005633753,0.0,0.00903447438031435,0.9836884140968323,-0.004656325094401836,-0.11865857243537903,0.8316195011138916,-0.0001131875324063003,-0.17410606145858765
410.0,588.0,1.8293,0.0975,8.9276,-0.1089,-0.4023,-0.1141,-1.6738907299437464,-0.06980226188898087,2.3512511253356934,-1.835444450378418,0.40774112939834595,2.525122880935669,4.812854933529653,-0.6872936487197876,0.047787029296159744,-1.6383116880999964,0.0,0.019687000662088394,0.9836525321006775,-0.005870611406862736,-0.11541959643363953,0.8316234946250916,-0.00015541980974376202,-0.12890386581420898
410.0,588.0,1.8293,0.0975,8.9276,-0.1089,-0.4023,-0.1141,-1.674418111840719,-0.06636986136436462,2.394132137298584,-1.8321739435195923,0.4016617238521576,2.526033878326416,4.807453232794561,-0.6709990501403809,0.03798433020710945,-1.6383479277240198,0.0,0.006284854840487242,0.9835770726203918,-0.007534556556493044,-0.12125439941883087,0.8316476345062256,-0.00017328369722235948,-0.1614285409450531
410.0,588.0,1.8293,0.0975,8.9276,-0.1089,-0.4023,-0.1141,-1.674854417840475,-0.06225519999861717,2.3644962310791016,-1.8297829627990723,0.4005538523197174,2.539487361907959,4.8033693609531305,-0.6526679396629333,0.051077283918857574,-1.638343636189596,0.0,0.019298283383250237,0.9836054444313049,-0.010135309770703316,-0.10837668925523758,0.8316758275032043,-8.976707613328472e-05,-0.11944557726383209
398.0,559.0,1.8927,-0.7376,9.3314,-0.089,-0.2443,-0.1846,-1.6752177677550257,-0.059619586914777756,2.385201930999756,-1.8274221420288086,0.39792054891586304,2.560068130493164,4.799555364042082,-0.6390747427940369,0.06389390677213669,-1.6383236090289515,0.0,0.024197733029723167,0.9835250377655029,-0.012624900788068771,-0.1261361688375473,0.8316517472267151,-6.690144073218107e-05,-0.14042256772518158
398.0,559.0,1.8927,-0.7376,9.3314,-0.089,-0.2443,-0.1846,-1.6757127247252406,-0.06230311840772629,2.4345264434814453,-1.8242665529251099,0.3807947635650635,2.4687483310699463,4.794468621700563,-0.6209258437156677,0.0569937601685524,-1.638360325490133,0.0,0.0072189210914075375,0.9833177924156189,-0.019280947744846344,-0.11876223981380463,0.8316195011138916,-1.8042425192765776e-11,-0.11005308479070663
398.0,559.0,1.8927,-0.7376,9.3314,-0.089,-0.2443,-0.1846,-1.676100870172018,-0.06299526244401932,2.436965227127075,-1.8220365047454834,0.38052576780319214,2.4979593753814697,4.790840524225988,-0.6088948845863342,0.05843241885304451,-1.638343636189596,0.0,0.006336566526442766,0.9831419587135315,-0.02896829880774021,-0.14408837258815765,0.8316231966018677,-4.357033586791184e-17,-0.12729941308498383
398.0,559.0,1.8927,-0.7376,9.3314,-0.089,-0.2443,-0.1846,-1.6764522991576136,-0.06237480416893959,2.436624765396118,-1.819788932800293,0.37489181756973267,2.548168182373047,4.787220778852262,-0.6019537448883057,0.047276876866817474,-1.6383522192584437,0.0,-0.0004959175130352378,0.9830225706100464,-0.045673370361328125,-0.13354450464248657,0.8316718339920044,-1.0521721362020918e-22,-0.1846669465303421
398.0,559.0,1.8927,-0.7376,9.3314,-0.089,-0.2443,-0.1846,-1.6768833599486292,-0.056699272245168686,2.4055562019348145,-1.8168823719024658,0.3739687204360962,2.5098133087158203,4.7825408829148195,-0.5897915363311768,0.05541737750172615,-1.6383441130267542,0.0,0.0019955215975642204,0.9824931025505066,-0.08598960191011429,-0.13847503066062927,0.8316313624382019,-3.4089046532038295e-30,-0.08899025619029999
398.0,559.0,1.8927,-0.7376,9.3314,-0.089,-0.2443,-0.1846,-1.6772390804686488,-0.05342204496264458,2.4051077365875244,-1.8146169185638428,0.35773542523384094,2.464672803878784,4.779051425843992,-0.5869265794754028,0.06931321322917938,-1.6383560339557093,0.0,0.0011698430171236396,0.9818236231803894,-0.12018326669931412,-0.17411881685256958,0.8316634297370911,-8.232103024615342e-36,-0.1312745362520218
398.0,559.0,1.8927,-0.7376,9.3314,-0.089,-0.2443,-0.1846,-1.677591463128561,-0.05577901750802994,2.4229743480682373,-1.812404751777649,0.35215261578559875,2.5029211044311523,4.7755441320832155,-0.5794184803962708,0.06392469257116318,-1.638343636189596,0.0,0.00465526944026351,0.9810386300086975,-0.12249384820461273,-0.16717632114887238,0.8316475749015808,-1.988022131337618e-41,-0.14362333714962006
398.0,559.0,1.8927,-0.7376,9.3314,-0.089,-0.2443,-0.1846,-1.678018709222311,-0.057151664048433304,2.4153599739074707,-1.8096473217010498,0.3488050699234009,2.478078603744507,4.770995295583763,-0.5571527481079102,0.07809214293956757,-1.638331715260641,0.0,-0.012644356116652489,0.9802059531211853,-0.0949493944644928,-0.15724125504493713,0.8316875100135803,0.0003369480837136507,-0.15129825472831726
398.0,559.0,1.8927,-0.7376,9.3314,-0.089,-0.2443,-0.1846,-1.6783300838866175,-0.0594051368534565,2.3976657390594482,-1.8076030015945435,0.3426779508590698,2.5296311378479004,4.7676943121250055,-0.5485528707504272,0.07139350473880768,-1.6383965651141565,0.0,0.00806483719497919,0.9797236919403076,-0.08855240046977997,-0.15749265253543854,0.8317359089851379,0.00033135092235170305,-0.14025557041168213
398.0,559.0,1.8927,-0.7376,9.3314,-0.089,-0.2443,-0.1846,-1.6786939106383265,-0.06103966012597084,2.4526076316833496,-1.8055264949798584,0.3341677188873291,2.4585061073303223,4.764321967005291,-0.5465521216392517,0.07225571572780609,-1.638360325490133,0.0,0.005286579020321369,0.9790905117988586,-0.11122091859579086,-0.16044899821281433,0.8316916823387146,0.0002238952147308737,-0.1173475980758667
