ramyac6/ROB537/final_project/csv/all/bad_59.csv
tof_0,tof_1,accelx,accely,accelz,gyrox,gyroy,gyroz,shoulder_lift_joint_position,shoulder_lift_joint_velocity,shoulder_lift_joint_effort,elbow_joint_position,elbow_joint_velocity,elbow_joint_effort,wrist_1_joint_position,wrist_1_joint_velocity,wrist_1_joint_effort,wrist_2_joint_position,wrist_2_joint_velocity,wrist_2_joint_effort,wrist_3_joint_position,wrist_3_joint_velocity,wrist_3_joint_effort,shoulder_pan_joint_position,shoulder_pan_joint_velocity,shoulder_pan_joint_effort
771.0,504.0,-3.2728,-0.277,9.265,-0.0412,0.0243,-0.1132,-2.1975470981993617,0.0,4.330665588378906,-1.5628948211669922,-0.0,1.8050153255462646,5.5221197483833215,0.0,0.22438058257102966,-1.4031899611102503,0.0,-0.01685912348330021,1.3960907459259033,0.0,0.0025254683569073677,0.8091989159584045,0.0,0.0444863885641098
771.0,504.0,-3.2728,-0.277,9.265,-0.0412,0.0243,-0.1132,-2.1975513897337855,0.0,4.322268009185791,-1.5629067420959473,-0.0,1.7661666870117188,5.522123801499166,0.0,0.2427889108657837,-1.403198544179098,0.0,-0.020407121628522873,1.396054744720459,0.0,0.001290156040340662,0.8091543912887573,0.0,0.007362514268606901
771.0,504.0,-3.2728,-0.277,9.265,-0.0412,0.0243,-0.1132,-2.1975394688048304,0.0,4.2934417724609375,-1.5628747940063477,-0.0,1.7909835577011108,5.522168087750234,0.0,0.23483163118362427,-1.403198544179098,0.0,-0.02659785747528076,1.396103024482727,0.0,-0.010451930575072765,0.8091261386871338,0.0,-0.04566499963402748
771.0,504.0,-3.2728,-0.277,9.265,-0.0412,0.0243,-0.1132,-2.1975470981993617,0.0,4.314075469970703,-1.5628665685653687,-0.0,1.7561978101730347,5.522103714733877,0.0,0.24508437514305115,-1.4031780401812952,0.0,-0.01005346979945898,1.3961193561553955,0.0,0.0038993912748992443,0.8091544508934021,0.0,-0.013766010291874409
771.0,504.0,-3.2728,-0.277,9.265,-0.0412,0.0243,-0.1132,-2.197555204431051,0.0,4.347214698791504,-1.562882661819458,-0.0,1.7578598260879517,5.5220873830612085,0.0,0.23951855301856995,-1.4031861464129847,0.0,-0.020528990775346756,1.396054744720459,0.0,-0.005637734197080135,0.8091466426849365,0.0,0.0003765244036912918
771.0,504.0,-3.2728,-0.277,9.265,-0.0412,0.0243,-0.1132,-2.1974874935545863,0.0,4.320769309997559,-1.5628907680511475,-0.0,1.763413906097412,5.5221279738243005,0.0,0.231031596660614,-1.4031899611102503,0.0,-0.023979466408491135,1.396066665649414,0.0,-0.004011564888060093,0.8091626763343811,0.0,-0.009551621973514557
771.0,504.0,-3.2728,-0.277,9.265,-0.0412,0.0243,-0.1132,-2.1975470981993617,0.0,4.315516471862793,-1.5628870725631714,-0.0,1.8303565979003906,5.522111582546987,0.0,0.24097807705402374,-1.4032018820392054,0.0,-0.027800725772976875,1.3960427045822144,0.0,0.013135364279150963,0.8091461658477783,0.0,-0.02460641786456108
771.0,504.0,-3.2728,-0.277,9.265,-0.0412,0.0243,-0.1132,-2.197503706017965,0.0,4.252505302429199,-1.5629228353500366,-0.0,1.802396297454834,5.522135722428121,0.0,0.23210573196411133,-1.403182331715719,0.0,-0.02545810490846634,1.3961153030395508,0.0,-0.00194924371317029,0.809194803237915,0.0,0.033901773393154144
771.0,504.0,-3.2728,-0.277,9.265,-0.0412,0.0243,-0.1132,-2.1975590191283167,0.0,4.35016393661499,-1.5629068613052368,-0.0,1.7490968704223633,5.522115695267477,0.0,0.23807960748672485,-1.403182331715719,0.0,-0.012046728283166885,1.3960705995559692,0.0,0.004981467965990305,0.80918288230896,0.0,0.02738814800977707
773.0,624.0,-3.2459,-0.2279,9.2273,-0.0295,0.0298,-0.1089,-2.197531362573141,0.0,4.303154468536377,-1.562882661819458,-0.0,1.8004634380340576,5.522135782032766,0.0,0.2332296222448349,-1.403222386037008,0.0,-0.025102633982896805,1.3960386514663696,0.0,0.004730244632810354,0.8090857267379761,0.0,-0.007514269556850195
773.0,624.0,-3.2459,-0.2279,9.2273,-0.0295,0.0298,-0.1089,-2.197555204431051,0.0,4.323907852172852,-1.5628867149353027,-0.0,1.7583980560302734,5.522151756077566,0.0,0.2502664625644684,-1.4031942526446741,0.0,-0.039572179317474365,1.3960747718811035,0.0,0.005187045782804489,0.8091344237327576,0.0,-0.0014927498996257782
773.0,624.0,-3.2459,-0.2279,9.2273,-0.0295,0.0298,-0.1089,-2.1975394688048304,0.0,4.308138847351074,-1.5628948211669922,-0.0,1.759789228439331,5.5221197483833215,0.0,0.22153340280056,-1.4032586256610315,0.0,-0.021486394107341766,1.3960987329483032,0.0,-0.007120577152818441,0.80918288230896,0.0,-0.0038325712084770203
773.0,624.0,-3.2459,-0.2279,9.2273,-0.0295,0.0298,-0.1089,-2.1975113354124964,0.0,4.280636310577393,-1.562870740890503,-0.0,1.807816505432129,5.522155868798055,0.0,0.24593864381313324,-1.4032185713397425,0.0,-0.022815529257059097,1.3960827589035034,0.0,-0.0010510414140298963,0.8091585040092468,0.0,0.0019497559405863285
773.0,624.0,-3.2459,-0.2279,9.2273,-0.0295,0.0298,-0.1089,-2.19757141689443,0.0,4.307561874389648,-1.5628747940063477,-0.0,1.7844202518463135,5.522155809193411,0.0,0.24249987304210663,-1.403250519429342,0.0,-0.016626903787255287,1.3960826396942139,0.0,-0.0008006473653949797,0.8091344237327576,0.0,0.019365308806300163
773.0,624.0,-3.2459,-0.2279,9.2273,-0.0295,0.0298,-0.1089,-2.197531362573141,0.0,4.302145004272461,-1.5628948211669922,-0.0,1.7703027725219727,5.522111999779501,0.0,0.24394163489341736,-1.4032180945025843,0.0,-0.019834818318486214,1.3960707187652588,0.0,-0.0008209835505113006,0.8091342449188232,0.0,-0.0020161462016403675
773.0,624.0,-3.2459,-0.2279,9.2273,-0.0295,0.0298,-0.1089,-2.1975633106627406,0.0,4.353320121765137,-1.5628986358642578,-0.0,1.7995965480804443,5.522139835148611,0.0,0.23288896679878235,-1.4031942526446741,0.0,-0.020371459424495697,1.3960587978363037,0.0,-0.002270730212330818,0.8091424703598022,0.0,0.0007869694381952286
773.0,624.0,-3.2459,-0.2279,9.2273,-0.0295,0.0298,-0.1089,-2.197555204431051,0.0,4.350536346435547,-1.562910795211792,-0.0,1.794027328491211,5.522123443871298,0.0,0.24603667855262756,-1.403165642415182,0.0,-0.032789018005132675,1.3960305452346802,0.0,0.003550974652171135,0.8091709017753601,0.0,0.0035137655213475227
773.0,624.0,-3.2459,-0.2279,9.2273,-0.0295,0.0298,-0.1089,-2.1975795231261195,0.0,4.289392948150635,-1.5628710985183716,-0.0,1.7713022232055664,5.522099661618032,0.0,0.23327741026878357,-1.4032061735736292,0.0,-0.03018132969737053,1.396026849746704,0.0,0.0013397826114669442,0.8091543912887573,0.0,0.03400518000125885
773.0,624.0,-3.2459,-0.2279,9.2273,-0.0295,0.0298,-0.1089,-2.197503706017965,0.0,4.286562442779541,-1.5628867149353027,-0.0,1.7878825664520264,5.52203922250823,0.0,0.23024311661720276,-1.403210465108053,0.0,-0.029030058532953262,1.396018624305725,0.0,-0.0044169556349515915,0.8091344237327576,0.0,0.01847095787525177
773.0,624.0,-3.2459,-0.2279,9.2273,-0.0295,0.0298,-0.1089,-2.1975113354124964,0.0,4.278932094573975,-1.562834620475769,-0.0,1.758270502090454,5.522144007473745,0.0,0.24079155921936035,-1.403198544179098,0.0,-0.022781794890761375,1.3961149454116821,0.0,0.014017153531312943,0.8091303110122681,0.0,0.00846627727150917
773.0,624.0,-3.2459,-0.2279,9.2273,-0.0295,0.0298,-0.1089,-2.1975232563414515,0.0,4.327174186706543,-1.562870740890503,-0.0,1.823535680770874,5.522123443871298,0.0,0.2421846091747284,-1.403198544179098,0.0,-0.015940643846988678,1.396042823791504,0.0,0.006726417690515518,0.8091502785682678,0.0,0.04324999079108238
773.0,624.0,-3.2459,-0.2279,9.2273,-0.0295,0.0298,-0.1089,-2.197567125360006,0.0,4.33812952041626,-1.562902808189392,-0.0,1.7941712141036987,5.522115635662832,0.0,0.23288828134536743,-1.403222386037008,0.0,-0.022521061822772026,1.3960347175598145,0.0,0.010887549258768559,0.8090899586677551,0.0,0.0023997370153665543
773.0,624.0,-3.2459,-0.2279,9.2273,-0.0295,0.0298,-0.1089,-2.197519441644186,0.0,4.327325344085693,-1.5628670454025269,-0.0,1.782353401184082,5.522131669312277,0.0,0.23291419446468353,-1.4032343069659632,0.0,-0.014079917222261429,1.396042823791504,0.0,0.001815431285649538,0.8091543912887573,0.0,-0.0007805097266100347
773.0,624.0,-3.2459,-0.2279,9.2273,-0.0295,0.0298,-0.1089,-2.1975351772704066,0.0,4.30312967300415,-1.5628747940063477,-0.0,1.7720168828964233,5.522147643357076,0.0,0.2267141342163086,-1.4031780401812952,0.0,-0.01951288990676403,1.3961068391799927,0.0,0.008490048348903656,0.8091220259666443,0.0,-0.030249852687120438
773.0,624.0,-3.2459,-0.2279,9.2273,-0.0295,0.0298,-0.1089,-2.197555204431051,0.0,4.295071601867676,-1.5629268884658813,-0.0,1.7769333124160767,5.522147643357076,0.0,0.23211689293384552,-1.4031818548785608,0.0,-0.019571363925933838,1.3960107564926147,0.0,0.012517118826508522,0.8091220259666443,0.0,0.05971154570579529
773.0,624.0,-3.2459,-0.2279,9.2273,-0.0295,0.0298,-0.1089,-2.1975513897337855,0.0,4.281302452087402,-1.5628507137298584,-0.0,1.8028485774993896,5.522155749588766,0.0,0.2348172813653946,-1.4031942526446741,0.0,-0.012402098625898361,1.3961068391799927,0.0,-0.007378928363323212,0.8091424703598022,0.0,-0.04507710412144661
743.0,579.0,-3.2824,-0.2566,9.2913,-0.0377,0.0197,-0.1222,-2.1975232563414515,0.0,4.32505464553833,-1.5628547668457031,-0.0,1.7904773950576782,5.522151756077566,0.0,0.23108038306236267,-1.4031699339496058,0.0,-0.02858683280646801,1.3960387706756592,0.0,0.002065673004835844,0.8091585636138916,0.0,-0.012131537310779095
743.0,579.0,-3.2824,-0.2566,9.2913,-0.0377,0.0197,-0.1222,-2.1975156269469203,0.0,4.316710472106934,-1.562806487083435,-0.0,1.8284251689910889,5.522123801499166,0.0,0.23118913173675537,-1.4031780401812952,0.0,-0.02176150493323803,1.3959777355194092,0.0,0.00543341925367713,0.809174656867981,0.0,-0.03648339584469795
743.0,579.0,-3.2824,-0.2566,9.2913,-0.0377,0.0197,-0.1222,-2.1975633106627406,0.0,4.303480625152588,-1.5628867149353027,-0.0,1.800976037979126,5.522144007473745,0.0,0.23214802145957947,-1.4032142798053187,0.0,-0.01410492043942213,1.39600670337677,0.0,0.000844919472001493,0.8091060519218445,0.0,-0.003318734932690859
743.0,579.0,-3.2824,-0.2566,9.2913,-0.0377,0.0197,-0.1222,-2.19759525875234,0.0,4.325781345367432,-1.5629147291183472,-0.0,1.7716951370239258,5.522139835148611,0.0,0.23646819591522217,-1.4031942526446741,0.0,-0.026584092527627945,1.3960907459259033,0.0,0.0002845961134880781,0.8091461658477783,0.0,0.017272457480430603
743.0,579.0,-3.2824,-0.2566,9.2913,-0.0377,0.0197,-0.1222,-2.1975232563414515,0.0,4.366857528686523,-1.5628907680511475,-0.0,1.782677412033081,5.522099661618032,0.0,0.23717428743839264,-1.4032061735736292,0.0,-0.027423195540905,1.3960506916046143,0.0,-0.01595545932650566,0.8091261386871338,0.0,-0.009054497815668583
743.0,579.0,-3.2824,-0.2566,9.2913,-0.0377,0.0197,-0.1222,-2.1975394688048304,0.0,4.297097682952881,-1.5628703832626343,-0.0,1.806495189666748,5.522103357106008,0.0,0.2338622808456421,-1.4032023588763636,0.0,-0.024548761546611786,1.3960423469543457,0.0,0.0065760621801018715,0.8090857267379761,0.0,-0.026948539540171623
743.0,579.0,-3.2824,-0.2566,9.2913,-0.0377,0.0197,-0.1222,-2.1975394688048304,0.0,4.3184332847595215,-1.562918782234192,-0.0,1.7838488817214966,5.522135722428121,0.0,0.24553456902503967,-1.403198544179098,0.0,-0.027597319334745407,1.3960633277893066,0.0,0.013037033379077911,0.8091424703598022,0.0,-0.045443326234817505
743.0,579.0,-3.2824,-0.2566,9.2913,-0.0377,0.0197,-0.1222,-2.197555204431051,0.0,4.356308937072754,-1.562834620475769,-0.0,1.798360824584961,5.522099661618032,0.0,0.2387043535709381,-1.4032304922686976,0.0,-0.01291709952056408,1.3961108922958374,0.0,0.019601747393608093,0.8091261386871338,0.0,0.017205066978931427
743.0,579.0,-3.2824,-0.2566,9.2913,-0.0377,0.0197,-0.1222,-2.1975156269469203,0.0,4.27669620513916,-1.5628788471221924,-0.0,1.7609877586364746,5.5221599219139,0.0,0.23968517780303955,-1.4032018820392054,0.0,-0.02562616765499115,1.396066665649414,0.0,0.000715680536814034,0.8091302514076233,0.0,0.025891490280628204
743.0,579.0,-3.2824,-0.2566,9.2913,-0.0377,0.0197,-0.1222,-2.1975513897337855,0.0,4.3363447189331055,-1.5628467798233032,-0.0,1.8181980848312378,5.522123801499166,0.0,0.23273099958896637,-1.403198544179098,0.0,-0.007848070934414864,1.3960587978363037,0.0,0.0033944996539503336,0.8091063499450684,0.0,-0.0013770908117294312
743.0,579.0,-3.2824,-0.2566,9.2913,-0.0377,0.0197,-0.1222,-2.197555204431051,0.0,4.367088317871094,-1.562882661819458,-0.0,1.826309084892273,5.522139417916097,0.0,0.22306576371192932,-1.4031861464129847,0.0,-0.029238466173410416,1.3960669040679932,0.0,0.010027145966887474,0.8091424703598022,0.0,-0.009959546849131584
743.0,579.0,-3.2824,-0.2566,9.2913,-0.0377,0.0197,-0.1222,-2.1975275478758753,0.0,4.325048446655273,-1.562822699546814,-0.0,1.789677381515503,5.522103357106008,0.0,0.23354028165340424,-1.4032462278949183,0.0,-0.0308300219476223,1.3961235284805298,0.0,0.004870174918323755,0.8091870546340942,0.0,-0.02270565554499626
743.0,579.0,-3.2824,-0.2566,9.2913,-0.0377,0.0197,-0.1222,-2.1975513897337855,0.0,4.314212322235107,-1.562834620475769,-0.0,1.8179960250854492,5.522135722428121,0.0,0.23938193917274475,-1.4032185713397425,0.0,-0.014129528775811195,1.3960626125335693,0.0,0.009062889963388443,0.8091705441474915,0.0,0.012449461966753006
743.0,579.0,-3.2824,-0.2566,9.2913,-0.0377,0.0197,-0.1222,-2.1975232563414515,0.0,4.323774814605713,-1.5628666877746582,-0.0,1.8286398649215698,5.522143590241232,0.0,0.2281823605298996,-1.403222386037008,0.0,-0.018497027456760406,1.3960587978363037,0.0,-0.003455371130257845,0.809101939201355,0.0,0.004945829976350069
743.0,579.0,-3.2824,-0.2566,9.2913,-0.0377,0.0197,-0.1222,-2.1975275478758753,0.0,4.319558143615723,-1.5629229545593262,-0.0,1.7884423732757568,5.522127616196432,0.0,0.22477735579013824,-1.4031532446490687,0.0,-0.030242688953876495,1.3960427045822144,0.0,0.011228062212467194,0.8091261386871338,0.0,-0.011600540950894356
743.0,579.0,-3.2824,-0.2566,9.2913,-0.0377,0.0197,-0.1222,-2.1975633106627406,0.0,4.292118549346924,-1.5629067420959473,-0.0,1.7967047691345215,5.522143590241232,0.0,0.24376273155212402,-1.4031780401812952,0.0,-0.009073887951672077,1.396042823791504,0.0,0.010439151898026466,0.8091142773628235,0.0,0.011539858765900135
743.0,579.0,-3.2824,-0.2566,9.2913,-0.0377,0.0197,-0.1222,-2.1975513897337855,0.0,4.277985572814941,-1.5628867149353027,-0.0,1.8083878755569458,5.522143590241232,0.0,0.24084380269050598,-1.403210465108053,0.0,-0.02052418142557144,1.3960466384887695,0.0,0.006879027467221022,0.8091138601303101,0.0,-0.01894102618098259
821.0,8190.0,-3.2267,-0.2536,9.2776,-0.0333,0.0287,-0.1208,-2.197575708428854,0.0,4.300836563110352,-1.562910795211792,-0.0,1.7669808864593506,5.522159981518545,0.0,0.2298518866300583,-1.4031861464129847,0.0,-0.009812199510633945,1.3960669040679932,0.0,0.005818657111376524,0.8091383576393127,0.0,-0.0033535854890942574
821.0,8190.0,-3.2267,-0.2536,9.2776,-0.0333,0.0287,-0.1208,-2.1975394688048304,0.0,4.293336868286133,-1.5628712177276611,-0.0,1.7890872955322266,5.522143590241232,0.0,0.23594310879707336,-1.4031699339496058,0.0,-0.021919243037700653,1.396066665649414,0.0,0.0023769352119416,0.8091342449188232,0.0,-0.007870360277593136
821.0,8190.0,-3.2267,-0.2536,9.2776,-0.0333,0.0287,-0.1208,-2.197487016717428,0.0,4.358423709869385,-1.5628867149353027,-0.0,1.7601832151412964,5.522115635662832,0.0,0.22997689247131348,-1.4031942526446741,0.0,-0.024822067469358444,1.3960628509521484,0.0,-0.00241536321118474,0.8091502785682678,0.0,-0.03274494409561157
821.0,8190.0,-3.2267,-0.2536,9.2776,-0.0333,0.0287,-0.1208,-2.197543283502096,0.0,4.315362930297852,-1.5628907680511475,-0.0,1.7704570293426514,5.522135364800253,0.0,0.22625583410263062,-1.4032023588763636,0.0,-0.01844429224729538,1.3960107564926147,0.0,0.00332363648340106,0.8091667294502258,0.0,0.02077627182006836
821.0,8190.0,-3.2267,-0.2536,9.2776,-0.0333,0.0287,-0.1208,-2.1975156269469203,0.0,4.353022575378418,-1.5628867149353027,-0.0,1.7613170146942139,5.522087442665853,0.0,0.24223119020462036,-1.403222386037008,0.0,-0.015515163540840149,1.3960989713668823,0.0,0.008532179519534111,0.809126615524292,0.0,0.013476986438035965
821.0,8190.0,-3.2267,-0.2536,9.2776,-0.0333,0.0287,-0.1208,-2.1975113354124964,0.0,4.3089375495910645,-1.5628989934921265,-0.0,1.7674534320831299,5.52216403463439,0.0,0.23682193458080292,-1.403182331715719,0.0,-0.026279425248503685,1.3961070775985718,0.0,0.0018030863720923662,0.8091101050376892,0.0,0.031229615211486816
821.0,8190.0,-3.2267,-0.2536,9.2776,-0.0333,0.0287,-0.1208,-2.1975351772704066,0.0,4.352428436279297,-1.5628867149353027,-0.0,1.7950670719146729,5.522139835148611,0.0,0.23631030321121216,-1.4031780401812952,0.0,-0.020146779716014862,1.3960989713668823,0.0,-0.007964320480823517,0.8091143369674683,0.0,0.008553113788366318
821.0,8190.0,-3.2267,-0.2536,9.2776,-0.0333,0.0287,-0.1208,-2.1974874935545863,0.0,4.345282554626465,-1.5629189014434814,-0.0,1.7985823154449463,5.522095548897543,0.0,0.23829695582389832,-1.4031861464129847,0.0,-0.01755763217806816,1.396026849746704,0.0,-0.010865136981010437,0.8092029094696045,0.0,-0.028011012822389603
821.0,8190.0,-3.2267,-0.2536,9.2776,-0.0333,0.0287,-0.1208,-2.197583337823385,0.0,4.334034442901611,-1.562842845916748,-0.0,1.8013274669647217,5.5221197483833215,0.0,0.22750219702720642,-1.4031780401812952,0.0,-0.019056707620620728,1.3960587978363037,0.0,-0.005154465790838003,0.809174656867981,0.0,0.029847631230950356
821.0,8190.0,-3.2267,-0.2536,9.2776,-0.0333,0.0287,-0.1208,-2.197555204431051,0.0,4.359968185424805,-1.5628986358642578,-0.0,1.824920892715454,5.5221197483833215,0.0,0.2331792712211609,-1.403210465108053,0.0,-0.024846427142620087,1.3960312604904175,0.0,0.001778086181730032,0.809174656867981,0.0,0.019935231655836105
821.0,8190.0,-3.2267,-0.2536,9.2776,-0.0333,0.0287,-0.1208,-2.1975275478758753,0.0,4.35082483291626,-1.562918782234192,-0.0,1.79268479347229,5.522151756077566,0.0,0.230420783162117,-1.4032262007342737,0.0,-0.011907548643648624,1.396018624305725,0.0,0.008341777138411999,0.8091303110122681,0.0,0.015307399444282055
821.0,8190.0,-3.2267,-0.2536,9.2776,-0.0333,0.0287,-0.1208,-2.1975470981993617,0.0,4.299459934234619,-1.5628870725631714,-0.0,1.7776809930801392,5.5221197483833215,0.0,0.24553216993808746,-1.403222386037008,0.0,-0.009252337738871574,1.3960986137390137,0.0,-0.01164656039327383,0.8091303110122681,0.0,-0.02692929469048977
821.0,8190.0,-3.2267,-0.2536,9.2776,-0.0333,0.0287,-0.1208,-2.1975633106627406,0.0,4.32959508895874,-1.5628507137298584,-0.0,1.7610442638397217,5.522123443871298,0.0,0.24178537726402283,-1.4031742254840296,0.0,-0.027075311169028282,1.3960022926330566,0.0,0.009007217362523079,0.8091506958007812,0.0,0.004326269030570984
821.0,8190.0,-3.2267,-0.2536,9.2776,-0.0333,0.0287,-0.1208,-2.1975633106627406,0.0,4.322693824768066,-1.562918782234192,-0.0,1.7945013046264648,5.522168147354879,0.0,0.24025478959083557,-1.4031942526446741,0.0,-0.031967293471097946,1.3960626125335693,0.0,0.009060686454176903,0.8091101050376892,0.0,0.004614433739334345
821.0,8190.0,-3.2267,-0.2536,9.2776,-0.0333,0.0287,-0.1208,-2.1975470981993617,0.0,4.314687252044678,-1.5629191398620605,-0.0,1.8206731081008911,5.522087323456564,0.0,0.23243045806884766,-1.4031942526446741,0.0,-0.03716180473566055,1.396082878112793,0.0,0.00916522927582264,0.8091424703598022,0.0,0.060092806816101074
821.0,8190.0,-3.2267,-0.2536,9.2776,-0.0333,0.0287,-0.1208,-2.197555204431051,0.0,4.364266395568848,-1.5628706216812134,-0.0,1.7844719886779785,5.522155809193411,0.0,0.2330416440963745,-1.403210465108053,0.0,-0.02767239138484001,1.3960907459259033,0.0,0.014145434834063053,0.8091220259666443,0.0,0.008986232802271843
821.0,8190.0,-3.2267,-0.2536,9.2776,-0.0333,0.0287,-0.1208,-2.197519441644186,0.0,4.363452911376953,-1.5629549026489258,-0.0,1.7790536880493164,5.522115218430319,0.0,0.23619383573532104,-1.403165642415182,0.0,-0.020174063742160797,1.3960341215133667,0.0,0.0038541259709745646,0.8091142773628235,0.0,0.03228706493973732
815.0,614.0,-3.2512,-0.2381,9.2614,-0.0357,0.0195,-0.1087,-2.197543283502096,0.0,4.32673454284668,-1.5629311800003052,-0.0,1.7617619037628174,5.522115635662832,0.0,0.23861756920814514,-1.4031899611102503,0.0,-0.008619933389127254,1.3961317539215088,0.0,0.01047719269990921,0.8091466426849365,0.0,0.010258369147777557
815.0,614.0,-3.2512,-0.2381,9.2614,-0.0357,0.0195,-0.1087,-2.1975394688048304,0.0,4.339081764221191,-1.562870740890503,-0.0,1.8125944137573242,5.522095668106832,0.0,0.24152371287345886,-1.4031866232501429,0.0,-0.019893676042556763,1.3960829973220825,0.0,0.017434941604733467,0.809174656867981,0.0,-0.022516746073961258
815.0,614.0,-3.2512,-0.2381,9.2614,-0.0357,0.0195,-0.1087,-2.197519441644186,0.0,4.335683822631836,-1.5628103017807007,-0.0,1.8310741186141968,5.5221599219139,0.0,0.23206670582294464,-1.403222386037008,0.0,-0.021664168685674667,1.3960866928100586,0.0,0.009202682413160801,0.8090816736221313,0.0,0.04798339679837227
815.0,614.0,-3.2512,-0.2381,9.2614,-0.0357,0.0195,-0.1087,-2.197531362573141,0.0,4.324033737182617,-1.5628747940063477,-0.0,1.791227102279663,5.522139835148611,0.0,0.24095138907432556,-1.4031861464129847,0.0,-0.028079260140657425,1.3960989713668823,0.0,0.0110897496342659,0.8092111349105835,0.0,0.023816876113414764
815.0,614.0,-3.2512,-0.2381,9.2614,-0.0357,0.0195,-0.1087,-2.1975275478758753,0.0,4.349587440490723,-1.5628867149353027,-0.0,1.7892365455627441,5.522095548897543,0.0,0.24665743112564087,-1.4032142798053187,0.0,-0.03410725295543671,1.3960587978363037,0.0,-0.0047824266366660595,0.8091667294502258,0.0,-0.0019307099282741547
815.0,614.0,-3.2512,-0.2381,9.2614,-0.0357,0.0195,-0.1087,-2.197519441644186,0.0,4.3574395179748535,-1.5628665685653687,-0.0,1.7654082775115967,5.522151756077566,0.0,0.2302820384502411,-1.4032462278949183,0.0,-0.026910560205578804,1.395998239517212,0.0,0.0042321933433413506,0.8091543912887573,0.0,-0.009341302327811718
815.0,614.0,-3.2512,-0.2381,9.2614,-0.0357,0.0195,-0.1087,-2.1976071796812953,0.0,4.290693283081055,-1.5629026889801025,-0.0,1.7713994979858398,5.522139835148611,0.0,0.23507419228553772,-1.4032381216632288,0.0,-0.014649971388280392,1.3961316347122192,0.0,-0.00024146237410604954,0.8091138601303101,0.0,0.013697960413992405
815.0,614.0,-3.2512,-0.2381,9.2614,-0.0357,0.0195,-0.1087,-2.197555204431051,0.0,4.31032657623291,-1.5628867149353027,-0.0,1.7328376770019531,5.522163975029745,0.0,0.23182538151741028,-1.4032262007342737,0.0,-0.021218350157141685,1.3960902690887451,0.0,0.0036261859349906445,0.8091626763343811,0.0,-0.00041693635284900665
815.0,614.0,-3.2512,-0.2381,9.2614,-0.0357,0.0195,-0.1087,-2.1975470981993617,0.0,4.31927490234375,-1.5629353523254395,-0.0,1.8039538860321045,5.5221279738243005,0.0,0.21996575593948364,-1.4032099882708948,0.0,-0.010548407211899757,1.3960387706756592,0.0,0.0032087769359350204,0.8091424703598022,0.0,0.028089376166462898
815.0,614.0,-3.2512,-0.2381,9.2614,-0.0357,0.0195,-0.1087,-2.19757141689443,0.0,4.263140678405762,-1.562870740890503,-0.0,1.8173598051071167,5.522176313191213,0.0,0.2290842980146408,-1.4031942526446741,0.0,-0.019810661673545837,1.3960826396942139,0.0,0.005258905701339245,0.8091143369674683,0.0,0.01586790941655636
815.0,614.0,-3.2512,-0.2381,9.2614,-0.0357,0.0195,-0.1087,-2.1975351772704066,0.0,4.317963600158691,-1.5628784894943237,-0.0,1.7618741989135742,5.522143590241232,0.0,0.2404843270778656,-1.403210465108053,0.0,-0.028695471584796906,1.396042823791504,0.0,0.012520311400294304,0.809166431427002,0.0,0.037286121398210526
815.0,614.0,-3.2512,-0.2381,9.2614,-0.0357,0.0195,-0.1087,-2.1975232563414515,0.0,4.306850433349609,-1.5628666877746582,-0.0,1.7864489555358887,5.522135722428121,0.0,0.2314417064189911,-1.4032142798053187,0.0,-0.03627665340900421,1.3960785865783691,0.0,0.0025666970759630203,0.809174656867981,0.0,-0.005246075335890055
815.0,614.0,-3.2512,-0.2381,9.2614,-0.0357,0.0195,-0.1087,-2.1975590191283167,0.0,4.331480979919434,-1.5628628730773926,-0.0,1.786370873451233,5.522103774338522,0.0,0.23400741815567017,-1.4031899611102503,0.0,-0.030951106920838356,1.3961068391799927,0.0,-0.005474460311233997,0.8091179132461548,0.0,-0.026162201538681984
815.0,614.0,-3.2512,-0.2381,9.2614,-0.0357,0.0195,-0.1087,-2.1975470981993617,0.0,4.3346991539001465,-1.5628623962402344,-0.0,1.841577410697937,5.522127616196432,0.0,0.24200944602489471,-1.4031818548785608,0.0,-0.024946723133325577,1.3960505723953247,0.0,-0.005342457443475723,0.8091344237327576,0.0,0.011924494057893753
815.0,614.0,-3.2512,-0.2381,9.2614,-0.0357,0.0195,-0.1087,-2.1975394688048304,0.0,4.332399368286133,-1.5628708600997925,-0.0,1.780958652496338,5.5221197483833215,0.0,0.23134002089500427,-1.4031899611102503,0.0,-0.01586293801665306,1.3960068225860596,0.0,0.0006838019471615553,0.8091220259666443,0.0,-0.021192030981183052
815.0,614.0,-3.2512,-0.2381,9.2614,-0.0357,0.0195,-0.1087,-2.1975275478758753,2.997283324313038e-11,4.310792922973633,-1.562870740890503,-0.0,1.8123160600662231,5.5221758959587,0.0,0.23619845509529114,-1.4031575361834925,0.0,-0.022552376613020897,1.3960468769073486,0.0,-0.002728258026763797,0.809150755405426,0.0,-0.022253433242440224
815.0,614.0,-3.2512,-0.2381,9.2614,-0.0357,0.0195,-0.1087,-2.197543283502096,5.395004409847973e-15,4.309100151062012,-1.5628986358642578,-0.0,1.7896838188171387,5.522091495781698,0.0,0.2356955111026764,-1.4031942526446741,0.0,-0.01860891655087471,1.3961108922958374,0.0,0.007588696200400591,0.8091022372245789,0.0,0.05111243948340416
740.0,568.0,-3.2662,-0.2853,9.3021,-0.0371,0.0224,-0.1168,-2.1975470981993617,1.3028301442863324e-20,4.317126274108887,-1.5629026889801025,-0.0,1.803762435913086,5.5221279738243005,0.0,0.23946218192577362,-1.4032185713397425,0.0,-0.0400272011756897,1.3960583209991455,0.0,0.0011947351740673184,0.8091623783111572,0.0,-0.03218879923224449
740.0,568.0,-3.2662,-0.2853,9.3021,-0.0371,0.0224,-0.1168,-2.1975351772704066,3.146181900818687e-26,4.314718246459961,-1.5628588199615479,-0.0,1.8019630908966064,5.522131669312277,0.0,0.24403491616249084,-1.4031942526446741,0.0,-0.03817376494407654,1.396054744720459,0.0,-0.001927760080434382,0.8091424703598022,0.0,0.011126908473670483
740.0,568.0,-3.2662,-0.2853,9.3021,-0.0371,0.0224,-0.1168,-2.1975275478758753,5.663016821696573e-30,4.319372653961182,-1.5629388093948364,-0.0,1.798935890197754,5.522091436177053,0.0,0.23992007970809937,-1.4031942526446741,0.0,-0.03411903604865074,1.3961026668548584,0.0,0.011250915005803108,0.8090981245040894,0.0,0.017246577888727188
740.0,568.0,-3.2662,-0.2853,9.3021,-0.0371,0.0224,-0.1168,-2.197507520715231,1.3675520763319357e-35,4.334630966186523,-1.562894582748413,-0.0,1.7782362699508667,5.522163975029745,0.0,0.23590832948684692,-1.4032262007342737,0.0,-0.0137541638687253,1.3960187435150146,0.0,0.001012810505926609,0.8091101050376892,0.0,-0.02531546726822853
740.0,568.0,-3.2662,-0.2853,9.3021,-0.0371,0.0224,-0.1168,-2.1975275478758753,3.3024400908742964e-41,4.32836389541626,-1.562870740890503,-0.0,1.7941418886184692,5.522111582546987,0.0,0.23458048701286316,-1.4032018820392054,0.0,-0.004755361005663872,1.3961067199707031,0.0,0.001541424193419516,0.8091502785682678,0.0,-0.04743474721908569
740.0,568.0,-3.2662,-0.2853,9.3021,-0.0371,0.0224,-0.1168,-2.1975470981993617,5.605193857299268e-45,4.319642066955566,-1.562882661819458,-0.0,1.7831368446350098,5.5221197483833215,0.0,0.23517252504825592,-1.403149429951803,0.0,-0.023402197286486626,1.3960826396942139,0.0,0.0087754987180233,0.8091225028038025,0.0,-0.002163051161915064
740.0,568.0,-3.2662,-0.2853,9.3021,-0.0371,0.0224,-0.1168,-2.1974955997862757,0.0,4.266625881195068,-1.5628867149353027,-0.0,1.8002169132232666,5.522147702961721,0.0,0.2407756894826889,-1.403210465108053,0.0,-0.0176946222782135,1.3960506916046143,0.0,-0.0033367532305419445,0.8091344237327576,0.0,-0.0375627800822258
740.0,568.0,-3.2662,-0.2853,9.3021,-0.0371,0.0224,-0.1168,-2.1975275478758753,0.0,4.294532299041748,-1.5629185438156128,-0.0,1.784311056137085,5.5221758959587,0.0,0.24053341150283813,-1.4032018820392054,0.0,-0.03337342292070389,1.3960587978363037,0.0,-0.006534184794872999,0.8091142773628235,0.0,0.030416859313845634
740.0,568.0,-3.2662,-0.2853,9.3021,-0.0371,0.0224,-0.1168,-2.1975590191283167,0.0,4.306041717529297,-1.562894582748413,-0.0,1.7604327201843262,5.522131669312277,0.0,0.23305100202560425,-1.4031618277179163,0.0,-0.023813093081116676,1.3960902690887451,0.0,-0.0067162648774683475,0.8091101050376892,0.0,0.017153583467006683
740.0,568.0,-3.2662,-0.2853,9.3021,-0.0371,0.0224,-0.1168,-2.197555204431051,0.0,4.322014331817627,-1.5628669261932373,-0.0,1.7904630899429321,5.522168087750234,0.0,0.24283917248249054,-1.403210465108053,0.0,-0.03062274307012558,1.3960468769073486,0.0,0.005985200870782137,0.8091303110122681,0.0,-0.023760471493005753
740.0,568.0,-3.2662,-0.2853,9.3021,-0.0371,0.0224,-0.1168,-2.197531362573141,0.0,4.309326171875,-1.5628985166549683,-0.0,1.7847235202789307,5.522163975029745,0.0,0.23248067498207092,-1.4032061735736292,0.0,-0.020759031176567078,1.3961026668548584,0.0,0.003532260423526168,0.8091708421707153,0.0,0.030521562322974205
740.0,568.0,-3.2662,-0.2853,9.3021,-0.0371,0.0224,-0.1168,-2.197543283502096,0.0,4.34033203125,-1.5628430843353271,-0.0,1.832780361175537,5.522099661618032,0.0,0.23236453533172607,-1.4032142798053187,0.0,-0.026635952293872833,1.3960587978363037,0.0,0.011651111766695976,0.8091303110122681,0.0,-0.02110053040087223
740.0,568.0,-3.2662,-0.2853,9.3021,-0.0371,0.0224,-0.1168,-2.197555204431051,0.0,4.325137615203857,-1.562827229499817,-0.0,1.7590744495391846,5.522188114910879,0.0,0.24494335055351257,-1.4031942526446741,0.0,-0.013694586232304573,1.3961149454116821,0.0,0.00935534667223692,0.8091424703598022,0.0,0.01846744678914547
740.0,568.0,-3.2662,-0.2853,9.3021,-0.0371,0.0224,-0.1168,-2.1975394688048304,0.0,4.312930107116699,-1.5629024505615234,-0.0,1.787326693534851,5.522139417916097,0.0,0.23341652750968933,-1.4032586256610315,0.0,-0.029184013605117798,1.3961108922958374,0.0,0.00959642231464386,0.8091585040092468,0.0,-0.022195719182491302
740.0,568.0,-3.2662,-0.2853,9.3021,-0.0371,0.0224,-0.1168,-2.197543283502096,0.0,4.2542548179626465,-1.562922477722168,-0.0,1.8418235778808594,5.522155749588766,0.0,0.2300294190645218,-1.4032099882708948,0.0,-0.02997872792184353,1.3960785865783691,0.0,0.0017008865252137184,0.8091179728507996,0.0,0.01634151302278042
740.0,568.0,-3.2662,-0.2853,9.3021,-0.0371,0.0224,-0.1168,-2.1975113354124964,0.0,4.37447452545166,-1.5628787279129028,-0.0,1.8172426223754883,5.522163975029745,0.0,0.22919826209545135,-1.4031661192523401,0.0,-0.025835804641246796,1.3960826396942139,0.0,0.0013781626475974917,0.8091101050376892,0.0,0.013599525205790997
740.0,568.0,-3.2662,-0.2853,9.3021,-0.0371,0.0224,-0.1168,-2.197555204431051,0.0,4.359217166900635,-1.562894582748413,-0.0,1.7782669067382812,5.522192406445303,0.0,0.24780789017677307,-1.4031742254840296,0.0,-0.03146175295114517,1.3960466384887695,0.0,0.0033190893009305,0.8091261386871338,0.0,0.01040664967149496
779.0,551.0,-3.2082,-0.256,9.1364,-0.0359,0.0302,-0.1216,-2.1975232563414515,0.0,4.352629661560059,-1.5629065036773682,-0.0,1.8017939329147339,5.522107410221853,0.0,0.23696041107177734,-1.403165642415182,0.0,-0.024587346240878105,1.396018624305725,0.0,-0.003893580986186862,0.8091667294502258,0.0,-0.001629943959414959
779.0,551.0,-3.2082,-0.256,9.1364,-0.0359,0.0302,-0.1216,-2.197583337823385,0.0,4.305722713470459,-1.5628867149353027,-0.0,1.7990731000900269,5.522111582546987,0.0,0.23330903053283691,-1.4032061735736292,0.0,-0.022194422781467438,1.3960989713668823,0.0,-0.005567966029047966,0.8091179132461548,0.0,-0.007247348316013813
779.0,551.0,-3.2082,-0.256,9.1364,-0.0359,0.0302,-0.1216,-2.1975633106627406,0.0,4.303090572357178,-1.5628589391708374,-0.0,1.8077683448791504,5.522143590241232,0.0,0.24080798029899597,-1.4032262007342737,0.0,-0.017412357032299042,1.3960907459259033,0.0,0.008772643283009529,0.8091466426849365,0.0,-0.005963597446680069
779.0,551.0,-3.2082,-0.256,9.1364,-0.0359,0.0302,-0.1216,-2.1975394688048304,0.0,4.355761528015137,-1.5628430843353271,-0.0,1.78862464427948,5.522131311684408,0.0,0.23902785778045654,-1.403210465108053,0.0,-0.02554965391755104,1.3960989713668823,0.0,0.0011861920356750488,0.8091220259666443,0.0,0.028019297868013382
779.0,551.0,-3.2082,-0.256,9.1364,-0.0359,0.0302,-0.1216,-2.1975470981993617,0.0,4.379793167114258,-1.5629104375839233,-0.0,1.7940318584442139,5.522147643357076,0.0,0.24189656972885132,-1.4031699339496058,0.0,-0.0295101311057806,1.3960747718811035,0.0,0.0010705201420933008,0.8091225028038025,0.0,-0.027234040200710297
779.0,551.0,-3.2082,-0.256,9.1364,-0.0359,0.0302,-0.1216,-2.1975156269469203,0.0,4.3644232749938965,-1.562839150428772,-0.0,1.7853500843048096,5.522107350617208,0.0,0.22139029204845428,-1.4032142798053187,0.0,-0.025742214173078537,1.3961026668548584,0.0,0.005899745970964432,0.8091424703598022,0.0,-0.02084675058722496
779.0,551.0,-3.2082,-0.256,9.1364,-0.0359,0.0302,-0.1216,-2.1974712810912074,0.0,4.298185348510742,-1.5628708600997925,-0.0,1.779407024383545,5.522151696472921,0.0,0.23975366353988647,-1.4031899611102503,0.0,-0.01281263679265976,1.3960583209991455,0.0,0.0021310066804289818,0.8091585040092468,0.0,-0.025918278843164444
779.0,551.0,-3.2082,-0.256,9.1364,-0.0359,0.0302,-0.1216,-2.1975394688048304,0.0,4.292234420776367,-1.5628628730773926,-0.0,1.7992196083068848,5.52218376377181,0.0,0.24071654677391052,-1.403210465108053,0.0,-0.019707558676600456,1.3960509300231934,0.0,0.003443353110924363,0.8091466426849365,0.0,-0.041761890053749084
779.0,551.0,-3.2082,-0.256,9.1364,-0.0359,0.0302,-0.1216,-2.197543283502096,0.0,4.321284770965576,-1.5628471374511719,-0.0,1.8062317371368408,5.522155749588766,6.359741888672943e-08,0.23754802346229553,-1.4032061735736292,0.0,-0.025735780596733093,1.3960747718811035,0.0,-0.001968258060514927,0.8091585040092468,0.0,-0.018525568768382072
779.0,551.0,-3.2082,-0.256,9.1364,-0.0359,0.0302,-0.1216,-2.197575708428854,0.0,4.346508502960205,-1.5628708600997925,-0.0,1.7741148471832275,5.522143590241232,1.770257551658716e-11,0.23940983414649963,-1.4032061735736292,0.0,-0.022150889039039612,1.3960747718811035,0.0,0.013791818171739578,0.8091342449188232,0.0,0.03424597904086113
779.0,551.0,-3.2082,-0.256,9.1364,-0.0359,0.0302,-0.1216,-2.1975113354124964,0.0,4.329232215881348,-1.562902569770813,-0.0,1.7664635181427002,5.522131669312277,7.546886021930072e-14,0.24288970232009888,-1.4031861464129847,0.0,-0.0241498164832592,1.396018624305725,0.0,-0.006145570892840624,0.8091543912887573,0.0,-0.03453328087925911
779.0,551.0,-3.2082,-0.256,9.1364,-0.0359,0.0302,-0.1216,-2.197507520715231,0.0,4.317067623138428,-1.5628827810287476,-0.0,1.7723383903503418,5.522135782032766,2.1007035823004838e-17,0.23727479577064514,-1.403210465108053,0.0,-0.010365377180278301,1.3960988521575928,0.0,-0.003352472558617592,0.8091303110122681,0.0,-0.0407441183924675
779.0,551.0,-3.2082,-0.256,9.1364,-0.0359,0.0302,-0.1216,-2.197555204431051,0.0,4.322723388671875,-1.5628944635391235,-0.0,1.799572229385376,5.522135722428121,5.847387006061019e-21,0.24094684422016144,-1.4031699339496058,0.0,-0.018925568088889122,1.3960866928100586,0.0,0.004638435319066048,0.8091424703598022,0.0,0.04449082165956497
779.0,551.0,-3.2082,-0.256,9.1364,-0.0359,0.0302,-0.1216,-2.1975394688048304,0.0,4.336752414703369,-1.5628827810287476,-0.0,1.769187569618225,5.522079276829519,2.4928324882511493e-23,0.22874119877815247,-1.4031575361834925,0.0,-0.02195868268609047,1.396054744720459,0.0,-0.001111731049604714,0.8091626763343811,0.0,-0.027181249111890793
779.0,551.0,-3.2082,-0.256,9.1364,-0.0359,0.0302,-0.1216,-2.1975513897337855,0.0,4.3107523918151855,-1.562922477722168,-0.0,1.7710925340652466,5.522143590241232,6.938891396545973e-27,0.23612582683563232,-1.4031780401812952,0.0,-0.027989067137241364,1.3960222005844116,0.0,-0.009997950866818428,0.8091705441474915,0.0,0.03358769044280052
779.0,551.0,-3.2082,-0.256,9.1364,-0.0359,0.0302,-0.1216,-2.1975633106627406,0.0,4.310206413269043,-1.5628747940063477,-0.0,1.8311291933059692,5.522168147354879,2.9581579777652026e-29,0.2432258129119873,-1.4032180945025843,0.0,-0.022143647074699402,1.3959985971450806,0.0,-0.006468497216701508,0.8091708421707153,0.0,0.056021641939878464
779.0,551.0,-3.2082,-0.256,9.1364,-0.0359,0.0302,-0.1216,-2.1975590191283167,0.0,4.324267387390137,-1.5629427433013916,-0.0,1.7612361907958984,5.5221197483833215,8.234141032206361e-33,0.22969263792037964,-1.4032304922686976,0.0,-0.02673918381333351,1.3961234092712402,0.0,-0.010164727456867695,0.8091748952865601,0.0,-0.0031439880840480328
755.0,592.0,-3.1807,-0.2189,9.2303,-0.0382,0.0202,-0.1165,-2.1975394688048304,0.0,4.288877010345459,-1.5628550052642822,-0.0,1.8034324645996094,5.522119807987966,2.2920032288144262e-36,0.2462766170501709,-1.403222386037008,0.0,-0.01821151003241539,1.396014928817749,0.0,0.004100864753127098,0.8091344237327576,0.0,-0.00703097740188241
755.0,592.0,-3.1807,-0.2189,9.2303,-0.0382,0.0202,-0.1165,-2.197543283502096,0.0,4.332070350646973,-1.5628786087036133,-0.0,1.8453571796417236,5.522131669312277,9.77117011382909e-39,0.23848867416381836,-1.4031818548785608,0.0,-0.022800862789154053,1.3960707187652588,0.0,0.01010216772556305,0.8091303110122681,0.0,0.001098262146115303
755.0,592.0,-3.1807,-0.2189,9.2303,-0.0382,0.0202,-0.1165,-2.197575708428854,0.0,4.279143333435059,-1.5628827810287476,-0.0,1.7657668590545654,5.522103774338522,2.71992031925447e-42,0.23714464902877808,-1.403222386037008,0.0,-0.03135352581739426,1.39604651927948,0.0,0.009579253382980824,0.8091261386871338,0.0,-0.027244770899415016
755.0,592.0,-3.1807,-0.2189,9.2303,-0.0382,0.0202,-0.1165,-2.1975351772704066,0.0,4.306420803070068,-1.5628985166549683,-0.0,1.7698311805725098,5.522123801499166,1.401298464324817e-45,0.24259397387504578,-1.403210465108053,0.0,-0.03022182732820511,1.3960587978363037,0.0,-0.003260613651946187,0.809118390083313,0.0,0.06817390769720078
755.0,592.0,-3.1807,-0.2189,9.2303,-0.0382,0.0202,-0.1165,-2.197555204431051,0.0,4.337889194488525,-1.5628430843353271,-0.0,1.8181120157241821,5.522099661618032,0.0,0.23034262657165527,-1.4031899611102503,0.0,-0.015391912311315536,1.3961316347122192,0.0,-0.0024139925371855497,0.8091344237327576,0.0,0.06641797721385956
755.0,592.0,-3.1807,-0.2189,9.2303,-0.0382,0.0202,-0.1165,-2.1975394688048304,0.0,4.320151329040527,-1.5628468990325928,-0.0,1.7839019298553467,5.522135722428121,0.0,0.25035569071769714,-1.4032061735736292,0.0,-0.024419140070676804,1.3960907459259033,0.0,0.0025869389064610004,0.8091667294502258,0.0,-0.004673577845096588
755.0,592.0,-3.1807,-0.2189,9.2303,-0.0382,0.0202,-0.1165,-2.1975275478758753,0.0,4.326653957366943,-1.562851071357727,-0.0,1.7523798942565918,5.5220956085021875,0.0,0.2443009912967682,-1.403210465108053,0.0,-0.020110316574573517,1.3960826396942139,0.0,-0.00564448069781065,0.8091667294502258,0.0,0.019208475947380066
755.0,592.0,-3.1807,-0.2189,9.2303,-0.0382,0.0202,-0.1165,-2.1975351772704066,0.0,4.350944519042969,-1.5628708600997925,-0.0,1.810389518737793,5.522095668106832,0.0,0.23589566349983215,-1.4031742254840296,0.0,-0.024054374545812607,1.3960707187652588,0.0,-0.001344594405964017,0.8091585040092468,0.0,-0.015145491808652878
755.0,592.0,-3.1807,-0.2189,9.2303,-0.0382,0.0202,-0.1165,-2.1974994144835414,0.0,4.326089382171631,-1.5628430843353271,-0.0,1.8140766620635986,5.522131609707632,0.0,0.23951858282089233,-1.4031618277179163,0.0,-0.014443455263972282,1.3960587978363037,0.0,0.005410005338490009,0.8091303110122681,0.0,0.013524536974728107
755.0,592.0,-3.1807,-0.2189,9.2303,-0.0382,0.0202,-0.1165,-2.197567125360006,0.0,4.307196140289307,-1.5628747940063477,-0.0,1.8105899095535278,5.522099661618032,0.0,0.23172453045845032,-1.4032061735736292,0.0,-0.025893274694681168,1.3960866928100586,0.0,-0.0022015997674316168,0.8091303110122681,0.0,-0.004861060995608568
755.0,592.0,-3.1807,-0.2189,9.2303,-0.0382,0.0202,-0.1165,-2.19757141689443,0.0,4.327156066894531,-1.562839150428772,-0.0,1.7725954055786133,5.522147643357076,0.0,0.23738735914230347,-1.403210465108053,0.0,-0.01335180178284645,1.396042823791504,0.0,-0.0022729947231709957,0.8091383576393127,0.0,0.049137044697999954
755.0,592.0,-3.1807,-0.2189,9.2303,-0.0382,0.0202,-0.1165,-2.197555204431051,0.0,4.325719356536865,-1.5628390312194824,-0.0,1.783029556274414,5.522151756077566,0.0,0.23410767316818237,-1.4031618277179163,0.0,-0.012398638762533665,1.3961026668548584,0.0,0.0008590435609221458,0.8091343641281128,0.0,0.024455536156892776
755.0,592.0,-3.1807,-0.2189,9.2303,-0.0382,0.0202,-0.1165,-2.19757141689443,0.0,4.336620330810547,-1.562859058380127,-0.0,1.739080548286438,5.522135722428121,0.0,0.24566121399402618,-1.4031861464129847,0.0,-0.020830923691391945,1.3961107730865479,0.0,-0.00802865345031023,0.8091585040092468,0.0,-0.02888035774230957
755.0,592.0,-3.1807,-0.2189,9.2303,-0.0382,0.0202,-0.1165,-2.197531362573141,0.0,4.293050765991211,-1.5628867149353027,-0.0,1.8194210529327393,5.5221599219139,0.0,0.24140961468219757,-1.4032424131976526,0.0,-0.016725841909646988,1.3960669040679932,0.0,0.0007830346003174782,0.8091261386871338,0.0,0.01592041738331318
755.0,592.0,-3.1807,-0.2189,9.2303,-0.0382,0.0202,-0.1165,-2.1975590191283167,0.0,4.299036026000977,-1.562851071357727,-0.0,1.8487404584884644,5.5221197483833215,0.0,0.2392110526561737,-1.4031861464129847,0.0,-0.007349448278546333,1.3960626125335693,0.0,0.003916275687515736,0.8090697526931763,0.0,0.011743804439902306
755.0,592.0,-3.1807,-0.2189,9.2303,-0.0382,0.0202,-0.1165,-2.1975590191283167,0.0,4.327423572540283,-1.5629065036773682,-0.0,1.8051860332489014,5.522107410221853,0.0,0.24696853756904602,-1.4031575361834925,0.0,-0.02642764523625374,1.3960506916046143,0.0,-0.004195999354124069,0.8091870546340942,0.0,-0.016351576894521713
755.0,592.0,-3.1807,-0.2189,9.2303,-0.0382,0.0202,-0.1165,-2.197507520715231,0.0,4.3225812911987305,-1.562902569770813,-0.0,1.7900450229644775,5.522079336434164,0.0,0.22570043802261353,-1.4032381216632288,0.0,-0.01546798087656498,1.3961108922958374,0.0,0.010439250618219376,0.809150755405426,0.0,0.026572633534669876
727.0,651.0,-3.1244,-0.195,8.9743,-0.0341,0.0353,-0.122,-2.1975470981993617,0.0,4.324751853942871,-1.5628468990325928,-0.0,1.793853998184204,5.522131669312277,0.0,0.22803521156311035,-1.4031942526446741,0.0,-0.02176526188850403,1.3960986137390137,0.0,0.01525138970464468,0.8091385364532471,0.0,-0.009300402365624905
727.0,651.0,-3.1244,-0.195,8.9743,-0.0341,0.0353,-0.122,-2.197567125360006,0.0,4.337031841278076,-1.5628509521484375,-0.0,1.7654922008514404,5.5221197483833215,0.0,0.2399386614561081,-1.4031742254840296,0.0,-0.013406084850430489,1.3960505723953247,0.0,0.00550190731883049,0.8091142773628235,0.0,-0.0013151145540177822
727.0,651.0,-3.1244,-0.195,8.9743,-0.0341,0.0353,-0.122,-2.1975113354124964,0.0,4.2545576095581055,-1.562902569770813,-0.0,1.8080224990844727,5.522135364800253,0.0,0.24498394131660461,-1.4032099882708948,0.0,-0.021048851311206818,1.3960866928100586,0.0,0.004033918492496014,0.8091142773628235,0.0,-0.018423356115818024
727.0,651.0,-3.1244,-0.195,8.9743,-0.0341,0.0353,-0.122,-2.1975113354124964,0.0,4.266882419586182,-1.5628747940063477,-0.0,1.7622692584991455,5.522143590241232,0.0,0.23552843928337097,-1.4032142798053187,0.0,-0.024848490953445435,1.39604651927948,0.0,0.015507272444665432,0.8091220259666443,0.0,-0.01881083846092224
727.0,651.0,-3.1244,-0.195,8.9743,-0.0341,0.0353,-0.122,-2.1975394688048304,0.0,4.324131011962891,-1.562851071357727,-0.0,1.8245084285736084,5.522099661618032,0.0,0.24335791170597076,-1.4032142798053187,0.0,-0.011959157884120941,1.3960949182510376,0.0,0.004119886085391045,0.8091424703598022,0.0,0.014888175763189793
727.0,651.0,-3.1244,-0.195,8.9743,-0.0341,0.0353,-0.122,-2.1975513897337855,0.0,4.306110858917236,-1.5628985166549683,-0.0,1.7950329780578613,5.5221919296081445,0.0,0.22821101546287537,-1.403198544179098,0.0,-0.035900600254535675,1.3960506916046143,0.0,-0.0017538494430482388,0.8091708421707153,0.0,0.030622946098446846
727.0,651.0,-3.1244,-0.195,8.9743,-0.0341,0.0353,-0.122,-2.19757141689443,0.0,4.331021308898926,-1.562910556793213,-0.0,1.8241127729415894,5.522131669312277,0.0,0.23494628071784973,-1.4032180945025843,0.0,-0.011754851788282394,1.3960986137390137,0.0,0.008888812735676765,0.8091303110122681,0.0,0.0008704392239451408
727.0,651.0,-3.1244,-0.195,8.9743,-0.0341,0.0353,-0.122,-2.1974955997862757,0.0,4.315604209899902,-1.5628986358642578,-0.0,1.7442761659622192,5.522163975029745,0.0,0.2436680942773819,-1.4031899611102503,0.0,-0.02013954147696495,1.3960506916046143,0.0,-0.009809807874262333,0.8091543912887573,0.0,0.042665764689445496
727.0,651.0,-3.1244,-0.195,8.9743,-0.0341,0.0353,-0.122,-2.1975394688048304,0.0,4.273777961730957,-1.5628786087036133,-0.0,1.7852139472961426,5.522155749588766,0.0,0.2304094284772873,-1.403189484273092,0.0,-0.018427753821015358,1.3960826396942139,0.0,-0.01387629471719265,0.8090981245040894,0.0,0.016820939257740974
727.0,651.0,-3.1244,-0.195,8.9743,-0.0341,0.0353,-0.122,-2.1975633106627406,0.0,4.297307014465332,-1.5628669261932373,-0.0,1.809788465499878,5.522143590241232,0.0,0.23369579017162323,-1.4031942526446741,0.0,-0.015599706210196018,1.3960752487182617,0.0,-0.0008387407287955284,0.8091506958007812,0.0,-0.032304152846336365
727.0,651.0,-3.1244,-0.195,8.9743,-0.0341,0.0353,-0.122,-2.197543283502096,0.0,4.326106071472168,-1.5628985166549683,-0.0,1.7421386241912842,5.522139417916097,0.0,0.23781368136405945,-1.403154198323385,0.0,-0.03210853785276413,1.3961068391799927,0.0,0.001498261233791709,0.8091383576393127,0.0,0.031161798164248466
727.0,651.0,-3.1244,-0.195,8.9743,-0.0341,0.0353,-0.122,-2.1975590191283167,0.0,4.322357177734375,-1.562890648841858,-0.0,1.7704129219055176,5.522115337639608,0.0,0.24799582362174988,-1.4031742254840296,0.0,-0.02725527435541153,1.3960826396942139,0.0,0.007959485985338688,0.8091383576393127,0.0,0.013414403423666954
727.0,651.0,-3.1244,-0.195,8.9743,-0.0341,0.0353,-0.122,-2.197555204431051,0.0,4.278057098388672,-1.5629104375839233,-0.0,1.8147120475769043,5.522135364800253,0.0,0.23424749076366425,-1.4032061735736292,0.0,-0.029040031135082245,1.39613938331604,0.0,-0.0011257244041189551,0.8091220259666443,0.0,0.03541924059391022
727.0,651.0,-3.1244,-0.195,8.9743,-0.0341,0.0353,-0.122,-2.197567125360006,0.0,4.290061950683594,-1.5628747940063477,-0.0,1.8193970918655396,5.522131669312277,0.0,0.2407635748386383,-1.403198544179098,0.0,-0.009784393012523651,1.396066665649414,0.0,8.513359352946281e-05,0.8091788291931152,0.0,-0.03648817911744118
727.0,651.0,-3.1244,-0.195,8.9743,-0.0341,0.0353,-0.122,-2.1975513897337855,0.0,4.3175740242004395,-1.5628708600997925,-0.0,1.7836811542510986,5.522143590241232,0.0,0.24221813678741455,-1.4032018820392054,0.0,-0.025067921727895737,1.396094560623169,0.0,0.0044875056482851505,0.8091466426849365,0.0,0.011980166658759117
727.0,651.0,-3.1244,-0.195,8.9743,-0.0341,0.0353,-0.122,-2.197503706017965,0.0,4.3694610595703125,-1.562894582748413,-0.0,1.802051067352295,5.522123443871298,0.0,0.2491428554058075,-1.4031942526446741,0.0,-0.016498824581503868,1.3960986137390137,0.0,-0.004133637063205242,0.8090939521789551,0.0,-0.01947132684290409
727.0,651.0,-3.1244,-0.195,8.9743,-0.0341,0.0353,-0.122,-2.1975351772704066,0.0,4.304127216339111,-1.5628867149353027,-0.0,1.786773443222046,5.522131669312277,0.0,0.2411138117313385,-1.4032381216632288,0.0,-0.02840612083673477,1.3960747718811035,0.0,0.0073370495811104774,0.809174656867981,0.0,-0.01007350254803896
709.0,639.0,-3.2692,-0.2818,9.3446,-0.0399,0.0229,-0.1167,-2.1975275478758753,0.0,4.330035209655762,-1.562851071357727,-0.0,1.8065370321273804,5.522139417916097,0.0,0.24364477396011353,-1.403165642415182,0.0,-0.029166709631681442,1.3960907459259033,0.0,0.0023681726306676865,0.8091342449188232,0.0,0.02040421962738037
709.0,639.0,-3.2692,-0.2818,9.3446,-0.0399,0.0229,-0.1167,-2.1975470981993617,0.0,4.339755535125732,-1.5629143714904785,-0.0,1.7955584526062012,5.5221439478691,0.0,0.23905766010284424,-1.4032300154315394,0.0,-0.020009959116578102,1.396066665649414,0.0,-0.0007229289039969444,0.8091142773628235,0.0,0.038305118680000305
709.0,639.0,-3.2692,-0.2818,9.3446,-0.0399,0.0229,-0.1167,-2.1975351772704066,0.0,4.302026748657227,-1.5628865957260132,-0.0,1.7848097085952759,5.522171842842855,0.0,0.2300586700439453,-1.4031861464129847,0.0,-0.0159008726477623,1.396074891090393,0.0,-0.00425173994153738,0.809150755405426,0.0,0.013901673257350922
709.0,639.0,-3.2692,-0.2818,9.3446,-0.0399,0.0229,-0.1167,-2.1975676021971644,0.0,4.302525997161865,-1.562859058380127,-0.0,1.8019871711730957,5.522147643357076,0.0,0.22629383206367493,-1.403149429951803,0.0,-0.028736520558595657,1.3960628509521484,0.0,-0.0013409308157861233,0.809150755405426,0.0,0.03121727891266346
709.0,639.0,-3.2692,-0.2818,9.3446,-0.0399,0.0229,-0.1167,-2.1975513897337855,0.0,4.370339870452881,-1.5628669261932373,-0.0,1.7538228034973145,5.5220913765724084,0.0,0.2411361038684845,-1.4032180945025843,0.0,-0.02677839621901512,1.3960707187652588,0.0,-0.008162773214280605,0.809150755405426,0.0,-0.0038708923384547234
709.0,639.0,-3.2692,-0.2818,9.3446,-0.0399,0.0229,-0.1167,-2.197543283502096,0.0,4.329066276550293,-1.5628310441970825,-0.0,1.7685567140579224,5.522151756077566,0.0,0.24478857219219208,-1.4032018820392054,0.0,-0.016139645129442215,1.3960707187652588,0.0,-0.007439113222062588,0.8091344237327576,0.0,-0.00178610160946846
709.0,639.0,-3.2692,-0.2818,9.3446,-0.0399,0.0229,-0.1167,-2.1975275478758753,0.0,4.297807216644287,-1.5628708600997925,-0.0,1.8265900611877441,5.522107410221853,0.0,0.2292751669883728,-1.4031942526446741,0.0,-0.023040419444441795,1.39604651927948,0.0,-0.0020671566016972065,0.809166431427002,0.0,0.048620618879795074
709.0,639.0,-3.2692,-0.2818,9.3446,-0.0399,0.0229,-0.1167,-2.1975232563414515,0.0,4.328317165374756,-1.5628352165222168,-0.0,1.7479110956192017,5.522139417916097,0.0,0.2330513447523117,-1.4032543341266077,0.0,-0.011453508399426937,1.3960788249969482,0.0,0.002862907713279128,0.8091220855712891,0.0,-0.011020740494132042
709.0,639.0,-3.2692,-0.2818,9.3446,-0.0399,0.0229,-0.1167,-2.19757141689443,0.0,4.352628707885742,-1.562894582748413,-0.0,1.7902567386627197,5.522155749588766,0.0,0.24175256490707397,-1.403210465108053,0.0,-0.019322793930768967,1.3960387706756592,0.0,0.007320118602365255,0.8091261386871338,0.0,0.01338515430688858
709.0,639.0,-3.2692,-0.2818,9.3446,-0.0399,0.0229,-0.1167,-2.197519441644186,0.0,4.303993225097656,-1.5628550052642822,-0.0,1.7935614585876465,5.522123443871298,0.0,0.22905504703521729,-1.403198544179098,0.0,-0.032183948904275894,1.3960866928100586,0.0,-0.0022659210953861475,0.8091220259666443,0.0,-0.008119909092783928
709.0,639.0,-3.2692,-0.2818,9.3446,-0.0399,0.0229,-0.1167,-2.1975590191283167,0.0,4.340372085571289,-1.5628827810287476,-0.0,1.7770134210586548,5.522099661618032,0.0,0.22707030177116394,-1.4032262007342737,0.0,-0.012424709275364876,1.3959782123565674,0.0,-0.000901456456631422,0.809158444404602,0.0,0.04897616058588028
709.0,639.0,-3.2692,-0.2818,9.3446,-0.0399,0.0229,-0.1167,-2.1975470981993617,0.0,4.342174530029297,-1.5628551244735718,-0.0,1.7713868618011475,5.522123384266653,0.0,0.24038991332054138,-1.4031861464129847,0.0,-0.001946528791449964,1.3961149454116821,0.0,0.0014623706229031086,0.8091585040092468,0.0,0.02613167092204094
709.0,639.0,-3.2692,-0.2818,9.3446,-0.0399,0.0229,-0.1167,-2.1975470981993617,0.0,4.333456516265869,-1.562902569770813,-0.0,1.7989418506622314,5.522147643357076,0.0,0.23475000262260437,-1.4031899611102503,0.0,-0.03496990352869034,1.3960468769073486,0.0,0.0005097989924252033,0.8090656399726868,0.0,-0.01608702726662159
709.0,639.0,-3.2692,-0.2818,9.3446,-0.0399,0.0229,-0.1167,-2.1975633106627406,0.0,4.363640308380127,-1.5628867149353027,-0.0,1.8099794387817383,5.522127556591787,0.0,0.22983711957931519,-1.4032304922686976,0.0,-0.015503381378948689,1.3960989713668823,0.0,0.0014867519494146109,0.8091261386871338,0.0,-0.002263297326862812
709.0,639.0,-3.2692,-0.2818,9.3446,-0.0399,0.0229,-0.1167,-2.1975232563414515,0.0,4.378361225128174,-1.5628827810287476,-0.0,1.7781145572662354,5.522131252079763,0.0,0.23831604421138763,-1.4032500425921839,0.0,-0.023567000404000282,1.3960788249969482,0.0,0.02111925557255745,0.8090779781341553,0.0,-0.023839417845010757
709.0,639.0,-3.2692,-0.2818,9.3446,-0.0399,0.0229,-0.1167,-2.1975394688048304,0.0,4.323454856872559,-1.562894582748413,-0.0,1.7947537899017334,5.522163975029745,0.0,0.23731178045272827,-1.403222386037008,0.0,-0.026499368250370026,1.396042823791504,0.0,0.0016382671892642975,0.8091424703598022,0.0,0.004824807867407799
709.0,639.0,-3.2692,-0.2818,9.3446,-0.0399,0.0229,-0.1167,-2.197503706017965,0.0,4.328733444213867,-1.5628747940063477,-0.0,1.8083319664001465,5.522147643357076,0.0,0.23869436979293823,-1.4032099882708948,0.0,-0.01431934256106615,1.3960907459259033,0.0,-0.000624760752543807,0.8091220259666443,0.0,0.03313069045543671
756.0,671.0,-3.2177,-0.1992,9.2028,-0.0348,0.0192,-0.1132,-2.197519441644186,0.0,4.283966064453125,-1.5628628730773926,-0.0,1.8230199813842773,5.522099244385519,0.0,0.2518431544303894,-1.403233830128805,-0.0006862677983008325,-0.026092037558555603,1.396042823791504,2.5881270460104133e-09,0.011742779053747654,0.8091461658477783,0.0,0.01908784732222557
756.0,671.0,-3.2177,-0.1992,9.2028,-0.0348,0.0192,-0.1132,-2.197519441644186,0.0,4.3429999351501465,-1.562914490699768,-0.0,1.7954853773117065,5.522135722428121,0.0,0.22259896993637085,-1.403273884450094,-0.0007565733976662159,-0.03035644441843033,1.3960669040679932,1.1033588973030639e-11,-0.0057798950001597404,0.8092029094696045,1.1381515463426695e-07,0.011460237205028534
756.0,671.0,-3.2177,-0.1992,9.2028,-0.0348,0.0192,-0.1132,-2.1975394688048304,0.0,4.339629650115967,-1.562882661819458,-0.0,1.8193330764770508,5.52216802814559,0.0,0.23256146907806396,-1.4032581488238733,-0.0010412116535007954,-0.03927750140428543,1.3960707187652588,3.071240246306896e-15,-0.003070848062634468,0.8092028498649597,0.0010323580354452133,0.052471406757831573
756.0,671.0,-3.2177,-0.1992,9.2028,-0.0348,0.0192,-0.1132,-2.1975113354124964,2.677192689759522e-09,4.320553779602051,-1.5629103183746338,-0.0,1.8146249055862427,5.522187816887655,0.0,0.24216005206108093,-1.4032705465899866,-0.00040846067713573575,-0.030943766236305237,1.3960145711898804,-4.5604363549500704e-05,0.008534716442227364,0.8091420531272888,0.00118692044634372,0.00810203142464161
756.0,671.0,-3.2177,-0.1992,9.2028,-0.0348,0.0192,-0.1132,-2.1975394688048304,6.465105601344062e-15,4.342461585998535,-1.5628708600997925,-0.0,1.8031713962554932,5.522184061795034,4.313460806315561e-07,0.23249328136444092,-1.4032743612872522,-0.00034778605913743377,-0.010214082896709442,1.3960986137390137,-7.309392822207883e-05,-0.0011711481492966413,0.8091946840286255,0.0008099667611531913,-0.011219236068427563
756.0,671.0,-3.2177,-0.1992,9.2028,-0.0348,0.0192,-0.1132,-2.19749178508901,1.5612468606441535e-20,4.322332859039307,-1.5628747940063477,-0.0,1.7705800533294678,5.522167670517721,1.200667620882001e-10,0.23546968400478363,-1.403278652821676,0.00013066042447462678,-0.03053271770477295,1.3960587978363037,-1.0871536915146862e-06,0.012334180064499378,0.8091705441474915,0.0005258159362711012,0.06167580187320709
756.0,671.0,-3.2177,-0.1992,9.2028,-0.0348,0.0192,-0.1132,-2.1975394688048304,2.8101891793832088e-24,4.348563194274902,-1.5628747940063477,-0.0,1.8018639087677002,5.52220373132781,5.118633923835436e-13,0.23173940181732178,-1.4032581488238733,0.00010246149031445384,-0.03410010039806366,1.3960866928100586,-4.634706840533909e-09,-0.0013922977959737182,0.8091705441474915,0.0003421940782573074,0.008642742410302162
756.0,671.0,-3.2177,-0.1992,9.2028,-0.0348,0.0192,-0.1132,-2.1974994144835414,6.786275212833856e-30,4.324193000793457,-1.5628470182418823,-0.0,1.7849984169006348,5.522139417916097,1.4247905471562124e-16,0.23213627934455872,-1.403278652821676,0.00013232904893811792,-0.02146104723215103,1.3961108922958374,-1.2900878282318118e-12,-0.0015717984642833471,0.809141993522644,0.00026548057212494314,0.01691228151321411
756.0,671.0,-3.2177,-0.1992,9.2028,-0.0348,0.0192,-0.1132,-2.1974874935545863,1.6388055768830551e-35,4.314546585083008,-1.5628589391708374,-0.0,1.756982445716858,5.522183644562521,3.965956867211558e-20,0.24307554960250854,-1.4031818548785608,0.00012169927504146472,-0.006347249262034893,1.396094799041748,-3.591007032494243e-16,-0.00519120879471302,0.8091543912887573,0.00021737892529927194,0.015123757533729076
756.0,671.0,-3.2177,-0.1992,9.2028,-0.0348,0.0192,-0.1132,-2.197531362573141,2.9497921219392416e-39,4.3517584800720215,-1.5628708600997925,-0.0,1.7486848831176758,5.522143590241232,1.6907495485066005e-22,0.2376045286655426,-1.4032099882708948,0.00014668356743641198,-0.016177713871002197,1.3960422277450562,-1.5309026575261377e-18,0.01160298753529787,0.8091623187065125,0.00019395240815356374,-0.021673833951354027
756.0,671.0,-3.2177,-0.1992,9.2028,-0.0348,0.0192,-0.1132,-2.197531362573141,7.006492321624085e-45,4.297018051147461,-1.562890648841858,-0.0,1.8199403285980225,5.522139417916097,4.70626404186287e-26,0.24381288886070251,-1.4031575361834925,0.00013641371333505958,-0.02445954456925392,1.3960826396942139,-4.26132361632412e-22,-0.01227808278053999,0.8091502785682678,0.0001669639750616625,-0.00825919397175312
756.0,671.0,-3.2177,-0.1992,9.2028,-0.0348,0.0192,-0.1132,-2.1975394688048304,0.0,4.374231338500977,-1.5628986358642578,-0.0,1.814015507698059,5.5221197483833215,1.310005962499876e-29,0.23543772101402283,-1.4032495657550257,0.00010079509956995025,-0.01611441932618618,1.3960506916046143,-1.1861550461769864e-25,0.006029748823493719,0.8091342449188232,0.00014656917483080178,0.054257966578006744
756.0,671.0,-3.2177,-0.1992,9.2028,-0.0348,0.0192,-0.1132,-2.197531362573141,0.0,4.347501754760742,-1.5628550052642822,-0.0,1.8018040657043457,5.522195982723989,5.584760730318829e-32,0.24843940138816833,-1.4032700697528284,9.061154560185969e-05,-0.02136445790529251,1.3960145711898804,-5.056765476889361e-28,0.0008937208913266659,0.8092188835144043,4.137565701967105e-05,0.03582099825143814
756.0,671.0,-3.2177,-0.1992,9.2028,-0.0348,0.0192,-0.1132,-2.1975275478758753,0.0,4.322671890258789,-1.5628867149353027,-0.0,1.765122890472412,5.522107410221853,1.55453876053811e-35,0.242692768573761,-1.40324575105776,7.871978596085683e-05,-0.011599047109484673,1.3960587978363037,-1.4075693793186898e-31,-0.0024447315372526646,0.8091502785682678,3.5323595511727035e-05,0.036470916122198105
756.0,671.0,-3.2177,-0.1992,9.2028,-0.0348,0.0192,-0.1132,-2.197555204431051,0.0,4.33986234664917,-1.5629264116287231,-0.0,1.8532309532165527,5.522131728916921,6.627241542122902e-38,0.2474522590637207,-1.4032905737506312,7.238681428134441e-05,-0.01877007447183132,1.3960747718811035,-6.0006892760165375e-34,0.0024817544035613537,0.809166431427002,3.275247581768781e-05,0.03029194287955761
756.0,671.0,-3.2177,-0.1992,9.2028,-0.0348,0.0192,-0.1132,-2.1975513897337855,0.0,4.368025779724121,-1.5629463195800781,-0.0,1.8156628608703613,5.522151636868276,1.8446692984371892e-41,0.24605149030685425,-1.4032300154315394,6.459267024183646e-05,-0.03348630666732788,1.396147608757019,-1.670314026208161e-37,0.0005280391778796911,0.8092185854911804,2.9528588129323907e-05,-0.008424217812716961
783.0,577.0,-4.6552,-4.8826,9.8901,-0.2868,0.1399,0.1112,-2.1975513897337855,0.0,4.345119476318359,-1.562922477722168,-0.0,1.8308627605438232,5.522147583752432,5.605193857299268e-45,0.23500129580497742,-1.4032376448260706,2.9191700377850793e-05,-0.024556484073400497,1.3960747718811035,-4.649368174783311e-41,0.006169558502733707,0.809186577796936,2.6882511519943364e-05,0.02295575849711895
783.0,577.0,-4.6552,-4.8826,9.8901,-0.2868,0.1399,0.1112,-2.197583337823385,0.0,4.308468818664551,-1.562954306602478,-0.0,1.8155405521392822,5.522163975029745,0.0,0.25005388259887695,-1.4032300154315394,2.73828500212403e-05,-0.014719485305249691,1.3960628509521484,-1.975830834697992e-43,-0.002947285771369934,0.809178352355957,5.069309918326326e-05,0.012548145838081837
783.0,577.0,-4.6552,-4.8826,9.8901,-0.2868,0.1399,0.1112,-2.1975113354124964,0.0,4.3824005126953125,-1.5628589391708374,-0.0,1.803971767425537,5.522119331150808,0.0,0.23138657212257385,-1.4032419363604944,2.50921439146623e-05,-0.03256054222583771,1.3960747718811035,-0.0,0.0018020856659859419,0.8091502785682678,4.677876495406963e-05,0.013962328433990479
783.0,577.0,-4.6552,-4.8826,9.8901,-0.2868,0.1399,0.1112,-2.197575708428854,0.0,4.300899982452393,-1.5628867149353027,-0.0,1.8165878057479858,5.522143590241232,0.0,0.2405104637145996,-1.40322190919985,2.3155316739575937e-05,-0.020616333931684494,1.3960506916046143,-0.0,-0.0041485740803182125,0.8091623187065125,6.509172089863569e-05,0.009243257343769073
783.0,577.0,-4.6552,-4.8826,9.8901,-0.2868,0.1399,0.1112,-2.197555204431051,0.0,4.34727668762207,-1.562910556793213,-0.0,1.797276258468628,5.52216403463439,0.0,0.2475048303604126,-1.4032462278949183,2.202205541834701e-05,-0.027950946241617203,1.3960949182510376,-0.0,0.0028605302795767784,0.8091541528701782,8.276524749817327e-05,0.015259679406881332
783.0,577.0,-4.6552,-4.8826,9.8901,-0.2868,0.1399,0.1112,-2.1975470981993617,0.0,4.318915367126465,-1.5629065036773682,-0.0,1.7680530548095703,5.522180068283834,0.0,0.2591552436351776,-1.4032705465899866,2.051599403785076e-05,-0.025960590690374374,1.3960747718811035,-0.0,0.0015349900349974632,0.8092309832572937,0.00020293047418817878,0.014659227803349495
783.0,577.0,-4.6552,-4.8826,9.8901,-0.2868,0.1399,0.1112,-2.1976033649840296,0.0,4.3012800216674805,-1.5628867149353027,-0.0,1.7818458080291748,5.522155749588766,0.0,0.2415677309036255,-1.4032495657550257,1.9202730982215144e-05,-0.01746984012424946,1.3960226774215698,-0.0,0.005426357500255108,0.8092347979545593,0.0002559790445957333,-0.005418387707322836
783.0,577.0,-4.6552,-4.8826,9.8901,-0.2868,0.1399,0.1112,-2.1975351772704066,0.0,4.358631134033203,-1.5628430843353271,-0.0,1.7754042148590088,5.522127556591787,0.0,0.2532886862754822,-1.403261963521139,1.8416811144561507e-05,-0.02867012470960617,1.3960669040679932,-0.0,0.0014408889692276716,0.8092268705368042,0.0007958569913171232,-0.026299241930246353
783.0,577.0,-4.6552,-4.8826,9.8901,-0.2868,0.1399,0.1112,-2.1975590191283167,0.0,4.336101531982422,-1.562890648841858,-0.0,1.8198435306549072,5.522107410221853,0.0,0.25243231654167175,-1.4032538572894495,2.274107373523293e-06,-0.021301232278347015,1.3961149454116821,-0.0,0.0007956982590258121,0.8092507123947144,0.0009351530461572111,0.01021544449031353
783.0,577.0,-4.6552,-4.8826,9.8901,-0.2868,0.1399,0.1112,-2.1975590191283167,0.0,4.342516899108887,-1.5628827810287476,-0.0,1.7968451976776123,5.522167670517721,0.0,0.2465735673904419,-1.4032500425921839,6.330062030102113e-10,-0.023601993918418884,1.3960669040679932,-0.0,-0.000455453060567379,0.8092103600502014,0.0008235752466134727,0.02638070285320282
783.0,577.0,-4.6552,-4.8826,9.8901,-0.2868,0.1399,0.1112,-2.1975590191283167,0.0,4.347083568572998,-1.562910556793213,-0.0,1.7938692569732666,5.522151696472921,0.0,0.24943646788597107,-1.4032462278949183,2.698604794487691e-12,-0.020944850519299507,1.3961108922958374,-0.0,-0.0111341318115592,0.8092065453529358,0.0007894235313870013,0.000839174201246351
783.0,577.0,-4.6552,-4.8826,9.8901,-0.2868,0.1399,0.1112,-2.1975470981993617,1.3632875379698817e-05,4.328665256500244,-1.562890648841858,-0.0,1.809898853302002,5.522167670517721,7.213585922727361e-05,0.24563977122306824,-1.4032743612872522,7.511665523774467e-16,-0.02846495248377323,1.3960587978363037,-0.0,0.004978674929589033,0.8092226982116699,0.0005302723729982972,0.006597552448511124
783.0,577.0,-4.6552,-4.8826,9.8901,-0.2868,0.1399,0.1112,-2.197555204431051,1.3308859706739895e-05,4.312585830688477,-1.5629422664642334,-0.0,1.795673131942749,5.522203790932455,8.486397564411163e-05,0.24489516019821167,-1.4032262007342737,3.202340612788044e-18,-0.02040233090519905,1.3960907459259033,-0.0,-0.003527481574565172,0.809238851070404,0.0005147480987943709,-0.004698051139712334
783.0,577.0,-4.6552,-4.8826,9.8901,-0.2868,0.1399,0.1112,-2.1974955997862757,1.2743548722937703e-05,4.315974235534668,-1.5628550052642822,-0.0,1.787956714630127,5.522179591446676,9.456818952457979e-05,0.2513453960418701,-1.403261963521139,8.91383237460354e-22,-0.029709845781326294,1.3960587978363037,-0.0,0.009953882545232773,0.809230625629425,0.0004003438225481659,-0.026205196976661682
783.0,577.0,-4.6552,-4.8826,9.8901,-0.2868,0.1399,0.1112,-2.197555204431051,2.4447805117233656e-05,4.3043060302734375,-1.5628787279129028,-0.0,1.8211990594863892,5.522159504681387,0.00010351450328016654,0.2510616183280945,-1.4032419363604944,2.4811980422158264e-25,-0.03324480354785919,1.3960707187652588,-0.0,-0.004791046027094126,0.8091864585876465,0.00032749035744927824,0.04528772085905075
783.0,577.0,-4.6552,-4.8826,9.8901,-0.2868,0.1399,0.1112,-2.1975232563414515,2.3802002033335157e-05,4.330842018127441,-1.5628669261932373,-0.0,1.8012949228286743,5.522179591446676,0.00010064834350487217,0.2590295672416687,-1.4032824675189417,1.0577734959379461e-27,-0.022371968254446983,1.3960227966308594,-0.0,0.005915666464716196,0.8092425465583801,0.0002920603146776557,-0.0061793639324605465
783.0,577.0,-4.6552,-4.8826,9.8901,-0.2868,0.1399,0.1112,-2.1975351772704066,3.434065365581773e-05,4.331925392150879,-1.5628550052642822,-0.0,1.7748486995697021,5.522179591446676,9.659757051849738e-05,0.24532821774482727,-1.4032581488238733,2.9443509784707267e-31,-0.014244358986616135,1.39604651927948,-0.0,0.023516472429037094,0.8092065453529358,0.00020940630929544568,-0.009759165346622467
775.0,633.0,-3.463,1.008,9.6359,-0.0385,0.0012,-0.0849,-2.1975394688048304,3.307859878987074e-05,4.286122798919678,-1.5628867149353027,-0.0,1.8136203289031982,5.522171723633566,9.286006388720125e-05,0.2447778284549713,-1.4032300154315394,8.195709047966818e-35,-0.01630113273859024,1.3960870504379272,-0.0,0.01241582166403532,0.8091987371444702,0.00018374939099885523,0.040652498602867126
775.0,633.0,-3.463,1.008,9.6359,-0.0385,0.0012,-0.0849,-2.197555204431051,3.2287498470395803e-05,4.333897590637207,-1.562882661819458,-0.0,1.8263187408447266,5.52219973781661,0.0002298749895999208,0.2457476258277893,-1.4032538572894495,3.4939590272137607e-37,-0.028150342404842377,1.3960789442062378,-0.0,-0.01110817864537239,0.809230625629425,0.0001698758569546044,0.0011926721781492233
775.0,633.0,-3.463,1.008,9.6359,-0.0385,0.0012,-0.0849,-2.197519441644186,3.116931839031167e-05,4.331267833709717,-1.5628827810287476,-0.0,1.7940798997879028,5.522183644562521,0.0002003428089665249,0.2370729148387909,-1.4032257238971155,9.72557186179996e-41,-0.012953568249940872,1.3960908651351929,-0.0,0.008068854920566082,0.8091863989830017,0.00015259381325449795,-0.013613326475024223
775.0,633.0,-3.463,1.008,9.6359,-0.0385,0.0012,-0.0849,-2.197503706017965,3.012600245710928e-05,4.355514049530029,-1.5628628730773926,-0.0,1.7795357704162598,5.5221717832382105,0.00017673337424639612,0.24939429759979248,-1.403261963521139,2.6624670822171524e-44,-0.030095664784312248,1.3960747718811035,-0.0,0.007875335402786732,0.8092103600502014,0.00013850361574441195,-0.03263150155544281
775.0,633.0,-3.463,1.008,9.6359,-0.0385,0.0012,-0.0849,-2.1975633106627406,3.997189139681723e-07,4.296840190887451,-1.5629264116287231,-0.0,1.8142693042755127,5.522171366005697,0.00016386029892601073,0.23834535479545593,-1.4032581488238733,0.0,-0.01862938329577446,1.396054744720459,-0.0,0.011554536409676075,0.8092309236526489,0.00013047187530901283,0.0199253149330616
775.0,633.0,-3.463,1.008,9.6359,-0.0385,0.0012,-0.0849,-2.1975113354124964,9.652743014620935e-13,4.279778480529785,-1.5629065036773682,-0.0,1.819732666015625,5.522167670517721,0.00014772116264794022,0.24362795054912567,-1.403278652821676,0.0,-0.026118312031030655,1.3961235284805298,-0.0,0.006292671896517277,0.8092268705368042,0.00012003134906990454,0.0027624177746474743
775.0,633.0,-3.463,1.008,9.6359,-0.0385,0.0012,-0.0849,-2.1975232563414515,2.3310239174958713e-18,4.330511569976807,-1.5629264116287231,-0.0,1.806372880935669,5.522195625096121,0.00010770303197205067,0.23546558618545532,-1.403205696736471,0.0,-0.019561931490898132,1.3960907459259033,-0.0,0.011900031007826328,0.8092144727706909,0.0001111380333895795,0.027609793469309807
775.0,633.0,-3.463,1.008,9.6359,-0.0385,0.0012,-0.0849,-2.1975513897337855,4.19576081851135e-22,4.337287902832031,-1.562894582748413,-0.0,1.8216454982757568,5.522155749588766,0.00010151401511393487,0.23728150129318237,-1.4032381216632288,0.0,-0.016855493187904358,1.3960829973220825,-0.0,0.004510957282036543,0.8091824650764465,0.00010590678721200675,0.021115953102707863
775.0,633.0,-3.463,1.008,9.6359,-0.0385,0.0012,-0.0849,-2.197567125360006,1.0132267363242694e-27,4.362456321716309,-1.5629066228866577,-0.0,1.7912774085998535,5.522115278034963,9.359543764730915e-05,0.2370290756225586,-1.403261963521139,0.0,-0.02105741761624813,1.39613938331604,-0.0,0.003135506995022297,0.809230625629425,9.892239177133888e-05,0.018117032945156097
775.0,633.0,-3.463,1.008,9.6359,-0.0385,0.0012,-0.0849,-2.1975113354124964,1.8237724323346741e-31,4.320080280303955,-1.5628669261932373,-0.0,1.8166301250457764,5.522175955563345,8.896889630705118e-05,0.24627766013145447,-1.403217617665426,0.0,-0.02221149019896984,1.3960587978363037,-0.0,0.003944958094507456,0.8091905117034912,9.475638944422826e-05,-0.029719093814492226
775.0,633.0,-3.463,1.008,9.6359,-0.0385,0.0012,-0.0849,-2.1974874935545863,4.404196322841778e-37,4.305142879486084,-1.5629066228866577,-0.0,1.8046828508377075,5.522119331150808,8.282780618174002e-05,0.24036264419555664,-1.403261963521139,0.0,-0.03271268680691719,1.3960587978363037,-0.0,-0.0015491268131881952,0.8092103600502014,8.912640623748302e-05,-0.004902973771095276
775.0,633.0,-3.463,1.008,9.6359,-0.0385,0.0012,-0.0849,-2.1975633106627406,1.0635855344225362e-42,4.359189987182617,-1.5628986358642578,-0.0,1.7944116592407227,5.522171723633566,7.747964991722256e-05,0.24380691349506378,-1.4032581488238733,0.0,-0.01783745177090168,1.3961153030395508,-0.0,0.0006590874399989843,0.8092268705368042,8.412761962972581e-05,-0.0315595418214798
775.0,633.0,-3.463,1.008,9.6359,-0.0385,0.0012,-0.0849,-2.1975113354124964,0.0,4.337860584259033,-1.5628867149353027,-0.0,1.7766973972320557,5.5221599219139,7.428226672345772e-05,0.2266983687877655,-1.4032300154315394,0.0,-0.015253692865371704,1.3960908651351929,-0.0,0.005607244558632374,0.8092106580734253,8.109558984870091e-05,0.011738958768546581
775.0,633.0,-3.463,1.008,9.6359,-0.0385,0.0012,-0.0849,-2.197507520715231,0.0,4.338593482971191,-1.5628867149353027,-0.0,1.7733834981918335,5.522155749588766,6.995202420512214e-05,0.2413119226694107,-1.4032419363604944,0.0,-0.01767316460609436,1.3960587978363037,-0.0,0.01129341684281826,0.8091983199119568,7.693614315940067e-05,-0.005888835061341524
775.0,633.0,-3.463,1.008,9.6359,-0.0385,0.0012,-0.0849,-2.197531362573141,0.0,4.340500831604004,-1.5629427433013916,-0.0,1.797696828842163,5.522147583752432,6.609876436414197e-05,0.24800047278404236,-1.4031980673419397,0.0,-0.0077018835581839085,1.39604651927948,-0.0,0.019231785088777542,0.8092107176780701,7.318265124922618e-05,0.0007766461931169033
775.0,633.0,-3.463,1.008,9.6359,-0.0385,0.0012,-0.0849,-2.1975113354124964,3.219829159206711e-05,4.340882301330566,-1.5628867149353027,-0.0,1.821777582168579,5.522127616196432,6.37574921711348e-05,0.2294941246509552,-1.4032180945025843,0.0,-0.020498845726251602,1.3960907459259033,-0.0,0.015608974732458591,0.8092024326324463,7.087735866662115e-05,0.01543282251805067
775.0,633.0,-3.463,1.008,9.6359,-0.0385,0.0012,-0.0849,-2.197543283502096,3.05671346723102e-05,4.285736083984375,-1.562894582748413,-0.0,1.806593418121338,5.5221919296081445,6.0540831327671185e-05,0.22826656699180603,-1.4032381216632288,0.0,-0.02479305863380432,1.3960866928100586,-0.0,-0.001761934021487832,0.8092029690742493,6.767942977603525e-05,0.023082084953784943
736.0,577.0,-3.0646,-0.1172,9.1711,-0.0304,-0.0075,-0.1051,-2.197519441644186,2.9085400456096977e-05,4.3366594314575195,-1.562862753868103,-0.0,1.7489160299301147,5.522159981518545,5.76331585762091e-05,0.2402356117963791,-1.4032180945025843,0.0,-0.013384919613599777,1.3960866928100586,-0.0,0.005016534589231014,0.8092065453529358,6.475765258073807e-05,-0.0016035260632634163
736.0,577.0,-3.0646,-0.1172,9.1711,-0.0304,-0.0075,-0.1051,-2.1975275478758753,2.817489075823687e-05,4.317798137664795,-1.5628827810287476,-0.0,1.7799664735794067,5.522151636868276,5.584509199252352e-05,0.23661881685256958,-1.4032180945025843,0.0,-0.02158217504620552,1.3961108922958374,-0.0,0.002306893467903137,0.8092144727706909,6.294601917034015e-05,0.0003574681468307972
736.0,577.0,-3.0646,-0.1172,9.1711,-0.0304,-0.0075,-0.1051,-2.1975275478758753,2.6911213353741914e-05,4.353302955627441,-1.5628390312194824,-0.0,1.7716007232666016,5.522147524147787,5.336183312465437e-05,0.25172919034957886,-1.4032180945025843,0.0,-0.008586855605244637,1.3960866928100586,-0.0,0.0076155588030815125,0.8092185854911804,6.041099186404608e-05,-0.006318332627415657
736.0,577.0,-3.0646,-0.1172,9.1711,-0.0304,-0.0075,-0.1051,-2.1975470981993617,2.5756002287380397e-05,4.316911697387695,-1.5628429651260376,-0.0,1.8172093629837036,5.52218775728301,5.10899189976044e-05,0.24190860986709595,-1.4032257238971155,0.0,-0.011283526197075844,1.3960949182510376,-0.0,0.011882069520652294,0.8092144727706909,4.78117581224069e-05,0.021316012367606163
736.0,577.0,-3.0646,-0.1172,9.1711,-0.0304,-0.0075,-0.1051,-2.1975156269469203,2.5039451429620385e-05,4.325359344482422,-1.5628747940063477,-0.0,1.754450798034668,5.522155749588766,4.967984932591207e-05,0.23439520597457886,-1.40322190919985,0.0,-0.020131569355726242,1.396054983139038,-0.0,0.00020833034068346024,0.8091946840286255,4.52891290478874e-05,-0.013044160790741444
736.0,577.0,-3.0646,-0.1172,9.1711,-0.0304,-0.0075,-0.1051,-2.197535654107565,2.4036376998992637e-05,4.345703601837158,-1.5628708600997925,-0.0,1.7691925764083862,5.522171723633566,4.770487794303335e-05,0.23833303153514862,-1.4032581488238733,0.0,-0.023962847888469696,1.3960587978363037,-0.0,0.0021325740963220596,0.8091905117034912,4.36418667959515e-05,-0.02174152247607708
736.0,577.0,-3.0646,-0.1172,9.1711,-0.0304,-0.0075,-0.1051,-2.197555204431051,2.3411144866258837e-05,4.314886093139648,-1.5628589391708374,-0.0,1.8048237562179565,5.522191989212789,4.647324021789245e-05,0.2442406266927719,-1.4032099882708948,0.0,-0.024805668741464615,1.396051049232483,-0.0,0.0001577627845108509,0.8091581463813782,3.19623650284484e-05,0.014503189362585545
736.0,577.0,-3.0646,-0.1172,9.1711,-0.0304,-0.0075,-0.1051,-2.197583337823385,3.379790723556653e-05,4.306466579437256,-1.5628429651260376,-0.0,1.775010585784912,5.522131669312277,4.4740550947608426e-05,0.2512142062187195,-1.40322190919985,0.0,-0.012888475321233273,1.3960587978363037,-0.0,-0.005441942252218723,0.8092028498649597,3.086085052927956e-05,0.004054687451571226
736.0,577.0,-3.0646,-0.1172,9.1711,-0.0304,-0.0075,-0.1051,-2.197519441644186,3.257473144913092e-05,4.311713218688965,-1.5628708600997925,-0.0,1.7922954559326172,5.522127616196432,4.3132433347636834e-05,0.2357456386089325,-1.4032500425921839,0.0,-0.035090669989585876,1.3961108922958374,-0.0,-0.001761139021255076,0.8092147707939148,2.987761217809748e-05,-0.01660054735839367
736.0,577.0,-3.0646,-0.1172,9.1711,-0.0304,-0.0075,-0.1051,-2.1975232563414515,3.180726707796566e-05,4.350914478302002,-1.5628867149353027,-0.0,1.7969293594360352,5.5221717832382105,4.212308340356685e-05,0.2418879270553589,-1.4032300154315394,0.0,-0.025395402684807777,1.3960587978363037,-0.0,-0.000666081381496042,0.809186577796936,-2.0645009499276057e-05,0.02887771651148796
736.0,577.0,-3.0646,-0.1172,9.1711,-0.0304,-0.0075,-0.1051,-2.1975156269469203,3.072153776884079e-05,4.296327114105225,-1.562902569770813,-0.0,1.8139636516571045,5.5221919296081445,4.069462011102587e-05,0.23306351900100708,-1.4031980673419397,0.0,-0.016516007483005524,1.396042823791504,-0.0,0.004027794115245342,0.8091706037521362,-1.996689388761297e-05,0.03395991772413254
736.0,577.0,-3.0646,-0.1172,9.1711,-0.0304,-0.0075,-0.1051,-2.1975513897337855,1.0138359357370064e-05,4.354046821594238,-1.5629104375839233,-0.0,1.754475474357605,5.522167670517721,2.5983249543060083e-06,0.23242917656898499,-1.403261963521139,0.0,-0.03216865658760071,1.3960788249969482,-0.0,-0.004919169470667839,0.8091987371444702,-4.1398842687279114e-10,0.015090265311300755
736.0,577.0,-3.0646,-0.1172,9.1711,-0.0304,-0.0075,-0.1051,-2.1975351772704066,1.824868811617364e-09,4.33921480178833,-1.5628787279129028,-0.0,1.7618930339813232,5.522167670517721,1.1077067263443041e-08,0.2483455091714859,-1.4032138029681605,0.0,-0.02136163040995598,1.3961026668548584,-0.0,-0.007961336523294449,0.8091946244239807,-7.451646314967156e-14,0.006187452003359795
736.0,577.0,-3.0646,-0.1172,9.1711,-0.0304,-0.0075,-0.1051,-2.1975275478758753,4.406842644570424e-15,4.360467433929443,-1.5628787279129028,-0.0,1.7798411846160889,5.522151696472921,3.083341958490249e-12,0.2373819500207901,-1.4032424131976526,0.0,-0.01133773010224104,1.3960506916046143,-0.0,0.0031365621834993362,0.8091742396354675,-1.7994850229466263e-19,0.04076899215579033
736.0,577.0,-3.0646,-0.1172,9.1711,-0.0304,-0.0075,-0.1051,-2.1975513897337855,1.0642006544682881e-20,4.287684917449951,-1.5628668069839478,-0.0,1.8343383073806763,5.522212016373434,8.582596278163272e-16,0.2299140989780426,-1.4032300154315394,0.0,-0.023559294641017914,1.396018624305725,-0.0,-0.001972151454538107,0.8091623783111572,-4.345545313517951e-25,-0.035975381731987
736.0,577.0,-3.0646,-0.1172,9.1711,-0.0304,-0.0075,-0.1051,-2.197531362573141,1.9155234885407866e-24,4.324215888977051,-1.562902569770813,-0.0,1.768020749092102,5.5221758959587,3.6588953004660216e-18,0.23086798191070557,-1.4032099882708948,0.0,-0.025501087307929993,1.3960949182510376,-0.0,0.003478515427559614,0.8091742396354675,-7.821828635094706e-29,-0.04054047912359238
736.0,577.0,-3.0646,-0.1172,9.1711,-0.0304,-0.0075,-0.1051,-2.197583337823385,4.625763991954717e-30,4.280926704406738,-1.562890648841858,-0.0,1.8034534454345703,5.522155749588766,1.0184670379736781e-21,0.23792865872383118,-1.403222386037008,0.0,-0.037614353001117706,1.3960587978363037,-0.0,0.004709793254733086,0.8091824650764465,-1.888879372639775e-34,0.02405768632888794
746.0,567.0,-3.3404,-0.2495,9.3428,-0.0391,0.0365,-0.1162,-2.1975394688048304,1.1170675319693529e-35,4.320681571960449,-1.562894582748413,-0.0,1.7748465538024902,5.522135364800253,2.834940281930197e-25,0.23708617687225342,-1.4032343069659632,0.0,-0.016428209841251373,1.3961193561553955,-0.0,0.002051133196800947,0.8091623783111572,-4.561422683162285e-40,-0.004040619358420372
746.0,567.0,-3.3404,-0.2495,9.3428,-0.0391,0.0365,-0.1162,-2.1975275478758753,2.0106825288042146e-39,4.320416450500488,-1.5628867149353027,-0.0,1.7787628173828125,5.522171723633566,1.2085795883732999e-27,0.23656906187534332,-1.4032419363604944,0.0,-0.010611338540911674,1.3960305452346802,-0.0,0.006328944116830826,0.8091864585876465,-8.267660939516421e-44,0.026611430570483208
746.0,567.0,-3.3404,-0.2495,9.3428,-0.0391,0.0365,-0.1162,-2.1975590191283167,4.203895392974451e-45,4.320769309997559,-1.5628986358642578,-0.0,1.792543888092041,5.52218775728301,3.3641256535222495e-31,0.24797146022319794,-1.4032061735736292,0.0,-0.011172367259860039,1.3960506916046143,-0.0,-0.000690022949129343,0.8091824650764465,0.0,0.007722718641161919
746.0,567.0,-3.3404,-0.2495,9.3428,-0.0391,0.0365,-0.1162,-2.1975113354124964,0.0,4.291316986083984,-1.5628867149353027,-0.0,1.7639224529266357,5.5221599219139,1.4341793314650019e-33,0.2353205680847168,-1.40322190919985,0.0,-0.023146087303757668,1.3960305452346802,-0.0,-0.00366519158706069,0.8091741800308228,0.0,0.08825977891683578
746.0,567.0,-3.3404,-0.2495,9.3428,-0.0391,0.0365,-0.1162,-2.1975470981993617,-4.256239662936423e-06,4.350208759307861,-1.562930941581726,-0.0,1.7769217491149902,5.522139417916097,3.992090363234404e-37,0.24727612733840942,-1.403193775807516,0.0,-0.018876243382692337,1.3960866928100586,-0.0,0.01505866926163435,0.8091540336608887,0.0,0.029641974717378616
746.0,567.0,-3.3404,-0.2495,9.3428,-0.0391,0.0365,-0.1162,-2.1975232563414515,-1.3710236999031622e-05,4.322298049926758,-1.5628787279129028,-0.0,1.790958046913147,5.5221271989639185,1.1112156692249367e-40,0.23493552207946777,-1.4032381216632288,0.0,-0.0164455845952034,1.3960989713668823,-0.0,-0.012087460607290268,0.809178352355957,0.0,-0.024578861892223358
746.0,567.0,-3.3404,-0.2495,9.3428,-0.0391,0.0365,-0.1162,-2.197555204431051,-1.33049124997342e-05,4.333531856536865,-1.5628669261932373,-0.0,1.7959179878234863,5.52218775728301,4.736388809417882e-43,0.25027456879615784,-1.4032180945025843,0.0,-0.019210180267691612,1.396034598350525,-0.0,0.001317253801971674,0.8091540932655334,0.0,0.010389312170445919
746.0,567.0,-3.3404,-0.2495,9.3428,-0.0391,0.0365,-0.1162,-2.197519441644186,-1.2739906196657103e-05,4.351070880889893,-1.5628708600997925,-0.0,1.793039083480835,5.5221599219139,0.0,0.23263388872146606,-1.403193775807516,0.0,-0.014048140496015549,1.3960989713668823,-0.0,0.0009235545294359326,0.8091623783111572,0.0,0.026554688811302185
746.0,567.0,-3.3404,-0.2495,9.3428,-0.0391,0.0365,-0.1162,-2.1975156269469203,-6.6206626847531425e-09,4.325617790222168,-1.5628708600997925,-0.0,1.7884368896484375,5.522195982723989,0.0,0.22630640864372253,-1.403222386037008,0.0,-0.015335619449615479,1.39604651927948,-0.0,-0.0022717302199453115,0.8091946840286255,0.0,-0.005652944557368755
746.0,567.0,-3.3404,-0.2495,9.3428,-0.0391,0.0365,-0.1162,-2.197543283502096,-1.1916958305574488e-12,4.325762748718262,-1.5628867149353027,-0.0,1.880086898803711,5.522143471031942,0.0,0.25082385540008545,-1.4032462278949183,0.0,-0.03086763620376587,1.3960986137390137,-0.0,-0.009321367368102074,0.809178352355957,0.0,-0.00398899195715785
746.0,567.0,-3.3404,-0.2495,9.3428,-0.0391,0.0365,-0.1162,-2.197543283502096,-2.8778053984396017e-18,4.340226173400879,-1.562894582748413,-0.0,1.7890205383300781,5.5221800086791895,0.0,0.23994748294353485,-1.4032180945025843,0.0,-0.025185197591781616,1.3960944414138794,-0.0,0.0162651427090168,0.8091905117034912,0.0,0.0018730536103248596
746.0,567.0,-3.3404,-0.2495,9.3428,-0.0391,0.0365,-0.1162,-2.197519441644186,-6.949561652409509e-24,4.337111473083496,-1.5628550052642822,-0.0,1.815679669380188,5.5221599219139,0.0,0.23782673478126526,-1.4032061735736292,0.0,-0.011799715459346771,1.3960423469543457,-0.0,-0.0004853642312809825,0.8091623783111572,0.0,-0.017970599234104156
746.0,567.0,-3.3404,-0.2495,9.3428,-0.0391,0.0365,-0.1162,-2.1975275478758753,-1.2508966025938623e-27,4.325191497802734,-1.562851071357727,-0.0,1.7598371505737305,5.522155749588766,0.0,0.23429211974143982,-1.4032300154315394,0.0,-0.03520652651786804,1.3960587978363037,-0.0,0.005039148032665253,0.809158205986023,0.0,-0.002555937273427844
746.0,567.0,-3.3404,-0.2495,9.3428,-0.0391,0.0365,-0.1162,-2.1975275478758753,-3.0207679339988444e-33,4.284411430358887,-1.562890648841858,-0.0,1.782951831817627,5.522147583752432,0.0,0.23333972692489624,-1.4032300154315394,0.0,-0.014092076569795609,1.396066665649414,-0.0,-0.00039511267095804214,0.8091946840286255,0.0,0.034168846905231476
746.0,567.0,-3.3404,-0.2495,9.3428,-0.0391,0.0365,-0.1162,-2.1975394688048304,-7.294798270271202e-39,4.330692291259766,-1.562851071357727,-0.0,1.8512451648712158,5.522163617401876,0.0,0.24151843786239624,-1.4032257238971155,0.0,-0.013230684213340282,1.396066665649414,-0.0,-0.002272222191095352,0.8091987371444702,0.0,0.00386055582202971
746.0,567.0,-3.3404,-0.2495,9.3428,-0.0391,0.0365,-0.1162,-2.1976033649840296,-1.3130166610723536e-42,4.316108226776123,-1.5628747940063477,-0.0,1.8222800493240356,5.522199678211965,0.0,0.22586104273796082,-1.4032462278949183,0.0,-0.013302575796842575,1.3960309028625488,-0.0,-0.004851379431784153,0.8092145323753357,0.0,0.05169869214296341
746.0,567.0,-3.3404,-0.2495,9.3428,-0.0391,0.0365,-0.1162,-2.197603841821188,-0.0005746985552832484,4.327668190002441,-1.562910556793213,-0.0,1.8157706260681152,5.522167730122366,0.0,0.24365250766277313,-1.4032343069659632,0.0,-0.01637948863208294,1.3961026668548584,-0.0,0.010498570278286934,0.8092226386070251,0.0,0.022621968761086464
772.0,595.0,-3.3075,-0.0544,8.8445,-0.0272,0.0275,-0.1185,-2.1976195774474085,-0.0006404250743798912,4.350319862365723,-1.5629066228866577,-0.0,1.7525880336761475,5.522167670517721,0.0,0.23774929344654083,-1.4031980673419397,0.0,-0.013429500162601471,1.3960907459259033,-0.0,0.003257474862039089,0.8091824054718018,0.0,-0.004415279254317284
772.0,595.0,-3.3075,-0.0544,8.8445,-0.0272,0.0275,-0.1185,-2.1976834736266078,-0.0008882943075150251,4.294898986816406,-1.5628589391708374,-0.0,1.7974941730499268,5.522171723633566,0.0,0.23041313886642456,-1.4032138029681605,0.0,-0.017969461157917976,1.3960145711898804,-0.0,0.0008976098615676165,0.809182345867157,0.0,-0.013428078964352608
772.0,595.0,-3.3075,-0.0544,8.8445,-0.0272,0.0275,-0.1185,-2.1976310215392054,-0.0006031247321516275,4.329527854919434,-1.5628628730773926,-0.0,1.839226245880127,5.522155749588766,0.0,0.22925086319446564,-1.4032262007342737,0.0,-0.01810188964009285,1.3960305452346802,-0.0,0.003920308314263821,0.8092347383499146,0.0,0.04053729400038719
772.0,595.0,-3.3075,-0.0544,8.8445,-0.0272,0.0275,-0.1185,-2.197583337823385,-0.0004929523565806448,4.403256416320801,-1.5628111362457275,1.08275798993418e-06,1.7963879108428955,5.522187816887655,0.0,0.2444973587989807,-1.403222386037008,0.0,-0.022549238055944443,1.396042823791504,-0.0,0.0003810215275734663,0.8091781735420227,0.0,0.015539475716650486
772.0,595.0,-3.3075,-0.0544,8.8445,-0.0272,0.0275,-0.1185,-2.1976071796812953,-0.0003224614483769983,4.343463897705078,-1.5628350973129272,2.6147335165094265e-12,1.786272644996643,5.522119271546163,0.0,0.24048879742622375,-1.4032300154315394,0.0,-0.02388247475028038,1.3960145711898804,-0.0,-0.0020611444488167763,0.8092507719993591,0.0,-0.015787366777658463
772.0,595.0,-3.3075,-0.0544,8.8445,-0.0272,0.0275,-0.1185,-2.197603841821188,-0.00017756909073796123,4.336730003356934,-1.562819242477417,0.000633886200375855,1.8081684112548828,5.522147583752432,0.0,0.2344270944595337,-1.4032581488238733,0.0,-0.01908155530691147,1.3960506916046143,-0.0,-0.005252830218523741,0.8091980218887329,0.001373051549308002,0.023318294435739517
772.0,595.0,-3.3075,-0.0544,8.8445,-0.0272,0.0275,-0.1185,-2.197583337823385,-0.0001424365909770131,4.308624744415283,-1.5628271102905273,0.0007255300297401845,1.812887191772461,5.522155749588766,0.0,0.21626126766204834,-1.4032138029681605,0.0,-0.01735517755150795,1.396111249923706,-0.0,0.007910585962235928,0.8092425465583801,0.0026058985386043787,-0.01026790402829647
772.0,595.0,-3.3075,-0.0544,8.8445,-0.0272,0.0275,-0.1185,-2.19759525875234,0.0001441383210476488,4.30380392074585,-1.562787413597107,0.0011191109661012888,1.830696940422058,5.522127556591787,0.0,0.22791731357574463,-1.4032099882708948,0.0,-0.03335516154766083,1.3960949182510376,-0.0,0.005983448587357998,0.8093029260635376,0.004169745836406946,0.0042398665100336075
772.0,595.0,-3.3075,-0.0544,8.8445,-0.0272,0.0275,-0.1185,-2.197503706017965,0.00017131715139839798,4.327955722808838,-1.562723159790039,0.002230491489171982,1.7890536785125732,5.522151696472921,0.0,0.23378700017929077,-1.4032257238971155,0.0,-0.033210258930921555,1.3961068391799927,-0.0,0.005273790098726749,0.8092864751815796,0.004369244445115328,-0.0095738610252738
772.0,595.0,-3.3075,-0.0544,8.8445,-0.0272,0.0275,-0.1185,-2.1975590191283167,0.00015660155622754246,4.320233345031738,-1.5627549886703491,0.002340679056942463,1.839685082435608,5.5221599219139,0.0,0.24228732287883759,-1.40324575105776,0.0,-0.019603153690695763,1.3960949182510376,-0.0,0.0015253813471645117,0.8092905879020691,0.004221666604280472,0.00924354325979948
772.0,595.0,-3.3075,-0.0544,8.8445,-0.0272,0.0275,-0.1185,-2.1975351772704066,0.00013852289703208953,4.339955806732178,-1.5627830028533936,0.0021938972640782595,1.8031861782073975,5.5221919296081445,0.0,0.23045122623443604,-1.40322190919985,0.0,-0.029510226100683212,1.3960107564926147,-0.0,-0.009333709254860878,0.8093064427375793,0.002844479400664568,0.04269667714834213
772.0,595.0,-3.3075,-0.0544,8.8445,-0.0272,0.0275,-0.1185,-2.197538991967672,0.0001594769419170916,4.34906530380249,-1.5626914501190186,0.0019238172098994255,1.7832176685333252,5.522119688778677,0.0,0.23448500037193298,-1.4032662550555628,0.0,-0.028992820531129837,1.3961153030395508,-0.0,-0.0007908735424280167,0.8093064427375793,0.0021778650116175413,-0.02015368640422821
772.0,595.0,-3.3075,-0.0544,8.8445,-0.0272,0.0275,-0.1185,-2.1975676021971644,0.00014521446428261697,4.34045934677124,-1.5627552270889282,0.001194543787278235,1.808551549911499,5.522131669312277,0.0,0.23642979562282562,-1.4031861464129847,0.0,-0.011519050225615501,1.3960747718811035,-0.0,-0.0027094678953289986,0.8093345165252686,0.001259946497157216,0.010893581435084343
772.0,595.0,-3.3075,-0.0544,8.8445,-0.0272,0.0275,-0.1185,-2.1975795231261195,0.0001323970063822344,4.309920310974121,-1.5627471208572388,0.0007962231757119298,1.8264853954315186,5.522151696472921,0.0,0.23925618827342987,-1.4032343069659632,0.0,-0.01953990012407303,1.3960626125335693,-0.0,0.001731222146190703,0.8093225955963135,0.0007440572371706367,-0.01958460733294487
772.0,595.0,-3.3075,-0.0544,8.8445,-0.0272,0.0275,-0.1185,-2.1975470981993617,0.00012503917969297618,4.314752101898193,-1.5626955032348633,0.0007170416065491736,1.813628911972046,5.5221800086791895,0.0,0.2360495626926422,-1.403261963521139,0.0,-0.020716872066259384,1.3960707187652588,-0.0,0.007018650881946087,0.8093584775924683,0.0005832117749378085,-0.011236201971769333
772.0,595.0,-3.3075,-0.0544,8.8445,-0.0272,0.0275,-0.1185,-2.1975633106627406,0.00018958700820803642,4.289941310882568,-1.5627148151397705,0.0005325573729351163,1.8076136112213135,5.522147702961721,3.529020204950939e-06,0.24858197569847107,-1.4032376448260706,0.0,-0.010158730670809746,1.3960788249969482,-0.0,-0.020437143743038177,0.809326708316803,0.00036810681922361255,0.008353788405656815
772.0,595.0,-3.3075,-0.0544,8.8445,-0.0272,0.0275,-0.1185,-2.197475095788473,0.00025769672356545925,4.269016265869141,-1.562739372253418,0.0012841909192502499,1.7873859405517578,5.522127616196432,9.823156732480243e-10,0.22967886924743652,-1.403217617665426,0.0,-0.03018093854188919,1.3960626125335693,-0.0,-0.007188153453171253,0.8093146681785583,0.00024295406183227897,0.06284256279468536
756.0,562.0,-2.9091,-0.2907,9.5109,-0.0432,0.0307,-0.1219,-2.1974951229491175,0.0007161544053815305,4.373469352722168,-1.5626835823059082,0.002307051094248891,1.8329699039459229,5.522107410221853,4.1877655856947804e-12,0.23370647430419922,-1.4032419363604944,0.0,-0.033748023211956024,1.3960868120193481,-0.0,0.0014252413529902697,0.8093188405036926,0.00016263774887192994,-0.01003100723028183
756.0,562.0,-2.9091,-0.2907,9.5109,-0.0432,0.0307,-0.1219,-2.1974832020201625,0.0010663140565156937,4.334688663482666,-1.5626472234725952,0.0029899519868195057,1.7836101055145264,5.522103774338522,1.16567996574779e-15,0.2557309865951538,-1.4032180945025843,0.0,-0.030565820634365082,1.3960826396942139,-0.0,0.008129135705530643,0.809262216091156,-0.00013518512423615903,0.04928002879023552
756.0,562.0,-2.9091,-0.2907,9.5109,-0.0432,0.0307,-0.1219,-2.1974994144835414,0.0017502387054264545,4.332258224487305,-1.5626592636108398,0.003850579960271716,1.775409460067749,5.522095548897543,3.244712629473343e-19,0.24542871117591858,-1.4032257238971155,0.0,-0.03272893279790878,1.396018624305725,-0.0,-0.0006958502344787121,0.8093270063400269,-0.00017449419829063118,0.0011692921398207545
756.0,562.0,-2.9091,-0.2907,9.5109,-0.0432,0.0307,-0.1219,-2.1974669895567835,0.002466510748490691,4.308662414550781,-1.5626314878463745,0.004122420679777861,1.7808432579040527,5.522046911507406,1.3832718634648196e-21,0.24550938606262207,-1.4032257238971155,0.0,-0.016825752332806587,1.3960466384887695,-0.0,0.007189289201050997,0.8093026280403137,-0.0001987240684684366,-0.05783038213849068
756.0,562.0,-2.9091,-0.2907,9.5109,-0.0432,0.0307,-0.1219,-2.197451730767721,0.004996051080524921,4.333066463470459,-1.5625876188278198,0.004956949967890978,1.817368984222412,5.522087442665853,-0.00024160875182133168,0.24254852533340454,-1.4032343069659632,0.0,-0.01315319910645485,1.396082878112793,-0.0,0.0011911974288523197,0.8093188405036926,-0.0001756249985191971,0.05082378536462784
756.0,562.0,-2.9091,-0.2907,9.5109,-0.0432,0.0307,-0.1219,-2.1974641285338343,0.007307202089577913,4.29926061630249,-1.5626078844070435,0.005517365410923958,1.8054499626159668,5.522075462132253,-0.00028029998065903783,0.2490815967321396,-1.4032257238971155,0.0,-0.01990378275513649,1.3960826396942139,-0.0,-0.003290838096290827,0.8092823624610901,-0.00015721679665148258,-0.0021149450913071632
756.0,562.0,-2.9091,-0.2907,9.5109,-0.0432,0.0307,-0.1219,-2.1973873577513636,0.008955241180956364,4.306763172149658,-1.5625633001327515,0.005618940107524395,1.8193233013153076,5.5221078274543665,-0.0002546312753111124,0.24216093122959137,-1.4032300154315394,0.0,-0.006060836836695671,1.3961193561553955,-0.0,-0.011941082775592804,0.8092864751815796,-0.00014694863057229668,0.016125790774822235
756.0,562.0,-2.9091,-0.2907,9.5109,-0.0432,0.0307,-0.1219,-2.1973072491087855,0.009182769805192947,4.322457790374756,-1.5625157356262207,0.007031400687992573,1.7783825397491455,5.522075462132253,-0.0002602262538857758,0.23585999011993408,-1.4032424131976526,0.0,-0.015425157733261585,1.3960506916046143,-0.0,0.0062560588121414185,0.8093026280403137,-0.00013383696204982698,0.020234910771250725
756.0,562.0,-2.9091,-0.2907,9.5109,-0.0432,0.0307,-0.1219,-2.197287221948141,0.009865951724350452,4.354735374450684,-1.5624271631240845,0.006672007031738758,1.7934447526931763,5.522087442665853,-0.00024038524134084582,0.24047785997390747,-1.4032138029681605,0.0,-0.015147283673286438,1.3960785865783691,-0.0,-0.0010844701901078224,0.8092944025993347,-0.00012632277503143996,-0.022065386176109314
756.0,562.0,-2.9091,-0.2907,9.5109,-0.0432,0.0307,-0.1219,-2.1972514591612757,0.010062981396913528,4.3506574630737305,-1.5624637603759766,0.007345588877797127,1.813098430633545,5.5221078274543665,-0.00021569139789789915,0.24385426938533783,-1.4032462278949183,0.0,-0.023740381002426147,1.396042823791504,-0.0,-0.00246450281701982,0.8092705011367798,-0.00011651072418317199,-0.018360471352934837
756.0,562.0,-2.9091,-0.2907,9.5109,-0.0432,0.0307,-0.1219,-2.197167535821432,0.010815471410751343,4.3282599449157715,-1.5623794794082642,0.008053096011281013,1.8124539852142334,5.522095668106832,-0.000223053342779167,0.2470240294933319,-1.4032257238971155,0.0,-0.027727823704481125,1.3960506916046143,-0.0,-0.000459049828350544,0.8092782497406006,-0.00010811317770276219,-0.005828044377267361
756.0,562.0,-2.9091,-0.2907,9.5109,-0.0432,0.0307,-0.1219,-2.197127958337301,0.011198746040463448,4.361104488372803,-1.562304139137268,0.00861387699842453,1.800831913948059,5.522063302784719,-0.00021046957408543676,0.2300148606300354,-1.403217617665426,0.0,-0.008067513816058636,1.3961108922958374,-0.0,-0.004190569743514061,0.8092823624610901,-0.00010315648978576064,0.021314680576324463
756.0,562.0,-2.9091,-0.2907,9.5109,-0.0432,0.0307,-0.1219,-2.1970516643919886,0.012277456931769848,4.35991096496582,-1.5622519254684448,0.010044177062809467,1.8623826503753662,5.522103893547811,-0.00019350097863934934,0.22467347979545593,-1.4032581488238733,0.0,-0.015906326472759247,1.396054744720459,-0.0,0.012432369403541088,0.8092823624610901,-7.747970084892586e-05,-0.004484701901674271
756.0,562.0,-2.9091,-0.2907,9.5109,-0.0432,0.0307,-0.1219,-2.196963449517721,0.012811992317438126,4.31771183013916,-1.5622001886367798,0.01118356641381979,1.7965683937072754,5.5221242783363245,-0.00017906323773786426,0.23421132564544678,-1.4032824675189417,0.0,-0.03735589236021042,1.3960587978363037,-0.0,-0.009062586352229118,0.8093386292457581,-2.9929360607638955e-05,0.014835692942142487
756.0,562.0,-2.9091,-0.2907,9.5109,-0.0432,0.0307,-0.1219,-2.1968633137144984,0.013274050317704678,4.363340377807617,-1.5621925592422485,0.012444439344108105,1.8112623691558838,5.52205919006423,-0.00016873217828106135,0.22547107934951782,-1.403273884450094,-3.259730192439747e-06,-0.012468717992305756,1.396094560623169,-0.0,-0.0012464690953493118,0.8093506693840027,-4.156947852607118e-08,-0.02353358268737793
756.0,562.0,-2.9091,-0.2907,9.5109,-0.0432,0.0307,-0.1219,-2.196782728234762,0.013944215141236782,4.386067867279053,-1.562059760093689,0.015478058718144894,1.781447410583496,5.522128450661459,-0.00015169222024269402,0.25056248903274536,-1.403330151234762,-9.073579110285834e-10,-0.027533214539289474,1.3960902690887451,-0.0,0.012251150794327259,0.8093382716178894,0.0024817700032144785,0.05236002802848816
756.0,562.0,-2.9091,-0.2907,9.5109,-0.0432,0.0307,-0.1219,-2.1967317066588343,0.01554934587329626,4.396522521972656,-1.5619480609893799,0.018559493124485016,1.8770267963409424,5.5220879195030115,-0.00016345526091754436,0.24649865925312042,-1.4032943884478968,-0.0009890383807942271,-0.03682775795459747,1.396054744720459,-0.0,0.01086597703397274,0.809386670589447,0.005905383266508579,0.06099370867013931
822.0,559.0,-3.4403,-0.3147,9.3494,-0.0209,0.04,-0.1106,-2.196639200250143,0.017320986837148666,4.396266937255859,-1.5618681907653809,0.020777815952897072,1.83707857131958,5.522063362389364,-0.0001557649375172332,0.2512790560722351,-1.4032781759845179,-0.0007787969661876559,-0.04199402779340744,1.3960785865783691,-0.0,0.009628478437662125,0.8093904852867126,0.007444500457495451,0.07996033877134323
822.0,559.0,-3.4403,-0.3147,9.3494,-0.0209,0.04,-0.1106,-2.1965352497496546,0.01953071914613247,4.408535480499268,-1.561708688735962,0.024368884041905403,1.8250977993011475,5.522035050183096,-0.00017878336075227708,0.2410646378993988,-1.4032819906817835,-0.0006490603554993868,-0.036049481481313705,1.3960742950439453,-0.0,0.012831741943955421,0.8094505667686462,0.008141997270286083,0.04997860640287399
822.0,559.0,-3.4403,-0.3147,9.3494,-0.0209,0.04,-0.1106,-2.1964274845519007,0.0187230221927166,4.341116905212402,-1.5615652799606323,0.029481491073966026,1.8539235591888428,5.522059666901388,-0.00045844714622944593,0.2408062368631363,-1.403318230305807,-0.0004478415648918599,-0.04803536832332611,1.396122932434082,-0.0,0.014562459662556648,0.8095105290412903,0.009607607498764992,0.1861146241426468
822.0,559.0,-3.4403,-0.3147,9.3494,-0.0209,0.04,-0.1106,-2.1963874302306117,0.018238067626953125,4.374456882476807,-1.5614250898361206,0.033791203051805496,1.8708767890930176,5.522031533509054,-0.0012803833233192563,0.24618953466415405,-1.403330151234762,-0.00044531418825499713,-0.04080433398485184,1.3960784673690796,-0.0,0.004662198945879936,0.8095750212669373,0.009927850216627121,0.15748202800750732
822.0,559.0,-3.4403,-0.3147,9.3494,-0.0209,0.04,-0.1106,-2.1962839565672816,0.016392499208450317,4.355729579925537,-1.561193585395813,0.0394640788435936,1.8884413242340088,5.5220515606696985,-0.0010035461746156216,0.2512089014053345,-1.4032776991473597,-0.0006771552143618464,-0.035800136625766754,1.396111249923706,-0.0,0.005324807018041611,0.8096591830253601,0.012967334128916264,0.18463575839996338
822.0,559.0,-3.4403,-0.3147,9.3494,-0.0209,0.04,-0.1106,-2.196235796014303,0.016008295118808746,4.373109817504883,-1.5610142946243286,0.044089656323194504,1.853672981262207,5.522035586624899,-0.0006784016150049865,0.2448449432849884,-1.4033458868609827,-0.001938655972480774,-0.05244956910610199,1.3960702419281006,-0.0,-0.002870186697691679,0.8097069263458252,0.015685444697737694,0.1860448718070984
822.0,559.0,-3.4403,-0.3147,9.3494,-0.0209,0.04,-0.1106,-2.196071287194723,0.015202311798930168,4.413901329040527,-1.5607149600982666,0.05228131264448166,1.8834047317504883,5.5220199702079675,-0.0004654353251680732,0.2406046986579895,-1.4033458868609827,-0.00258094840683043,-0.06583643704652786,1.3960866928100586,-0.0,0.005544991232454777,0.8098231554031372,0.021718760952353477,0.20777519047260284
