ramyac6/ROB537/final_project/csv/all/bad_76.csv
tof_0,tof_1,accelx,accely,accelz,gyrox,gyroy,gyroz,shoulder_lift_joint_position,shoulder_lift_joint_velocity,shoulder_lift_joint_effort,elbow_joint_position,elbow_joint_velocity,elbow_joint_effort,wrist_1_joint_position,wrist_1_joint_velocity,wrist_1_joint_effort,wrist_2_joint_position,wrist_2_joint_velocity,wrist_2_joint_effort,wrist_3_joint_position,wrist_3_joint_velocity,wrist_3_joint_effort,shoulder_pan_joint_position,shoulder_pan_joint_velocity,shoulder_pan_joint_effort
259.0,348.0,-3.1119,1.7862,9.1621,-0.0307,0.0244,-0.1171,-2.1895653210081996,0.0,4.364340782165527,-1.4864829778671265,-0.0,1.8643345832824707,5.501519191056051,0.0,0.24263082444667816,-1.6972125212298792,-0.0,0.014996417798101902,0.9983252286911011,0.0,0.006664343178272247,1.1660141944885254,0.0,-0.015820173546671867
259.0,348.0,-3.1119,1.7862,9.1621,-0.0307,0.0244,-0.1171,-2.189633985558981,0.0,4.347573280334473,-1.4865314960479736,-0.0,1.906172513961792,5.501478838711538,0.0,0.2415648102760315,-1.6971924940692347,-0.0,0.014838292263448238,0.9982934594154358,0.0,0.0005191795062273741,1.1659494638442993,0.0,0.012854981236159801
259.0,348.0,-3.1119,1.7862,9.1621,-0.0307,0.0244,-0.1171,-2.189606329003805,0.0,4.403990745544434,-1.486575722694397,-0.0,1.9069745540618896,5.501499223500051,0.0,0.23795044422149658,-1.697195831929342,-0.0,-0.006579365581274033,0.9983133673667908,0.0,0.009293092414736748,1.1659977436065674,0.0,0.07709399610757828
259.0,348.0,-3.1119,1.7862,9.1621,-0.0307,0.0244,-0.1171,-2.189573427239889,0.0,4.361178398132324,-1.4865518808364868,-0.0,1.8621363639831543,5.501478898316183,0.0,0.23489251732826233,-1.6972039381610315,-0.0,0.0005331606371328235,0.9982662796974182,0.0,0.01197411585599184,1.1659654378890991,0.0,-0.025395100936293602
259.0,348.0,-3.1119,1.7862,9.1621,-0.0307,0.0244,-0.1171,-2.1896382770934046,0.0,4.3379669189453125,-1.486555576324463,-0.0,1.9601807594299316,5.501478838711538,0.0,0.2346494346857071,-1.6972244421588343,-0.0,0.012654845602810383,0.9983211755752563,0.0,-0.005343684460967779,1.1659977436065674,0.0,-0.03325914219021797
259.0,348.0,-3.1119,1.7862,9.1621,-0.0307,0.0244,-0.1171,-2.189573427239889,0.0,4.364891052246094,-1.4865036010742188,-0.0,1.8524258136749268,5.501487004547872,0.0,0.24247948825359344,-1.6972277800189417,-0.0,0.008488312363624573,0.9982972741127014,0.0,0.007369347847998142,1.1659936904907227,0.0,0.03932570293545723
259.0,348.0,-3.1119,1.7862,9.1621,-0.0307,0.0244,-0.1171,-2.189602037469381,0.0,4.375253677368164,-1.4865155220031738,-0.0,1.897413730621338,5.501462626248159,0.0,0.24963442981243134,-1.6972559134112757,-0.0,0.006933319848030806,0.9982932806015015,0.0,0.006853310391306877,1.166037917137146,0.0,-0.05165925994515419
259.0,348.0,-3.1119,1.7862,9.1621,-0.0307,0.0244,-0.1171,-2.18961824993276,0.0,4.3992791175842285,-1.4864951372146606,-0.0,1.8886945247650146,5.501499223500051,0.0,0.2324512004852295,-1.6972039381610315,-0.0,0.012887166813015938,0.9982622861862183,0.0,-0.0011886507272720337,1.1660182476043701,0.0,0.006041789893060923
259.0,348.0,-3.1119,1.7862,9.1621,-0.0307,0.0244,-0.1171,-2.1895696125426234,0.0,4.378025054931641,-1.4865076541900635,-0.0,1.8682849407196045,5.501519250660696,0.0,0.2398369312286377,-1.6972315947162073,-0.0,-0.0037819501012563705,0.9982894659042358,0.0,-0.007954046130180359,1.1659736633300781,0.0,-0.004677017219364643
259.0,348.0,-3.1119,1.7862,9.1621,-0.0307,0.0244,-0.1171,-2.1896101437010707,0.0,4.390564441680908,-1.486539602279663,-0.0,1.8954777717590332,5.501503038197317,0.0,0.2408878356218338,-1.697247330342428,-0.0,0.010344473645091057,0.9983133673667908,0.0,-0.006328168325126171,1.1659936904907227,0.0,-0.010219885036349297
259.0,348.0,-3.1119,1.7862,9.1621,-0.0307,0.0244,-0.1171,-2.1895696125426234,0.0,4.404577255249023,-1.4865236282348633,-0.0,1.883500576019287,5.501470792084493,0.0,0.22679007053375244,-1.6971843878375452,-0.0,-0.0058612097054719925,0.9982821941375732,0.0,0.003162658540531993,1.1659654378890991,0.0,-0.030913904309272766
254.0,8190.0,-3.0503,1.7659,9.1161,-0.0426,0.0254,-0.1275,-2.189577718774313,0.0,4.432456016540527,-1.4865195751190186,-0.0,1.844146728515625,5.501478838711538,0.0,0.23776550590991974,-1.6972277800189417,-0.0,0.003901643678545952,0.9982584118843079,0.0,0.006679513491690159,1.1659936904907227,0.0,-0.012788699939846992
254.0,8190.0,-3.0503,1.7659,9.1161,-0.0426,0.0254,-0.1275,-2.1896101437010707,0.0,4.369376182556152,-1.486482858657837,-0.0,1.8796191215515137,5.501458871155538,0.0,0.23893104493618011,-1.697223965321676,-0.0,0.009420961141586304,0.998329222202301,0.0,-0.005047729704529047,1.166017770767212,0.0,-0.010523762553930283
254.0,8190.0,-3.0503,1.7659,9.1161,-0.0426,0.0254,-0.1275,-2.189606329003805,0.0,4.392533302307129,-1.4865076541900635,-0.0,1.9233150482177734,5.501487123757162,0.0,0.2365899682044983,-1.6971924940692347,-0.0,-0.0011241297470405698,0.9982900023460388,0.0,0.0019461744232103229,1.1659576892852783,0.0,0.014840399846434593
254.0,8190.0,-3.0503,1.7659,9.1161,-0.0426,0.0254,-0.1275,-2.189561506310934,0.0,4.372396469116211,-1.4865236282348633,-0.0,1.8678736686706543,5.501482951432028,0.0,0.2540090084075928,-1.6971529165851038,-0.0,0.017091475427150726,0.9983292818069458,0.0,-0.002048384863883257,1.1660300493240356,0.0,0.026943279430270195
254.0,8190.0,-3.0503,1.7659,9.1161,-0.0426,0.0254,-0.1275,-2.1895977459349574,0.0,4.372031211853027,-1.4864994287490845,-0.0,1.8631484508514404,5.501482951432028,0.0,0.2326018214225769,-1.697188679371969,-0.0,0.004194814711809158,0.9983171820640564,0.0,0.005744499620050192,1.1659654378890991,0.0,-0.012165622785687447
254.0,8190.0,-3.0503,1.7659,9.1161,-0.0426,0.0254,-0.1275,-2.189561506310934,0.0,4.324227333068848,-1.486527681350708,-0.0,1.873552680015564,5.50141458490447,0.0,0.2305113822221756,-1.6972315947162073,-0.0,0.004371498245745897,0.9982821345329285,0.0,-0.00023828150006011128,1.1659977436065674,0.0,-0.02130027301609516
254.0,8190.0,-3.0503,1.7659,9.1161,-0.0426,0.0254,-0.1275,-2.189561506310934,0.0,4.387939929962158,-1.4865155220031738,-0.0,1.852870225906372,5.501442658692159,0.0,0.24885670840740204,-1.6972315947162073,-0.0,0.005526064895093441,0.9982337951660156,0.0,-0.010298578068614006,1.1660219430923462,0.0,-0.009589635767042637
254.0,8190.0,-3.0503,1.7659,9.1161,-0.0426,0.0254,-0.1275,-2.189549585381979,0.0,4.418007850646973,-1.4865355491638184,-0.0,1.9250571727752686,5.5015309927757166,0.0,0.23622643947601318,-1.6972277800189417,-0.0,0.009445831179618835,0.9983133673667908,0.0,0.006453583016991615,1.1659736633300781,0.0,-0.022222850471735
254.0,8190.0,-3.0503,1.7659,9.1161,-0.0426,0.0254,-0.1275,-2.189602037469381,0.0,4.336430549621582,-1.486535906791687,-0.0,1.8825688362121582,5.501511025219717,0.0,0.22916218638420105,-1.6972163359271448,-0.0,-0.0017083121929317713,0.9983530640602112,0.0,0.006284942384809256,1.1659817695617676,0.0,0.04173024371266365
254.0,8190.0,-3.0503,1.7659,9.1161,-0.0426,0.0254,-0.1275,-2.1896101437010707,0.0,4.358729362487793,-1.4865355491638184,-0.0,1.8798496723175049,5.501511084824362,0.0,0.25041279196739197,-1.6971805731402796,-0.0,0.014329874888062477,0.9982860684394836,0.0,0.003661918919533491,1.1660100221633911,0.0,0.0361202135682106
254.0,8190.0,-3.0503,1.7659,9.1161,-0.0426,0.0254,-0.1275,-2.189633985558981,0.0,4.353884696960449,-1.4865436553955078,-0.0,1.849153995513916,5.501515137940206,0.0,0.23930132389068604,-1.6971924940692347,-0.0,-0.00916236825287342,0.9983134269714355,0.0,-0.001554481452330947,1.166037917137146,0.0,-0.047251418232917786
254.0,8190.0,-3.0503,1.7659,9.1161,-0.0426,0.0254,-0.1275,-2.1895696125426234,0.0,4.366615295410156,-1.4865474700927734,-0.0,1.8714563846588135,5.501487004547872,0.0,0.2483256459236145,-1.69725209871401,-0.0,0.004517746157944202,0.9983616471290588,0.0,-0.004377611912786961,1.165949821472168,0.0,0.05201609805226326
254.0,8190.0,-3.0503,1.7659,9.1161,-0.0426,0.0254,-0.1275,-2.189602037469381,0.0,4.415180683135986,-1.4865314960479736,-0.0,1.8932602405548096,5.501498925476827,0.0,0.23911619186401367,-1.6972244421588343,-0.0,0.006055878940969706,0.9982821941375732,0.0,-0.0026940370444208384,1.1659777164459229,0.0,-0.03394540026783943
254.0,8190.0,-3.0503,1.7659,9.1161,-0.0426,0.0254,-0.1275,-2.189602037469381,0.0,4.396017551422119,-1.486539602279663,-0.0,1.8717502355575562,5.5015233037765405,0.0,0.24718882143497467,-1.6972158590899866,-0.0,0.0019867047667503357,0.9982661008834839,0.0,-0.0007835727883502841,1.165989637374878,0.0,-0.0034380080178380013
254.0,8190.0,-3.0503,1.7659,9.1161,-0.0426,0.0254,-0.1275,-2.1895491085448207,0.0,4.3669114112854,-1.4865236282348633,-0.0,1.868018388748169,5.501482951432028,0.0,0.2242041379213333,-1.6971805731402796,-0.0,0.023251432925462723,0.9982702732086182,0.0,7.679499685764313e-05,1.165989637374878,0.0,-0.0687827616930008
254.0,8190.0,-3.0503,1.7659,9.1161,-0.0426,0.0254,-0.1275,-2.189573427239889,0.0,4.327732086181641,-1.4865117073059082,-0.0,1.881081461906433,5.501491117268362,0.0,0.2357982099056244,-1.6972125212298792,-0.0,0.008264932781457901,0.9982583522796631,0.0,-0.0006924937479197979,1.1659694910049438,0.0,-0.04610082507133484
254.0,8190.0,-3.0503,1.7659,9.1161,-0.0426,0.0254,-0.1275,-2.1895982227721156,0.0,4.361289024353027,-1.4865076541900635,-0.0,1.8609247207641602,5.501487123757162,0.0,0.2356436848640442,-1.6972602049456995,-0.0,-0.0045867618173360825,0.9983133673667908,0.0,0.009014297276735306,1.1660100221633911,0.0,0.009944257326424122
254.0,8190.0,-3.0503,1.7659,9.1161,-0.0426,0.0254,-0.1275,-2.1895982227721156,0.0,4.363605976104736,-1.4865195751190186,-0.0,1.8993563652038574,5.501394438534536,0.0,0.23968377709388733,-1.697195831929342,-0.0,-0.0008935490041039884,0.9982503652572632,0.0,-0.008357279002666473,1.1660100221633911,0.0,0.01257589366286993
254.0,8190.0,-3.0503,1.7659,9.1161,-0.0426,0.0254,-0.1275,-2.189573427239889,0.0,4.372109413146973,-1.4864994287490845,-0.0,1.8901281356811523,5.501438724785604,0.0,0.2298261821269989,-1.6972125212298792,-0.0,-0.0031124469824135303,0.9982740879058838,0.0,0.009433282539248466,1.1659654378890991,0.0,-0.024719364941120148
254.0,8190.0,-3.0503,1.7659,9.1161,-0.0426,0.0254,-0.1275,-2.1895696125426234,0.0,4.367666721343994,-1.4864870309829712,-0.0,1.886749029159546,5.501458811550894,0.0,0.2548098564147949,-1.6972077528582972,-0.0,0.012022634968161583,0.9982502460479736,0.0,0.002451227977871895,1.165989637374878,0.0,-0.021657511591911316
254.0,8190.0,-3.0503,1.7659,9.1161,-0.0426,0.0254,-0.1275,-2.189573427239889,0.0,4.445565700531006,-1.4865117073059082,-0.0,1.8942773342132568,5.501466679364004,0.0,0.25017982721328735,-1.697212044392721,-0.0,0.016695475205779076,0.9982860088348389,0.0,0.003010896733030677,1.1659736633300781,0.0,0.011444995179772377
242.0,8190.0,-3.0664,1.7617,9.1759,-0.0391,0.0232,-0.1129,-2.1896263561644496,0.0,4.3702850341796875,-1.4865117073059082,-0.0,1.9071121215820312,5.501495110779562,0.0,0.2373117208480835,-1.6972315947162073,-0.0,-0.0016003005439415574,0.9982742667198181,0.0,-0.0017617637058719993,1.1659899950027466,0.0,-0.013957429677248001
242.0,8190.0,-3.0664,1.7617,9.1759,-0.0391,0.0232,-0.1129,-2.189573427239889,0.0,4.389266014099121,-1.486547827720642,-0.0,1.8824994564056396,5.501482951432028,0.0,0.24165643751621246,-1.6972397009478968,-0.0,0.0048696426674723625,0.9982662796974182,0.0,0.0024801462423056364,1.165989637374878,0.0,0.0376061350107193
242.0,8190.0,-3.0664,1.7617,9.1759,-0.0391,0.0232,-0.1129,-2.1896263561644496,0.0,4.390363693237305,-1.4865474700927734,-0.0,1.8670363426208496,5.501462626248159,0.0,0.23721462488174438,-1.6972358862506312,-0.0,0.00494897086173296,0.9983330965042114,0.0,-0.012371555902063847,1.165981411933899,0.0,-0.0013833525590598583
242.0,8190.0,-3.0664,1.7617,9.1759,-0.0391,0.0232,-0.1129,-2.18961824993276,0.0,4.369314193725586,-1.4865355491638184,-0.0,1.8789541721343994,5.501495110779562,0.0,0.2312646508216858,-1.6972277800189417,-0.0,0.00044459133641794324,0.9983330368995667,0.0,0.007485230453312397,1.1659694910049438,0.0,-0.012246381491422653
242.0,8190.0,-3.0664,1.7617,9.1759,-0.0391,0.0232,-0.1129,-2.1895576916136683,0.0,4.399801731109619,-1.4865236282348633,-0.0,1.9298518896102905,5.50145052650527,0.0,0.23946484923362732,-1.6971963087665003,-0.0,-0.002694882685318589,0.9983053803443909,0.0,0.0025003268383443356,1.1659576892852783,0.0,-0.025111576542258263
242.0,8190.0,-3.0664,1.7617,9.1759,-0.0391,0.0232,-0.1129,-2.189589639703268,0.0,4.420209884643555,-1.4865314960479736,-0.0,1.879423975944519,5.501511084824362,0.0,0.2348909229040146,-1.6972277800189417,-0.0,0.0077101970091462135,0.998266339302063,0.0,0.012075470760464668,1.1660219430923462,0.0,0.020378369837999344
242.0,8190.0,-3.0664,1.7617,9.1759,-0.0391,0.0232,-0.1129,-2.189589639703268,0.0,4.381697177886963,-1.4865195751190186,-0.0,1.925251841545105,5.501499104290762,0.0,0.23961544036865234,-1.6972125212298792,-0.0,0.01107090711593628,0.9983616471290588,0.0,-0.004702933132648468,1.1659936904907227,0.0,0.016060592606663704
242.0,8190.0,-3.0664,1.7617,9.1759,-0.0391,0.0232,-0.1129,-2.1895576916136683,0.0,4.356611251831055,-1.4865758419036865,-0.0,1.8946895599365234,5.501462864666738,0.0,0.23181766271591187,-1.69725209871401,-0.0,0.004616760648787022,0.9982782602310181,0.0,0.001273379777558148,1.1660300493240356,0.0,0.04882495850324631
242.0,8190.0,-3.0664,1.7617,9.1759,-0.0391,0.0232,-0.1129,-2.1896101437010707,0.0,4.345643043518066,-1.486539602279663,-0.0,1.8777506351470947,5.501526939659872,0.0,0.2329210340976715,-1.6972196737872522,-0.0,0.0005281304474920034,0.9982584118843079,0.0,0.0032759658060967922,1.165981411933899,0.0,0.04480751231312752
242.0,8190.0,-3.0664,1.7617,9.1759,-0.0391,0.0232,-0.1129,-2.1895858250060023,0.0,4.387060642242432,-1.4865436553955078,-0.0,1.8735158443450928,5.501515197544851,0.0,0.23523256182670593,-1.6971805731402796,-0.0,0.0026105428114533424,0.9982860088348389,0.0,-0.004836726933717728,1.166025996208191,0.0,-0.015853499993681908
242.0,8190.0,-3.0664,1.7617,9.1759,-0.0391,0.0232,-0.1129,-2.189590116540426,0.0,4.4225921630859375,-1.4865520000457764,-0.0,1.863870620727539,5.501442718296804,0.0,0.23350799083709717,-1.6972397009478968,-0.0,0.011751877143979073,0.9983053803443909,0.0,0.0024814321659505367,1.166025996208191,0.0,0.023466043174266815
242.0,8190.0,-3.0664,1.7617,9.1759,-0.0391,0.0232,-0.1129,-2.189602037469381,0.0,4.411734580993652,-1.4864912033081055,-0.0,1.8520183563232422,5.501450764923849,0.0,0.24150322377681732,-1.6971843878375452,-0.0,-0.00189979188144207,0.9983252286911011,0.0,0.009069238789379597,1.1659777164459229,0.0,0.022019505500793457
242.0,8190.0,-3.0664,1.7617,9.1759,-0.0391,0.0232,-0.1129,-2.1895653210081996,0.0,4.411907196044922,-1.4865273237228394,-0.0,1.9142110347747803,5.501478838711538,0.0,0.23351898789405823,-1.697176758443014,-0.0,0.0044471994042396545,0.9983252882957458,0.0,-0.003781536128371954,1.1659817695617676,0.0,-0.005440748296678066
242.0,8190.0,-3.0664,1.7617,9.1759,-0.0391,0.0232,-0.1129,-2.1896139583983363,0.0,4.318037033081055,-1.4865199327468872,-0.0,1.8614516258239746,5.501446652203359,0.0,0.23381301760673523,-1.6972277800189417,-0.0,0.008832266554236412,0.9983052611351013,0.0,0.010647433809936047,1.1659736633300781,0.0,0.04661122336983681
242.0,8190.0,-3.0664,1.7617,9.1759,-0.0391,0.0232,-0.1129,-2.189573427239889,0.0,4.382171630859375,-1.4865036010742188,-0.0,1.8945543766021729,5.501495110779562,0.0,0.24697574973106384,-1.6972077528582972,-0.0,0.003726521972566843,0.998262345790863,0.0,0.0007215790683403611,1.1659494638442993,0.0,0.0006733108311891556
242.0,8190.0,-3.0664,1.7617,9.1759,-0.0391,0.0232,-0.1129,-2.189606329003805,0.0,4.430031776428223,-1.486539602279663,-0.0,1.9235873222351074,5.501483011036672,0.0,0.25159546732902527,-1.6971843878375452,-0.0,0.003626969177275896,0.9983012676239014,0.0,-0.002543199574574828,1.1660341024398804,0.0,0.023454466834664345
242.0,8190.0,-3.0664,1.7617,9.1759,-0.0391,0.0232,-0.1129,-2.18959440807485,0.0,4.346045970916748,-1.486539602279663,-0.0,1.8638776540756226,5.501462626248159,0.0,0.24199166893959045,-1.6972277800189417,-0.0,0.0017223447794094682,0.9982855319976807,0.0,0.0021900024730712175,1.165993571281433,0.0,0.03832312673330307
242.0,8190.0,-3.0664,1.7617,9.1759,-0.0391,0.0232,-0.1129,-2.1895977459349574,0.0,4.374792098999023,-1.4865355491638184,-0.0,1.886345386505127,5.501499223500051,0.0,0.2455710470676422,-1.697195831929342,-0.0,0.0034393256064504385,0.998249888420105,0.0,0.0029039522632956505,1.1659698486328125,0.0,-0.014281355775892735
242.0,8190.0,-3.0664,1.7617,9.1759,-0.0391,0.0232,-0.1129,-2.1895653210081996,0.0,4.3743462562561035,-1.4865155220031738,-0.0,1.890141248703003,5.501511025219717,0.0,0.25049132108688354,-1.69725209871401,-0.0,0.0002517895773053169,0.9982974529266357,0.0,-0.0022266176529228687,1.1660059690475464,0.0,0.006696580909192562
242.0,8190.0,-3.0664,1.7617,9.1759,-0.0391,0.0232,-0.1129,-2.1895820103087367,0.0,4.410451412200928,-1.486539602279663,-0.0,1.8860183954238892,5.501466679364004,0.0,0.237169086933136,-1.6972039381610315,-0.0,0.01210260670632124,0.9982860088348389,0.0,-0.005745769944041967,1.1659773588180542,0.0,-0.007015932351350784
242.0,8190.0,-3.0664,1.7617,9.1759,-0.0391,0.0232,-0.1129,-2.1896139583983363,0.0,4.403365135192871,-1.486527681350708,-0.0,1.8990979194641113,5.501478838711538,0.0,0.22895437479019165,-1.6972315947162073,-0.0,-0.008929898962378502,0.9983171820640564,0.0,0.002007034607231617,1.165989637374878,0.0,0.02805119752883911
242.0,8190.0,-3.0664,1.7617,9.1759,-0.0391,0.0232,-0.1129,-2.1895858250060023,0.0,4.380412578582764,-1.4865556955337524,-0.0,1.876837968826294,5.501478838711538,0.0,0.23995041847229004,-1.697240177785055,-0.0,0.0011336049064993858,0.9982663989067078,0.0,0.001315196161158383,1.165961742401123,0.0,-0.044260166585445404
249.0,291.0,-3.1316,1.7719,9.1866,-0.0409,0.0272,-0.1196,-2.18959440807485,0.0,4.365260601043701,-1.4865076541900635,-0.0,1.862910270690918,5.501526999264517,0.0,0.23117756843566895,-1.6972640196429651,-0.0,-0.008644124493002892,0.9983015060424805,0.0,0.012024978175759315,1.1659694910049438,0.0,-0.03316927328705788
249.0,291.0,-3.1316,1.7719,9.1866,-0.0409,0.0272,-0.1196,-2.189646383325094,0.0,4.3849592208862305,-1.486527681350708,-0.0,1.8669674396514893,5.501442718296804,0.0,0.23693284392356873,-1.6972277800189417,-0.0,0.011011125519871712,0.9983251690864563,0.0,-0.0007108550053089857,1.1659736633300781,0.0,0.007719358429312706
249.0,291.0,-3.1316,1.7719,9.1866,-0.0409,0.0272,-0.1196,-2.1896263561644496,0.0,4.369420051574707,-1.486555576324463,-0.0,1.9160566329956055,5.501487064152517,0.0,0.23356886208057404,-1.6972125212298792,-0.0,0.012433268129825592,0.998313307762146,0.0,-0.010473272763192654,1.166001796722412,0.0,-0.00922777783125639
249.0,291.0,-3.1316,1.7719,9.1866,-0.0409,0.0272,-0.1196,-2.1895696125426234,0.0,4.347814559936523,-1.4865721464157104,-0.0,1.8892552852630615,5.501487064152517,0.0,0.23464685678482056,-1.6971924940692347,-0.0,0.01011534221470356,0.9982935190200806,0.0,0.001323498087003827,1.166001796722412,0.0,0.004394182935357094
249.0,291.0,-3.1316,1.7719,9.1866,-0.0409,0.0272,-0.1196,-2.1895858250060023,0.0,4.362964630126953,-1.4865072965621948,-0.0,1.9025781154632568,5.501499223500051,0.0,0.23757404088974,-1.6972315947162073,-0.0,-0.00478746835142374,0.9983331561088562,0.0,-0.004984691273421049,1.1659977436065674,0.0,0.03893688693642616
249.0,291.0,-3.1316,1.7719,9.1866,-0.0409,0.0272,-0.1196,-2.1895657978453578,0.0,4.407886505126953,-1.4865117073059082,-0.0,1.9014756679534912,5.501499223500051,0.0,0.23533791303634644,-1.6971843878375452,-0.0,0.006756102200597525,0.9983411431312561,0.0,0.001768582733348012,1.1659736633300781,0.0,-0.003405614523217082
249.0,291.0,-3.1316,1.7719,9.1866,-0.0409,0.0272,-0.1196,-2.1895982227721156,0.0,4.41139030456543,-1.4865556955337524,-0.0,1.9088761806488037,5.501511025219717,0.0,0.2328662872314453,-1.697195831929342,-0.0,0.004464634694159031,0.9983251094818115,0.0,0.005448336713016033,1.1660059690475464,0.0,0.03210088983178139
249.0,291.0,-3.1316,1.7719,9.1866,-0.0409,0.0272,-0.1196,-2.18959440807485,0.0,4.344775676727295,-1.4865314960479736,-0.0,1.89394211769104,5.501450764923849,0.0,0.23717285692691803,-1.6972163359271448,-0.0,0.010559389367699623,0.9983173608779907,0.0,-0.0015629706904292107,1.1659977436065674,0.0,-0.014214647933840752
249.0,291.0,-3.1316,1.7719,9.1866,-0.0409,0.0272,-0.1196,-2.1895491085448207,0.0,4.357365131378174,-1.486527681350708,-0.0,1.9152963161468506,5.501462626248159,0.0,0.23321479558944702,-1.6972439924823206,-0.0,0.022349324077367783,0.9983409643173218,0.0,0.00493282126262784,1.1659777164459229,0.0,-0.00908100139349699
249.0,291.0,-3.1316,1.7719,9.1866,-0.0409,0.0272,-0.1196,-2.1895696125426234,0.0,4.361590385437012,-1.486539602279663,-0.0,1.8493765592575073,5.501487064152517,0.0,0.23944994807243347,-1.6971882025348108,-0.0,-0.007512356154620647,0.9983054399490356,0.0,0.0006134950090199709,1.1659657955169678,0.0,-0.019501250237226486
249.0,291.0,-3.1316,1.7719,9.1866,-0.0409,0.0272,-0.1196,-2.1895820103087367,0.0,4.434363842010498,-1.4864715337753296,-0.0,1.9001752138137817,5.501478838711538,0.0,0.2392626702785492,-1.6972315947162073,-0.0,0.0029376919846981764,0.9982464909553528,0.0,0.006777171976864338,1.165993571281433,0.0,0.026541776955127716
249.0,291.0,-3.1316,1.7719,9.1866,-0.0409,0.0272,-0.1196,-2.189577718774313,0.0,4.370933532714844,-1.4865318536758423,-0.0,1.9064247608184814,5.501491117268362,0.0,0.23303264379501343,-1.6971762816058558,-0.0,-0.002476545050740242,0.998313307762146,0.0,-0.008907092735171318,1.1659777164459229,0.0,-0.00038648914778605103
249.0,291.0,-3.1316,1.7719,9.1866,-0.0409,0.0272,-0.1196,-2.1895696125426234,0.0,4.386343479156494,-1.4865117073059082,-0.0,1.9127432107925415,5.501478838711538,0.0,0.2343607395887375,-1.6971843878375452,-0.0,0.015159999951720238,0.9983052611351013,0.0,-0.0042559914290905,1.1659694910049438,0.0,0.025932565331459045
249.0,291.0,-3.1316,1.7719,9.1866,-0.0409,0.0272,-0.1196,-2.189590116540426,0.0,4.374763011932373,-1.4864953756332397,-0.0,1.9075428247451782,5.501511025219717,0.0,0.2395256906747818,-1.6972277800189417,-0.0,0.005057531408965588,0.9982544779777527,0.0,0.008833963423967361,1.1660219430923462,0.0,0.03869960084557533
249.0,291.0,-3.1316,1.7719,9.1866,-0.0409,0.0272,-0.1196,-2.18959440807485,0.0,4.4099860191345215,-1.4865076541900635,-0.0,1.894254207611084,5.501507329731741,0.0,0.23120686411857605,-1.6972277800189417,-0.0,-0.0033878523390740156,0.9982425570487976,0.0,-0.00361155578866601,1.165981411933899,0.0,-0.029385633766651154
249.0,291.0,-3.1316,1.7719,9.1866,-0.0409,0.0272,-0.1196,-2.1895576916136683,0.0,4.396998882293701,-1.486527681350708,-0.0,1.916872501373291,5.5014991638954065,0.0,0.23545503616333008,-1.6971924940692347,-0.0,-0.004087422974407673,0.9983014464378357,0.0,0.00017952403868548572,1.1659654378890991,0.0,-0.028968188911676407
249.0,291.0,-3.1316,1.7719,9.1866,-0.0409,0.0272,-0.1196,-2.189561506310934,0.0,4.410867691040039,-1.4865236282348633,-0.0,1.9203375577926636,5.501499223500051,0.0,0.2435908019542694,-1.6972358862506312,-0.0,0.015426922589540482,0.998250424861908,0.0,-0.014177839271724224,1.1660140752792358,0.0,-0.005435526371002197
249.0,291.0,-3.1316,1.7719,9.1866,-0.0409,0.0272,-0.1196,-2.189561506310934,0.0,4.353785037994385,-1.4865553379058838,-0.0,1.8566155433654785,5.501495110779562,0.0,0.23529338836669922,-1.6972358862506312,-0.0,0.0006872520316392183,0.9983252882957458,0.0,0.003096017986536026,1.1659374237060547,0.0,-0.01765972189605236
249.0,291.0,-3.1316,1.7719,9.1866,-0.0409,0.0272,-0.1196,-2.1895820103087367,0.0,4.390937805175781,-1.4865158796310425,-0.0,1.8614330291748047,5.501470792084493,0.0,0.23135393857955933,-1.6972277800189417,-0.0,0.0042594545520842075,0.9982821941375732,0.0,0.009860305115580559,1.1660301685333252,0.0,-0.019456185400485992
249.0,291.0,-3.1316,1.7719,9.1866,-0.0409,0.0272,-0.1196,-2.18961824993276,0.0,4.316460609436035,-1.4865236282348633,-0.0,1.8978052139282227,5.501495110779562,0.0,0.24401144683361053,-1.6972315947162073,-0.0,-0.0006018972489982843,0.9982622265815735,0.0,0.0032536701764911413,1.1659854650497437,0.0,0.019594227895140648
249.0,291.0,-3.1316,1.7719,9.1866,-0.0409,0.0272,-0.1196,-2.1896144352354945,0.0,4.3239336013793945,-1.486527681350708,-0.0,1.8963183164596558,5.501531111985006,0.0,0.23235467076301575,-1.6972435156451624,-0.0,0.0001332961255684495,0.9982821941375732,0.0,0.009989550337195396,1.1660181283950806,0.0,-0.012789171189069748
252.0,306.0,-3.0724,1.7509,9.1173,-0.0348,0.0232,-0.1258,-2.189573427239889,0.0,4.353850364685059,-1.486539602279663,-0.0,1.870866060256958,5.501499223500051,0.0,0.2467021346092224,-1.697195831929342,-0.0,0.0025126682594418526,0.9982782602310181,0.0,0.0011292434064671397,1.1659493446350098,0.0,0.02080317586660385
252.0,306.0,-3.0724,1.7509,9.1173,-0.0348,0.0232,-0.1258,-2.1896101437010707,0.0,4.381824970245361,-1.4865355491638184,-0.0,1.8469014167785645,5.501450764923849,0.0,0.23455575108528137,-1.6972397009478968,-0.0,0.013923773542046547,0.9982860088348389,0.0,-0.006483059376478195,1.1660100221633911,0.0,-0.002264447510242462
252.0,306.0,-3.0724,1.7509,9.1173,-0.0348,0.0232,-0.1258,-2.1896306476988734,0.0,4.388911247253418,-1.486575722694397,-0.0,1.8617372512817383,5.501446652203359,0.0,0.2302429974079132,-1.6972163359271448,-0.0,0.0025551123544573784,0.998313307762146,0.0,0.006237534806132317,1.1659777164459229,0.0,-0.009204352274537086
252.0,306.0,-3.0724,1.7509,9.1173,-0.0348,0.0232,-0.1258,-2.189577718774313,0.0,4.397791862487793,-1.486539602279663,-0.0,1.899282455444336,5.501535165100851,0.0,0.2447301149368286,-1.6972397009478968,-0.0,-0.000258816871792078,0.9983054399490356,0.0,-0.0019272738136351109,1.1660301685333252,0.0,0.0325874499976635
252.0,306.0,-3.0724,1.7509,9.1173,-0.0348,0.0232,-0.1258,-2.189577718774313,0.0,4.36308479309082,-1.486527681350708,-0.0,1.8957161903381348,5.501446652203359,0.0,0.23982250690460205,-1.6972125212298792,-0.0,0.005818220786750317,0.9982740879058838,0.0,-0.00324714626185596,1.1659616231918335,0.0,0.02722419984638691
252.0,306.0,-3.0724,1.7509,9.1173,-0.0348,0.0232,-0.1258,-2.1895982227721156,0.0,4.353173732757568,-1.4865515232086182,-0.0,1.9125733375549316,5.501474845200338,0.0,0.23828423023223877,-1.6972082296954554,-0.0,0.00506382342427969,0.998297393321991,0.0,0.012155227363109589,1.1659736633300781,0.0,0.026190616190433502
252.0,306.0,-3.0724,1.7509,9.1173,-0.0348,0.0232,-0.1258,-2.189590116540426,0.0,4.372415542602539,-1.4865158796310425,-0.0,1.890401005744934,5.501495110779562,0.0,0.23726391792297363,-1.6972201506244105,-0.0,0.009955143555998802,0.9983252286911011,0.0,0.00790079403668642,1.1659936904907227,0.0,-0.04013705998659134
252.0,306.0,-3.0724,1.7509,9.1173,-0.0348,0.0232,-0.1258,-2.189590116540426,0.0,4.401371955871582,-1.4865437746047974,-0.0,1.868229866027832,5.501503276615896,0.0,0.23260188102722168,-1.6972039381610315,-0.0,0.00809032004326582,0.9982621669769287,0.0,-0.002922339364886284,1.1660100221633911,0.0,-0.031030457466840744
252.0,306.0,-3.0724,1.7509,9.1173,-0.0348,0.0232,-0.1258,-2.1896144352354945,0.0,4.3651838302612305,-1.486527681350708,-0.0,1.8814568519592285,5.501491117268362,0.0,0.24293825030326843,-1.697195831929342,-0.0,0.005395257845520973,0.9982142448425293,0.0,0.00368937267921865,1.1660338640213013,0.0,0.014248620718717575
252.0,306.0,-3.0724,1.7509,9.1173,-0.0348,0.0232,-0.1258,-2.189573427239889,0.0,4.385492324829102,-1.4865236282348633,-0.0,1.9192626476287842,5.501495110779562,0.0,0.23638790845870972,-1.6971843878375452,-0.0,0.0052060578018426895,0.9982663989067078,0.0,-0.0029241673182696104,1.1660261154174805,0.0,-0.012524500489234924
252.0,306.0,-3.0724,1.7509,9.1173,-0.0348,0.0232,-0.1258,-2.18959440807485,0.0,4.374450206756592,-1.4865318536758423,-0.0,1.8751875162124634,5.501474845200338,0.0,0.2389611005783081,-1.6971996466266077,-0.0,-0.0025893016718328,0.9982895851135254,0.0,0.01333414763212204,1.165981411933899,0.0,-0.0001436769962310791
252.0,306.0,-3.0724,1.7509,9.1173,-0.0348,0.0232,-0.1258,-2.18959440807485,0.0,4.397881507873535,-1.4865400791168213,-0.0,1.8756828308105469,5.501499223500051,0.0,0.24313922226428986,-1.6972315947162073,-0.0,-0.006452992558479309,0.9982624650001526,0.0,-0.002292050514370203,1.1659736633300781,0.0,0.030326709151268005
252.0,306.0,-3.0724,1.7509,9.1173,-0.0348,0.0232,-0.1258,-2.189577718774313,0.0,4.408946990966797,-1.4865158796310425,-0.0,1.8815112113952637,5.501515137940206,0.0,0.24647365510463715,-1.6972482840167444,-0.0,-0.0035056041087955236,0.9983252286911011,0.0,0.004254584666341543,1.1659777164459229,0.0,-0.03002336621284485
252.0,306.0,-3.0724,1.7509,9.1173,-0.0348,0.0232,-0.1258,-2.1895977459349574,0.0,4.382203102111816,-1.486482858657837,-0.0,1.883081316947937,5.5014585731323145,0.0,0.2360478937625885,-1.6972320715533655,-0.0,0.006304200738668442,0.998289942741394,0.0,0.009442813694477081,1.165989637374878,0.0,0.02625478059053421
252.0,306.0,-3.0724,1.7509,9.1173,-0.0348,0.0232,-0.1258,-2.1895820103087367,0.0,4.374739646911621,-1.4865076541900635,-0.0,1.9264755249023438,5.501515137940206,0.0,0.23594333231449127,-1.6971996466266077,-0.0,0.007337988819926977,0.9983575940132141,0.0,-0.0039124321192502975,1.166025996208191,0.0,-0.010737806558609009
252.0,306.0,-3.0724,1.7509,9.1173,-0.0348,0.0232,-0.1258,-2.189561506310934,0.0,4.381614685058594,-1.4865318536758423,-0.0,1.8912272453308105,5.50145452001647,0.0,0.25246167182922363,-1.6972039381610315,-0.0,-0.005131222307682037,0.9983449578285217,0.0,-0.0002460188989061862,1.1659576892852783,0.0,0.03429456055164337
252.0,306.0,-3.0724,1.7509,9.1173,-0.0348,0.0232,-0.1258,-2.1895858250060023,0.0,4.38250207901001,-1.4865436553955078,-0.0,1.8733510971069336,5.501458871155538,0.0,0.23930113017559052,-1.6971643606769007,-0.0,0.005099580157548189,0.9982584714889526,0.0,-0.010727619752287865,1.1659936904907227,0.0,-0.008521306328475475
252.0,306.0,-3.0724,1.7509,9.1173,-0.0348,0.0232,-0.1258,-2.189573427239889,0.0,4.347568511962891,-1.486539602279663,-0.0,1.870631456375122,5.501487064152517,0.0,0.23819488286972046,-1.6972277800189417,-0.0,0.009652283042669296,0.9982624650001526,0.0,0.01158253476023674,1.165989637374878,0.0,-0.030550163239240646
252.0,306.0,-3.0724,1.7509,9.1173,-0.0348,0.0232,-0.1258,-2.189606329003805,0.0,4.373439311981201,-1.4865278005599976,-0.0,1.893676996231079,5.501474845200338,0.0,0.23941630125045776,-1.6972082296954554,-0.0,-0.007077580783516169,0.998289942741394,0.0,0.0005517463432624936,1.165989637374878,0.0,0.004846269264817238
252.0,306.0,-3.0724,1.7509,9.1173,-0.0348,0.0232,-0.1258,-2.1895977459349574,0.0,4.389772415161133,-1.4865314960479736,-0.0,1.8963370323181152,5.501462566643514,0.0,0.2379131019115448,-1.697195831929342,-0.0,-0.0001080589136108756,0.9983329176902771,0.0,0.0049731116741895676,1.165953516960144,0.0,-0.00151254259981215
252.0,306.0,-3.0724,1.7509,9.1173,-0.0348,0.0232,-0.1258,-2.189605852166647,0.0,4.416872978210449,-1.4865556955337524,-0.0,1.89371919631958,5.501518952637472,0.0,0.24199095368385315,-1.697188679371969,-0.0,-0.003387508448213339,0.9982900023460388,0.0,-0.001997369807213545,1.166001796722412,0.0,0.048958905041217804
241.0,295.0,-2.9103,1.8598,8.9982,-0.0324,0.0243,-0.1173,-2.1896220646300257,0.0,4.410310745239258,-1.4865158796310425,-0.0,1.9086040258407593,5.501491117268362,0.0,0.23764322698116302,-1.6972525755511683,-0.0,-0.000711447442881763,0.9982704520225525,0.0,-0.00932480487972498,1.1659575700759888,0.0,-0.0016683959402143955
241.0,295.0,-2.9103,1.8598,8.9982,-0.0324,0.0243,-0.1173,-2.1896139583983363,0.0,4.395571231842041,-1.4865355491638184,-0.0,1.9215863943099976,5.501495110779562,0.0,0.2420225739479065,-1.6972234884845179,-0.0,-0.006680690683424473,0.9982860088348389,0.0,-0.006669926457107067,1.165953516960144,0.0,-0.00426919711753726
241.0,295.0,-2.9103,1.8598,8.9982,-0.0324,0.0243,-0.1173,-2.189573427239889,0.0,4.36223840713501,-1.4865436553955078,-0.0,1.8971412181854248,5.501503276615896,0.0,0.236683189868927,-1.6972525755511683,-0.0,0.018240809440612793,0.9982701539993286,0.0,0.001546488725580275,1.1659777164459229,0.0,-0.010178985074162483
241.0,295.0,-2.9103,1.8598,8.9982,-0.0324,0.0243,-0.1173,-2.1896220646300257,0.0,4.404898643493652,-1.4865195751190186,-0.0,1.8824067115783691,5.501462626248159,0.0,0.2364783138036728,-1.6972482840167444,-0.0,0.00569060817360878,0.9982934594154358,0.0,-0.004175817593932152,1.1659977436065674,0.0,0.008129606023430824
241.0,295.0,-2.9103,1.8598,8.9982,-0.0324,0.0243,-0.1173,-2.1896139583983363,0.0,4.424673557281494,-1.4865236282348633,-0.0,1.8618334531784058,5.501478898316183,0.0,0.23548871278762817,-1.6971638838397425,-0.0,-0.005650210194289684,0.9983575940132141,0.0,0.00481366366147995,1.1659936904907227,0.0,-0.020706214010715485
241.0,295.0,-2.9103,1.8598,8.9982,-0.0324,0.0243,-0.1173,-2.189602037469381,0.0,4.394989967346191,-1.4865236282348633,-0.0,1.8756192922592163,5.501491117268362,0.0,0.22917890548706055,-1.6971915403949183,-0.0,0.004194325301796198,0.998266339302063,0.0,0.00945034995675087,1.165989637374878,0.0,-0.07449421286582947
241.0,295.0,-2.9103,1.8598,8.9982,-0.0324,0.0243,-0.1173,-2.1896220646300257,0.0,4.370611667633057,-1.4865318536758423,-0.0,1.8674883842468262,5.501478838711538,0.0,0.24560381472110748,-1.6972277800189417,-0.0,0.006967599503695965,0.9983093738555908,0.0,0.010291138663887978,1.1659895181655884,0.0,-0.003955258056521416
241.0,295.0,-2.9103,1.8598,8.9982,-0.0324,0.0243,-0.1173,-2.189577718774313,0.0,4.353359222412109,-1.4865635633468628,-0.0,1.8819739818572998,5.501462626248159,0.0,0.24101220071315765,-1.697228733693258,-0.0,0.012034865096211433,0.9983014464378357,0.0,0.0037306800950318575,1.1660223007202148,0.0,-0.04243636131286621
241.0,295.0,-2.9103,1.8598,8.9982,-0.0324,0.0243,-0.1173,-2.1895653210081996,0.0,4.37731409072876,-1.4865117073059082,-0.0,1.8739099502563477,5.501499223500051,0.0,0.23873183131217957,-1.6972320715533655,-0.0,0.009375243447721004,0.9982974529266357,0.0,0.009799900464713573,1.165989637374878,0.0,0.012001552619040012
241.0,295.0,-2.9103,1.8598,8.9982,-0.0324,0.0243,-0.1173,-2.1895858250060023,0.0,4.373938083648682,-1.4865397214889526,-0.0,1.9082472324371338,5.501466679364004,0.0,0.23433318734169006,-1.6972244421588343,-0.0,-0.00668142968788743,0.9983575940132141,0.0,0.003067287150770426,1.1660301685333252,0.0,0.023206651210784912
241.0,295.0,-2.9103,1.8598,8.9982,-0.0324,0.0243,-0.1173,-2.1895820103087367,0.0,4.398336410522461,-1.4864795207977295,-0.0,1.8614866733551025,5.5014585731323145,0.0,0.2508445084095001,-1.6972320715533655,-0.0,0.012169543653726578,0.9982935190200806,0.0,-0.008139992132782936,1.1659736633300781,0.0,0.006386957131326199
241.0,295.0,-2.9103,1.8598,8.9982,-0.0324,0.0243,-0.1173,-2.189602037469381,0.0,4.392908096313477,-1.4864951372146606,-0.0,1.859699010848999,5.501478838711538,0.0,0.23461365699768066,-1.6971400419818323,-0.0,0.0008545949240215123,0.9982624053955078,0.0,0.00032964861020445824,1.1659977436065674,0.0,0.016841428354382515
241.0,295.0,-2.9103,1.8598,8.9982,-0.0324,0.0243,-0.1173,-2.18959440807485,0.0,4.41816520690918,-1.4865155220031738,-0.0,1.8872218132019043,5.501499223500051,0.0,0.2418948858976364,-1.6972206274615687,-0.0,0.010297810658812523,0.9983212947845459,0.0,-0.006492741871625185,1.166025996208191,0.0,-0.023471320047974586
241.0,295.0,-2.9103,1.8598,8.9982,-0.0324,0.0243,-0.1173,-2.1896139583983363,0.0,4.400801658630371,-1.4865199327468872,-0.0,1.9079911708831787,5.501442718296804,0.0,0.2423875629901886,-1.6972039381610315,-0.0,0.0005604343023151159,0.9983093738555908,0.0,0.004242279101163149,1.165981411933899,0.0,-0.01267874613404274
241.0,295.0,-2.9103,1.8598,8.9982,-0.0324,0.0243,-0.1173,-2.189541002313131,0.0,4.369553565979004,-1.4865399599075317,-0.0,1.8838880062103271,5.501482951432028,0.0,0.24502073228359222,-1.6972039381610315,-0.0,0.003738023806363344,0.9982465505599976,0.0,0.001548857195302844,1.1659936904907227,0.0,0.0009289744775742292
241.0,295.0,-2.9103,1.8598,8.9982,-0.0324,0.0243,-0.1173,-2.189602037469381,0.0,4.385009765625,-1.4865117073059082,-0.0,1.9142284393310547,5.501491057663717,0.0,0.24472317099571228,-1.697240177785055,-0.0,0.004002862609922886,0.9982895851135254,0.0,-0.0015480187721550465,1.165989637374878,0.0,0.018291842192411423
241.0,295.0,-2.9103,1.8598,8.9982,-0.0324,0.0243,-0.1173,-2.1896139583983363,0.0,4.356942653656006,-1.4865355491638184,-0.0,1.9050410985946655,5.501535224705496,0.0,0.23276835680007935,-1.6972163359271448,-0.0,0.008375491946935654,0.9982701539993286,0.0,-0.006133344490081072,1.1660300493240356,0.0,0.01789482682943344
241.0,295.0,-2.9103,1.8598,8.9982,-0.0324,0.0243,-0.1173,-2.189577718774313,0.0,4.327352046966553,-1.4865117073059082,-0.0,1.8741569519042969,5.501507270127096,0.0,0.23333200812339783,-1.697240177785055,-0.0,0.004750357940793037,0.9982860088348389,0.0,0.0004858322790823877,1.1660261154174805,0.0,0.013675913214683533
241.0,295.0,-2.9103,1.8598,8.9982,-0.0324,0.0243,-0.1173,-2.1896382770934046,0.0,4.403970241546631,-1.486584186553955,-0.0,1.8549185991287231,5.501487064152517,0.0,0.23042887449264526,-1.6972206274615687,-0.0,0.014474881812930107,0.998313307762146,0.0,0.001203743857331574,1.165989637374878,0.0,-0.0028521150816231966
241.0,295.0,-2.9103,1.8598,8.9982,-0.0324,0.0243,-0.1173,-2.1896258793272914,0.0,4.419997215270996,-1.4865520000457764,-0.0,1.8773056268692017,5.501547324448385,0.0,0.24796198308467865,-1.6972039381610315,-0.0,0.0038425312377512455,0.9983369708061218,0.0,-0.018782122060656548,1.1659654378890991,0.0,-0.03677390515804291
241.0,295.0,-2.9103,1.8598,8.9982,-0.0324,0.0243,-0.1173,-2.1896101437010707,0.0,4.445439338684082,-1.486482858657837,-0.0,1.8635836839675903,5.501474785595693,0.0,0.2424345314502716,-1.697171990071432,-0.0,0.014452332630753517,0.9982860088348389,0.0,-0.00361771322786808,1.165989637374878,0.0,-0.008459285832941532
241.0,295.0,-2.9103,1.8598,8.9982,-0.0324,0.0243,-0.1173,-2.1896382770934046,0.0,4.380893230438232,-1.4865437746047974,-0.0,1.862349510192871,5.501503336220541,0.0,0.23681426048278809,-1.6971996466266077,-0.0,0.0002507517347112298,0.9983094334602356,0.0,-0.012098182924091816,1.1659936904907227,0.0,-0.01260712742805481
253.0,275.0,-3.061,1.7623,9.1394,-0.0417,0.0286,-0.1151,-2.18959440807485,0.0,4.362852573394775,-1.4864994287490845,-0.0,1.883872151374817,5.501511323242941,0.0,0.23170486092567444,-1.6972277800189417,-0.0,0.0002188726793974638,0.9982860088348389,0.0,-0.0016922233626246452,1.1659854650497437,0.0,-0.03258213400840759
253.0,275.0,-3.061,1.7623,9.1394,-0.0417,0.0286,-0.1151,-2.1896139583983363,0.0,4.413228988647461,-1.4865474700927734,-0.0,1.8805687427520752,5.5015113828475855,0.0,0.2433524876832962,-1.6972206274615687,-0.0,0.005221167579293251,0.9982855916023254,0.0,0.01350032351911068,1.1659936904907227,0.0,0.019286373630166054
253.0,275.0,-3.061,1.7623,9.1394,-0.0417,0.0286,-0.1151,-2.1896220646300257,0.0,4.390954494476318,-1.4865117073059082,-0.0,1.9052166938781738,5.501470792084493,0.0,0.24688464403152466,-1.6972602049456995,-0.0,0.014522820711135864,0.9983494281768799,0.0,0.011625280603766441,1.1659858226776123,0.0,0.0008240118622779846
253.0,275.0,-3.061,1.7623,9.1394,-0.0417,0.0286,-0.1151,-2.1895982227721156,0.0,4.372790336608887,-1.4865236282348633,-0.0,1.8566842079162598,5.5015073893363855,0.0,0.25139009952545166,-1.6971882025348108,-0.0,-0.005030709784477949,0.9982743859291077,0.0,0.003417467698454857,1.1659936904907227,0.0,-0.060482949018478394
253.0,275.0,-3.061,1.7623,9.1394,-0.0417,0.0286,-0.1151,-2.189633985558981,0.0,4.387491703033447,-1.4864994287490845,-0.0,1.9073801040649414,5.501478898316183,0.0,0.23276367783546448,-1.697195831929342,-0.0,0.0038300524465739727,0.9983012676239014,0.0,-0.0012690648436546326,1.1660100221633911,0.0,-0.015177460387349129
253.0,275.0,-3.061,1.7623,9.1394,-0.0417,0.0286,-0.1151,-2.18961824993276,0.0,4.379197120666504,-1.486539602279663,-0.0,1.797950267791748,5.501466679364004,0.0,0.24857723712921143,-1.6972320715533655,-0.0,0.013322843238711357,0.9982374310493469,0.0,-0.001174574950709939,1.1659936904907227,0.0,-0.02323933131992817
253.0,275.0,-3.061,1.7623,9.1394,-0.0417,0.0286,-0.1151,-2.189606329003805,0.0,4.352904319763184,-1.4865314960479736,-0.0,1.9123057126998901,5.501491117268362,0.0,0.2518678307533264,-1.6972206274615687,-0.0,-0.0024158665910363197,0.9982821941375732,0.0,0.0036293151788413525,1.1659899950027466,0.0,-0.00927396398037672
253.0,275.0,-3.061,1.7623,9.1394,-0.0417,0.0286,-0.1151,-2.189602037469381,0.0,4.423860549926758,-1.4865117073059082,-0.0,1.9215753078460693,5.501507031708517,0.0,0.2383674681186676,-1.6972163359271448,-0.0,0.00285949744284153,0.9983457922935486,0.0,-0.0042727794498205185,1.1659936904907227,0.0,0.0036067464388906956
253.0,275.0,-3.061,1.7623,9.1394,-0.0417,0.0286,-0.1151,-2.1895491085448207,0.0,4.410431861877441,-1.486491084098816,-0.0,1.8848419189453125,5.501487004547872,0.0,0.23891028761863708,-1.6971915403949183,-0.0,0.002438013441860676,0.9983013868331909,0.0,-0.002470483537763357,1.1659777164459229,0.0,0.035127148032188416
253.0,275.0,-3.061,1.7623,9.1394,-0.0417,0.0286,-0.1151,-2.189590116540426,0.0,4.323329448699951,-1.4865195751190186,4.432136506693496e-07,1.8696153163909912,5.501446711808004,0.0,0.2431296706199646,-1.697240177785055,-0.0,0.014703887514770031,0.9983493685722351,0.0,-0.003534217830747366,1.1659777164459229,0.0,-0.007132227066904306
253.0,275.0,-3.061,1.7623,9.1394,-0.0417,0.0286,-0.1151,-2.18959440807485,0.0,4.387101650238037,-1.4865800142288208,7.977690036353735e-11,1.9448456764221191,5.501454818039694,0.0,0.2436649203300476,-1.697195831929342,-0.0,-0.0029044481925666332,0.9983214139938354,0.0,-0.0031142893712967634,1.1659854650497437,0.0,0.015035150572657585
253.0,275.0,-3.061,1.7623,9.1394,-0.0417,0.0286,-0.1151,-2.1896258793272914,0.0,4.3780317306518555,-1.4865076541900635,1.435955981942197e-14,1.8635363578796387,5.501474845200338,0.0,0.23844119906425476,-1.6971915403949183,-0.0,-0.008327292278409004,0.998293399810791,0.0,-0.0054708849638700485,1.1659777164459229,0.0,0.02351512759923935
253.0,275.0,-3.061,1.7623,9.1394,-0.0417,0.0286,-0.1151,-2.1895858250060023,0.0,4.419261932373047,-1.4865474700927734,2.5846699601436723e-18,1.8626198768615723,5.501487064152517,0.0,0.2430637776851654,-1.6972525755511683,-0.0,-0.006987584289163351,0.9982892870903015,0.0,0.004479768220335245,1.166001796722412,0.0,-0.015884941443800926
253.0,275.0,-3.061,1.7623,9.1394,-0.0417,0.0286,-0.1151,-2.1896139583983363,0.0,4.403590679168701,-1.4865036010742188,4.652314887823352e-22,1.8612093925476074,5.501515137940206,0.0,0.2339978814125061,-1.6972525755511683,-0.0,-0.003172110766172409,0.9983013868331909,0.0,0.006270455662161112,1.1660059690475464,0.0,0.02033124305307865
253.0,275.0,-3.061,1.7623,9.1394,-0.0417,0.0286,-0.1151,-2.189602037469381,0.0,4.424710273742676,-1.4865155220031738,8.374001946466011e-26,1.9078164100646973,5.501462566643514,0.0,0.24670235812664032,-1.697212044392721,-0.0,0.002748666564002633,0.9983254671096802,0.0,0.005273208022117615,1.165953516960144,0.0,0.005203772336244583
253.0,275.0,-3.061,1.7623,9.1394,-0.0417,0.0286,-0.1151,-2.189602037469381,0.0,4.358645915985107,-1.4865273237228394,1.5072907028390593e-29,1.8836592435836792,5.501507031708517,0.0,0.24333292245864868,-1.6972039381610315,-0.0,0.003704787464812398,0.9983294606208801,0.0,0.0006249191937968135,1.165981411933899,0.0,0.009113932028412819
253.0,275.0,-3.061,1.7623,9.1394,-0.0417,0.0286,-0.1151,-2.189549585381979,0.0,4.361053466796875,-1.4865840673446655,2.7130699817146255e-33,1.887071132659912,5.501446652203359,0.0,0.2358972728252411,-1.6972277800189417,-0.0,0.00021625024965032935,0.9982419610023499,0.0,0.0033488678745925426,1.1660100221633911,0.0,0.018742239102721214
253.0,275.0,-3.061,1.7623,9.1394,-0.0417,0.0286,-0.1151,-2.1895534000792445,0.0,4.347367286682129,-1.4865400791168213,4.883430532499676e-37,1.8633437156677246,5.501511084824362,0.0,0.23973476886749268,-1.697212044392721,-0.0,0.018304571509361267,0.9982620477676392,0.0,-0.006447117775678635,1.1659936904907227,0.0,-0.028193224221467972
253.0,275.0,-3.061,1.7623,9.1394,-0.0417,0.0286,-0.1151,-2.1895982227721156,0.0,4.415850639343262,-1.4865597486495972,1.179893306961496e-42,1.9118521213531494,5.501474785595693,0.0,0.2393823266029358,-1.6972277800189417,-0.0,0.006615796126425266,0.9983333349227905,0.0,0.006171626970171928,1.1660219430923462,0.0,-0.026144320145249367
253.0,275.0,-3.061,1.7623,9.1394,-0.0417,0.0286,-0.1151,-2.1895696125426234,0.0,4.3449788093566895,-1.4865474700927734,0.0,1.8721685409545898,5.501502978592672,0.0,0.24102874100208282,-1.6972244421588343,-0.0,-0.0017870115116238594,0.9982941746711731,0.0,0.0005669349920935929,1.1659576892852783,0.0,0.044712133705616
253.0,275.0,-3.061,1.7623,9.1394,-0.0417,0.0286,-0.1151,-2.189561506310934,0.0,4.33984375,-1.486523985862732,-0.0,1.8985317945480347,5.501522946148672,0.0,0.2378898411989212,-1.6972234884845179,-0.0,0.0033418843522667885,0.9983013868331909,0.0,0.0020927926525473595,1.1660100221633911,0.0,-0.008658605627715588
249.0,293.0,-3.0664,1.8048,9.1244,-0.0295,0.0166,-0.1177,-2.189602037469381,0.0,4.3784589767456055,-1.4864715337753296,-0.0,1.8318065404891968,5.501503336220541,0.0,0.24293756484985352,-1.6972206274615687,-0.0,-0.0008437802898697555,0.998285174369812,0.0,0.010316967032849789,1.1660219430923462,0.0,0.012943383306264877
249.0,293.0,-3.0664,1.8048,9.1244,-0.0295,0.0166,-0.1177,-2.18961824993276,0.0,4.398000717163086,-1.486454963684082,-0.0,1.8933794498443604,5.501446592598715,0.0,0.24108582735061646,-1.6972206274615687,-0.0,0.0004246350727044046,0.9983093738555908,0.0,-0.001092288177460432,1.1660100221633911,0.0,0.01675226539373398
249.0,293.0,-3.0664,1.8048,9.1244,-0.0295,0.0166,-0.1177,-2.189606329003805,0.0,4.338537216186523,-1.4865076541900635,-0.0,1.8488545417785645,5.501454877644338,0.0,0.23889368772506714,-1.6972244421588343,-0.0,0.005234673619270325,0.9982655644416809,0.0,-0.008327648043632507,1.1659854650497437,0.0,-0.028338059782981873
249.0,293.0,-3.0664,1.8048,9.1244,-0.0295,0.0166,-0.1177,-2.189561506310934,0.0,4.379209518432617,-1.4865474700927734,-0.0,1.8817658424377441,5.501462566643514,0.0,0.2416858673095703,-1.697195831929342,-0.0,0.0013723522424697876,0.9982892870903015,0.0,0.005368449725210667,1.165961742401123,0.0,0.023682406172156334
249.0,293.0,-3.0664,1.8048,9.1244,-0.0295,0.0166,-0.1177,-2.1896096668639125,0.0,4.401503562927246,-1.4864870309829712,-0.0,1.8955293893814087,5.501495110779562,0.0,0.23659953474998474,-1.6972277800189417,-0.0,-0.0026354296132922173,0.9983294606208801,0.0,-0.004021001514047384,1.1660100221633911,0.0,0.008184115402400494
249.0,293.0,-3.0664,1.8048,9.1244,-0.0295,0.0166,-0.1177,-2.18959440807485,0.0,4.380914211273193,-1.4865236282348633,-0.0,1.8918061256408691,5.50142269113616,0.0,0.23216652870178223,-1.697240177785055,-0.0,0.007951048202812672,0.9983013868331909,0.0,0.00987965427339077,1.1659694910049438,0.0,0.0025531998835504055
249.0,293.0,-3.0664,1.8048,9.1244,-0.0295,0.0166,-0.1177,-2.1895982227721156,0.0,4.429516792297363,-1.4865881204605103,-0.0,1.8899874687194824,5.501499223500051,0.0,0.24660077691078186,-1.6971843878375452,-0.0,0.00794615875929594,0.9982578754425049,0.0,0.001533003174699843,1.1660219430923462,0.0,0.0036618662998080254
249.0,293.0,-3.0664,1.8048,9.1244,-0.0295,0.0166,-0.1177,-2.1896220646300257,0.0,4.445127487182617,-1.486527681350708,-0.0,1.8977065086364746,5.501511025219717,0.0,0.2399025857448578,-1.6972163359271448,-0.0,0.008562440052628517,0.9982933402061462,0.0,0.008145910687744617,1.1659817695617676,0.0,0.04054420068860054
249.0,293.0,-3.0664,1.8048,9.1244,-0.0295,0.0166,-0.1177,-2.18959440807485,0.0,4.404581069946289,-1.4865597486495972,-0.0,1.827298641204834,5.501478838711538,0.0,0.2434549480676651,-1.697212044392721,-0.0,0.004427901469171047,0.9983294606208801,0.0,-0.003966523800045252,1.1660219430923462,0.0,0.009043034166097641
249.0,293.0,-3.0664,1.8048,9.1244,-0.0295,0.0166,-0.1177,-2.18961824993276,0.0,4.359027862548828,-1.4865155220031738,-0.0,1.9206421375274658,5.501474785595693,0.0,0.23792682588100433,-1.6971800963031214,-0.0,0.014390911906957626,0.9982699751853943,0.0,0.0003094682761002332,1.1660219430923462,0.0,0.008577631786465645
249.0,293.0,-3.0664,1.8048,9.1244,-0.0295,0.0166,-0.1177,-2.189590116540426,0.0,4.370957851409912,-1.486527681350708,-0.0,1.8513736724853516,5.501506972103872,0.0,0.22557252645492554,-1.6971996466266077,-0.0,0.0023578989785164595,0.9982941746711731,0.0,0.0018348555313423276,1.1659777164459229,0.0,-0.049490172415971756
249.0,293.0,-3.0664,1.8048,9.1244,-0.0295,0.0166,-0.1177,-2.189577718774313,0.0,4.373359680175781,-1.4865155220031738,-0.0,1.869053840637207,5.501470792084493,0.0,0.24343504011631012,-1.6972444693194788,-0.0,0.007036072667688131,0.9983052611351013,0.0,-0.0031994213350117207,1.1659294366836548,0.0,0.02668973244726658
249.0,293.0,-3.0664,1.8048,9.1244,-0.0295,0.0166,-0.1177,-2.189573427239889,0.0,4.424470901489258,-1.4865117073059082,-0.0,1.8791017532348633,5.501466738968649,0.0,0.23883876204490662,-1.6972244421588343,-0.0,0.0036319587379693985,0.9982781410217285,0.0,-0.0020779999904334545,1.165989637374878,0.0,-0.01898987777531147
249.0,293.0,-3.0664,1.8048,9.1244,-0.0295,0.0166,-0.1177,-2.189606329003805,0.0,4.346297740936279,-1.4865355491638184,-0.0,1.878814697265625,5.50143854597167,0.0,0.2368285059928894,-1.6972196737872522,-0.0,-0.004451986867934465,0.9982892870903015,0.0,0.0012005516327917576,1.1659293174743652,0.0,-0.03957894444465637
249.0,293.0,-3.0664,1.8048,9.1244,-0.0295,0.0166,-0.1177,-2.1896101437010707,0.0,4.411945343017578,-1.4864838123321533,-0.0,1.886427402496338,5.501478838711538,0.0,0.2299138307571411,-1.6971800963031214,-0.0,0.006626009941101074,0.9982892870903015,0.0,0.0020250834058970213,1.1659653186798096,0.0,-0.0001372080296278
249.0,293.0,-3.0664,1.8048,9.1244,-0.0295,0.0166,-0.1177,-2.189606329003805,0.0,4.389468669891357,-1.4865074157714844,1.566341597936116e-05,1.8708345890045166,5.50143067815856,0.0,0.24954000115394592,-1.6971924940692347,-0.0,0.009692895226180553,0.9983580112457275,0.0,-0.010169824585318565,1.166001796722412,0.0,-0.0018577862065285444
249.0,293.0,-3.0664,1.8048,9.1244,-0.0295,0.0166,-0.1177,-2.1896144352354945,0.0,4.373419761657715,-1.4864951372146606,5.173260433366522e-06,1.8952445983886719,5.501507031708517,0.0,0.23526889085769653,-1.6972358862506312,-0.0,0.006066717207431793,0.9983212947845459,0.0,-0.010807756334543228,1.1659977436065674,0.0,-0.06506557017564774
249.0,293.0,-3.0664,1.8048,9.1244,-0.0295,0.0166,-0.1177,-2.189590116540426,0.0,4.380070686340332,-1.4865676164627075,9.311686421931142e-10,1.8425285816192627,5.501470792084493,0.0,0.2434183955192566,-1.697240177785055,-0.0,0.013047595508396626,0.9982620477676392,0.0,0.002255620900541544,1.1659736633300781,0.0,0.05056219547986984
249.0,293.0,-3.0664,1.8048,9.1244,-0.0295,0.0166,-0.1177,-2.18959440807485,0.0,4.415812969207764,-1.4865278005599976,1.6760705779002294e-13,1.8397681713104248,5.501551496773519,0.0,0.2474740892648697,-1.6971996466266077,-0.0,0.006801458075642586,0.9982933402061462,0.0,0.011922389268875122,1.1660059690475464,0.0,-0.03816889971494675
249.0,293.0,-3.0664,1.8048,9.1244,-0.0295,0.0166,-0.1177,-2.18961824993276,0.0,4.398775100708008,-1.4865318536758423,3.016868314685026e-17,1.8872935771942139,5.501511084824362,0.0,0.2437151074409485,-1.6971877256976526,-0.0,0.003300161100924015,0.9983013868331909,0.0,-0.0020021938253194094,1.1659936904907227,0.0,0.025958310812711716
249.0,293.0,-3.0664,1.8048,9.1244,-0.0295,0.0166,-0.1177,-2.1896139583983363,0.0,4.387594699859619,-1.4865199327468872,5.430256544477363e-21,1.849128246307373,5.501446592598715,0.0,0.23713645339012146,-1.6972039381610315,-0.0,0.0026856909971684217,0.9983134269714355,0.0,0.012240421026945114,1.1660059690475464,0.0,-0.020749378949403763
251.0,281.0,-3.0957,1.7647,9.1274,-0.0426,0.0235,-0.1203,-2.189537664453024,0.0,4.332465171813965,-1.4865076541900635,9.774268633461953e-25,1.859163761138916,5.501503276615896,0.0,0.2235771119594574,-1.6972163359271448,-0.0,0.010014783591032028,0.998293399810791,0.0,0.0024784598499536514,1.1660100221633911,0.0,-0.008262688294053078
251.0,281.0,-3.0957,1.7647,9.1274,-0.0426,0.0235,-0.1203,-2.1895696125426234,0.0,4.388101577758789,-1.4865076541900635,1.7593338745615803e-28,1.8871867656707764,5.501519250660696,0.0,0.24328899383544922,-1.6971996466266077,-0.0,0.0008408077410422266,0.998278021812439,0.0,0.009744130074977875,1.1659654378890991,0.0,-0.02497154101729393
251.0,281.0,-3.0957,1.7647,9.1274,-0.0426,0.0235,-0.1203,-2.1895696125426234,0.0,4.405507564544678,-1.4865076541900635,3.1667388755714375e-32,1.8921213150024414,5.501511084824362,0.0,0.23702386021614075,-1.6972277800189417,-0.0,0.008977561257779598,0.9982900619506836,0.0,-0.011233275756239891,1.165989637374878,0.0,-0.004377800039947033
251.0,281.0,-3.0957,1.7647,9.1274,-0.0426,0.0235,-0.1203,-2.18961824993276,0.0,4.323642253875732,-1.4865639209747314,7.647300504165967e-38,1.8933873176574707,5.501487064152517,0.0,0.23198500275611877,-1.697195831929342,-0.0,0.004808393307030201,0.9982974529266357,0.0,-0.0031037619337439537,1.1659936904907227,0.0,0.0028419981244951487
251.0,281.0,-3.0957,1.7647,9.1274,-0.0426,0.0235,-0.1203,-2.189606329003805,0.0,4.404659271240234,-1.4865036010742188,1.3764954815062678e-41,1.8157950639724731,5.501470792084493,0.0,0.25185999274253845,-1.6971800963031214,-0.0,0.016891999170184135,0.9983052611351013,0.0,-0.005185472313314676,1.165989637374878,0.0,-0.029063044115900993
251.0,281.0,-3.0957,1.7647,9.1274,-0.0426,0.0235,-0.1203,-2.189573427239889,0.0,4.420202732086182,-1.4865076541900635,2.802596928649634e-45,1.8940093517303467,5.501474785595693,0.0,0.23467828333377838,-1.697240177785055,-0.0,0.003116726642474532,0.9983134269714355,0.0,-0.010441071353852749,1.165989637374878,0.0,-0.04226108267903328
251.0,281.0,-3.0957,1.7647,9.1274,-0.0426,0.0235,-0.1203,-2.18961824993276,0.0,4.415811538696289,-1.4865679740905762,-0.0,1.8135578632354736,5.501450705319204,0.0,0.23513969779014587,-1.6971996466266077,-0.0,-0.00044579769019037485,0.9983780980110168,0.0,0.006121253594756126,1.1659736633300781,0.0,0.0058009009808301926
251.0,281.0,-3.0957,1.7647,9.1274,-0.0426,0.0235,-0.1203,-2.1895858250060023,0.0,4.349953651428223,-1.486547827720642,-0.0,1.8771576881408691,5.501526999264517,0.0,0.24685560166835785,-1.6971843878375452,-0.0,0.005121931433677673,0.998278021812439,0.0,0.006824728567153215,1.1659575700759888,0.0,0.037000320851802826
251.0,281.0,-3.0957,1.7647,9.1274,-0.0426,0.0235,-0.1203,-2.1895657978453578,0.0,4.401342391967773,-1.4865597486495972,-0.0,1.9205728769302368,5.501507329731741,0.0,0.245026096701622,-1.697195831929342,-0.0,0.0013218747917562723,0.9982419013977051,0.0,0.0012556270230561495,1.165989637374878,0.0,-0.029721803963184357
251.0,281.0,-3.0957,1.7647,9.1274,-0.0426,0.0235,-0.1203,-2.1896263561644496,0.0,4.371927738189697,-1.4865318536758423,-0.0,1.8834563493728638,5.501491117268362,0.0,0.2452649176120758,-1.6972206274615687,-0.0,0.010606696829199791,0.9982293248176575,0.0,0.0003754839999601245,1.1659773588180542,0.0,0.028356710448861122
251.0,281.0,-3.0957,1.7647,9.1274,-0.0426,0.0235,-0.1203,-2.189590116540426,0.0,4.432614326477051,-1.4865474700927734,-0.0,1.9051060676574707,5.501495110779562,0.0,0.24196168780326843,-1.6972082296954554,-0.0,0.009392967447638512,0.9982860088348389,0.0,-0.006177356466650963,1.1659936904907227,0.0,0.010216742753982544
251.0,281.0,-3.0957,1.7647,9.1274,-0.0426,0.0235,-0.1203,-2.1896101437010707,0.0,4.31118631362915,-1.4865236282348633,-0.0,1.9514583349227905,5.5015073893363855,0.0,0.23457568883895874,-1.6972206274615687,-0.0,0.013487699441611767,0.9983013272285461,0.0,-0.007833927869796753,1.165981411933899,0.0,0.013754681684076786
251.0,281.0,-3.0957,1.7647,9.1274,-0.0426,0.0235,-0.1203,-2.189577718774313,0.0,4.377735614776611,-1.4864869117736816,-0.0,1.8989648818969727,5.501450705319204,0.0,0.23333337903022766,-1.697195831929342,-0.0,0.005476073827594519,0.998278021812439,0.0,-0.0034372438676655293,1.1659858226776123,0.0,-0.011179444380104542
251.0,281.0,-3.0957,1.7647,9.1274,-0.0426,0.0235,-0.1203,-2.1895858250060023,0.0,4.4443278312683105,-1.4865236282348633,-0.0,1.9113799333572388,5.50143067815856,0.0,0.23078879714012146,-1.6972039381610315,-0.0,0.002554412465542555,0.9982820749282837,0.0,-0.0029275063425302505,1.1659736633300781,0.0,-0.011515193618834019
251.0,281.0,-3.0957,1.7647,9.1274,-0.0426,0.0235,-0.1203,-2.18959440807485,0.0,4.4081010818481445,-1.486491084098816,-0.0,1.8453166484832764,5.501511084824362,0.0,0.24329467117786407,-1.6972358862506312,-0.0,0.008666317909955978,0.998329758644104,0.0,-0.0036515251267701387,1.1659694910049438,0.0,0.017479676753282547
251.0,281.0,-3.0957,1.7647,9.1274,-0.0426,0.0235,-0.1203,-2.1895696125426234,0.0,4.392236232757568,-1.4865597486495972,-0.0,1.8994359970092773,5.501450645714559,0.0,0.2512671947479248,-1.6971924940692347,-0.0,0.014435434713959694,0.9982824325561523,0.0,-0.0006984729552641511,1.165941596031189,0.0,-0.037067607045173645
251.0,281.0,-3.0957,1.7647,9.1274,-0.0426,0.0235,-0.1203,-2.1895534000792445,0.0,4.399025917053223,-1.4865195751190186,-0.0,1.8856468200683594,5.501487064152517,0.0,0.2336532175540924,-1.6971996466266077,-0.0,-0.011194033548235893,0.9982540011405945,0.0,0.002726862207055092,1.1659654378890991,0.0,-0.04677519574761391
251.0,281.0,-3.0957,1.7647,9.1274,-0.0426,0.0235,-0.1203,-2.1895858250060023,0.0,4.342660903930664,-1.486535906791687,-0.0,1.8624083995819092,5.501482951432028,0.0,0.23012076318264008,-1.6972163359271448,-0.0,0.0024051268119364977,0.9982661008834839,0.0,-0.0016128411516547203,1.1659654378890991,0.0,0.02461729198694229
251.0,281.0,-3.0957,1.7647,9.1274,-0.0426,0.0235,-0.1203,-2.1895576916136683,0.0,4.377593040466309,-1.4865117073059082,-0.0,1.884005069732666,5.501495110779562,0.0,0.24436427652835846,-1.6972082296954554,-0.0,0.00323865027166903,0.9982974529266357,0.0,-0.0030208532698452473,1.1660140752792358,0.0,0.03272591531276703
251.0,281.0,-3.0957,1.7647,9.1274,-0.0426,0.0235,-0.1203,-2.189606329003805,0.0,4.387731552124023,-1.486479640007019,-0.0,1.9168510437011719,5.501495110779562,0.0,0.22676008939743042,-1.697240177785055,-0.0,-0.0036601535975933075,0.9982698559761047,0.0,0.015932995826005936,1.1659494638442993,0.0,-0.019194891676306725
251.0,281.0,-3.0957,1.7647,9.1274,-0.0426,0.0235,-0.1203,-2.1895858250060023,0.0,4.408904552459717,-1.4865117073059082,-0.0,1.9048240184783936,5.501531111985006,0.0,0.23448047041893005,-1.6972358862506312,-0.0,-0.0012514153495430946,0.9983701109886169,0.0,0.00859132967889309,1.1660059690475464,0.0,0.006213746964931488
253.0,8190.0,-2.9366,1.8126,8.924,-0.0359,0.0229,-0.1046,-2.189590116540426,0.0,4.387561321258545,-1.48647141456604,-0.0,1.8471474647521973,5.501526999264517,0.0,0.23333103954792023,-1.6972163359271448,-0.0,-0.010276797227561474,0.9982860088348389,0.0,0.010402636602520943,1.1659817695617676,0.0,0.00705859437584877
253.0,8190.0,-2.9366,1.8126,8.924,-0.0359,0.0229,-0.1046,-2.189549585381979,0.0,4.369564533233643,-1.4865318536758423,-0.0,1.896730661392212,5.5015073893363855,0.0,0.23717080056667328,-1.6972320715533655,-0.0,0.018637098371982574,0.9983333945274353,0.0,-0.002401967765763402,1.166025996208191,0.0,0.0033164238557219505
253.0,8190.0,-2.9366,1.8126,8.924,-0.0359,0.0229,-0.1046,-2.1895576916136683,0.0,4.43522834777832,-1.4865397214889526,-0.0,1.876589298248291,5.501495110779562,0.0,0.24961894750595093,-1.697167698537008,-0.0,0.009381534531712532,0.9982620477676392,0.0,-0.006853910628706217,1.1659576892852783,0.0,-0.022433007135987282
253.0,8190.0,-2.9366,1.8126,8.924,-0.0359,0.0229,-0.1046,-2.1895696125426234,0.0,4.390153884887695,-1.4865072965621948,-0.0,1.8639721870422363,5.501495110779562,0.0,0.22956779599189758,-1.6972163359271448,-0.0,0.0019333682721480727,0.9983294606208801,0.0,0.004008201882243156,1.1659777164459229,0.0,-0.008791778236627579
253.0,8190.0,-2.9366,1.8126,8.924,-0.0359,0.0229,-0.1046,-2.189573427239889,0.0,4.3480329513549805,-1.486487865447998,-0.0,1.9005944728851318,5.501491057663717,0.0,0.2390960156917572,-1.6972125212298792,-0.0,0.01684947870671749,0.9983013868331909,0.0,0.007009884342551231,1.165941596031189,0.0,0.00680552190169692
253.0,8190.0,-2.9366,1.8126,8.924,-0.0359,0.0229,-0.1046,-2.1895982227721156,0.0,4.3387131690979,-1.4865199327468872,-0.0,1.8655662536621094,5.501478838711538,0.0,0.23762021958827972,-1.6972525755511683,-0.0,0.012620100751519203,0.9983052611351013,0.0,-0.0018413595389574766,1.166017770767212,0.0,0.07067561894655228
253.0,8190.0,-2.9366,1.8126,8.924,-0.0359,0.0229,-0.1046,-2.18961824993276,0.0,4.381847381591797,-1.4865200519561768,-0.0,1.8541059494018555,5.501503336220541,0.0,0.2366046905517578,-1.69725209871401,-0.0,0.011306608095765114,0.9982852339744568,0.0,0.007297366391867399,1.1659977436065674,0.0,0.005348438397049904
253.0,8190.0,-2.9366,1.8126,8.924,-0.0359,0.0229,-0.1046,-2.1895491085448207,0.0,4.36682653427124,-1.4865074157714844,0.0004205305012874305,1.884975790977478,5.501523363381185,0.0,0.23285916447639465,-1.6972721258746546,-0.0,-0.005703380331397057,0.9982620477676392,0.0,-0.0010235263034701347,1.1660456657409668,0.0,-0.05081962049007416
253.0,8190.0,-2.9366,1.8126,8.924,-0.0359,0.0229,-0.1046,-2.18959440807485,0.0,4.3748369216918945,-1.4865033626556396,0.0003893809043802321,1.8887618780136108,5.501511084824362,0.0,0.24657750129699707,-1.6972039381610315,-0.0,0.019732844084501266,0.9983053207397461,0.0,-0.002895066514611244,1.1660056114196777,0.0011415911139920354,-0.021758340299129486
253.0,8190.0,-2.9366,1.8126,8.924,-0.0359,0.0229,-0.1046,-2.18959440807485,0.0,4.365481376647949,-1.4864310026168823,0.0003709446464199573,1.8710730075836182,5.5014503476913355,0.0,0.23795610666275024,-1.69725209871401,-0.0,-0.004139529075473547,0.9983254075050354,0.0,-0.008149359375238419,1.1660939455032349,0.0026648864150047302,0.008851918391883373
253.0,8190.0,-2.9366,1.8126,8.924,-0.0359,0.0229,-0.1046,-2.1895858250060023,0.0,4.390224933624268,-1.4864754676818848,0.0003802175633609295,1.8662173748016357,5.501515197544851,0.0,0.24559220671653748,-1.6972196737872522,-0.0,0.017770420759916306,0.9982538819313049,0.0,-0.011832796037197113,1.166097640991211,0.0034088771790266037,0.0469658300280571
253.0,8190.0,-2.9366,1.8126,8.924,-0.0359,0.0229,-0.1046,-2.1896101437010707,0.0,4.356200218200684,-1.4865002632141113,0.0005365174729377031,1.8555963039398193,5.501503038197317,0.0,0.24276039004325867,-1.6972602049456995,-0.0,-0.0006137597374618053,0.9983372688293457,0.0,-0.0064492784440517426,1.1660653352737427,0.0032142631243914366,-0.027327340096235275
253.0,8190.0,-2.9366,1.8126,8.924,-0.0359,0.0229,-0.1046,-2.1896144352354945,0.0,4.375210762023926,-1.4864434003829956,0.0006253427127376199,1.8855280876159668,5.501474785595693,0.0,0.23806682229042053,-1.6972563902484339,-0.0,0.007973689585924149,0.9982419610023499,0.0,-0.006577269174158573,1.1660653352737427,0.0026601192075759172,-0.0024027833715081215
253.0,8190.0,-2.9366,1.8126,8.924,-0.0359,0.0229,-0.1046,-2.1895534000792445,0.0,4.363213062286377,-1.486411213874817,0.0012700402876362205,1.9286572933197021,5.501567530422964,0.0,0.235318124294281,-1.6972444693194788,-0.0,0.005585200618952513,0.9983454346656799,0.0,0.00028293649666011333,1.1661099195480347,0.0020737838931381702,0.02071230113506317
253.0,8190.0,-2.9366,1.8126,8.924,-0.0359,0.0229,-0.1046,-2.1896382770934046,0.0,4.369999408721924,-1.4864516258239746,0.0014033864717930555,1.9051120281219482,5.50145851352767,0.0,0.24643860757350922,-1.697212044392721,-0.0,-0.0014562191208824515,0.9983214735984802,0.0,-0.0010446396190673113,1.1661252975463867,0.0015987405786290765,0.014363473281264305
253.0,8190.0,-2.9366,1.8126,8.924,-0.0359,0.0229,-0.1046,-2.1895858250060023,0.0,4.377139091491699,-1.486375093460083,0.0023214363027364016,1.864854335784912,5.501523005753317,0.0,0.23540280759334564,-1.6972277800189417,-0.0,-0.00395603384822607,0.9982459545135498,0.0,0.005324253346771002,1.1661136150360107,0.0013675668742507696,-0.031219204887747765
253.0,8190.0,-2.9366,1.8126,8.924,-0.0359,0.0229,-0.1046,-2.1896382770934046,0.0,4.384112358093262,-1.4864318370819092,0.004600836429744959,1.9182640314102173,5.50157122591094,0.0,0.2464143931865692,-1.6972644964801233,-0.0,-2.421485260128975e-05,0.9983413815498352,0.0,0.0026139593683183193,1.1661370992660522,0.0017219887813553214,-0.018525632098317146
253.0,8190.0,-2.9366,1.8126,8.924,-0.0359,0.0229,-0.1046,-2.1896215877928675,0.0,4.405378818511963,-1.4863429069519043,0.009838942438364029,1.9144463539123535,5.501518952637472,0.0,0.251537024974823,-1.6972320715533655,-0.0,0.003198416903614998,0.9982892870903015,0.0,-0.010627292096614838,1.166104793548584,0.002413093810901046,-0.003285776823759079
253.0,8190.0,-2.9366,1.8126,8.924,-0.0359,0.0229,-0.1046,-2.1896139583983363,0.0,4.415209770202637,-1.486315369606018,0.013371201232075691,1.8870553970336914,5.501470732479849,0.0,0.2294948250055313,-1.6972563902484339,-0.0,0.006501028314232826,0.998278021812439,0.0,0.004386633634567261,1.1661412715911865,0.003822927363216877,0.08109420537948608
253.0,8190.0,-2.9366,1.8126,8.924,-0.0359,0.0229,-0.1046,-2.1895858250060023,0.0,4.381981372833252,-1.4862278699874878,0.01326792687177658,1.9302194118499756,5.501499223500051,0.0,0.23321110010147095,-1.6971915403949183,-0.0,0.006304743699729443,0.9983333945274353,0.0,0.005346138495951891,1.166189193725586,0.0043477085418999195,0.02118988335132599
253.0,8190.0,-2.9366,1.8126,8.924,-0.0359,0.0229,-0.1046,-2.189617773095602,0.0,4.371999740600586,-1.4860986471176147,0.013198597356677055,1.9167554378509521,5.501462566643514,4.498146881815046e-05,0.2297026515007019,-1.6972039381610315,-0.0,-0.0020939167588949203,0.998278021812439,0.0,0.007347910664975643,1.16620934009552,0.004389704205095768,-0.021238280460238457
253.0,8190.0,-2.9366,1.8126,8.924,-0.0359,0.0229,-0.1046,-2.189658304254049,0.0,4.380318641662598,-1.4860869646072388,0.01240386813879013,1.8927005529403687,5.5015315292175195,4.3820487917400897e-05,0.23746713995933533,-1.6972244421588343,-0.0,0.01841154135763645,0.9982619881629944,0.0,-0.004860440734773874,1.1662571430206299,0.003798209596425295,-0.010361038148403168
252.0,287.0,-2.9964,1.2514,9.061,-0.0218,0.0131,-0.1136,-2.189605852166647,0.0,4.346897125244141,-1.4861199855804443,0.011194857768714428,1.899872064590454,5.501487064152517,4.179003735771403e-05,0.23546408116817474,-1.6971800963031214,-0.0,0.004560291301459074,0.9982820749282837,0.0,-0.0014866774436086416,1.1662695407867432,0.0031703468412160873,-0.052213333547115326
252.0,287.0,-2.9964,1.2514,9.061,-0.0218,0.0131,-0.1136,-2.1896258793272914,-0.00018211118003819138,4.401902198791504,-1.4860237836837769,0.009890236891806126,1.9034335613250732,5.501491117268362,2.064565160253551e-05,0.2319580465555191,-1.697240177785055,-0.0,0.01020391657948494,0.9982820749282837,0.0,0.009148567914962769,1.1662170886993408,0.00194024748634547,-0.019331764429807663
252.0,287.0,-2.9964,1.2514,9.061,-0.0218,0.0131,-0.1136,-2.1896378002562464,-7.686607568757609e-05,4.384528160095215,-1.4859429597854614,0.00979242566972971,1.8683297634124756,5.501487064152517,2.512440005375538e-06,0.2396196871995926,-1.697212044392721,-0.0,-0.00648297555744648,0.9982779622077942,0.0,0.004771215841174126,1.1662046909332275,0.0010367874056100845,0.04890649393200874
252.0,287.0,-2.9964,1.2514,9.061,-0.0218,0.0131,-0.1136,-2.18961824993276,-1.1316838310904132e-07,4.421773433685303,-1.4859356880187988,0.010991586372256279,1.9289880990982056,5.501474845200338,1.0710925479884281e-08,0.23682424426078796,-1.6971843878375452,-0.0,0.007543742191046476,0.9983375072479248,0.0,0.003065792378038168,1.166237473487854,0.0005676870350725949,0.04173428565263748
252.0,287.0,-2.9964,1.2514,9.061,-0.0218,0.0131,-0.1136,-2.1895982227721156,-2.0369908884654286e-11,4.389699935913086,-1.4858638048171997,0.012737701646983624,1.8972082138061523,5.5014951703842065,4.566235931036111e-11,0.2494167983531952,-1.6971800963031214,-0.0,-4.668417386710644e-05,0.9982933402061462,0.0,0.0018564889905974269,1.1661851406097412,0.00032368063693866134,0.05878356471657753
252.0,287.0,-2.9964,1.2514,9.061,-0.0218,0.0131,-0.1136,-2.189573427239889,-4.919091563364636e-17,4.36595344543457,-1.4857755899429321,0.015203922055661678,1.9386107921600342,5.501434731274404,1.2710285874197123e-14,0.2444509118795395,-1.6972277800189417,-0.0,0.011460654437541962,0.9982741475105286,0.0,0.01356547512114048,1.1662170886993408,-0.00029174034716561437,0.06258723884820938
252.0,287.0,-2.9964,1.2514,9.061,-0.0218,0.0131,-0.1136,-2.1895939312376917,-8.854190552175192e-21,4.368378639221191,-1.4857356548309326,0.015611563809216022,1.941948413848877,5.50142257192687,5.418593840677642e-17,0.23695145547389984,-1.6971843878375452,-0.0,-0.0011621793964877725,0.9982620477676392,0.0,-0.0007567810826003551,1.1661568880081177,-0.0011581250000745058,-0.007714780978858471
252.0,287.0,-2.9964,1.2514,9.061,-0.0218,0.0131,-0.1136,-2.1895653210081996,-1.5937229664359135e-24,4.404098987579346,-1.4856395721435547,0.014870988205075264,1.8963689804077148,5.501450705319204,2.310031624512924e-19,0.23617371916770935,-1.697240177785055,-0.0,0.00914214737713337,0.9983094334602356,0.0,0.003920474089682102,1.166161298751831,-0.001992589794099331,0.02435842901468277
252.0,287.0,-2.9964,1.2514,9.061,-0.0218,0.0131,-0.1136,-2.18961824993276,-2.8686449669218372e-28,4.3773298263549805,-1.4856278896331787,0.01366289984434843,1.8967995643615723,5.5014428971107385,9.848026449679739e-22,0.24477620422840118,-1.6971843878375452,-0.0,0.010191000998020172,0.9982740879058838,0.0,-0.0016579184448346496,1.166113018989563,-0.0020056080538779497,0.012427948415279388
252.0,287.0,-2.9964,1.2514,9.061,-0.0218,0.0131,-0.1136,-2.189630170861715,-5.163459440753893e-32,4.397707462310791,-1.485535740852356,0.012315564788877964,1.9565004110336304,5.501487064152517,4.1983686191146116e-24,0.2519240081310272,-1.6971800963031214,-0.0,0.0062074558809399605,0.9983173608779907,0.0,-0.00019546831026673317,1.1661696434020996,-0.0016273055225610733,0.03237137943506241
252.0,287.0,-2.9964,1.2514,9.061,-0.0218,0.0131,-0.1136,-2.189605852166647,-0.00013075702008791268,4.372574329376221,-1.4855244159698486,0.010256635025143623,1.8836339712142944,5.501466977387228,1.7898304841188164e-26,0.23944975435733795,-1.697167698537008,-0.0,0.0038981183897703886,0.998293399810791,0.0,-0.013093887828290462,1.166113018989563,-0.001282256911508739,-0.008671542629599571
252.0,287.0,-2.9964,1.2514,9.061,-0.0218,0.0131,-0.1136,-2.18961824993276,-0.00017157795082312077,4.374684810638428,-1.4854756593704224,0.007861458696424961,1.895373821258545,5.501434731274404,7.630328605899422e-29,0.2501676380634308,-1.697212044392721,-0.0,0.00691328477114439,0.9982664585113525,0.0,0.00040995480958372355,1.166121244430542,-0.0011113849468529224,-0.025707988068461418
252.0,287.0,-2.9964,1.2514,9.061,-0.0218,0.0131,-0.1136,-2.1896139583983363,-0.00015230524877551943,4.430718898773193,-1.485512375831604,0.006065164692699909,1.93095862865448,5.50141470411376,3.252928119714124e-31,0.2431255280971527,-1.6972082296954554,-0.0,-0.011811299249529839,0.9982620477676392,0.0,-0.0039245677180588245,1.1660853624343872,-0.0015800328692421317,0.04753877595067024
252.0,287.0,-2.9964,1.2514,9.061,-0.0218,0.0131,-0.1136,-2.1896139583983363,-0.00010696384561015293,4.4082722663879395,-1.4854202270507812,0.004662222694605589,1.8681342601776123,5.50141470411376,-0.00045746882096864283,0.23754683136940002,-1.6971996466266077,-0.0,0.01265421137213707,0.9982414245605469,0.0,0.0048643918707966805,1.1660735607147217,-0.0022387721110135317,-0.01422807015478611
252.0,287.0,-2.9964,1.2514,9.061,-0.0218,0.0131,-0.1136,-2.1896096668639125,-5.3223000577418134e-05,4.421502113342285,-1.4854321479797363,0.002744679106399417,1.881185531616211,5.501442956715383,-0.0004601759137585759,0.23756113648414612,-1.6972039381610315,-0.0,-0.0011411772575229406,0.9983534216880798,0.0,-0.006387810688465834,1.1660735607147217,-0.0022698810789734125,-0.015462617389857769
252.0,287.0,-2.9964,1.2514,9.061,-0.0218,0.0131,-0.1136,-2.1895491085448207,-1.2514031368482392e-05,4.357720375061035,-1.485412359237671,0.002731762360781431,1.8809406757354736,5.501446950226583,-0.0004575948987621814,0.23684966564178467,-1.6971924940692347,-0.0,-0.0004285186587367207,0.99833744764328,0.0,-0.005822333972901106,1.1660693883895874,-0.0019561173394322395,0.03778160735964775
252.0,287.0,-2.9964,1.2514,9.061,-0.0218,0.0131,-0.1136,-2.1895457706847132,-2.252481312581267e-09,4.408486843109131,-1.485404133796692,0.0036466247402131557,1.897905945777893,5.5014551160629175,-0.00040045048808678985,0.2407732903957367,-1.697212044392721,-0.0,0.0029907042626291513,0.9982820749282837,0.0,-0.012914036400616169,1.1660252809524536,-0.001678971922956407,-0.002528236247599125
252.0,287.0,-2.9964,1.2514,9.061,-0.0218,0.0131,-0.1136,-2.189573427239889,-4.0543870344356137e-13,4.37308931350708,-1.4853999614715576,0.004410264082252979,1.9200892448425293,5.501426923065939,-0.00037999797496013343,0.2479550987482071,-1.6972163359271448,-0.0,0.013314305804669857,0.9983013868331909,0.0,-0.013480347581207752,1.1660776138305664,-0.0010538245551288128,-0.005734167527407408
252.0,287.0,-2.9964,1.2514,9.061,-0.0218,0.0131,-0.1136,-2.189606329003805,-7.297754632134784e-17,4.427249431610107,-1.4853683710098267,0.00481554726138711,1.867236614227295,5.50138275602416,-0.00037429717485792935,0.23424750566482544,-1.697228733693258,-0.0,-0.013023671694099903,0.9982700347900391,0.0,-0.011296281591057777,1.1660456657409668,-0.0008602565503679216,-0.015977587550878525
252.0,287.0,-2.9964,1.2514,9.061,-0.0218,0.0131,-0.1136,-2.189573427239889,-1.3135700828763105e-20,4.37876558303833,-1.4853522777557373,0.0058753276243805885,1.8997055292129517,5.501394974976339,-0.0004246296011842787,0.23412856459617615,-1.697167698537008,-0.0,0.00412206444889307,0.9982540011405945,0.0,-0.004573313985019922,1.1660293340682983,-0.0008316287421621382,0.03331363946199417
252.0,287.0,-2.9964,1.2514,9.061,-0.0218,0.0131,-0.1136,-2.1896220646300257,-2.3643798215852057e-24,4.391963958740234,-1.4853326082229614,0.0065871370024979115,1.9118165969848633,5.501379000931539,-0.00045600254088640213,0.24309366941452026,-1.6972358862506312,-0.0,-0.013797314837574959,0.9983253479003906,0.0,-0.01149039063602686,1.1660133600234985,-0.0006570062250830233,-0.006192405242472887
243.0,278.0,-2.7589,1.7222,8.7601,-0.0418,0.0272,-0.1237,-2.189602037469381,-4.255800101967876e-28,4.387887001037598,-1.4852560758590698,0.006937107071280479,1.8642622232437134,5.50136678197936,-0.0008560569840483367,0.22485268115997314,-1.6971648375140589,-0.0,-0.0038530579768121243,0.9983214139938354,0.0,-0.004363238345831633,1.1660656929016113,-0.0006956676370464265,-0.022903647273778915
243.0,278.0,-2.7589,1.7222,8.7601,-0.0418,0.0272,-0.1237,-2.189602037469381,-7.660289375516288e-32,4.342789649963379,-1.4852560758590698,0.0065001859329640865,1.900888204574585,5.50136678197936,-0.0008603367605246603,0.22584415972232819,-1.6971758047686976,-0.0,-0.0013843127526342869,0.9982739686965942,0.0,-0.010698208585381508,1.1660497188568115,-0.001124057685956359,0.022997241467237473
243.0,278.0,-2.7589,1.7222,8.7601,-0.0418,0.0272,-0.1237,-2.1896139583983363,-1.8498697972979915e-37,4.410921573638916,-1.4852280616760254,0.005247503984719515,1.8786206245422363,5.501350867539205,-0.0010208325693383813,0.23581650853157043,-1.697183911000387,-0.0,-0.022428274154663086,0.998278021812439,0.0,0.018252139911055565,1.165985345840454,-0.0018420342821627855,0.011903813108801842
243.0,278.0,-2.7589,1.7222,8.7601,-0.0418,0.0272,-0.1237,-2.1896258793272914,-3.3297654109286303e-41,4.382225036621094,-1.4852248430252075,0.004324778914451599,1.9155733585357666,5.501403260021963,-0.0011967255268245935,0.22719290852546692,-1.6971519629107874,-0.0,-0.008582018315792084,0.9982459545135498,0.0,-0.00818692147731781,1.1660698652267456,-0.0020294932182878256,0.013666437938809395
243.0,278.0,-2.7589,1.7222,8.7601,-0.0418,0.0272,-0.1237,-2.1896258793272914,-5.605193857299268e-45,4.355869293212891,-1.48516845703125,0.0038051800802350044,1.844144344329834,5.501334595471182,-0.0011135067325085402,0.22268560528755188,-1.6971319357501429,-0.0,-0.008537406101822853,0.9982969760894775,0.0,-0.0035911123268306255,1.1660619974136353,-0.0020209758076816797,-0.018063271418213844
243.0,278.0,-2.7589,1.7222,8.7601,-0.0418,0.0272,-0.1237,-2.1896215877928675,0.0,4.2892680168151855,-1.485156536102295,0.003528848523274064,1.843606948852539,5.501350867539205,-0.0009929658845067024,0.21969780325889587,-1.6970918814288538,-0.0,-0.014483928680419922,0.9982820749282837,0.0,-0.0028082330245524645,1.1660133600234985,-0.001749486313201487,-0.03646401688456535
243.0,278.0,-2.7589,1.7222,8.7601,-0.0418,0.0272,-0.1237,-2.189589639703268,0.0,4.367335319519043,-1.485152006149292,0.003455230500549078,1.90968656539917,5.501350867539205,-0.0008525432203896344,0.21870186924934387,-1.697160545979635,-0.0,-0.014418885111808777,0.9982699155807495,0.0,-0.006541873328387737,1.166029691696167,-0.0013387860963121057,-0.030638962984085083
243.0,278.0,-2.7589,1.7222,8.7601,-0.0418,0.0272,-0.1237,-2.1896258793272914,-0.0001468926784582436,4.360166549682617,-1.4852166175842285,0.003729652613401413,1.8828623294830322,5.501387226372518,-0.0007547767017967999,0.21166279911994934,-1.6971562544452112,-0.0,-0.01307355985045433,0.9983455538749695,0.0,-0.008496228605508804,1.1660256385803223,-0.0010137553326785564,-0.04817338287830353
243.0,278.0,-2.7589,1.7222,8.7601,-0.0418,0.0272,-0.1237,-2.189589639703268,-0.00013177555229049176,4.394411087036133,-1.4851202964782715,0.004378464538604021,1.913468837738037,5.5013630268867395,-0.0006341279367916286,0.2171238362789154,-1.6971924940692347,-0.0,-0.007067251019179821,0.9983454346656799,0.0,-0.006435377988964319,1.166017770767212,-0.0008601178415119648,-0.05161965638399124
243.0,278.0,-2.7589,1.7222,8.7601,-0.0418,0.0272,-0.1237,-2.189585348168844,-0.00011494325735839084,4.350345134735107,-1.4851125478744507,0.005386239383369684,1.912184238433838,5.501322734146871,-0.00046372326323762536,0.21647247672080994,-1.697160545979635,-0.0,-0.011578043922781944,0.9982892870903015,0.0,0.001962854992598295,1.1660215854644775,-0.000675535760819912,-0.045719701796770096
243.0,278.0,-2.7589,1.7222,8.7601,-0.0418,0.0272,-0.1237,-2.1896258793272914,-0.00010192373883910477,4.376068592071533,-1.4850964546203613,0.006652180105447769,1.901357889175415,5.501318621426382,-0.0004978558281436563,0.2161308228969574,-1.6971200148211878,-0.0,-0.007965974509716034,0.9983093738555908,0.0,-0.005587987136095762,1.1659855842590332,-0.0005561981815844774,-0.06576403975486755
243.0,278.0,-2.7589,1.7222,8.7601,-0.0418,0.0272,-0.1237,-2.1895977459349574,-8.712262933840975e-05,4.3939433097839355,-1.4850043058395386,0.008917784318327904,1.9168305397033691,5.501310813217916,-0.0007442036876454949,0.21192783117294312,-1.6972087065326136,-0.0,-0.010995556600391865,0.998297393321991,0.0,0.002555761020630598,1.16606605052948,-0.00043970567639917135,-0.04090312123298645
243.0,278.0,-2.7589,1.7222,8.7601,-0.0418,0.0272,-0.1237,-2.1896215877928675,-7.943253149278462e-05,4.359208583831787,-1.4849680662155151,0.010224021039903164,1.9684453010559082,5.501318621426382,-0.0011561268474906683,0.1911998987197876,-1.6971729437457483,-0.0,-0.004564020317047834,0.9983413815498352,0.0,0.0006449776701629162,1.1660579442977905,-0.0003858363488689065,-0.07171426713466644
243.0,278.0,-2.7589,1.7222,8.7601,-0.0418,0.0272,-0.1237,-2.189629694024557,-0.00010946468682959676,4.396689414978027,-1.48491632938385,0.010828706435859203,1.970634937286377,5.501278567105093,-0.002167593687772751,0.19928660988807678,-1.6971562544452112,-0.0,-0.006007927469909191,0.9983173608779907,0.0,0.005055484361946583,1.1660096645355225,-0.0003437282284721732,-0.1247706189751625
243.0,278.0,-2.7589,1.7222,8.7601,-0.0418,0.0272,-0.1237,-2.1896335087218226,-0.00010127166024176404,4.409375190734863,-1.4848841428756714,0.011311663314700127,1.9547674655914307,5.5013348934944055,-0.0029714535921812057,0.19760683178901672,-1.6971200148211878,-0.0,0.00013968301936984062,0.9983093738555908,0.0,-0.001590010360814631,1.1660174131393433,-0.0003099065215792507,-0.07039982080459595
243.0,278.0,-2.7589,1.7222,8.7601,-0.0418,0.0272,-0.1237,-2.1896544895567835,-0.00012555441935546696,4.368206977844238,-1.4848923683166504,0.011545902118086815,1.9621250629425049,5.501290786057272,-0.004566492047160864,0.20653373003005981,-1.6971243063556116,-0.0,-0.01923571154475212,0.9983415007591248,0.0,0.006276118103414774,1.1660579442977905,-9.459373541176319e-05,-0.042940810322761536
243.0,278.0,-2.7589,1.7222,8.7601,-0.0418,0.0272,-0.1237,-2.1896821461119593,-9.287828288506716e-05,4.364291667938232,-1.4847718477249146,0.011545353569090366,1.9312269687652588,5.501250672131338,-0.006965564098209143,0.19089244306087494,-1.6971648375140589,-0.0,0.008806131780147552,0.998261570930481,0.0,0.004462024196982384,1.1660698652267456,-8.4846411482431e-05,-0.11377502232789993
243.0,278.0,-2.7589,1.7222,8.7601,-0.0418,0.0272,-0.1237,-2.189685960809225,-0.00015382080164272338,4.34444522857666,-1.4848006963729858,0.011637069284915924,1.9236853122711182,5.501231002598562,-0.009115281514823437,0.19090372323989868,-1.6971729437457483,-0.0,-0.014807994477450848,0.9983498454093933,0.0,0.005148437339812517,1.1660414934158325,-7.753619865979999e-05,-0.11792399734258652
243.0,278.0,-2.7589,1.7222,8.7601,-0.0418,0.0272,-0.1237,-2.189657827416891,-0.00015392180648632348,4.335078716278076,-1.4847204685211182,0.012173458002507687,1.9829671382904053,5.501174318581381,-0.0075038825161755085,0.19261163473129272,-1.6971243063556116,-0.0,-0.008830728940665722,0.9983294606208801,0.0,0.0035545076243579388,1.1660979986190796,-3.569984983187169e-05,-0.11427544057369232
243.0,278.0,-2.7589,1.7222,8.7601,-0.0418,0.0272,-0.1237,-2.189666887322897,-0.00017724078497849405,4.357685565948486,-1.4846489429473877,0.01270400919020176,1.9981659650802612,5.501214790135183,-0.0034424751065671444,0.18855977058410645,-1.6971810499774378,-0.0,-0.006635542493313551,0.9983739852905273,0.0,0.005397433880716562,1.1660857200622559,-3.3069809433072805e-05,-0.11488614231348038
243.0,278.0,-2.7589,1.7222,8.7601,-0.0418,0.0272,-0.1237,-2.189662118951315,-0.0001585158024681732,4.335594177246094,-1.4845846891403198,0.013590609654784203,1.9809465408325195,5.501194703369894,0.00037110940320417285,0.19624370336532593,-1.6971519629107874,-0.0,0.012131164781749249,0.998353898525238,0.0,0.015485134907066822,1.1660656929016113,-7.985969524559877e-11,-0.08978170156478882
250.0,8190.0,-3.2973,2.0279,9.2189,-0.0095,0.038,-0.121,-2.189662118951315,-0.00014808299602009356,4.369336128234863,-1.4845845699310303,0.014652811922132969,1.9903390407562256,5.501222896366873,0.00034580196370370686,0.19765838980674744,-1.6971400419818323,-0.0,5.404179682955146e-05,0.9982336163520813,0.0,0.006301756016910076,1.1660453081130981,-1.437446251709596e-14,-0.09388905763626099
250.0,8190.0,-3.2973,2.0279,9.2189,-0.0095,0.038,-0.121,-2.189629694024557,-0.00013893831055611372,4.358892917633057,-1.4844681024551392,0.01522685494273901,2.038544178009033,5.501210677414694,0.0002499175607226789,0.1930874139070511,-1.6971243063556116,-0.0,0.005105491261929274,0.9983415603637695,0.0,0.010109305381774902,1.1660093069076538,-2.587352713665335e-18,-0.11334171891212463
250.0,8190.0,-3.2973,2.0279,9.2189,-0.0095,0.038,-0.121,-2.189625402490133,-0.00013085771934129298,4.351163864135742,-1.4844286441802979,0.01641872711479664,2.0173447132110596,5.501243221550741,0.0001955001789610833,0.2019645869731903,-1.6971400419818323,-0.0,0.0059596276842057705,0.9983740448951721,0.0,0.002958487719297409,1.1660497188568115,-4.657143473869774e-22,-0.1616021692752838
250.0,8190.0,-3.2973,2.0279,9.2189,-0.0095,0.038,-0.121,-2.189674516717428,-0.00012366527516860515,4.3564229011535645,-1.484316349029541,0.018383832648396492,2.0086939334869385,5.5011987564857385,0.00016056983440648764,0.195265531539917,-1.6971562544452112,0.00023062217223923653,0.008724326267838478,0.998293399810791,0.0,0.0030985414050519466,1.1660374402999878,-8.382694207565415e-26,-0.09638942778110504
250.0,8190.0,-3.2973,2.0279,9.2189,-0.0095,0.038,-0.121,-2.189629694024557,-0.00011722234194166958,4.40286111831665,-1.4842448234558105,0.01990235224366188,2.0505216121673584,5.501182365208425,0.00013623959966935217,0.1746002435684204,-1.697132412587301,0.00023713731206953526,0.008522708900272846,0.998382031917572,0.0,0.005006642546504736,1.166033387184143,-1.508855370455597e-29,-0.14876875281333923
250.0,8190.0,-3.2973,2.0279,9.2189,-0.0095,0.038,-0.121,-2.189629694024557,-0.00011141770664835349,4.393611907958984,-1.4841681718826294,0.021947624161839485,2.0555872917175293,5.501206624298849,0.00011831672600237653,0.18688753247261047,-1.697104279194967,0.00023646479530725628,0.013109421357512474,0.9983088374137878,0.0,0.008121982216835022,1.1660616397857666,-2.715886576381791e-33,-0.16659997403621674
250.0,8190.0,-3.2973,2.0279,9.2189,-0.0095,0.038,-0.121,-2.189662118951315,-0.00010616073996061459,4.371006965637207,-1.4841411113739014,0.024053696542978287,2.0545408725738525,5.501194703369894,0.00010456325253471732,0.19225019216537476,-1.6971567312823694,0.00025310536148026586,0.01686985231935978,0.998293399810791,0.0,-0.007389220409095287,1.1660252809524536,-4.888499869824218e-37,-0.13299083709716797
250.0,8190.0,-3.2973,2.0279,9.2189,-0.0095,0.038,-0.121,-2.189662118951315,-0.0001615407527424395,4.406803131103516,-1.4840292930603027,0.02506227232515812,2.056501626968384,5.501154529839315,9.367569873575121e-05,0.18135076761245728,-1.6971405188189905,0.00026721172616817057,0.026434941217303276,0.9983658790588379,0.0,0.007186084985733032,1.1660293340682983,-8.799173447034824e-41,-0.2058977484703064
250.0,8190.0,-3.2973,2.0279,9.2189,-0.0095,0.038,-0.121,-2.189690252343649,-0.0001827562809921801,4.380659103393555,-1.4838811159133911,0.028643211349844933,2.0562744140625,5.501210677414694,8.102215360850096e-05,0.17546814680099487,-1.6971166769610804,0.00040420625009573996,0.02637477219104767,0.9983498454093933,0.0,0.006940905470401049,1.1660698652267456,-0.0,-0.20288923382759094
250.0,8190.0,-3.2973,2.0279,9.2189,-0.0095,0.038,-0.121,-2.1896702251830042,-0.00019971128494944423,4.371211528778076,-1.4837009906768799,0.03148781135678291,2.0705974102020264,5.5011987564857385,5.614670953946188e-05,0.1904766857624054,-1.697092358266012,0.00042705266969278455,0.03272247314453125,0.9983248710632324,0.0,0.010632526129484177,1.1660579442977905,0.0,-0.2093346118927002
250.0,8190.0,-3.2973,2.0279,9.2189,-0.0095,0.038,-0.121,-2.1896783314146937,-0.0005464240093715489,4.393409729003906,-1.4836009740829468,0.03465012460947037,2.0536937713623047,5.501206624298849,3.440981890889816e-05,0.18787190318107605,-1.697092358266012,0.00044078490464016795,0.033973533660173416,0.9982969164848328,0.0,-0.01574203558266163,1.166049838066101,0.0,-0.16479331254959106
250.0,8190.0,-3.2973,2.0279,9.2189,-0.0095,0.038,-0.121,-2.1897222004332484,-0.0006545076612383127,4.415836334228516,-1.4834450483322144,0.0384194441139698,2.063563585281372,5.501206624298849,8.29744112706976e-06,0.18415749073028564,-1.6971209684955042,0.0005206090863794088,0.03567131981253624,0.9983456134796143,0.0,-0.005230150651186705,1.1660739183425903,0.0,-0.1960970014333725
250.0,8190.0,-3.2973,2.0279,9.2189,-0.0095,0.038,-0.121,-2.18969788173818,-0.0011236288119107485,4.3717169761657715,-1.4832611083984375,0.042184241116046906,2.0781240463256836,5.50113861539916,3.537329362757191e-08,0.18414337933063507,-1.697108570729391,0.00053462601499632,0.031162869185209274,0.998333215713501,0.0,-0.0014720624312758446,1.1660656929016113,0.0,-0.19169512391090393
250.0,8190.0,-3.2973,2.0279,9.2189,-0.0095,0.038,-0.121,-2.189709802667135,-0.0011210623197257519,4.409521102905273,-1.4830927848815918,0.0471072681248188,2.060392141342163,5.501174974232473,1.5080189874616678e-10,0.17675289511680603,-1.697108570729391,0.0004918022314086556,0.028027966618537903,0.9983373284339905,0.0,-0.015333944000303745,1.1660538911819458,0.0,-0.17218010127544403
250.0,8190.0,-3.2973,2.0279,9.2189,-0.0095,0.038,-0.121,-2.189770360986227,-0.0014482556143775582,4.3676958084106445,-1.482889175415039,0.052332937717437744,2.077021598815918,5.501150834351339,6.428921522742825e-13,0.17311489582061768,-1.6971004644977015,0.0004542039823718369,0.04505709558725357,0.9982969164848328,0.0,0.0005033498746342957,1.1660497188568115,-0.00042601049062795937,-0.20096108317375183
250.0,8190.0,-3.2973,2.0279,9.2189,-0.0095,0.038,-0.121,-2.189709802667135,-0.0017121009295806289,4.397069931030273,-1.4826650619506836,0.058200348168611526,2.1404800415039062,5.50113861539916,2.74074980138666e-15,0.18668441474437714,-1.6970441977130335,0.0004527359560597688,0.03069859743118286,0.9983129501342773,0.0,0.008855260908603668,1.1660579442977905,-0.00035840991768054664,-0.16128632426261902
250.0,8190.0,-3.2973,2.0279,9.2189,-0.0095,0.038,-0.121,-2.189709325829977,-0.0016821172321215272,4.352128982543945,-1.4824131727218628,0.0641157478094101,2.092599391937256,5.501146781235494,1.1684246271208574e-17,0.17208939790725708,-1.6971209684955042,0.00040528259705752134,0.028625134378671646,0.9983053207397461,0.0,0.005690428428351879,1.1660256385803223,-0.0003091513062827289,-0.19435912370681763
250.0,8190.0,-3.2973,2.0279,9.2189,-0.0095,0.038,-0.121,-2.1897174320616664,-0.0016692745266482234,4.36705207824707,-1.4820175170898438,0.07405123114585876,2.159651517868042,5.50115458944396,-0.0004465524689294398,0.18012744188308716,-1.6971009413348597,0.0003964272909797728,0.0342358760535717,0.9983413815498352,0.0,-0.013538152910768986,1.1660497188568115,-0.00025631493190303445,-0.2364998161792755
250.0,8190.0,-3.2973,2.0279,9.2189,-0.0095,0.038,-0.121,-2.1897698841490687,-0.0017479994567111135,4.383613109588623,-1.4817018508911133,0.08149383217096329,2.1622374057769775,5.501166868000784,-0.0004276299732737243,0.16540862619876862,-1.6970403830157679,0.0003811960341408849,0.056890152394771576,0.9983294606208801,0.0,0.004458108451217413,1.1660616397857666,-0.00023009938013274223,-0.20557358860969543
250.0,8190.0,-3.2973,2.0279,9.2189,-0.0095,0.038,-0.121,-2.189781805078024,-0.0017576790414750576,4.355167865753174,-1.481305718421936,0.08734935522079468,2.160520315170288,5.501146781235494,-0.0003837590920738876,0.16726933419704437,-1.6970608870135706,0.00036375969648361206,0.04787233844399452,0.998268723487854,1.0423977236939663e-08,0.008799981325864792,1.1660858392715454,-0.00020874965412076563,-0.24350139498710632
250.0,8190.0,-3.2973,2.0279,9.2189,-0.0095,0.038,-0.121,-2.1897899113097132,-0.0018471324583515525,4.4107346534729,-1.4809576272964478,0.09510408341884613,2.1793880462646484,5.501182782440939,-0.00033604062628000975,0.17180898785591125,-1.6970527807818812,0.00037235848139971495,0.04952684044837952,0.9983167052268982,4.443904272344312e-11,0.0037866365164518356,1.1660656929016113,-0.00019102527585346252,-0.25909537076950073
251.0,289.0,-2.8965,1.8951,9.0168,-0.04,0.0455,-0.1255,-2.1897980175414027,-0.0017560783307999372,4.348859786987305,-1.4805577993392944,0.10106267780065536,2.2051849365234375,5.501146781235494,-0.0002988314372487366,0.1659601926803589,-1.6970770994769495,0.0004101730010006577,0.0601382702589035,0.9983212947845459,1.8945062803688711e-13,-0.001491977134719491,1.1660414934158325,-0.00021079891303088516,-0.2395956665277481
251.0,289.0,-2.8965,1.8951,9.0168,-0.04,0.0455,-0.1255,-2.1897775135436,-0.002012373646721244,4.373289108276367,-1.4801381826400757,0.10598322749137878,2.1909737586975098,5.501130807190695,-0.00026904340484179556,0.16990026831626892,-1.697085205708639,0.00041676757973618805,0.04614805430173874,0.9983776211738586,8.076576148495593e-16,0.01332800928503275,1.1660256385803223,-0.00019595498451963067,-0.2894359230995178
251.0,289.0,-2.8965,1.8951,9.0168,-0.04,0.0455,-0.1255,-2.1898347340025843,-0.00202261027880013,4.328393459320068,-1.4797422885894775,0.10790309309959412,2.2119879722595215,5.50115458944396,-0.0002446577127557248,0.1667565405368805,-1.6970651785479944,0.0004211830091662705,0.04628390818834305,0.9983775615692139,3.443171353000714e-18,-0.002642282983288169,1.1660252809524536,-0.00021272186131682247,-0.1787266731262207
251.0,289.0,-2.8965,1.8951,9.0168,-0.04,0.0455,-0.1255,-2.189818044702047,-0.0019781587179750204,4.368190288543701,-1.479311227798462,0.10973753780126572,2.2305526733398438,5.501190948277273,-0.0002243260241812095,0.16235846281051636,-1.6970441977130335,0.00042456129449419677,0.054108768701553345,0.9983007907867432,1.4678777180912368e-20,-0.013672849163413048,1.1660174131393433,-0.0001996359642362222,-0.26304036378860474
251.0,289.0,-2.8965,1.8951,9.0168,-0.04,0.0455,-0.1255,-2.1898099384703578,-0.0015186392702162266,4.417961120605469,-1.4787746667861938,0.11130416393280029,2.210817337036133,5.5011987564857385,-0.00020711452816613019,0.16518859565258026,-1.69706899324526,0.0004656641685869545,0.06462331116199493,0.9983208179473877,6.257793116314375e-23,0.004091031849384308,1.1660497188568115,-0.00018773788178805262,-0.24533435702323914
251.0,289.0,-2.8965,1.8951,9.0168,-0.04,0.0455,-0.1255,-2.1898585758604945,-0.0008266927907243371,4.401740550994873,-1.4781112670898438,0.11813542991876602,2.1992745399475098,5.50115458944396,-0.000185739467269741,0.15964989364147186,-1.6970608870135706,0.00042914238292723894,0.07563816010951996,0.9983413815498352,1.7418799129586274e-26,0.0001405926886945963,1.1660616397857666,-0.00017233123071491718,-0.30996471643447876
251.0,289.0,-2.8965,1.8951,9.0168,-0.04,0.0455,-0.1255,-2.1897694073119105,-0.0006327637820504606,4.39445686340332,-1.4775948524475098,0.12405171990394592,2.241537570953369,5.501126694470205,-0.00017378308984916657,0.16169221699237823,-1.6970484892474573,0.0004318169376347214,0.06967659294605255,0.9984179139137268,7.425906790483515e-29,0.009072583168745041,1.1660776138305664,-0.00016339230933226645,-0.29610031843185425
251.0,289.0,-2.8965,1.8951,9.0168,-0.04,0.0455,-0.1255,-2.1897694073119105,-0.0005125700845383108,4.381333827972412,-1.477103590965271,0.13057594001293182,2.241569757461548,5.501182782440939,-0.00016327310004271567,0.15575933456420898,-1.6970370451556605,0.0004063863889314234,0.05649206042289734,0.9983294010162354,3.1657809652249525e-31,0.0028570941649377346,1.1660858392715454,-0.0001553347974549979,-0.2856123447418213
251.0,289.0,-2.8965,1.8951,9.0168,-0.04,0.0455,-0.1255,-2.18980135540151,-0.0004307626513764262,4.441536903381348,-1.4765803813934326,0.13893012702465057,2.2373104095458984,5.501203048020162,-0.00017917485092766583,0.14672192931175232,-1.6970050970660608,0.00038736991700716317,0.07115434855222702,0.9983012080192566,1.34962207388402e-33,-0.010934249497950077,1.166097640991211,-0.0001480349019402638,-0.30807194113731384
251.0,289.0,-2.8965,1.8951,9.0168,-0.04,0.0455,-0.1255,-2.1898018322386683,-0.00043308528256602585,4.383249759674072,-1.476008415222168,0.1487577259540558,2.307374954223633,5.501222896366873,-0.0001699296699371189,0.1623786836862564,-1.6970441977130335,0.0003498215810395777,0.057051338255405426,0.9982929229736328,5.7536506003599504e-36,0.00908367894589901,1.1660653352737427,-0.00014139026461634785,-0.29239463806152344
251.0,289.0,-2.8965,1.8951,9.0168,-0.04,0.0455,-0.1255,-2.1897932491698207,-0.000434615183621645,4.372649669647217,-1.4753806591033936,0.15745142102241516,2.259953022003174,5.501183080464163,-0.0001840040204115212,0.15356877446174622,-1.6970165411578577,0.0003177288162987679,0.07969751954078674,0.9982768893241882,2.452871507791775e-38,0.008027277886867523,1.1660534143447876,-0.00013531635340768844,-0.3017960488796234
251.0,289.0,-2.8965,1.8951,9.0168,-0.04,0.0455,-0.1255,-2.1898375950255335,-0.00043469114461913705,4.38508939743042,-1.4746687412261963,0.16433504223823547,2.289295196533203,5.501134860306539,-0.00018149868992622942,0.15440326929092407,-1.69706899324526,0.00027866355958394706,0.07995481789112091,0.9983499050140381,1.0456909530331082e-40,0.00751867052167654,1.1660939455032349,-0.0001297428971156478,-0.25037187337875366
251.0,289.0,-2.8965,1.8951,9.0168,-0.04,0.0455,-0.1255,-2.1898776493468226,-0.003411859041079879,4.357778549194336,-1.474053144454956,0.16564558446407318,2.3111395835876465,5.5011188862617395,-0.0008958376129157841,0.15155988931655884,-1.697028938923971,0.0002908485766965896,0.067012719810009,0.9983699917793274,4.456129116552918e-43,-0.0031920727342367172,1.1660456657409668,-0.00012461059668567032,-0.28214865922927856
251.0,289.0,-2.8965,1.8951,9.0168,-0.04,0.0455,-0.1255,-2.1898981533446253,-0.005308817606419325,4.361708164215088,-1.4733850955963135,0.16938334703445435,2.282667875289917,5.501090693264761,-0.0012211070861667395,0.14828802645206451,-1.6970413366900843,0.00026796042220667005,0.07682418823242188,0.9983333945274353,1.401298464324817e-45,0.015037121251225471,1.1660252809524536,-0.00011986872414126992,-0.3284672498703003
251.0,289.0,-2.8965,1.8951,9.0168,-0.04,0.0455,-0.1255,-2.189909597436422,-0.0056679751724004745,4.347987174987793,-1.4723621606826782,0.1750359982252121,2.297245740890503,5.501074719219961,-0.0019856977742165327,0.14447739720344543,-1.6970165411578577,0.0003008365456480533,0.07869953662157059,0.9983699917793274,0.0,-0.0022773107048124075,1.1661099195480347,-0.00012405600864440203,-0.3245929479598999
251.0,289.0,-2.8965,1.8951,9.0168,-0.04,0.0455,-0.1255,-2.189901968041891,-0.00496422965079546,4.369264602661133,-1.4716382026672363,0.17980286478996277,2.294401168823242,5.50111078003005,-0.0032370497938245535,0.13833783566951752,-1.69704515138735,0.00028622421086765826,0.06843962520360947,0.9983373284339905,0.0,-0.006603531539440155,1.1660293340682983,-0.0001250914647243917,-0.33839935064315796
251.0,289.0,-2.8965,1.8951,9.0168,-0.04,0.0455,-0.1255,-2.189970155755514,-0.003022127551957965,4.306061744689941,-1.4709066152572632,0.1873214691877365,2.2851181030273438,5.501042115479269,-0.007131981197744608,0.12668676674365997,-1.6970246473895472,0.00031545330421067774,0.08453823626041412,0.9983372688293457,0.0,-0.003749367780983448,1.1660456657409668,-9.045939077623188e-05,-0.36172017455101013
251.0,289.0,-2.8965,1.8951,9.0168,-0.04,0.0455,-0.1255,-2.189913888970846,-0.001855236478149891,4.272597789764404,-1.4701182842254639,0.19560374319553375,2.348609685897827,5.5010626194770715,-0.015415151603519917,0.13194143772125244,-1.6970089117633265,0.00032127369195222855,0.08076679706573486,0.998316764831543,0.0,0.0045038326643407345,1.1660497188568115,-8.579689165344462e-05,-0.3780360519886017
251.0,289.0,-2.8965,1.8951,9.0168,-0.04,0.0455,-0.1255,-2.189953943292135,-0.0015459671849384904,4.334012985229492,-1.4692871570587158,0.20465582609176636,2.327139377593994,5.5009949682052515,-0.020176995545625687,0.1300881803035736,-1.6970203558551233,0.00029878929490223527,0.060255587100982666,0.9983373284339905,0.0,0.01387440413236618,1.1660456657409668,-8.264524512924254e-05,-0.291339635848999
251.0,289.0,-2.8965,1.8951,9.0168,-0.04,0.0455,-0.1255,-2.189937730828756,-0.0013268047478049994,4.336270809173584,-1.4684314727783203,0.2057836800813675,2.3820133209228516,5.500858413964071,-0.019572095945477486,0.12225742638111115,-1.6970050970660608,0.0003134887956548482,0.08884627372026443,0.9983372688293457,0.0,0.009213775396347046,1.1660252809524536,-7.971720333443955e-05,-0.3859872817993164
251.0,289.0,-2.8965,1.8951,9.0168,-0.04,0.0455,-0.1255,-2.1899782619872035,-0.0018476909026503563,4.345053672790527,-1.4676153659820557,0.20965048670768738,2.303091526031494,5.50081084945754,-0.019388731569051743,0.1083737164735794,-1.6970246473895472,0.0002854477788787335,0.07892648875713348,0.9983935952186584,0.0,0.00917193666100502,1.1660735607147217,-7.698948320467025e-05,-0.38411495089530945
