ramyac6/ROB537/final_project/csv/all/bad_154.csv
tof_0,tof_1,accelx,accely,accelz,gyrox,gyroy,gyroz,shoulder_lift_joint_position,shoulder_lift_joint_velocity,shoulder_lift_joint_effort,elbow_joint_position,elbow_joint_velocity,elbow_joint_effort,wrist_1_joint_position,wrist_1_joint_velocity,wrist_1_joint_effort,wrist_2_joint_position,wrist_2_joint_velocity,wrist_2_joint_effort,wrist_3_joint_position,wrist_3_joint_velocity,wrist_3_joint_effort,shoulder_pan_joint_position,shoulder_pan_joint_velocity,shoulder_pan_joint_effort
957.0,1074.0,-0.3284,0.2112,9.6443,-0.0362,0.0249,-0.1168,-1.7328301868834437,0.0,2.1945719718933105,-2.2728543281555176,-0.0,1.5077202320098877,5.5125319240386865,-0.0,0.28482845425605774,-1.5968573729144495,-0.0,-0.004682006314396858,0.7882992029190063,-0.0,-0.0018123281188309193,0.7944230437278748,0.0,0.0379500649869442
957.0,1074.0,-0.3284,0.2112,9.6443,-0.0362,0.0249,-0.1168,-1.7328578434386195,0.0,2.196895122528076,-2.272878646850586,-0.0,1.5019359588623047,5.512471782952108,-0.0,0.2828868627548218,-1.5968855063067835,-0.0,-0.00810207799077034,0.7883155345916748,-0.0,0.01092007290571928,0.7943870425224304,0.0,0.01155912410467863
957.0,1074.0,-0.3284,0.2112,9.6443,-0.0362,0.0249,-0.1168,-1.7328783474364222,0.0,2.173659086227417,-2.27294659614563,-0.0,1.493462085723877,5.512463259487905,-0.0,0.2759632468223572,-1.5969298521624964,-0.0,-0.006183275952935219,0.7883114814758301,-0.0,-0.016078151762485504,0.7943670749664307,0.0,-0.01461006235331297
957.0,1074.0,-0.3284,0.2112,9.6443,-0.0362,0.0249,-0.1168,-1.7328697643675746,0.0,2.19952654838562,-2.2729785442352295,-0.0,1.4788618087768555,5.512479769974508,-0.0,0.28527888655662537,-1.5969303289996546,-0.0,-0.004684569779783487,0.7883237600326538,-0.0,0.0001583778066560626,0.7944230437278748,0.0,0.004589315969496965
957.0,1074.0,-0.3284,0.2112,9.6443,-0.0362,0.0249,-0.1168,-1.7328459225096644,0.0,2.2297253608703613,-2.272946834564209,-0.0,1.5076725482940674,5.512491750508108,-0.0,0.275578111410141,-1.5969260374652308,-0.0,-0.017532311379909515,0.7883074283599854,-0.0,-0.008236782625317574,0.7944549322128296,0.0,-0.03905526176095009
957.0,1074.0,-0.3284,0.2112,9.6443,-0.0362,0.0249,-0.1168,-1.7328745327391566,0.0,2.2252609729766846,-2.272902488708496,-0.0,1.5007097721099854,5.512455272465505,-0.0,0.28423768281936646,-1.5969260374652308,-0.0,-0.007863461971282959,0.7882832288742065,-0.0,0.0030623767524957657,0.7944151163101196,0.0,0.00848606787621975
957.0,1074.0,-0.3284,0.2112,9.6443,-0.0362,0.0249,-0.1168,-1.7328340015807093,0.0,2.189239978790283,-2.2729384899139404,-0.0,1.4947664737701416,5.512519705086508,-0.0,0.27998554706573486,-1.5969184080706995,-0.0,0.00015675718896090984,0.7882754802703857,-0.0,-0.0020235697738826275,0.7943989634513855,0.0,0.0009831218048930168
967.0,1073.0,-0.3278,0.2297,9.7059,-0.0356,0.0283,-0.1223,-1.7328459225096644,0.0,2.1684279441833496,-2.272922992706299,-0.0,1.5019707679748535,5.5124878762061975,-0.0,0.2814546525478363,-1.5968855063067835,-0.0,-0.0003316004294902086,0.7882996201515198,-0.0,0.016307413578033447,0.794438898563385,0.0,-0.03784928843379021
967.0,1073.0,-0.3278,0.2297,9.7059,-0.0356,0.0283,-0.1223,-1.732854505578512,0.0,2.1950125694274902,-2.2729549407958984,-0.0,1.4899885654449463,5.512463259487905,-0.0,0.27937114238739014,-1.596933666859762,-0.0,0.00023805949604138732,0.788271427154541,-0.0,-0.0013661020202562213,0.7943830490112305,0.0,-0.005427360534667969
967.0,1073.0,-0.3278,0.2297,9.7059,-0.0356,0.0283,-0.1223,-1.7328621349730433,0.0,2.2330851554870605,-2.2729508876800537,-0.0,1.50608229637146,5.512455272465505,-0.0,0.2842625677585602,-1.5969260374652308,-0.0,-0.006769413128495216,0.7883114814758301,-0.0,0.0008179767755791545,0.7943949699401855,0.0,-0.06459394097328186
967.0,1073.0,-0.3278,0.2297,9.7059,-0.0356,0.0283,-0.1223,-1.7328340015807093,0.0,2.2080793380737305,-2.272874593734741,-0.0,1.5387572050094604,5.512475776463308,-0.0,0.2838010787963867,-1.5968573729144495,-0.0,-0.009336894378066063,0.7882832288742065,-0.0,-6.234622560441494e-05,0.794438898563385,0.0,-0.012447668239474297
967.0,1073.0,-0.3278,0.2297,9.7059,-0.0356,0.0283,-0.1223,-1.7329031429686488,0.0,2.200005292892456,-2.2729270458221436,-0.0,1.5443300008773804,5.512527811318197,-0.0,0.2803591787815094,-1.596893612538473,-0.0,-0.016573933884501457,0.7883356809616089,-0.0,0.0033098794519901276,0.7944549322128296,0.0,-0.02651969902217388
967.0,1073.0,-0.3278,0.2297,9.7059,-0.0356,0.0283,-0.1223,-1.7328621349730433,0.0,2.1997270584106445,-2.2729508876800537,-0.0,1.515608787536621,5.512475359230795,-0.0,0.279135137796402,-1.5968979040728968,-0.0,-0.006875607185065746,0.7883278727531433,-0.0,0.0008872352773323655,0.7944309711456299,0.0,0.04969027638435364
967.0,1073.0,-0.3278,0.2297,9.7059,-0.0356,0.0283,-0.1223,-1.7328697643675746,0.0,2.19392728805542,-2.2728984355926514,-0.0,1.4981141090393066,5.51243935802535,-0.0,0.2749313414096832,-1.5969017187701624,-0.0,0.0012313835322856903,0.7882754802703857,-0.0,0.00015382107812911272,0.7944231033325195,0.0,0.0008831918239593506
967.0,1073.0,-0.3278,0.2297,9.7059,-0.0356,0.0283,-0.1223,-1.7328821621336878,0.0,2.199725389480591,-2.272890090942383,-0.0,1.4876633882522583,5.512475776463308,-0.0,0.28215739130973816,-1.596949879323141,-0.0,-0.004932185169309378,0.788331925868988,-0.0,0.00760306091979146,0.7944470047950745,0.0,0.011426540091633797
967.0,1073.0,-0.3278,0.2297,9.7059,-0.0356,0.0283,-0.1223,-1.7328421078123988,0.0,2.188889741897583,-2.272930383682251,-0.0,1.4953911304473877,5.5124878762061975,-0.0,0.2702411115169525,-1.5968692938434046,-0.0,-0.013545298017561436,0.7883918285369873,-0.0,-0.005538825877010822,0.7944549322128296,0.0,0.01579480618238449
967.0,1073.0,-0.3278,0.2297,9.7059,-0.0356,0.0283,-0.1223,-1.7328783474364222,0.0,2.1965203285217285,-2.2729384899139404,-0.0,1.4806289672851562,5.5125236985977075,-0.0,0.2767394185066223,-1.59691030183901,-0.0,-0.01403101347386837,0.7882512211799622,-0.0,-0.010768722742795944,0.7944072484970093,0.0,0.03370083495974541
967.0,1073.0,-0.3278,0.2297,9.7059,-0.0356,0.0283,-0.1223,-1.7328821621336878,0.0,2.162581205368042,-2.272958993911743,-0.0,1.5057780742645264,5.512519705086508,-0.0,0.2759660482406616,-1.59691030183901,-0.0,-0.0045881113037467,0.7882591485977173,-0.0,0.01512233167886734,0.7944509387016296,0.0,0.02243850752711296
967.0,1073.0,-0.3278,0.2297,9.7059,-0.0356,0.0283,-0.1223,-1.7328421078123988,0.0,2.1920900344848633,-2.2729344367980957,-0.0,1.4917027950286865,5.512475776463308,-0.0,0.280592679977417,-1.596893612538473,-0.0,0.010160514153540134,0.7882874011993408,-0.0,0.0055067408829927444,0.794442892074585,0.0,-0.004489874001592398
967.0,1073.0,-0.3278,0.2297,9.7059,-0.0356,0.0283,-0.1223,-1.7328664265074671,0.0,2.1971077919006348,-2.272874593734741,-0.0,1.5319545269012451,5.512483882694998,-0.0,0.269554078578949,-1.5969179312335413,-0.0,0.0005870460299775004,0.7882635593414307,-0.0,-0.004044663161039352,0.794410765171051,0.0,-0.0137383583933115
8190.0,1049.0,-0.35,0.195,9.7071,-0.038,0.018,-0.1156,-1.7328783474364222,0.0,2.2333157062530518,-2.272886037826538,-0.0,1.4908668994903564,5.512511598854818,-0.0,0.28022053837776184,-1.5969303289996546,-0.0,-0.0024740516673773527,0.7883437871932983,-0.0,-0.0020553639624267817,0.7944309711456299,0.0,-0.005010278429836035
8190.0,1049.0,-0.35,0.195,9.7071,-0.038,0.018,-0.1156,-1.7328301868834437,0.0,2.1761672496795654,-2.2729105949401855,-0.0,1.501250982284546,5.512471782952108,-0.0,0.2770097851753235,-1.5969460646258753,-0.0,-0.006140223704278469,0.7882754802703857,-0.0,0.00475694052875042,0.7944231033325195,0.0,0.027365587651729584
8190.0,1049.0,-0.35,0.195,9.7071,-0.038,0.018,-0.1156,-1.7328421078123988,0.0,2.169393539428711,-2.2729148864746094,-0.0,1.484581708908081,5.512455272465505,-0.0,0.27849963307380676,-1.5969341436969202,-0.0,-0.006846332456916571,0.7882992625236511,-0.0,-0.007708445191383362,0.7944590449333191,0.0,0.04603230953216553
8190.0,1049.0,-0.35,0.195,9.7071,-0.038,0.018,-0.1156,-1.7328945598998011,0.0,2.1960315704345703,-2.2729387283325195,-0.0,1.481372594833374,5.5124878762061975,-0.0,0.27098676562309265,-1.5969379583941858,-0.0,-0.010647464543581009,0.7882673144340515,-0.0,-0.005063096527010202,0.794447124004364,0.0,0.0020191469229757786
8190.0,1049.0,-0.35,0.195,9.7071,-0.038,0.018,-0.1156,-1.732837816277975,0.0,2.1949141025543213,-2.27294659614563,-0.0,1.4738945960998535,5.512511598854818,-0.0,0.2953144311904907,-1.5969341436969202,-0.0,-0.00768330879509449,0.7883198261260986,-0.0,0.002165535232052207,0.7944548726081848,0.0,0.041098397225141525
8190.0,1049.0,-0.35,0.195,9.7071,-0.038,0.018,-0.1156,-1.732821603814596,0.0,2.170785903930664,-2.272946834564209,-0.0,1.505306363105774,5.512499499111929,-0.0,0.29356107115745544,-1.5968812147723597,-0.0,-0.011327674612402916,0.7882914543151855,-0.0,-8.650333620607853e-05,0.7944190502166748,0.0,-0.04909078776836395
8190.0,1049.0,-0.35,0.195,9.7071,-0.038,0.018,-0.1156,-1.7328626118102015,0.0,2.1951706409454346,-2.2729384899139404,-0.0,1.4489572048187256,5.512455272465505,-0.0,0.281121164560318,-1.5968979040728968,-0.0,-0.00039839802775532007,0.7882432341575623,-0.0,0.0028461527545005083,0.7943910360336304,0.0,-0.04951390251517296
8190.0,1049.0,-0.35,0.195,9.7071,-0.038,0.018,-0.1156,-1.732865949670309,0.0,2.1869781017303467,-2.2728941440582275,-0.0,1.5287573337554932,5.5124592063720605,-0.0,0.2845073938369751,-1.5968979040728968,-0.0,-0.0005518218385986984,0.7883237600326538,-0.0,0.005166012793779373,0.7943989038467407,0.0,-0.019707953557372093
8190.0,1049.0,-0.35,0.195,9.7071,-0.038,0.018,-0.1156,-1.732898851434225,0.0,2.179395914077759,-2.2729310989379883,-0.0,1.4425289630889893,5.512511539250173,-0.0,0.2910428047180176,-1.5968855063067835,-0.0,-0.014308557845652103,0.788359522819519,-0.0,-0.004063987638801336,0.7944190502166748,0.0,0.0066104456782341
8190.0,1049.0,-0.35,0.195,9.7071,-0.038,0.018,-0.1156,-1.7328621349730433,0.0,2.177769660949707,-2.2729549407958984,-0.0,1.5560996532440186,5.512459265976705,-0.0,0.28147760033607483,-1.5969017187701624,-0.0,-0.0041390061378479,0.7882831692695618,-0.0,-0.012615371495485306,0.7944228053092957,0.0,0.004409537184983492
8190.0,1049.0,-0.35,0.195,9.7071,-0.038,0.018,-0.1156,-1.7329470119872035,0.0,2.187427520751953,-2.2728941440582275,-0.0,1.4598873853683472,5.5124995587165735,-0.0,0.28626129031181335,-1.5969260374652308,-0.0,0.0032797683961689472,0.7883197069168091,-0.0,0.003853677771985531,0.7944350838661194,0.0,-0.0026411483995616436
8190.0,1049.0,-0.35,0.195,9.7071,-0.038,0.018,-0.1156,-1.7328783474364222,0.0,2.1959950923919678,-2.272874593734741,-0.0,1.5016095638275146,5.512487697392263,-0.0,0.27845996618270874,-1.5969298521624964,-0.0,0.003769772360101342,0.788331925868988,-0.0,0.00321209360845387,0.7944232225418091,0.0,-0.023643849417567253
8190.0,1049.0,-0.35,0.195,9.7071,-0.038,0.018,-0.1156,-1.7328502140440882,0.0,2.2058043479919434,-2.2729668617248535,-0.0,1.4954067468643188,5.5124995587165735,-0.0,0.2757949233055115,-1.5969579855548304,-0.0,-0.020418431609869003,0.7883237600326538,-0.0,0.004691796842962503,0.7944432497024536,0.0,-0.024784089997410774
8190.0,1049.0,-0.35,0.195,9.7071,-0.038,0.018,-0.1156,-1.7328664265074671,0.0,2.154521942138672,-2.2728941440582275,-0.0,1.5191729068756104,5.512495684414663,-0.0,0.26232218742370605,-1.5968893210040491,-0.0,-0.01590757630765438,0.7883197069168091,-0.0,-0.007107745390385389,0.7944594621658325,0.0,-0.06182972341775894
958.0,1061.0,-0.3296,0.2267,9.7502,-0.0379,0.0229,-0.1196,-1.7328421078123988,0.0,2.173354387283325,-2.27294659614563,-0.0,1.533705472946167,5.512479769974508,-0.0,0.27613645792007446,-1.5969303289996546,-0.0,-0.016743550077080727,0.7883356809616089,-0.0,0.0036273174919188023,0.7944190502166748,0.0,-0.0035428276751190424
958.0,1061.0,-0.3296,0.2267,9.7502,-0.0379,0.0229,-0.1196,-1.7328740559019984,0.0,2.196065902709961,-2.272930383682251,-0.0,1.5186972618103027,5.512463259487905,-0.0,0.284938782453537,-1.59691030183901,-0.0,-0.014326496049761772,0.7883278727531433,-0.0,0.006312266923487186,0.7944512367248535,0.0,0.021331463009119034
958.0,1061.0,-0.3296,0.2267,9.7502,-0.0379,0.0229,-0.1196,-1.732854505578512,0.0,2.2140824794769287,-2.272862434387207,-0.0,1.5400006771087646,5.512463259487905,-0.0,0.2837156653404236,-1.5968735853778284,-0.0,-0.014917152933776379,0.7882914543151855,-0.0,-0.0038589145988225937,0.7944310307502747,0.0,-0.02395704574882984
958.0,1061.0,-0.3296,0.2267,9.7502,-0.0379,0.0229,-0.1196,-1.7329031429686488,0.0,2.176861524581909,-2.272930383682251,-0.0,1.5213215351104736,5.512479769974508,-0.0,0.2908228635787964,-1.5968735853778284,-0.0,-0.01227473933249712,0.7882591485977173,-0.0,-0.0010154024930670857,0.7944350242614746,0.0,0.012398093938827515
958.0,1061.0,-0.3296,0.2267,9.7502,-0.0379,0.0229,-0.1196,-1.7328578434386195,0.0,2.202303409576416,-2.272918939590454,-0.0,1.489702820777893,5.512487697392263,-0.0,0.2873840034008026,-1.5969222227679651,-0.0,-0.006160596385598183,0.7883237600326538,-0.0,-0.004643416963517666,0.794447124004364,0.0,0.00582854961976409
958.0,1061.0,-0.3296,0.2267,9.7502,-0.0379,0.0229,-0.1196,-1.732821603814596,0.0,2.2097315788269043,-2.2729783058166504,-0.0,1.489168643951416,5.512543785362997,-0.0,0.27950137853622437,-1.596949879323141,-0.0,0.0007643349235877395,0.7882755398750305,-0.0,-0.004967070184648037,0.7944309711456299,0.0,-0.00917814765125513
958.0,1061.0,-0.3296,0.2267,9.7502,-0.0379,0.0229,-0.1196,-1.7328821621336878,0.0,2.2412476539611816,-2.2729310989379883,-0.0,1.4653719663619995,5.512479769974508,-0.0,0.2784864902496338,-1.5969060103045862,-0.0,-0.02900063619017601,0.7883033752441406,-0.0,-0.0005189565708860755,0.7944391965866089,0.0,0.0023330338299274445
958.0,1061.0,-0.3296,0.2267,9.7502,-0.0379,0.0229,-0.1196,-1.7328697643675746,0.0,2.203991413116455,-2.272942543029785,-0.0,1.4963247776031494,5.5124836442764185,-0.0,0.2840555012226105,-1.5969141165362757,-0.0,-0.007311837747693062,0.7882512807846069,-0.0,-0.007487911731004715,0.7944350242614746,0.0,0.028586115688085556
958.0,1061.0,-0.3296,0.2267,9.7502,-0.0379,0.0229,-0.1196,-1.732821603814596,0.0,2.232295274734497,-2.272930383682251,-0.0,1.519948959350586,5.512515771179952,-0.0,0.2789023220539093,-1.5969379583941858,-0.0,-0.008731965906918049,0.7883438467979431,-0.0,-0.0017233681865036488,0.7944108247756958,0.0,-0.008500661700963974
958.0,1061.0,-0.3296,0.2267,9.7502,-0.0379,0.0229,-0.1196,-1.7328301868834437,0.0,2.2049803733825684,-2.2729148864746094,-0.0,1.534448266029358,5.512503611832418,-0.0,0.27968788146972656,-1.5969379583941858,-0.0,-0.011950824409723282,0.788379430770874,-0.0,0.0027214104775339365,0.7944391965866089,0.0,0.03140784800052643
958.0,1061.0,-0.3296,0.2267,9.7502,-0.0379,0.0229,-0.1196,-1.732854505578512,0.0,2.2036657333374023,-2.272890090942383,-0.0,1.4545223712921143,5.512483882694998,-0.0,0.2728390693664551,-1.5969541708575647,-0.0,-0.008484268561005592,0.7883074283599854,-0.0,-0.0033943401649594307,0.7944471836090088,0.0,-0.028893712908029556
958.0,1061.0,-0.3296,0.2267,9.7502,-0.0379,0.0229,-0.1196,-1.7328902683653773,0.0,2.2245733737945557,-2.2728819847106934,-0.0,1.4996768236160278,5.5124631998832605,-0.0,0.28087127208709717,-1.5969017187701624,-0.0,-0.004805366043001413,0.7883278727531433,-0.0,0.010432763956487179,0.7944430112838745,0.0,-0.020331252366304398
958.0,1061.0,-0.3296,0.2267,9.7502,-0.0379,0.0229,-0.1196,-1.732898851434225,0.0,2.2149434089660645,-2.2729344367980957,-0.0,1.5010218620300293,5.512511598854818,-0.0,0.2819397449493408,-1.5968979040728968,-0.0,-0.008890233002603054,0.7882950901985168,-0.0,-0.0002805547555908561,0.7944549918174744,0.0,-0.0220043882727623
937.0,1082.0,-0.317,0.1926,9.6377,-0.0328,0.0192,-0.1228,-1.7328502140440882,0.0,2.188497304916382,-2.272906541824341,-0.0,1.4905049800872803,5.512471782952108,-0.0,0.2831675410270691,-1.5969017187701624,-0.0,-0.015731429681181908,0.7883278131484985,-0.0,-0.000847071292810142,0.7943945527076721,0.0,0.004810049198567867
937.0,1082.0,-0.317,0.1926,9.6377,-0.0328,0.0192,-0.1228,-1.7328621349730433,0.0,2.2243006229400635,-2.2729671001434326,-0.0,1.4775112867355347,5.512507605343618,-0.0,0.2808341681957245,-1.5968979040728968,-0.0,-0.01863112486898899,0.7882672548294067,-0.0,-0.0013012901181355119,0.7944149374961853,0.0,-0.03005230240523815
937.0,1082.0,-0.317,0.1926,9.6377,-0.0328,0.0192,-0.1228,-1.7328583202757777,0.0,2.1734495162963867,-2.2729148864746094,-0.0,1.515472650527954,5.512475776463308,-0.0,0.27762237191200256,-1.5969017187701624,-0.0,-4.20818105340004e-05,0.7883196473121643,-0.0,-0.0032261100132018328,0.7943945527076721,0.0,-0.015590125694870949
937.0,1082.0,-0.317,0.1926,9.6377,-0.0328,0.0192,-0.1228,-1.7328702412047328,0.0,2.2219882011413574,-2.2729344367980957,-0.0,1.4995695352554321,5.512503850250997,-0.0,0.28233128786087036,-1.5969465414630335,-0.0,-0.01341643650084734,0.788279116153717,-0.0,-0.0021452270448207855,0.7944309711456299,0.0,0.02874493971467018
937.0,1082.0,-0.317,0.1926,9.6377,-0.0328,0.0192,-0.1228,-1.7328177891173304,0.0,2.21492862701416,-2.27298641204834,-0.0,1.5137344598770142,5.512507605343618,-0.0,0.2885792553424835,-1.596949879323141,-0.0,-0.010611752048134804,0.7882713675498962,-0.0,0.0031496628653258085,0.7944149971008301,0.0,-0.034066516906023026
937.0,1082.0,-0.317,0.1926,9.6377,-0.0328,0.0192,-0.1228,-1.7328907452025355,0.0,2.157741069793701,-2.272963047027588,-0.0,1.5346845388412476,5.512507605343618,-0.0,0.29305770993232727,-1.5968893210040491,-0.0,0.000958179822191596,0.788239061832428,-0.0,0.0021117939613759518,0.7944350242614746,0.0,-0.0354359969496727
937.0,1082.0,-0.317,0.1926,9.6377,-0.0328,0.0192,-0.1228,-1.7328664265074671,0.0,2.2049243450164795,-2.272958993911743,-0.0,1.48651123046875,5.512495684414663,-0.0,0.2894521951675415,-1.596893612538473,-0.0,-6.079929880797863e-05,0.7883155345916748,-0.0,-0.01298957783728838,0.7944630980491638,0.0,-0.012368171475827694
937.0,1082.0,-0.317,0.1926,9.6377,-0.0328,0.0192,-0.1228,-1.7328459225096644,0.0,2.236680030822754,-2.2729310989379883,-0.0,1.469650387763977,5.5124592063720605,-0.0,0.2836768627166748,-1.5969260374652308,-0.0,-0.011456786654889584,0.7883478999137878,-0.0,-0.0001054725144058466,0.7944190502166748,0.0,0.003950287122279406
937.0,1082.0,-0.317,0.1926,9.6377,-0.0328,0.0192,-0.1228,-1.73291077236318,0.0,2.2080957889556885,-2.2729744911193848,-0.0,1.497560739517212,5.512439298420706,-0.0,0.28329718112945557,-1.5969179312335413,-0.0,-0.003282027319073677,0.7882835865020752,-0.0,-0.004241837654262781,0.7944350242614746,0.0,-0.018749456852674484
937.0,1082.0,-0.317,0.1926,9.6377,-0.0328,0.0192,-0.1228,-1.7328421078123988,0.0,2.198805332183838,-2.272958993911743,-0.0,1.5097203254699707,5.512467729836263,-0.0,0.2867308557033539,-1.5969098250018519,-0.0,-0.010717691853642464,0.7882955074310303,-0.0,0.010127273388206959,0.7944350242614746,0.0,-0.019344544038176537
937.0,1082.0,-0.317,0.1926,9.6377,-0.0328,0.0192,-0.1228,-1.7328459225096644,0.0,2.1920156478881836,-2.272963047027588,-0.0,1.4976143836975098,5.512463676720419,-0.0,0.2871474623680115,-1.5969579855548304,-0.0,-0.00429711677134037,0.7883033752441406,-0.0,0.007444135844707489,0.7944231629371643,0.0,-0.007716113701462746
937.0,1082.0,-0.317,0.1926,9.6377,-0.0328,0.0192,-0.1228,-1.732854505578512,0.0,2.2443010807037354,-2.2729263305664062,-0.0,1.53567636013031,5.512475776463308,-0.0,0.28904950618743896,-1.5968979040728968,-0.0,-0.011193918995559216,0.7882713675498962,-0.0,-0.001550781773403287,0.794455349445343,0.0,-0.0421692430973053
937.0,1082.0,-0.317,0.1926,9.6377,-0.0328,0.0192,-0.1228,-1.7328664265074671,0.0,2.2014362812042236,-2.2728984355926514,-0.0,1.47890043258667,5.512471782952108,-0.0,0.2803572416305542,-1.596893612538473,-0.0,-0.012527731247246265,0.7883114814758301,-0.0,-0.004311416298151016,0.7944269180297852,0.0,-0.051398131996393204
917.0,1041.0,-0.3422,0.1998,9.6323,-0.0365,0.0266,-0.12,-1.7328907452025355,0.0,2.2187023162841797,-2.272902488708496,-0.0,1.5001320838928223,5.512511658459463,-0.0,0.2785634994506836,-1.5969179312335413,-0.0,-0.015028683468699455,0.7882914543151855,-0.0,0.011240310966968536,0.794455349445343,0.0,0.005480981431901455
917.0,1041.0,-0.3422,0.1998,9.6323,-0.0365,0.0266,-0.12,-1.7329069576659144,0.0,2.197462558746338,-2.2728941440582275,-0.0,1.529478669166565,5.512539732247152,-0.0,0.27506551146507263,-1.5969136396991175,-0.0,-0.006196644157171249,0.7882635593414307,-0.0,-0.0011788331903517246,0.7944068908691406,0.0,-0.0316365510225296
917.0,1041.0,-0.3422,0.1998,9.6323,-0.0365,0.0266,-0.12,-1.7328664265074671,0.0,2.1793434619903564,-2.2728984355926514,-0.0,1.5027413368225098,5.512491690903463,-0.0,0.27982673048973083,-1.5969136396991175,-0.0,0.0025291317142546177,0.7882713675498962,-0.0,0.006163482088595629,0.794427216053009,0.0,0.031848177313804626
917.0,1041.0,-0.3422,0.1998,9.6323,-0.0365,0.0266,-0.12,-1.732950826684469,0.0,2.213545083999634,-2.272942543029785,-0.0,1.4780893325805664,5.512527811318197,-0.0,0.2814161777496338,-1.5969222227679651,-0.0,-0.006882725283503532,0.7883314490318298,-0.0,0.00016614142805337906,0.7944309711456299,0.0,-0.011851292103528976
917.0,1041.0,-0.3422,0.1998,9.6323,-0.0365,0.0266,-0.12,-1.7328421078123988,0.0,2.196194648742676,-2.2728981971740723,-0.0,1.477611780166626,5.512479769974508,-0.0,0.2799288034439087,-1.5969260374652308,-0.0,-0.0033790208399295807,0.7882955074310303,-0.0,0.004861197434365749,0.7944389581680298,0.0,-0.009782286360859871
917.0,1041.0,-0.3422,0.1998,9.6323,-0.0365,0.0266,-0.12,-1.732854505578512,0.0,2.1871399879455566,-2.272886037826538,-0.0,1.4906678199768066,5.512503850250997,-0.0,0.2756396532058716,-1.5968979040728968,-0.0,-0.007334550842642784,0.788247287273407,-0.0,-0.0025054102297872305,0.7943986654281616,0.0,0.04601101949810982
917.0,1041.0,-0.3422,0.1998,9.6323,-0.0365,0.0266,-0.12,-1.7328340015807093,0.0,2.1657018661499023,-2.272918701171875,-0.0,1.5423575639724731,5.512455212860861,-0.0,0.2781139314174652,-1.596949879323141,-0.0,-0.01417502574622631,0.7882996201515198,-0.0,0.010077215731143951,0.7944309711456299,0.0,0.005728829652070999
917.0,1041.0,-0.3422,0.1998,9.6323,-0.0365,0.0266,-0.12,-1.7328459225096644,0.0,2.1583633422851562,-2.272930383682251,-0.0,1.505232334136963,5.512479769974508,-0.0,0.28212493658065796,-1.5969136396991175,-0.0,-0.01883421465754509,0.7883074879646301,-0.0,0.00920021254569292,0.7944432497024536,0.0,-0.009277754463255405
917.0,1041.0,-0.3422,0.1998,9.6323,-0.0365,0.0266,-0.12,-1.7328421078123988,0.0,2.1648035049438477,-2.2729663848876953,-0.0,1.536260724067688,5.512479769974508,-0.0,0.27083727717399597,-1.5968855063067835,-0.0,-0.008688447065651417,0.7882553935050964,-0.0,-0.002489883452653885,0.7943986654281616,0.0,0.014076008461415768
917.0,1041.0,-0.3422,0.1998,9.6323,-0.0365,0.0266,-0.12,-1.7328502140440882,0.0,2.1973724365234375,-2.272958993911743,-0.0,1.5017905235290527,5.512467372208395,-0.0,0.28452157974243164,-1.5969703833209437,-0.0,-0.006862204987555742,0.7882676720619202,-0.0,0.0032186221797019243,0.7944232225418091,0.0,-0.013851813971996307
917.0,1041.0,-0.3422,0.1998,9.6323,-0.0365,0.0266,-0.12,-1.7328502140440882,0.0,2.186063289642334,-2.2729427814483643,-0.0,1.4771535396575928,5.512483882694998,-0.0,0.28429436683654785,-1.5969298521624964,-0.0,-0.02005952037870884,0.7882595658302307,-0.0,0.018150504678487778,0.7944067716598511,0.0,-0.0036825223360210657
917.0,1041.0,-0.3422,0.1998,9.6323,-0.0365,0.0266,-0.12,-1.7328177891173304,0.0,2.159752368927002,-2.27294659614563,-0.0,1.5355355739593506,5.512495684414663,-0.0,0.2918245792388916,-1.5969579855548304,-0.0,-0.0007980261580087245,0.7883155345916748,-0.0,0.011723615229129791,0.7943866848945618,0.0,0.04624689742922783
917.0,1041.0,-0.3422,0.1998,9.6323,-0.0365,0.0266,-0.12,-1.7328340015807093,0.0,2.190788507461548,-2.272906541824341,-0.0,1.4830080270767212,5.5124114630515955,-0.0,0.27336984872817993,-1.5968893210040491,-0.0,0.0008231240790337324,0.7883114814758301,-0.0,0.0016815736889839172,0.7944590449333191,0.0,-0.00615275651216507
917.0,1041.0,-0.3422,0.1998,9.6323,-0.0365,0.0266,-0.12,-1.7328416309752406,0.0,2.1823201179504395,-2.272918939590454,-0.0,1.5248669385910034,5.512487697392263,-0.0,0.2797945439815521,-1.5969584623919886,-0.0,-0.014539985917508602,0.7883197069168091,-0.0,0.002213637810200453,0.7944713830947876,0.0,0.006730749271810055
963.0,1070.0,-0.3416,0.1962,9.5683,-0.0432,0.0264,-0.1335,-1.732854505578512,0.0,2.1849231719970703,-2.2728779315948486,-0.0,1.5122449398040771,5.51243137100295,-0.0,0.27161651849746704,-1.5969179312335413,-0.0,-0.015749672427773476,0.7883114218711853,-0.0,-0.002924012253060937,0.7944231629371643,0.0,-0.03627479076385498
963.0,1070.0,-0.3416,0.1962,9.5683,-0.0432,0.0264,-0.1335,-1.732854505578512,0.0,2.1652235984802246,-2.272886037826538,-0.0,1.50148344039917,5.512467372208395,-0.0,0.28839224576950073,-1.596893612538473,-0.0,0.004218083340674639,0.7883478999137878,-0.0,-0.010597149841487408,0.7944190502166748,0.0,0.020998869091272354
963.0,1070.0,-0.3416,0.1962,9.5683,-0.0432,0.0264,-0.1335,-1.7328740559019984,0.0,2.2430644035339355,-2.272986888885498,-0.0,1.5286767482757568,5.512536036759176,-0.0,0.2871429920196533,-1.5969541708575647,-0.0,-0.0036979520227760077,0.788331925868988,-0.0,0.00842637661844492,0.7944190502166748,0.0,-0.026547547429800034
963.0,1070.0,-0.3416,0.1962,9.5683,-0.0432,0.0264,-0.1335,-1.732898851434225,0.0,2.2067222595214844,-2.272850275039673,-0.0,1.4733402729034424,5.5124637363250635,-0.0,0.2820996642112732,-1.5969222227679651,-0.0,-0.003326134290546179,0.7883033752441406,-0.0,0.004178778268396854,0.7943949103355408,0.0,-0.004615074023604393
963.0,1070.0,-0.3416,0.1962,9.5683,-0.0432,0.0264,-0.1335,-1.7328177891173304,0.0,2.231826066970825,-2.272922992706299,-0.0,1.515479564666748,5.512511598854818,-0.0,0.2650022506713867,-1.5968692938434046,-0.0,-0.0036531321238726377,0.7882353067398071,-0.0,0.002861208049580455,0.7944268584251404,0.0,-0.02191736549139023
963.0,1070.0,-0.3416,0.1962,9.5683,-0.0432,0.0264,-0.1335,-1.7328821621336878,0.0,2.1893653869628906,-2.272918939590454,-0.0,1.4772639274597168,5.512431132584371,-0.0,0.2779025733470917,-1.596893612538473,-0.0,-0.003682095557451248,0.7883074879646301,-0.0,-0.005890145432204008,0.7944068312644958,0.0,0.020984919741749763
963.0,1070.0,-0.3416,0.1962,9.5683,-0.0432,0.0264,-0.1335,-1.7328459225096644,0.0,2.2005491256713867,-2.2728984355926514,-0.0,1.4853571653366089,5.512487935810842,-0.0,0.26779964566230774,-1.596877400075094,-0.0,-0.004703985992819071,0.7882348895072937,-0.0,-0.011913706548511982,0.7944108247756958,0.0,-0.022123239934444427
963.0,1070.0,-0.3416,0.1962,9.5683,-0.0432,0.0264,-0.1335,-1.7328821621336878,0.0,2.1774845123291016,-2.272906541824341,-0.0,1.541346788406372,5.512503671437063,-0.0,0.2819475829601288,-1.5969017187701624,-0.0,-0.005804797168821096,0.7883237600326538,-0.0,-0.006496545858681202,0.7944268584251404,0.0,0.020620571449398994
963.0,1070.0,-0.3416,0.1962,9.5683,-0.0432,0.0264,-0.1335,-1.7328783474364222,0.0,2.215984582901001,-2.2728984355926514,-0.0,1.5070600509643555,5.512515771179952,-0.0,0.28190985321998596,-1.5968855063067835,-0.0,-0.0009239634382538497,0.7883438467979431,-0.0,0.006139911711215973,0.7944313883781433,0.0,0.0105949891731143
963.0,1070.0,-0.3416,0.1962,9.5683,-0.0432,0.0264,-0.1335,-1.7328745327391566,0.0,2.188920736312866,-2.2729108333587646,-0.0,1.4710662364959717,5.512431251793661,-0.0,0.2834949493408203,-1.5969379583941858,-0.0,-0.007419433910399675,0.7882914543151855,-0.0,0.0038634873926639557,0.7944430112838745,0.0,0.044413045048713684
963.0,1070.0,-0.3416,0.1962,9.5683,-0.0432,0.0264,-0.1335,-1.732821603814596,0.0,2.1859374046325684,-2.272986650466919,-0.0,1.497825264930725,5.512495684414663,-0.0,0.2775619328022003,-1.5969017187701624,-0.0,-0.014263875782489777,0.7882992029190063,-0.0,-0.0183793343603611,0.7943945527076721,0.0,-0.03122124634683132
963.0,1070.0,-0.3416,0.1962,9.5683,-0.0432,0.0264,-0.1335,-1.7329031429686488,0.0,2.216888666152954,-2.2728984355926514,-0.0,1.5071810483932495,5.512523877411642,-0.0,0.28380516171455383,-1.5969017187701624,-0.0,-0.02552475966513157,0.788279116153717,-0.0,-0.007625986821949482,0.7944027185440063,0.0,0.010321292094886303
963.0,1070.0,-0.3416,0.1962,9.5683,-0.0432,0.0264,-0.1335,-1.7328502140440882,0.0,2.1713132858276367,-2.2729310989379883,-0.0,1.4650583267211914,5.5124631998832605,-0.0,0.280608594417572,-1.59691030183901,-0.0,-0.006344671826809645,0.788267195224762,-0.0,0.003766609588637948,0.7944309711456299,0.0,0.01265138853341341
933.0,1071.0,-0.3224,0.1693,9.6239,-0.0347,0.0223,-0.1251,-1.7329069576659144,0.0,2.1670479774475098,-2.272858142852783,-0.0,1.4772838354110718,5.512483942299642,-0.0,0.2801133394241333,-1.5968855063067835,-0.0,-0.007720353081822395,0.7882431149482727,-0.0,0.002698536030948162,0.794455349445343,0.0,0.022751983255147934
933.0,1071.0,-0.3224,0.1693,9.6239,-0.0347,0.0223,-0.1251,-1.7328502140440882,0.0,2.2219340801239014,-2.2729663848876953,-0.0,1.476030707359314,5.512507605343618,-0.0,0.2721866965293884,-1.5969222227679651,-0.0,-0.016106823459267616,0.7882835865020752,-0.0,0.00030590128153562546,0.7944350838661194,0.0,0.0422753281891346
933.0,1071.0,-0.3224,0.1693,9.6239,-0.0347,0.0223,-0.1251,-1.7328702412047328,0.0,2.1880245208740234,-2.272963047027588,-0.0,1.4595253467559814,5.512515771179952,-0.0,0.2899050712585449,-1.5969136396991175,-0.0,-0.0014010018203407526,0.7882955074310303,-0.0,0.011143956333398819,0.7944232225418091,0.0,-0.03559762239456177
933.0,1071.0,-0.3224,0.1693,9.6239,-0.0347,0.0223,-0.1251,-1.7328664265074671,0.0,2.2099881172180176,-2.272902488708496,-0.0,1.5297530889511108,5.512507605343618,-0.0,0.273445725440979,-1.5968979040728968,-0.0,-0.005304666701704264,0.7883115410804749,-0.0,0.007706994190812111,0.7944350242614746,0.0,-0.02607373706996441
933.0,1071.0,-0.3224,0.1693,9.6239,-0.0347,0.0223,-0.1251,-1.732837816277975,0.0,2.1962356567382812,-2.272922992706299,-0.0,1.4857592582702637,5.5124631998832605,-0.0,0.2743954062461853,-1.5969222227679651,-0.0,-0.0016856081783771515,0.7883033752441406,-0.0,0.0006202721269801259,0.7944067716598511,0.0,-0.03693148121237755
933.0,1071.0,-0.3224,0.1693,9.6239,-0.0347,0.0223,-0.1251,-1.732821603814596,0.0,2.1902642250061035,-2.2729344367980957,-0.0,1.482835292816162,5.512495684414663,-0.0,0.2729162573814392,-1.5969098250018519,-0.0,-0.006787473801523447,0.7882553935050964,-0.0,0.0018293025204911828,0.7944350838661194,0.0,-0.0027685053646564484
933.0,1071.0,-0.3224,0.1693,9.6239,-0.0347,0.0223,-0.1251,-1.732837816277975,0.0,2.1835806369781494,-2.2728819847106934,-0.0,1.526079773902893,5.512491690903463,-0.0,0.27187150716781616,-1.5968812147723597,-0.0,-0.0047985864803195,0.7882431745529175,-0.0,0.003521981183439493,0.7944350838661194,0.0,-0.028342969715595245
933.0,1071.0,-0.3224,0.1693,9.6239,-0.0347,0.0223,-0.1251,-1.7328459225096644,0.0,2.1900711059570312,-2.2729146480560303,-0.0,1.4609942436218262,5.512483584671774,-0.0,0.2677043080329895,-1.5969222227679651,-0.0,-0.007517027668654919,0.7882992625236511,-0.0,0.0031170453876256943,0.7944067716598511,0.0,-0.007107534445822239
933.0,1071.0,-0.3224,0.1693,9.6239,-0.0347,0.0223,-0.1251,-1.7328621349730433,0.0,2.1914379596710205,-2.2729508876800537,-0.0,1.5172994136810303,5.512491690903463,-0.0,0.2775930166244507,-1.5969541708575647,-0.0,-0.008188907988369465,0.7883796095848083,-0.0,-0.007183792535215616,0.7944149374961853,0.0,-0.02194376103579998
933.0,1071.0,-0.3224,0.1693,9.6239,-0.0347,0.0223,-0.1251,-1.7328502140440882,0.0,2.20927095413208,-2.272942543029785,-0.0,1.5177587270736694,5.512471782952108,-0.0,0.28464341163635254,-1.5969017187701624,-0.0,-0.007626357488334179,0.7883471846580505,-0.0,0.003511004848405719,0.7944631576538086,0.0,-0.04401436448097229
933.0,1071.0,-0.3224,0.1693,9.6239,-0.0347,0.0223,-0.1251,-1.7328621349730433,0.0,2.1930713653564453,-2.2729508876800537,-0.0,1.4908850193023682,5.512523817806997,-0.0,0.28649598360061646,-1.5969222227679651,-0.0,-0.004292665980756283,0.7883074879646301,-0.0,-0.007836643606424332,0.7944430112838745,0.0,0.0005802423693239689
933.0,1071.0,-0.3224,0.1693,9.6239,-0.0347,0.0223,-0.1251,-1.7328621349730433,0.0,2.1932373046875,-2.2729508876800537,-0.0,1.5281190872192383,5.512483584671774,-0.0,0.2832319736480713,-1.5969060103045862,-0.0,-0.015372583642601967,0.7883520126342773,-0.0,0.0009667878039181232,0.7944512367248535,0.0,-0.02599548175930977
933.0,1071.0,-0.3224,0.1693,9.6239,-0.0347,0.0223,-0.1251,-1.732837816277975,0.0,2.1874046325683594,-2.2729270458221436,-0.0,1.472095012664795,5.512463676720419,-0.0,0.28001922369003296,-1.5969098250018519,-0.0,-0.013165593147277832,0.7882874011993408,-0.0,-0.0152332354336977,0.7944672107696533,0.0,0.007973150350153446
955.0,1058.0,-0.4259,0.2435,9.8016,-0.0334,0.0267,-0.1232,-1.7328664265074671,0.0,2.2197675704956055,-2.2729146480560303,-0.0,1.4749037027359009,5.512491690903463,-0.0,0.28658849000930786,-1.596933666859762,-0.0,-0.005882699973881245,0.788271427154541,-0.0,0.005052329506725073,0.7944595217704773,0.0,-0.032644618302583694
955.0,1058.0,-0.4259,0.2435,9.8016,-0.0334,0.0267,-0.1232,-1.7328297100462855,0.0,2.20162034034729,-2.272963047027588,-0.0,1.4970145225524902,5.512507605343618,-0.0,0.2881568670272827,-1.5969098250018519,-0.0,0.0008576810359954834,0.7883237600326538,-0.0,0.007520499639213085,0.7944389581680298,0.0,-0.026967883110046387
955.0,1058.0,-0.4259,0.2435,9.8016,-0.0334,0.0267,-0.1232,-1.7328740559019984,0.0,2.178955316543579,-2.272946834564209,-0.0,1.4911243915557861,5.512527811318197,-0.0,0.27527570724487305,-1.5969260374652308,-0.0,0.0007493763696402311,0.7882755398750305,-0.0,-0.015192770399153233,0.7944631576538086,0.0,0.0070351483300328255
955.0,1058.0,-0.4259,0.2435,9.8016,-0.0334,0.0267,-0.1232,-1.7328578434386195,0.0,2.194643259048462,-2.272922992706299,-0.0,1.512123465538025,5.512483942299642,-0.0,0.27517345547676086,-1.5969141165362757,-0.0,-0.009281100705265999,0.78835129737854,-0.0,0.002464568940922618,0.7944508194923401,0.0,0.020231831818819046
955.0,1058.0,-0.4259,0.2435,9.8016,-0.0334,0.0267,-0.1232,-1.7328664265074671,0.0,2.1509220600128174,-2.2729148864746094,-0.0,1.5057294368743896,5.512455153256216,-0.0,0.28716886043548584,-1.596893612538473,-0.0,-0.003602029522880912,0.7882951498031616,-0.0,-0.007456804625689983,0.7944511771202087,0.0,0.03313621133565903
955.0,1058.0,-0.4259,0.2435,9.8016,-0.0334,0.0267,-0.1232,-1.7328421078123988,0.0,2.196317195892334,-2.2729270458221436,-0.0,1.5155967473983765,5.5124796507652185,-0.0,0.27456730604171753,-1.596949879323141,-0.0,-0.006965097039937973,0.7883197069168091,-0.0,-0.007277161814272404,0.7944309711456299,0.0,-0.01535551156848669
955.0,1058.0,-0.4259,0.2435,9.8016,-0.0334,0.0267,-0.1232,-1.7328621349730433,0.0,2.216139316558838,-2.272970676422119,-0.0,1.5027265548706055,5.512495684414663,-0.0,0.2818758487701416,-1.5969098250018519,-0.0,0.0028272052295506,0.7882594466209412,-0.0,-0.0012654474703595042,0.7944190502166748,0.0,-0.02869831770658493
955.0,1058.0,-0.4259,0.2435,9.8016,-0.0334,0.0267,-0.1232,-1.7328459225096644,0.0,2.2096614837646484,-2.2729270458221436,-0.0,1.4802736043930054,5.512499856739797,-0.0,0.2808127999305725,-1.5969379583941858,-0.0,-0.016628779470920563,0.7882710695266724,-0.0,0.003058818867430091,0.7944149971008301,0.0,-0.003929251804947853
955.0,1058.0,-0.4259,0.2435,9.8016,-0.0334,0.0267,-0.1232,-1.7328664265074671,0.0,2.162076711654663,-2.272890090942383,-0.0,1.4839398860931396,5.512507605343618,-0.0,0.2777177393436432,-1.5968855063067835,-0.0,-0.004031849093735218,0.7883237600326538,-0.0,0.0057082399725914,0.7944433093070984,0.0,-0.011706085875630379
955.0,1058.0,-0.4259,0.2435,9.8016,-0.0334,0.0267,-0.1232,-1.7328459225096644,0.0,2.2135727405548096,-2.2729508876800537,-0.0,1.4829963445663452,5.5124631998832605,-0.0,0.2830697000026703,-1.5969017187701624,-0.0,0.004938236437737942,0.7882594466209412,-0.0,0.009919747710227966,0.7944190502166748,0.0,0.0012337397783994675
955.0,1058.0,-0.4259,0.2435,9.8016,-0.0334,0.0267,-0.1232,-1.7328740559019984,0.0,2.2213563919067383,-2.272946834564209,-0.0,1.527119755744934,5.5124472854431055,-0.0,0.27935436367988586,-1.5969379583941858,-0.0,0.00030433188658207655,0.788331925868988,-0.0,-0.0005423878901638091,0.7944232225418091,0.0,-0.0022722436115145683
955.0,1058.0,-0.4259,0.2435,9.8016,-0.0334,0.0267,-0.1232,-1.7328702412047328,0.0,2.2092623710632324,-2.2729549407958984,-0.0,1.483842134475708,5.512479769974508,-0.0,0.27896422147750854,-1.5969184080706995,-0.0,-0.004641413688659668,0.7882754802703857,-0.0,0.0012066478375345469,0.794382631778717,0.0,0.02339223399758339
955.0,1058.0,-0.4259,0.2435,9.8016,-0.0334,0.0267,-0.1232,-1.732837816277975,0.0,2.213704824447632,-2.2729105949401855,-0.0,1.4653034210205078,5.512503611832418,-0.0,0.2666368782520294,-1.596865479146139,-0.0,0.0015897275879979134,0.7882951498031616,-0.0,-0.01038450375199318,0.7944511771202087,0.0,-0.008214093744754791
955.0,1058.0,-0.4259,0.2435,9.8016,-0.0334,0.0267,-0.1232,-1.7329064808287562,0.0,2.2110700607299805,-2.272946834564209,-0.0,1.4886234998703003,5.512527870922842,-0.0,0.2831818461418152,-1.5968769232379358,-0.0,-0.014777599833905697,0.7882550954818726,-0.0,0.00623308215290308,0.7944630980491638,0.0,-0.04026399925351143
954.0,1044.0,-0.2064,0.1131,9.5336,-0.0461,0.0247,-0.1248,-1.732837816277975,0.0,2.206136703491211,-2.272918939590454,-0.0,1.4988802671432495,5.512499856739797,-0.0,0.2701752483844757,-1.5969060103045862,-0.0,-0.010723265819251537,0.7882472276687622,-0.0,-0.005007597152143717,0.7943904399871826,0.0,0.020149823278188705
954.0,1044.0,-0.2064,0.1131,9.5336,-0.0461,0.0247,-0.1248,-1.7328821621336878,0.0,2.2324113845825195,-2.272902488708496,-0.0,1.5214364528656006,5.512479769974508,-0.0,0.28574079275131226,-1.5969017187701624,-0.0,-0.017518989741802216,0.7883197069168091,-0.0,0.002867340110242367,0.7944350242614746,0.0,-0.0004848279058933258
954.0,1044.0,-0.2064,0.1131,9.5336,-0.0461,0.0247,-0.1248,-1.7328697643675746,0.0,2.1609952449798584,-2.2728984355926514,-0.0,1.4718173742294312,5.512495684414663,-0.0,0.28187236189842224,-1.596877400075094,-0.0,-0.014914769679307938,0.7883155345916748,-0.0,0.003349604783579707,0.7944433093070984,8.69850040885467e-08,-0.036650970578193665
954.0,1044.0,-0.2064,0.1131,9.5336,-0.0461,0.0247,-0.1248,-1.7328664265074671,0.0,2.1726083755493164,-2.2729387283325195,-0.0,1.5049889087677002,5.512467372208395,-0.0,0.2791551351547241,-1.5969141165362757,-0.0,-0.010557977482676506,0.7883673906326294,-0.0,-0.0035186053719371557,0.7944268584251404,2.1005854662029672e-13,0.014817452989518642
954.0,1044.0,-0.2064,0.1131,9.5336,-0.0461,0.0247,-0.1248,-1.7328907452025355,0.0,2.211643695831299,-2.2729828357696533,-0.0,1.544084072113037,5.5124432919319055,-0.0,0.2748957872390747,-1.596877400075094,-0.0,-0.006172052584588528,0.7883278727531433,-0.0,-0.0038329765666276217,0.7944068908691406,6.805629297573602e-21,0.018245043233036995
954.0,1044.0,-0.2064,0.1131,9.5336,-0.0461,0.0247,-0.1248,-1.7328821621336878,0.0,2.1785459518432617,-2.2729270458221436,-0.0,1.4949240684509277,5.512447106629171,-0.0,0.28993695974349976,-1.5968979040728968,-0.0,-0.006255436688661575,0.7883397340774536,-0.0,0.0070600351318717,0.7943829298019409,1.6434793757936214e-26,0.018795546144247055
954.0,1044.0,-0.2064,0.1131,9.5336,-0.0461,0.0247,-0.1248,-1.7328459225096644,0.0,2.1706066131591797,-2.2729392051696777,-0.0,1.5033984184265137,5.5124592063720605,-0.0,0.28923746943473816,-1.5968855063067835,-0.0,-0.014175858348608017,0.7883115410804749,-0.0,-0.006381724029779434,0.7944068908691406,3.9688092339906057e-32,-0.04376903176307678
954.0,1044.0,-0.2064,0.1131,9.5336,-0.0461,0.0247,-0.1248,-1.7328340015807093,0.0,2.1970126628875732,-2.272954225540161,-0.0,1.5376631021499634,5.512527870922842,-0.0,0.2833462953567505,-1.5969579855548304,-0.0,-0.00544190825894475,0.7883397936820984,-0.0,0.009833356365561485,0.7943945527076721,1.285844082550631e-39,0.022107575088739395
954.0,1044.0,-0.2064,0.1131,9.5336,-0.0461,0.0247,-0.1248,-1.7328740559019984,0.0,2.1854183673858643,-2.272946834564209,-0.0,1.5348846912384033,5.512463259487905,-0.0,0.28212952613830566,-1.5969422499286097,-0.0,-0.010120514780282974,0.7883155345916748,-0.0,-0.0024677955079823732,0.794459342956543,2.802596928649634e-45,-0.008785353973507881
954.0,1044.0,-0.2064,0.1131,9.5336,-0.0461,0.0247,-0.1248,-1.7328459225096644,0.0,2.1529295444488525,-2.2729663848876953,-0.0,1.500681757926941,5.512515771179952,-0.0,0.28225862979888916,-1.5969460646258753,-0.0,-0.016218390315771103,0.788223147392273,-0.0,0.0023515422362834215,0.7944511771202087,0.0,-0.012846073135733604
954.0,1044.0,-0.2064,0.1131,9.5336,-0.0461,0.0247,-0.1248,-1.7328740559019984,0.0,2.2064075469970703,-2.2729508876800537,-0.0,1.502685785293579,5.512503611832418,-0.0,0.2752232849597931,-1.596893612538473,-0.0,-0.02339998073875904,0.7882672548294067,-0.0,-0.010512100532650948,0.794427216053009,0.0,0.018495097756385803
954.0,1044.0,-0.2064,0.1131,9.5336,-0.0461,0.0247,-0.1248,-1.7328540287413539,0.0,2.153737783432007,-2.2729384899139404,-0.0,1.5199975967407227,5.512499856739797,-0.0,0.2932734191417694,-1.5969060103045862,-0.0,-0.009212082251906395,0.7882754802703857,-0.0,0.005263190716505051,0.794455349445343,0.0,-0.030367761850357056
954.0,1044.0,-0.2064,0.1131,9.5336,-0.0461,0.0247,-0.1248,-1.7329384289183558,0.0,2.1655898094177246,-2.272958278656006,-0.0,1.495767593383789,5.512499856739797,-0.0,0.28182950615882874,-1.5969584623919886,-0.0,-0.009921960532665253,0.7882915139198303,-0.0,0.005765171255916357,0.7944232225418091,0.0,-0.00016122497618198395
959.0,1059.0,-0.2979,0.2477,9.6329,-0.0423,0.0254,-0.1144,-1.7328697643675746,0.0,2.1862704753875732,-2.27297043800354,-0.0,1.4964203834533691,5.512455212860861,-0.0,0.27823084592819214,-1.5969579855548304,-0.0,-0.004585841670632362,0.7883074283599854,-0.0,-0.0032180019188672304,0.7944430112838745,0.0,-0.008300712332129478
959.0,1059.0,-0.2979,0.2477,9.6329,-0.0423,0.0254,-0.1144,-1.7328740559019984,0.0,2.161210298538208,-2.272906541824341,-0.0,1.5156114101409912,5.512471782952108,-0.0,0.27990928292274475,-1.596893612538473,-0.0,0.0002835168852470815,0.7883074283599854,-0.0,0.008838029578328133,0.7944231629371643,0.0,0.012685799971222878
959.0,1059.0,-0.2979,0.2477,9.6329,-0.0423,0.0254,-0.1144,-1.7328740559019984,0.0,2.1586833000183105,-2.2729384899139404,-0.0,1.468705654144287,5.512532043247976,-0.0,0.26560327410697937,-1.5969017187701624,-0.0,-0.015775252133607864,0.7883034348487854,-0.0,0.0032643121667206287,0.7944915294647217,0.0,-0.0013296324759721756
959.0,1059.0,-0.2979,0.2477,9.6329,-0.0423,0.0254,-0.1144,-1.7328578434386195,0.0,2.1794400215148926,-2.272942543029785,-0.0,1.4778099060058594,5.512479769974508,-0.0,0.28232699632644653,-1.5969098250018519,-0.0,-0.015515976585447788,0.7882512211799622,-0.0,-0.008610171265900135,0.7944391965866089,0.0,0.011383850127458572
959.0,1059.0,-0.2979,0.2477,9.6329,-0.0423,0.0254,-0.1144,-1.7328697643675746,0.0,2.2278056144714355,-2.272906541824341,-0.0,1.5098681449890137,5.512523877411642,-0.0,0.29167062044143677,-1.5969222227679651,-0.0,-0.0032920853700488806,0.7882992029190063,-0.0,0.004248984158039093,0.7944631576538086,0.0,-0.022747904062271118
959.0,1059.0,-0.2979,0.2477,9.6329,-0.0423,0.0254,-0.1144,-1.7328177891173304,0.0,2.1680281162261963,-2.2729508876800537,-0.0,1.5184646844863892,5.512475776463308,-0.0,0.2733133137226105,-1.5969341436969202,-0.0,-0.004503632429987192,0.788267195224762,-0.0,0.008765391074120998,0.794503390789032,0.0,-0.006797132082283497
959.0,1059.0,-0.2979,0.2477,9.6329,-0.0423,0.0254,-0.1144,-1.7328578434386195,0.0,2.2432146072387695,-2.272930383682251,-0.0,1.502009630203247,5.512503611832418,-0.0,0.2782743275165558,-1.5969422499286097,-0.0,-0.0020126551389694214,0.7883520722389221,-0.0,-0.00430461298674345,0.7944430112838745,0.0,0.025928432121872902
959.0,1059.0,-0.2979,0.2477,9.6329,-0.0423,0.0254,-0.1144,-1.73284973720693,0.0,2.193453073501587,-2.2728941440582275,-0.0,1.4977803230285645,5.512451040535726,-0.0,0.2727465331554413,-1.5969341436969202,-0.0,-0.00796771515160799,0.7883197069168091,-0.0,0.009422706440091133,0.7944430112838745,0.0,0.03921552002429962
959.0,1059.0,-0.2979,0.2477,9.6329,-0.0423,0.0254,-0.1144,-1.7328382931151332,0.0,2.1895482540130615,-2.2729623317718506,-0.0,1.5319054126739502,5.512539851456442,-0.0,0.282578706741333,-1.596961800252096,-0.0,0.006221838295459747,0.7883513569831848,-0.0,-0.000992189976386726,0.7944067716598511,0.0,-0.015337515622377396
959.0,1059.0,-0.2979,0.2477,9.6329,-0.0423,0.0254,-0.1144,-1.7328459225096644,0.0,2.2151389122009277,-2.2728705406188965,-0.0,1.5233335494995117,5.512519883900442,-0.0,0.27090781927108765,-1.5969255606280726,-0.0,-0.0037469319067895412,0.7882877588272095,-0.0,0.0008414559997618198,0.7945079207420349,0.0,-0.020477119833230972
959.0,1059.0,-0.2979,0.2477,9.6329,-0.0423,0.0254,-0.1144,-1.7328421078123988,0.0,2.1991848945617676,-2.2729387283325195,-0.0,1.4923794269561768,5.512539791851797,-0.0,0.27668505907058716,-1.5969379583941858,-0.0,-0.007062797900289297,0.7882835865020752,-0.0,0.000813433900475502,0.7944549918174744,0.0,-0.012184163555502892
959.0,1059.0,-0.2979,0.2477,9.6329,-0.0423,0.0254,-0.1144,-1.7328421078123988,0.0,2.174428701400757,-2.272918224334717,-0.0,1.483731746673584,5.512495684414663,-0.0,0.2666916251182556,-1.5969379583941858,-0.0,-0.008003247901797295,0.7883155941963196,-0.0,0.008017386309802532,0.7943703532218933,2.3790196792106144e-05,-0.024540254846215248
959.0,1059.0,-0.2979,0.2477,9.6329,-0.0423,0.0254,-0.1144,-1.7328821621336878,0.0,2.182722568511963,-2.2729148864746094,-0.0,1.501934289932251,5.512471723347463,-0.0,0.2877330183982849,-1.5969255606280726,-0.0,-0.026062186807394028,0.788303792476654,-0.0,-0.0017814943566918373,0.7944347858428955,2.3168453481048346e-05,-0.06876281648874283
959.0,1059.0,-0.2979,0.2477,9.6329,-0.0423,0.0254,-0.1144,-1.7328740559019984,0.0,2.219376802444458,-2.272974729537964,1.5052088048195245e-11,1.4851847887039185,5.512499499111929,-0.0,0.27967602014541626,-1.5969179312335413,-0.0,-0.0017009739531204104,0.788359522819519,-0.0,0.009942506439983845,0.7944108843803406,2.20340552914422e-05,-0.03944975137710571
950.0,1071.0,-0.3398,0.2411,9.5228,-0.0313,0.0261,-0.1246,-1.7328258953490199,0.0,2.213627338409424,-2.272954225540161,3.634902265054431e-17,1.5180680751800537,5.512491690903463,-0.0,0.26951864361763,-1.5969379583941858,-0.0,-0.0038085337728261948,0.7882713675498962,-0.0,0.004316645208746195,0.7944669723510742,3.187964830431156e-05,-0.02244100160896778
950.0,1071.0,-0.3398,0.2411,9.5228,-0.0313,0.0261,-0.1246,-1.7328864536681117,0.0,2.1903934478759766,-2.2729828357696533,8.777861658407004e-23,1.4962979555130005,5.512455153256216,-0.0,0.27129802107810974,-1.5968812147723597,-0.0,-0.009576903656125069,0.7882832288742065,-0.0,0.006816680543124676,0.794455349445343,3.078969530179165e-05,-0.014050920493900776
950.0,1071.0,-0.3398,0.2411,9.5228,-0.0313,0.0261,-0.1246,-1.7328821621336878,0.0,2.2172069549560547,-2.2729902267456055,2.8439154245827975e-30,1.5010825395584106,5.512527930527487,-0.0,0.2798817455768585,-1.596893612538473,-0.0,-0.009167458862066269,0.7883074283599854,-0.0,0.013720518909394741,0.7944751381874084,5.307521746544808e-07,0.023040542379021645
950.0,1071.0,-0.3398,0.2411,9.5228,-0.0313,0.0261,-0.1246,-1.7328421078123988,0.0,2.1873836517333984,-2.272918939590454,6.867722429746037e-36,1.4676628112792969,5.512487935810842,-0.0,0.27781879901885986,-1.5969298521624964,-0.0,-0.006429462693631649,0.788267195224762,-0.0,0.018058419227600098,0.794447124004364,1.2817041265128504e-12,0.01950087584555149
950.0,1071.0,-0.3398,0.2411,9.5228,-0.0313,0.0261,-0.1246,-1.732922693292135,0.0,2.219682455062866,-2.272954225540161,2.228064558276459e-43,1.4753773212432861,5.512483942299642,-0.0,0.27703556418418884,-1.5969541708575647,-0.0,-0.0074005210772156715,0.7883796095848083,-0.0,-0.010286272503435612,0.794430673122406,4.1525581505284375e-20,0.038559019565582275
950.0,1071.0,-0.3398,0.2411,9.5228,-0.0313,0.0261,-0.1246,-1.732865949670309,0.0,2.1634340286254883,-2.2729623317718506,-0.0,1.5323641300201416,5.512499499111929,-0.0,0.2678351402282715,-1.5969341436969202,-0.0,-0.0012950809905305505,0.7882594466209412,-0.0,0.0012002858566120267,0.7944389581680298,0.00016077468171715736,0.01948985457420349
950.0,1071.0,-0.3398,0.2411,9.5228,-0.0313,0.0261,-0.1246,-1.7328821621336878,0.0,2.1910481452941895,-2.272954225540161,-0.0,1.5071214437484741,5.5124631998832605,-0.0,0.27720069885253906,-1.5969374815570276,-0.0,-0.003150230273604393,0.7883115410804749,-0.0,-0.006662226282060146,0.7944751381874084,0.00017090464825741947,-0.0023130206391215324
950.0,1071.0,-0.3398,0.2411,9.5228,-0.0313,0.0261,-0.1246,-1.732865949670309,0.0,2.1743221282958984,-2.272974729537964,-0.0,1.511167049407959,5.5124631998832605,-0.0,0.2970876693725586,-1.5969417730914515,-0.0,0.0046941982582211494,0.7882959246635437,-0.0,-0.004832270089536905,0.7944710850715637,0.00015438877744600177,0.0037603836972266436
950.0,1071.0,-0.3398,0.2411,9.5228,-0.0313,0.0261,-0.1246,-1.732898851434225,0.0,2.2260658740997314,-2.2729387283325195,-0.0,1.465755581855774,5.512443172722616,-0.0,0.28016605973243713,-1.5969136396991175,-0.0,-0.014116750098764896,0.78835129737854,-0.0,0.00022080098278820515,0.7944914698600769,0.00014219258446246386,-0.013269299641251564
950.0,1071.0,-0.3398,0.2411,9.5228,-0.0313,0.0261,-0.1246,-1.732906003991598,0.0,2.2122960090637207,-2.2729461193084717,-0.0,1.5031843185424805,5.512451398163595,-0.0,0.27432218194007874,-1.5969222227679651,-0.0,-0.01984952762722969,0.7883278727531433,-0.0,0.0014965839218348265,0.7944549322128296,0.0001317823480349034,0.03778555616736412
950.0,1071.0,-0.3398,0.2411,9.5228,-0.0313,0.0261,-0.1246,-1.7329026661314906,0.0,2.1679744720458984,-2.2728984355926514,-0.0,1.4875280857086182,5.512423264771261,-0.0,0.2699083387851715,-1.5969303289996546,-0.0,-0.02101641148328781,0.7883074283599854,-0.0,-0.009262997657060623,0.7944549322128296,0.00012006225006189197,-0.011806327849626541
950.0,1071.0,-0.3398,0.2411,9.5228,-0.0313,0.0261,-0.1246,-1.7328821621336878,0.0,2.1886439323425293,-2.2729263305664062,-0.0,1.532968282699585,5.5124592063720605,-0.0,0.2799873948097229,-1.596877400075094,-0.0,-0.012960650026798248,0.788279116153717,-0.0,0.006448918487876654,0.7944350242614746,0.00011255468416493386,-0.009565187618136406
950.0,1071.0,-0.3398,0.2411,9.5228,-0.0313,0.0261,-0.1246,-1.7328902683653773,0.0,2.1910290718078613,-2.2729623317718506,-0.0,1.4411828517913818,5.5124472854431055,-0.0,0.286920964717865,-1.596877400075094,-0.0,-0.007210045587271452,0.7883278131484985,-0.0,-0.0024817322846502066,0.7944186329841614,0.0001059307687683031,0.015066218562424183
969.0,8190.0,-0.2112,0.3344,9.5198,-0.037,0.0206,-0.1234,-1.732922693292135,0.0,2.2078049182891846,-2.272902488708496,-0.0,1.5353946685791016,5.512423264771261,-0.0,0.28107866644859314,-1.59691030183901,-0.0,-0.014513577334582806,0.7882832288742065,-0.0,0.0006062486208975315,0.7943986654281616,9.822344873100519e-05,0.01619679667055607
969.0,8190.0,-0.2112,0.3344,9.5198,-0.037,0.0206,-0.1234,-1.7329427204527796,0.0,2.2076010704040527,-2.2729384899139404,-0.0,1.5018434524536133,5.512443530350485,-0.0,0.28616228699684143,-1.5969060103045862,-0.0,-0.002165022771805525,0.7882634997367859,-0.0,0.0015671763103455305,0.7944710850715637,9.314098861068487e-05,0.006130740977823734
969.0,8190.0,-0.2112,0.3344,9.5198,-0.037,0.0206,-0.1234,-1.7329145870604457,-0.0001094955368898809,2.17570161819458,-2.272958993911743,-0.0,1.478905200958252,5.5124472854431055,-0.0,0.28350505232810974,-1.5969179312335413,-0.0,-0.01829380728304386,0.7883836627006531,-0.0,-0.010844778269529343,0.7944425940513611,9.995546861318871e-05,-0.01972641609609127
969.0,8190.0,-0.2112,0.3344,9.5198,-0.037,0.0206,-0.1234,-1.7328783474364222,-0.00012242291995789856,2.1745996475219727,-2.2729146480560303,0.0011594821698963642,1.4916672706604004,5.5124592063720605,-0.0,0.27885952591896057,-1.5969579855548304,-0.0,-0.0010930229909718037,0.7883197069168091,-0.0,0.0043577030301094055,0.7945231795310974,0.00011536724923644215,-0.024837102741003036
969.0,8190.0,-0.2112,0.3344,9.5198,-0.037,0.0206,-0.1234,-1.7328983745970667,-0.00011465576972113922,2.2247252464294434,-2.2728588581085205,0.0018494229298084974,1.529767394065857,5.512439238816061,-0.0,0.2842411398887634,-1.59691030183901,-0.0,-0.006346259266138077,0.7882754802703857,-0.0,0.0013526055263355374,0.7944466471672058,0.00017246659263037145,0.01737932302057743
969.0,8190.0,-0.2112,0.3344,9.5198,-0.037,0.0206,-0.1234,-1.7329265079894007,-0.00010568030847935006,2.181321144104004,-2.2729392051696777,0.002238878281787038,1.478510856628418,5.512471723347463,-0.0,0.28125983476638794,-1.5968893210040491,-0.0,-0.012190992943942547,0.7882874011993408,-0.0,0.0012870897771790624,0.7944910526275635,0.0009679702925495803,0.013193980790674686
969.0,8190.0,-0.2112,0.3344,9.5198,-0.037,0.0206,-0.1234,-1.7328864536681117,-9.981977927964181e-05,2.205303430557251,-2.2728865146636963,0.0028994418680667877,1.5041254758834839,5.512511658459463,-0.0,0.2913041412830353,-1.5968979040728968,-0.0,-0.011379344388842583,0.7882992029190063,-0.0,0.0010040224296972156,0.7944628596305847,0.0006413203664124012,0.003959376364946365
969.0,8190.0,-0.2112,0.3344,9.5198,-0.037,0.0206,-0.1234,-1.7329026661314906,-9.457519627176225e-05,2.220344305038452,-2.2728183269500732,0.004439128562808037,1.52597975730896,5.512419569283285,-0.0,0.2869192659854889,-1.5968735853778284,-0.0,-0.009976770728826523,0.7882472276687622,-0.0,-0.00554150203242898,0.7945030927658081,0.0007147486321628094,0.019870653748512268
969.0,8190.0,-0.2112,0.3344,9.5198,-0.037,0.0206,-0.1234,-1.7329303226866664,-8.838345092954114e-05,2.1933236122131348,-2.2728183269500732,0.006417744792997837,1.5535608530044556,5.512443232327261,-0.0,0.2832711935043335,-1.5969260374652308,-0.0,0.0001238216646015644,0.7882955074310303,-0.0,-0.004397544078528881,0.7944910526275635,0.0006443443708121777,-0.007038855459541082
969.0,8190.0,-0.2112,0.3344,9.5198,-0.037,0.0206,-0.1234,-1.7328821621336878,-8.424678526353091e-05,2.1913206577301025,-2.272742748260498,0.007631431799381971,1.4913867712020874,5.51245545127944,-0.0,0.275470107793808,-1.596893612538473,-0.0,-0.010034942999482155,0.7882914543151855,-0.0,-0.0070811244659125805,0.7945072054862976,0.0004745336773339659,0.0013067107647657394
969.0,8190.0,-0.2112,0.3344,9.5198,-0.037,0.0206,-0.1234,-1.732865949670309,-7.929826097097248e-05,2.2071805000305176,-2.2726588249206543,0.010853799991309643,1.531957745552063,5.5124631998832605,-0.0,0.2679741680622101,-1.596893612538473,-0.0,-0.005402118433266878,0.7883513569831848,-0.0,0.0004639576654881239,0.7944750189781189,0.00035108940210193396,0.006885292008519173
969.0,8190.0,-0.2112,0.3344,9.5198,-0.037,0.0206,-0.1234,-1.7329470119872035,-7.595230999868363e-05,2.2033777236938477,-2.272594690322876,0.012771190144121647,1.5633586645126343,5.512487935810842,-0.0,0.27977490425109863,-1.5969060103045862,-0.0,-0.0073869358748197556,0.7883754968643188,-0.0,0.004942611325532198,0.7945030927658081,0.00029377828468568623,0.013256930746138096
969.0,8190.0,-0.2112,0.3344,9.5198,-0.037,0.0206,-0.1234,-1.732894083062643,-7.287724292837083e-05,2.2100393772125244,-2.272459030151367,0.014891196973621845,1.5110501050949097,5.5124754188354395,-0.0,0.2859192192554474,-1.5969260374652308,-0.0,-0.0037943969946354628,0.7883471846580505,-0.0,-0.0025036833249032497,0.794486939907074,0.0002525550371501595,0.05293169245123863
976.0,1074.0,-0.3039,0.3051,9.6353,-0.0333,0.0279,-0.1164,-1.732938905755514,-5.7777178881224245e-05,2.163787841796875,-2.2722833156585693,0.019066860899329185,1.5126368999481201,5.5124754188354395,-0.0,0.2665151059627533,-1.5969341436969202,-0.0,-0.011013628914952278,0.7883034348487854,-0.0,0.014873997308313847,0.7944750785827637,0.0002127513289451599,0.06922311335802078
976.0,1074.0,-0.3039,0.3051,9.6353,-0.0333,0.0279,-0.1164,-1.7328335247435511,-5.54890648345463e-05,2.1971349716186523,-2.2722156047821045,0.02015182562172413,1.556318998336792,5.51245145776824,-0.0,0.2866212725639343,-1.5968979040728968,-0.0,-0.00812055915594101,0.7883033752441406,-0.0,-0.0010168221779167652,0.7944711446762085,0.00015870296920184046,0.017068712040781975
976.0,1074.0,-0.3039,0.3051,9.6353,-0.0333,0.0279,-0.1164,-1.7328740559019984,-5.350963692762889e-05,2.2123165130615234,-2.272115707397461,0.022151246666908264,1.558114767074585,5.512455689698019,-0.0,0.28426656126976013,-1.596877400075094,-0.0,-0.015629228204488754,0.7882595062255859,-0.0,8.667027577757835e-05,0.7944549322128296,0.00011587347398744896,-0.01179766096174717
976.0,1074.0,-0.3039,0.3051,9.6353,-0.0333,0.0279,-0.1164,-1.7328907452025355,-5.108011100674048e-05,2.1856436729431152,-2.271871566772461,0.027155105024576187,1.5276825428009033,5.5124754188354395,-6.269098958000541e-05,0.27417030930519104,-1.5969017187701624,-0.0,-0.005163159687072039,0.7882951498031616,-0.0,-0.006075303070247173,0.7944669723510742,7.63510906836018e-05,0.03155189007520676
976.0,1074.0,-0.3039,0.3051,9.6353,-0.0333,0.0279,-0.1164,-1.732854505578512,-4.6028335418668576e-06,2.171118974685669,-2.2717325687408447,0.03050241805613041,1.5701830387115479,5.512395369797506,-6.123432103777304e-05,0.28012827038764954,-1.5968979040728968,-0.0,-0.011741719208657742,0.7882794737815857,-0.0,-0.009454455226659775,0.7944628000259399,-8.058322418946773e-05,0.007576541975140572
976.0,1074.0,-0.3039,0.3051,9.6353,-0.0333,0.0279,-0.1164,-1.7328335247435511,-1.1115302255004789e-11,2.204241991043091,-2.271580219268799,0.03432605788111687,1.5500508546829224,5.5124032376106165,-8.992452421807684e-06,0.2875502109527588,-1.5968979040728968,6.041140920842736e-09,-0.017406068742275238,0.7883114814758301,-0.0,0.0030047246254980564,0.7944511771202087,-0.0007454841397702694,-0.011420106515288353
976.0,1074.0,-0.3039,0.3051,9.6353,-0.0333,0.0279,-0.1164,-1.7328783474364222,-3.601216358244217e-19,2.2307844161987305,-2.271216869354248,0.03963230550289154,1.5067744255065918,5.512423562794485,-0.000325337634421885,0.2838531732559204,-1.5969341436969202,1.0979474843403683e-13,-0.0028528752736747265,0.7883551120758057,-0.0,0.006479145959019661,0.7944630980491638,-0.001188066671602428,0.0245466660708189
976.0,1074.0,-0.3039,0.3051,9.6353,-0.0333,0.0279,-0.1164,-1.7328421078123988,2.825331648637075e-05,2.165195941925049,-2.270993709564209,0.044488001614809036,1.5964653491973877,5.512435722142019,-0.00032502319663763046,0.29474782943725586,-1.5968859831439417,3.056176599138036e-17,-0.015944844111800194,0.7882955074310303,-0.0,0.001956131076440215,0.7944027185440063,-0.0010308207711204886,-0.052506688982248306
976.0,1074.0,-0.3039,0.3051,9.6353,-0.0333,0.0279,-0.1164,-1.7328783474364222,4.0158076444640756e-05,2.2243289947509766,-2.2705540657043457,0.05096195638179779,1.6047115325927734,5.512463676720419,-0.0003042565658688545,0.26943665742874146,-1.5968697706805628,5.554451170324308e-22,-0.012646677903831005,0.7883155345916748,-0.0,-7.559004734503105e-05,0.7944150567054749,-0.0009585518855601549,-0.021756896749138832
976.0,1074.0,-0.3039,0.3051,9.6353,-0.0333,0.0279,-0.1164,-1.7328340015807093,6.257923814700916e-05,2.162411689758301,-2.270298719406128,0.05406961962580681,1.5779345035552979,5.512423562794485,-0.0003037157584913075,0.2862894535064697,-1.5968778769122522,1.5461020466894695e-25,-0.0026983385905623436,0.7883074879646301,-0.0,-0.0007127605495043099,0.7943664789199829,-0.0009444818715564907,0.01748100481927395
976.0,1074.0,-0.3039,0.3051,9.6353,-0.0333,0.0279,-0.1164,-1.732821603814596,0.0003929203958250582,2.2075839042663574,-2.2699074745178223,0.057171404361724854,1.5618860721588135,5.512435722142019,-0.00027063998277299106,0.2807263135910034,-1.5968335310565394,4.3036318962135695e-29,0.0013374490663409233,0.7883155345916748,-0.0,0.0040811109356582165,0.794399082660675,-0.0009670003200881183,0.007549401372671127
976.0,1074.0,-0.3039,0.3051,9.6353,-0.0333,0.0279,-0.1164,-1.7328621349730433,0.0002939384721685201,2.2560033798217773,-2.269460439682007,0.0631432756781578,1.5783371925354004,5.512467610626974,-0.00023526234144810587,0.2923457622528076,-1.596893612538473,7.821638391325727e-34,0.00028285710141062737,0.7883114814758301,-0.0,0.009424091316759586,0.7943710088729858,-0.0009356343070976436,-0.046379249542951584
976.0,1074.0,-0.3039,0.3051,9.6353,-0.0333,0.0279,-0.1164,-1.7328745327391566,0.0002949234039988369,2.210334539413452,-2.269036054611206,0.06966941058635712,1.6066840887069702,5.512415337353506,-0.00021425716113299131,0.2838989198207855,-1.5968535582171839,2.177181729478668e-37,-0.0056902095675468445,0.7883034348487854,-0.0,0.008507098071277142,0.7943870425224304,-0.000901032704859972,-0.04105206951498985
976.0,1074.0,-0.3039,0.3051,9.6353,-0.0333,0.0279,-0.1164,-1.7328583202757777,0.00025340088177472353,2.218313217163086,-2.268632650375366,0.07580594718456268,1.6191813945770264,5.512427556305685,-0.00018406884919386357,0.2927040457725525,-1.5968816916095179,6.060335598511969e-41,-0.00947984866797924,0.7882871031761169,-0.0,-0.017856119200587273,0.7942903637886047,-0.0008074900251813233,0.018513591960072517
926.0,1068.0,-0.4181,0.1262,9.8297,-0.0357,0.087,-0.1297,-1.7328821621336878,0.00021335102792363614,2.189213514328003,-2.267982244491577,0.08243341743946075,1.6179975271224976,5.5124438283737085,-0.0001581268006702885,0.27558693289756775,-1.5968659559832972,1.401298464324817e-45,-0.009884070605039597,0.7883234620094299,-0.0,-0.0044776443392038345,0.7943710088729858,-0.0006288529257290065,-0.0472860261797905
926.0,1068.0,-0.4181,0.1262,9.8297,-0.0357,0.087,-0.1297,-1.7328382931151332,0.00019074176088906825,2.210923671722412,-2.2674710750579834,0.08708427101373672,1.6111397743225098,5.512355315476217,-0.0001715880207484588,0.2787119746208191,-1.5968979040728968,0.0,-0.026582248508930206,0.7883513569831848,-0.0,-0.002941443817690015,0.7943629622459412,-0.0005439880769699812,-0.017685525119304657
926.0,1068.0,-0.4181,0.1262,9.8297,-0.0357,0.087,-0.1297,-1.732854505578512,0.00017246555944439024,2.1765549182891846,-2.266927480697632,0.09142258763313293,1.5986697673797607,5.512415337353506,-0.00015670852735638618,0.2816256582736969,-1.5968697706805628,0.0,-0.01124093122780323,0.7883315086364746,-0.0,-0.011057636700570583,0.7943911552429199,-0.0004937637131661177,0.017785606905817986
926.0,1068.0,-0.4181,0.1262,9.8297,-0.0357,0.087,-0.1297,-1.732842584649557,0.00017841640510596335,2.2052791118621826,-2.2661328315734863,0.10148422420024872,1.614330768585205,5.51241152265624,-0.00014040872338227928,0.2775358557701111,-1.5968621412860315,0.0,-0.014126863330602646,0.7883114814758301,-0.0,-0.007959787733852863,0.7943387031555176,-0.0003874606336466968,-0.02221519500017166
926.0,1068.0,-0.4181,0.1262,9.8297,-0.0357,0.087,-0.1297,-1.732854505578512,0.00016444486391264945,2.1676039695739746,-2.2654740810394287,0.11144725233316422,1.6228034496307373,5.51242350318984,-0.00015194964362308383,0.2738366723060608,-1.5969141165362757,0.0,-0.0033574409317225218,0.7882955074310303,-0.0,0.003105234820395708,0.7943629622459412,-0.00033359811641275883,-0.003493755590170622
926.0,1068.0,-0.4181,0.1262,9.8297,-0.0357,0.087,-0.1297,-1.7328301868834437,8.800264913588762e-05,2.2106008529663086,-2.2645115852355957,0.12464123219251633,1.6834505796432495,5.5123756406600855,-0.00023234091349877417,0.2820374667644501,-1.5968535582171839,0.0,-0.013465313240885735,0.7882911562919617,-0.0,-0.004121542442589998,0.7943510413169861,-0.00028143549570813775,-0.020005827769637108
926.0,1068.0,-0.4181,0.1262,9.8297,-0.0357,0.087,-0.1297,-1.7328459225096644,5.136237450642511e-05,2.241414785385132,-2.2637085914611816,0.1370452642440796,1.6821675300598145,5.512395608216085,-0.0002447859733365476,0.2839043140411377,-1.5968497435199183,0.0,-0.006670480128377676,0.7883356809616089,-0.0,0.0025317086838185787,0.7943428158760071,-0.00025189598090946674,0.014062433503568172
926.0,1068.0,-0.4181,0.1262,9.8297,-0.0357,0.087,-0.1297,-1.7328340015807093,2.3657636120333336e-05,2.1936583518981934,-2.262840747833252,0.14906096458435059,1.6762231588363647,5.512395608216085,-0.00021948279754724354,0.2796955406665802,-1.5969017187701624,0.0,-0.016433613374829292,0.7882992625236511,-0.0,0.007516165263950825,0.7943628430366516,-0.0002279681502841413,0.013226601295173168
926.0,1068.0,-0.4181,0.1262,9.8297,-0.0357,0.087,-0.1297,-1.7328583202757777,4.2811036109924316e-05,2.21956467628479,-2.2616279125213623,0.15885110199451447,1.7021830081939697,5.512359607010641,-0.0003735564823728055,0.2833566963672638,-1.5969017187701624,0.0,-0.0003367229364812374,0.7882829904556274,-0.0,0.005624691490083933,0.7943225502967834,-0.00020234135445207357,-0.016948413103818893
926.0,1068.0,-0.4181,0.1262,9.8297,-0.0357,0.087,-0.1297,-1.7328502140440882,5.75995072722435e-05,2.2363080978393555,-2.260681629180908,0.16743658483028412,1.6990892887115479,5.512355553894796,-0.00036362020182423294,0.28241682052612305,-1.5968697706805628,0.0,-0.00671593751758337,0.7883155345916748,-0.0,0.00044015562161803246,0.7943106889724731,-0.00018660853675100952,0.03681163862347603
926.0,1068.0,-0.4181,0.1262,9.8297,-0.0357,0.087,-0.1297,-1.7328583202757777,5.6197091907961294e-05,2.2433533668518066,-2.259627103805542,0.18511492013931274,1.7287278175354004,5.512355553894796,-0.0003025923215318471,0.26912182569503784,-1.5968859831439417,0.0,-0.004528481978923082,0.7882955074310303,-0.0,0.002322904299944639,0.7943307757377625,-0.00017314574506599456,-0.01851334422826767
926.0,1068.0,-0.4181,0.1262,9.8297,-0.0357,0.087,-0.1297,-1.7328626118102015,-4.3943702621618286e-05,2.2094790935516357,-2.2580370903015137,0.20248553156852722,1.7670378684997559,5.51238368728713,-0.000467156118247658,0.2741331160068512,-1.596865479146139,0.0,-0.009654629975557327,0.7883155345916748,-0.0,0.001128700445406139,0.7943751811981201,-0.00015795203216839582,0.016785506159067154
926.0,1068.0,-0.4181,0.1262,9.8297,-0.0357,0.087,-0.1297,-1.7328621349730433,-0.00011584672029130161,2.230860471725464,-2.256779432296753,0.20902401208877563,1.8090927600860596,5.512291478901663,-0.001333554508164525,0.27820736169815063,-1.5968697706805628,0.0,-0.00577549310401082,0.7883234620094299,-0.0,0.0007738206768408418,0.7943469285964966,-0.00014819861098658293,0.018078645691275597
964.0,1024.0,-0.4283,0.0766,9.8321,-0.0339,0.175,-0.121,-1.7328740559019984,-0.0005415054038167,2.2084035873413086,-2.2549941539764404,0.22074247896671295,1.767909288406372,5.512331414013662,-0.0009168768301606178,0.2652588188648224,-1.5968855063067835,0.0,0.007155385334044695,0.7882951498031616,-0.0,0.008112911134958267,0.7944031357765198,-0.0001369252713629976,-0.009308026172220707
964.0,1024.0,-0.4283,0.0766,9.8321,-0.0339,0.175,-0.121,-1.7329026661314906,-0.000321614759741351,2.1831858158111572,-2.253688335418701,0.23659402132034302,1.7923660278320312,5.5123639581497095,-0.0005771338474005461,0.2682412266731262,-1.5968497435199183,0.0,-0.0007194934878498316,0.7883356213569641,-0.0,-0.006884632632136345,0.7943751811981201,-0.00012953508121427149,-0.06781056523323059
964.0,1024.0,-0.4283,0.0766,9.8321,-0.0339,0.175,-0.121,-1.7328907452025355,-0.00025152828311547637,2.244205951690674,-2.2522387504577637,0.24874484539031982,1.8375871181488037,5.512335526734152,-0.0006343728164210916,0.27277714014053345,-1.5968940893756312,0.0,-0.006417165044695139,0.7883356213569641,-0.0,0.010460883378982544,0.7943869829177856,-0.00012290175072848797,-0.060036178678274155
964.0,1024.0,-0.4283,0.0766,9.8321,-0.0339,0.175,-0.121,-1.7328459225096644,-0.0001965794072020799,2.211306095123291,-2.2501139640808105,0.2563447952270508,1.8502206802368164,5.512327420502462,-0.0013621585676446557,0.2660512328147888,-1.5968979040728968,0.0,0.007202344015240669,0.7882992029190063,-0.0,-0.0023212223313748837,0.7943751811981201,-0.00011504659050842747,0.01084396243095398
964.0,1024.0,-0.4283,0.0766,9.8321,-0.0339,0.175,-0.121,-1.7328335247435511,-0.00016890712140593678,2.223663091659546,-2.2484641075134277,0.275372713804245,1.888656497001648,5.512303638249197,-0.0007830225513316691,0.2736739218235016,-1.5968535582171839,0.0,-0.007962740957736969,0.7883356809616089,-0.0,0.007682958152145147,0.7943669557571411,-0.00010978398495353758,0.011356202885508537
964.0,1024.0,-0.4283,0.0766,9.8321,-0.0339,0.175,-0.121,-1.7328664265074671,-0.0001110510784201324,2.241065502166748,-2.246774673461914,0.294495165348053,1.917196273803711,5.512267279415884,-0.0006794041255488992,0.2695009410381317,-1.5968378225909632,0.0,-0.007704223971813917,0.7883437275886536,-0.0,-0.007031499408185482,0.7943869829177856,-0.00010498196206754074,-0.042104724794626236
964.0,1024.0,-0.4283,0.0766,9.8321,-0.0339,0.175,-0.121,-1.7328907452025355,-4.350286690169014e-05,2.215513229370117,-2.2443504333496094,0.30000966787338257,1.9163844585418701,5.512275445252218,-0.005663170479238033,0.26299482583999634,-1.5968578497516077,0.0,0.01631489023566246,0.7883356809616089,-0.0,1.8382910639047623e-05,0.7943588495254517,-6.749114982085302e-05,-0.0606592521071434
964.0,1024.0,-0.4283,0.0766,9.8321,-0.0339,0.175,-0.121,-1.7328578434386195,-7.047363760648295e-05,2.181267261505127,-2.2424821853637695,0.31461551785469055,1.9199174642562866,5.512247490673818,-0.012830120511353016,0.2680104374885559,-1.5968535582171839,0.0,0.01257721334695816,0.7882952094078064,-0.0,0.006253876257687807,0.7944315075874329,-6.444918835768476e-05,-0.05572764575481415
964.0,1024.0,-0.4283,0.0766,9.8321,-0.0339,0.175,-0.121,-1.7328697643675746,-3.283358091721311e-05,2.2242558002471924,-2.240492105484009,0.3358311653137207,1.9647929668426514,5.512123334198751,-0.01481819897890091,0.25403815507888794,-1.5968816916095179,0.0,-0.006443631835281849,0.7883471846580505,-0.0,0.002470707055181265,0.7943751811981201,-6.179418414831161e-05,-0.10648897290229797
964.0,1024.0,-0.4283,0.0766,9.8321,-0.0339,0.175,-0.121,-1.7328821621336878,-2.7674734155880287e-05,2.2010278701782227,-2.237816095352173,0.3502650260925293,1.9819059371948242,5.511947142868795,-0.013920077122747898,0.2491416037082672,-1.5968697706805628,0.0,0.01099594496190548,0.7882552146911621,-0.0,-0.0047936816699802876,0.794399082660675,-5.857667565578595e-05,-0.06982588768005371
964.0,1024.0,-0.4283,0.0766,9.8321,-0.0339,0.175,-0.121,-1.7328697643675746,-2.5337340048281476e-05,2.2512214183807373,-2.2356035709381104,0.3576659858226776,2.029655933380127,5.5119032738502405,-0.01131619792431593,0.26332271099090576,-1.5969060103045862,0.0,0.015282196924090385,0.7883594036102295,-0.0,0.002878834493458271,0.7943345904350281,-5.637525100610219e-05,-0.07649778574705124
964.0,1024.0,-0.4283,0.0766,9.8321,-0.0339,0.175,-0.121,-1.7328902683653773,-4.523227835306898e-05,2.2101082801818848,-2.232635974884033,0.37894493341445923,2.052405834197998,5.511855351715841,-0.005936129484325647,0.2539956271648407,-1.5968168417560022,0.0,0.01315067894756794,0.7883114814758301,-0.0,0.0030853438656777143,0.7943710088729858,-6.316990038612857e-05,-0.05249004438519478
964.0,1024.0,-0.4283,0.0766,9.8321,-0.0339,0.175,-0.121,-1.732894083062643,-4.233232175465673e-05,2.1594126224517822,-2.2303404808044434,0.3937094807624817,2.079355001449585,5.5118353245551965,-0.002986003877595067,0.2530306875705719,-1.5968855063067835,0.0,0.027182109653949738,0.7882832884788513,-0.0,-0.0010225404985249043,0.7943668961524963,-6.219612987479195e-05,-0.06604176759719849
987.0,1081.0,-0.7484,-0.1113,10.5188,-0.0217,0.3647,-0.1261,-1.7328092060484828,-5.9312395023880526e-05,2.26530122756958,-2.227980136871338,0.4088592827320099,2.0873818397521973,5.511791515141287,-0.0018249745480716228,0.2557055950164795,-1.5968659559832972,0.0,0.018563808873295784,0.7883155345916748,-0.0,-0.00045551839866675436,0.7943869829177856,-5.0099260988645256e-05,-0.11317399144172668
987.0,1081.0,-0.7484,-0.1113,10.5188,-0.0217,0.3647,-0.1261,-1.7328945598998011,-5.452265759231523e-05,2.2636170387268066,-2.2247371673583984,0.4209930896759033,2.0665688514709473,5.511815595417776,-0.0030234060250222683,0.25639674067497253,-1.5968816916095179,0.0,0.016442079097032547,0.788271427154541,-0.0,-0.008210258558392525,0.7943387031555176,-4.083206689431407e-11,-0.11625780165195465
987.0,1081.0,-0.7484,-0.1113,10.5188,-0.0217,0.3647,-0.1261,-1.7328983745970667,-6.853509694337845e-05,2.2507708072662354,-2.2221100330352783,0.4335770606994629,2.1355862617492676,5.511791157513418,-0.003472226671874523,0.24937908351421356,-1.5968621412860315,0.0,0.023289192467927933,0.7882348895072937,-0.0,-0.0025574001483619213,0.7943469285964966,-9.86046340196451e-17,-0.08666397631168365
987.0,1081.0,-0.7484,-0.1113,10.5188,-0.0217,0.3647,-0.1261,-1.732926984826559,-0.00015981716569513083,2.1980929374694824,-2.2194461822509766,0.44633960723876953,2.0574817657470703,5.51172702291564,-0.002223878400400281,0.24932849407196045,-1.5968897978412073,0.0,0.015718072652816772,0.7882554531097412,-0.0,-0.003922681324183941,0.7943788170814514,-2.381186108740487e-22,-0.13508084416389465
987.0,1081.0,-0.7484,-0.1113,10.5188,-0.0217,0.3647,-0.1261,-1.7329145870604457,-0.0001429351541446522,2.252119302749634,-2.2157392501831055,0.4663469195365906,2.1861071586608887,5.511699127941885,-0.0015920515870675445,0.254783570766449,-1.5968335310565394,4.901527794753946e-11,0.02610015496611595,0.7883315086364746,-0.0,0.015230676159262657,0.7943588495254517,-7.714739707949484e-30,-0.07576236128807068
987.0,1081.0,-0.7484,-0.1113,10.5188,-0.0217,0.3647,-0.1261,-1.7328821621336878,-0.00013241986744105816,2.2290563583374023,-2.2129178047180176,0.473588764667511,2.212141990661621,5.511719512730398,-0.0016372507670894265,0.24824470281600952,-1.5968897978412073,1.364358404493159e-14,0.033356595784425735,0.7883350849151611,-0.0,-0.0022991967853158712,0.7943588495254517,-1.863018927400573e-35,-0.051208578050136566
987.0,1081.0,-0.7484,-0.1113,10.5188,-0.0217,0.3647,-0.1261,-1.7329265079894007,-0.00012334572966210544,2.2451510429382324,-2.2099833488464355,0.4882788062095642,2.2296090126037598,5.51166312673644,-0.0026871133595705032,0.24564018845558167,-1.5968459288226526,3.79774170218611e-18,0.02584213577210903,0.7883350849151611,-0.0,7.159681990742683e-05,0.7943587899208069,-4.4990088495612577e-41,-0.10786473751068115
987.0,1081.0,-0.7484,-0.1113,10.5188,-0.0217,0.3647,-0.1261,-1.7329303226866664,-0.00011301950144115835,2.179506540298462,-2.206066846847534,0.506215512752533,2.2488720417022705,5.511691260128774,-0.0019403964979574084,0.2398466020822525,-1.5968621412860315,6.902207278902178e-23,0.01879509538412094,0.7883431315422058,-0.0,-0.0036192014813423157,0.7943952679634094,0.0,-0.10531032830476761
987.0,1081.0,-0.7484,-0.1113,10.5188,-0.0217,0.3647,-0.1261,-1.7328902683653773,-0.00010634238424245268,2.221919059753418,-2.202996253967285,0.5157701969146729,2.242210865020752,5.511627185135641,-0.0035305600613355637,0.23499663174152374,-1.596821133290426,1.9212545568542414e-26,0.03393806889653206,0.7883277535438538,-0.0,0.016059258952736855,0.7943428158760071,0.0,-0.06979970633983612
987.0,1081.0,-0.7484,-0.1113,10.5188,-0.0217,0.3647,-0.1261,-1.732950349847311,-0.00018195663869846612,2.2627415657043457,-2.1988210678100586,0.5265231132507324,2.2390122413635254,5.511598992138662,-0.008035257458686829,0.23083731532096863,-1.5968697706805628,3.4917852804170306e-31,0.0410081148147583,0.7882673144340515,-0.0,-0.010456115938723087,0.7943505644798279,0.0,-0.14745241403579712
987.0,1081.0,-0.7484,-0.1113,10.5188,-0.0217,0.3647,-0.1261,-1.7329346142210902,-0.0011497759260237217,2.2279553413391113,-2.195618152618408,0.5470600724220276,2.238637685775757,5.511587130814352,-0.007039360702037811,0.23318278789520264,-1.5968335310565394,9.719513050814178e-35,0.04917406290769577,0.7883315086364746,-0.0,-0.007084936834871769,0.7943791747093201,0.0,-0.16756987571716309
987.0,1081.0,-0.7484,-0.1113,10.5188,-0.0217,0.3647,-0.1261,-1.732946058312887,-0.0009707289282232523,2.2646656036376953,-2.192328691482544,0.5558304190635681,2.2771642208099365,5.511434602528372,-0.006683315150439739,0.2244003862142563,-1.59682542482485,2.7054620019592593e-38,0.033013299107551575,0.7882832884788513,-0.0,0.0049857404083013535,0.7943668961524963,0.0,-0.11830964684486389
987.0,1081.0,-0.7484,-0.1113,10.5188,-0.0217,0.3647,-0.1261,-1.7329870663084925,-0.0008307383395731449,2.2630465030670166,-2.187758207321167,0.5603162050247192,2.230682849884033,5.511447179108419,-0.00959586538374424,0.22087408602237701,-1.59682542482485,4.918557609780108e-43,0.04267888516187668,0.7883074879646301,-0.0,-0.0033113034442067146,0.7944031953811646,0.0,-0.1361982524394989
987.0,1081.0,-0.7484,-0.1113,10.5188,-0.0217,0.3647,-0.1261,-1.7329703770079554,-0.0023341213818639517,2.2755520343780518,-2.1842522621154785,0.5733447670936584,2.3118491172790527,5.5114431259925745,-0.008548518642783165,0.22385834157466888,-1.5968416372882288,0.0,0.043889500200748444,0.788343071937561,-0.0,0.010012042708694935,0.7944073677062988,0.0,-0.13965418934822083
1041.0,1050.0,-1.0756,0.3224,10.3179,-0.0405,0.569,-0.1411,-1.7329865894713343,-0.0024593165144324303,2.2444779872894287,-2.1807594299316406,0.5866487622261047,2.327740430831909,5.5113388178642175,-0.003989218734204769,0.21705439686775208,-1.5968459288226526,0.0,0.04829005151987076,0.7883431315422058,-0.0,0.009124217554926872,0.7943788170814514,0.0,-0.12896275520324707
1041.0,1050.0,-1.0756,0.3224,10.3179,-0.0405,0.569,-0.1411,-1.7329660854735316,-0.001196538214571774,2.243424892425537,-2.176046371459961,0.5988008975982666,2.2730712890625,5.5113470433051965,-0.001563588040880859,0.23184585571289062,-1.5968621412860315,0.0,0.04555239528417587,0.7883274555206299,-0.0,0.001175127923488617,0.7944150567054749,0.0,-0.13298968970775604
1041.0,1050.0,-1.0756,0.3224,10.3179,-0.0405,0.569,-0.1411,-1.7329780064024867,-0.0007981944945640862,2.296670913696289,-2.172513008117676,0.6056540608406067,2.274383068084717,5.5113351223762415,-0.0009719255613163114,0.2263183891773224,-1.5968578497516077,0.0,0.04785861819982529,0.7882832884788513,-0.0,0.010676644742488861,0.7943869829177856,0.0,-0.11361557245254517
1041.0,1050.0,-1.0756,0.3224,10.3179,-0.0405,0.569,-0.1411,-1.7330104313292445,-0.0006033544195815921,2.246913194656372,-2.1688120365142822,0.6100021004676819,2.2684836387634277,5.511254656105795,-0.00125032605137676,0.21518217027187347,-1.5968621412860315,0.0,0.038987524807453156,0.7883155345916748,-0.0,-0.002031730255112052,0.7944150567054749,0.0,-0.18749818205833435
1041.0,1050.0,-1.0756,0.3224,10.3179,-0.0405,0.569,-0.1411,-1.733030458489889,-0.0031174386385828257,2.2243494987487793,-2.1639318466186523,0.6306277513504028,2.3188602924346924,5.511334824353018,-0.0014234351692721248,0.22262588143348694,-1.5968378225909632,0.0,0.03941943868994713,0.7883309721946716,-0.0,-0.007150060497224331,0.7943869829177856,0.0,-0.10565854609012604
1041.0,1050.0,-1.0756,0.3224,10.3179,-0.0405,0.569,-0.1411,-1.7330385647215785,-0.002727141138166189,2.288144588470459,-2.1602063179016113,0.6351497173309326,2.3083913326263428,5.511282849102773,-0.0009619563934393227,0.22235530614852905,-1.596882168446676,0.0,0.06605561077594757,0.7883114814758301,-0.0,0.003986208699643612,0.7943546772003174,0.0,-0.18530938029289246
1041.0,1050.0,-1.0756,0.3224,10.3179,-0.0405,0.569,-0.1411,-1.7330829105772914,-0.0028998181223869324,2.304723024368286,-2.15496563911438,0.6310971975326538,2.2821619510650635,5.511270928173818,-0.004772148095071316,0.20880155265331268,-1.596813980733053,0.0,0.05219927057623863,0.7882673144340515,-0.0,-0.0023033348843455315,0.7943829298019409,0.0,-0.1763855367898941
1041.0,1050.0,-1.0756,0.3224,10.3179,-0.0405,0.569,-0.1411,-1.733126779595846,-0.0036064605228602886,2.2927348613739014,-2.151143789291382,0.6432257294654846,2.2740824222564697,5.511275338917532,-0.002756622387096286,0.2099655717611313,-1.5968292395221155,0.0,0.066541388630867,0.7882952094078064,-0.0,-0.002433936344459653,0.7943949699401855,0.0,-0.15833759307861328
1041.0,1050.0,-1.0756,0.3224,10.3179,-0.0405,0.569,-0.1411,-1.7330738506712855,-0.002742737764492631,2.3134002685546875,-2.1472370624542236,0.6543325185775757,2.31101655960083,5.511226880341329,-0.0012171692214906216,0.22124238312244415,-1.5968659559832972,7.058463233988732e-05,0.06401161849498749,0.7882993817329407,-0.0,-0.00227163964882493,0.794390857219696,0.0,-0.16728125512599945
1041.0,1050.0,-1.0756,0.3224,10.3179,-0.0405,0.569,-0.1411,-1.7331510982909144,-0.0007751627708785236,2.277406692504883,-2.1420199871063232,0.6594868302345276,2.3310787677764893,5.511255252152242,-0.0006161966593936086,0.20569351315498352,-1.5968378225909632,6.647041300311685e-05,0.05361557379364967,0.7882874011993408,-0.0,-0.010258438065648079,0.7943669557571411,-1.7857669509790952e-10,-0.13330110907554626
1041.0,1050.0,-1.0756,0.3224,10.3179,-0.0405,0.569,-0.1411,-1.733142992059225,-0.0004552770114969462,2.30863881111145,-2.137989044189453,0.6608531475067139,2.3859806060791016,5.511271226197042,-0.0009591429843567312,0.20718742907047272,-1.5968292395221155,6.364985893014818e-05,0.05880117416381836,0.7883075475692749,-0.0,-0.009297079406678677,0.7943628430366516,-4.312416788039054e-16,-0.1666170209646225
1041.0,1050.0,-1.0756,0.3224,10.3179,-0.0405,0.569,-0.1411,-1.7331305942931117,-0.00029141196864657104,2.3074281215667725,-2.1339478492736816,0.6667531728744507,2.330331325531006,5.511251199036398,-0.0016806090716272593,0.2127838432788849,-1.5968778769122522,6.105894135544077e-05,0.04550415650010109,0.7883471250534058,-0.0,-0.001854468835517764,0.7944233417510986,-1.041398075906975e-21,-0.12049295008182526
1041.0,1050.0,-1.0756,0.3224,10.3179,-0.0405,0.569,-0.1411,-1.7331506214537562,-0.000759631919208914,2.2761707305908203,-2.1287028789520264,0.6802569627761841,2.355856418609619,5.511238980084219,-0.0008932931814342737,0.19569826126098633,-1.5968740622149866,5.791557487100363e-05,0.04716808721423149,0.7883753180503845,-0.0,-0.008181433193385601,0.794407308101654,-3.3739972481934493e-29,-0.120011106133461
785.0,646.0,-1.5428,0.2052,9.9446,-0.0463,0.6585,-0.1251,-1.7331987820067347,-0.0008730458794161677,2.310997486114502,-2.1246535778045654,0.6738289594650269,2.2973217964172363,5.511167037277975,-0.003933006431907415,0.20674726366996765,-1.5968263784991663,5.5762589909136295e-05,0.05647715553641319,0.788343071937561,-0.0,0.010029238648712635,0.7943869829177856,-8.14780765317081e-35,-0.13371498882770538
785.0,646.0,-1.5428,0.2052,9.9446,-0.0463,0.6585,-0.1251,-1.7331873379149378,-0.0027277348563075066,2.328765392303467,-2.1191890239715576,0.6726784110069275,2.3381593227386475,5.511151063233175,-0.006138567812740803,0.1967182457447052,-1.5968335310565394,6.102367478888482e-05,0.04696812108159065,0.7883235216140747,-0.0,0.010870784521102905,0.7944191694259644,-2.6400463067879554e-42,-0.18891924619674683
785.0,646.0,-1.5428,0.2052,9.9446,-0.0463,0.6585,-0.1251,-1.7332354984679164,-0.0021844685543328524,2.3512251377105713,-2.1150660514831543,0.6861898303031921,2.338188648223877,5.511203038483419,-0.003338268492370844,0.20233771204948425,-1.5968416372882288,6.157332973089069e-05,0.051765646785497665,0.7883391380310059,-0.0,-0.000174442189745605,0.7943546772003174,0.0,-0.16391509771347046
785.0,646.0,-1.5428,0.2052,9.9446,-0.0463,0.6585,-0.1251,-1.7331706486144007,-0.0005168466013856232,2.3559117317199707,-2.110985040664673,0.6953584551811218,2.3398733139038086,5.511187124043264,-0.0012568156234920025,0.199964702129364,-1.5967934767352503,3.0178303859429434e-05,0.06537086516618729,0.7883114814758301,-0.0,-0.0023814484011381865,0.7943587303161621,0.0,-0.1801605224609375
785.0,646.0,-1.5428,0.2052,9.9446,-0.0463,0.6585,-0.1251,-1.7332068882384242,-3.3333584781303216e-09,2.3657073974609375,-2.105529546737671,0.6879280805587769,2.343381881713867,5.511111008911886,-0.0038212898653000593,0.20605996251106262,-1.5968096891986292,5.484757092943937e-10,0.055072758346796036,0.7883075475692749,-0.0,-0.003983316011726856,0.7943308353424072,-9.05197230167687e-05,-0.18661898374557495
785.0,646.0,-1.5428,0.2052,9.9446,-0.0463,0.6585,-0.1251,-1.7331987820067347,-8.049670041046942e-15,2.3119232654571533,-2.1013550758361816,0.6980414986610413,2.3879542350769043,5.5111068961913965,-0.0032810030970722437,0.2047790139913559,-1.5968659559832972,1.5267020774759749e-13,0.06447210162878036,0.7882992625236511,-0.0,0.0029563799034804106,0.7943952679634094,-0.00011012578033842146,-0.1811482310295105
785.0,646.0,-1.5428,0.2052,9.9446,-0.0463,0.6585,-0.1251,-1.7331625423827113,-1.943900612011184e-20,2.323326349258423,-2.0971615314483643,0.7075918912887573,2.3813376426696777,5.511115062027731,-0.0012473120586946607,0.2060975432395935,-1.5968335310565394,4.249631463440564e-17,0.06161762773990631,0.7883512377738953,-0.0,-0.0057828850112855434,0.7943710088729858,-0.00010086920519825071,-0.15701337158679962
785.0,646.0,-1.5428,0.2052,9.9446,-0.0463,0.6585,-0.1251,-1.7332345447936,-0.0010664694709703326,2.3666694164276123,-2.0914621353149414,0.6972452402114868,2.4091358184814453,5.511042761593618,-0.003127892967313528,0.20285159349441528,-1.596813980733053,7.723495542255312e-22,0.06001076474785805,0.7882753014564514,-0.0,-0.010035148821771145,0.7943909168243408,-0.00011337905016262084,-0.1426481306552887
785.0,646.0,-1.5428,0.2052,9.9446,-0.0463,0.6585,-0.1251,-1.7332631550230921,-0.0037629357539117336,2.3915398120880127,-2.087146043777466,0.6915085911750793,2.415584087371826,5.511070954590597,-0.00431447708979249,0.1853037327528,-1.5968459288226526,2.149863149995226e-25,0.058825552463531494,0.7883550524711609,-0.0,-0.0038231986109167337,0.7943869829177856,-0.000105411367258057,-0.17231082916259766
785.0,646.0,-1.5428,0.2052,9.9446,-0.0463,0.6585,-0.1251,-1.7332421741881312,-0.0031303013674914837,2.40670108795166,-2.0829756259918213,0.6995676159858704,2.353351593017578,5.5111029026801965,-0.0021773355547338724,0.20801907777786255,-1.5967934767352503,5.984223643516392e-29,0.056001052260398865,0.7883269786834717,-0.0,0.004228290170431137,0.7943465113639832,-9.849018533714116e-05,-0.24005761742591858
785.0,646.0,-1.5428,0.2052,9.9446,-0.0463,0.6585,-0.1251,-1.7332712612547816,-0.0006863323505967855,2.4016475677490234,-2.077449321746826,0.7096625566482544,2.410365343093872,5.511039006500997,-0.000286963302642107,0.20039674639701843,-1.5968177954303187,1.087603189224282e-33,0.04758057743310928,0.7883551120758057,-0.0,0.005373253487050533,0.7943788170814514,-0.00016002602933440357,-0.1769891381263733
785.0,646.0,-1.5428,0.2052,9.9446,-0.0463,0.6585,-0.1251,-1.7332874737181605,0.0003367665340192616,2.360243082046509,-2.073234796524048,0.6991953253746033,2.3927907943725586,5.510971057205953,-0.001748167909681797,0.20839279890060425,-1.5968335310565394,3.0273835873631867e-37,0.05523095652461052,0.7883396148681641,-0.0,-0.00078389304690063,0.7943751811981201,-0.00019668953609652817,-0.15422168374061584
785.0,646.0,-1.5428,0.2052,9.9446,-0.0463,0.6585,-0.1251,-1.7332421741881312,3.4796129866343506e-10,2.391979694366455,-2.067636728286743,0.7033419609069824,2.392592191696167,5.511074948101797,-0.001598483882844448,0.20157396793365479,-1.5968335310565394,5.501497770939232e-42,0.05596906691789627,0.7883552312850952,-0.0,0.006095873657613993,0.7944031357765198,-0.00018071015074383467,-0.14326506853103638
475.0,418.0,-1.7133,0.0951,9.3506,-0.046,0.7146,-0.1368,-1.7333232365050257,-0.000984158948995173,2.3958611488342285,-2.0634214878082275,0.7055858969688416,2.363755941390991,5.511010813504019,-0.0008068798924796283,0.19186535477638245,-1.5968177954303187,1.401298464324817e-45,0.05181528627872467,0.7883274555206299,-0.0,0.009966086596250534,0.7943546772003174,-0.00016409283853136003,-0.16531911492347717
475.0,418.0,-1.7133,0.0951,9.3506,-0.046,0.7146,-0.1368,-1.7333065472044886,-0.0029126182198524475,2.3910179138183594,-2.0591533184051514,0.7026739716529846,2.3980517387390137,5.511022972851553,-0.0007657015812583268,0.20748546719551086,-1.5968015829669397,0.0,0.06454924494028091,0.7883155345916748,-0.0,0.0015607404056936502,0.7943546772003174,-0.00015049248759169132,-0.17216244339942932
475.0,418.0,-1.7133,0.0951,9.3506,-0.046,0.7146,-0.1368,-1.7333022556700648,-0.003787042573094368,2.3895699977874756,-2.0534560680389404,0.6972705125808716,2.378617286682129,5.510995137482443,-0.0025801381561905146,0.20106267929077148,-1.5968740622149866,0.0,0.059837501496076584,0.7882992625236511,-0.0,-0.005675834137946367,0.7943829298019409,-0.00013539852807298303,-0.15252470970153809
475.0,418.0,-1.7133,0.0951,9.3506,-0.046,0.7146,-0.1368,-1.7333270512022914,-0.0019468578975647688,2.4050045013427734,-2.0493011474609375,0.7023576498031616,2.42110276222229,5.510994839459219,-0.0013045005034655333,0.19759833812713623,-1.596854035054342,0.0,0.051166094839572906,0.7883155345916748,-0.0,0.0018094824627041817,0.7943506240844727,-0.00012592626444529742,-0.18873845040798187
475.0,418.0,-1.7133,0.0951,9.3506,-0.046,0.7146,-0.1368,-1.7332703075804652,-3.5229579680162715e-06,2.446981191635132,-2.0451979637145996,0.7067916393280029,2.425027370452881,5.510991084366598,-0.0007978124776855111,0.20108655095100403,-1.5968335310565394,0.0,0.0440085269510746,0.7883196473121643,-0.0,0.007169158663600683,0.7943869829177856,-0.00011769244156312197,-0.1718309074640274
475.0,418.0,-1.7133,0.0951,9.3506,-0.046,0.7146,-0.1368,-1.7333628139891566,-1.1413935660335717e-13,2.4475045204162598,-2.039668083190918,0.7013489603996277,2.433610200881958,5.510958838253774,-0.0006635279860347509,0.2000315636396408,-1.5968096891986292,0.0,0.05194580927491188,0.7882992625236511,-0.0,-0.005366896279156208,0.7943869829177856,-0.00010825490608112887,-0.15970996022224426
475.0,418.0,-1.7133,0.0951,9.3506,-0.046,0.7146,-0.1368,-1.733286520043844,-2.7563309786552574e-19,2.4675917625427246,-2.0353853702545166,0.700016438961029,2.477423667907715,5.510975110321798,-0.00085649942047894,0.21451276540756226,-1.5968292395221155,0.0,0.046788521111011505,0.7883196473121643,-0.0,-0.0031909954268485308,0.7944109439849854,-8.577495464123785e-05,-0.151910200715065
475.0,418.0,-1.7133,0.0951,9.3506,-0.046,0.7146,-0.1368,-1.733358999291891,-6.656214061256987e-25,2.454923152923584,-2.031255006790161,0.6967787146568298,2.428194761276245,5.510975169926443,-0.0007328009232878685,0.19767236709594727,-1.5968659559832972,0.0,0.06010974198579788,0.7883315086364746,-0.0,0.0034819538705050945,0.7944034934043884,-8.05265226517804e-05,-0.1526435762643814
475.0,418.0,-1.7133,0.0951,9.3506,-0.046,0.7146,-0.1368,-1.7333585224547328,-0.003939214162528515,2.4348583221435547,-2.0256187915802,0.6895387768745422,2.4235360622406006,5.510954904347219,-0.001965668983757496,0.21021044254302979,-1.596821133290426,0.0,0.03329138085246086,0.788323700428009,-0.0,0.0007232018979266286,0.794390857219696,-7.514758181059733e-05,-0.20101480185985565
475.0,418.0,-1.7133,0.0951,9.3506,-0.046,0.7146,-0.1368,-1.7333985767760218,-0.0030311276204884052,2.4723153114318848,-2.0215096473693848,0.6873143315315247,2.4441580772399902,5.510958897858419,-0.002513515530154109,0.19342344999313354,-1.5968220869647425,0.0,0.03748168796300888,0.7883155345916748,-0.0,0.008526068180799484,0.7943909168243408,-7.156247011153027e-05,-0.14884886145591736
475.0,418.0,-1.7133,0.0951,9.3506,-0.046,0.7146,-0.1368,-1.7333909473814906,-0.0007058469927869737,2.4871158599853516,-2.016005277633667,0.6927154064178467,2.4134230613708496,5.510954904347219,-0.0013754158280789852,0.2068314105272293,-1.596870247517721,0.0,0.04212794452905655,0.7882633209228516,-0.0,0.009344423189759254,0.7943469882011414,-6.728256994392723e-05,-0.15941712260246277
475.0,418.0,-1.7133,0.0951,9.3506,-0.046,0.7146,-0.1368,-1.7334071598448695,-3.368790402191735e-08,2.4766907691955566,-2.0118556022644043,0.6887826919555664,2.441357135772705,5.510906922608175,-0.0008914705249480903,0.19757935404777527,-1.5968335310565394,0.0,0.0447269007563591,0.7882992625236511,-0.0,-0.010472157970070839,0.7943588495254517,-7.727273623459041e-05,-0.1413881778717041
475.0,418.0,-1.7133,0.0951,9.3506,-0.046,0.7146,-0.1368,-1.7334147892394007,-8.135233074213835e-14,2.4979822635650635,-2.007722854614258,0.6885015368461609,2.4649147987365723,5.510926651745596,-0.0025650339666754007,0.19425123929977417,-1.596830193196432,0.0,0.05612475425004959,0.7883872985839844,-0.0,-0.006050725467503071,0.7943589091300964,-8.644109038868919e-05,-0.1881263554096222
475.0,418.0,-1.7133,0.0951,9.3506,-0.046,0.7146,-0.1368,-1.7333947620787562,-2.6357124710850552e-21,2.503964900970459,-2.0022132396698,0.6905184984207153,2.4748339653015137,5.510903167515554,-0.003455850761383772,0.19042709469795227,-1.5967815558062952,0.0,0.05766438692808151,0.7882955074310303,-0.0,0.003492434974759817,0.7943629622459412,-8.194379188353196e-05,-0.160548597574234
450.0,457.0,-2.5172,0.0987,9.1364,-0.0617,0.726,-0.1347,-1.733467241326803,-0.0021944213658571243,2.4399261474609375,-1.99799644947052,0.6833387613296509,2.5164849758148193,5.510847079544821,-0.007849614135921001,0.19351941347122192,-1.5968378225909632,0.0,0.03860354423522949,0.7883075475692749,-0.0,-0.00094918895047158,0.7943952083587646,-7.886640378274024e-05,-0.18475092947483063
450.0,457.0,-2.5172,0.0987,9.1364,-0.0617,0.726,-0.1347,-1.7334429226317347,-0.004840467125177383,2.45613431930542,-1.993898868560791,0.6765572428703308,2.523824691772461,5.510762679367819,-0.011558646336197853,0.18977798521518707,-1.596813980733053,0.0,0.0532960519194603,0.7882992625236511,-0.0,-0.01362755335867405,0.7943629622459412,-8.685344801051542e-05,-0.19284512102603912
450.0,457.0,-2.5172,0.0987,9.1364,-0.0617,0.726,-0.1347,-1.7334710560240687,-0.0037928621750324965,2.5224661827087402,-1.9883767366409302,0.6797943115234375,2.514925479888916,5.51067869642333,-0.015340035781264305,0.18400701880455017,-1.596813980733053,0.0,0.05465959012508392,0.788303554058075,-0.0,0.008527664467692375,0.7943267226219177,-7.005583756836131e-05,-0.18567374348640442
450.0,457.0,-2.5172,0.0987,9.1364,-0.0617,0.726,-0.1347,-1.7334586582579554,-0.0015537363942712545,2.460134267807007,-1.9844084978103638,0.6823661923408508,2.561868906021118,5.510558831482687,-0.019481709226965904,0.1637662649154663,-1.5967853705035608,0.0,0.07269533723592758,0.7883113622665405,-0.0,-0.012585073709487915,0.7943711876869202,-7.875357550801709e-05,-0.2111375331878662
450.0,457.0,-2.5172,0.0987,9.1364,-0.0617,0.726,-0.1347,-1.733551641503805,-0.00015495419211219996,2.4740867614746094,-1.9803719520568848,0.676535427570343,2.478628396987915,5.510386276036062,-0.02783861756324768,0.1784745454788208,-1.596813980733053,1.0767454483584515e-08,0.060540251433849335,0.7883355021476746,-0.0,-0.006755261681973934,0.7943833470344543,-0.00047646521124988794,-0.18750274181365967
450.0,457.0,-2.5172,0.0987,9.1364,-0.0617,0.726,-0.1347,-1.7335311375060023,-0.0004107909044250846,2.4699485301971436,-1.9749739170074463,0.6758458614349365,2.5096890926361084,5.510126101761617,-0.04424256458878517,0.1636859029531479,-1.5968578497516077,1.9569315243793406e-13,0.061379700899124146,0.7882594466209412,-0.0,-0.003563803154975176,0.7943387031555176,-0.0012285485863685608,-0.22749370336532593
450.0,457.0,-2.5172,0.0987,9.1364,-0.0617,0.726,-0.1347,-1.7335759601988734,-0.0016610039165243506,2.4616899490356445,-1.9709932804107666,0.6766893863677979,2.52207612991333,5.509858238487997,-0.0634775385260582,0.14543819427490234,-1.596830193196432,5.4471914596870705e-17,0.05192708224058151,0.7882832288742065,-0.0,-0.004120114259421825,0.7943587899208069,-0.000731086649466306,-0.173924520611763
450.0,457.0,-2.5172,0.0987,9.1364,-0.0617,0.726,-0.1347,-1.7335835895934046,-0.0051556057296693325,2.4702208042144775,-1.9656038284301758,0.6638185381889343,2.5276403427124023,5.509201931744375,-0.0951010063290596,0.1403442621231079,-1.5968416372882288,9.900000897519024e-22,0.06795568764209747,0.7882753610610962,-0.0,0.0009616476017981768,0.7943345904350281,-0.0005498428363353014,-0.17988666892051697
450.0,457.0,-2.5172,0.0987,9.1364,-0.0617,0.726,-0.1347,-1.7335754833617152,-0.0058397650718688965,2.4707632064819336,-1.9615566730499268,0.6589171886444092,2.5801773071289062,5.5086174485977075,-0.10676448792219162,0.1345812827348709,-1.5967977682696741,2.755701669191075e-25,0.0778300017118454,0.7882394790649414,-0.0,0.0002447477891109884,0.7943065762519836,-0.0004378151788841933,-0.20047912001609802
450.0,457.0,-2.5172,0.0987,9.1364,-0.0617,0.726,-0.1347,-1.7336112461485804,-0.004060516599565744,2.454310894012451,-1.957640528678894,0.659991443157196,2.6245193481445312,5.507916855603018,-0.11097250878810883,0.11930366605520248,-1.5967977682696741,7.670596791771021e-29,0.06753423810005188,0.7883235216140747,-0.0,0.007270202040672302,0.7943065762519836,-0.0003622732765506953,-0.20003198087215424
450.0,457.0,-2.5172,0.0987,9.1364,-0.0617,0.726,-0.1347,-1.7335950336852015,-0.0003397827676963061,2.463651180267334,-1.9524433612823486,0.6594324111938477,2.5464890003204346,5.5070485947425745,-0.10537028312683105,0.11879407614469528,-1.5967934767352503,1.3940928618855503e-33,0.06103164702653885,0.7883315086364746,-0.0,0.0009387748432345688,0.7943670153617859,-0.0003365259035490453,-0.1684178113937378
450.0,457.0,-2.5172,0.0987,9.1364,-0.0617,0.726,-0.1347,-1.7336799106993617,-0.0002599687431938946,2.53309965133667,-1.9485515356063843,0.6509293913841248,2.5509490966796875,5.506287860661306,-0.138677179813385,0.11107383668422699,-1.5967934767352503,3.88050844174041e-37,0.05464629456400871,0.7883196473121643,-0.0,0.0024358753580600023,0.7943709492683411,-0.00020740395120810717,-0.20524640381336212
450.0,457.0,-2.5172,0.0987,9.1364,-0.0617,0.726,-0.1347,-1.7335902653136195,-0.0005883866688236594,2.470062732696533,-1.9446510076522827,0.6487523317337036,2.533524513244629,5.505387711315908,-0.17741413414478302,0.08026426285505295,-1.596773926411764,1.0801488822708555e-40,0.06878206133842468,0.788347065448761,-0.0,0.00367469759657979,0.7943588495254517,-0.00018125154019799083,-0.2060740888118744
1030.0,951.0,-3.3398,-0.0311,8.6489,-0.0501,0.5299,-0.1229,-1.733631273309225,-0.0018099359003826976,2.491015911102295,-1.9394173622131348,0.6522032618522644,2.5655553340911865,5.503838646202841,-0.19769351184368134,0.073587566614151,-1.5967934767352503,1.401298464324817e-45,0.07970596104860306,0.7883314490318298,-0.0,0.008510210551321507,0.7943107485771179,-0.00015610088303219527,-0.19178883731365204
1030.0,951.0,-3.3398,-0.0311,8.6489,-0.0501,0.5299,-0.1229,-1.7336350880064906,-0.0019380387384444475,2.513315200805664,-1.9354822635650635,0.6446483135223389,2.619922637939453,5.50248150804595,-0.22690723836421967,0.0777961015701294,-1.596802059804098,0.0,0.07020743191242218,0.7883632183074951,-0.0,0.008070945739746094,0.7943546772003174,-0.00014138658298179507,-0.2546693682670593
1030.0,951.0,-3.3398,-0.0311,8.6489,-0.0501,0.5299,-0.1229,-1.7336670360960902,-0.003091146470978856,2.486138343811035,-1.9302470684051514,0.6386034488677979,2.5986430644989014,5.500468838005819,-0.261176198720932,0.04324404150247574,-1.596813980733053,0.0,0.07300221174955368,0.7882952690124512,-0.0,-0.0034901094622910023,0.794302761554718,-0.0001507210108684376,-0.2256128489971161
1030.0,951.0,-3.3398,-0.0311,8.6489,-0.0501,0.5299,-0.1229,-1.7336589298644007,-0.001546748448163271,2.502264976501465,-1.9264072179794312,0.6428338885307312,2.5845022201538086,5.498767840653219,-0.29623231291770935,0.03572028502821922,-1.5967538992511194,0.0,0.06712691485881805,0.7882435321807861,-0.0,0.012680460698902607,0.7943469285964966,-0.0001774938136804849,-0.21288540959358215
1030.0,951.0,-3.3398,-0.0311,8.6489,-0.0501,0.5299,-0.1229,-1.7336627445616664,-0.0005564764142036438,2.4681005477905273,-1.922663688659668,0.6447785496711731,2.5335826873779297,5.496885883599081,-0.31867867708206177,0.026733551174402237,-1.5967696348773401,0.0,0.06392315030097961,0.7883196473121643,-0.0,-0.002491069259122014,0.7943068742752075,-0.0002526682219468057,-0.2174365073442459
