ramyac6/ROB537/final_project/csv/all/bad_7.csv
tof_0,tof_1,accelx,accely,accelz,gyrox,gyroy,gyroz,shoulder_lift_joint_position,shoulder_lift_joint_velocity,shoulder_lift_joint_effort,elbow_joint_position,elbow_joint_velocity,elbow_joint_effort,wrist_1_joint_position,wrist_1_joint_velocity,wrist_1_joint_effort,wrist_2_joint_position,wrist_2_joint_velocity,wrist_2_joint_effort,wrist_3_joint_position,wrist_3_joint_velocity,wrist_3_joint_effort,shoulder_pan_joint_position,shoulder_pan_joint_velocity,shoulder_pan_joint_effort
716.0,349.0,-2.4712,4.7354,8.2068,-0.0382,0.0228,-0.1122,-1.8160931072630824,-0.00015897073899395764,3.0473551750183105,-1.7769510746002197,-0.0029103755950927734,1.9229178428649902,-1.102345125084259,-0.20090201497077942,0.12205967307090759,-2.0910094420062464,-0.00015930650988593698,0.055328816175460815,0.49592873454093933,0.02970331534743309,0.1775677502155304,1.003743290901184,0.0,-0.2460731863975525
716.0,349.0,-2.4712,4.7354,8.2068,-0.0382,0.0228,-0.1122,-1.8160973987975062,-0.00015013106167316437,3.0921130180358887,-1.7769880294799805,-0.0022209046874195337,2.0243616104125977,-1.1031786662391205,-0.21251800656318665,0.12339097261428833,-2.0909975210772913,-0.00015042978338897228,0.06028420478105545,0.4960038959980011,0.03874801844358444,0.17462056875228882,1.003675103187561,8.519297807652038e-06,-0.2524980902671814
716.0,349.0,-2.4712,4.7354,8.2068,-0.0382,0.0228,-0.1122,-1.8160892925658167,-0.00011640589218586683,3.05985164642334,-1.7769510746002197,-0.0010040424531325698,2.0223731994628906,-1.104435608988144,-0.20982730388641357,0.13327868282794952,-2.0909932295428675,-0.00013882707571610808,0.048652928322553635,0.4963762164115906,0.06246139854192734,0.17369255423545837,1.0036792755126953,-5.9675094234989956e-05,-0.2508760690689087
716.0,349.0,-2.4712,4.7354,8.2068,-0.0382,0.0228,-0.1122,-1.816165109673971,-0.00010984041728079319,3.080195188522339,-1.776991367340088,-0.000731595151592046,1.9924730062484741,-1.1053138238242646,-0.21625085175037384,0.12117563188076019,-2.0910494963275355,-0.00013203741400502622,0.06213882565498352,0.4966319501399994,0.08895768225193024,0.19171974062919617,1.003699541091919,-5.596438131760806e-05,-0.20995771884918213
716.0,349.0,-2.4712,4.7354,8.2068,-0.0382,0.0228,-0.1122,-1.8161212406554164,-0.00010234572982881218,3.0782647132873535,-1.7769798040390015,-0.0005200717714615166,2.001817226409912,-1.106687144642212,-0.22952939569950104,0.12617555260658264,-2.0909975210772913,-0.0001230135967489332,0.053386881947517395,0.497407466173172,0.143361896276474,0.19470670819282532,1.0036592483520508,-5.118956323713064e-05,-0.23242056369781494
716.0,349.0,-2.4712,4.7354,8.2068,-0.0382,0.0228,-0.1122,-1.8160892925658167,-9.789301111595705e-05,3.1124444007873535,-1.77698814868927,-0.0003633883025031537,2.043426513671875,-1.1075925093940278,-0.2238110452890396,0.11825299263000488,-2.0909693876849573,-0.00011765302042476833,0.05486343055963516,0.498031347990036,0.17271317541599274,0.21585141122341156,1.0036914348602295,-4.8434725613333285e-05,-0.2790689170360565
716.0,349.0,-2.4712,4.7354,8.2068,-0.0382,0.0228,-0.1122,-1.816113134423727,-9.189570118905976e-05,3.1292710304260254,-1.7769551277160645,-0.00035070630838163197,1.9584649801254272,-1.1089290839484711,-0.24229645729064941,0.1055624857544899,-2.0910213629352015,-0.0001104344628402032,0.0555860698223114,0.4991309642791748,0.18021032214164734,0.22073285281658173,1.0036994218826294,-4.4816944864578545e-05,-0.23974359035491943
716.0,349.0,-2.4712,4.7354,8.2068,-0.0382,0.0228,-0.1122,-1.816113134423727,-8.659085870021954e-05,3.090259313583374,-1.7769757509231567,-0.000245456350967288,1.988029956817627,-1.110533819799759,-0.2633828818798065,0.11457418650388718,-2.0910494963275355,-0.00010405054490547627,0.07089071720838547,0.5002501010894775,0.20351079106330872,0.21144476532936096,1.0036873817443848,-4.1701987356645986e-05,-0.21522819995880127
716.0,349.0,-2.4712,4.7354,8.2068,-0.0382,0.0228,-0.1122,-1.816136976281637,-8.338197221746668e-05,3.1066055297851562,-1.7770037651062012,-0.00022074655862525105,2.044989824295044,-1.1116272670081635,-0.2640318274497986,0.11535204946994781,-2.091013256703512,-0.00010018933971878141,0.06506256759166718,0.5010692477226257,0.22214771807193756,0.2260451763868332,1.0036875009536743,-3.985524381278083e-05,-0.23325619101524353
673.0,367.0,-3.2399,4.9208,8.6859,-0.0136,-0.0765,-0.0457,-1.8161331615843714,-7.89910918683745e-05,3.0784668922424316,-1.7769386768341064,-0.00023037199571263045,2.020552396774292,-1.1132674378207703,-0.2834051847457886,0.11324963718652725,-2.090977493916647,-9.490680531598628e-05,0.055556975305080414,0.5024203062057495,0.212709441781044,0.21830394864082336,1.0037033557891846,-1.8686530893319286e-05,-0.24229153990745544
673.0,367.0,-3.2399,4.9208,8.6859,-0.0136,-0.0765,-0.0457,-1.816113134423727,-7.631198241142556e-05,3.1357860565185547,-1.7769955396652222,-0.00017776017193682492,2.0067267417907715,-1.1144887071898957,-0.2851582169532776,0.09832016378641129,-2.0910375753985804,-9.168405085802078e-05,0.05134523659944534,0.5031754970550537,0.21676059067249298,0.2187449336051941,1.0037312507629395,-1.7941380065167323e-05,-0.23023760318756104
673.0,367.0,-3.2399,4.9208,8.6859,-0.0136,-0.0765,-0.0457,-1.8161212406554164,-7.261763676069677e-05,3.094109058380127,-1.7769551277160645,-0.00012731703463941813,2.029266595840454,-1.1161845487407227,-0.3000701069831848,0.10558361560106277,-2.0909975210772913,-8.724028884898871e-05,0.056687213480472565,0.5046384334564209,0.2640721797943115,0.22364480793476105,1.0037113428115845,-1.6928945115068927e-05,-0.18521955609321594
673.0,367.0,-3.2399,4.9208,8.6859,-0.0136,-0.0765,-0.0457,-1.8161050281920375,-7.034729060251266e-05,3.145087718963623,-1.7769593000411987,-3.122177440673113e-05,2.044668197631836,-1.117361144428589,-0.30412834882736206,0.11144310235977173,-2.090997044240133,-8.450966561213136e-05,0.051497749984264374,0.5057616829872131,0.2672308385372162,0.21970251202583313,1.0037271976470947,-1.631517443456687e-05,-0.2963416576385498
673.0,367.0,-3.2399,4.9208,8.6859,-0.0136,-0.0765,-0.0457,-1.816136976281637,-6.719592056469992e-05,3.1392955780029297,-1.7769873142242432,-1.343190803027028e-07,2.03741717338562,-1.119213567381241,-0.3034270405769348,0.0989743173122406,-2.0909817854510706,-8.071996126091108e-05,0.05750390887260437,0.5073446035385132,0.2735677659511566,0.22596709430217743,1.0036711692810059,-1.5473677194677293e-05,-0.22439342737197876
673.0,367.0,-3.2399,4.9208,8.6859,-0.0136,-0.0765,-0.0457,-1.81618132213735,-6.431485962821171e-05,3.1174981594085693,-1.7769757509231567,-3.2436477549052656e-13,2.039003372192383,-1.1211008590510865,-0.3186139464378357,0.11555162072181702,-2.0909937063800257,-7.725545583525673e-05,0.06848353892564774,0.5090111494064331,0.26033031940460205,0.2171337604522705,1.0036593675613403,-1.4714714779984206e-05,-0.24106758832931519
673.0,367.0,-3.2399,4.9208,8.6859,-0.0136,-0.0765,-0.0457,-1.816113134423727,-6.252757884794846e-05,3.0869884490966797,-1.7769232988357544,-5.838451198147103e-17,2.05722975730896,-1.122373418217041,-0.3226149082183838,0.10953308641910553,-2.0909655729876917,-7.510639261454344e-05,0.05712737515568733,0.5100061297416687,0.2515146732330322,0.1967354118824005,1.0036875009536743,-1.4248794286686461e-05,-0.2439507246017456
673.0,367.0,-3.2399,4.9208,8.6859,-0.0136,-0.0765,-0.0457,-1.8161570034422816,-6.0025449784006923e-05,3.093535900115967,-1.776991367340088,-1.4099174643850722e-22,2.0729286670684814,-1.1243930620006104,-0.343496710062027,0.09416408836841583,-2.0909817854510706,-6.008518539601937e-05,0.059231970459222794,0.5115447640419006,0.2841717004776001,0.19813022017478943,1.0037072896957397,-1.3602736544271465e-05,-0.2760322391986847
673.0,367.0,-3.2399,4.9208,8.6859,-0.0136,-0.0765,-0.0457,-1.8161169491209925,-5.846575731993653e-05,3.10709810256958,-1.776979923248291,-2.537801585504554e-26,2.0685646533966064,-1.1257933539203187,-0.34225690364837646,0.10444493591785431,-2.09098989168276,-5.851904643350281e-05,0.05989427864551544,0.5127366185188293,0.28073135018348694,0.18834775686264038,1.003663182258606,-1.3204353308537975e-05,-0.28675931692123413
673.0,367.0,-3.2399,4.9208,8.6859,-0.0136,-0.0765,-0.0457,-1.8161050281920375,-5.627242353511974e-05,3.1450417041778564,-1.7770200967788696,-6.128492107510608e-32,2.126774787902832,-1.1278604728034516,-0.3538392186164856,0.10634791105985641,-2.0909698645221155,-4.5106717152521014e-05,0.06513247638940811,0.5144105553627014,0.2828570306301117,0.1863289177417755,1.0036553144454956,-2.047515408776235e-05,-0.26438599824905396
673.0,367.0,-3.2399,4.9208,8.6859,-0.0136,-0.0765,-0.0457,-1.8160892925658167,-5.4899443057365716e-05,3.107067108154297,-1.7770119905471802,-1.1031071016237108e-35,2.101444721221924,-1.129326270227768,-0.35534465312957764,0.09664890170097351,-2.0909817854510706,-3.3016072848113254e-05,0.07282865047454834,0.5155063271522522,0.26726412773132324,0.1675419956445694,1.0037033557891846,-1.958408574864734e-05,-0.2627703547477722
673.0,367.0,-3.2399,4.9208,8.6859,-0.0136,-0.0765,-0.0457,-1.8160730801024378,-5.296112794894725e-05,3.1163926124572754,-1.7769715785980225,-2.663868380681477e-41,2.1315901279449463,-1.1315080386451264,-0.37613922357559204,0.08904926478862762,-2.0909698645221155,8.561512004234828e-06,0.06316637992858887,0.5169567465782166,0.2342069298028946,0.1401205211877823,1.00365149974823,-5.3000389016233385e-05,-0.26412492990493774
673.0,367.0,-3.2399,4.9208,8.6859,-0.0136,-0.0765,-0.0457,-1.816141267816061,-5.115502426633611e-05,3.1775460243225098,-1.776979923248291,-0.0,2.1003541946411133,-1.133846865301468,-0.3855021297931671,0.10681747645139694,-2.0909860769854944,3.239930811105296e-05,0.09158482402563095,0.5184031128883362,0.2519053518772125,0.13367986679077148,1.0036792755126953,-5.196743586566299e-05,-0.2954210042953491
673.0,367.0,-3.2399,4.9208,8.6859,-0.0136,-0.0765,-0.0457,-1.8161612949767054,-5.001785757485777e-05,3.103224039077759,-1.7769713401794434,-0.0,2.219757556915283,-1.1353385907462616,-0.3843108117580414,0.08985404670238495,-2.090949360524313,3.1818846764508635e-05,0.08408389985561371,0.5193342566490173,0.24093486368656158,0.13126924633979797,1.0036311149597168,-6.477119313785806e-05,-0.29390209913253784
673.0,367.0,-3.2399,4.9208,8.6859,-0.0136,-0.0765,-0.0457,-1.8161450825133265,-3.0387106164653233e-09,3.1348462104797363,-1.7768912315368652,0.0005476486403495073,2.150425434112549,-1.1376489859870453,-0.39751607179641724,0.0975487232208252,-2.090933148060934,4.097450801054947e-05,0.08341172337532043,0.5206851959228516,0.21943402290344238,0.12717197835445404,1.0036474466323853,-6.320719694485888e-05,-0.2582707107067108
673.0,367.0,-3.2399,4.9208,8.6859,-0.0136,-0.0765,-0.0457,-1.8161732159056605,-5.469572277733148e-13,3.1360549926757812,-1.7769591808319092,0.0005322615033946931,2.1566483974456787,-1.1392737788013,-0.39103156328201294,0.1019541323184967,-2.091022316609518,4.991174864699133e-05,0.08774280548095703,0.5215076804161072,0.21359148621559143,0.11282467842102051,1.0036756992340088,-6.106768705649301e-05,-0.2976056933403015
673.0,367.0,-3.2399,4.9208,8.6859,-0.0136,-0.0765,-0.0457,-1.8161055050291957,-1.3208371424385758e-18,3.0716328620910645,-1.776951789855957,0.0005890742759220302,2.1947808265686035,-1.1416491133025666,-0.4041973948478699,0.09359149634838104,-2.0909536520587366,0.0003336761728860438,0.09697981178760529,0.5225979685783386,0.1672801822423935,0.09783235192298889,1.0036356449127197,-0.00021557783475145698,-0.2821289896965027
673.0,367.0,-3.2399,4.9208,8.6859,-0.0136,-0.0765,-0.0457,-1.816125055352682,-2.3774604133484366e-22,3.1270980834960938,-1.776928186416626,0.0005926098092459142,2.125746726989746,-1.1432913106730958,-0.40755194425582886,0.09598041325807571,-2.0909698645221155,0.0003489202063065022,0.09194701910018921,0.5232746601104736,0.1334485560655594,0.0858207643032074,1.0036792755126953,-0.000196727822185494,-0.2939164638519287
614.0,360.0,-2.2504,5.0399,7.8538,0.0108,-0.2494,0.2929,-1.8161331615843714,-5.74128720144325e-28,3.123872756958008,-1.7768912315368652,0.0005281913327053189,2.169804096221924,-1.14574687302623,-0.41738688945770264,0.09429385513067245,-2.090949837361471,0.000387221691198647,0.09130508452653885,0.5239254832267761,0.11057931184768677,0.048974938690662384,1.0037033557891846,-0.00017391672008670866,-0.3468291163444519
614.0,360.0,-2.2504,5.0399,7.8538,0.0108,-0.2494,0.2929,-1.816153188745016,-1.386453066960167e-33,3.0882885456085205,-1.7769238948822021,0.0006454283720813692,2.2595438957214355,-1.1482726794532319,-0.4204999804496765,0.09080229699611664,-2.090917412434713,0.0005461318651214242,0.11880606412887573,0.5245562195777893,0.11621244996786118,0.04995002597570419,1.0036752223968506,-0.00018575426656752825,-0.3167925477027893
614.0,360.0,-2.2504,5.0399,7.8538,0.0108,-0.2494,0.2929,-1.8161450825133265,-2.495566605714455e-37,3.1213178634643555,-1.7769238948822021,0.0005299848853610456,2.179703712463379,-1.149876133804657,-0.4098154604434967,0.1250472068786621,-2.0909298102008265,0.0005965206655673683,0.09815673530101776,0.5250520706176758,0.11543190479278564,0.0486697256565094,1.0036753416061401,-0.00017490079335402697,-0.3848862648010254
614.0,360.0,-2.2504,5.0399,7.8538,0.0108,-0.2494,0.2929,-1.8161851368346156,-6.0255833965967134e-43,3.1004834175109863,-1.776863932609558,0.0004772895772475749,2.2095768451690674,-1.152402476673462,-0.42030617594718933,0.10613098740577698,-2.0908730665790003,0.0009496457641944289,0.1035379022359848,0.5256431102752686,0.0901288390159607,0.04706704244017601,1.0037153959274292,-0.00018585384532343596,-0.3615933060646057
614.0,360.0,-2.2504,5.0399,7.8538,0.0108,-0.2494,0.2929,-1.816153188745016,-0.0,3.1064934730529785,-1.7769114971160889,0.00045347833656705916,2.217510461807251,-1.154053882961609,-0.4195670187473297,0.10345952957868576,-2.090921703969137,0.0011231546523049474,0.1254575550556183,0.525907039642334,0.05574145168066025,0.022484907880425453,1.0037075281143188,-0.00019775131659116596,-0.36407649517059326
614.0,360.0,-2.2504,5.0399,7.8538,0.0108,-0.2494,0.2929,-1.816113134423727,0.0,3.1799049377441406,-1.7769197225570679,0.0003958017041441053,2.2416727542877197,-1.1566246908954163,-0.41405433416366577,0.11093519628047943,-2.090921703969137,0.0012541357427835464,0.12337684631347656,0.5260265469551086,0.00032182567520067096,0.00877421721816063,1.003639578819275,-0.0002535414241719991,-0.40179306268692017
614.0,360.0,-2.2504,5.0399,7.8538,0.0108,-0.2494,0.2929,-1.8161331615843714,0.0,3.13008713722229,-1.776911735534668,0.00035659215063787997,2.264216661453247,-1.15827830255542,-0.42519816756248474,0.1099243015050888,-2.090865437184469,0.0011803318047896028,0.122127003967762,0.525978684425354,-0.031568337231874466,-0.028572889044880867,1.0036474466323853,-0.0003130788973066956,-0.4367470145225525
614.0,360.0,-2.2504,5.0399,7.8538,0.0108,-0.2494,0.2929,-1.8161174259581507,0.0,3.146758794784546,-1.7769033908843994,0.000311672396492213,2.2932326793670654,-1.1609022182277222,-0.41841036081314087,0.11493675410747528,-2.090837303792135,0.001197359524667263,0.11901984363794327,0.5257583260536194,-0.051296934485435486,-0.049268849194049835,1.003615379333496,-0.0010908301919698715,-0.49247562885284424
614.0,360.0,-2.2504,5.0399,7.8538,0.0108,-0.2494,0.2929,-1.816165109673971,0.0,3.118025541305542,-1.7769074440002441,0.0006340628606267273,2.3437790870666504,-1.1634929043105622,-0.4202408790588379,0.10501086711883545,-2.0908411184894007,0.0011949586914852262,0.13669246435165405,0.525550901889801,-0.04433750733733177,-0.05553784966468811,1.0036554336547852,-0.0021800121758133173,-0.4804304242134094
614.0,360.0,-2.2504,5.0399,7.8538,0.0108,-0.2494,0.2929,-1.8160973987975062,0.0,3.1336002349853516,-1.776908278465271,0.0009135455475188792,2.226182460784912,-1.16518388808284,-0.43374916911125183,0.10898097604513168,-2.0908454100238245,0.0009714583866298199,0.13739655911922455,0.5254148840904236,-0.024817291647195816,-0.03190445899963379,1.0036721229553223,-0.002929866313934326,-0.5013980269432068
614.0,360.0,-2.2504,5.0399,7.8538,0.0108,-0.2494,0.2929,-1.816113134423727,0.0,3.155472993850708,-1.7769114971160889,0.002250909572467208,2.3260281085968018,-1.1677341920188447,-0.4236937463283539,0.11169815063476562,-2.0908454100238245,0.0008145975880324841,0.14008782804012299,0.5253547430038452,-0.0006389200570993125,-0.04642020910978317,1.0035992860794067,-0.0053342911414802074,-0.5257843136787415
614.0,360.0,-2.2504,5.0399,7.8538,0.0108,-0.2494,0.2929,-1.8161450825133265,0.0,3.1901192665100098,-1.7768597602844238,0.003944758791476488,2.3175411224365234,-1.1694247883609314,-0.42199426889419556,0.10286557674407959,-2.0908454100238245,0.0006577383610419929,0.1409481018781662,0.525370717048645,0.012470230460166931,-0.012170611880719662,1.0035474300384521,-0.008002961054444313,-0.4902244210243225
614.0,360.0,-2.2504,5.0399,7.8538,0.0108,-0.2494,0.2929,-1.8161450825133265,0.0,3.182459831237793,-1.7768079042434692,0.00824710913002491,2.3192100524902344,-1.1719403129867096,-0.42088404297828674,0.10615601390600204,-2.09084922472109,0.0005721090128645301,0.13522343337535858,0.5254065990447998,0.01202307641506195,-0.01425466500222683,1.003580093383789,-0.009034370072185993,-0.5270299911499023
614.0,360.0,-2.2504,5.0399,7.8538,0.0108,-0.2494,0.2929,-1.816153188745016,0.0,3.1336731910705566,-1.7767282724380493,0.011782879009842873,2.3427863121032715,-1.1736619931510468,-0.41650518774986267,0.11661165952682495,-2.0908334890948694,0.0004273574741091579,0.14788703620433807,0.525458812713623,0.008436913602054119,-0.017973750829696655,1.0035197734832764,-0.008346968330442905,-0.57669997215271
614.0,360.0,-2.2504,5.0399,7.8538,0.0108,-0.2494,0.2929,-1.816113134423727,0.0,3.159353494644165,-1.776748776435852,0.012738042511045933,2.368093490600586,-1.176057444219925,-0.4173907935619354,0.10816940665245056,-2.090853516255514,0.00038696936098858714,0.1336158812046051,0.5254988670349121,0.0021402721758931875,0.006477080285549164,1.0034557580947876,-0.007135701831430197,-0.5366316437721252
614.0,360.0,-2.2504,5.0399,7.8538,0.0108,-0.2494,0.2929,-1.8161012134947718,0.0,3.1410558223724365,-1.776564598083496,0.011894402094185352,2.309598684310913,-1.1785536867431183,-0.40854954719543457,0.12097519636154175,-2.090869728718893,0.00042940551065839827,0.1452597975730896,0.5254709720611572,0.0006480609299615026,-0.020140983164310455,1.003448247909546,-0.004519054666161537,-0.5620535612106323
614.0,360.0,-2.2504,5.0399,7.8538,0.0108,-0.2494,0.2929,-1.8161212406554164,0.0,3.1398086547851562,-1.776580810546875,0.011927069164812565,2.369450569152832,-1.1801121991923829,-0.4022575616836548,0.1250058114528656,-2.0908096472369593,0.0006880081491544843,0.15756076574325562,0.5254788398742676,0.0004756132257170975,-0.03218406066298485,1.003412127494812,-0.0035523707047104836,-0.5480349659919739
431.0,362.0,-1.7234,4.1521,8.1589,0.0174,-0.3293,0.1025,-1.8161570034422816,0.0,3.115154266357422,-1.7764452695846558,0.010861678048968315,2.4188241958618164,-1.182403878574707,-0.3925439119338989,0.13850915431976318,-2.090781037007467,0.0014936962397769094,0.15629912912845612,0.5254222750663757,0.00034042252809740603,-0.016754575073719025,1.0033396482467651,-0.004222638439387083,-0.5754808783531189
431.0,362.0,-1.7234,4.1521,8.1589,0.0174,-0.3293,0.1025,-1.8160811863341273,0.0,3.1171603202819824,-1.776404857635498,0.010743062943220139,2.385204792022705,-1.1838946503451844,-0.3824181854724884,0.11729282140731812,-2.090853993092672,0.0017914976924657822,0.16521131992340088,0.525458812713623,0.00028623215621337295,-0.017139846459031105,1.0034284591674805,-0.004574661608785391,-0.5613653063774109
431.0,362.0,-1.7234,4.1521,8.1589,0.0174,-0.3293,0.1025,-1.8161727390685023,0.0,3.139108180999756,-1.7763490676879883,0.009902295656502247,2.4060721397399902,-1.1861517888358613,-0.38347211480140686,0.14080028235912323,-2.090797249470846,0.0020076388027518988,0.16305217146873474,0.5254907608032227,0.00017332492279820144,-0.024989863857626915,1.0033520460128784,-0.004088287241756916,-0.5213718414306641
431.0,362.0,-1.7234,4.1521,8.1589,0.0174,-0.3293,0.1025,-1.816153188745016,0.0,3.135982036590576,-1.776369333267212,0.01011638343334198,2.389359712600708,-1.1876063507846375,-0.36625632643699646,0.15284164249897003,-2.0908096472369593,0.0015696198679506779,0.15206997096538544,0.5254751443862915,0.00015357992378994823,-0.031160518527030945,1.0033721923828125,-0.0031342569272965193,-0.554031491279602
431.0,362.0,-1.7234,4.1521,8.1589,0.0174,-0.3293,0.1025,-1.8160811863341273,0.0,3.1538004875183105,-1.7762774229049683,0.01198849268257618,2.410676956176758,-1.1897632044604798,-0.35392841696739197,0.1559048444032669,-2.090797249470846,0.0010872525162994862,0.163128063082695,0.5254464745521545,0.00013118576316628605,-0.02798451855778694,1.0033363103866577,-0.0018570584943518043,-0.5836234092712402
431.0,362.0,-1.7234,4.1521,8.1589,0.0174,-0.3293,0.1025,-1.8161055050291957,0.0,3.1382365226745605,-1.77616548538208,0.012348121963441372,2.390127658843994,-1.1917797190001984,-0.3375033736228943,0.15458810329437256,-2.090769116078512,0.0007184941787272692,0.14655430614948273,0.5254709720611572,0.00011449273733887821,-0.03364409878849983,1.0033482313156128,-0.0008343282388523221,-0.6204107999801636
431.0,362.0,-1.7234,4.1521,8.1589,0.0174,-0.3293,0.1025,-1.8161331615843714,0.0,3.123839855194092,-1.776130199432373,0.0143124395981431,2.3673157691955566,-1.1931392413428803,-0.33358824253082275,0.17276537418365479,-2.090781037007467,0.0005848799482919276,0.1431969404220581,0.5254911184310913,0.00010554010805208236,-0.024976946413517,1.0033841133117676,-0.0006083810003474355,-0.5897788405418396
431.0,362.0,-1.7234,4.1521,8.1589,0.0174,-0.3293,0.1025,-1.8160892925658167,0.0,3.155728578567505,-1.7760059833526611,0.016937103122472763,2.3878092765808105,-1.19513692081485,-0.31294968724250793,0.17854167520999908,-2.090757195149557,0.0005214827251620591,0.15449698269367218,0.5255067348480225,9.446084004594013e-05,-0.021718397736549377,1.0033601522445679,-0.0005192373646423221,-0.5955572128295898
431.0,362.0,-1.7234,4.1521,8.1589,0.0174,-0.3293,0.1025,-1.816125055352682,0.0,3.1089870929718018,-1.7759343385696411,0.019142186269164085,2.4234042167663574,-1.1963840585998078,-0.306475967168808,0.18449294567108154,-2.090796772633688,0.00045639293966814876,0.15153631567955017,0.5254709720611572,8.82828826433979e-05,-0.0292239710688591,1.0033282041549683,-0.0004828677629120648,-0.5892696976661682
431.0,362.0,-1.7234,4.1521,8.1589,0.0174,-0.3293,0.1025,-1.8161212406554164,0.0,3.1188266277313232,-1.7757748365402222,0.021940499544143677,2.428025245666504,-1.198094056253769,-0.2766178250312805,0.20708191394805908,-2.0907934347735804,0.0003834464296232909,0.1478922814130783,0.5254144072532654,8.039583917707205e-05,-0.035906851291656494,1.0033364295959473,-0.0004672332142945379,-0.5920363664627075
431.0,362.0,-1.7234,4.1521,8.1589,0.0174,-0.3293,0.1025,-1.8160931072630824,0.0,3.1739819049835205,-1.7756710052490234,0.02302694506943226,2.3984179496765137,-1.1991941195777436,-0.2729892432689667,0.19642361998558044,-2.0907490889178675,0.00034652568865567446,0.14434483647346497,0.5254751443862915,7.587678555864841e-05,-0.0359901487827301,1.0033364295959473,-0.0003205948742106557,-0.6127305030822754
431.0,362.0,-1.7234,4.1521,8.1589,0.0174,-0.3293,0.1025,-1.8161293468871058,0.0,3.105748414993286,-1.7755591869354248,0.026996834203600883,2.4271774291992188,-1.2007927757552643,-0.2410593330860138,0.22187599539756775,-2.0908220450030726,0.0003027953498531133,0.1519061028957367,0.5254907608032227,6.997676246101037e-05,-0.022318031638860703,1.0033522844314575,-0.00026403009542264044,-0.5941052436828613
431.0,362.0,-1.7234,4.1521,8.1589,0.0174,-0.3293,0.1025,-1.8161293468871058,0.0,3.1919009685516357,-1.775371789932251,0.03011089563369751,2.399958610534668,-1.2020603281310578,-0.2093004286289215,0.2340659350156784,-2.0908377806292933,0.00023527930898126215,0.1574181318283081,0.525450587272644,-4.044998422614299e-05,-0.0333346389234066,1.0033482313156128,-0.00022450735559687018,-0.525564968585968
431.0,362.0,-1.7234,4.1521,8.1589,0.0174,-0.3293,0.1025,-1.8161293468871058,0.0,3.178640842437744,-1.7751915454864502,0.03169046714901924,2.4587433338165283,-1.2028970283320923,-0.2011963427066803,0.2371552586555481,-2.0908177534686487,0.00021890702191740274,0.166736900806427,0.5255030393600464,-4.2081763240275905e-05,-0.03687041252851486,1.0032962560653687,-0.00020413630409166217,-0.5967741012573242
431.0,362.0,-1.7234,4.1521,8.1589,0.0174,-0.3293,0.1025,-1.816113134423727,0.0,3.132513999938965,-1.7750287055969238,0.03507800027728081,2.4671740531921387,-1.2040088039687653,-0.17414885759353638,0.24926486611366272,-2.090792957936422,0.00019823973707389086,0.16072165966033936,0.5254226326942444,-3.933740663342178e-05,-0.042226336896419525,1.0033161640167236,-0.00017968179599847645,-0.5817541480064392
431.0,362.0,-1.7234,4.1521,8.1589,0.0174,-0.3293,0.1025,-1.8161488972105921,0.0,3.147658348083496,-1.7749043703079224,0.037415310740470886,2.437260627746582,-1.2046267253211518,-0.14688681066036224,0.2566359043121338,-2.0908053557025355,0.00018650158017408103,0.16585180163383484,0.5254752039909363,-3.768999158637598e-05,-0.036244310438632965,1.0033562183380127,-0.0001663934817770496,-0.5405033826828003
431.0,362.0,-1.7234,4.1521,8.1589,0.0174,-0.3293,0.1025,-1.8161012134947718,0.0,3.1942381858825684,-1.774613380432129,0.039184607565402985,2.4052748680114746,-1.2054236394217988,-0.1319596767425537,0.26892685890197754,-2.090853993092672,0.00017128796025644988,0.1492389738559723,0.5254145264625549,-5.3114694310352206e-05,-0.040486693382263184,1.0033204555511475,-0.0001497779303463176,-0.562613308429718
431.0,362.0,-1.7234,4.1521,8.1589,0.0174,-0.3293,0.1025,-1.8161331615843714,0.0,3.1885714530944824,-1.7744824886322021,0.041616156697273254,2.461850643157959,-1.20591755331073,-0.12632222473621368,0.2814030051231384,-2.0908220450030726,0.00016245378355961293,0.1619781106710434,0.5254751443862915,-5.1176601118640974e-05,-0.033251870423555374,1.0033323764801025,-0.0001404297654516995,-0.5826842784881592
357.0,406.0,-1.0732,4.9358,8.3103,0.0165,-0.2451,0.0403,-1.8161775074400843,0.0,3.1786789894104004,-1.774166464805603,0.04691138491034508,2.4744091033935547,-1.2066113513759156,-0.09754146635532379,0.28377294540405273,-2.090769116078512,0.00016675819642841816,0.15448829531669617,0.5254669785499573,-6.428772758226842e-05,-0.0361359566450119,1.0034079551696777,-0.0001284079480683431,-0.573266863822937
357.0,406.0,-1.0732,4.9358,8.3103,0.0165,-0.2451,0.0403,-1.816113134423727,0.0,3.176522731781006,-1.773911476135254,0.05328279733657837,2.484041213989258,-1.2070817214301606,-0.05748516321182251,0.30882322788238525,-2.0908010641681116,0.00016078242333605886,0.1549018919467926,0.525446891784668,-6.126784137450159e-05,-0.023528024554252625,1.0033601522445679,-0.00011828223068732768,-0.5808036923408508
357.0,406.0,-1.0732,4.9358,8.3103,0.0165,-0.2451,0.0403,-1.8161775074400843,0.0,3.1348776817321777,-1.773659110069275,0.05677695944905281,2.466639280319214,-1.2072527271560212,-0.030021794140338898,0.33740776777267456,-2.0908177534686487,0.00015390977205242962,0.17106977105140686,0.525458812713623,-5.9251091443002224e-05,-0.03988080471754074,1.0033681392669678,-0.0001123748006648384,-0.5712977647781372
357.0,406.0,-1.0732,4.9358,8.3103,0.0165,-0.2451,0.0403,-1.8161851368346156,-8.501259418647322e-11,3.196585178375244,-1.7733005285263062,0.0608191192150116,2.4645071029663086,-1.207288460140564,0.006604241672903299,0.3445776104927063,-2.0908497015582483,0.00014463435218203813,0.1858808994293213,0.5254628658294678,-5.6463144574081525e-05,-0.03490547835826874,1.003364086151123,-0.00010454267612658441,-0.5717436075210571
357.0,406.0,-1.0732,4.9358,8.3103,0.0165,-0.2451,0.0403,-1.8161655865111292,-1.5301968676537103e-14,3.1522998809814453,-1.7730692625045776,0.06348498165607452,2.5245463848114014,-1.2072125238231202,0.021986525505781174,0.3577636480331421,-2.0908177534686487,0.00013904774095863104,0.16113325953483582,0.5254709720611572,-6.752486660843715e-05,-0.05197696387767792,1.0033681392669678,-9.990105172619224e-05,-0.572396457195282
357.0,406.0,-1.0732,4.9358,8.3103,0.0165,-0.2451,0.0403,-1.8161655865111292,-3.6952452096473874e-20,3.1754894256591797,-1.772673487663269,0.06631600856781006,2.5363430976867676,-1.2070763868144532,0.02579769492149353,0.3466393053531647,-2.090813461934225,0.00011504052963573486,0.1617981195449829,0.5255029797554016,-6.544621282955632e-05,-0.03876124694943428,1.0033601522445679,-7.518708298448473e-05,-0.6031221747398376
357.0,406.0,-1.0732,4.9358,8.3103,0.0165,-0.2451,0.0403,-1.8161331615843714,-6.65131069908536e-24,3.1725406646728516,-1.7724030017852783,0.07030023634433746,2.503020763397217,-1.207025484447815,0.02229286916553974,0.35273435711860657,-2.0907767454730433,0.0001109529985114932,0.17034709453582764,0.5254791975021362,-6.359666440403089e-05,-0.04758918285369873,1.0033482313156128,-7.19358868082054e-05,-0.5946388840675354
357.0,406.0,-1.0732,4.9358,8.3103,0.0165,-0.2451,0.0403,-1.8161694012083949,-1.6062133860935254e-29,3.1805849075317383,-1.7719274759292603,0.07687318325042725,2.4784913063049316,-1.2069455546191712,0.01206518430262804,0.3619123697280884,-2.0908177534686487,0.0001053844389389269,0.16163235902786255,0.5254751443862915,-6.100993778090924e-05,-0.03869590908288956,1.0033681392669678,-6.786749145248905e-05,-0.5790730714797974
357.0,406.0,-1.0732,4.9358,8.3103,0.0165,-0.2451,0.0403,-1.816165109673971,-3.8788162471673567e-35,3.1863484382629395,-1.771392822265625,0.08478438854217529,2.497945785522461,-1.206917629843094,0.0023066780995577574,0.3483980894088745,-2.0908010641681116,0.00010034773731604218,0.15565314888954163,0.5254268050193787,-5.862541001988575e-05,-0.035404425114393234,1.0033562183380127,-5.366566983866505e-05,-0.5600276589393616
357.0,406.0,-1.0732,4.9358,8.3103,0.0165,-0.2451,0.0403,-1.816125055352682,-6.98173277905793e-39,3.163492202758789,-1.771066427230835,0.0918591246008873,2.460186004638672,-1.2068573993495484,-0.001185008091852069,0.3362487554550171,-2.0907891432391565,9.7250820545014e-05,0.1494191586971283,0.5254952311515808,-5.713667633244768e-05,-0.02665436640381813,1.0033397674560547,-4.660343984141946e-05,-0.5775986909866333
357.0,406.0,-1.0732,4.9358,8.3103,0.0165,-0.2451,0.0403,-1.8161055050291957,-1.6815581571897805e-44,3.208343505859375,-1.7705388069152832,0.09943915903568268,2.54345965385437,-1.2069295805743714,-0.001637415960431099,0.35735541582107544,-2.090841595326559,9.294643678003922e-05,0.1522735357284546,0.5254428386688232,-5.50401491636876e-05,-0.04746134951710701,1.0033442974090576,7.352611282840371e-05,-0.5782337188720703
357.0,406.0,-1.0732,4.9358,8.3103,0.0165,-0.2451,0.0403,-1.816165109673971,0.0,3.180300712585449,-1.7701129913330078,0.10428022593259811,2.52761173248291,-1.2069173020175477,-0.000946001848205924,0.3452274203300476,-2.090785328541891,9.663272794568911e-05,0.1673043668270111,0.5254428386688232,-5.3725911129731685e-05,-0.021982472389936447,1.003403902053833,8.942113345256075e-05,-0.616521418094635
357.0,406.0,-1.0732,4.9358,8.3103,0.0165,-0.2451,0.0403,-1.8161212406554164,0.0,3.1678285598754883,-1.7694374322891235,0.10888756066560745,2.526731491088867,-1.2068975430778046,-0.000579032814130187,0.34495729207992554,-2.0908010641681116,9.89199397736229e-05,0.16590549051761627,0.5254751443862915,-5.186812995816581e-05,-0.030980346724390984,1.0033998489379883,0.0006725943530909717,-0.5575274229049683
357.0,406.0,-1.0732,4.9358,8.3103,0.0165,-0.2451,0.0403,-1.816153188745016,-0.00016143085667863488,3.1255531311035156,-1.7690073251724243,0.11145628243684769,2.563333034515381,-1.2069012981704255,-0.000460317125543952,0.34471017122268677,-2.0908497015582483,9.627616964280605e-05,0.15775589644908905,0.5254505276679993,-5.069938924862072e-05,-0.037227097898721695,1.0034279823303223,0.000627976784016937,-0.61137455701828
357.0,406.0,-1.0732,4.9358,8.3103,0.0165,-0.2451,0.0403,-1.8162170849242152,-0.00023290846729651093,3.126516819000244,-1.7683367729187012,0.1197441965341568,2.56900691986084,-1.2069615882686158,-0.00035212963121011853,0.33829495310783386,-2.090825859700338,9.256394696421921e-05,0.16632051765918732,0.5254911184310913,-1.6409462659794372e-06,-0.025403082370758057,1.0034117698669434,0.00048347326810471714,-0.6187387108802795
357.0,406.0,-1.0732,4.9358,8.3103,0.0165,-0.2451,0.0403,-1.8161808453001917,-0.0017748625250533223,3.191725254058838,-1.7676063776016235,0.1275680810213089,2.535799026489258,-1.2069570881179352,-0.0003914071130566299,0.3346370458602905,-2.0908339659320276,8.91268064151518e-05,0.16010445356369019,0.5253944993019104,-4.5676346038803217e-10,-0.04012282192707062,1.0034078359603882,0.00039297895273193717,-0.6070021390914917
357.0,406.0,-1.0732,4.9358,8.3103,0.0165,-0.2451,0.0403,-1.816193243066305,-0.0023487387225031853,3.2190890312194824,-1.7670841217041016,0.1328587830066681,2.593355655670166,-1.20691733181987,-0.0004013598372694105,0.34195783734321594,-2.0907891432391565,8.697256271261722e-05,0.16909955441951752,0.5255071520805359,-1.947254206838278e-12,-0.02383955381810665,1.0034359693527222,0.0003493844415061176,-0.6192501187324524
331.0,440.0,-1.2215,5.6207,8.3001,-0.0568,0.1332,-0.1805,-1.816221376458639,-0.003645614255219698,3.159830093383789,-1.7662384510040283,0.1401093304157257,2.5692660808563232,-1.2069938343814393,-0.00024315853079315275,0.3488205075263977,-2.0908010641681116,5.5917276768013835e-05,0.1653060019016266,0.5254709720611572,-5.420253826730914e-16,-0.02518254891037941,1.003443956375122,0.00029954270576126873,-0.5641368627548218
331.0,440.0,-1.2215,5.6207,8.3001,-0.0568,0.1332,-0.1805,-1.8162733517088832,-0.004016086459159851,3.1807737350463867,-1.7656594514846802,0.14614363014698029,2.569073438644409,-1.2069775623134156,-0.00021325037232600152,0.33640164136886597,-2.0907653013812464,5.267732558422722e-05,0.17175540328025818,0.5254345536231995,-2.3107391741293866e-18,-0.021633993834257126,1.0033799409866333,0.00027353022596798837,-0.6008105874061584
331.0,440.0,-1.2215,5.6207,8.3001,-0.0568,0.1332,-0.1805,-1.816293855706686,-0.003972875420004129,3.190765142440796,-1.7647528648376465,0.1509184092283249,2.58335542678833,-1.2069735091975708,-0.0001866763923317194,0.35236895084381104,-2.0908053557025355,5.973307997919619e-05,0.15687605738639832,0.5254464745521545,-6.432026489422261e-22,-0.04057639464735985,1.0034160614013672,0.0002420061209704727,-0.6110653877258301
331.0,440.0,-1.2215,5.6207,8.3001,-0.0568,0.1332,-0.1805,-1.8163014851012171,-0.0038427049294114113,3.167294502258301,-1.7641350030899048,0.15118703246116638,2.615823745727539,-1.2069410246661683,-0.00017237229621969163,0.3445547819137573,-2.0908177534686487,6.709717126796022e-05,0.15817996859550476,0.525479257106781,-2.742073998445769e-24,-0.030028246343135834,1.003403902053833,7.857599121052772e-05,-0.5629541277885437
331.0,440.0,-1.2215,5.6207,8.3001,-0.0568,0.1332,-0.1805,-1.816301008264059,-0.003007488092407584,3.215242862701416,-1.763245940208435,0.1577264964580536,2.5972847938537598,-1.2069570583156128,-0.00015460581926163286,0.3590054512023926,-2.090825859700338,0.0004005027003586292,0.1553434580564499,0.5254870057106018,-7.632663073733262e-28,-0.027623040601611137,1.0033724308013916,6.892526289448142e-05,-0.5470597147941589
331.0,440.0,-1.2215,5.6207,8.3001,-0.0568,0.1332,-0.1805,-1.8163215122618617,-0.0018617903115227818,3.1650376319885254,-1.7622759342193604,0.16718916594982147,2.616577625274658,-1.2069816452315827,-0.00016630142636131495,0.3484574556350708,-2.0908215681659144,0.0010095847537741065,0.1620684564113617,0.5254428386688232,-2.124579555919136e-31,-0.02305726520717144,1.003403902053833,6.182311335578561e-05,-0.5656883716583252
331.0,440.0,-1.2215,5.6207,8.3001,-0.0568,0.1332,-0.1805,-1.8163377247252406,-0.0017215869156643748,3.180314064025879,-1.7615373134613037,0.1745838075876236,2.63950514793396,-1.2069652837565918,-0.00018122086476068944,0.34885501861572266,-2.090785805379049,0.0011017897631973028,0.16304485499858856,0.525446891784668,-9.057415398536043e-34,-0.041944719851017,1.0033882856369019,2.8971850042580627e-05,-0.5452479720115662
331.0,440.0,-1.2215,5.6207,8.3001,-0.0568,0.1332,-0.1805,-1.8163896999754847,-0.003571922890841961,3.233670949935913,-1.7605289220809937,0.18422909080982208,2.613064765930176,-1.2069931489280243,-0.0002582135784905404,0.34382688999176025,-2.090757671986715,0.0008315732702612877,0.16616156697273254,0.5254627466201782,-2.521164853437478e-37,-0.040584031492471695,1.003380298614502,2.6381048883195035e-05,-0.5492556095123291
331.0,440.0,-1.2215,5.6207,8.3001,-0.0568,0.1332,-0.1805,-1.8164097271361292,-0.006775255315005779,3.182704448699951,-1.7597942352294922,0.1884487420320511,2.658703327178955,-1.2069853109172364,-0.0003001420700456947,0.35195308923721313,-2.090757671986715,0.0007236269302666187,0.16429181396961212,0.5254428386688232,-1.0748127377187066e-39,-0.031569793820381165,1.003403902053833,2.492006024112925e-05,-0.5442503690719604
331.0,440.0,-1.2215,5.6207,8.3001,-0.0568,0.1332,-0.1805,-1.8164941273131312,-0.0098500307649374,3.1831207275390625,-1.7586129903793335,0.18746936321258545,2.6367406845092773,-1.2070173186114808,-0.0005144179449416697,0.35302042961120605,-2.090761963521139,0.000681706122122705,0.15887653827667236,0.5254668593406677,-2.9847657290118604e-43,-0.03486540913581848,1.003420114517212,2.3008791686152108e-05,-0.5882890820503235
331.0,440.0,-1.2215,5.6207,8.3001,-0.0568,0.1332,-0.1805,-1.8165222607054652,-0.010926051065325737,3.166344165802002,-1.7578669786453247,0.1929188221693039,2.6600594520568848,-1.2069611114314576,-0.0005674917483702302,0.34458234906196594,-2.090733353291647,0.0006966455839574337,0.1696171909570694,0.5254628658294678,-1.401298464324817e-45,-0.030145350843667984,1.0034078359603882,2.188956568716094e-05,-0.5685722827911377
331.0,440.0,-1.2215,5.6207,8.3001,-0.0568,0.1332,-0.1805,-1.8165413341917933,-0.00948441680520773,3.183737277984619,-1.756693959236145,0.2034793496131897,2.700528621673584,-1.2069853109172364,-0.00041207519825547934,0.35068732500076294,-2.0907214323626917,0.0012996649602428079,0.15961012244224548,0.5254751443862915,-0.0,-0.050107888877391815,1.003395915031433,6.982679224165622e-06,-0.5598594546318054
331.0,440.0,-1.2215,5.6207,8.3001,-0.0568,0.1332,-0.1805,-1.816690584222311,-0.008228923194110394,3.177879810333252,-1.7554495334625244,0.21424634754657745,2.669877052307129,-1.2069771450809021,-0.0003866339975502342,0.3537009358406067,-2.0906971136676233,0.0016130093717947602,0.17483966052532196,0.5254751443862915,-0.0,-0.028619876131415367,1.0034321546554565,1.6862348323209986e-11,-0.5490015149116516
331.0,440.0,-1.2215,5.6207,8.3001,-0.0568,0.1332,-0.1805,-1.8166214428343714,-0.009340997785329819,3.191194534301758,-1.7546069622039795,0.21855613589286804,2.7235488891601562,-1.2070852679065247,-0.00044371135300025344,0.34578993916511536,-2.0907257238971155,0.0018358905799686909,0.15990214049816132,0.5254305005073547,-0.0,-0.03623839467763901,1.003352165222168,3.0351629955009674e-15,-0.5669724941253662
331.0,440.0,-1.2215,5.6207,8.3001,-0.0568,0.1332,-0.1805,-1.8167902431883753,-0.013193529099225998,3.24033260345459,-1.7532992362976074,0.21545155346393585,2.6689248085021973,-1.207033024435379,-0.001566762919537723,0.3627398610115051,-2.090733830128805,0.0016343931201845407,0.15862905979156494,0.5254464745521545,-0.0,-0.032648343592882156,1.0033882856369019,7.329561781714282e-21,-0.5500127077102661
331.0,440.0,-1.2215,5.6207,8.3001,-0.0568,0.1332,-0.1805,-1.8168865642943324,-0.016974642872810364,3.168722629547119,-1.7524049282073975,0.21828918159008026,2.6299614906311035,-1.2070448857596894,-0.0012155494187027216,0.3622349500656128,-2.0906694571124476,0.001613908214494586,0.16258083283901215,0.5255435109138489,-0.0,-0.03210627660155296,1.0033724308013916,1.3192952180189857e-24,-0.5737818479537964
331.0,440.0,-1.2215,5.6207,8.3001,-0.0568,0.1332,-0.1805,-1.8169909916319789,-0.01843290962278843,3.177452325820923,-1.7510195970535278,0.22709089517593384,2.7028822898864746,-1.2070289117148896,-0.0007694736705161631,0.37263989448547363,-2.090665642415182,0.002161781769245863,0.16986098885536194,0.5254428386688232,-0.0,-0.0348624549806118,1.0033923387527466,3.185942527112742e-30,-0.5946806073188782
331.0,440.0,-1.2215,5.6207,8.3001,-0.0568,0.1332,-0.1805,-1.8170587025084437,-0.015560314059257507,3.1710457801818848,-1.7496795654296875,0.23246954381465912,2.7309069633483887,-1.2070813041976471,-0.0005628594080917537,0.3492089509963989,-2.0906694571124476,0.0016809331718832254,0.15358665585517883,0.5254709720611572,-0.0,-0.031481966376304626,1.003443956375122,7.693677967824363e-36,-0.513735294342041
329.0,374.0,-1.6068,5.2618,8.525,-0.0664,0.1558,-0.2042,-1.817122598687643,-0.014319997280836105,3.1839494705200195,-1.7487108707427979,0.23248352110385895,2.7416880130767822,-1.2070247393897553,-0.0005431800964288414,0.3562108874320984,-2.090665642415182,0.0012430191272869706,0.17004740238189697,0.5254268050193787,-0.0,-0.02831760048866272,1.003391981124878,1.3848346086674648e-39,-0.5963404774665833
329.0,374.0,-1.6068,5.2618,8.525,-0.0664,0.1558,-0.2042,-1.8172313175597132,-0.01433008722960949,3.2064425945281982,-1.7472217082977295,0.2343454658985138,2.693850040435791,-1.2070489984801789,-0.00032328112865798175,0.3623040020465851,-2.0906460920916956,0.0009003765298984945,0.16048039495944977,0.5255189538002014,-0.0,-0.018138479441404343,1.0033562183380127,2.802596928649634e-45,-0.5786088109016418
329.0,374.0,-1.6068,5.2618,8.525,-0.0664,0.1558,-0.2042,-1.8172790012755335,-0.015578133054077625,3.2030792236328125,-1.7463326454162598,0.23587556183338165,2.6835455894470215,-1.2070853573134919,-0.0002822138194460422,0.37521621584892273,-2.090661350880758,0.000702965771779418,0.1519872099161148,0.5255029797554016,-0.0,-0.014698234386742115,1.0034117698669434,0.0,-0.6075409054756165
329.0,374.0,-1.6068,5.2618,8.525,-0.0664,0.1558,-0.2042,-1.8174072704710902,-0.016278591006994247,3.1925148963928223,-1.7448880672454834,0.23965583741664886,2.709909439086914,-1.207109199171402,-0.0002786185941658914,0.36821532249450684,-2.090677563344137,0.0006009625503793359,0.16640262305736542,0.5255112051963806,-0.0,-0.02515401504933834,1.0033763647079468,0.0,-0.5549137592315674
329.0,374.0,-1.6068,5.2618,8.525,-0.0664,0.1558,-0.2042,-1.8174306354918421,-0.015629751607775688,3.127315044403076,-1.7439181804656982,0.23987796902656555,2.727691650390625,-1.207068995838501,-0.0005063311546109617,0.3660520315170288,-2.090661350880758,0.0004681142163462937,0.16473816335201263,0.5254231691360474,-0.0,-0.03316199779510498,1.0033601522445679,0.0,-0.595779299736023
329.0,374.0,-1.6068,5.2618,8.525,-0.0664,0.1558,-0.2042,-1.8175555668272914,-0.01591808907687664,3.2374825477600098,-1.7424466609954834,0.2388651967048645,2.698383331298828,-1.2070849698833008,-0.0018679661443457007,0.35555851459503174,-2.090689484273092,0.0003712606558110565,0.1597195714712143,0.525486946105957,-0.0,-0.03220491111278534,1.003403902053833,0.0,-0.5797388553619385
329.0,374.0,-1.6068,5.2618,8.525,-0.0664,0.1558,-0.2042,-1.8176475963988246,-0.01736779883503914,3.1639671325683594,-1.7410023212432861,0.24324482679367065,2.7255892753601074,-1.2070887249759217,-0.0012190259294584394,0.3591831922531128,-2.0906737486468714,0.0003604201483540237,0.16905860602855682,0.525462806224823,-0.0,-0.029638532549142838,1.0033882856369019,0.0,-0.5411086678504944
329.0,374.0,-1.6068,5.2618,8.525,-0.0664,0.1558,-0.2042,-1.8177439175047816,-0.01694311387836933,3.1649293899536133,-1.740024209022522,0.24738991260528564,2.7646923065185547,-1.207112805252411,-0.0010957219637930393,0.369537353515625,-2.0906570593463343,0.00032770136022008955,0.15896405279636383,0.5254747271537781,-0.0,-0.02027648687362671,1.0033880472183228,0.0,-0.5451340675354004
329.0,374.0,-1.6068,5.2618,8.525,-0.0664,0.1558,-0.2042,-1.8178078136839808,-0.0169040709733963,3.1702075004577637,-1.7385122776031494,0.2502983510494232,2.7467620372772217,-1.2070968610099335,-0.0021073741372674704,0.3693850040435791,-2.0906694571124476,0.0002883245761040598,0.14168180525302887,0.5254709720611572,-0.0,-0.03396530821919441,1.0033562183380127,0.0,-0.5481603145599365
329.0,374.0,-1.6068,5.2618,8.525,-0.0664,0.1558,-0.2042,-1.8179480038084925,-0.01727260649204254,3.1690824031829834,-1.7374987602233887,0.24974465370178223,2.7687580585479736,-1.207196907406189,-0.004156399052590132,0.36729830503463745,-2.0906456152545374,0.0001887972030090168,0.1518537402153015,0.5255230665206909,-0.0,-0.03149108588695526,1.003395915031433,0.0,-0.6085641384124756
329.0,374.0,-1.6068,5.2618,8.525,-0.0664,0.1558,-0.2042,-1.8180443249144496,-0.02000344544649124,3.1447691917419434,-1.7360789775848389,0.2504517734050751,2.7007968425750732,-1.2072047752192994,-0.009474905207753181,0.356819748878479,-2.0906499067889612,0.0002244615025119856,0.1664493829011917,0.525438666343689,-0.0,-0.015551572665572166,1.0033724308013916,0.0,-0.5409687757492065
329.0,374.0,-1.6068,5.2618,8.525,-0.0664,0.1558,-0.2042,-1.8181120357909144,-0.021568167954683304,3.1664528846740723,-1.7351298332214355,0.25058355927467346,2.756706714630127,-1.2072445315173645,-0.012494377791881561,0.3591974377632141,-2.0906899611102503,0.00024400418624281883,0.18006587028503418,0.5254828929901123,-0.0,-0.026819417253136635,1.003424048423767,0.0,-0.5742557048797607
329.0,374.0,-1.6068,5.2618,8.525,-0.0664,0.1558,-0.2042,-1.818268438378805,-0.02552357129752636,3.2007548809051514,-1.7336374521255493,0.24819403886795044,2.7383432388305664,-1.2073683601668854,-0.011647512204945087,0.35616782307624817,-2.0906580130206507,0.0006380777340382338,0.14899179339408875,0.5254227519035339,-0.0,-0.028493188321590424,1.0034279823303223,0.0,-0.5330407619476318
329.0,374.0,-1.6068,5.2618,8.525,-0.0664,0.1558,-0.2042,-1.8184815845885218,-0.029498953372240067,3.1545615196228027,-1.732116460800171,0.24415871500968933,2.7482032775878906,-1.2074159544757386,-0.0081052640452981,0.34992897510528564,-2.0906298796283167,0.0010234648361802101,0.16514092683792114,0.5254223346710205,-0.0,-0.02634218893945217,1.0033719539642334,0.0,-0.5747800469398499
329.0,374.0,-1.6068,5.2618,8.525,-0.0664,0.1558,-0.2042,-1.818556924859518,-0.03158855438232422,3.1485700607299805,-1.7311755418777466,0.24515400826931,2.737722396850586,-1.2074401539615174,-0.004474635701626539,0.3567289412021637,-2.090609375630514,0.0010100174695253372,0.16357004642486572,0.5254628658294678,-0.0,-0.03319775313138962,1.0034677982330322,0.0,-0.5189924836158752
329.0,374.0,-1.6068,5.2618,8.525,-0.0664,0.1558,-0.2042,-1.8188101253905238,-0.034334246069192886,3.117359161376953,-1.7296152114868164,0.24838149547576904,2.739635944366455,-1.2074598532966156,-0.0017162894364446402,0.36188840866088867,-2.090621296559469,0.001017099479213357,0.15833309292793274,0.525471031665802,-0.0,-0.016805890947580338,1.0033880472183228,0.0,-0.5919656157493591
329.0,374.0,-1.6068,5.2618,8.525,-0.0664,0.1558,-0.2042,-1.8188978634276332,-0.0370628796517849,3.136533737182617,-1.728680968284607,0.24709497392177582,2.791193723678589,-1.2074839931777497,-0.0012948826188221574,0.3662397563457489,-2.090597454701559,0.000834253616631031,0.16235707700252533,0.5255107879638672,-0.0,-0.019009903073310852,1.0034359693527222,0.0,-0.5111809372901917
329.0,374.0,-1.6068,5.2618,8.525,-0.0664,0.1558,-0.2042,-1.8191420040526332,-0.042623572051525116,3.082609176635742,-1.7272181510925293,0.2393900603055954,2.735361099243164,-1.2074676317027588,-0.0009673648164607584,0.3574793338775635,-2.090637985860006,0.0006502827163785696,0.15073245763778687,0.5254305005073547,-0.0,-0.024130774661898613,1.0034359693527222,1.8246753825224005e-05,-0.5056118369102478
353.0,340.0,-1.6971,5.3527,8.196,-0.0814,0.2078,-0.241,-1.8193704090514125,-0.047101158648729324,3.124584197998047,-1.726320743560791,0.2395819127559662,2.726099729537964,-1.207459734087326,-0.001078180968761444,0.3532896041870117,-2.090625588093893,0.0004641831910703331,0.166237473487854,0.5254464745521545,-0.0,-0.027978327125310898,1.0034160614013672,3.708322765305638e-05,-0.563194990158081
353.0,340.0,-1.6971,5.3527,8.196,-0.0814,0.2078,-0.241,-1.819594522515768,-0.0502379946410656,3.101047992706299,-1.7248634099960327,0.24029698967933655,2.727909803390503,-1.2074516874602814,-0.0009093452244997025,0.35147809982299805,-2.090641800557272,0.0003528097877278924,0.13951745629310608,0.5255071520805359,-0.0,-0.022925741970539093,1.003403902053833,5.2382394642336294e-05,-0.5450683236122131
353.0,340.0,-1.6971,5.3527,8.196,-0.0814,0.2078,-0.241,-1.8199149570860804,-0.05722742900252342,3.031540870666504,-1.7234193086624146,0.23806506395339966,2.75942325592041,-1.2074635189822693,-0.0021361170802265406,0.3331892192363739,-2.0906298796283167,0.0003426341572776437,0.1663140505552292,0.5254747271537781,-0.0,-0.033048998564481735,1.0033601522445679,4.9509835662320256e-05,-0.5037297010421753
353.0,340.0,-1.6971,5.3527,8.196,-0.0814,0.2078,-0.241,-1.820212026635641,-0.06397099792957306,3.049704074859619,-1.722501277923584,0.229446142911911,2.7094552516937256,-1.207495169048645,-0.0033383823465555906,0.3543868064880371,-2.0905774275409144,0.0003287864092271775,0.16096511483192444,0.5254992842674255,-0.0,-0.022333484143018723,1.0033724308013916,4.775843262905255e-05,-0.508041262626648
353.0,340.0,-1.6971,5.3527,8.196,-0.0814,0.2078,-0.241,-1.820580621758932,-0.07581017166376114,3.081881284713745,-1.7211105823516846,0.22575779259204865,2.6944615840911865,-1.2075513166240235,-0.0025934146251529455,0.34871599078178406,-2.090581719075338,0.00035815415321849287,0.15322765707969666,0.525486946105957,-0.0,-0.022562414407730103,1.0034558773040771,4.535185144050047e-05,-0.4824298024177551
353.0,340.0,-1.6971,5.3527,8.196,-0.0814,0.2078,-0.241,-1.8208686314024867,-0.08082793653011322,3.0892486572265625,-1.7202434539794922,0.2251863330602646,2.739534616470337,-1.2075312596610566,-0.0015002114232629538,0.34635281562805176,-2.090602223073141,0.00042927925824187696,0.16194692254066467,0.525450587272644,-0.0,-0.02395056188106537,1.0034279823303223,4.387786611914635e-05,-0.5077469348907471
353.0,340.0,-1.6971,5.3527,8.196,-0.0814,0.2078,-0.241,-1.8213697872557582,-0.08801812678575516,3.050583600997925,-1.718870759010315,0.22431102395057678,2.69663143157959,-1.20753167689357,-0.000892705051228404,0.35630613565444946,-2.0905898253070276,0.0012802049750462174,0.1479651927947998,0.5254988670349121,-0.0,-0.022870298475027084,1.0033843517303467,4.1838164179353043e-05,-0.5359154343605042
353.0,340.0,-1.6971,5.3527,8.196,-0.0814,0.2078,-0.241,-1.8217302761473597,-0.09008145332336426,3.0478005409240723,-1.7179663181304932,0.22171929478645325,2.701462984085083,-1.2075513464263459,-0.0008885457646101713,0.3475734293460846,-2.0905335585223597,0.0015946211060509086,0.15405020117759705,0.5254464745521545,-0.0,-0.022695615887641907,1.003412127494812,4.058052945765667e-05,-0.4944617748260498
353.0,340.0,-1.6971,5.3527,8.196,-0.0814,0.2078,-0.241,-1.8222986660399378,-0.09365396201610565,3.0518264770507812,-1.7166873216629028,0.21624846756458282,2.685680389404297,-1.2074988645366211,-0.0008053857600316405,0.34124231338500977,-2.0905454794513147,0.0017698940355330706,0.15685319900512695,0.5254342555999756,-0.0,-0.018507350236177444,1.0033918619155884,3.88297121389769e-05,-0.4947021007537842
353.0,340.0,-1.6971,5.3527,8.196,-0.0814,0.2078,-0.241,-1.822899957696432,-0.09523694962263107,3.0221810340881348,-1.7154549360275269,0.20925407111644745,2.711030960083008,-1.2075754267028351,-0.0015869730850681663,0.34928783774375916,-2.090545956288473,0.0018788410816341639,0.1523100584745407,0.5254988670349121,-0.0,-0.02744211070239544,1.0033997297286987,4.539416477200575e-05,-0.48957937955856323
353.0,340.0,-1.6971,5.3527,8.196,-0.0814,0.2078,-0.241,-1.8233252964415492,-0.09703419357538223,3.0299017429351807,-1.7145702838897705,0.2039795070886612,2.6957802772521973,-1.2075832945159455,-0.002846464281901717,0.3606793284416199,-2.090553585683004,0.0014787610853090882,0.14856120944023132,0.525462806224823,-0.0,-0.027020854875445366,1.0034319162368774,4.829917088500224e-05,-0.4986652731895447
353.0,340.0,-1.6971,5.3527,8.196,-0.0814,0.2078,-0.241,-1.8239661655821742,-0.10363928973674774,3.031327962875366,-1.7133944034576416,0.19357629120349884,2.7107982635498047,-1.2076308888247986,-0.008864159695804119,0.33900392055511475,-2.09050161043276,0.0010513766901567578,0.14481303095817566,0.5254988670349121,-0.0,-0.014852218329906464,1.003403902053833,5.776441685156897e-05,-0.45946893095970154
353.0,340.0,-1.6971,5.3527,8.196,-0.0814,0.2078,-0.241,-1.824390550652975,-0.1106572300195694,3.005148410797119,-1.7126795053482056,0.18448644876480103,2.65423583984375,-1.207691029911377,-0.012886391952633858,0.3364677429199219,-2.09050161043276,0.0007886276580393314,0.14521151781082153,0.5254989266395569,-0.0,-0.024282310158014297,1.003403902053833,5.4298834584187716e-05,-0.4540521502494812
353.0,340.0,-1.6971,5.3527,8.196,-0.0814,0.2078,-0.241,-1.8249832592406214,-0.11967317014932632,3.0193562507629395,-1.7115471363067627,0.17230753600597382,2.6411170959472656,-1.2077259582332154,-0.015950655564665794,0.32782432436943054,-2.0904811064349573,0.0005949289188720286,0.1414153277873993,0.5254824757575989,-0.0,-0.015506168827414513,1.0034117698669434,4.9792528443504125e-05,-0.49422401189804077
353.0,340.0,-1.6971,5.3527,8.196,-0.0814,0.2078,-0.241,-1.825480123559469,-0.1256362497806549,2.999884605407715,-1.7108793258666992,0.1697685271501541,2.620716094970703,-1.207878516321518,-0.01605920121073723,0.33259379863739014,-2.090489212666647,0.0005072463536635041,0.15022164583206177,0.5254788398742676,-0.0,-0.01932268962264061,1.003443956375122,4.7182198613882065e-05,-0.45640069246292114
353.0,340.0,-1.6971,5.3527,8.196,-0.0814,0.2078,-0.241,-1.826179643670553,-0.12922607362270355,2.973435878753662,-1.7099272012710571,0.1624281257390976,2.6493988037109375,-1.2079383593848725,-0.01743691973388195,0.3160926103591919,-2.0905101935016077,0.00046332646161317825,0.15276385843753815,0.5255107879638672,-0.0,-0.015605613589286804,1.0033999681472778,4.374241689220071e-05,-0.4375638961791992
353.0,340.0,-1.6971,5.3527,8.196,-0.0814,0.2078,-0.241,-1.8270021877684535,-0.13160523772239685,2.933685064315796,-1.70896315574646,0.15771164000034332,2.643770217895508,-1.2080540221980591,-0.01835917867720127,0.3073117136955261,-2.090569798146383,0.0003811601491179317,0.1381438821554184,0.5254706144332886,-0.0,-0.01274038478732109,1.0033999681472778,4.077011544723064e-05,-0.44310155510902405
540.0,316.0,-2.1063,4.1055,7.1844,-0.1002,0.164,-0.2065,-1.82751526455068,-0.13300231099128723,2.9382483959198,-1.7083429098129272,0.15519489347934723,2.6927783489227295,-1.2081131798079987,-0.01861240342259407,0.31912243366241455,-2.0905259291278284,0.00034000194864347577,0.1329776793718338,0.525458812713623,-0.0,-0.03059959039092064,1.0034279823303223,3.90032546420116e-05,-0.37489670515060425
540.0,316.0,-2.1063,4.1055,7.1844,-0.1002,0.164,-0.2065,-1.8283025226988734,-0.13290353119373322,2.8853116035461426,-1.7074916362762451,0.14744114875793457,2.6052372455596924,-1.2083135706237336,-0.02464352920651436,0.29822835326194763,-2.0904977957354944,0.0002926106390077621,0.1275031417608261,0.5254788398742676,-0.0,-0.02264690399169922,1.0033602714538574,5.492388299899176e-05,-0.38354700803756714
540.0,316.0,-2.1063,4.1055,7.1844,-0.1002,0.164,-0.2065,-1.8288327656187953,-0.13991332054138184,2.8944473266601562,-1.7069315910339355,0.14096514880657196,2.6302390098571777,-1.2084005934051056,-0.03349985554814339,0.29211539030075073,-2.0904977957354944,0.0002677336160559207,0.12061870843172073,0.525510847568512,-0.0,-0.009012819267809391,1.003403902053833,5.2785984735237435e-05,-0.3897794485092163
540.0,316.0,-2.1063,4.1055,7.1844,-0.1002,0.164,-0.2065,-1.829710145989889,-0.15206752717494965,2.8556578159332275,-1.7060997486114502,0.13709433376789093,2.6470885276794434,-1.2086318892291565,-0.04849889129400253,0.3025434911251068,-2.0905259291278284,0.00023745464568492025,0.1100020632147789,0.5254669189453125,-0.0,-0.03534576669335365,1.0033884048461914,4.986155909136869e-05,-0.35600513219833374
540.0,316.0,-2.1063,4.1055,7.1844,-0.1002,0.164,-0.2065,-1.8303309879698695,-0.15650440752506256,2.807929515838623,-1.7055238485336304,0.1312563717365265,2.532977819442749,-1.2089074415019532,-0.06197122111916542,0.2563905119895935,-2.09050161043276,9.799111285246909e-05,0.11116883158683777,0.5254828333854675,-0.0,-0.027288245037198067,1.003364086151123,4.808557059732266e-05,-0.34984058141708374
540.0,316.0,-2.1063,4.1055,7.1844,-0.1002,0.164,-0.2065,-1.8312207661070765,-0.16372527182102203,2.8177788257598877,-1.7047632932662964,0.12640734016895294,2.5775763988494873,-1.2094061237624665,-0.09150988608598709,0.25051435828208923,-2.0905101935016077,7.761456072330475e-05,0.1212482899427414,0.525458812713623,-0.0,-0.021823804825544357,1.0033403635025024,4.564676419249736e-05,-0.32059037685394287
540.0,316.0,-2.1063,4.1055,7.1844,-0.1002,0.164,-0.2065,-1.832198282281393,-0.17003920674324036,2.799396514892578,-1.7040960788726807,0.12692439556121826,2.5567455291748047,-1.209979997282364,-0.12006703019142151,0.23876824975013733,-2.090518299733297,6.872101221233606e-05,0.10045836865901947,0.5255435705184937,-0.0,-0.02495356649160385,1.0033522844314575,4.344342232798226e-05,-0.28291553258895874
540.0,316.0,-2.1063,4.1055,7.1844,-0.1002,0.164,-0.2065,-1.8328591785826625,-0.17047889530658722,2.7497172355651855,-1.703603982925415,0.12387243658304214,2.5611753463745117,-1.2105747026256104,-0.1347545087337494,0.22866670787334442,-2.090517822896139,6.384522566804662e-05,0.10315318405628204,0.5255190134048462,-0.0,-0.026062924414873123,1.0033522844314575,4.208900281810202e-05,-0.2840443551540375
540.0,316.0,-2.1063,4.1055,7.1844,-0.1002,0.164,-0.2065,-1.8338567219176234,-0.16999408602714539,2.7714648246765137,-1.7028558254241943,0.1186414361000061,2.5801782608032227,-1.2113837760737916,-0.14101864397525787,0.22160863876342773,-2.090513531361715,2.9844126402167603e-05,0.09838703274726868,0.5255234241485596,-0.0,-0.0320570133626461,1.003372073173523,4.0208662539953366e-05,-0.2627227008342743
540.0,316.0,-2.1063,4.1055,7.1844,-0.1002,0.164,-0.2065,-1.8345338306822718,-0.17457899451255798,2.7829387187957764,-1.7023710012435913,0.1111862063407898,2.5405049324035645,-1.2119259399226685,-0.14513888955116272,0.223060742020607,-2.090517822896139,1.381385482090991e-05,0.0765201598405838,0.5254747271537781,-0.0,-0.03339895233511925,1.0033882856369019,3.904573532054201e-05,-0.3214336633682251
540.0,316.0,-2.1063,4.1055,7.1844,-0.1002,0.164,-0.2065,-1.8355876408019007,-0.1851402372121811,2.7136363983154297,-1.701759934425354,0.1008160188794136,2.50480318069458,-1.2129149597934266,-0.18380704522132874,0.1965460628271103,-2.090545956288473,3.84513754170257e-09,0.09401611983776093,0.5254546403884888,-0.0,-0.020939242094755173,1.0033761262893677,3.742223634617403e-05,-0.28084927797317505
540.0,316.0,-2.1063,4.1055,7.1844,-0.1002,0.164,-0.2065,-1.836341997186178,-0.18847015500068665,2.644684076309204,-1.7012710571289062,0.09970740228891373,2.5345511436462402,-1.2136722964099427,-0.2094980776309967,0.17467883229255676,-2.0905373732196253,1.63924238766322e-11,0.08259382098913193,0.5254751443862915,-0.0,-0.03299323096871376,1.0033363103866577,3.641287185018882e-05,-0.2718038260936737
540.0,316.0,-2.1063,4.1055,7.1844,-0.1002,0.164,-0.2065,-1.8374649486937464,-0.18902000784873962,2.676178455352783,-1.7007241249084473,0.10407186299562454,2.47280216217041,-1.2150045198253174,-0.22140094637870789,0.1668645739555359,-2.090545956288473,4.56289110092661e-15,0.08296826481819153,0.5254952311515808,-0.0,-0.04430023580789566,1.0033323764801025,-1.8940028894576244e-05,-0.20946578681468964
540.0,316.0,-2.1063,4.1055,7.1844,-0.1002,0.164,-0.2065,-1.8385516605772914,-0.18438546359539032,2.7042579650878906,-1.700071096420288,0.10505009442567825,2.5533814430236816,-1.2163590651801606,-0.24390242993831635,0.16134092211723328,-2.09052545229067,1.2700973666766903e-18,0.09520627558231354,0.5254992842674255,-0.0,-0.04520229995250702,1.0033442974090576,-5.3205025324132293e-05,-0.25679442286491394
540.0,316.0,-2.1063,4.1055,7.1844,-0.1002,0.164,-0.2065,-1.8393322430052699,-0.18831118941307068,2.678384304046631,-1.6996753215789795,0.10453329980373383,2.491856813430786,-1.2173760694316407,-0.2646525502204895,0.1479719877243042,-2.090529743825094,5.414623315576251e-21,0.07612839341163635,0.5254268050193787,-0.0,-0.03516772761940956,1.0033202171325684,-5.1413433538982645e-05,-0.25940120220184326
540.0,316.0,-2.1063,4.1055,7.1844,-0.1002,0.164,-0.2065,-1.840510984460348,-0.20210343599319458,2.7110936641693115,-1.6990636587142944,0.1058347150683403,2.5063066482543945,-1.2189840537360688,-0.27693483233451843,0.137371227145195,-2.0905540625201624,1.5071804877905766e-24,0.07791183143854141,0.5254911184310913,-2.6848138645618747e-07,-0.030209779739379883,1.0033081769943237,-4.863518552156165e-05,-0.20447775721549988
540.0,316.0,-2.1063,4.1055,7.1844,-0.1002,0.164,-0.2065,-1.8413945637144984,-0.21326763927936554,2.6947145462036133,-1.698603630065918,0.10769140720367432,2.524901866912842,-1.2201308471015473,-0.30654630064964294,0.10939757525920868,-2.090529743825094,6.4253467991069834e-27,0.07471800595521927,0.525458812713623,-1.1445780989660648e-09,-0.03666255623102188,1.0033323764801025,-4.694395829574205e-05,-0.2717324495315552
540.0,316.0,-2.1063,4.1055,7.1844,-0.1002,0.164,-0.2065,-1.842689653436178,-0.2184487134218216,2.6221208572387695,-1.6979234218597412,0.10947233438491821,2.491399049758911,-1.2220032674125214,-0.3182120621204376,0.11001431196928024,-2.0905659834491175,1.7885189805953215e-30,0.05723484978079796,0.5254230499267578,-3.185974975592615e-13,-0.03867900371551514,1.0033124685287476,-0.0003343707649037242,-0.2194642722606659
671.0,317.0,-2.8307,4.4279,7.1737,-0.0231,-0.0408,-0.084,-1.8435245953001917,-0.2104942947626114,2.6571574211120605,-1.6974635124206543,0.10995376110076904,2.5450236797332764,-1.2232590776732941,-0.334651917219162,0.09588520228862762,-2.090513531361715,7.624737577433225e-33,0.06046263128519058,0.525458812713623,-1.3582307775703083e-15,-0.03488540276885033,1.0032564401626587,-0.0018013780936598778,-0.214499831199646
671.0,317.0,-2.8307,4.4279,7.1737,-0.0231,-0.0408,-0.084,-1.8448683224120082,-0.2078831046819687,2.636641025543213,-1.696808099746704,0.11117474734783173,2.4790263175964355,-1.2253485482982178,-0.35073965787887573,0.10093983262777328,-2.090529743825094,2.122373740368038e-36,0.07762034982442856,0.5254628658294678,-0.0004677825199905783,-0.03997140750288963,1.003252625465393,-0.001975855091586709,-0.140152245759964
671.0,317.0,-2.8307,4.4279,7.1737,-0.0231,-0.0408,-0.084,-1.8462006054320277,-0.21669736504554749,2.618133783340454,-1.696167230606079,0.11170689761638641,2.483344316482544,-1.227632687692978,-0.3859555125236511,0.07771395891904831,-2.0905173460589808,5.90770616977771e-40,0.08228379487991333,0.5254268050193787,-0.00044288308708928525,-0.05563695728778839,1.0032285451889038,-0.0012785213766619563,-0.18107543885707855
671.0,317.0,-2.8307,4.4279,7.1737,-0.0231,-0.0408,-0.084,-1.847119470635885,-0.22349075973033905,2.6881046295166016,-1.6957275867462158,0.11252249032258987,2.495274543762207,-1.229237900381424,-0.3905543088912964,0.08855223655700684,-2.0905492941485804,-0.0002670728135854006,0.07795946300029755,0.5254915356636047,-0.0003891688247676939,-0.04116697609424591,1.003252387046814,-0.000913277268409729,-0.21931269764900208
671.0,317.0,-2.8307,4.4279,7.1737,-0.0231,-0.0408,-0.084,-1.8485027752318324,-0.22316457331180573,2.6591734886169434,-1.6950643062591553,0.11701320111751556,2.504807949066162,-1.2316549581340333,-0.40825045108795166,0.06306178867816925,-2.090557877217428,-0.00028303181170485914,0.06581248342990875,0.5254550576210022,-0.00037498382152989507,-0.04846916347742081,1.0032325983047485,-0.000576608523260802,-0.23759695887565613
671.0,317.0,-2.8307,4.4279,7.1737,-0.0231,-0.0408,-0.084,-1.8493496380248011,-0.21796035766601562,2.6466383934020996,-1.6945916414260864,0.1215590313076973,2.5013785362243652,-1.2332820755294343,-0.4154064953327179,0.06408952921628952,-2.0905492941485804,-0.000260006490861997,0.06899605691432953,0.5254230499267578,-0.00038316461723297834,-0.05197552591562271,1.0032405853271484,-0.0007235387456603348,-0.22406119108200073
671.0,317.0,-2.8307,4.4279,7.1737,-0.0231,-0.0408,-0.084,-1.8507210216917933,-0.2123572677373886,2.670928955078125,-1.6938154697418213,0.13061261177062988,2.5456414222717285,-1.2359680396369477,-0.43912649154663086,0.07130756974220276,-2.090581719075338,-0.00026436912594363093,0.06882349401712418,0.5253825783729553,-0.00036677788011729717,-0.04920923337340355,1.0032525062561035,-0.0014721982879564166,-0.23168331384658813
671.0,317.0,-2.8307,4.4279,7.1737,-0.0231,-0.0408,-0.084,-1.851515909234518,-0.21391215920448303,2.70524525642395,-1.693319320678711,0.13405907154083252,2.5189671516418457,-1.237892822628357,-0.45892131328582764,0.055149227380752563,-2.090581719075338,-0.00031342520378530025,0.07206404209136963,0.5255277156829834,-0.0003774680953938514,-0.05109318345785141,1.0032365322113037,-0.0015452371444553137,-0.20529717206954956
671.0,317.0,-2.8307,4.4279,7.1737,-0.0231,-0.0408,-0.084,-1.852823396722311,-0.2244911789894104,2.6675500869750977,-1.69248366355896,0.1338922083377838,2.533430576324463,-1.2407140296748658,-0.4822964072227478,0.038928523659706116,-2.0905774275409144,-0.0003694600600283593,0.07804949581623077,0.5254148840904236,-0.0003659742942545563,-0.06500659883022308,1.0031726360321045,-0.001998192397877574,-0.25944656133651733
671.0,317.0,-2.8307,4.4279,7.1737,-0.0231,-0.0408,-0.084,-1.8541418514647425,-0.22474351525306702,2.731661796569824,-1.6916265487670898,0.1307709515094757,2.537721633911133,-1.2436513763717194,-0.4996418058872223,0.03985912725329399,-2.090602223073141,-0.0003069339436478913,0.07175852358341217,0.5254312753677368,-0.0004985512350685894,-0.06581638008356094,1.003172516822815,-0.003910896368324757,-0.24313099682331085
671.0,317.0,-2.8307,4.4279,7.1737,-0.0231,-0.0408,-0.084,-1.8549658260741175,-0.21802452206611633,2.736985683441162,-1.6910712718963623,0.1321171075105667,2.518097162246704,-1.2455503207496186,-0.5156448483467102,0.035854071378707886,-2.090609852467672,-0.0002755934256128967,0.07001306861639023,0.5254189372062683,-0.0005004798877052963,-0.06728068739175797,1.0031204223632812,-0.005098708905279636,-0.2732078731060028
671.0,317.0,-2.8307,4.4279,7.1737,-0.0231,-0.0408,-0.084,-1.8562284908690394,-0.20652417838573456,2.723862409591675,-1.6902828216552734,0.13854141533374786,2.5272579193115234,-1.2487196785262604,-0.5305830240249634,0.0373910516500473,-2.090541187916891,-0.000238991022342816,0.07343991100788116,0.5253907442092896,-0.0006933765253052115,-0.08166235685348511,1.0031086206436157,-0.006805472541600466,-0.250479519367218
671.0,317.0,-2.8307,4.4279,7.1737,-0.0231,-0.0408,-0.084,-1.8570181332030238,-0.20195700228214264,2.764146327972412,-1.6897027492523193,0.1427411139011383,2.541269302368164,-1.250752256517746,-0.5305461883544922,0.03184203431010246,-2.090597931538717,-0.00021955343254376203,0.07811544835567474,0.5254390835762024,-0.0006451692315749824,-0.07611977308988571,1.0030848979949951,-0.007365107536315918,-0.23666319251060486
671.0,317.0,-2.8307,4.4279,7.1737,-0.0231,-0.0408,-0.084,-1.8582517109312953,-0.19505557417869568,2.766972064971924,-1.6888107061386108,0.1497119814157486,2.5583746433258057,-1.253984884624817,-0.5349366068840027,0.038285017013549805,-2.0905454794513147,-0.0001956810156116262,0.06458530575037003,0.5253949165344238,-0.0006314570782706141,-0.06677594035863876,1.0030808448791504,-0.00635313056409359,-0.32233312726020813
671.0,317.0,-2.8307,4.4279,7.1737,-0.0231,-0.0408,-0.084,-1.858995100060934,-0.18884015083312988,2.814359188079834,-1.6882429122924805,0.1506500393152237,2.6197357177734375,-1.2561976176551362,-0.5476934313774109,0.049951910972595215,-2.090581719075338,-0.0001824554638005793,0.09837997704744339,0.5253747701644897,-0.0005808257265016437,-0.09921273589134216,1.0030406713485718,-0.005889011546969414,-0.28411564230918884
671.0,317.0,-2.8307,4.4279,7.1737,-0.0231,-0.0408,-0.084,-1.8600827656187953,-0.18074114620685577,2.8000054359436035,-1.6873716115951538,0.15671981871128082,2.5594735145568848,-1.2595991355231781,-0.5575708150863647,0.044961582869291306,-2.0905898253070276,-0.00016566170961596072,0.07972985506057739,0.5253989696502686,-0.0005210235249251127,-0.07857587933540344,1.0030049085617065,-0.00472733611240983,-0.2848442792892456
671.0,317.0,-2.8307,4.4279,7.1737,-0.0231,-0.0408,-0.084,-1.8612104854979457,-0.17916038632392883,2.8134875297546387,-1.6863067150115967,0.15455974638462067,2.5862200260162354,-1.2629240912250062,-0.5665076971054077,0.04420851916074753,-2.090585533772604,-0.00015169905964285135,0.09475870430469513,0.5253829956054688,-0.0004772745305672288,-0.07010304927825928,1.0029852390289307,-0.004221589304506779,-0.29780787229537964
556.0,314.0,-2.2331,5.0285,8.3025,0.0869,-0.4259,0.109,-1.8618775806822718,-0.1776995211839676,2.8576881885528564,-1.6857030391693115,0.15344484150409698,2.5600593090057373,-1.2651442748359223,-0.5676088333129883,0.05150142312049866,-2.090581719075338,-0.00014362865476869047,0.08980436623096466,0.5253912210464478,-0.0004036662576254457,-0.08049072325229645,1.0029774904251099,-0.004391614813357592,-0.339474081993103
556.0,314.0,-2.2331,5.0285,8.3025,0.0869,-0.4259,0.109,-1.8628326855101527,-0.17171762883663177,2.911651611328125,-1.6847749948501587,0.15476691722869873,2.5163631439208984,-1.2685259145549317,-0.5788838863372803,0.05415056645870209,-2.0905612150775355,-0.00011658043513307348,0.10181979835033417,0.5253989696502686,-0.00037178199272602797,-0.08947018533945084,1.0029858350753784,-0.005237974226474762,-0.346439927816391
556.0,314.0,-2.2331,5.0285,8.3025,0.0869,-0.4259,0.109,-1.8635202846922816,-0.16647246479988098,2.880831003189087,-1.684118628501892,0.15792587399482727,2.5836265087127686,-1.2708290678313752,-0.574675440788269,0.06803257018327713,-2.090609852467672,-0.00010566512355580926,0.09960570931434631,0.5253949165344238,-0.0003742999688256532,-0.09394671022891998,1.0028650760650635,-0.007078301627188921,-0.3504055142402649
556.0,314.0,-2.2331,5.0285,8.3025,0.0869,-0.4259,0.109,-1.8644195995726527,-0.15217959880828857,2.9148712158203125,-1.6831790208816528,0.16477471590042114,2.594306707382202,-1.2742316287807007,-0.5676988363265991,0.08171262592077255,-2.0906017462359827,-9.868987399386242e-05,0.09313935041427612,0.5254150032997131,-0.00032817202736623585,-0.09058976173400879,1.0029059648513794,-0.008370556868612766,-0.35124456882476807
556.0,314.0,-2.2331,5.0285,8.3025,0.0869,-0.4259,0.109,-1.865007062951559,-0.14374855160713196,2.950118064880371,-1.6825112104415894,0.1694914996623993,2.5857653617858887,-1.2765264970115204,-0.5752405524253845,0.07533574849367142,-2.0906217733966272,-9.45428546401672e-05,0.10110822319984436,0.5253629684448242,-0.00033945945324376225,-0.08902107924222946,1.0028533935546875,-0.009104919619858265,-0.40110865235328674
556.0,314.0,-2.2331,5.0285,8.3025,0.0869,-0.4259,0.109,-1.8658706150450648,-0.14010010659694672,2.969944477081299,-1.6814182996749878,0.17160236835479736,2.5558199882507324,-1.2799076598933716,-0.5708445906639099,0.06716650724411011,-2.090625588093893,-8.893715857993811e-05,0.10755601525306702,0.525346577167511,-0.00032904554973356426,-0.0840345025062561,1.002760887145996,-0.007872063666582108,-0.44626086950302124
556.0,314.0,-2.2331,5.0285,8.3025,0.0869,-0.4259,0.109,-1.866697450677389,-0.13826768100261688,2.9488413333892822,-1.680407166481018,0.17279256880283356,2.6267247200012207,-1.2832718056491395,-0.5660751461982727,0.07632704079151154,-2.090614144002096,-8.395907934755087e-05,0.10353957861661911,0.5253829956054688,-0.000323585350997746,-0.08324208110570908,1.0027453899383545,-0.006096115801483393,-0.45410341024398804
556.0,314.0,-2.2331,5.0285,8.3025,0.0869,-0.4259,0.109,-1.8672453365721644,-0.13202400505542755,3.0025627613067627,-1.6796420812606812,0.1773219108581543,2.5891411304473877,-1.2856013637832184,-0.5556931495666504,0.07968810945749283,-2.090614144002096,-8.093869837466627e-05,0.11192725598812103,0.5253912210464478,-0.000372427748516202,-0.09471046924591064,1.0027697086334229,-0.005561623722314835,-0.46090906858444214
556.0,314.0,-2.2331,5.0285,8.3025,0.0869,-0.4259,0.109,-1.8679973087706507,-0.12081038951873779,3.064685344696045,-1.6786065101623535,0.1833684891462326,2.611501693725586,-1.2889131170562287,-0.5523251295089722,0.0833435207605362,-2.0905492941485804,-7.679485861444846e-05,0.11795005947351456,0.5253387093544006,-0.0005188057548366487,-0.08725649863481522,1.0026814937591553,-0.0062346444465219975,-0.5230189561843872
556.0,314.0,-2.2331,5.0285,8.3025,0.0869,-0.4259,0.109,-1.8684402904906214,-0.11097530275583267,3.068190097808838,-1.6778380870819092,0.18759778141975403,2.6722307205200195,-1.291239784365036,-0.5453569889068604,0.1087159663438797,-2.0905731360064905,-5.990873614791781e-05,0.11683080345392227,0.5253629684448242,-0.0008238212903961539,-0.08844482153654099,1.0026495456695557,-0.007193520665168762,-0.48484447598457336
556.0,314.0,-2.2331,5.0285,8.3025,0.0869,-0.4259,0.109,-1.869092126885885,-0.09732178598642349,3.1170945167541504,-1.6766939163208008,0.191164031624794,2.670442819595337,-1.2944554847529908,-0.5304320454597473,0.11411572992801666,-2.0905898253070276,-5.660595707013272e-05,0.11911216378211975,0.5253670811653137,-0.0010323692113161087,-0.0871383547782898,1.002661943435669,-0.007636564783751965,-0.5319430232048035
556.0,314.0,-2.2331,5.0285,8.3025,0.0869,-0.4259,0.109,-1.8695160351195277,-0.09224674850702286,3.104748249053955,-1.675917625427246,0.19036242365837097,2.6277122497558594,-1.2965901356986542,-0.5294694900512695,0.1198650598526001,-2.0905731360064905,-4.162162804277614e-05,0.13064120709896088,0.5253830552101135,-0.0013733218656852841,-0.09814324975013733,1.0026545524597168,-0.007471667602658272,-0.5212026834487915
556.0,314.0,-2.2331,5.0285,8.3025,0.0869,-0.4259,0.109,-1.8700276813902796,-0.08982634544372559,3.1790146827697754,-1.674838662147522,0.1916946917772293,2.6397480964660645,-1.2997294229320069,-0.5228868126869202,0.10733123123645782,-2.0905612150775355,-3.9360053051495925e-05,0.12328004837036133,0.5253432989120483,-0.002284375485032797,-0.10340984165668488,1.002554178237915,-0.007714825216680765,-0.5240906476974487
556.0,314.0,-2.2331,5.0285,8.3025,0.0869,-0.4259,0.109,-1.8705669842162074,-0.08698968589305878,3.2261524200439453,-1.6736383438110352,0.1969359815120697,2.660719633102417,-1.3028097611716767,-0.5119956731796265,0.10590700805187225,-2.090609852467672,-3.771069896174595e-05,0.1287115067243576,0.5252830386161804,-0.0042648701928555965,-0.09559865295886993,1.0025303363800049,-0.00867858249694109,-0.5302452445030212
556.0,314.0,-2.2331,5.0285,8.3025,0.0869,-0.4259,0.109,-1.870939394036764,-0.08521118760108948,3.215529680252075,-1.6727936267852783,0.2021317183971405,2.647944927215576,-1.3047442001155396,-0.5006360411643982,0.12574997544288635,-2.090541187916891,-3.668594581540674e-05,0.12625662982463837,0.5252630710601807,-0.0056138960644602776,-0.10122351348400116,1.002485990524292,-0.009313683956861496,-0.5586009621620178
556.0,314.0,-2.2331,5.0285,8.3025,0.0869,-0.4259,0.109,-1.8713861904540003,-0.08136964589357376,3.179089069366455,-1.671570062637329,0.20889443159103394,2.67533278465271,-1.3076170545867463,-0.4844971001148224,0.12671372294425964,-2.090609852467672,-3.524908242980018e-05,0.12610316276550293,0.5252630114555359,-0.005359321366995573,-0.08656951785087585,1.0024704933166504,-0.00953196082264185,-0.5526739358901978
556.0,314.0,-2.2331,5.0285,8.3025,0.0869,-0.4259,0.109,-1.871718545953268,-0.07812852412462234,3.2284741401672363,-1.6706732511520386,0.21185514330863953,2.683562994003296,-1.3094267410090943,-0.47244518995285034,0.13223598897457123,-2.0905731360064905,-3.4373475500615314e-05,0.13699352741241455,0.5252671241760254,-0.003589425003156066,-0.09344537556171417,1.0024023056030273,-0.00931809563189745,-0.5640807151794434
556.0,314.0,-2.2331,5.0285,8.3025,0.0869,-0.4259,0.109,-1.8721777401366175,-0.0715758427977562,3.2318477630615234,-1.669405221939087,0.2190941572189331,2.6737546920776367,-1.3121606570533295,-0.4476388990879059,0.15426558256149292,-2.090602223073141,2.5673831260064617e-05,0.12899070978164673,0.5252835154533386,-0.0011231552343815565,-0.09268774092197418,1.0023585557937622,-0.007960856892168522,-0.6202832460403442
289.0,459.0,-0.3727,6.2668,8.8774,0.1083,-0.4302,0.1458,-1.872629781762594,-0.06621067970991135,3.2387619018554688,-1.6680735349655151,0.23114000260829926,2.7261605262756348,-1.3146900099566956,-0.4221082925796509,0.15445557236671448,-2.0905898253070276,2.4635985027998686e-05,0.1414412558078766,0.5252473950386047,-0.0003063454932998866,-0.1057952269911766,1.00235915184021,-0.005761375650763512,-0.6426104307174683
289.0,459.0,-0.3727,6.2668,8.8774,0.1083,-0.4302,0.1458,-1.872897287408346,-0.06435918062925339,3.277413845062256,-1.6671534776687622,0.23540595173835754,2.6932311058044434,-1.316353217964508,-0.41418352723121643,0.1593838483095169,-2.090553108845846,1.2783209967892617e-05,0.13434907793998718,0.5252511501312256,-0.0002283377543790266,-0.1030915156006813,1.0023751258850098,-0.004895548336207867,-0.6014151573181152
289.0,459.0,-0.3727,6.2668,8.8774,0.1083,-0.4302,0.1458,-1.8733250103392542,-0.06221187859773636,3.272233009338379,-1.6657657623291016,0.23684737086296082,2.6953511238098145,-1.318883405332901,-0.3972707688808441,0.19891509413719177,-2.0905898253070276,8.236087887780741e-05,0.13484275341033936,0.5252474546432495,-0.0001652712671784684,-0.09768302738666534,1.002342939376831,-0.0026812253054231405,-0.598922610282898
289.0,459.0,-0.3727,6.2668,8.8774,0.1083,-0.4302,0.1458,-1.8735524616637171,-0.06052447482943535,3.2758021354675293,-1.664777398109436,0.23770451545715332,2.6804943084716797,-1.320370839243271,-0.3915119469165802,0.18132248520851135,-2.0906298796283167,7.012940477579832e-05,0.14040632545948029,0.5252752304077148,-0.0001396076550008729,-0.09788712859153748,1.0022989511489868,-0.0017294423887506127,-0.6082272529602051
289.0,459.0,-0.3727,6.2668,8.8774,0.1083,-0.4302,0.1458,-1.8739243946471156,-0.05466114729642868,3.3033018112182617,-1.6633450984954834,0.24567539989948273,2.7075867652893066,-1.3227048081210633,-0.36252087354660034,0.18873897194862366,-2.0905612150775355,5.683643030351959e-05,0.1424938440322876,0.5252474546432495,-0.00011324023216729984,-0.08564818650484085,1.0022870302200317,-0.0009446400217711926,-0.5806354284286499
289.0,459.0,-0.3727,6.2668,8.8774,0.1083,-0.4302,0.1458,-1.87416472057485,-0.04970823600888252,3.329071521759033,-1.6623811721801758,0.2531666159629822,2.7138192653656006,-1.3240653586438675,-0.3582618534564972,0.20075172185897827,-2.0905655066119593,5.046009027864784e-05,0.14804218709468842,0.5252473950386047,-0.00010057914187200367,-0.08323304355144501,1.0022790431976318,-0.0008149489876814187,-0.6281824111938477
289.0,459.0,-0.3727,6.2668,8.8774,0.1083,-0.4302,0.1458,-1.8744484386839808,-0.042654141783714294,3.339747905731201,-1.6609296798706055,0.2518114149570465,2.749040126800537,-1.326130987410881,-0.329300194978714,0.2134217619895935,-2.0905774275409144,4.3192536395508796e-05,0.13042382895946503,0.5252432823181152,-0.00012914935359731317,-0.08870073407888412,1.002294898033142,-0.0005385640542954206,-0.612139105796814
289.0,459.0,-0.3727,6.2668,8.8774,0.1083,-0.4302,0.1458,-1.8746839962401332,-0.03994831070303917,3.321777820587158,-1.6593818664550781,0.24547217786312103,2.667571544647217,-1.3281273555806656,-0.31702107191085815,0.2070508897304535,-2.090602223073141,7.546478445874527e-05,0.13052642345428467,0.5252634286880493,-0.00011297931632725522,-0.08217322826385498,1.002334713935852,-0.00032631817157380283,-0.7040612697601318
289.0,459.0,-0.3727,6.2668,8.8774,0.1083,-0.4302,0.1458,-1.874876161614889,-0.03859220817685127,3.332001209259033,-1.6584137678146362,0.24568399786949158,2.7615127563476562,-1.3293352884105225,-0.29608824849128723,0.24641916155815125,-2.0905941168414515,9.986316581489518e-05,0.14318063855171204,0.5252351760864258,-0.0001042529329424724,-0.09506496787071228,1.0023388862609863,-0.0002693228598218411,-0.614920973777771
289.0,459.0,-0.3727,6.2668,8.8774,0.1083,-0.4302,0.1458,-1.875035902062887,-0.03502052277326584,3.3586249351501465,-1.656838059425354,0.2517964839935303,2.74277400970459,-1.3310740006021042,-0.2902199625968933,0.2358887791633606,-2.090553585683004,9.36235737754032e-05,0.13438059389591217,0.5252552628517151,-9.342865814687684e-05,-0.0942649096250534,1.0023267269134521,-0.0002133871748810634,-0.5887664556503296
289.0,459.0,-0.3727,6.2668,8.8774,0.1083,-0.4302,0.1458,-1.875155588189596,-0.031830254942178726,3.3674001693725586,-1.6557978391647339,0.2540331482887268,2.7513136863708496,-1.3322239828160782,-0.26822319626808167,0.23912867903709412,-2.090597931538717,8.7552129116375e-05,0.13679158687591553,0.5252511501312256,-8.738059113966301e-05,-0.10058949887752533,1.0023226737976074,-0.0001959935761988163,-0.6000347137451172
289.0,459.0,-0.3727,6.2668,8.8774,0.1083,-0.4302,0.1458,-1.8753835163512171,-0.029353424906730652,3.358928680419922,-1.6542588472366333,0.2538869082927704,2.7535576820373535,-1.3336467158845444,-0.239597886800766,0.258924275636673,-2.0905736128436487,0.00010592152102617547,0.12836986780166626,0.5251786708831787,-7.964677934069186e-05,-0.09573544561862946,1.0023787021636963,-0.00012636433530133218,-0.6029933094978333
289.0,459.0,-0.3727,6.2668,8.8774,0.1083,-0.4302,0.1458,-1.8754874668517054,-0.02780005894601345,3.330118417739868,-1.6532150506973267,0.25443118810653687,2.7563939094543457,-1.334620551472046,-0.22277642786502838,0.26738643646240234,-2.090541187916891,0.0001004465957521461,0.14017415046691895,0.5252151489257812,-7.520926010329276e-05,-0.10059179365634918,1.0023666620254517,0.00015956524293869734,-0.5967891216278076
289.0,459.0,-0.3727,6.2668,8.8774,0.1083,-0.4302,0.1458,-1.8756395779051722,-0.028720062226057053,3.3349223136901855,-1.6516516208648682,0.2619737684726715,2.7853288650512695,-1.3357126724771042,-0.17432381212711334,0.2940777838230133,-2.090569798146383,9.268939174944535e-05,0.13872960209846497,0.5252794623374939,-6.940863386262208e-05,-0.09494681656360626,1.0023666620254517,0.0012097865110263228,-0.6133621335029602
289.0,459.0,-0.3727,6.2668,8.8774,0.1083,-0.4302,0.1458,-1.8758470020689906,-0.03165114298462868,3.3496289253234863,-1.6501108407974243,0.2591898739337921,2.7499239444732666,-1.3367584508708497,-0.15588966012001038,0.29993271827697754,-2.090581719075338,8.604271715739742e-05,0.13162259757518768,0.5252392292022705,-6.443870370276272e-05,-0.09781710803508759,1.0023349523544312,0.0008608161006122828,-0.6527626514434814
289.0,459.0,-0.3727,6.2668,8.8774,0.1083,-0.4302,0.1458,-1.8760277233519496,-0.03485792130231857,3.3762950897216797,-1.6490554809570312,0.25628599524497986,2.7217040061950684,-1.3373570305160065,-0.15375813841819763,0.304135799407959,-2.0905898253070276,8.211736712837592e-05,0.14468669891357422,0.525210976600647,-6.150292756501585e-05,-0.09200072288513184,1.0024187564849854,0.0006759567768312991,-0.6240653991699219
289.0,459.0,-0.3727,6.2668,8.8774,0.1083,-0.4302,0.1458,-1.876207014123434,-0.040455058217048645,3.3426289558410645,-1.6474723815917969,0.26116275787353516,2.7121853828430176,-1.3381262880614777,-0.12586989998817444,0.31170785427093506,-2.0905898253070276,7.685764285270125e-05,0.14268313348293304,0.5252114534378052,-5.756873360951431e-05,-0.09807202219963074,1.0023342370986938,0.0005868189036846161,-0.6625813245773315
247.0,684.0,0.4361,6.5234,9.1454,0.0536,-0.1393,-0.1023,-1.8763629398741664,-0.042827341705560684,3.351452350616455,-1.6464041471481323,0.26342183351516724,2.753199577331543,-1.3386291575482865,-0.10015153139829636,0.3262869417667389,-2.0905731360064905,7.371027459157631e-05,0.14544710516929626,0.5251991152763367,-5.5214059102581814e-05,-0.09676863998174667,1.0023987293243408,0.0005653087282553315,-0.6074559092521667
247.0,684.0,0.4361,6.5234,9.1454,0.0536,-0.1393,-0.1023,-1.8766504726805628,-0.04709252715110779,3.3753461837768555,-1.6448205709457397,0.26367396116256714,2.7668533325195312,-1.3390836429646988,-0.057829465717077255,0.3408493399620056,-2.0905612150775355,6.944441702216864e-05,0.1410735845565796,0.5252392292022705,-5.2022471209056675e-05,-0.08684760332107544,1.002402663230896,0.0010657008970156312,-0.5587199330329895
247.0,684.0,0.4361,6.5234,9.1454,0.0536,-0.1393,-0.1023,-1.8768631420531214,-0.049066055566072464,3.410684585571289,-1.6437654495239258,0.2643616795539856,2.753969669342041,-1.3392790865949173,-0.03192008659243584,0.36598366498947144,-2.090602223073141,6.686476262984797e-05,0.14783456921577454,0.5252711772918701,-5.009209780837409e-05,-0.07584073394536972,1.0023826360702515,0.0009898063726723194,-0.6475564241409302
247.0,684.0,0.4361,6.5234,9.1454,0.0536,-0.1393,-0.1023,-1.8772264919676722,-0.058638039976358414,3.322763442993164,-1.6421891450881958,0.2665598392486572,2.733168125152588,-1.3393466633609314,-0.002233433071523905,0.3800010085105896,-2.0905655066119593,6.33356612524949e-05,0.14668585360050201,0.525222897529602,-1.5921981685096398e-05,-0.088472880423069,1.002410650253296,0.0010908746626228094,-0.5946828126907349
247.0,684.0,0.4361,6.5234,9.1454,0.0536,-0.1393,-0.1023,-1.8776146374144496,-0.06845972687005997,3.3507604598999023,-1.6406655311584473,0.2661266624927521,2.762834072113037,-1.3392945390990754,0.0128170782700181,0.38784682750701904,-2.0905731360064905,8.707265078555793e-05,0.15034407377243042,0.525210976600647,1.5725341654615477e-05,-0.08392573893070221,1.0024305582046509,0.001320584095083177,-0.6491371393203735
247.0,684.0,0.4361,6.5234,9.1454,0.0536,-0.1393,-0.1023,-1.8778859577574671,-0.07616155594587326,3.396782398223877,-1.639617919921875,0.2624017000198364,2.7916154861450195,-1.3391860139421006,0.012051483616232872,0.3813849687576294,-2.0905612150775355,9.403667354490608e-05,0.15112820267677307,0.5252835154533386,1.5202790564217139e-05,-0.091244176030159,1.00246262550354,0.0012264761608093977,-0.5986300110816956
247.0,684.0,0.4361,6.5234,9.1454,0.0536,-0.1393,-0.1023,-1.878462930718893,-0.08664548397064209,3.330375909805298,-1.6379611492156982,0.26400938630104065,2.714365005493164,-1.3391626191190262,0.008986401371657848,0.38227730989456177,-2.0905373732196253,0.00012108663213439286,0.1452275812625885,0.5252428650856018,1.4469562302110717e-05,-0.08613552898168564,1.0024185180664062,0.0009849558118730783,-0.6488217115402222
247.0,684.0,0.4361,6.5234,9.1454,0.0536,-0.1393,-0.1023,-1.8787666759886683,-0.08994428813457489,3.3739843368530273,-1.6369224786758423,0.26904335618019104,2.788975715637207,-1.339134768848755,0.007250450551509857,0.37498557567596436,-2.0905736128436487,0.0003407488693483174,0.14718236029148102,0.5252794623374939,1.4018781257618684e-05,-0.08755622059106827,1.0024428367614746,0.0007733799866400659,-0.6803383827209473
247.0,684.0,0.4361,6.5234,9.1454,0.0536,-0.1393,-0.1023,-1.8792973957457484,-0.08545280992984772,3.3397626876831055,-1.635330080986023,0.2702030837535858,2.7844605445861816,-1.3391388368657609,0.00258353678509593,0.38752952218055725,-2.090557877217428,0.0004986554267816246,0.15011361241340637,0.5252188444137573,1.339292612101417e-05,-0.08256351202726364,1.0024744272232056,0.0005117803229950368,-0.6276969313621521
247.0,684.0,0.4361,6.5234,9.1454,0.0536,-0.1393,-0.1023,-1.8796855411925257,-0.08490904420614243,3.3347506523132324,-1.6342337131500244,0.263560950756073,2.7887063026428223,-1.339134768848755,0.001312989741563797,0.3726873993873596,-2.0905616919146937,0.00047486694529652596,0.14875482022762299,0.525259256362915,1.3005849723413121e-05,-0.08279988169670105,1.0024704933166504,0.0005021808901801705,-0.6019710302352905
247.0,684.0,0.4361,6.5234,9.1454,0.0536,-0.1393,-0.1023,-1.8802253208556117,-0.0849907249212265,3.347419261932373,-1.6327400207519531,0.26484018564224243,2.7555713653564453,-1.3391068440726777,0.0008054575300775468,0.37328219413757324,-2.090529743825094,0.0004556653439067304,0.15818488597869873,0.5252634882926941,1.2465446161513682e-05,-0.08814220875501633,1.0024585723876953,0.000378089229343459,-0.6252678036689758
247.0,684.0,0.4361,6.5234,9.1454,0.0536,-0.1393,-0.1023,-1.880728384057516,-0.09011997282505035,3.3573856353759766,-1.6311756372451782,0.2674329876899719,2.7936630249023438,-1.3391265881112595,0.0005818709614686668,0.38094615936279297,-2.090557877217428,0.0004026818205602467,0.14305374026298523,0.5252188444137573,1.1968129001616035e-05,-0.08684206008911133,1.002418875694275,0.0011236411519348621,-0.597495436668396
247.0,684.0,0.4361,6.5234,9.1454,0.0536,-0.1393,-0.1023,-1.8811608753600062,-0.09463503211736679,3.3139257431030273,-1.6301711797714233,0.2609296143054962,2.79780912399292,-1.3391906333020707,4.6985394874354824e-05,0.3777882158756256,-2.0905173460589808,0.00034156403853558004,0.15475532412528992,0.5252795219421387,1.1658081348286942e-05,-0.08786240220069885,1.0024784803390503,0.0009324771235696971,-0.632267951965332
247.0,684.0,0.4361,6.5234,9.1454,0.0536,-0.1393,-0.1023,-1.8817488155760707,-0.09944548457860947,3.3386595249176025,-1.6285637617111206,0.2452280968427658,2.706151008605957,-1.3391786229661484,1.30785560159552e-08,0.36700594425201416,-2.090513531361715,0.0002781783405225724,0.14352110028266907,0.5252634286880493,1.1221992281207349e-05,-0.08307433128356934,1.0024386644363403,0.0006455967668443918,-0.6226096153259277
247.0,684.0,0.4361,6.5234,9.1454,0.0536,-0.1393,-0.1023,-1.8821364841856898,-0.10321641713380814,3.319978713989258,-1.627616286277771,0.24291202425956726,2.719676971435547,-1.3391667914441605,5.5755938060952914e-11,0.3919232487678528,-2.090545956288473,0.00029660676955245435,0.14488539099693298,0.525235116481781,1.0948946510325186e-05,-0.08356329798698425,1.0024665594100952,0.0006122638005763292,-0.6854965686798096
247.0,684.0,0.4361,6.5234,9.1454,0.0536,-0.1393,-0.1023,-1.8826877079405726,-0.10643764585256577,3.315793991088867,-1.6261087656021118,0.24325859546661377,2.7617242336273193,-1.339146928196289,1.5519869596284167e-14,0.37567538022994995,-2.0905616919146937,0.0002549736818764359,0.14719492197036743,0.5252994298934937,1.0563427167653572e-05,-0.07860797643661499,1.002418875694275,0.00047749222721904516,-0.6566425561904907
247.0,684.0,0.4361,6.5234,9.1454,0.0536,-0.1393,-0.1023,-1.8831516704955042,-0.105886310338974,3.3717939853668213,-1.6251893043518066,0.24328558146953583,2.795224189758301,-1.3391388219645997,6.616363609927492e-17,0.3702400326728821,-2.09052545229067,0.0002329676499357447,0.14928440749645233,0.5252432823181152,1.0321149602532387e-05,-0.08871666342020035,1.0024665594100952,0.0004058195627294481,-0.6289901733398438
247.0,684.0,0.4361,6.5234,9.1454,0.0536,-0.1393,-0.1023,-1.8837267361082972,-0.11102505773305893,3.3660290241241455,-1.6236971616744995,0.2335776388645172,2.7206907272338867,-1.3392109733871003,1.8416890379570462e-20,0.3738587498664856,-2.090513531361715,0.00020626586047001183,0.15241391956806183,0.5252752900123596,1.9933697330998257e-05,-0.07855364680290222,1.0024665594100952,0.0003311451873742044,-0.6373109817504883
232.0,484.0,-1.5099,5.7404,7.3896,-0.0654,0.2231,-0.2396,-1.8844591579832972,-0.11260806769132614,3.3021631240844727,-1.622329592704773,0.23060987889766693,2.72359561920166,-1.3391945970109482,5.126409042704672e-24,0.3888542950153351,-2.0905216375934046,0.00018505692423786968,0.1511303335428238,0.5252630114555359,1.0952206253023178e-08,-0.06728361546993256,1.0024824142456055,0.00037354626692831516,-0.6204994916915894
232.0,484.0,-1.5099,5.7404,7.3896,-0.0654,0.2231,-0.2396,-1.8848468265929164,-0.11109714955091476,3.3831872940063477,-1.6213213205337524,0.22953321039676666,2.7100863456726074,-1.3391705316356202,2.1854684177672553e-26,0.3819030821323395,-2.090557877217428,0.00017318563186563551,0.1437668353319168,0.5252511501312256,4.669096359544156e-11,-0.06334718316793442,1.0024622678756714,0.000534824444912374,-0.6512821316719055
232.0,484.0,-1.5099,5.7404,7.3896,-0.0654,0.2231,-0.2396,-1.8854700527586878,-0.10593501478433609,3.3957531452178955,-1.6200339794158936,0.22884100675582886,2.7403290271759033,-1.3391388368657609,6.083331095674897e-30,0.36750978231430054,-2.0905173460589808,0.0001825432264013216,0.14306855201721191,0.5252830982208252,1.2996599951028021e-14,-0.07745279371738434,1.0024824142456055,0.0014270024839788675,-0.6138954162597656
232.0,484.0,-1.5099,5.7404,7.3896,-0.0654,0.2231,-0.2396,-1.8859535656371058,-0.10566765069961548,3.373518943786621,-1.6190413236618042,0.22318491339683533,2.780275344848633,-1.3391905289939423,2.593419130075111e-32,0.3695754408836365,-2.090529743825094,0.00017411708540748805,0.15996181964874268,0.525259256362915,5.540654597099437e-17,-0.07351541519165039,1.0024585723876953,0.0010336008854210377,-0.6129009127616882
232.0,484.0,-1.5099,5.7404,7.3896,-0.0654,0.2231,-0.2396,-1.8866735897459925,-0.1097727045416832,3.3510727882385254,-1.617814302444458,0.21355105936527252,2.680495262145996,-1.339158610706665,7.218877690715342e-36,0.37278205156326294,-2.0904491583453577,0.00016645650612190366,0.1546485722064972,0.5252790451049805,1.542261611557641e-20,-0.06483759731054306,1.0024665594100952,0.0007222924614325166,-0.6276595592498779
232.0,484.0,-1.5099,5.7404,7.3896,-0.0654,0.2231,-0.2396,-1.8871013126769007,-0.11438292264938354,3.3872697353363037,-1.6169382333755493,0.20773780345916748,2.706367015838623,-1.3391865354827424,3.0775204769624487e-38,0.3925170302391052,-2.0905302206622522,0.00020484993001446128,0.14054520428180695,0.5252392292022705,6.574903209527463e-23,-0.06737243384122849,1.0024665594100952,0.0006015485851094127,-0.6107142567634583
232.0,484.0,-1.5099,5.7404,7.3896,-0.0654,0.2231,-0.2396,-1.887768884698385,-0.12192386388778687,3.382258176803589,-1.6157348155975342,0.2026345431804657,2.7123701572418213,-1.3391906333020707,8.566137512417607e-42,0.3602069020271301,-2.0904372374164026,0.0012968111550435424,0.15316566824913025,0.5252711772918701,1.830148517872201e-26,-0.06420386582612991,1.0024744272232056,0.00042085713357664645,-0.6232807040214539
232.0,484.0,-1.5099,5.7404,7.3896,-0.0654,0.2231,-0.2396,-1.888440271417135,-0.12400230765342712,3.3612184524536133,-1.6145554780960083,0.19848953187465668,2.6779019832611084,-1.3391626191190262,2.802596928649634e-45,0.376913845539093,-2.0904653708087366,0.0012087419163435698,0.1525122970342636,0.5252593159675598,5.094286323695292e-30,-0.05226604640483856,1.0024625062942505,7.077409918565536e-06,-0.668509304523468
232.0,484.0,-1.5099,5.7404,7.3896,-0.0654,0.2231,-0.2396,-1.8888913593687953,-0.12452313303947449,3.3662095069885254,-1.6136902570724487,0.19328710436820984,2.711945056915283,-1.339158610706665,0.0,0.36072325706481934,-2.0905259291278284,0.0010260251583531499,0.15326088666915894,0.525259256362915,2.1717741553493537e-32,-0.06601651012897491,1.0024664402008057,1.273908867283069e-09,-0.6118021607398987
232.0,484.0,-1.5099,5.7404,7.3896,-0.0654,0.2231,-0.2396,-1.8896318874754847,-0.11823170632123947,3.3385510444641113,-1.6126562356948853,0.19626224040985107,2.7310099601745605,-1.3391909760287781,0.0,0.36265090107917786,-2.090489212666647,0.0006361332489177585,0.15364304184913635,0.525231122970581,6.045212157703263e-36,-0.06599903106689453,1.0024745464324951,3.0763400199240775e-15,-0.6631946563720703
232.0,484.0,-1.5099,5.7404,7.3896,-0.0654,0.2231,-0.2396,-1.8901030025877894,-0.11132287234067917,3.37319278717041,-1.6118764877319336,0.19518525898456573,2.7295029163360596,-1.339142919783928,0.0,0.36878615617752075,-2.0904811064349573,0.0004956608172506094,0.15451595187187195,0.5252830982208252,2.5771686433952365e-38,-0.05255237594246864,1.0024784803390503,5.5373036677584695e-19,-0.6438871026039124
232.0,484.0,-1.5099,5.7404,7.3896,-0.0654,0.2231,-0.2396,-1.8907791576781214,-0.11018361151218414,3.391496181488037,-1.610751986503601,0.1899225413799286,2.671614408493042,-1.3391827952912827,0.0,0.36675184965133667,-2.09050161043276,0.0003724279231391847,0.15454170107841492,0.5252351760864258,7.173246838878739e-42,-0.06259484589099884,1.0024546384811401,1.3371936830975452e-24,-0.6124300360679626
232.0,484.0,-1.5099,5.7404,7.3896,-0.0654,0.2231,-0.2396,-1.8912345371642054,-0.11374799907207489,3.4149889945983887,-1.6100165843963623,0.18863584101200104,2.719771146774292,-1.3391225051930924,0.0,0.3759935200214386,-2.0905540625201624,0.0003195000463165343,0.1544261872768402,0.5252752304077148,3.0828566215145976e-44,-0.0545358806848526,1.0024863481521606,2.406901577566296e-28,-0.6299527287483215
232.0,484.0,-1.5099,5.7404,7.3896,-0.0654,0.2231,-0.2396,-1.891937871972555,-0.12063033878803253,3.3942711353302,-1.6089328527450562,0.1812550127506256,2.7029476165771484,-1.3391786229661484,0.0,0.3739215135574341,-2.090545956288473,0.00021094958356115967,0.14196915924549103,0.5252473950386047,6.086850771680474e-05,-0.053430698812007904,1.0024665594100952,5.812384723741904e-34,-0.6170230507850647
232.0,484.0,-1.5099,5.7404,7.3896,-0.0654,0.2231,-0.2396,-1.892630239526266,-0.11936838924884796,3.3834877014160156,-1.6078412532806396,0.17062287032604218,2.6711840629577637,-1.3391906333020707,0.0,0.36411774158477783,-2.0905097166644495,0.00017921681865118444,0.15888197720050812,0.5252548456192017,5.999731729389168e-05,-0.04543747752904892,1.0024824142456055,1.403623218477132e-39,-0.647634744644165
232.0,484.0,-1.5099,5.7404,7.3896,-0.0654,0.2231,-0.2396,-1.8930288753905238,-0.11762061715126038,3.31620454788208,-1.6071932315826416,0.17031855881214142,2.66450834274292,-1.339134768848755,0.0,0.3614484667778015,-2.0905378500567835,0.00016298462287522852,0.16393622756004333,0.5252552032470703,5.843945109518245e-05,-0.06032386049628258,1.0024665594100952,-5.686806980520487e-05,-0.6462596654891968
232.0,484.0,-1.5099,5.7404,7.3896,-0.0654,0.2231,-0.2396,-1.8937531910338343,-0.1161566898226738,3.3641843795776367,-1.6061726808547974,0.173798605799675,2.6835360527038574,-1.339158610706665,0.0,0.36796924471855164,-2.090522114430563,6.965651118662208e-05,0.15849778056144714,0.5252790451049805,6.675384065601975e-05,-0.042942583560943604,1.0024744272232056,-4.312099190428853e-05,-0.658719539642334
240.0,338.0,-0.594,5.1894,7.9161,-0.0338,0.0895,-0.1903,-1.894172807733053,-0.1130482628941536,3.319094657897949,-1.6055052280426025,0.17557725310325623,2.6759448051452637,-1.3391746145537873,0.0,0.36322981119155884,-2.090513531361715,3.9795551856514066e-05,0.15851888060569763,0.5253154635429382,6.584825314348564e-05,-0.043694354593753815,1.0024625062942505,-3.9350106817437336e-05,-0.6113311052322388
240.0,338.0,-0.594,5.1894,7.9161,-0.0338,0.0895,-0.1903,-1.8948523006834925,-0.11050594598054886,3.368974208831787,-1.6044058799743652,0.17269577085971832,2.6752734184265137,-1.339158610706665,0.0,0.35619768500328064,-2.0904935042010706,3.504706910462119e-05,0.15332520008087158,0.5252511501312256,6.352736090775579e-05,-0.04782734811306,1.0024784803390503,-3.47868881362956e-05,-0.6455637216567993
240.0,338.0,-0.594,5.1894,7.9161,-0.0338,0.0895,-0.1903,-1.8953124485411585,-0.10760124772787094,3.4097580909729004,-1.6037817001342773,0.16674205660820007,2.6315855979919434,-1.3392109733871003,0.0,0.3635464906692505,-2.090473000203268,3.251443195040338e-05,0.16693751513957977,0.5252748727798462,6.206702528288588e-05,-0.04908190667629242,1.0024386644363403,-3.8084961033746367e-06,-0.6039649248123169
240.0,338.0,-0.594,5.1894,7.9161,-0.0338,0.0895,-0.1903,-1.8959480724730433,-0.10446824133396149,3.3870577812194824,-1.602733850479126,0.16132892668247223,2.6342556476593018,-1.3391746145537873,0.0,0.35378652811050415,-2.09050161043276,5.85354064241983e-05,0.16307291388511658,0.5253154039382935,6.999502511462197e-05,-0.055495813488960266,1.0024585723876953,-9.197070188760037e-12,-0.6562607288360596
