ramyac6/ROB537/final_project/csv/all/bad_44.csv
tof_0,tof_1,accelx,accely,accelz,gyrox,gyroy,gyroz,shoulder_lift_joint_position,shoulder_lift_joint_velocity,shoulder_lift_joint_effort,elbow_joint_position,elbow_joint_velocity,elbow_joint_effort,wrist_1_joint_position,wrist_1_joint_velocity,wrist_1_joint_effort,wrist_2_joint_position,wrist_2_joint_velocity,wrist_2_joint_effort,wrist_3_joint_position,wrist_3_joint_velocity,wrist_3_joint_effort,shoulder_pan_joint_position,shoulder_pan_joint_velocity,shoulder_pan_joint_effort
252.0,336.0,-0.0461,0.1866,9.6078,-0.0382,0.0156,-0.1176,-1.9678713283934535,0.0,3.6111936569213867,-1.6186245679855347,-0.0,2.0146632194519043,5.110890793591299,0.0,0.27892476320266724,-1.5247543493853968,0.0,-0.018370337784290314,-0.05178720155824834,-3.976406270308978e-34,-0.00012773461639881134,1.2705092430114746,0.0,0.0026954433415085077
252.0,336.0,-0.0461,0.1866,9.6078,-0.0382,0.0156,-0.1176,-1.9678670368590296,0.0,3.64353084564209,-1.6186363697052002,-0.0,2.002224922180176,5.110874789744177,0.0,0.26167377829551697,-1.5247066656695765,0.0,-0.0151988435536623,-0.05187064806093389,-1.695204337947007e-36,0.008532357402145863,1.2705376148223877,0.0,0.01070373971015215
252.0,336.0,-0.0461,0.1866,9.6078,-0.0382,0.0156,-0.1176,-1.967846532861227,0.0,3.6439547538757324,-1.6185842752456665,-0.0,2.0543129444122314,5.110846507340231,0.0,0.26818782091140747,-1.5247543493853968,0.0,-0.01777781918644905,-0.05189115205873662,-4.718662383844173e-40,0.010209718719124794,1.2705292701721191,0.0,0.025451812893152237
252.0,336.0,-0.0461,0.1866,9.6078,-0.0382,0.0156,-0.1176,-1.9678389034666957,0.0,3.6260478496551514,-1.6186405420303345,-0.0,1.9477527141571045,5.1108829257781885,0.0,0.27339255809783936,-1.5247467199908655,0.0,-0.01506809238344431,-0.05184680620302373,-2.0122645947704373e-42,0.0027985968627035618,1.2705092430114746,0.0,0.008741702884435654
252.0,336.0,-0.0461,0.1866,9.6078,-0.0382,0.0156,-0.1176,-1.9678389034666957,0.0,3.633347749710083,-1.6186528205871582,-0.0,1.9898525476455688,5.110870617419042,0.0,0.27232658863067627,-1.5247743765460413,0.0,-0.0017046344000846148,-0.05187875429262334,-0.0,0.006962066050618887,1.270521640777588,0.0,0.006131854839622974
252.0,336.0,-0.0461,0.1866,9.6078,-0.0382,0.0156,-0.1176,-1.9678713283934535,0.0,3.641631841659546,-1.6186363697052002,-0.0,1.985645055770874,5.110878872662344,0.0,0.2744269371032715,-1.524778191243307,0.0,-0.01714184507727623,-0.05185872713197881,-0.0,0.013471370562911034,1.2705252170562744,0.0,-0.04165103659033775
252.0,336.0,-0.0461,0.1866,9.6078,-0.0382,0.0156,-0.1176,-1.9678102932372035,0.0,3.662508249282837,-1.6186323165893555,-0.0,1.9697329998016357,5.110874759941854,0.0,0.27659285068511963,-1.5247629324542444,0.0,-0.016389530152082443,-0.05183869997133428,-0.0,0.0004934364114888012,1.2704728841781616,0.0,0.030500570312142372
252.0,336.0,-0.0461,0.1866,9.6078,-0.0382,0.0156,-0.1176,-1.967818399468893,0.0,3.656116485595703,-1.6185646057128906,-0.0,2.0062644481658936,5.110838222294607,0.0,0.277871310710907,-1.524823013936178,0.0,-0.015129807405173779,-0.05184299150575811,-0.0,0.007432571612298489,1.2705252170562744,0.0,0.010883764363825321
252.0,336.0,-0.0461,0.1866,9.6078,-0.0382,0.0156,-0.1176,-1.9679109058775843,0.0,3.669483184814453,-1.618584156036377,-0.0,2.0215253829956055,5.110890733986654,0.0,0.2773938775062561,-1.5248191992389124,0.0,-0.018004391342401505,-0.051882568989888966,-0.0,0.00982725527137518,1.2704973220825195,0.0,0.013612126000225544
251.0,335.0,-0.0514,0.2052,9.4881,-0.0334,0.0292,-0.118,-1.9678384266295375,0.0,3.6469669342041016,-1.6186363697052002,-0.0,2.008856773376465,5.110906767636099,0.0,0.26299431920051575,-1.5247743765460413,0.0,-0.028239287436008453,-0.051834885274068654,-0.0,0.016704576089978218,1.2705252170562744,0.0,-0.0178114902228117
251.0,335.0,-0.0514,0.2052,9.4881,-0.0334,0.0292,-0.118,-1.9678713283934535,0.0,3.6168155670166016,-1.6185718774795532,-0.0,1.9927186965942383,5.110862451582708,0.0,0.27057233452796936,-1.5247543493853968,0.0,-0.004379972815513611,-0.05188638368715459,-0.0,0.00503928866237402,1.2704932689666748,0.0,0.009178116917610168
251.0,335.0,-0.0514,0.2052,9.4881,-0.0334,0.0292,-0.118,-1.9678226910033167,0.0,3.6663947105407715,-1.618660807609558,-0.0,1.9877333641052246,5.110842484026708,0.0,0.26643604040145874,-1.5247753302203577,0.0,-0.006862124893814325,-0.05180722871889287,-0.0,0.016033118590712547,1.2704728841781616,0.0,0.02207881771028042
251.0,335.0,-0.0514,0.2052,9.4881,-0.0334,0.0292,-0.118,-1.9677945576109828,0.0,3.620082378387451,-1.6186203956604004,-0.0,2.0188186168670654,5.1108542559440515,0.0,0.26602494716644287,-1.5247991720782679,0.0,-0.001478665741160512,-0.051874939595357716,-0.0,0.012555561028420925,1.2705252170562744,0.0,-0.009740016423165798
251.0,335.0,-0.0514,0.2052,9.4881,-0.0334,0.0292,-0.118,-1.9678389034666957,0.0,3.620131492614746,-1.6185925006866455,-0.0,2.006356716156006,5.1108866212661646,0.0,0.26944810152053833,-1.524778191243307,0.0,-0.01389201357960701,-0.05187875429262334,-0.0,0.0005242995684966445,1.2705292701721191,0.0,0.008950751274824142
251.0,335.0,-0.0514,0.2052,9.4881,-0.0334,0.0292,-0.118,-1.9678188763060511,0.0,3.657752752304077,-1.6186162233352661,-0.0,1.9850062131881714,5.110890733986654,0.0,0.27550116181373596,-1.5247710386859339,0.0,-0.007799296639859676,-0.05183107057680303,-0.0,-0.003303669160231948,1.2705334424972534,0.0,-0.012285364791750908
251.0,335.0,-0.0514,0.2052,9.4881,-0.0334,0.0292,-0.118,-1.9678546390929164,0.0,3.6624765396118164,-1.6186163425445557,-0.0,2.009601354598999,5.110854315548696,0.0,0.2732619643211365,-1.5247867743121546,0.0,-0.017133887857198715,-0.05189067522157842,-0.0,-0.0005411268211901188,1.2705051898956299,0.0,0.024434063583612442
251.0,335.0,-0.0514,0.2052,9.4881,-0.0334,0.0292,-0.118,-1.9678546390929164,0.0,3.633403778076172,-1.6186327934265137,-0.0,2.004136323928833,5.110818195133962,0.0,0.26276063919067383,-1.5247710386859339,0.0,-0.017307931557297707,-0.051862541829244435,-0.0,0.01327585056424141,1.2705252170562744,0.0,0.0067687444388866425
251.0,335.0,-0.0514,0.2052,9.4881,-0.0334,0.0292,-0.118,-1.9678064785399378,0.0,3.6708550453186035,-1.6186323165893555,-0.0,2.037597417831421,5.110894816904821,0.0,0.26476338505744934,-1.52476674715151,0.0,-0.016995035111904144,-0.0518110434161585,-0.0,0.017142411321401596,1.2705014944076538,0.0,0.00819561816751957
251.0,335.0,-0.0514,0.2052,9.4881,-0.0334,0.0292,-0.118,-1.9679151974120082,0.0,3.665562629699707,-1.6186405420303345,-0.0,1.9883809089660645,5.11087058761672,0.0,0.2551913261413574,-1.5247824827777308,0.0,-0.015174135565757751,-0.05184680620302373,-0.0,0.003754283767193556,1.2704932689666748,0.0,-0.013112148270010948
251.0,335.0,-0.0514,0.2052,9.4881,-0.0334,0.0292,-0.118,-1.967863222161764,0.0,3.6179473400115967,-1.618584156036377,-0.0,1.9986475706100464,5.110866504698553,0.0,0.2684285044670105,-1.5247867743121546,0.0,-0.021623335778713226,-0.051899258290426076,-0.0,0.0036857454106211662,1.2705014944076538,0.0,0.01857282780110836
251.0,335.0,-0.0514,0.2052,9.4881,-0.0334,0.0292,-0.118,-1.967830320397848,0.0,3.6565637588500977,-1.6186203956604004,-0.0,2.0152297019958496,5.110882508545675,0.0,0.26502490043640137,-1.5247791449176233,0.0,-0.010222400538623333,-0.05189496675600225,-0.0,-0.0013125472469255328,1.2704730033874512,0.0,0.014423432759940624
251.0,335.0,-0.0514,0.2052,9.4881,-0.0334,0.0292,-0.118,-1.9678226910033167,0.0,3.6671605110168457,-1.6185842752456665,-0.0,1.987487554550171,5.110858428269186,0.0,0.279140442609787,-1.5247710386859339,0.0,-0.015888620167970657,-0.05181914964784795,-0.0,-0.0005591370281763375,1.2704932689666748,0.0,-0.005467461422085762
251.0,335.0,-0.0514,0.2052,9.4881,-0.0334,0.0292,-0.118,-1.9678870640196742,0.0,3.6422548294067383,-1.6185396909713745,-0.0,1.9988083839416504,5.1108542559440515,0.0,0.26875394582748413,-1.5247753302203577,0.0,-0.019069312140345573,-0.05191070238222295,-0.0,0.019874444231390953,1.2705051898956299,0.0,0.03850478678941727
251.0,335.0,-0.0514,0.2052,9.4881,-0.0334,0.0292,-0.118,-1.967875143090719,0.0,3.6462628841400146,-1.6186199188232422,-0.0,1.9738612174987793,5.110866504698553,0.0,0.2738865911960602,-1.5247543493853968,0.0,-0.017918143421411514,-0.05181485811342412,-0.0,0.000974886235781014,1.2705292701721191,0.0,-0.0062246546149253845
251.0,335.0,-0.0514,0.2052,9.4881,-0.0334,0.0292,-0.118,-1.967863222161764,0.0,3.6584978103637695,-1.6185520887374878,-0.0,1.9831345081329346,5.110842424422064,0.0,0.25782525539398193,-1.5247586409198206,0.0,-0.007889463566243649,-0.0518110434161585,-0.0,0.012195572257041931,1.270505666732788,0.0,-0.04465078189969063
251.0,335.0,-0.0514,0.2052,9.4881,-0.0334,0.0292,-0.118,-1.9678546390929164,0.0,3.657503128051758,-1.6185646057128906,-0.0,1.9669841527938843,5.110825973540106,0.0,0.25812894105911255,-1.5247710386859339,0.0,-0.010276167653501034,-0.05185538927187139,-0.0,0.006207586731761694,1.2705132961273193,0.0,0.012312459759414196
242.0,353.0,-0.0766,0.2297,9.5551,-0.036,0.0264,-0.1193,-1.9678427181639613,0.0,3.651843547821045,-1.6186606884002686,-0.0,1.990454912185669,5.110874759941854,0.0,0.27069902420043945,-1.524778191243307,0.0,-0.009276464581489563,-0.05186301866640264,-0.0,0.01589163951575756,1.27048921585083,0.0,-0.015152942389249802
242.0,353.0,-0.0766,0.2297,9.5551,-0.036,0.0264,-0.1193,-1.9678226910033167,0.0,3.659989356994629,-1.6186447143554688,-0.0,1.9887192249298096,5.1108542559440515,0.0,0.2664282023906708,-1.5247543493853968,0.0,-0.017054185271263123,-0.051822964345113576,-0.0,0.0030068124178797007,1.2705014944076538,0.0,0.024213548749685287
242.0,353.0,-0.0766,0.2297,9.5551,-0.036,0.0264,-0.1193,-1.967842241326803,0.0,3.6701111793518066,-1.6186121702194214,-0.0,1.9754273891448975,5.110838281899252,0.0,0.26879262924194336,-1.5247462431537073,0.0,-0.016929544508457184,-0.051854912434713185,-0.0,0.004006254952400923,1.2704973220825195,0.0,-0.005316431168466806
242.0,353.0,-0.0766,0.2297,9.5551,-0.036,0.0264,-0.1193,-1.9678145847716273,0.0,3.6711502075195312,-1.6186524629592896,-0.0,1.9641790390014648,5.11086659410552,0.0,0.27393022179603577,-1.5247586409198206,0.0,-0.01767340674996376,-0.05189496675600225,-0.0,0.00722541706636548,1.2705292701721191,0.0,0.036427173763513565
242.0,353.0,-0.0766,0.2297,9.5551,-0.036,0.0264,-0.1193,-1.967830320397848,0.0,3.6245875358581543,-1.6185520887374878,-0.0,1.9641525745391846,5.110890704184332,0.0,0.26884618401527405,-1.5247824827777308,0.0,-0.0017138770781457424,-0.051854912434713185,-0.0,-0.005023450590670109,1.2704932689666748,0.0,-0.012043710798025131
242.0,353.0,-0.0766,0.2297,9.5551,-0.036,0.0264,-0.1193,-1.9678427181639613,0.0,3.6928889751434326,-1.6185563802719116,-0.0,2.007354736328125,5.11088656166152,0.0,0.2753148078918457,-1.5247424284564417,0.0,-0.01127401739358902,-0.05189496675600225,-0.0,0.0023251473903656006,1.2704728841781616,0.0,0.018941273912787437
242.0,353.0,-0.0766,0.2297,9.5551,-0.036,0.0264,-0.1193,-1.9677707157530726,0.0,3.6511950492858887,-1.6186120510101318,-0.0,1.9655287265777588,5.110874759941854,0.0,0.2827717065811157,-1.524778191243307,0.0,-0.023868681862950325,-0.05189115205873662,-0.0,0.0032318877056241035,1.27048921585083,0.0,0.03156200796365738
242.0,353.0,-0.0766,0.2297,9.5551,-0.036,0.0264,-0.1193,-1.9678145847716273,0.0,3.632267475128174,-1.618600606918335,-0.0,2.0218753814697266,5.110858428269186,0.0,0.25999951362609863,-1.5247991720782679,0.0,-0.026316942647099495,-0.05189878145326787,-0.0,0.01271471381187439,1.2705252170562744,0.0,-0.0002950761991087347
242.0,353.0,-0.0766,0.2297,9.5551,-0.036,0.0264,-0.1193,-1.9678713283934535,0.0,3.6942644119262695,-1.6185925006866455,-0.0,1.9954915046691895,5.110874730139532,0.0,0.2671833634376526,-1.5247543493853968,0.0,-0.022621797397732735,-0.051867310200826466,-0.0,0.015162219293415546,1.2705169916152954,0.0,-0.019562607631087303
242.0,353.0,-0.0766,0.2297,9.5551,-0.036,0.0264,-0.1193,-1.967830320397848,0.0,3.6705515384674072,-1.6186120510101318,-0.0,2.0096590518951416,5.11081479766921,0.0,0.26179012656211853,-1.5247867743121546,0.0,-0.022958479821681976,-0.051822964345113576,-0.0,0.00998126994818449,1.270468831062317,0.0,0.0007579447701573372
242.0,353.0,-0.0766,0.2297,9.5551,-0.036,0.0264,-0.1193,-1.967863222161764,0.0,3.7077951431274414,-1.618607997894287,-0.0,1.9752190113067627,5.110858428269186,0.0,0.2783827483654022,-1.524738613759176,0.0,-0.016929779201745987,-0.05186683336366826,-0.0,0.007811480201780796,1.2705092430114746,0.0,0.02739892713725567
242.0,353.0,-0.0766,0.2297,9.5551,-0.036,0.0264,-0.1193,-1.9678102932372035,0.0,3.636150360107422,-1.6185965538024902,-0.0,1.992958664894104,5.110858428269186,0.0,0.27079930901527405,-1.5247629324542444,0.0,-0.017568422481417656,-0.05187064806093389,-0.0,-0.0019254728686064482,1.2705169916152954,0.0,0.04033388942480087
242.0,353.0,-0.0766,0.2297,9.5551,-0.036,0.0264,-0.1193,-1.9678713283934535,0.0,3.6627583503723145,-1.6186445951461792,-0.0,1.9659392833709717,5.110874759941854,0.0,0.26428043842315674,-1.5247586409198206,0.0,-0.012327357195317745,-0.05183107057680303,-0.0,0.011679179966449738,1.2704851627349854,0.0,0.007427986245602369
242.0,353.0,-0.0766,0.2297,9.5551,-0.036,0.0264,-0.1193,-1.9678589306273402,0.0,3.6568074226379395,-1.6185718774795532,-0.0,1.9829738140106201,5.110862421780386,0.0,0.2487766593694687,-1.5247543493853968,0.0,-0.017119312658905983,-0.05185920396913701,-0.0,0.0037459160666912794,1.2705014944076538,0.0,-0.027401544153690338
242.0,353.0,-0.0766,0.2297,9.5551,-0.036,0.0264,-0.1193,-1.9678384266295375,0.0,3.648897886276245,-1.6186363697052002,-0.0,1.9756324291229248,5.110842424422064,0.0,0.26854538917541504,-1.524823013936178,0.0,-0.0010955180041491985,-0.05184299150575811,-0.0,0.0074519263580441475,1.2704405784606934,0.0,0.009602409787476063
242.0,353.0,-0.0766,0.2297,9.5551,-0.036,0.0264,-0.1193,-1.967802187005514,0.0,3.6458942890167236,-1.6186286211013794,-0.0,2.0178236961364746,5.110874759941854,0.0,0.26869675517082214,-1.5247629324542444,0.0,-0.00785789079964161,-0.05184299150575811,-0.0,-0.003444734262302518,1.2704893350601196,0.0,0.03146567940711975
242.0,353.0,-0.0766,0.2297,9.5551,-0.036,0.0264,-0.1193,-1.967842241326803,0.0,3.658111095428467,-1.6186163425445557,-0.0,1.9928134679794312,5.110874730139532,0.0,0.2597463130950928,-1.5247505346881312,0.0,-0.024109195917844772,-0.05183869997133428,-0.0,0.008134327828884125,1.2705456018447876,0.0,0.037308573722839355
248.0,342.0,-0.0658,0.1896,9.5498,-0.0391,0.0266,-0.1211,-1.967891355554098,0.0,3.6790401935577393,-1.6185799837112427,-0.0,1.997509241104126,5.110822248249807,0.0,0.2644576132297516,-1.5247505346881312,0.0,-0.0045092180371284485,-0.051874939595357716,-0.0,-0.0008470979519188404,1.2705132961273193,0.0,-0.00226766848936677
248.0,342.0,-0.0658,0.1896,9.5498,-0.0391,0.0266,-0.1211,-1.9678713283934535,0.0,3.6433725357055664,-1.618607997894287,-0.0,1.9781198501586914,5.1108542559440515,0.0,0.27359864115715027,-1.5247629324542444,0.0,-0.0012331532780081034,-0.05185062090028936,-0.0,-0.005802363622933626,1.2704973220825195,0.0,0.008526535704731941
248.0,342.0,-0.0658,0.1896,9.5498,-0.0391,0.0266,-0.1211,-1.9678346119322718,0.0,3.652756452560425,-1.6185686588287354,-0.0,2.0123648643493652,5.110854285746374,0.0,0.2733778953552246,-1.5247905890094202,0.0,-0.018848974257707596,-0.051882568989888966,-0.0,-0.0022049497347325087,1.2705134153366089,0.0,-0.019926484674215317
248.0,342.0,-0.0658,0.1896,9.5498,-0.0391,0.0266,-0.1211,-1.967790266076559,0.0,3.6649575233459473,-1.6186163425445557,-0.0,1.9741694927215576,5.110838222294607,0.0,0.27396899461746216,-1.5247905890094202,0.0,-0.014746629633009434,-0.051802937184469044,-0.0,0.012735784985125065,1.2705092430114746,0.0,-0.01500144973397255
248.0,342.0,-0.0658,0.1896,9.5498,-0.0391,0.0266,-0.1211,-1.9678546390929164,0.0,3.657938003540039,-1.6186245679855347,-0.0,1.9898254871368408,5.110854285746374,0.0,0.25724539160728455,-1.52476674715151,0.0,-0.013238999992609024,-0.05189496675600225,-0.0,0.0006257235072553158,1.2704973220825195,0.0,-0.001172432443127036
248.0,342.0,-0.0658,0.1896,9.5498,-0.0391,0.0266,-0.1211,-1.9678269825377406,0.0,3.6836905479431152,-1.618648648262024,-0.0,1.9764740467071533,5.1108542559440515,0.0,0.2769872546195984,-1.5247629324542444,0.0,-0.00026342575438320637,-0.051882568989888966,-0.0,0.016789274290204048,1.2705252170562744,0.0,-0.026731770485639572
248.0,342.0,-0.0658,0.1896,9.5498,-0.0391,0.0266,-0.1211,-1.967818399468893,0.0,3.655750274658203,-1.6186327934265137,-0.0,1.9758814573287964,5.110838281899252,0.0,0.27341076731681824,-1.5247300306903284,0.0,-0.03458576276898384,-0.05185062090028936,-0.0,0.003090339945629239,1.2705174684524536,0.0,-0.0025481143966317177
248.0,342.0,-0.0658,0.1896,9.5498,-0.0391,0.0266,-0.1211,-1.9678389034666957,0.0,3.664299964904785,-1.6185965538024902,-0.0,1.995431661605835,5.110902595310964,0.0,0.26576313376426697,-1.52476674715151,0.0,-0.019058983772993088,-0.05183869997133428,-0.0,0.01739310659468174,1.2704565525054932,0.0,0.058823008090257645
248.0,342.0,-0.0658,0.1896,9.5498,-0.0391,0.0266,-0.1211,-1.9678269825377406,0.0,3.6638543605804443,-1.6186161041259766,-0.0,1.9622013568878174,5.110842424422064,0.0,0.2613590657711029,-1.5247586409198206,0.0,-0.016377341002225876,-0.05187112489809209,-0.0,-0.0013802696485072374,1.2705256938934326,0.0,-0.025400394573807716
248.0,342.0,-0.0658,0.1896,9.5498,-0.0391,0.0266,-0.1211,-1.9677945576109828,0.0,3.647637367248535,-1.6185717582702637,-0.0,1.9969924688339233,5.1108542559440515,0.0,0.2582473158836365,-1.5247505346881312,0.0,-0.00821335706859827,-0.051822964345113576,-0.0,0.0011376056354492903,1.2705334424972534,0.0,0.02054811455309391
248.0,342.0,-0.0658,0.1896,9.5498,-0.0391,0.0266,-0.1211,-1.9678789577879847,0.0,3.6525015830993652,-1.618648648262024,-0.0,1.9676865339279175,5.110842424422064,0.0,0.27581027150154114,-1.5247300306903284,0.0,-0.01715136505663395,-0.05185062090028936,-0.0,0.01988731510937214,1.2705014944076538,0.0,-0.04119592159986496
248.0,342.0,-0.0658,0.1896,9.5498,-0.0391,0.0266,-0.1211,-1.9678222141661585,0.0,3.6551711559295654,-1.6185799837112427,-0.0,1.9753916263580322,5.110842454224386,0.0,0.27652719616889954,-1.5247543493853968,0.0,-0.005929207894951105,-0.05183869997133428,-0.0,-0.009198579005897045,1.270521640777588,0.0,0.02343614026904106
248.0,342.0,-0.0658,0.1896,9.5498,-0.0391,0.0266,-0.1211,-1.9678670368590296,0.0,3.688239574432373,-1.6185965538024902,-0.0,1.9588911533355713,5.110882508545675,0.0,0.277059406042099,-1.5247710386859339,0.0,-0.019978448748588562,-0.05181914964784795,-0.0,0.0019847534131258726,1.2705174684524536,0.0,-0.0515330508351326
248.0,342.0,-0.0658,0.1896,9.5498,-0.0391,0.0266,-0.1211,-1.9678427181639613,0.0,3.6739189624786377,-1.6186326742172241,-0.0,2.010045051574707,5.110838281899252,0.0,0.271228551864624,-1.5247543493853968,0.0,-0.007166985422372818,-0.05185872713197881,-0.0,-0.0010209388565272093,1.270505666732788,0.0,0.012695986777544022
248.0,342.0,-0.0658,0.1896,9.5498,-0.0391,0.0266,-0.1211,-1.9678589306273402,0.0,3.666395902633667,-1.6185925006866455,-0.0,1.9999539852142334,5.110862511187353,0.0,0.2641880512237549,-1.5247505346881312,0.0,-0.01845683716237545,-0.0519025961505335,-0.0,-0.0015927706845104694,1.2704973220825195,0.0,0.024721859022974968
248.0,342.0,-0.0658,0.1896,9.5498,-0.0391,0.0266,-0.1211,-1.9678670368590296,0.0,3.690786838531494,-1.6185965538024902,-0.0,1.9871199131011963,5.110842424422064,0.0,0.2693803310394287,-1.5247710386859339,0.0,-0.018614666536450386,-0.05185062090028936,-0.0,0.0009463251335546374,1.2704405784606934,0.0,-0.0033115260303020477
248.0,342.0,-0.0658,0.1896,9.5498,-0.0391,0.0266,-0.1211,-1.967875143090719,0.0,3.672302722930908,-1.6186447143554688,-0.0,1.9619314670562744,5.110846537142553,0.0,0.26690661907196045,-1.5247629324542444,0.0,-0.006480304524302483,-0.05181485811342412,-0.0,-0.014053646475076675,1.270533561706543,0.0,0.037312377244234085
247.0,349.0,0.0263,0.1783,9.6317,-0.0454,0.0287,-0.1194,-1.9678145847716273,0.0,3.655752182006836,-1.618539810180664,-0.0,1.9868905544281006,5.110842424422064,0.0,0.2634068727493286,-1.5248068014727991,0.0,-0.004185764584690332,-0.05183107057680303,-0.0,0.002613802207633853,1.270468831062317,0.0,-0.05888467654585838
247.0,349.0,0.0263,0.1783,9.6317,-0.0454,0.0287,-0.1194,-1.967818399468893,0.0,3.6907401084899902,-1.618607997894287,-0.0,2.0135385990142822,5.110886591463842,0.0,0.26378995180130005,-1.5248029867755335,0.0,-0.01146788988262415,-0.0518110434161585,-0.0,0.0023644971661269665,1.2705014944076538,0.0,-0.006220194045454264
247.0,349.0,0.0263,0.1783,9.6317,-0.0454,0.0287,-0.1194,-1.967818399468893,0.0,3.6776463985443115,-1.6186038255691528,-0.0,1.9823518991470337,5.110902595310964,0.0,0.26589691638946533,-1.52476674715151,0.0,-0.007569064386188984,-0.051879231129781544,-0.0,0.00444802176207304,1.2704728841781616,0.0,-0.03223781660199165
247.0,349.0,0.0263,0.1783,9.6317,-0.0454,0.0287,-0.1194,-1.9678265057005824,0.0,3.6975481510162354,-1.6185563802719116,-0.0,1.982985019683838,5.110822248249807,0.0,0.2869347631931305,-1.5247824827777308,0.0,-0.027710840106010437,-0.05187446275819951,-0.0,0.0001187128946185112,1.270460605621338,0.0,0.012507714331150055
247.0,349.0,0.0263,0.1783,9.6317,-0.0454,0.0287,-0.1194,-1.9678026638426722,0.0,3.6861777305603027,-1.6186405420303345,-0.0,2.0036544799804688,5.110882508545675,0.0,0.27064821124076843,-1.524823013936178,0.0,-0.012236137874424458,-0.05180722871889287,-0.0,0.005447646137326956,1.2704851627349854,0.0,0.003396646585315466
247.0,349.0,0.0263,0.1783,9.6317,-0.0454,0.0287,-0.1194,-1.967863222161764,0.0,3.6806740760803223,-1.6186038255691528,-0.0,1.968854308128357,5.110914784460821,0.0,0.26283982396125793,-1.524738613759176,0.0,-0.01658933237195015,-0.05185109773744756,-0.0,0.005238192621618509,1.270480990409851,0.0,0.002896626479923725
247.0,349.0,0.0263,0.1783,9.6317,-0.0454,0.0287,-0.1194,-1.9678508243956507,0.0,3.609598398208618,-1.6186286211013794,-0.0,2.017418384552002,5.11087058761672,0.0,0.26301270723342896,-1.5247629324542444,0.0,-0.016377700492739677,-0.05185920396913701,-0.0,0.01380638126283884,1.270521640777588,0.0,-0.0032774866558611393
247.0,349.0,0.0263,0.1783,9.6317,-0.0454,0.0287,-0.1194,-1.9678875408568324,0.0,3.6641697883605957,-1.618607997894287,-0.0,1.993229627609253,5.110882508545675,0.0,0.2672211527824402,-1.5247991720782679,0.0,-0.02496812865138054,-0.05184299150575811,-0.0,0.014595985412597656,1.2704687118530273,0.0,-0.016323233023285866
247.0,349.0,0.0263,0.1783,9.6317,-0.0454,0.0287,-0.1194,-1.9678713283934535,0.0,3.6494498252868652,-1.6186606884002686,-0.0,2.0024056434631348,5.110890763788976,0.0,0.25905758142471313,-1.52476674715151,0.0,-0.030998537316918373,-0.05185920396913701,-0.0,-0.0015948836226016283,1.270533561706543,0.0,0.04055571183562279
247.0,349.0,0.0263,0.1783,9.6317,-0.0454,0.0287,-0.1194,-1.967818399468893,0.0,3.642422676086426,-1.6185883283615112,-0.0,1.9792580604553223,5.1108305034931085,0.0,0.2596929669380188,-1.5247710386859339,0.0,-0.0023816246539354324,-0.0518110434161585,-0.0,0.004510706290602684,1.2705293893814087,0.0,0.0013142707757651806
247.0,349.0,0.0263,0.1783,9.6317,-0.0454,0.0287,-0.1194,-1.9678102932372035,0.0,3.6317739486694336,-1.6185636520385742,-0.0,2.0056567192077637,5.1107985256011865,0.0,0.2774735689163208,-1.5247753302203577,0.0,-0.008240566588938236,-0.05183869997133428,-0.0,0.0100577212870121,1.2705092430114746,0.0,0.00864243321120739
247.0,349.0,0.0263,0.1783,9.6317,-0.0454,0.0287,-0.1194,-1.967846532861227,0.0,3.6628198623657227,-1.6186245679855347,-0.0,1.9983794689178467,5.110850202828207,0.0,0.28059956431388855,-1.5247753302203577,0.0,-0.0143910963088274,-0.05186301866640264,-0.0,-0.008249166421592236,1.2705092430114746,0.0,0.03673575818538666
247.0,349.0,0.0263,0.1783,9.6317,-0.0454,0.0287,-0.1194,-1.9678226910033167,0.0,3.6895923614501953,-1.6186326742172241,-0.0,2.0153143405914307,5.110874759941854,0.0,0.26648324728012085,-1.5247543493853968,0.0,-0.021985266357660294,-0.05192262331117803,-0.0,0.0013089760905131698,1.2705292701721191,0.0,-0.01727025769650936
247.0,349.0,0.0263,0.1783,9.6317,-0.0454,0.0287,-0.1194,-1.967818399468893,0.0,3.6676383018493652,-1.6185686588287354,-0.0,2.0018815994262695,5.110878842860021,0.0,0.27185356616973877,-1.5247586409198206,0.0,-0.002689659595489502,-0.051882568989888966,-0.0,-0.007315078284591436,1.2704973220825195,0.0,0.02753625437617302
247.0,349.0,0.0263,0.1783,9.6317,-0.0454,0.0287,-0.1194,-1.9678145847716273,0.0,3.658890724182129,-1.6185842752456665,-0.0,1.9930464029312134,5.110850202828207,0.0,0.26009267568588257,-1.524794880543844,0.0,-0.01848680153489113,-0.05186301866640264,-0.0,0.01659388840198517,1.2704932689666748,0.0,0.03517598658800125
247.0,349.0,0.0263,0.1783,9.6317,-0.0454,0.0287,-0.1194,-1.967846532861227,0.0,3.6437947750091553,-1.6185842752456665,-0.0,1.9786393642425537,5.1108664748962305,0.0,0.267181932926178,-1.5247462431537073,0.0,-0.012637871317565441,-0.05187112489809209,-0.0,-8.153248927555978e-06,1.270521640777588,0.0,0.012262251228094101
247.0,349.0,0.0263,0.1783,9.6317,-0.0454,0.0287,-0.1194,-1.9677983723082484,0.0,3.6826367378234863,-1.6186203956604004,-0.0,1.9935624599456787,5.11088244894103,0.0,0.2774525284767151,-1.5247700850116175,0.0,-0.02314632013440132,-0.051867310200826466,-0.0,0.017726058140397072,1.2705051898956299,0.0,-0.01807606965303421
242.0,373.0,-0.1065,0.1513,9.7184,-0.031,0.0215,-0.1109,-1.96783508876943,0.0,3.6550779342651367,-1.6186163425445557,-0.0,1.9934663772583008,5.110890763788976,0.0,0.2603764235973358,-1.5247586409198206,0.0,-0.022550106048583984,-0.051906887684957326,-0.0,-0.014179914258420467,1.2704932689666748,0.0,0.006594306323677301
242.0,373.0,-0.1065,0.1513,9.7184,-0.031,0.0215,-0.1109,-1.967846532861227,0.0,3.6601719856262207,-1.6186450719833374,-0.0,2.018636703491211,5.110890733986654,0.0,0.2568529546260834,-1.5247867743121546,0.0,-0.009069259278476238,-0.05185920396913701,-0.0,0.011378919705748558,1.2704973220825195,0.0,0.04171624034643173
242.0,373.0,-0.1065,0.1513,9.7184,-0.031,0.0215,-0.1109,-1.967846532861227,0.0,3.6338257789611816,-1.6185965538024902,-0.0,2.0212626457214355,5.11087058761672,0.0,0.27612757682800293,-1.5247543493853968,0.0,-0.025234028697013855,-0.05184680620302373,-0.0,-0.007470271550118923,1.2705292701721191,0.0,0.054814644157886505
242.0,373.0,-0.1065,0.1513,9.7184,-0.031,0.0215,-0.1109,-1.9678389034666957,0.0,3.660823345184326,-1.6185678243637085,-0.0,1.946022868156433,5.110874730139532,0.0,0.2707870602607727,-1.5247867743121546,0.0,-0.0019590139854699373,-0.05185920396913701,-0.0,0.0037610530853271484,1.2704973220825195,0.0,0.004430706147104502
242.0,373.0,-0.1065,0.1513,9.7184,-0.031,0.0215,-0.1109,-1.9678508243956507,0.0,3.683516502380371,-1.6186527013778687,-0.0,2.02024507522583,5.110874759941854,0.0,0.28937798738479614,-1.5247753302203577,0.0,-0.01967957802116871,-0.051834885274068654,-0.0,-0.008523018099367619,1.2704404592514038,0.0,0.028121303766965866
242.0,373.0,-0.1065,0.1513,9.7184,-0.031,0.0215,-0.1109,-1.9678389034666957,0.0,3.678088665008545,-1.6186528205871582,-0.0,2.056703805923462,5.110898571997442,0.0,0.2745429575443268,-1.5247505346881312,0.0,-0.024459974840283394,-0.05185062090028936,-0.0,0.0028816326521337032,1.2705334424972534,0.0,0.008730997331440449
242.0,373.0,-0.1065,0.1513,9.7184,-0.031,0.0215,-0.1109,-1.967846532861227,0.0,3.626601219177246,-1.6186203956604004,-0.0,1.9890737533569336,5.110918956785955,0.0,0.2587206959724426,-1.5247462431537073,0.0,-0.02149233967065811,-0.051946465169088185,-0.0,-0.0015961122699081898,1.2705252170562744,0.0,-0.026619702577590942
242.0,373.0,-0.1065,0.1513,9.7184,-0.031,0.0215,-0.1109,-1.9678589306273402,0.0,3.731353521347046,-1.6186120510101318,-0.0,1.996868371963501,5.110846537142553,0.0,0.2720195949077606,-1.5247629324542444,0.0,-0.019410591572523117,-0.05188638368715459,-0.0,-3.0088704079389572e-06,1.2705293893814087,0.0,-0.006118045188486576
242.0,373.0,-0.1065,0.1513,9.7184,-0.031,0.0215,-0.1109,-1.9678508243956507,0.0,3.678269863128662,-1.6186203956604004,-0.0,2.0030605792999268,5.110838281899252,0.0,0.26677873730659485,-1.5248191992389124,0.0,-0.02909998409450054,-0.05185062090028936,-0.0,-0.002222477924078703,1.270505666732788,0.0,0.03586124628782272
242.0,373.0,-0.1065,0.1513,9.7184,-0.031,0.0215,-0.1109,-1.967818399468893,0.0,3.6361775398254395,-1.6186038255691528,-0.0,2.0105319023132324,5.110882538347997,0.0,0.26707684993743896,-1.524698559437887,0.0,-0.018930234014987946,-0.051867310200826466,-0.0,-0.008576173335313797,1.270460605621338,0.0,-0.040164995938539505
242.0,373.0,-0.1065,0.1513,9.7184,-0.031,0.0215,-0.1109,-1.9678389034666957,0.0,3.6585936546325684,-1.6185799837112427,-0.0,1.98647141456604,5.11087058761672,0.0,0.26220589876174927,-1.5247867743121546,0.0,-0.010499009862542152,-0.051834885274068654,-0.0,0.004495697095990181,1.2705051898956299,0.0,-0.038119081407785416
242.0,373.0,-0.1065,0.1513,9.7184,-0.031,0.0215,-0.1109,-1.9678389034666957,0.0,3.6252999305725098,-1.6186163425445557,-0.0,1.988243818283081,5.110878783255377,0.0,0.2681405246257782,-1.524778191243307,0.0,-0.01799178682267666,-0.05187446275819951,-0.0,0.00785954762250185,1.2704486846923828,0.0,0.008917546831071377
242.0,373.0,-0.1065,0.1513,9.7184,-0.031,0.0215,-0.1109,-1.9678145847716273,0.0,3.6369893550872803,-1.6186203956604004,-0.0,2.0210142135620117,5.11091889718131,0.0,0.27881380915641785,-1.5247586409198206,0.0,-0.021379701793193817,-0.0518110434161585,-0.0,0.013966982252895832,1.270505666732788,0.0,-0.0045121884904801846
242.0,373.0,-0.1065,0.1513,9.7184,-0.031,0.0215,-0.1109,-1.967863222161764,0.0,3.638373374938965,-1.6186161041259766,-0.0,2.0234479904174805,5.110886591463842,0.0,0.27586689591407776,-1.5247753302203577,0.0,-0.016111483797430992,-0.05186301866640264,-0.0,0.011440557427704334,1.2704565525054932,0.0,-0.029078630730509758
242.0,373.0,-0.1065,0.1513,9.7184,-0.031,0.0215,-0.1109,-1.967846532861227,0.0,3.7046899795532227,-1.618600606918335,-0.0,2.0251502990722656,5.110842424422064,0.0,0.26050299406051636,-1.5247424284564417,0.0,-0.042285043746232986,-0.051867310200826466,-0.0,0.0024449226912111044,1.2705252170562744,0.0,0.008785881102085114
242.0,373.0,-0.1065,0.1513,9.7184,-0.031,0.0215,-0.1109,-1.9677983723082484,0.0,3.6471009254455566,-1.6186203956604004,-0.0,1.9623109102249146,5.110862511187353,0.0,0.2775452733039856,-1.524794880543844,0.0,-0.004675098694860935,-0.05189115205873662,-0.0,0.006015925668179989,1.2705211639404297,0.0,-0.01664687693119049
242.0,373.0,-0.1065,0.1513,9.7184,-0.031,0.0215,-0.1109,-1.9678589306273402,0.0,3.6357762813568115,-1.6186405420303345,-0.0,2.010976552963257,5.1108542559440515,0.0,0.2714558243751526,-1.5247505346881312,0.0,-0.03047442063689232,-0.05187446275819951,-0.0,-0.004789289087057114,1.270505666732788,0.0,-0.02290036901831627
245.0,344.0,-0.1352,0.1501,9.7202,-0.0417,0.0275,-0.1182,-1.9678102932372035,0.0,3.662476062774658,-1.6185801029205322,-0.0,2.004148483276367,5.1108542559440515,0.0,0.26649919152259827,-1.5248191992389124,0.0,-0.014653757214546204,-0.051842514668599904,-0.0,0.0006200236384756863,1.2705376148223877,0.0,-0.0013151641469448805
245.0,344.0,-0.1352,0.1501,9.7202,-0.0417,0.0275,-0.1182,-1.9678427181639613,0.0,3.66064190864563,-1.6186405420303345,-0.0,1.9783599376678467,5.110886591463842,0.0,0.2762201130390167,-1.5247343222247522,0.0,-0.013684237375855446,-0.05185920396913701,-0.0,0.004227600526064634,1.2705252170562744,0.0,-0.022122766822576523
245.0,344.0,-0.1352,0.1501,9.7202,-0.0417,0.0275,-0.1182,-1.9678427181639613,0.0,3.6417813301086426,-1.6186445951461792,-0.0,2.0127458572387695,5.11087058761672,0.0,0.2646213173866272,-1.5247824827777308,0.0,-0.010595425963401794,-0.05184680620302373,-0.0,0.00575238186866045,1.270480990409851,0.0,-0.012511816807091236
245.0,344.0,-0.1352,0.1501,9.7202,-0.0417,0.0275,-0.1182,-1.967830320397848,0.0,3.652988910675049,-1.6186121702194214,-0.0,1.9865226745605469,5.110834198981085,0.0,0.2707822918891907,-1.5247586409198206,0.0,-0.02036755159497261,-0.051806275044576466,-0.0,-0.0026776385493576527,1.2704973220825195,0.0,-0.04188111424446106
245.0,344.0,-0.1352,0.1501,9.7202,-0.0417,0.0275,-0.1182,-1.9678589306273402,0.0,3.7026219367980957,-1.618660807609558,-0.0,1.937798023223877,5.110898512392797,0.0,0.2749761641025543,-1.5247185865985315,0.0,-0.013684994541108608,-0.051842514668599904,-0.0,-0.002937469631433487,1.2705010175704956,0.0,-0.04290791228413582
245.0,344.0,-0.1352,0.1501,9.7202,-0.0417,0.0275,-0.1182,-1.967846532861227,0.0,3.682483196258545,-1.618607997894287,-0.0,2.0228822231292725,5.1108542559440515,0.0,0.281618595123291,-1.5247462431537073,0.0,-0.002628171816468239,-0.051867310200826466,-0.0,-0.007707883603870869,1.2705051898956299,0.0,0.00017405860126018524
245.0,344.0,-0.1352,0.1501,9.7202,-0.0417,0.0275,-0.1182,-1.9678145847716273,0.0,3.661773681640625,-1.6185439825057983,-0.0,2.0445823669433594,5.110842424422064,0.0,0.2678163945674896,-1.5247791449176233,0.0,-0.017399020493030548,-0.05181485811342412,-0.0,-0.003891412168741226,1.2705051898956299,0.0,0.007315441034734249
245.0,344.0,-0.1352,0.1501,9.7202,-0.0417,0.0275,-0.1182,-1.9678384266295375,0.0,3.646705150604248,-1.6186363697052002,-0.0,1.986679196357727,5.1108542559440515,0.0,0.26753562688827515,-1.5247424284564417,0.0,-0.015907667577266693,-0.0518267790423792,-0.0,0.009881503880023956,1.2705615758895874,0.0,-0.006428650580346584
245.0,344.0,-0.1352,0.1501,9.7202,-0.0417,0.0275,-0.1182,-1.967830320397848,0.0,3.6299638748168945,-1.618552327156067,-0.0,1.9902634620666504,5.110878813057699,0.0,0.27290356159210205,-1.524834934865133,0.0,-0.012894243001937866,-0.05188304582704717,-0.0,0.012040714733302593,1.270505666732788,0.0,0.0258190855383873
245.0,344.0,-0.1352,0.1501,9.7202,-0.0417,0.0275,-0.1182,-1.967863222161764,0.0,3.650705099105835,-1.618607997894287,-0.0,2.0147323608398438,5.110838281899252,0.0,0.27442044019699097,-1.5247867743121546,0.0,-0.007032755762338638,-0.05186349550356084,-0.0,0.006086715497076511,1.2705092430114746,0.0,-0.00015050219371914864
245.0,344.0,-0.1352,0.1501,9.7202,-0.0417,0.0275,-0.1182,-1.9678226910033167,0.0,3.64475417137146,-1.6186445951461792,-0.0,1.9822930097579956,5.110834198981085,0.0,0.2740096151828766,-1.524778191243307,0.0,-0.020511949434876442,-0.05181867281068975,-0.0,-0.008825442753732204,1.2705051898956299,0.0,0.007103639654815197
245.0,344.0,-0.1352,0.1501,9.7202,-0.0417,0.0275,-0.1182,-1.9678145847716273,0.0,3.606992721557617,-1.6185760498046875,-0.0,2.0145411491394043,5.110858398466863,0.0,0.27114731073379517,-1.52476674715151,0.0,-0.018450457602739334,-0.051854912434713185,-0.0,-0.002768234582617879,1.270480990409851,0.0,-0.0007159514352679253
245.0,344.0,-0.1352,0.1501,9.7202,-0.0417,0.0275,-0.1182,-1.9678346119322718,0.0,3.654310703277588,-1.6186203956604004,-0.0,1.9418354034423828,5.110850202828207,0.0,0.2678771913051605,-1.5247986952411097,0.0,-0.023053964599967003,-0.051834885274068654,-0.0,-0.006746980827301741,1.270480990409851,0.0,0.007158941589295864
245.0,344.0,-0.1352,0.1501,9.7202,-0.0417,0.0275,-0.1182,-1.967863222161764,0.0,3.644725799560547,-1.6186163425445557,-0.0,1.9829494953155518,5.110862511187353,0.0,0.25980252027511597,-1.5247867743121546,0.0,-0.03399517759680748,-0.051903549824849904,-0.0,0.007287818007171154,1.2704850435256958,0.0,-0.025363067165017128
245.0,344.0,-0.1352,0.1501,9.7202,-0.0417,0.0275,-0.1182,-1.967818399468893,0.0,3.691422939300537,-1.6185678243637085,-0.0,1.9880434274673462,5.110846477537908,0.0,0.27157819271087646,-1.5247505346881312,0.0,-0.0192574393004179,-0.051886860524312794,-0.0,0.013710200786590576,1.270521640777588,0.0,-0.02853008732199669
245.0,344.0,-0.1352,0.1501,9.7202,-0.0417,0.0275,-0.1182,-1.9678026638426722,0.0,3.6726951599121094,-1.618632435798645,-0.0,1.9686291217803955,5.110874730139532,0.0,0.2728412449359894,-1.5247629324542444,0.0,-0.020508116111159325,-0.051842514668599904,-0.0,0.0040887040086090565,1.2705212831497192,0.0,0.043959155678749084
245.0,344.0,-0.1352,0.1501,9.7202,-0.0417,0.0275,-0.1182,-1.9678226910033167,0.0,3.6999964714050293,-1.6185883283615112,-0.0,1.9817149639129639,5.110850530653753,0.0,0.2692478597164154,-1.524738613759176,0.0,-0.005853671580553055,-0.05182248750795537,-0.0,0.0018315166234970093,1.2704851627349854,0.0,-0.0008318568579852581
245.0,364.0,-0.0826,0.1813,9.5737,-0.0411,0.02,-0.1277,-1.967818399468893,0.0,3.684260845184326,-1.6186161041259766,-0.0,1.9234625101089478,5.110902654915609,0.0,0.27948278188705444,-1.5247586409198206,0.0,-0.013030524365603924,-0.05183869997133428,-0.0,-0.00371569930575788,1.2705211639404297,0.0,0.03910518437623978
245.0,364.0,-0.0826,0.1813,9.5737,-0.0411,0.02,-0.1277,-1.9678832493224085,0.0,3.6288821697235107,-1.6186326742172241,-0.0,1.9690210819244385,5.110862511187353,0.0,0.27328771352767944,-1.524823013936178,0.0,-0.01064383052289486,-0.05185920396913701,-0.0,0.004668094217777252,1.2705132961273193,0.0,0.025231149047613144
245.0,364.0,-0.0826,0.1813,9.5737,-0.0411,0.02,-0.1277,-1.967830320397848,0.0,3.703268527984619,-1.6185925006866455,-0.0,1.9273278713226318,5.110882508545675,0.0,0.2596437931060791,-1.5247586409198206,0.0,-0.015994204208254814,-0.051854912434713185,-0.0,-0.004056602716445923,1.2704932689666748,0.0,0.005302509292960167
245.0,364.0,-0.0826,0.1813,9.5737,-0.0411,0.02,-0.1277,-1.967846532861227,0.0,3.630723476409912,-1.6186286211013794,-0.0,1.9880778789520264,5.110850202828207,0.0,0.2666170001029968,-1.5247467199908655,0.0,-0.015465080738067627,-0.05189544359316045,-0.0,0.0016312035731971264,1.2705051898956299,0.0,-0.0071428678929805756
245.0,364.0,-0.0826,0.1813,9.5737,-0.0411,0.02,-0.1277,-1.967818399468893,0.0,3.6594533920288086,-1.618552327156067,-0.0,2.003153085708618,5.110874730139532,0.0,0.26508763432502747,-1.524823013936178,0.0,-0.021837681531906128,-0.05181867281068975,-0.0,-0.0027926997281610966,1.2705252170562744,0.0,0.031836848706007004
245.0,364.0,-0.0826,0.1813,9.5737,-0.0411,0.02,-0.1277,-1.967875143090719,0.0,3.6600379943847656,-1.6185925006866455,-0.0,1.9721519947052002,5.110841977387228,0.0,0.27820590138435364,-1.5247791449176233,0.0,-0.01487123966217041,-0.0518267790423792,-0.0,-0.001168724149465561,1.2705132961273193,0.0,-0.005092241335660219
245.0,364.0,-0.0826,0.1813,9.5737,-0.0411,0.02,-0.1277,-1.967842241326803,0.0,3.6311721801757812,-1.6185882091522217,-0.0,1.9958816766738892,5.110898512392797,5.551566459871538e-07,0.2658475637435913,-1.5247710386859339,0.0,-0.01788914017379284,-0.05187875429262334,-0.0,-0.00678996229544282,1.270505666732788,0.0,0.08184948563575745
245.0,364.0,-0.0826,0.1813,9.5737,-0.0411,0.02,-0.1277,-1.9678026638426722,0.0,3.6242027282714844,-1.6186405420303345,-0.0,1.9690738916397095,5.110874759941854,1.5452988888497998e-10,0.2681209146976471,-1.5247629324542444,0.0,-0.019042612984776497,-0.05185920396913701,-0.0,-0.012584161944687366,1.2705051898956299,0.0,0.006125802174210548
245.0,364.0,-0.0826,0.1813,9.5737,-0.0411,0.02,-0.1277,-1.967842241326803,0.0,3.653869152069092,-1.6186245679855347,-0.0,2.0014193058013916,5.110854315548696,4.301396275296389e-14,0.26787418127059937,-1.524738613759176,0.0,-0.026974603533744812,-0.05183917680849248,-0.0,0.009620441123843193,1.270521640777588,0.0,-0.0026815878227353096
245.0,364.0,-0.0826,0.1813,9.5737,-0.0411,0.02,-0.1277,-1.9678226910033167,0.0,3.6318888664245605,-1.6185925006866455,-0.0,2.0070996284484863,5.110930907517233,1.8337527448182675e-16,0.26921790838241577,-1.524811093007223,0.0,-0.015890300273895264,-0.05187875429262334,-0.0,0.00314126699231565,1.2705211639404297,0.0,0.00044247228652238846
245.0,364.0,-0.0826,0.1813,9.5737,-0.0411,0.02,-0.1277,-1.9678389034666957,0.0,3.627197742462158,-1.6186039447784424,-0.0,1.9860639572143555,5.110830175667562,5.1043176563282064e-20,0.26625847816467285,-1.5247824827777308,0.0,-0.012560637667775154,-0.05187064806093389,-0.0,0.007381770759820938,1.2704932689666748,0.0,-0.007837284356355667
245.0,364.0,-0.0826,0.1813,9.5737,-0.0411,0.02,-0.1277,-1.9678589306273402,0.0,3.6237049102783203,-1.618600606918335,-0.0,1.9747934341430664,5.110825913935461,6.116358417784795e-05,0.25142961740493774,-1.5247905890094202,0.0,-0.011506393551826477,-0.051874939595357716,-0.0,-0.006172680761665106,1.2704893350601196,0.0,-0.007241383660584688
245.0,364.0,-0.0826,0.1813,9.5737,-0.0411,0.02,-0.1277,-1.9678670368590296,0.0,3.673208236694336,-1.6186201572418213,-0.0,1.9796807765960693,5.110890257149496,5.471769691212103e-05,0.2733396887779236,-1.5247462431537073,0.0,-0.0104361018165946,-0.05189544359316045,-0.0,0.0040198760107159615,1.2705376148223877,0.0,-0.016143599525094032
245.0,364.0,-0.0826,0.1813,9.5737,-0.0411,0.02,-0.1277,-1.967830320397848,0.0,3.690753936767578,-1.6186286211013794,-0.0,2.0368456840515137,5.110890733986654,4.627771704690531e-05,0.2656366527080536,-1.52476674715151,0.0,-0.019289877265691757,-0.051830593739644826,-0.0,0.0018858518451452255,1.2704405784606934,0.0,0.03686028718948364
245.0,364.0,-0.0826,0.1813,9.5737,-0.0411,0.02,-0.1277,-1.9678226910033167,0.0,3.7165565490722656,-1.6186201572418213,-0.0,1.9735870361328125,5.110841947584905,4.0091465052682906e-05,0.27321088314056396,-1.5247753302203577,0.0,-0.026884153485298157,-0.051874939595357716,-0.0,-0.006743812467902899,1.2705132961273193,0.0,-0.015900593250989914
245.0,364.0,-0.0826,0.1813,9.5737,-0.0411,0.02,-0.1277,-1.967762132684225,0.0,3.658881664276123,-1.61857271194458,-0.0,1.9364047050476074,5.11084611991004,3.6811230529565364e-05,0.2688964009284973,-1.524778191243307,0.0,-0.008134303614497185,-0.05186349550356084,-0.0,-0.0034420471638441086,1.2704973220825195,0.0,0.0032060937955975533
245.0,364.0,-0.0826,0.1813,9.5737,-0.0411,0.02,-0.1277,-1.9678064785399378,0.0,3.6608309745788574,-1.6185283660888672,-0.0,2.028430461883545,5.110890763788976,3.27873531205114e-05,0.26464003324508667,-1.5247710386859339,0.0,-0.0246434286236763,-0.05189115205873662,-0.0,0.005696667358279228,1.2704769372940063,0.0,0.0029103851411491632
249.0,363.0,-0.07,0.1597,9.661,-0.037,0.0221,-0.1121,-1.967818399468893,0.0,3.6433284282684326,-1.6186326742172241,-0.0,2.0079007148742676,5.110894816904821,2.955666604975704e-05,0.2698703110218048,-1.5247710386859339,0.0,-0.005074429791420698,-0.05185920396913701,-0.0,0.01280838344246149,1.2705092430114746,0.0,0.020256198942661285
249.0,363.0,-0.07,0.1597,9.661,-0.037,0.0221,-0.1121,-1.967830320397848,0.0,3.663356065750122,-1.6186367273330688,-0.0,2.0086586475372314,5.1108222780521295,2.773478627204895e-05,0.26179593801498413,-1.5247991720782679,0.0,-0.02242739498615265,-0.05185109773744756,-0.0,0.008513396605849266,1.2705014944076538,0.0,-0.012235275469720364
249.0,363.0,-0.07,0.1597,9.661,-0.037,0.0221,-0.1121,-1.9678789577879847,0.0,3.665515899658203,-1.61857271194458,-0.0,1.9822025299072266,5.110886591463842,2.538757871661801e-05,0.2722287178039551,-1.5247462431537073,0.0,-0.015260567888617516,-0.051874939595357716,-0.0,-0.004398615099489689,1.2705010175704956,0.0,0.013908159919083118
249.0,363.0,-0.07,0.1597,9.661,-0.037,0.0221,-0.1121,-1.9678713283934535,0.0,3.662122964859009,-1.6185925006866455,-0.0,1.9994877576828003,5.110826420574941,2.3406653781421483e-05,0.26910820603370667,-1.5247753302203577,0.0,-0.017702002078294754,-0.0519030729876917,-0.0,0.004802054725587368,1.2704973220825195,0.0,0.03684661164879799
249.0,363.0,-0.07,0.1597,9.661,-0.037,0.0221,-0.1121,-1.9678627453246058,0.0,3.635221004486084,-1.6185718774795532,-0.0,1.9924721717834473,5.110886591463842,2.224928539362736e-05,0.28148719668388367,-1.5247424284564417,0.0,-0.023670639842748642,-0.05185109773744756,-0.0,-0.004226006101816893,1.2704973220825195,0.0,0.04683345556259155
249.0,363.0,-0.07,0.1597,9.661,-0.037,0.0221,-0.1121,-1.9677945576109828,0.0,3.6602768898010254,-1.6186286211013794,-0.0,1.9875590801239014,5.110894816904821,2.0713036064989865e-05,0.2714267373085022,-1.5247543493853968,0.0,-0.009946092031896114,-0.05189115205873662,-0.0,0.006490892264991999,1.2704932689666748,0.0,0.013384401798248291
249.0,363.0,-0.07,0.1597,9.661,-0.037,0.0221,-0.1121,-1.9678508243956507,0.0,3.6692795753479004,-1.6185965538024902,-0.0,2.0103352069854736,5.1108984527881525,1.937526758410968e-05,0.275707870721817,-1.5247753302203577,0.0,-0.013031776994466782,-0.05184680620302373,-0.0,-0.00242082541808486,1.2705092430114746,0.0,0.01560908742249012
249.0,363.0,-0.07,0.1597,9.661,-0.037,0.0221,-0.1121,-1.9678346119322718,0.0,3.70149302482605,-1.618624210357666,-0.0,1.9720641374588013,5.110854315548696,1.857545066741295e-05,0.2637750506401062,-1.5247753302203577,0.0,-0.026663336902856827,-0.05183869997133428,-0.0,0.012570393271744251,1.2705252170562744,0.0,0.00916160549968481
249.0,363.0,-0.07,0.1597,9.661,-0.037,0.0221,-0.1121,-1.967830320397848,0.0,3.6717605590820312,-1.6186326742172241,-0.0,1.97792649269104,5.11090253570632,1.7492338884039782e-05,0.26897066831588745,-1.5247586409198206,0.0,-0.0015156784793362021,-0.05185920396913701,-0.0,0.005083754193037748,1.2705092430114746,0.0,0.0034442078322172165
249.0,363.0,-0.07,0.1597,9.661,-0.037,0.0221,-0.1121,-1.9678389034666957,0.0,3.6974904537200928,-1.6185678243637085,-0.0,1.9663012027740479,5.1108542559440515,1.6528569176443852e-05,0.27336597442626953,-1.524811093007223,-2.947405448594509e-07,-0.006871216930449009,-0.05187875429262334,-0.0,0.00010486040264368057,1.2705132961273193,0.0,-0.032260771840810776
249.0,363.0,-0.07,0.1597,9.661,-0.037,0.0221,-0.1121,-1.9678226910033167,0.0,3.637723922729492,-1.6186485290527344,-0.0,2.027146577835083,5.110886531859197,1.5942976460792124e-05,0.2650018036365509,-1.5248387495623987,-0.002116964664310217,-0.02227810025215149,-0.051871601735250294,-0.0,0.0025490419939160347,1.2705374956130981,0.0,-0.028728924691677094
249.0,363.0,-0.07,0.1597,9.661,-0.037,0.0221,-0.1121,-1.9678427181639613,0.0,3.679675579071045,-1.6186445951461792,-0.0,2.0098228454589844,5.110858428269186,1.5138459275476635e-05,0.2656954526901245,-1.524806324635641,-0.002168287057429552,-0.025297529995441437,-0.05185109773744756,-0.0,-0.0005474770441651344,1.2704969644546509,0.000994289992377162,-0.005210508592426777
249.0,363.0,-0.07,0.1597,9.661,-0.037,0.0221,-0.1121,-1.9678384266295375,0.0,3.6891751289367676,-1.6186285018920898,-0.0,2.0015501976013184,5.11086659410552,1.4411250958801247e-05,0.27705127000808716,-1.524834934865133,-0.001253842143341899,-0.017900006845593452,-0.05187875429262334,-0.0,-0.0016305178869515657,1.2705612182617188,0.001926716766320169,0.04120025783777237
249.0,363.0,-0.07,0.1597,9.661,-0.037,0.0221,-0.1121,-1.9678145847716273,0.0,3.658750057220459,-1.6186445951461792,-0.0,2.001044273376465,5.11088656166152,1.3964052413939498e-05,0.2716291546821594,-1.5248225370990198,-0.0008512413478456438,-0.021639682352542877,-0.05185920396913701,-0.0,0.009942328557372093,1.2705731391906738,0.0015594849828630686,-0.00866459310054779
249.0,363.0,-0.07,0.1597,9.661,-0.037,0.0221,-0.1121,-1.9678908787169398,0.0,3.6693615913391113,-1.6185481548309326,-0.0,1.989626407623291,5.110890733986654,4.486891782562452e-07,0.26648572087287903,-1.5248025099383753,-0.000691387162078172,-0.02820897102355957,-0.051854912434713185,-0.0,0.0015297636855393648,1.270553469657898,0.0008452155743725598,0.03316891938447952
249.0,363.0,-0.07,0.1597,9.661,-0.037,0.0221,-0.1121,-1.967830320397848,0.0,3.656989812850952,-1.6185965538024902,-0.0,1.9879546165466309,5.110890763788976,1.2489428935502644e-10,0.2713232934474945,-1.5248225370990198,-0.0005367778358049691,-0.026123560965061188,-0.05187064806093389,-0.0,0.008240572176873684,1.2705812454223633,0.000479150447063148,-0.04479575902223587
249.0,363.0,-0.07,0.1597,9.661,-0.037,0.0221,-0.1121,-1.9678708515562953,0.0,3.660151958465576,-1.6186161041259766,-0.0,1.9859669208526611,5.11084611991004,5.324438806519893e-13,0.2811402678489685,-1.5248306433307093,-0.0003590782289393246,-0.011794445104897022,-0.05185109773744756,-0.0,0.006750578060746193,1.2705613374710083,0.0003949922975152731,-0.012564101256430149
243.0,357.0,0.3517,0.0114,9.216,-0.0551,0.0104,-0.115,-1.9678708515562953,0.0,3.6832566261291504,-1.6186646223068237,-0.0,1.9929829835891724,5.11084611991004,1.4820769735657968e-16,0.2638446092605591,-1.5248783270465296,-0.0003677249769680202,-0.021093180403113365,-0.05187875429262334,-0.0,0.0071590859442949295,1.270545244216919,0.00037485803477466106,0.010015401057898998
243.0,357.0,0.3517,0.0114,9.216,-0.0551,0.0104,-0.115,-1.9678908787169398,0.0,3.710939884185791,-1.6186120510101318,-0.0,2.003964900970459,5.1108624813850305,4.125416286679041e-20,0.2795735001564026,-1.524886433278219,-0.00036046706372871995,-0.0034611038863658905,-0.05184680620302373,-0.0,0.010896583087742329,1.2705448865890503,0.0003619384078774601,-0.006462872959673405
243.0,357.0,0.3517,0.0114,9.216,-0.0551,0.0104,-0.115,-1.9678784809508265,0.0,3.663834571838379,-1.6186243295669556,-0.0,1.95546555519104,5.110870617419042,1.7587297947862022e-22,0.2698981761932373,-1.5248945395099085,-0.00033021936542354524,-0.018054382875561714,-0.051842514668599904,-0.0,0.004450969398021698,1.2706013917922974,0.0003018096031155437,0.00012881401926279068
243.0,357.0,0.3517,0.0114,9.216,-0.0551,0.0104,-0.115,-1.967858453790182,0.0,3.6469709873199463,-1.618624210357666,-0.0,1.999848484992981,5.1108301160629175,4.895488045568476e-26,0.26731908321380615,-1.5248382727252405,-0.00033609376987442374,0.00406443327665329,-0.051886860524312794,-0.0,0.000955275958403945,1.2705931663513184,0.00180428649764508,-0.0070558516308665276
243.0,357.0,0.3517,0.0114,9.216,-0.0551,0.0104,-0.115,-1.9679309330382289,0.0,3.657197952270508,-1.6185364723205566,0.0003066235803999007,2.0322835445404053,5.110850560456075,1.362676986750052e-29,0.2599261403083801,-1.5248382727252405,-0.0002866186259780079,-0.005022522993385792,-0.05185109773744756,-0.0,0.009403499774634838,1.270613193511963,0.0022494199220091105,0.020911265164613724
243.0,357.0,0.3517,0.0114,9.216,-0.0551,0.0104,-0.115,-1.967874666253561,0.0,3.6945621967315674,-1.6185035705566406,0.00032309404923580587,1.9570388793945312,5.110858428269186,5.809306012201604e-32,0.26407504081726074,-1.5248382727252405,-0.00025422198814339936,-0.018362704664468765,-0.05185920396913701,-0.0,0.009745437651872635,1.2705931663513184,0.001996077597141266,0.017789192497730255
243.0,357.0,0.3517,0.0114,9.216,-0.0551,0.0104,-0.115,-1.967886587182516,0.0,3.656843662261963,-1.6185801029205322,0.00022895151050761342,1.9788708686828613,5.110838281899252,1.6170417122373132e-35,0.27468910813331604,-1.5248144308673304,-0.00021736971393693238,-0.011734724044799805,-0.05186635652651006,-0.0,0.0020708725787699223,1.2706010341644287,0.0012058101128786802,0.021043535321950912
243.0,357.0,0.3517,0.0114,9.216,-0.0551,0.0104,-0.115,-1.9678784809508265,0.0,3.657231330871582,-1.6185561418533325,0.00023815262829884887,1.9822909832000732,5.110858458071508,4.5010953829746373e-39,0.2755559980869293,-1.5248587767230433,-0.00018985080532729626,-0.0018417439423501492,-0.05189115205873662,-4.428466581885004e-06,0.0006138001917861402,1.2706091403961182,0.0008023047121241689,0.0342414528131485
243.0,357.0,0.3517,0.0114,9.216,-0.0551,0.0104,-0.115,-1.9678665600218714,0.0,3.689208745956421,-1.618580937385559,0.00021885073510929942,2.0009264945983887,5.110774296313085,1.9189381170464045e-41,0.26359695196151733,-1.5248425642596644,-0.0001750754745444283,-0.006211772095412016,-0.05190736452211553,-1.887924661048146e-08,0.005448213778436184,1.2706533670425415,0.0004940869985148311,-0.0006372053176164627
243.0,357.0,0.3517,0.0114,9.216,-0.0551,0.0104,-0.115,-1.9678665600218714,0.0,3.6295251846313477,-1.6185524463653564,0.0002850412856787443,2.013601303100586,5.110874759941854,5.605193857299268e-45,0.26300615072250366,-1.5248106161700647,-0.00013357307761907578,-0.004610424395650625,-0.05181867281068975,-5.255107547036397e-12,0.006618788465857506,1.270625114440918,0.0003003776364494115,0.020174892619252205
243.0,357.0,0.3517,0.0114,9.216,-0.0551,0.0104,-0.115,-1.9678908787169398,0.0,3.656304359436035,-1.6185646057128906,0.00035079842200502753,1.9903805255889893,5.11081479766921,0.0,0.2790791392326355,-1.5247986952411097,-0.00011728356184903532,-0.007065390236675739,-0.05189544359316045,-2.2403348910716124e-14,-0.0005909272003918886,1.2705931663513184,0.00019899320614058524,-0.01801399514079094
243.0,357.0,0.3517,0.0114,9.216,-0.0551,0.0104,-0.115,-1.9678665600218714,0.0,3.6763787269592285,-1.6185524463653564,0.0009980692993849516,1.9662314653396606,5.1108542559440515,0.0,0.28267771005630493,-1.5248263517962855,-0.00010681155254133046,-0.020579161122441292,-0.05189115205873662,-6.2360546674428655e-18,-0.0023195925168693066,1.270597219467163,-0.000364363775588572,0.04950957000255585
243.0,357.0,0.3517,0.0114,9.216,-0.0551,0.0104,-0.115,-1.9678708515562953,0.0,3.6633598804473877,-1.6185566186904907,0.00087242346489802,2.0015969276428223,5.110814827471533,0.0,0.2829723656177521,-1.5248068014727991,-9.808061440708116e-05,-0.012187745422124863,-0.05186349550356084,-1.7358288219197252e-21,0.0020870305597782135,1.270517110824585,-0.002582872286438942,-0.03163579851388931
243.0,357.0,0.3517,0.0114,9.216,-0.0551,0.0104,-0.115,-1.9678827724852503,0.0,3.6581437587738037,-1.6185561418533325,0.0006182400975376368,2.0216376781463623,5.110878813057699,0.0,0.2707694172859192,-1.524794880543844,-7.055213791318238e-05,-0.013812090270221233,-0.0518267790423792,-7.400110092095627e-24,0.003189434763044119,1.2705092430114746,-0.00432927068322897,-0.0035015828907489777
243.0,357.0,0.3517,0.0114,9.216,-0.0551,0.0104,-0.115,-1.9679070911803187,0.0,3.6520895957946777,-1.6185120344161987,0.00019861622422467917,2.0094993114471436,5.110842484026708,0.0,0.2623865306377411,-1.524794880543844,-6.474104156950489e-05,-0.01585310697555542,-0.05185538927187139,-2.059847557140258e-27,0.003342463867738843,1.2704893350601196,-0.00705941766500473,0.011103356257081032
243.0,357.0,0.3517,0.0114,9.216,-0.0551,0.0104,-0.115,-1.9678660831847132,-0.00010692117939470336,3.6837263107299805,-1.6186283826828003,7.458688924089074e-05,1.9731252193450928,5.110790568381109,0.0,0.27134039998054504,-1.5247743765460413,-6.0396065237000585e-05,-0.020399361848831177,-0.05185109773744756,-5.7336613050340986e-31,-0.006241159979254007,1.2703931331634521,-0.00768705690279603,0.0028600674122571945
243.0,357.0,0.3517,0.0114,9.216,-0.0551,0.0104,-0.115,-1.9679023228087367,-0.00010222529817838222,3.6485581398010254,-1.6184840202331543,6.39787976979278e-05,1.9662939310073853,5.1108029065425775,-0.000373453221982345,0.2653351426124573,-1.5248029867755335,4.853521386394277e-05,-0.018366198986768723,-0.05181438127626592,-2.444349952735735e-33,0.010639605112373829,1.2703771591186523,-0.008328943513333797,0.06404504925012589
242.0,333.0,-0.1651,0.4714,9.5348,-0.0305,0.0257,-0.1266,-1.967926641503805,-0.00011483331763884053,3.6825520992279053,-1.6185686588287354,4.4594683501486543e-10,2.0115010738372803,5.11079882362441,-0.0007585189887322485,0.26143157482147217,-1.524794880543844,4.809727761312388e-05,-0.03049807995557785,-0.0519030729876917,-6.8039381038261246e-37,-0.0046859364956617355,1.2703090906143188,-0.007690010592341423,-0.07048692554235458
242.0,333.0,-0.1651,0.4714,9.5348,-0.0305,0.0257,-0.1266,-1.9679228268065394,-0.00010795609705382958,3.701728105545044,-1.6185965538024902,1.0769089011722897e-15,2.0290980339050293,5.110786932497778,-0.0008602497982792556,0.25458818674087524,-1.5248191992389124,4.4528551370603964e-05,-0.017549630254507065,-0.05190736452211553,-1.89389691348892e-40,0.0042645675130188465,1.2702851295471191,-0.007721249479800463,-0.03752260282635689
242.0,333.0,-0.1651,0.4714,9.5348,-0.0305,0.0257,-0.1266,-1.967886587182516,-0.00010380557068856433,3.6690163612365723,-1.6185160875320435,1.9383979868566311e-19,1.939133644104004,5.1107791540916345,-0.0006588263786397874,0.258787602186203,-1.524778191243307,4.242917930241674e-05,-0.01803804188966751,-0.05180675188173467,-8.071479154510946e-43,-0.00047148438170552254,1.2702487707138062,-0.00790756568312645,-0.04748696833848953
242.0,333.0,-0.1651,0.4714,9.5348,-0.0305,0.0257,-0.1266,-1.9678784809508265,-8.186438935808837e-05,3.676003932952881,-1.6185561418533325,4.681002497006397e-25,2.0077667236328125,5.110794740706243,-0.0005623524775728583,0.271617591381073,-1.5247867743121546,3.962685514125042e-05,-0.01071429718285799,-0.05189544359316045,-0.0,0.005506607703864574,1.2702049016952515,-0.007900909520685673,0.0006337384693324566
242.0,333.0,-0.1651,0.4714,9.5348,-0.0305,0.0257,-0.1266,-1.9678870640196742,-6.225907418411225e-05,3.67618989944458,-1.6185364723205566,1.1304070895021478e-30,1.992112398147583,5.110770898848333,-0.00044355751015245914,0.27060163021087646,-1.5248430410968226,3.71718306269031e-05,-0.025615915656089783,-0.05182248750795537,-0.0,-0.0021467190235853195,1.2701610326766968,-0.007105803582817316,0.043916452676057816
242.0,333.0,-0.1651,0.4714,9.5348,-0.0305,0.0257,-0.1266,-1.9678508243956507,-4.558342698146589e-05,3.6911025047302246,-1.6185643672943115,0.00019748076738324016,1.9720721244812012,5.11079882362441,-0.0003887793282046914,0.2609894275665283,-1.524794880543844,3.569739783415571e-05,-0.01655171997845173,-0.051854912434713185,-0.0,0.005356898996978998,1.2701414823532104,-0.0057738483883440495,0.04827222600579262
242.0,333.0,-0.1651,0.4714,9.5348,-0.0305,0.0257,-0.1266,-1.967842241326803,7.946878031361848e-05,3.673454523086548,-1.6185117959976196,0.0010072700679302216,1.9813616275787354,5.110794740706243,-0.000328026304487139,0.2789175510406494,-1.5247986952411097,3.369279875187203e-05,-0.01687481999397278,-0.05186349550356084,-0.0,-0.005292379297316074,1.270169734954834,-0.0038489100988954306,-0.003124861977994442
242.0,333.0,-0.1651,0.4714,9.5348,-0.0305,0.0257,-0.1266,-1.9678589306273402,0.00014060278772376478,3.6641743183135986,-1.618540644645691,0.0016900792252272367,2.0234994888305664,5.110786902695455,-0.00014321462367661297,0.27367541193962097,-1.524834934865133,3.190133793395944e-05,-0.013550370000302792,-0.051842514668599904,-0.0,0.010848295874893665,1.2701375484466553,-0.002683461643755436,0.02364940568804741
242.0,333.0,-0.1651,0.4714,9.5348,-0.0305,0.0257,-0.1266,-1.9678589306273402,0.00016307552868966013,3.695530891418457,-1.618520736694336,0.0032558352686464787,2.023930549621582,5.110742288618841,-0.0001347388024441898,0.27709829807281494,-1.5248068014727991,3.080927854171023e-05,-0.019923849031329155,-0.05185109773744756,-0.0,-0.0015395483933389187,1.270093321800232,-0.0016338059213012457,0.013322040438652039
242.0,333.0,-0.1651,0.4714,9.5348,-0.0305,0.0257,-0.1266,-1.967863222161764,0.0001470896095270291,3.676389217376709,-1.6184521913528442,0.004919539205729961,1.9960689544677734,5.1107749817665,-0.00011721050395863131,0.27070358395576477,-1.5247867743121546,1.4685016139992513e-05,-0.01715938374400139,-0.05178243318666631,-0.0,0.013868400827050209,1.2701010704040527,-0.0012307934230193496,-0.004116242751479149
242.0,333.0,-0.1651,0.4714,9.5348,-0.0305,0.0257,-0.1266,-1.9678102932372035,0.00013395390124060214,3.6581461429595947,-1.6184203624725342,0.006654425524175167,1.998572826385498,5.110758650093832,-0.00013880868209525943,0.2652670741081238,-1.524823013936178,1.3969960491522215e-05,-0.02292649820446968,-0.05183107057680303,-0.0,0.00640961155295372,1.270085096359253,-0.0008070591138675809,0.014257279224693775
242.0,333.0,-0.1651,0.4714,9.5348,-0.0305,0.0257,-0.1266,-1.9678346119322718,0.00012642692308872938,3.6563363075256348,-1.6184163093566895,0.006461804267019033,2.021052837371826,5.110730814724722,-0.0002517300599720329,0.264457106590271,-1.5247905890094202,1.3549314644478727e-05,-0.0015997055452317,-0.051867310200826466,-0.0,0.0268856193870306,1.2701051235198975,-0.0007283181766979396,0.0007800422608852386
242.0,333.0,-0.1651,0.4714,9.5348,-0.0305,0.0257,-0.1266,-1.9678670368590296,9.33895498747006e-05,3.664069175720215,-1.6183645725250244,0.005082338582724333,2.0117056369781494,5.110754984408178,-0.0010327216004952788,0.2658270597457886,-1.5248144308673304,2.4062082957243547e-05,-0.01102755032479763,-0.05184680620302373,-0.0,0.017923440784215927,1.2700687646865845,-0.0006483286269940436,0.03585057705640793
242.0,333.0,-0.1651,0.4714,9.5348,-0.0305,0.0257,-0.1266,-1.9678789577879847,8.728165266802534e-05,3.638448715209961,-1.6183364391326904,0.0036854171194136143,2.0051069259643555,5.110799151449957,-0.0010477181058377028,0.2520384192466736,-1.524834934865133,2.2968157281866297e-05,-0.01730244606733322,-0.05181867281068975,-0.0,0.011253095231950283,1.2701051235198975,-0.00045573199167847633,-0.006962718442082405
242.0,333.0,-0.1651,0.4714,9.5348,-0.0305,0.0257,-0.1266,-1.9678627453246058,7.974348409334198e-05,3.6316587924957275,-1.6183041334152222,0.0026953923515975475,2.0231258869171143,5.1107467887695215,-0.0010130229638889432,0.26319196820259094,-1.5248025099383753,2.185289849876426e-05,-0.01828969642519951,-0.05183440843691045,-0.0,0.005382539704442024,1.270085096359253,-0.000378945202101022,-0.02434169128537178
242.0,333.0,-0.1651,0.4714,9.5348,-0.0305,0.0257,-0.1266,-1.9678708515562953,3.5213979572290555e-05,3.589771270751953,-1.618344783782959,0.0016371867386624217,2.013378620147705,5.110727000027456,-0.001054893946275115,0.2521885335445404,-1.524811093007223,2.0369112462503836e-05,0.01162536721676588,-0.05182248750795537,-0.0,0.020608538761734962,1.2701129913330078,-0.0003025036712642759,-0.018793202936649323
246.0,340.0,-0.4002,-0.1196,9.4851,-0.0527,0.0585,-0.1208,-1.9679190121092738,3.7134327612875495e-06,3.6058313846588135,-1.618291974067688,0.0009472400997765362,1.9702703952789307,5.110731142550268,-0.0012697594938799739,0.23213982582092285,-1.5247991720782679,1.9073990188189782e-05,-0.018577493727207184,-0.051830593739644826,-0.0,0.017405448481440544,1.2700891494750977,-0.0002517295069992542,0.007169633638113737
246.0,340.0,-0.4002,-0.1196,9.4851,-0.0527,0.0585,-0.1208,-1.9678541622557582,6.684047204608135e-10,3.6216602325439453,-1.6183404922485352,0.0008320725173689425,2.019426107406616,5.110703217774191,-0.0013103113742545247,0.2594607472419739,-1.52476674715151,1.8298365830560215e-05,-0.017097927629947662,-0.051867310200826466,-0.0,0.021133974194526672,1.2700527906417847,-0.00019672239432111382,0.01641485095024109
246.0,340.0,-0.4002,-0.1196,9.4851,-0.0527,0.0585,-0.1208,-1.9678870640196742,1.6141190074193588e-15,3.630267858505249,-1.6182641983032227,0.00047815561993047595,2.025163412094116,5.11071144321517,-0.0012023035669699311,0.24954217672348022,-1.5247462431537073,3.445396214374341e-05,-0.019780509173870087,-0.05184680620302373,-0.0,0.017933014780282974,1.2701010704040527,-0.00015736478962935507,0.07221641391515732
246.0,340.0,-0.4002,-0.1196,9.4851,-0.0527,0.0585,-0.1208,-1.9678546390929164,3.897907690897147e-21,3.6089928150177,-1.6183127164840698,0.0004890580894425511,2.0036392211914062,5.110654878407278,-0.001107376185245812,0.24656155705451965,-1.5247343222247522,3.2617659599054605e-05,-0.009624339640140533,-0.05178672472109014,-0.0,0.020312372595071793,1.2700769901275635,-0.0001391198020428419,0.0432518906891346
246.0,340.0,-0.4002,-0.1196,9.4851,-0.0527,0.0585,-0.1208,-1.9678827724852503,7.016095857485273e-25,3.577214241027832,-1.6183127164840698,0.0009143240167759359,2.0243663787841797,5.110703217774191,-0.001220571342855692,0.2336043119430542,-1.5247505346881312,3.14768694806844e-05,-0.009791641496121883,-0.051871601735250294,-0.0,0.017379147931933403,1.270097017288208,-0.0001291383377974853,0.049030810594558716
246.0,340.0,-0.4002,-0.1196,9.4851,-0.0527,0.0585,-0.1208,-1.967846532861227,1.6943047070492322e-30,3.6025781631469727,-1.6182724237442017,0.0018611246487125754,1.9982048273086548,5.1106512425239465,-0.0014211839297786355,0.24186652898788452,-1.524811093007223,2.9907861971878447e-05,-0.0050176712684333324,-0.051834885274068654,-0.0,0.015236570499837399,1.2701051235198975,-9.087478974834085e-05,0.02243943139910698
246.0,340.0,-0.4002,-0.1196,9.4851,-0.0527,0.0585,-0.1208,-1.9678870640196742,4.0915465015945756e-36,3.5297610759735107,-1.6182608604431152,0.003304798621684313,1.99845290184021,5.110659378557958,-0.0020703517366200686,0.23899678885936737,-1.5247629324542444,2.84878296952229e-05,-0.019320160150527954,-0.0518267790423792,-0.0,0.0336504802107811,1.270133376121521,-7.969953730935231e-05,0.04371896758675575
246.0,340.0,-0.4002,-0.1196,9.4851,-0.0527,0.0585,-0.1208,-1.9678946934142054,7.364636183136222e-40,3.5175113677978516,-1.6182690858840942,0.0039051936473697424,2.060184955596924,5.110631125956335,-0.002283667214214802,0.2419154942035675,-1.5247743765460413,2.7613794372882694e-05,-0.01590912416577339,-0.05178672472109014,-0.0,0.013505281880497932,1.2701051235198975,-7.556346827186644e-05,0.044573888182640076
246.0,340.0,-0.4002,-0.1196,9.4851,-0.0527,0.0585,-0.1208,-1.967874666253561,1.401298464324817e-45,3.549621105194092,-1.618228793144226,0.004585017450153828,2.036984443664551,5.110595035343923,-0.0026902398094534874,0.23808228969573975,-1.5247505346881312,2.6398804038763046e-05,-0.012182454578578472,-0.051854912434713185,-0.0,0.019043762236833572,1.2700810432434082,8.309945405926555e-05,0.075018972158432
246.0,340.0,-0.4002,-0.1196,9.4851,-0.0527,0.0585,-0.1208,-1.9678784809508265,0.0,3.54655122756958,-1.6182122230529785,0.006070024333894253,2.039693832397461,5.110631215363302,-0.0033277126494795084,0.22469189763069153,-1.524778191243307,2.5286275558755733e-05,-0.008596079424023628,-0.05187541643251592,-0.0,0.016361311078071594,1.2700645923614502,0.00012583188072312623,0.025267034769058228
246.0,340.0,-0.4002,-0.1196,9.4851,-0.0527,0.0585,-0.1208,-1.9678904018797816,0.0,3.5021755695343018,-1.6182246208190918,0.006125831976532936,2.008354663848877,5.110643464117803,-0.0032066062558442354,0.23135173320770264,-1.5247991720782679,2.4595268769189715e-05,-0.013831641525030136,-0.05180341402162725,-0.0,0.0074714720249176025,1.2701170444488525,0.0005018885713070631,0.08037951588630676
246.0,340.0,-0.4002,-0.1196,9.4851,-0.0527,0.0585,-0.1208,-1.9678904018797816,0.0,3.5351219177246094,-1.6181282997131348,0.007952310144901276,2.018040418624878,5.110563355475225,-0.002682968508452177,0.22656606137752533,-1.5248149077044886,2.3626756956218742e-05,-0.019171904772520065,-0.051842514668599904,-0.0,0.026700573042035103,1.2701170444488525,0.0004865808296017349,0.056103311479091644
246.0,340.0,-0.4002,-0.1196,9.4851,-0.0527,0.0585,-0.1208,-1.9679185352721156,0.0,3.521256446838379,-1.6180925369262695,0.00863855890929699,2.0809214115142822,5.110587614565649,-0.0019837443251162767,0.21392086148262024,-1.5247867743121546,2.273162863275502e-05,-0.01474666129797697,-0.05183917680849248,-0.0,0.022714784368872643,1.2701414823532104,0.0003832690417766571,0.06314214318990707
246.0,340.0,-0.4002,-0.1196,9.4851,-0.0527,0.0585,-0.1208,-1.9679066143431605,0.0,3.4806747436523438,-1.6180567741394043,0.008079173974692822,2.068784713745117,5.110595810204305,-0.0016864018980413675,0.22251208126544952,-1.5247867743121546,2.2171636373968795e-05,-0.001108059543184936,-0.05183917680849248,-0.0,0.032288774847984314,1.2700886726379395,0.00033561873715370893,0.061958540230989456
246.0,340.0,-0.4002,-0.1196,9.4851,-0.0527,0.0585,-0.1208,-1.9679023228087367,0.0,3.495182514190674,-1.6179925203323364,0.009414204396307468,2.0202882289886475,5.110596227436819,-0.001665159361436963,0.20493093132972717,-1.5247629324542444,2.13815310416976e-05,-0.017004869878292084,-0.051854912434713185,-0.0,0.01709330640733242,1.2701046466827393,0.00028286961605772376,0.08265184611082077
246.0,340.0,-0.4002,-0.1196,9.4851,-0.0527,0.0585,-0.1208,-1.9679185352721156,-0.0001981435198104009,3.4640612602233887,-1.6179563999176025,0.010331044904887676,2.040356397628784,5.1105114100273035,-0.0022327282931655645,0.21501262485980988,-1.5247543493853968,2.0885359845124185e-05,-0.014311970211565495,-0.051822964345113576,-0.0,0.02497517690062523,1.270133376121521,0.0002560417342465371,0.045774780213832855
246.0,340.0,-0.4002,-0.1196,9.4851,-0.0527,0.0585,-0.1208,-1.9678904018797816,-0.00017833415768109262,3.4282069206237793,-1.6178842782974243,0.011695103719830513,2.0689806938171387,5.110580223589697,-0.003100082976743579,0.20011049509048462,-1.5247867743121546,2.9607865144498646e-05,-0.02001236379146576,-0.051842514668599904,-0.0,0.02274693362414837,1.2700928449630737,0.00022415432613343,0.06516525149345398
240.0,350.0,0.0479,0.2818,9.6455,-0.0302,0.0153,-0.1191,-1.967886587182516,-0.00015938453725539148,3.4260196685791016,-1.6178009510040283,0.012772989459335804,2.0195367336273193,5.110495435982504,-0.0041340612806379795,0.19997309148311615,-1.52476674715151,2.5160130689982907e-07,-0.018419157713651657,-0.05184299150575811,-0.0,0.026326369494199753,1.270097017288208,0.0001993307814700529,0.0477437749505043
240.0,350.0,0.0479,0.2818,9.6455,-0.0302,0.0153,-0.1191,-1.967874666253561,-0.00014884067059028894,3.4768900871276855,-1.6177563667297363,0.014123867265880108,2.1090638637542725,5.11045594790534,-0.004070718307048082,0.2085602581501007,-1.5247672239886683,1.0726157739782138e-09,-0.0219118669629097,-0.05179912248720342,-0.0,0.024716518819332123,1.270133376121521,0.00018562622426543385,0.10797156393527985
240.0,350.0,0.0479,0.2818,9.6455,-0.0302,0.0153,-0.1191,-1.967886587182516,-0.000162441298016347,3.3950295448303223,-1.6176724433898926,0.01666904240846634,2.0506882667541504,5.110500234156408,-0.004248254932463169,0.19196802377700806,-1.5247424284564417,2.9856651005688573e-13,-0.01869264617562294,-0.05185920396913701,-0.0,0.02563551813364029,1.2701332569122314,0.00016827252693474293,0.12006928026676178
240.0,350.0,0.0479,0.2818,9.6455,-0.0302,0.0153,-0.1191,-1.9679023228087367,-0.0001490322028985247,3.4187917709350586,-1.6175968647003174,0.018192555755376816,2.0658700466156006,5.110431748419561,-0.00513719767332077,0.19175544381141663,-1.524738613759176,8.310708760610891e-17,-0.011201374232769012,-0.05177480379213506,-0.0,0.0342615470290184,1.2700726985931396,0.00015388622705359012,0.06842046976089478
240.0,350.0,0.0479,0.2818,9.6455,-0.0302,0.0153,-0.1191,-1.9679142437376917,-0.00016466467059217393,3.4115660190582275,-1.617480754852295,0.01962966099381447,2.0821471214294434,5.110387581377783,-0.005427170544862747,0.19419805705547333,-1.5247343222247522,6.687984568998218e-05,-0.01163326483219862,-0.05183917680849248,-0.0,0.020863400772213936,1.2701293230056763,0.00014558830298483372,0.09362076222896576
240.0,350.0,0.0479,0.2818,9.6455,-0.0302,0.0153,-0.1191,-1.967959543267721,-0.00017431376909371465,3.397326946258545,-1.6173440217971802,0.021197263151407242,2.076702356338501,5.110392081528463,-0.005560050718486309,0.1890949308872223,-1.5247224012957972,7.708711200393736e-05,-0.0015025455504655838,-0.05185920396913701,-0.0,0.03758580982685089,1.2701414823532104,0.00013469404075294733,0.10467985272407532
240.0,350.0,0.0479,0.2818,9.6455,-0.0302,0.0153,-0.1191,-1.9679347477354945,-0.00019802448514383286,3.458432197570801,-1.6172486543655396,0.022258829325437546,2.1003665924072266,5.11036445477561,-0.005218300502747297,0.19350631535053253,-1.524726692830221,7.412350532831624e-05,-0.017946522682905197,-0.05185109773744756,-0.0,0.03320986405014992,1.2701088190078735,0.0001253165683010593,0.10544884204864502
240.0,350.0,0.0479,0.2818,9.6455,-0.0302,0.0153,-0.1191,-1.9679304562010707,-0.0002184143231716007,3.384439468383789,-1.6171202659606934,0.022317437455058098,2.064272403717041,5.110320555954733,-0.0051905447617173195,0.18137143552303314,-1.5247467199908655,8.107369649223983e-05,-0.00753496028482914,-0.05187970796693975,-0.0,0.027553047984838486,1.270125150680542,0.00011975818779319525,0.11504925787448883
240.0,350.0,0.0479,0.2818,9.6455,-0.0302,0.0153,-0.1191,-1.9679023228087367,-0.00022729155898559839,3.3759288787841797,-1.6170451641082764,0.0224764347076416,2.0995564460754395,5.1103001711662195,-0.00475867697969079,0.18806828558444977,-1.5247390905963343,8.092264033621177e-05,-0.01640808954834938,-0.05187541643251592,-0.0,0.03130272030830383,1.2701373100280762,0.00011228751827729866,0.025272708386182785
240.0,350.0,0.0479,0.2818,9.6455,-0.0302,0.0153,-0.1191,-1.967942853967184,-0.0003922343021258712,3.411227226257324,-1.6168850660324097,0.025179466232657433,2.132598876953125,5.110252219229498,-0.004308253061026335,0.18155768513679504,-1.52476674715151,7.79208930907771e-05,-0.006093000993132591,-0.051770989094869435,-2.3602960936841555e-06,0.024007657542824745,1.2701129913330078,0.0001056942855939269,0.08949915319681168
240.0,350.0,0.0479,0.2818,9.6455,-0.0302,0.0153,-0.1191,-1.9679223499693812,-0.0003949577221646905,3.361462116241455,-1.6167198419570923,0.025298945605754852,2.0831642150878906,5.110256391554632,-0.0036631047260016203,0.17921900749206543,-1.524710480366842,7.60398106649518e-05,-0.01596716046333313,-0.05183917680849248,-1.0062312760794612e-08,0.0332041010260582,1.2701209783554077,0.00010171252506552264,0.1403931975364685
240.0,350.0,0.0479,0.2818,9.6455,-0.0302,0.0153,-0.1191,-1.9679628811278285,-0.000375153700588271,3.3579978942871094,-1.6166208982467651,0.02704138122498989,2.101271152496338,5.110256391554632,-0.0028193569742143154,0.20124563574790955,-1.5247510115252894,7.338279101531953e-05,-0.00753847137093544,-0.051822964345113576,-2.8008812717056353e-12,0.028452711179852486,1.2701293230056763,9.627264080336317e-05,0.13071277737617493
240.0,350.0,0.0479,0.2818,9.6455,-0.0302,0.0153,-0.1191,-1.967954774896139,-0.00031044124625623226,3.3844478130340576,-1.61641263961792,0.03016621060669422,2.068751811981201,5.110204565316,-0.0024336008355021477,0.19367092847824097,-1.5247753302203577,7.09050364093855e-05,-0.015830159187316895,-0.0518110434161585,-7.796357532511373e-16,0.0320073701441288,1.2701293230056763,9.138500172412023e-05,0.07577508687973022
240.0,350.0,0.0479,0.2818,9.6455,-0.0302,0.0153,-0.1191,-1.967881818810934,-0.0003229265275876969,3.3965253829956055,-1.6162759065628052,0.03228967264294624,2.1498091220855713,5.110212790756979,-0.0022389439400285482,0.1926228404045105,-1.52476674715151,3.514896525302902e-05,-0.003031752072274685,-0.05183917680849248,-3.323709928935806e-18,0.028679348528385162,1.2701051235198975,8.839314978104085e-05,0.11072252690792084
240.0,350.0,0.0479,0.2818,9.6455,-0.0302,0.0153,-0.1191,-1.9679142437376917,-0.0002813120372593403,3.3863472938537598,-1.6160686016082764,0.03606238588690758,2.1172049045562744,5.110196786909857,-0.0028646017890423536,0.17554426193237305,-1.5247424284564417,9.783843069044451e-09,-0.009848732501268387,-0.051830593739644826,-9.251667800171828e-22,0.027495266869664192,1.2701293230056763,8.42557565192692e-05,0.11648443341255188
240.0,350.0,0.0479,0.2818,9.6455,-0.0302,0.0153,-0.1191,-1.9679748020567835,-0.000283629895420745,3.401191473007202,-1.6158251762390137,0.03917577862739563,2.105940341949463,5.110176789551534,-0.0037368605844676495,0.18772079050540924,-1.5247510115252894,2.7233686226285636e-12,-0.008380373939871788,-0.05180675188173467,-2.5752356855368944e-25,0.03177163749933243,1.2701128721237183,8.048820745898411e-05,0.08927546441555023
240.0,350.0,0.0479,0.2818,9.6455,-0.0302,0.0153,-0.1191,-1.96793856243276,-0.00029074432677589357,3.403393507003784,-1.6156439781188965,0.04192075505852699,2.1403310298919678,5.110141265183248,-0.004848012700676918,0.19188666343688965,-1.5247424284564417,1.1610146776809029e-14,-0.025222696363925934,-0.051871601735250294,-1.097863268474322e-27,0.025275591760873795,1.270085096359253,7.815832213964313e-05,0.10255647450685501
248.0,332.0,0.1286,0.1161,9.6879,-0.047,0.0353,-0.1243,-1.9679261646666468,-0.0003378060064278543,3.3982038497924805,-1.615416407585144,0.045401763170957565,2.1176371574401855,5.110108929663458,-0.006868027616292238,0.17973941564559937,-1.5247510115252894,3.231727031229603e-18,-0.012356448918581009,-0.051802937184469044,-3.0559425379852477e-31,0.03358665108680725,1.2701010704040527,7.490588905056939e-05,0.12557469308376312
248.0,332.0,0.1286,0.1161,9.6879,-0.047,0.0353,-0.1243,-1.968011041680807,-0.0007849452085793018,3.3615102767944336,-1.6151849031448364,0.04897865280508995,2.1255736351013184,5.110109555512228,-0.008563680574297905,0.18054845929145813,-1.5247629324542444,8.99563157067644e-22,-0.006633262149989605,-0.05177909532655889,-8.5063288383968e-35,0.02390030212700367,1.2701455354690552,7.191332406364381e-05,0.12005221843719482
248.0,332.0,0.1286,0.1161,9.6879,-0.047,0.0353,-0.1243,-1.967999120751852,-0.000991673907265067,3.35469388961792,-1.614912509918213,0.05099467560648918,2.1290745735168457,5.110001551895895,-0.01032000221312046,0.1824241280555725,-1.5247467199908655,3.834978659833195e-24,0.007729599252343178,-0.051847283040181935,-3.626381732092456e-37,0.04526989161968231,1.2701170444488525,7.004769577179104e-05,0.12525507807731628
248.0,332.0,0.1286,0.1161,9.6879,-0.047,0.0353,-0.1243,-1.9680029354491175,-0.000981985474936664,3.359891414642334,-1.6145840883255005,0.052465613931417465,2.112016201019287,5.109937238484182,-0.012080064974725246,0.1810092031955719,-1.5247305075274866,1.0674804717471495e-27,0.00045112520456314087,-0.0518110434161585,-1.0094113357917387e-40,0.03154793754220009,1.2701209783554077,7.860903133405373e-05,0.1431136131286621
248.0,332.0,0.1286,0.1161,9.6879,-0.047,0.0353,-0.1243,-1.9679824314513148,-0.0011416708584874868,3.354494094848633,-1.614312767982483,0.05328373983502388,2.2040138244628906,5.109837519913473,-0.013698238879442215,0.1712217777967453,-1.5247424284564417,2.971371126717598e-31,-0.023942891508340836,-0.05187970796693975,-2.802596928649634e-44,0.018891341984272003,1.2701456546783447,7.582120451843366e-05,0.08595170825719833
248.0,332.0,0.1286,0.1161,9.6879,-0.047,0.0353,-0.1243,-1.9680072269835414,-0.001278851879760623,3.374934673309326,-1.6140764951705933,0.055002883076667786,2.12953519821167,5.109817969589987,-0.014794455841183662,0.18699103593826294,-1.5247510115252894,1.2667421916403637e-33,-0.007382681593298912,-0.0518267790423792,-0.0,0.037525393068790436,1.2701414823532104,7.40390969440341e-05,0.18988798558712006
248.0,332.0,0.1286,0.1161,9.6879,-0.047,0.0353,-0.1243,-1.9679585895934046,-0.0013764026807621121,3.3777108192443848,-1.613748550415039,0.05402291938662529,2.1772801876068115,5.109722363739767,-0.018395347520709038,0.16900834441184998,-1.52476674715151,3.5260232023628097e-37,-0.012409012764692307,-0.05184299150575811,-0.0,0.021923653781414032,1.270125150680542,7.151770842028782e-05,0.12198245525360107
248.0,332.0,0.1286,0.1161,9.6879,-0.047,0.0353,-0.1243,-1.9679981670775355,-0.0014157145051285625,3.346446990966797,-1.613497257232666,0.05532563105225563,2.1157398223876953,5.109578418522634,-0.021718613803386688,0.16555345058441162,-1.5247629324542444,9.814834573977451e-41,0.00014779693447053432,-0.051786247883931935,-0.0,0.04509661719202995,1.2700928449630737,8.055194484768435e-06,0.12621605396270752
248.0,332.0,0.1286,0.1161,9.6879,-0.047,0.0353,-0.1243,-1.9680067501463832,-0.0016733137890696526,3.331509590148926,-1.6131845712661743,0.057560283690690994,2.1458826065063477,5.109462636500158,-0.026166094467043877,0.17400440573692322,-1.5247224012957972,4.189882408331203e-43,-0.018395401537418365,-0.05187541643251592,-0.0,0.01782025769352913,1.2701046466827393,1.4499066391948645e-09,0.12052654474973679
248.0,332.0,0.1286,0.1161,9.6879,-0.047,0.0353,-0.1243,-1.9680305920042933,-0.0030608605593442917,3.317209243774414,-1.612852692604065,0.06428322196006775,2.18654203414917,5.109263407974996,-0.034499380737543106,0.15217085182666779,-1.5247791449176233,0.0,-0.012016033753752708,-0.05179483095277959,-0.0,0.029949713498353958,1.2701209783554077,3.5013534125272628e-15,0.11095775663852692
248.0,332.0,0.1286,0.1161,9.6879,-0.047,0.0353,-0.1243,-1.9680506191649378,-0.005880165379494429,3.3498950004577637,-1.6124407052993774,0.07047492265701294,2.157658576965332,5.1090003726776025,-0.050098590552806854,0.15030401945114136,-1.524754826222555,0.0,-0.012883424758911133,-0.05185920396913701,-0.0,0.02264942228794098,1.2701373100280762,8.455357018779653e-21,0.11817878484725952
248.0,332.0,0.1286,0.1161,9.6879,-0.047,0.0353,-0.1243,-1.968090673486227,-0.007538925390690565,3.3284859657287598,-1.6121482849121094,0.07474172860383987,2.155646324157715,5.108765053540029,-0.06401386111974716,0.14584572613239288,-1.5247305075274866,0.0,-0.005485294386744499,-0.05179483095277959,-0.0,0.035075798630714417,1.27017343044281,1.5219343560856989e-24,0.16025927662849426
248.0,332.0,0.1286,0.1161,9.6879,-0.047,0.0353,-0.1243,-1.968186994592184,-0.009322660975158215,3.328909397125244,-1.6116523742675781,0.08009501546621323,2.1698532104492188,5.108290362149038,-0.08654528111219406,0.13827542960643768,-1.524738613759176,0.0,-0.0034206958953291178,-0.051871601735250294,-0.0,0.026874108240008354,1.2701209783554077,3.675291985642542e-30,0.150311678647995
248.0,332.0,0.1286,0.1161,9.6879,-0.047,0.0353,-0.1243,-1.9681898556151332,-0.01108661387115717,3.2764086723327637,-1.611169457435608,0.08623854070901871,2.1800074577331543,5.107740300684728,-0.10736516118049622,0.12478545308113098,-1.5247424284564417,0.0,-0.008783891797065735,-0.05177480379213506,-0.0,0.04468732327222824,1.270153284072876,8.875397043370609e-36,0.14119014143943787
248.0,332.0,0.1286,0.1161,9.6879,-0.047,0.0353,-0.1243,-1.96826233486318,-0.010540257208049297,3.339099884033203,-1.6107797622680664,0.09040030837059021,2.2361888885498047,5.107285845070638,-0.11386121809482574,0.11765620112419128,-1.5247629324542444,0.0,-0.01140705868601799,-0.05186301866640264,-0.0,0.04347258806228638,1.2701574563980103,1.5975405051642574e-39,0.11262543499469757
248.0,332.0,0.1286,0.1161,9.6879,-0.047,0.0353,-0.1243,-1.9683548412718714,-0.010680977255105972,3.36073637008667,-1.6103010177612305,0.09347229450941086,2.1760478019714355,5.1065759537513635,-0.11211759597063065,0.10623405128717422,-1.5247467199908655,0.0,-0.011678691953420639,-0.05185109773744756,-0.0,0.032749202102422714,1.2701005935668945,4.203895392974451e-45,0.11007039994001389
248.0,332.0,0.1286,0.1161,9.6879,-0.047,0.0353,-0.1243,-1.9683858356871546,-0.011368053033947945,3.337982177734375,-1.6097089052200317,0.09746803343296051,2.2665963172912598,5.105942237168112,-0.11404358595609665,0.1237117350101471,-1.5247305075274866,0.0,0.000711993663571775,-0.05187875429262334,-0.0,0.030068624764680862,1.270116925239563,0.0,0.12580834329128265
242.0,307.0,-0.3278,-0.1663,9.7998,-0.0698,0.053,-0.1216,-1.9684463940062464,-0.01215080451220274,3.3380088806152344,-1.6093288660049438,0.09833066165447235,2.177900552749634,5.105435508280554,-0.1270352602005005,0.1251252442598343,-1.524738613759176,0.0,-0.022848695516586304,-0.051827255879537404,-0.0,0.02707381173968315,1.2700886726379395,0.0,0.1435270607471466
242.0,307.0,-0.3278,-0.1663,9.7998,-0.0698,0.053,-0.1216,-1.9684697590269984,-0.013166599906980991,3.3466126918792725,-1.6087214946746826,0.09738261997699738,2.174801826477051,5.10464637258605,-0.15211229026317596,0.11800594627857208,-1.524754826222555,0.0,-0.01448675524443388,-0.05181867281068975,-0.0,0.032760705798864365,1.2701129913330078,0.0,0.1070052832365036
242.0,307.0,-0.3278,-0.1663,9.7998,-0.0698,0.053,-0.1216,-1.9685617885985316,-0.013480344787240028,3.303445339202881,-1.6083495616912842,0.09776230901479721,2.194535970687866,5.1040281532104395,-0.15848314762115479,0.11054498702287674,-1.5247467199908655,5.171570592210628e-05,-0.011111646890640259,-0.05180675188173467,-0.0,0.02363591268658638,1.2700846195220947,0.0,0.16368591785430908
242.0,307.0,-0.3278,-0.1663,9.7998,-0.0698,0.053,-0.1216,-1.9686538181700648,-0.012279978021979332,3.309666633605957,-1.6078095436096191,0.10102933645248413,2.219480037689209,5.103119301586904,-0.1522258222103119,0.09628503769636154,-1.5247710386859339,5.022318509873003e-05,-0.004770712461322546,-0.05176288286317998,-0.0,0.037466466426849365,1.2700846195220947,0.0,0.11629314720630646
242.0,307.0,-0.3278,-0.1663,9.7998,-0.0698,0.053,-0.1216,-1.9686733684935511,-0.012314597144722939,3.297609329223633,-1.607153296470642,0.105333112180233,2.239114761352539,5.1022106287773035,-0.14956842362880707,0.1125311329960823,-1.5247305075274866,2.1174638220600173e-07,-0.004427262581884861,-0.05178672472109014,-0.0,0.0419892817735672,1.2700767517089844,0.0,0.15816828608512878
242.0,307.0,-0.3278,-0.1663,9.7998,-0.0698,0.053,-0.1216,-1.968814035455221,-0.013189041055738926,3.340634822845459,-1.6067458391189575,0.10932117700576782,2.2471561431884766,5.101600694447317,-0.16629387438297272,0.10623179376125336,-1.5247305075274866,9.027079639345459e-10,0.010225916281342506,-0.05185920396913701,-0.0,0.03495510667562485,1.2701170444488525,0.0,0.12116031348705292
242.0,307.0,-0.3278,-0.1663,9.7998,-0.0698,0.053,-0.1216,-1.9688850841917933,-0.01623040810227394,3.280285358428955,-1.6060940027236938,0.11677926778793335,2.1806254386901855,5.100604432612219,-0.1834455281496048,0.09605495631694794,-1.524682346974508,2.5127209341002654e-13,-0.009654056280851364,-0.05184299150575811,-0.0,0.03831324353814125,1.2701373100280762,0.0,0.13363279402256012
242.0,307.0,-0.3278,-0.1663,9.7998,-0.0698,0.053,-0.1216,-1.968917032281393,-0.019186152145266533,3.2958080768585205,-1.6053491830825806,0.12359128147363663,2.2619428634643555,5.099427509098806,-0.1866178661584854,0.07898987084627151,-1.5247467199908655,6.994251477477237e-17,-0.01512359082698822,-0.051847283040181935,-0.0,0.02246219664812088,1.2701005935668945,0.0,0.13924694061279297
242.0,307.0,-0.3278,-0.1663,9.7998,-0.0698,0.053,-0.1216,-1.9690166912474574,-0.020856445655226707,3.314258098602295,-1.6048580408096313,0.12451547384262085,2.235093116760254,5.098645883589544,-0.20074288547039032,0.08488734066486359,-1.5247467199908655,2.9817583750912713e-19,-0.014310890808701515,-0.05181867281068975,-0.0,0.011839324608445168,1.2701414823532104,0.0,0.10277523100376129
242.0,307.0,-0.3278,-0.1663,9.7998,-0.0698,0.053,-0.1216,-1.9692169628539027,-0.024006148800253868,3.2907943725585938,-1.6040458679199219,0.12695589661598206,2.2822046279907227,5.097409981280126,-0.2302769422531128,0.0673823207616806,-1.524726692830221,8.299834037948417e-23,-0.012433979660272598,-0.05183917680849248,-0.0,0.039677586406469345,1.27004873752594,1.835240737158017e-09,0.14873871207237244
242.0,307.0,-0.3278,-0.1663,9.7998,-0.0698,0.053,-0.1216,-1.9693366489806117,-0.02460576966404915,3.3320722579956055,-1.6032295227050781,0.12851649522781372,2.2525405883789062,5.096094387560644,-0.23092171549797058,0.07142806798219681,-1.5247710386859339,2.310289324132552e-26,-0.013472763821482658,-0.05179483095277959,-0.0,0.03140215203166008,1.2701010704040527,4.431890679370155e-15,0.18167048692703247
242.0,307.0,-0.3278,-0.1663,9.7998,-0.0698,0.053,-0.1216,-1.9693848095335902,-0.023799553513526917,3.2714743614196777,-1.6028062105178833,0.13064174354076385,2.1853387355804443,5.0951459882553,-0.23451262712478638,0.07241837680339813,-1.5247224012957972,9.849126290986118e-29,-0.010806571692228317,-0.05181867281068975,-0.0,0.031381458044052124,1.2701010704040527,7.977246592412261e-19,0.12970395386219025
242.0,307.0,-0.3278,-0.1663,9.7998,-0.0698,0.053,-0.1216,-1.9695445499815882,-0.022096781060099602,3.3146090507507324,-1.6019946336746216,0.13748612999916077,2.257560968399048,5.093614387303152,-0.24842721223831177,0.06581629067659378,-1.5247510115252894,2.7415402344863505e-32,-0.01791798323392868,-0.051847283040181935,-0.0,0.028891976922750473,1.270085096359253,1.9264109523241944e-24,0.16452030837535858
242.0,307.0,-0.3278,-0.1663,9.7998,-0.0698,0.053,-0.1216,-1.969668527642721,-0.022608397528529167,3.3291871547698975,-1.6012024879455566,0.1415209174156189,2.2502636909484863,5.092103886395254,-0.25145775079727173,0.06157989799976349,-1.5247347990619105,7.631178890435154e-36,-0.01847786456346512,-0.051802937184469044,-0.0,0.019713060930371284,1.2701252698898315,4.6520555688029485e-30,0.1451568901538849
242.0,307.0,-0.3278,-0.1663,9.7998,-0.0698,0.053,-0.1216,-1.9697920284666957,-0.02468159608542919,3.3373656272888184,-1.600602149963379,0.14738862216472626,2.2562286853790283,5.091031479626455,-0.2769720256328583,0.05801364406943321,-1.5247510115252894,3.2532912287962606e-38,-0.014462429098784924,-0.0518267790423792,-0.0,0.026858292520046234,1.2701129913330078,8.373536662456638e-34,0.16191166639328003
242.0,307.0,-0.3278,-0.1663,9.7998,-0.0698,0.053,-0.1216,-1.9699598751463832,-0.030138468369841576,3.334791660308838,-1.5996906757354736,0.1555289328098297,2.3443944454193115,5.089293765812673,-0.29328852891921997,0.04933930188417435,-1.5247347990619105,9.055190676466968e-42,0.005734884180128574,-0.05183107057680303,-0.0,0.034816447645425797,1.2700973749160767,2.0221101177807835e-39,0.13205775618553162
242.0,307.0,-0.3278,-0.1663,9.7998,-0.0698,0.053,-0.1216,-1.9702235660948695,-0.037075724452733994,3.2699193954467773,-1.598803162574768,0.1577461063861847,2.2946693897247314,5.087374913483419,-0.3132593035697937,0.04589187726378441,-1.5247390905963343,2.802596928649634e-45,-0.0103513915091753,-0.051854912434713185,-0.0,0.03327716886997223,1.2701010704040527,4.203895392974451e-45,0.12121272087097168
228.0,289.0,-0.8363,-0.4953,9.6927,0.0276,-0.0168,-0.1232,-1.9703551731505335,-0.040803615003824234,3.275822162628174,-1.5981184244155884,0.15307393670082092,2.2892990112304688,5.086123782187261,-0.3224046528339386,0.029647354036569595,-1.5247390905963343,0.0,-0.018947705626487732,-0.051822964345113576,-0.0,0.018035100772976875,1.270085096359253,0.0,0.1418449878692627
228.0,289.0,-0.8363,-0.4953,9.6927,0.0276,-0.0168,-0.1232,-1.9706112347044886,-0.045181505382061005,3.265681028366089,-1.5971559286117554,0.15521296858787537,2.2478952407836914,5.084137576609411,-0.33713504672050476,0.01266695000231266,-1.524698559437887,0.0,-0.010226689279079437,-0.051822964345113576,-0.0,0.023479722440242767,1.2700810432434082,0.0,0.11400154232978821
228.0,289.0,-0.8363,-0.4953,9.6927,0.0276,-0.0168,-0.1232,-1.9708792171873988,-0.04828193783760071,3.2549803256988525,-1.5962094068527222,0.1610308289527893,2.308621883392334,5.0820127604301355,-0.3399813175201416,0.03281688317656517,-1.5247429052936,0.0,-0.011964155361056328,-0.051791016255513966,-0.0,0.03412102162837982,1.270093321800232,-0.0005222668987698853,0.08097619563341141
228.0,289.0,-0.8363,-0.4953,9.6927,0.0276,-0.0168,-0.1232,-1.9710461101927699,-0.04671185091137886,3.2938551902770996,-1.595615029335022,0.16337159276008606,2.2533373832702637,5.08070998170928,-0.3499422073364258,0.021595507860183716,-1.5247429052936,0.0,-0.008013125509023666,-0.05179912248720342,-0.0,0.02776021882891655,1.2701175212860107,-0.0006549571407958865,0.11899597197771072
228.0,289.0,-0.8363,-0.4953,9.6927,0.0276,-0.0168,-0.1232,-1.971325536767477,-0.049714311957359314,3.3265109062194824,-1.5946208238601685,0.1698911339044571,2.263636589050293,5.078464644938268,-0.36135047674179077,0.01613343507051468,-1.5246904532061976,0.0,-0.01270504854619503,-0.05188352266420537,-0.0,0.020479321479797363,1.2700687646865845,-0.0005600604927167296,0.13763722777366638
228.0,289.0,-0.8363,-0.4953,9.6927,0.0276,-0.0168,-0.1232,-1.9716769657530726,-0.05349935218691826,3.347543239593506,-1.5935020446777344,0.1723041534423828,2.2613589763641357,5.076176184206762,-0.39024028182029724,0.00829573068767786,-1.5247471968280237,0.0,-0.01282612606883049,-0.05185109773744756,-0.0,0.02198251709342003,1.2700728178024292,-0.00044285188778303564,0.043609704822301865
228.0,289.0,-0.8363,-0.4953,9.6927,0.0276,-0.0168,-0.1232,-1.9719487629332484,-0.05594164878129959,3.3696653842926025,-1.592847466468811,0.17084482312202454,2.3066022396087646,5.074594157725134,-0.3901401460170746,0.009386176243424416,-1.5247066656695765,0.0,-0.013094093650579453,-0.051822964345113576,-0.0,0.030167745426297188,1.2701051235198975,-0.00017704779747873545,0.12334205210208893
228.0,289.0,-0.8363,-0.4953,9.6927,0.0276,-0.0168,-0.1232,-1.9722801647581996,-0.056087955832481384,3.30647611618042,-1.5917487144470215,0.1698029339313507,2.243818521499634,5.072293656855383,-0.40392613410949707,0.0014049196615815163,-1.5247429052936,0.0,-0.012904183007776737,-0.05177432695497686,-0.0,0.019768252968788147,1.2700852155685425,-0.00013649013999383897,0.12157545983791351
228.0,289.0,-0.8363,-0.4953,9.6927,0.0276,-0.0168,-0.1232,-1.9726277790465296,-0.05527215451002121,3.314708948135376,-1.5908149480819702,0.1681271195411682,2.287123203277588,5.069765734463491,-0.41835400462150574,-0.0015945062041282654,-1.5246904532061976,0.0,-0.007232326082885265,-0.05183107057680303,-0.0,0.011934147216379642,1.2700450420379639,-0.0001667848409852013,0.05139046907424927
228.0,289.0,-0.8363,-0.4953,9.6927,0.0276,-0.0168,-0.1232,-1.9729038677611292,-0.05297185853123665,3.312624454498291,-1.5901565551757812,0.16602829098701477,2.2465357780456543,5.06813924291686,-0.42563870549201965,0.0018062127055600286,-1.5247152487384241,0.0,-0.009555075317621231,-0.051847283040181935,-0.0,0.01887056604027748,1.2700732946395874,-0.00019791054364759475,0.05619069188833237
228.0,289.0,-0.8363,-0.4953,9.6927,0.0276,-0.0168,-0.1232,-1.973199029962057,-0.05049087479710579,3.3172881603240967,-1.589206337928772,0.16623051464557648,2.248908519744873,5.065603542118826,-0.4403437376022339,-0.014683067798614502,-1.5247066656695765,0.0,-0.0059820725582540035,-0.051871601735250294,-0.0,0.02519303932785988,1.2700573205947876,-0.0002627807261887938,0.0790109932422638
228.0,289.0,-0.8363,-0.4953,9.6927,0.0276,-0.0168,-0.1232,-1.973534723321432,-0.049752868711948395,3.3597471714019775,-1.5881117582321167,0.16185298562049866,2.289539337158203,5.062949585705557,-0.4561758041381836,-0.01057372521609068,-1.5247185865985315,6.249537545954809e-05,-0.007217567879706621,-0.051871601735250294,-0.0,0.016486354172229767,1.2700691223144531,-0.00028984472737647593,0.041856296360492706
228.0,289.0,-0.8363,-0.4953,9.6927,0.0276,-0.0168,-0.1232,-1.973734041253561,-0.049550868570804596,3.3674912452697754,-1.5875170230865479,0.1575598418712616,2.2467262744903564,5.061132627516546,-0.4571082293987274,-0.007864696905016899,-1.5247066656695765,8.23909358587116e-05,0.0031146344263106585,-0.05177909532655889,-0.0,0.022197403013706207,1.2700650691986084,-0.0005696543375961483,0.0385504886507988
228.0,289.0,-0.8363,-0.4953,9.6927,0.0276,-0.0168,-0.1232,-1.9740015468993128,-0.048466701060533524,3.329596996307373,-1.586574912071228,0.155551016330719,2.2246158123016357,5.0583242056663416,-0.4742155075073242,-0.03318949416279793,-1.5246904532061976,9.40756217460148e-05,-0.00254627107642591,-0.05181485811342412,-0.0,0.02679978497326374,1.2700449228286743,-0.0006331168697215617,0.08013144135475159
228.0,289.0,-0.8363,-0.4953,9.6927,0.0276,-0.0168,-0.1232,-1.9742652378477992,-0.04603712260723114,3.334439516067505,-1.58562433719635,0.15516042709350586,2.2476956844329834,5.0553586957748315,-0.4934050738811493,-0.03085136227309704,-1.5246790091144007,0.0006243179086595774,-0.009564295411109924,-0.051822964345113576,-0.0,0.014587055891752243,1.270065426826477,-0.000736852700356394,0.03737947717308998
228.0,289.0,-0.8363,-0.4953,9.6927,0.0276,-0.0168,-0.1232,-1.9744931660094203,-0.04512258246541023,3.370678663253784,-1.5849981307983398,0.1543292999267578,2.2692365646362305,5.053362566023626,-0.4936230778694153,-0.0165882408618927,-1.5247028509723108,0.0006175283342599869,0.005952967330813408,-0.05183917680849248,-0.0,0.020385049283504486,1.270020842552185,-0.0007708180346526206,0.058909572660923004
228.0,289.0,-0.8363,-0.4953,9.6927,0.0276,-0.0168,-0.1232,-1.9746958218016566,-0.04395122453570366,3.3720569610595703,-1.5840468406677246,0.15172475576400757,2.2131338119506836,5.050417709141531,-0.49662426114082336,-0.01626420021057129,-1.5246623198138636,0.0007639779360033572,-0.0034801457077264786,-0.051842514668599904,-0.0,0.02262360230088234,1.2700048685073853,-0.0014172859955579042,0.047154854983091354
222.0,297.0,-0.0682,0.2698,9.6191,0.2373,-0.1649,-0.129,-1.9750167332091273,-0.0433877669274807,3.3598287105560303,-1.5831449031829834,0.14954063296318054,2.239658832550049,5.047288584500112,-0.5100952982902527,-0.001239809556864202,-1.5247271696673792,0.0007047684048302472,0.0054430593736469746,-0.05188304582704717,-0.0,0.02522742748260498,1.27000892162323,-0.0028269386384636164,-0.0883602648973465
222.0,297.0,-0.0682,0.2698,9.6191,0.2373,-0.1649,-0.129,-1.9751516781248988,-0.04430827870965004,3.395130157470703,-1.5825421810150146,0.14710913598537445,2.220576524734497,5.04520012715415,-0.5136513113975525,-0.015117879025638103,-1.524691406880514,0.0007670923951081932,-0.0006793102365918458,-0.0518267790423792,-0.0,0.01156030036509037,1.2700331211090088,-0.003016795264557004,-0.0499471053481102
222.0,297.0,-0.0682,0.2698,9.6191,0.2373,-0.1649,-0.129,-1.9754272900023402,-0.044255416840314865,3.378091812133789,-1.5817153453826904,0.14763830602169037,2.247069835662842,5.042154896050253,-0.513178825378418,-0.019600121304392815,-1.5246675650226038,0.0013856207951903343,0.014903778210282326,-0.05187970796693975,-0.0,0.014111517928540707,1.2700011730194092,-0.0036713031586259604,-0.10200680792331696
222.0,297.0,-0.0682,0.2698,9.6191,0.2373,-0.1649,-0.129,-1.9757148228087367,-0.0443858876824379,3.411522388458252,-1.5808051824569702,0.14995567500591278,2.2299487590789795,5.039155411511221,-0.5049043893814087,-0.006263121031224728,-1.5246265570269983,0.0015380836557596922,0.025723662227392197,-0.05183440843691045,-0.0,0.016592776402831078,1.2699769735336304,-0.004565476905554533,-0.07199567556381226
222.0,297.0,-0.0682,0.2698,9.6191,0.2373,-0.1649,-0.129,-1.975915094415182,-0.044589005410671234,3.426185131072998,-1.5801984071731567,0.15049080550670624,2.2987146377563477,5.0370971141155145,-0.5051540732383728,-0.011065047234296799,-1.524595085774557,0.001279792981222272,0.010696914978325367,-0.05181485811342412,-0.0,0.014284658245742321,1.2699893712997437,-0.005244438536465168,-0.13580088317394257
222.0,297.0,-0.0682,0.2698,9.6191,0.2373,-0.1649,-0.129,-1.9761582813658656,-0.046169672161340714,3.4651105403900146,-1.5793321132659912,0.1505904197692871,2.2157821655273438,5.034198242216863,-0.5061106085777283,0.001092646736651659,-1.5246828238116663,0.0009180058259516954,0.03595390170812607,-0.051871601735250294,-0.0,0.010429728776216507,1.2699657678604126,-0.006304610054939985,-0.14041070640087128
222.0,297.0,-0.0682,0.2698,9.6191,0.2373,-0.1649,-0.129,-1.9764658413329066,-0.04534145072102547,3.434142589569092,-1.5783613920211792,0.15102152526378632,2.2544262409210205,5.031160878926077,-0.4948563277721405,-0.011999724432826042,-1.5246551672564905,0.0005390268051996827,0.02081010490655899,-0.05187064806093389,-0.0,0.004813969135284424,1.269909143447876,-0.0067425863817334175,-0.1935322880744934
222.0,297.0,-0.0682,0.2698,9.6191,0.2373,-0.1649,-0.129,-1.9765693149962367,-0.04692956060171127,3.4495818614959717,-1.5778145790100098,0.14803767204284668,2.229154586791992,5.029251891165533,-0.48628777265548706,0.0016414348501712084,-1.5246713797198694,0.0005191395175643265,0.020758936181664467,-0.05181867281068975,-0.0,0.002164191799238324,1.2698169946670532,-0.008091283030807972,-0.1682453453540802
222.0,297.0,-0.0682,0.2698,9.6191,0.2373,-0.1649,-0.129,-1.9769054851927699,-0.04661467671394348,3.43450927734375,-1.5769644975662231,0.1428453028202057,2.209909200668335,5.02630768993453,-0.4772299528121948,0.021894421428442,-1.524647061024801,0.0004359578597359359,0.017789356410503387,-0.051854912434713185,-0.0,0.00195750268176198,1.2698132991790771,-0.010095813311636448,-0.1853802502155304
222.0,297.0,-0.0682,0.2698,9.6191,0.2373,-0.1649,-0.129,-1.9770127735533656,-0.04528818652033806,3.4805479049682617,-1.576433777809143,0.13943684101104736,2.2197017669677734,5.024447399168768,-0.474199503660202,0.028861042112112045,-1.5246551672564905,0.0004092373710591346,0.02266046777367592,-0.05183917680849248,-0.0,0.015146473422646523,1.2697486877441406,-0.011041507124900818,-0.15942783653736115
222.0,297.0,-0.0682,0.2698,9.6191,0.2373,-0.1649,-0.129,-1.9773327312865199,-0.04331487789750099,3.478930950164795,-1.5755544900894165,0.14049513638019562,2.2001688480377197,5.021687018662252,-0.4583299160003662,0.017854485660791397,-1.52466327348818,0.00037865503691136837,0.036021433770656586,-0.051802937184469044,-0.0,0.007750723510980606,1.269684910774231,-0.011846792884171009,-0.16826263070106506
