ramyac6/ROB537/final_project/csv/all/bad_56.csv
tof_0,tof_1,accelx,accely,accelz,gyrox,gyroy,gyroz,shoulder_lift_joint_position,shoulder_lift_joint_velocity,shoulder_lift_joint_effort,elbow_joint_position,elbow_joint_velocity,elbow_joint_effort,wrist_1_joint_position,wrist_1_joint_velocity,wrist_1_joint_effort,wrist_2_joint_position,wrist_2_joint_velocity,wrist_2_joint_effort,wrist_3_joint_position,wrist_3_joint_velocity,wrist_3_joint_effort,shoulder_pan_joint_position,shoulder_pan_joint_velocity,shoulder_pan_joint_effort
268.0,297.0,-0.1268,0.0389,9.6174,-0.0408,0.0202,-0.1118,-1.946383615533346,0.0,3.566378593444824,-1.6511504650115967,-0.0,1.990941047668457,5.128134268313207,-0.0,0.27911993861198425,-1.6210668722735804,0.0,0.0007711176294833422,1.5621416568756104,-0.0,0.00026951474137604237,0.674281895160675,0.0,0.027272075414657593
268.0,297.0,-0.1268,0.0389,9.6174,-0.0408,0.0202,-0.1118,-1.9463268719115199,0.0,3.571700096130371,-1.6511019468307495,-0.0,1.9821593761444092,5.128186750202932,-0.0,0.27988600730895996,-1.6210668722735804,0.0,-0.0025791851803660393,1.5621376037597656,-0.0,-0.008976572193205357,0.6743301749229431,0.0,0.006555864121764898
268.0,297.0,-0.1268,0.0389,9.6174,-0.0408,0.0202,-0.1118,-1.9463392696776332,0.0,3.559786796569824,-1.6511143445968628,-0.0,2.021157741546631,5.12815027216033,-0.0,0.2821691930294037,-1.621086899434225,0.0,0.013140272349119186,1.5621616840362549,-0.0,-0.007245372980833054,0.6743384003639221,0.0,-0.03333102539181709
268.0,297.0,-0.1268,0.0389,9.6174,-0.0408,0.0202,-0.1118,-1.9463192425169886,0.0,3.589203357696533,-1.6510977745056152,-0.0,2.0253801345825195,5.1281224367912195,-0.0,0.2767583727836609,-1.6211193243609827,0.0,-0.003891722299158573,1.5620895624160767,-0.0,-0.007774215191602707,0.6743260622024536,0.0,-0.0053823962807655334
268.0,297.0,-0.1268,0.0389,9.6174,-0.0408,0.0202,-0.1118,-1.946355482141012,0.0,3.611663818359375,-1.6511220932006836,-0.0,2.0150961875915527,5.128090101271429,-0.0,0.26474785804748535,-1.621103588734762,0.0,-0.0029460659716278315,1.5621695518493652,-0.0,-0.0004124683327972889,0.674333930015564,0.0,-0.00861076358705759
268.0,297.0,-0.1268,0.0389,9.6174,-0.0408,0.0202,-0.1118,-1.9463588200011195,0.0,3.5258278846740723,-1.6510814428329468,-0.0,1.9952871799468994,5.12808187583045,-0.0,0.27703744173049927,-1.6210911909686487,0.0,-0.0018412931822240353,1.562117338180542,-0.0,0.006859504617750645,0.6743099093437195,0.0,0.02040737122297287
268.0,297.0,-0.1268,0.0389,9.6174,-0.0408,0.0202,-0.1118,-1.946399827996725,0.0,3.5504214763641357,-1.6511623859405518,-0.0,1.995343565940857,5.12815027216033,-0.0,0.2885655462741852,-1.6210954825030726,0.0,0.0033854590728878975,1.5621458292007446,-0.0,-0.003728988114744425,0.6742855310440063,0.0,-0.00854908861219883
268.0,297.0,-0.1268,0.0389,9.6174,-0.0408,0.0202,-0.1118,-1.9463592968382777,0.0,3.557168483734131,-1.6511180400848389,-0.0,2.0156660079956055,5.128138410836019,-0.0,0.2878747284412384,-1.6210711638080042,0.0,-0.0016009823884814978,1.5620968341827393,-0.0,0.005056183319538832,0.6743019819259644,0.0,0.012120687402784824
276.0,310.0,-0.1298,0.0796,9.6586,-0.0374,0.0252,-0.1217,-1.9463511906065882,0.0,3.59662127494812,-1.6510895490646362,-0.0,2.006361484527588,5.128114181547918,-0.0,0.2888413667678833,-1.6210749785052698,0.0,-0.0026289394591003656,1.5621498823165894,-0.0,0.00020659249275922775,0.6743099093437195,0.0,-0.016259590163826942
276.0,310.0,-0.1298,0.0796,9.6586,-0.0374,0.0252,-0.1217,-1.9463917217650355,0.0,3.572448253631592,-1.6510734558105469,-0.0,1.9718307256698608,5.128118264466085,-0.0,0.2922516465187073,-1.6210506598102015,0.0,0.008853303268551826,1.562145709991455,-0.0,-0.008216466754674911,0.67430579662323,0.0,0.035320304334163666
276.0,310.0,-0.1298,0.0796,9.6586,-0.0374,0.0252,-0.1217,-1.9463712177672328,0.0,3.586022138595581,-1.6511421203613281,-0.0,2.017305374145508,5.1281465766723535,-0.0,0.2822038531303406,-1.621143643056051,0.0,0.006109368056058884,1.5621896982192993,-0.0,0.0021751204039901495,0.6743301749229431,0.0,-0.01600300893187523
276.0,310.0,-0.1298,0.0796,9.6586,-0.0374,0.0252,-0.1217,-1.9463755093016566,0.0,3.594547986984253,-1.6511421203613281,-0.0,1.9708607196807861,5.128106105118551,-0.0,0.2867227792739868,-1.6210954825030726,0.0,0.0058031948283314705,1.5620936155319214,-0.0,-0.006945586763322353,0.6743342876434326,0.0,0.007997831329703331
276.0,310.0,-0.1298,0.0796,9.6586,-0.0374,0.0252,-0.1217,-1.9463392696776332,0.0,3.619328022003174,-1.6511220932006836,-0.0,1.997456669807434,5.128118264466085,-0.0,0.29981309175491333,-1.6210954825030726,0.0,0.009594443254172802,1.5621216297149658,-0.0,0.0012285909615457058,0.6742859482765198,0.0,0.021378478035330772
276.0,310.0,-0.1298,0.0796,9.6586,-0.0374,0.0252,-0.1217,-1.9463798008360804,0.0,3.558168888092041,-1.651102066040039,-0.0,2.0345888137817383,5.128170418530264,-0.0,0.2950041592121124,-1.6210430304156702,0.0,0.005514794494956732,1.5621089935302734,-0.0,0.0030383451376110315,0.6743422150611877,0.0,-0.004695496056228876
276.0,310.0,-0.1298,0.0796,9.6586,-0.0374,0.0252,-0.1217,-1.9463755093016566,0.0,3.532181978225708,-1.6511340141296387,-0.0,1.9861576557159424,5.128110098629751,-0.0,0.2858200967311859,-1.6210716406451624,0.0,-0.0010939049534499645,1.5621896982192993,-0.0,-0.0065291812643408775,0.6743219494819641,0.0,0.007114926353096962
276.0,310.0,-0.1298,0.0796,9.6586,-0.0374,0.0252,-0.1217,-1.9463511906065882,0.0,3.534451484680176,-1.6510895490646362,-0.0,1.9692692756652832,5.1281461892421625,-0.0,0.29084235429763794,-1.6211150328265589,0.0,-0.007399467751383781,1.562133550643921,-0.0,0.005862066522240639,0.6743707060813904,0.0,0.04308316856622696
276.0,310.0,-0.1298,0.0796,9.6586,-0.0374,0.0252,-0.1217,-1.9463392696776332,0.0,3.5677270889282227,-1.6511101722717285,-0.0,2.007573366165161,5.128110068827429,-0.0,0.27118146419525146,-1.6210749785052698,0.0,0.00018902006559073925,1.5621416568756104,-0.0,-0.012058677151799202,0.6743101477622986,0.0,-0.012582778930664062
276.0,310.0,-0.1298,0.0796,9.6586,-0.0374,0.0252,-0.1217,-1.9464079342284144,0.0,3.614103078842163,-1.6511220932006836,-0.0,2.025693893432617,5.128106105118551,-0.0,0.27519112825393677,-1.621103588734762,0.0,0.003053057938814163,1.5621535778045654,-0.0,-0.008255872875452042,0.6743219494819641,0.0,0.03330385684967041
276.0,310.0,-0.1298,0.0796,9.6586,-0.0374,0.0252,-0.1217,-1.9463192425169886,0.0,3.5598955154418945,-1.6511865854263306,-0.0,2.0036654472351074,5.1281544146831415,-0.0,0.2732395827770233,-1.6210673491107386,0.0,-0.004135563038289547,1.5621659755706787,-0.0,-0.00632362999022007,0.6743624806404114,0.0,-0.02971254102885723
276.0,310.0,-0.1298,0.0796,9.6586,-0.0374,0.0252,-0.1217,-1.9464079342284144,0.0,3.5823535919189453,-1.651129961013794,-0.0,1.9999232292175293,5.128126132279196,-0.0,0.2797904908657074,-1.621086899434225,0.0,-0.009191352874040604,1.5621819496154785,-0.0,0.0021533097606152296,0.6743178367614746,0.0,0.04463314265012741
276.0,310.0,-0.1298,0.0796,9.6586,-0.0374,0.0252,-0.1217,-1.9463879070677699,0.0,3.5742292404174805,-1.6510734558105469,-0.0,2.0321433544158936,5.1281544146831415,-0.0,0.28943073749542236,-1.6210711638080042,0.0,-0.008863457478582859,1.562133550643921,-0.0,1.2696487829089165e-05,0.6743422150611877,0.0,0.03417906537652016
276.0,310.0,-0.1298,0.0796,9.6586,-0.0374,0.0252,-0.1217,-1.9463631115355433,0.0,3.5206797122955322,-1.6511180400848389,-0.0,1.9602948427200317,5.12813018539504,-0.0,0.29308995604515076,-1.621063534413473,0.0,0.0003598319017328322,1.5621896982192993,-0.0,-0.0065950327552855015,0.6743340492248535,0.0,0.021323226392269135
276.0,310.0,-0.1298,0.0796,9.6586,-0.0374,0.0252,-0.1217,-1.9463349781432093,0.0,3.598008155822754,-1.6511061191558838,-0.0,1.9597649574279785,5.128097879677572,-0.0,0.28243663907051086,-1.6210992972003382,0.0,0.009832877665758133,1.5621815919876099,-0.0,0.00040725618600845337,0.6742978692054749,0.0,0.04176418110728264
267.0,299.0,-0.1095,0.0419,9.6371,-0.0391,0.0199,-0.1155,-1.9463712177672328,0.0,3.588592529296875,-1.6511061191558838,-0.0,2.0158803462982178,5.128134268313207,-0.0,0.273176372051239,-1.621086899434225,0.0,0.0005926144076511264,1.5621535778045654,-0.0,-0.009128468111157417,0.6743504405021667,0.0,-0.027616599574685097
267.0,299.0,-0.1095,0.0419,9.6371,-0.0391,0.0199,-0.1155,-1.946355482141012,0.0,3.5578842163085938,-1.6511949300765991,-0.0,2.0291354656219482,5.128130215197363,-0.0,0.28329139947891235,-1.6210911909686487,0.0,-0.004010471515357494,1.5621376037597656,-0.0,-0.0023440690711140633,0.6742896437644958,0.0,-0.00425999891012907
267.0,299.0,-0.1095,0.0419,9.6371,-0.0391,0.0199,-0.1155,-1.9463592968382777,0.0,3.5722217559814453,-1.6511220932006836,-0.0,2.002107620239258,5.128130215197363,-0.0,0.28166258335113525,-1.621103588734762,0.0,0.0059238215908408165,1.5621858835220337,-0.0,0.0016265413723886013,0.6743422150611877,0.0,-0.012217473238706589
267.0,299.0,-0.1095,0.0419,9.6371,-0.0391,0.0199,-0.1155,-1.946355482141012,0.0,3.549023389816284,-1.6511101722717285,-0.0,1.9985684156417847,5.128086018353262,-0.0,0.2857896387577057,-1.6210911909686487,0.0,0.0019678876269608736,1.562133550643921,-0.0,0.003167596645653248,0.6743260622024536,0.0,-0.001057397574186325
267.0,299.0,-0.1095,0.0419,9.6371,-0.0391,0.0199,-0.1155,-1.946355482141012,0.0,3.5521068572998047,-1.6511101722717285,-0.0,1.9554665088653564,5.128086018353262,-0.0,0.28409355878829956,-1.6210549513446253,0.0,0.0003962944610975683,1.562145709991455,-0.0,-0.0006525288335978985,0.6743016839027405,0.0,0.012838111259043217
267.0,299.0,-0.1095,0.0419,9.6371,-0.0391,0.0199,-0.1155,-1.9463392696776332,0.0,3.5520877838134766,-1.651129961013794,-0.0,2.004715919494629,5.128101932793417,-0.0,0.2908494770526886,-1.6210792700396937,0.0,-0.010979809798300266,1.5621215105056763,-0.0,-0.0005666948854923248,0.6743301749229431,0.0,-0.0031244419515132904
267.0,299.0,-0.1095,0.0419,9.6371,-0.0391,0.0199,-0.1155,-1.9463268719115199,0.0,3.5787339210510254,-1.651138186454773,-0.0,2.028451919555664,5.128093796759405,-0.0,0.28394168615341187,-1.6210792700396937,0.0,0.009055616334080696,1.5621495246887207,-0.0,0.012357604689896107,0.6743422150611877,0.0,0.03961062431335449
267.0,299.0,-0.1095,0.0419,9.6371,-0.0391,0.0199,-0.1155,-1.9463268719115199,0.0,3.6010403633117676,-1.651102066040039,-0.0,1.990968108177185,5.1281142113502405,-0.0,0.2812812030315399,-1.6210911909686487,0.0,-0.0019466897938400507,1.5621174573898315,-0.0,0.0024002715945243835,0.6743501424789429,0.0,-0.06073048710823059
267.0,299.0,-0.1095,0.0419,9.6371,-0.0391,0.0199,-0.1155,-1.9463712177672328,0.0,3.5799121856689453,-1.6511220932006836,-0.0,1.9867362976074219,5.128142523556509,-0.0,0.2707308530807495,-1.621103588734762,0.0,0.006937249097973108,1.562117338180542,-0.0,-0.001081743510439992,0.6743099093437195,0.0,-0.025366172194480896
267.0,299.0,-0.1095,0.0419,9.6371,-0.0391,0.0199,-0.1155,-1.9463392696776332,0.0,3.547752857208252,-1.6510734558105469,-0.0,1.969169020652771,5.128114151745596,-0.0,0.28496885299682617,-1.6210911909686487,0.0,0.014858025126159191,1.5621699094772339,-0.0,-0.005801722407341003,0.6742814183235168,0.0,-0.01864258013665676
267.0,299.0,-0.1095,0.0419,9.6371,-0.0391,0.0199,-0.1155,-1.9463712177672328,0.0,3.531179666519165,-1.6511220932006836,-0.0,2.000420570373535,5.128162163286962,-0.0,0.2860206067562103,-1.6210911909686487,0.0,0.0010329606011509895,1.5621896982192993,-0.0,-0.011769740842282772,0.6743501424789429,0.0,-0.04184693843126297
267.0,299.0,-0.1095,0.0419,9.6371,-0.0391,0.0199,-0.1155,-1.946355482141012,0.0,3.5169003009796143,-1.6511340141296387,-0.0,2.000309705734253,5.128153997450628,-0.0,0.2901841998100281,-1.62109882036318,0.0,-0.00024558184668421745,1.5621412992477417,-0.0,-0.001085856813006103,0.6743504405021667,0.0,0.04701995104551315
267.0,299.0,-0.1095,0.0419,9.6371,-0.0391,0.0199,-0.1155,-1.9463511906065882,0.0,3.577375888824463,-1.651154637336731,-0.0,2.020331621170044,5.128110098629751,-0.0,0.2921614944934845,-1.6210911909686487,0.0,0.005043861456215382,1.5620895624160767,-0.0,-0.0019454603316262364,0.674314022064209,0.0,-0.0018012295477092266
267.0,299.0,-0.1095,0.0419,9.6371,-0.0391,0.0199,-0.1155,-1.9464079342284144,0.0,3.581221580505371,-1.6511061191558838,-0.0,1.9573073387145996,5.128150212555685,-0.0,0.29181408882141113,-1.6211193243609827,0.0,-0.005379701033234596,1.5621813535690308,-0.0,0.002587680472061038,0.6743019819259644,0.0,0.05125894397497177
261.0,318.0,-0.0604,0.0502,9.6467,-0.0362,0.0272,-0.1159,-1.9463592968382777,0.0,3.5541861057281494,-1.6511061191558838,-0.0,2.0075294971466064,5.128110128432073,-0.0,0.29141348600387573,-1.6210511366473597,0.0,0.004086364060640335,1.5621494054794312,-0.0,-0.006292526610195637,0.6743099093437195,0.0,0.0026130075566470623
261.0,318.0,-0.0604,0.0502,9.6467,-0.0362,0.0272,-0.1159,-1.9463511906065882,0.0,3.582603693008423,-1.6511344909667969,-0.0,1.9788737297058105,5.12813018539504,-0.0,0.2774105668067932,-1.6210792700396937,0.0,0.021646184846758842,1.5621256828308105,-0.0,0.0011515174992382526,0.6743665933609009,0.0,-0.002041320316493511
261.0,318.0,-0.0604,0.0502,9.6467,-0.0362,0.0272,-0.1159,-1.9463955364623011,0.0,3.548600196838379,-1.6511385440826416,-0.0,2.0156097412109375,5.1281142113502405,-0.0,0.2757367491722107,-1.6210835615741175,0.0,0.0005579828284680843,1.562145709991455,-0.0,-0.0013973659370094538,0.6743383407592773,0.0,-0.01676277630031109
261.0,318.0,-0.0604,0.0502,9.6467,-0.0362,0.0272,-0.1159,-1.9463511906065882,0.0,3.5413267612457275,-1.6511386632919312,-0.0,1.9917559623718262,5.1280855415161035,-0.0,0.2827475666999817,-1.6210954825030726,0.0,-0.002548268996179104,1.5621535778045654,-0.0,-0.009562958963215351,0.6743016839027405,0.0,-0.014707515016198158
261.0,318.0,-0.0604,0.0502,9.6467,-0.0362,0.0272,-0.1159,-1.946383615533346,0.0,3.572373867034912,-1.6511143445968628,-0.0,1.97239089012146,5.1281224367912195,-0.0,0.2845567762851715,-1.621047321950094,0.0,-0.0009403340518474579,1.5621654987335205,-0.0,-0.004330426454544067,0.6743542551994324,0.0,-0.01393217034637928
261.0,318.0,-0.0604,0.0502,9.6467,-0.0362,0.0272,-0.1159,-1.9463755093016566,0.0,3.577244281768799,-1.6511019468307495,-0.0,1.966591715812683,5.128110188036718,-0.0,0.2865790128707886,-1.6210992972003382,0.0,-0.009194585494697094,1.5621376037597656,-0.0,-0.0003157190512865782,0.6742896437644958,0.0,0.01773039996623993
261.0,318.0,-0.0604,0.0502,9.6467,-0.0362,0.0272,-0.1159,-1.9463511906065882,0.0,3.557598352432251,-1.6511143445968628,-0.0,2.0403056144714355,5.128098267107763,-0.0,0.29104405641555786,-1.6210511366473597,0.0,0.00013088705600239336,1.5622016191482544,-0.0,-0.010270638391375542,0.6743542551994324,0.0,0.021452929824590683
261.0,318.0,-0.0604,0.0502,9.6467,-0.0362,0.0272,-0.1159,-1.9463631115355433,0.0,3.5703022480010986,-1.6511340141296387,-0.0,2.008626937866211,5.128170418530264,-0.0,0.2885225713253021,-1.621086899434225,0.0,-0.014270050451159477,1.5621297359466553,-0.0,-0.009708083234727383,0.6743301749229431,0.0,-0.026718027889728546
261.0,318.0,-0.0604,0.0502,9.6467,-0.0362,0.0272,-0.1159,-1.9463511906065882,0.0,3.5355560779571533,-1.6510895490646362,-0.0,1.9613635540008545,5.128138440638342,-0.0,0.2873411178588867,-1.6211074034320276,0.0,0.004555278457701206,1.5621979236602783,-0.0,-0.011251570656895638,0.6743501424789429,0.0,-0.010155672207474709
261.0,318.0,-0.0604,0.0502,9.6467,-0.0362,0.0272,-0.1159,-1.9463311634459437,0.0,3.5909781455993652,-1.6511143445968628,-0.0,1.9353601932525635,5.128138440638342,-0.0,0.28504425287246704,-1.6210630575763147,0.0,0.0015621478669345379,1.562145709991455,-0.0,0.0009560449980199337,0.6742777228355408,0.0,0.006598380394279957
261.0,318.0,-0.0604,0.0502,9.6467,-0.0362,0.0272,-0.1159,-1.9463149509825648,0.0,3.5499837398529053,-1.6511101722717285,-0.0,1.9486180543899536,5.128138410836019,-0.0,0.2795579135417938,-1.621103588734762,0.0,0.007539679296314716,1.5621577501296997,-0.0,0.009743662551045418,0.6742896437644958,0.0,-0.0208936408162117
261.0,318.0,-0.0604,0.0502,9.6467,-0.0362,0.0272,-0.1159,-1.9463712177672328,0.0,3.5370020866394043,-1.6510734558105469,-0.0,2.0190157890319824,5.128154355078497,-0.0,0.28114455938339233,-1.6211074034320276,0.0,-0.0029822459910064936,1.5621777772903442,-0.0,-0.000645131804049015,0.6743301749229431,0.0,-0.007387690711766481
261.0,318.0,-0.0604,0.0502,9.6467,-0.0362,0.0272,-0.1159,-1.9463430843748988,0.0,3.5662355422973633,-1.6510977745056152,-0.0,1.9942607879638672,5.128126102476873,-0.0,0.28408533334732056,-1.6210911909686487,0.0,-0.01001803670078516,1.562145709991455,-0.0,0.0003289111191406846,0.6743422150611877,0.0,0.04600842297077179
261.0,318.0,-0.0604,0.0502,9.6467,-0.0362,0.0272,-0.1159,-1.9463879070677699,0.0,3.5416719913482666,-1.6510899066925049,-0.0,2.017632246017456,5.128190803318777,-0.0,0.283291757106781,-1.6210911909686487,0.0,0.014325017109513283,1.5621535778045654,-0.0,-0.010818460956215858,0.6743260622024536,0.0,-0.034799300134181976
261.0,318.0,-0.0604,0.0502,9.6467,-0.0362,0.0272,-0.1159,-1.946355482141012,0.0,3.585625171661377,-1.651118516921997,-0.0,1.9829938411712646,5.128146636276998,-0.0,0.2858262062072754,-1.6210749785052698,0.0,0.0065566119737923145,1.5621894598007202,-0.0,-0.00552705954760313,0.6742896437644958,0.0,0.056641191244125366
263.0,324.0,-0.015,0.1143,9.4343,-0.031,0.0241,-0.1153,-1.9463349781432093,0.0,3.617058038711548,-1.6511462926864624,-0.0,2.0137832164764404,5.12808187583045,-0.0,0.3035312592983246,-1.6210835615741175,0.0,0.006943975575268269,1.5621618032455444,-0.0,0.0030931492801755667,0.67430579662323,0.0,-0.016591157764196396
263.0,324.0,-0.015,0.1143,9.4343,-0.031,0.0241,-0.1153,-1.9463349781432093,0.0,3.5351476669311523,-1.6510895490646362,-0.0,1.9831576347351074,5.128134268313207,-0.0,0.2893124520778656,-1.6210792700396937,0.0,0.012129058130085468,1.5621696710586548,-0.0,-0.0030249692499637604,0.6743384003639221,0.0,0.0008994638919830322
263.0,324.0,-0.015,0.1143,9.4343,-0.031,0.0241,-0.1153,-1.9463511906065882,0.0,3.573495864868164,-1.6511220932006836,-0.0,1.9870409965515137,5.128122019558706,-0.0,0.2830929756164551,-1.6210954825030726,0.0,0.004252963233739138,1.5620977878570557,-0.0,0.003000174183398485,0.67430579662323,0.0,-0.00858154147863388
263.0,324.0,-0.015,0.1143,9.4343,-0.031,0.0241,-0.1153,-1.9463879070677699,0.0,3.5670762062072754,-1.6511220932006836,-0.0,2.0112788677215576,5.128101932793417,-0.0,0.2895154058933258,-1.6211231390582483,0.0,0.0011996097164228559,1.5621174573898315,-0.0,-0.0017408444546163082,0.6743099093437195,0.0,-0.030498068779706955
263.0,324.0,-0.015,0.1143,9.4343,-0.031,0.0241,-0.1153,-1.9463430843748988,0.0,3.535275936126709,-1.6510895490646362,-0.0,1.9805232286453247,5.128134268313207,-0.0,0.29786115884780884,-1.621086899434225,0.0,-0.004323500208556652,1.5621376037597656,-0.0,-0.016313331201672554,0.6743260622024536,0.0,-0.015762396156787872
263.0,324.0,-0.015,0.1143,9.4343,-0.031,0.0241,-0.1153,-1.9463712177672328,0.0,3.5757360458374023,-1.6511417627334595,-0.0,1.9649823904037476,5.128118264466085,-0.0,0.27759885787963867,-1.6210911909686487,0.0,0.01877954602241516,1.5621777772903442,-0.0,0.009451797232031822,0.6743301749229431,0.0,0.02105977013707161
263.0,324.0,-0.015,0.1143,9.4343,-0.031,0.0241,-0.1153,-1.9463917217650355,0.0,3.597346305847168,-1.6511422395706177,-0.0,2.006110191345215,5.128130572825231,-0.0,0.2885412275791168,-1.6211031118976038,0.0,-3.0837138183414936e-05,1.5621216297149658,-0.0,-0.005947653204202652,0.6742736101150513,0.0,0.0033539659343659878
263.0,324.0,-0.015,0.1143,9.4343,-0.031,0.0241,-0.1153,-1.9463712177672328,0.0,3.6043009757995605,-1.6511220932006836,-0.0,1.9698452949523926,5.1281544146831415,-0.0,0.2864324748516083,-1.6211074034320276,0.0,0.008144826628267765,1.5621616840362549,-0.0,0.0076077776029706,0.6743624806404114,0.0,-0.007589430548250675
263.0,324.0,-0.015,0.1143,9.4343,-0.031,0.0241,-0.1153,-1.9463311634459437,0.0,3.5885794162750244,-1.6511061191558838,-0.0,2.0166378021240234,5.128110098629751,-0.0,0.2883557081222534,-1.6210749785052698,0.0,-0.004543909803032875,1.5621089935302734,-0.0,-0.011857888661324978,0.6743744015693665,0.0,-0.002262829802930355
263.0,324.0,-0.015,0.1143,9.4343,-0.031,0.0241,-0.1153,-1.9463392696776332,0.0,3.5977783203125,-1.6511380672454834,-0.0,1.967267632484436,5.1281224367912195,-0.0,0.2913726270198822,-1.6210792700396937,0.0,0.008242074400186539,1.5621297359466553,-0.0,-0.006851574871689081,0.6743665933609009,0.0,0.006352622993290424
263.0,324.0,-0.015,0.1143,9.4343,-0.031,0.0241,-0.1153,-1.9463030300536097,0.0,3.5669755935668945,-1.6510692834854126,-0.0,2.018136978149414,5.1281461892421625,-0.0,0.2832822799682617,-1.6210668722735804,0.0,-0.007718055509030819,1.5621576309204102,-0.0,-0.004606103058904409,0.6742736101150513,0.0,-0.027470260858535767
263.0,324.0,-0.015,0.1143,9.4343,-0.031,0.0241,-0.1153,-1.9463674030699671,0.0,3.575070381164551,-1.6511180400848389,-0.0,1.9845958948135376,5.12815027216033,-0.0,0.28593209385871887,-1.6211074034320276,0.0,0.011022403836250305,1.5621134042739868,-0.0,0.0008775640744715929,0.6743422150611877,0.0,-0.007694287225604057
263.0,324.0,-0.015,0.1143,9.4343,-0.031,0.0241,-0.1153,-1.9463879070677699,0.0,3.5217692852020264,-1.6511220932006836,-0.0,1.9860267639160156,5.128114181547918,-0.0,0.282468318939209,-1.6210549513446253,0.0,0.012296079657971859,1.5620895624160767,-0.0,0.002395633142441511,0.6743099689483643,0.0,-0.016601989045739174
263.0,324.0,-0.015,0.1143,9.4343,-0.031,0.0241,-0.1153,-1.9463588200011195,0.0,3.5633180141448975,-1.6511261463165283,-0.0,2.010565996170044,5.128117877035894,-0.0,0.285518079996109,-1.6211074034320276,0.0,-0.011864307336509228,1.5621535778045654,-0.0,0.0044823456555604935,0.6743504405021667,0.0,-0.018156424164772034
263.0,324.0,-0.015,0.1143,9.4343,-0.031,0.0241,-0.1153,-1.9463712177672328,0.0,3.5538253784179688,-1.6511261463165283,-0.0,2.0013318061828613,5.128106105118551,-0.0,0.2813808023929596,-1.62109882036318,0.0,0.0026208560448139906,1.5621416568756104,-0.0,-0.011198445223271847,0.674314022064209,0.0,0.040393635630607605
267.0,313.0,-0.0808,0.0383,9.6622,-0.0396,0.0215,-0.117,-1.946383615533346,0.0,3.560079574584961,-1.6510895490646362,-0.0,1.995812177658081,5.128182577877798,-0.0,0.2768147587776184,-1.6211074034320276,0.0,0.007700234651565552,1.562137484550476,-0.0,-0.0038004303351044655,0.6743016839027405,0.0,-0.001870816107839346
267.0,313.0,-0.0808,0.0383,9.6622,-0.0396,0.0215,-0.117,-1.9463879070677699,0.0,3.5789856910705566,-1.6510854959487915,-0.0,1.96953547000885,5.1281224367912195,-0.0,0.27538859844207764,-1.6211112181292933,0.0,-0.0018610423430800438,1.5621659755706787,-0.0,0.0005440721288323402,0.6743702292442322,0.0,0.04926327243447304
267.0,313.0,-0.0808,0.0383,9.6622,-0.0396,0.0215,-0.117,-1.9463311634459437,0.0,3.567403793334961,-1.6511061191558838,-0.0,1.9673709869384766,5.128122406988897,-0.0,0.2868902385234833,-1.6211193243609827,0.0,-0.004612846300005913,1.5621535778045654,-0.0,0.0030373139306902885,0.6742371916770935,0.0,0.010418877005577087
267.0,313.0,-0.0808,0.0383,9.6622,-0.0396,0.0215,-0.117,-1.9463588200011195,0.0,3.6062519550323486,-1.6510734558105469,-0.0,1.9808540344238281,5.128118264466085,-0.0,0.27373817563056946,-1.6211193243609827,0.0,0.005801225081086159,1.562193512916565,-0.0,0.008940213359892368,0.6743742823600769,0.0,-0.02692412957549095
267.0,313.0,-0.0808,0.0383,9.6622,-0.0396,0.0215,-0.117,-1.9464079342284144,0.0,3.5908162593841553,-1.6510730981826782,-0.0,1.99502432346344,5.128158467798986,-0.0,0.29300177097320557,-1.6211312452899378,0.0,-0.010555616579949856,1.562145471572876,-0.0,0.0004125237464904785,0.67430579662323,0.0,-0.009958978742361069
267.0,313.0,-0.0808,0.0383,9.6622,-0.0396,0.0215,-0.117,-1.946355482141012,0.0,3.5479555130004883,-1.651093602180481,-0.0,2.0015411376953125,5.128130215197363,-0.0,0.2834419310092926,-1.6211031118976038,0.0,0.005405893549323082,1.5621495246887207,-0.0,0.0016274547670036554,0.6743260622024536,0.0,-0.017039146274328232
267.0,313.0,-0.0808,0.0383,9.6622,-0.0396,0.0215,-0.117,-1.9463468990721644,0.0,3.5670952796936035,-1.6511220932006836,-0.0,1.9960219860076904,5.128110188036718,-0.0,0.2738145589828491,-1.6210911909686487,0.0,0.0029832925647497177,1.562133550643921,-0.0,0.0003877924755215645,0.6743702292442322,0.0,-0.05484377592802048
267.0,313.0,-0.0808,0.0383,9.6622,-0.0396,0.0215,-0.117,-1.9463755093016566,0.0,3.5386900901794434,-1.6511344909667969,-0.0,2.0057365894317627,5.128101962595739,-0.0,0.29062899947166443,-1.6210830847369593,0.0,0.006690898444503546,1.5621616840362549,-0.0,0.005821148864924908,0.674290120601654,0.0,0.006015399470925331
267.0,313.0,-0.0808,0.0383,9.6622,-0.0396,0.0215,-0.117,-1.9463030300536097,0.0,3.6235146522521973,-1.6510776281356812,-0.0,2.0161709785461426,5.128126460104742,-0.0,0.27790939807891846,-1.6211074034320276,0.0,0.007098880596458912,1.562153935432434,-0.0,0.010812755674123764,0.6742982864379883,0.0,-0.032296400517225266
267.0,313.0,-0.0808,0.0383,9.6622,-0.0396,0.0215,-0.117,-1.9463468990721644,0.0,3.578948497772217,-1.6511061191558838,-0.0,2.0547831058502197,5.128126132279196,-0.0,0.28252649307250977,-1.6211112181292933,0.0,0.003952299244701862,1.5621659755706787,-0.0,-0.007856070064008236,0.6743339896202087,0.0,-0.009501462802290916
267.0,313.0,-0.0808,0.0383,9.6622,-0.0396,0.0215,-0.117,-1.946383615533346,0.0,3.5474090576171875,-1.6510694026947021,-0.0,1.9813776016235352,5.128101962595739,-0.0,0.2745935916900635,-1.6210792700396937,0.0,0.006212392821907997,1.562185525894165,-0.0,0.004319309256970882,0.6743140816688538,0.0,-0.01602601446211338
267.0,313.0,-0.0808,0.0383,9.6622,-0.0396,0.0215,-0.117,-1.9463674030699671,0.0,3.5615768432617188,-1.6511101722717285,-0.0,1.9733405113220215,5.128126102476873,-0.0,0.28237539529800415,-1.6211193243609827,0.0,0.013379893265664577,1.562145709991455,-0.0,-0.0024388718884438276,0.6743743419647217,0.0,-0.025617489591240883
267.0,313.0,-0.0808,0.0383,9.6622,-0.0396,0.0215,-0.117,-1.9463712177672328,0.0,3.546566963195801,-1.6511101722717285,-0.0,1.9975488185882568,5.128182458668508,-0.0,0.28511494398117065,-1.6210954825030726,0.0,-0.004641086794435978,1.5621819496154785,-0.0,-0.005539221689105034,0.6742694973945618,0.0,-0.056691572070121765
267.0,313.0,-0.0808,0.0383,9.6622,-0.0396,0.0215,-0.117,-1.9463511906065882,0.0,3.5880651473999023,-1.6510734558105469,-0.0,2.0075957775115967,5.128110158234396,-0.0,0.2865830063819885,-1.6211274305926722,0.0,0.00044308684300631285,1.5621495246887207,-0.0,0.01284863706678152,0.6743381023406982,0.0,-0.007779160514473915
265.0,305.0,-0.1065,0.0814,9.5671,-0.0406,0.0246,-0.1142,-1.9463712177672328,0.0,3.6221208572387695,-1.6510895490646362,-0.0,1.9983704090118408,5.128101932793417,-0.0,0.2867760956287384,-1.6210668722735804,0.0,0.008858384564518929,1.56217360496521,-0.0,-0.009358600713312626,0.6743177771568298,0.0,0.0014872520696371794
265.0,305.0,-0.1065,0.0814,9.5671,-0.0406,0.0246,-0.1142,-1.9463268719115199,0.0,3.5711898803710938,-1.6511061191558838,-0.0,2.0187904834747314,5.128166246205129,-0.0,0.2845762073993683,-1.6210711638080042,0.0,-0.005953720770776272,1.562145709991455,-0.0,0.002157071139663458,0.6743504405021667,0.0,-0.0074328044429421425
265.0,305.0,-0.1065,0.0814,9.5671,-0.0406,0.0246,-0.1142,-1.9463712177672328,0.0,3.5650441646575928,-1.6510858535766602,-0.0,1.9809831380844116,5.128130155592718,-0.0,0.2897777855396271,-1.6211074034320276,0.0,-0.0006213822634890676,1.5621134042739868,-0.0,-0.014535706490278244,0.6743219494819641,0.0,-0.016006138175725937
265.0,305.0,-0.1065,0.0814,9.5671,-0.0406,0.0246,-0.1142,-1.9463712177672328,0.0,3.575648069381714,-1.6510615348815918,-0.0,1.9902095794677734,5.128150242358007,-0.0,0.29147547483444214,-1.621091667805807,0.0,-0.0026117153465747833,1.562145709991455,-0.0,0.0002396897180005908,0.6743301749229431,0.0,-0.03629226237535477
265.0,305.0,-0.1065,0.0814,9.5671,-0.0406,0.0246,-0.1142,-1.9463230572142542,0.0,3.548064947128296,-1.6510775089263916,-0.0,2.0309345722198486,5.128093826561727,-0.0,0.2902463674545288,-1.6210911909686487,0.0,0.004139110445976257,1.5621895790100098,-0.0,-0.0079173743724823,0.6743016839027405,0.0,0.021573111414909363
265.0,305.0,-0.1065,0.0814,9.5671,-0.0406,0.0246,-0.1142,-1.9463349781432093,0.0,3.5905747413635254,-1.6511101722717285,-0.0,2.011990547180176,5.128093826561727,-0.0,0.2873004376888275,-1.6210711638080042,0.0,-0.0012553627602756023,1.5621819496154785,-0.0,-0.01570373773574829,0.6743301749229431,0.0,-0.02603798173367977
265.0,305.0,-0.1065,0.0814,9.5671,-0.0406,0.0246,-0.1142,-1.9463631115355433,0.0,3.551243543624878,-1.651093602180481,-0.0,2.000894784927368,5.128085988550939,-0.0,0.2816077768802643,-1.6210992972003382,0.0,0.003972901031374931,1.56217360496521,-0.0,-0.0016253974754363298,0.6742855310440063,0.0,0.060004040598869324
265.0,305.0,-0.1065,0.0814,9.5671,-0.0406,0.0246,-0.1142,-1.9463511906065882,0.0,3.5464608669281006,-1.6511743068695068,-0.0,1.950639009475708,5.12814615943984,-0.0,0.286249041557312,-1.6211031118976038,0.0,-0.001026351354084909,1.5621376037597656,-0.0,0.0034091712441295385,0.6743542551994324,0.0,-0.022918518632650375
265.0,305.0,-0.1065,0.0814,9.5671,-0.0406,0.0246,-0.1142,-1.9463192425169886,0.0,3.5659399032592773,-1.6510615348815918,-0.0,1.9636555910110474,5.12815027216033,-0.0,0.27997779846191406,-1.6211074034320276,0.0,0.007426052819937468,1.562133550643921,-0.0,0.0023619767744094133,0.674314022064209,0.0,-0.009883156977593899
265.0,305.0,-0.1065,0.0814,9.5671,-0.0406,0.0246,-0.1142,-1.9462868175902308,0.0,3.5582613945007324,-1.6510854959487915,-0.0,2.003462553024292,5.128097879677572,-0.0,0.28555965423583984,-1.6211274305926722,0.0,-0.010228275321424007,1.5622138977050781,-0.0,0.01194542832672596,0.6743542551994324,0.0,0.018358247354626656
265.0,305.0,-0.1065,0.0814,9.5671,-0.0406,0.0246,-0.1142,-1.9463268719115199,0.0,3.5764729976654053,-1.6511180400848389,-0.0,2.026585340499878,5.12813018539504,-0.0,0.28422868251800537,-1.6210835615741175,0.0,0.007301961537450552,1.5620853900909424,-0.0,0.009163763374090195,0.6743381023406982,0.0,0.03805018961429596
265.0,305.0,-0.1065,0.0814,9.5671,-0.0406,0.0246,-0.1142,-1.9463392696776332,0.0,3.619649887084961,-1.651118516921997,-0.0,2.004505157470703,5.1280617890651605,-0.0,0.27843180298805237,-1.621103588734762,0.0,-0.007392117753624916,1.562185525894165,-0.0,-0.006357499398291111,0.67430579662323,0.0,0.00855682510882616
265.0,305.0,-0.1065,0.0814,9.5671,-0.0406,0.0246,-0.1142,-1.9463588200011195,0.0,3.6097421646118164,-1.6510940790176392,-0.0,1.952911615371704,5.128097909479894,-0.0,0.2814862132072449,-1.6211355368243616,0.0,-0.009021633304655552,1.5621896982192993,-0.0,-0.004639455117285252,0.674314022064209,0.0,0.027934346348047256
265.0,305.0,-0.1065,0.0814,9.5671,-0.0406,0.0246,-0.1142,-1.9463631115355433,0.0,3.626981735229492,-1.651110291481018,-0.0,1.9788845777511597,5.128101962595739,-0.0,0.2822384834289551,-1.6211312452899378,0.0,0.00911471713334322,1.5621815919876099,-0.0,-0.004566106479614973,0.6743463277816772,0.0,0.04929042607545853
265.0,305.0,-0.1065,0.0814,9.5671,-0.0406,0.0246,-0.1142,-1.9463392696776332,0.0,3.5219430923461914,-1.6511344909667969,-0.0,1.990718126296997,5.128170358925619,-0.0,0.2944793403148651,-1.6210911909686487,0.0,-0.0016206210711970925,1.5621089935302734,-0.0,-0.006175694987177849,0.6743301749229431,0.0,-0.03664490953087807
260.0,293.0,-0.1274,0.0814,9.5856,-0.0406,0.0195,-0.1132,-1.946383615533346,0.0,3.5613903999328613,-1.6510775089263916,-0.0,1.9880727529525757,5.128166246205129,-0.0,0.2859913110733032,-1.6211312452899378,0.0,0.00048056570813059807,1.5621495246887207,-0.0,-0.0006249044090509415,0.6743384003639221,0.0,0.004591538570821285
260.0,293.0,-0.1274,0.0814,9.5856,-0.0406,0.0195,-0.1132,-1.9463149509825648,0.0,3.563035011291504,-1.6510652303695679,-0.0,2.0242667198181152,5.12813429811553,-0.0,0.2842119336128235,-1.6211112181292933,0.0,0.01438836008310318,1.5620977878570557,-0.0,-0.0011519687250256538,0.6743099093437195,0.0,-0.004651389084756374
260.0,293.0,-0.1274,0.0814,9.5856,-0.0406,0.0195,-0.1132,-1.9463511906065882,0.0,3.565542697906494,-1.6511340141296387,-0.0,1.9582128524780273,5.128118264466085,-0.0,0.29662957787513733,-1.6211193243609827,0.0,-0.0005073235370218754,1.562133550643921,-0.0,-0.005046096630394459,0.674329936504364,0.0,0.01717965304851532
260.0,293.0,-0.1274,0.0814,9.5856,-0.0406,0.0195,-0.1132,-1.946299215356344,0.0,3.562081813812256,-1.6510734558105469,-0.0,1.9948821067810059,5.1281544146831415,-0.0,0.28224119544029236,-1.6210711638080042,0.0,0.001757333753630519,1.562134027481079,-0.0,-0.010507255792617798,0.6743422150611877,0.0,-0.0051948754116892815
260.0,293.0,-0.1274,0.0814,9.5856,-0.0406,0.0195,-0.1132,-1.9463511906065882,0.0,3.607145309448242,-1.651093602180481,-0.0,1.9994354248046875,5.1281544146831415,-0.0,0.2894385755062103,-1.6210911909686487,0.0,-0.004792294930666685,1.5621495246887207,-0.0,-0.002004477893933654,0.6743219494819641,0.0,-0.008783077821135521
260.0,293.0,-0.1274,0.0814,9.5856,-0.0406,0.0195,-0.1132,-1.9463468990721644,0.0,3.5540759563446045,-1.6511545181274414,-0.0,2.040532350540161,5.128106134920873,-0.0,0.2865420877933502,-1.621086899434225,0.0,0.00014055450446903706,1.5621814727783203,-0.0,0.0035278548020869493,0.6743381023406982,0.0,0.01373228244483471
260.0,293.0,-0.1274,0.0814,9.5856,-0.0406,0.0195,-0.1132,-1.9463879070677699,0.0,3.5928502082824707,-1.6511340141296387,-0.0,1.9679880142211914,5.128118264466085,-0.0,0.27782148122787476,-1.6210954825030726,0.0,0.0013519615167751908,1.5621130466461182,-0.0,0.009743843227624893,0.6743099093437195,0.0,0.018611997365951538
260.0,293.0,-0.1274,0.0814,9.5856,-0.0406,0.0195,-0.1132,-1.9463392696776332,0.0,3.5899643898010254,-1.6511377096176147,-0.0,1.9673091173171997,5.128101873188772,-0.0,0.2737067639827728,-1.621115509663717,0.0,-0.006546076852828264,1.5621699094772339,-0.0,-0.0077025266364216805,0.6743019819259644,0.0,-0.028970547020435333
260.0,293.0,-0.1274,0.0814,9.5856,-0.0406,0.0195,-0.1132,-1.9463511906065882,0.0,3.588672637939453,-1.6511340141296387,-0.0,1.973247766494751,5.128118264466085,-0.0,0.2754519581794739,-1.6210792700396937,0.0,-0.0044782040640711784,1.5620977878570557,-0.0,-0.005162380635738373,0.6743178367614746,0.0,0.042661264538764954
260.0,293.0,-0.1274,0.0814,9.5856,-0.0406,0.0195,-0.1132,-1.9463674030699671,0.0,3.5771141052246094,-1.6511101722717285,-0.0,1.997898817062378,5.128126102476873,-0.0,0.28223472833633423,-1.6210835615741175,0.0,-0.0038471559528261423,1.5621376037597656,-0.0,-0.009587018750607967,0.6743301749229431,0.0,0.035530880093574524
260.0,293.0,-0.1274,0.0814,9.5856,-0.0406,0.0195,-0.1132,-1.9463311634459437,0.0,3.589801073074341,-1.6511220932006836,-0.0,1.970102310180664,5.128182577877798,-0.0,0.2772006690502167,-1.621086899434225,0.0,-0.00044022989459335804,1.5621089935302734,-0.0,-0.001131553086452186,0.6743463277816772,0.0,-0.0005623418837785721
260.0,293.0,-0.1274,0.0814,9.5856,-0.0406,0.0195,-0.1132,-1.9463149509825648,0.0,3.554450511932373,-1.6511421203613281,-0.0,1.9881950616836548,5.128118264466085,-0.0,0.2789461314678192,-1.6210830847369593,0.0,0.0021354667842388153,1.5622016191482544,-0.0,-0.009785414673388004,0.6743260622024536,0.0,-0.00403197668492794
260.0,293.0,-0.1274,0.0814,9.5856,-0.0406,0.0195,-0.1132,-1.946343561212057,0.0,3.5776572227478027,-1.6510980129241943,-0.0,2.0275156497955322,5.128134268313207,-0.0,0.29013964533805847,-1.6210792700396937,0.0,0.00969740841537714,1.5621616840362549,-0.0,-0.0012160679325461388,0.6743381023406982,0.0,0.012811867520213127
260.0,293.0,-0.1274,0.0814,9.5856,-0.0406,0.0195,-0.1132,-1.9463392696776332,0.0,3.554433822631836,-1.6511421203613281,-0.0,1.9870567321777344,5.12815402725295,-0.0,0.2850690186023712,-1.6210954825030726,0.0,0.003928841091692448,1.5621416568756104,-0.0,0.013637235388159752,0.6743583679199219,0.0,0.019321193918585777
260.0,293.0,-0.1274,0.0814,9.5856,-0.0406,0.0195,-0.1132,-1.9463755093016566,0.0,3.551196813583374,-1.6511101722717285,-0.0,1.9701104164123535,5.128093796759405,-0.0,0.2772080898284912,-1.621086899434225,0.0,-0.000820021377876401,1.5621654987335205,-0.0,0.002131422981619835,0.6743542551994324,0.0,0.02755926549434662
270.0,314.0,-0.1388,0.0891,9.609,-0.0367,0.0295,-0.1165,-1.9463311634459437,0.0,3.5850210189819336,-1.6511261463165283,-0.0,1.983212947845459,5.12815027216033,-0.0,0.2838404178619385,-1.6210592428790491,0.0,-0.007033957168459892,1.5621576309204102,-0.0,0.004947265610098839,0.6743339896202087,0.0,0.028972426429390907
270.0,314.0,-0.1388,0.0891,9.609,-0.0367,0.0295,-0.1165,-1.9463349781432093,0.0,3.583587169647217,-1.6511660814285278,-0.0,1.9736897945404053,5.128162193089285,-0.0,0.2790341377258301,-1.6210911909686487,0.0,-0.004446525126695633,1.5621049404144287,-0.0,-0.012038055807352066,0.6743583679199219,0.0,0.030193151906132698
270.0,314.0,-0.1388,0.0891,9.609,-0.0367,0.0295,-0.1165,-1.9463674030699671,0.0,3.576322078704834,-1.6511061191558838,-0.0,2.0064024925231934,5.128089713841238,-0.0,0.2825438678264618,-1.6210716406451624,0.0,0.0025409874506294727,1.5621174573898315,-0.0,0.0009099406888708472,0.6743381023406982,0.0,0.01738298498094082
270.0,314.0,-0.1388,0.0891,9.609,-0.0367,0.0295,-0.1165,-1.9463468990721644,0.0,3.631227970123291,-1.6510895490646362,-1.2867513478342918e-11,1.9984933137893677,5.12813018539504,-0.0,0.29835689067840576,-1.6211112181292933,0.0,-0.00024497543927282095,1.5621495246887207,-0.0,0.010245740413665771,0.6743178367614746,0.0,-0.017577599734067917
270.0,314.0,-0.1388,0.0891,9.609,-0.0367,0.0295,-0.1165,-1.946331640283102,0.0,3.5954718589782715,-1.6511101722717285,-3.1073532710199566e-17,2.0261030197143555,5.128122406988897,-0.0,0.2883918285369873,-1.621115509663717,0.0,-0.0035686930641531944,1.5621535778045654,-0.0,-0.01051576528698206,0.6743301749229431,0.0,-0.011526626534759998
270.0,314.0,-0.1388,0.0891,9.609,-0.0367,0.0295,-0.1165,-1.9463674030699671,0.0,3.5591955184936523,-1.651138186454773,-7.503892948330866e-23,1.9724228382110596,5.12817861416892,-0.0,0.28889328241348267,-1.6210549513446253,0.0,-0.004892199300229549,1.5621695518493652,-0.0,-0.00013313943054527044,0.6743583679199219,0.0,0.009850667789578438
270.0,314.0,-0.1388,0.0891,9.609,-0.0367,0.0295,-0.1165,-1.9463511906065882,0.0,3.552520513534546,-1.6510813236236572,-1.8121020679959816e-28,1.9708917140960693,5.12809784987525,-0.0,0.2852209508419037,-1.6211231390582483,0.0,0.0033858211245387793,1.5621331930160522,-0.0,-0.0007766741327941418,0.6743301749229431,0.0,-0.00036879442632198334
270.0,314.0,-0.1388,0.0891,9.609,-0.0367,0.0295,-0.1165,-1.9463879070677699,0.0,3.560300350189209,-1.651118516921997,-4.37601281980613e-34,1.9871985912322998,5.128158497601309,-0.0,0.29372549057006836,-1.6210911909686487,0.0,0.001675599254667759,1.5620895624160767,-0.0,0.004475654102861881,0.6743504405021667,0.0,-0.014404206536710262
270.0,314.0,-0.1388,0.0891,9.609,-0.0367,0.0295,-0.1165,-1.9463268719115199,0.0,3.5383496284484863,-1.6511101722717285,-1.056755605707417e-39,2.0102734565734863,5.128097879677572,-0.0,0.2860833704471588,-1.6210511366473597,0.0,0.014546995982527733,1.5621535778045654,-0.0,0.0044931950978934765,0.6743301749229431,0.0,0.019522657617926598
270.0,314.0,-0.1388,0.0891,9.609,-0.0367,0.0295,-0.1165,-1.9463511906065882,0.0,3.5439834594726562,-1.6511660814285278,-2.802596928649634e-45,1.975797414779663,5.1280778525169275,-0.0,0.28219401836395264,-1.6210911909686487,0.0,-0.012106737121939659,1.5621216297149658,-0.0,-0.005789895076304674,0.6742937564849854,0.0,-0.04301709681749344
270.0,314.0,-0.1388,0.0891,9.609,-0.0367,0.0295,-0.1165,-1.946383615533346,0.0,3.5325465202331543,-1.6510977745056152,-0.0,2.0099329948425293,5.128110068827429,-0.0,0.2863191068172455,-1.6211112181292933,0.0,0.01484350860118866,1.5620735883712769,-0.0,-0.004324121866375208,0.6743301749229431,0.0,-0.02728971280157566
270.0,314.0,-0.1388,0.0891,9.609,-0.0367,0.0295,-0.1165,-1.9463511906065882,0.0,3.53053617477417,-1.651118516921997,-0.0,2.0235931873321533,5.1281544146831415,-0.0,0.2784796357154846,-1.6210430304156702,0.0,-0.0023497403599321842,1.5621293783187866,-0.0,-0.0010318431304767728,0.6743501424789429,0.0,-0.004358754958957434
270.0,314.0,-0.1388,0.0891,9.609,-0.0367,0.0295,-0.1165,-1.946299215356344,0.0,3.566061019897461,-1.6511422395706177,-0.0,1.9333620071411133,5.128101932793417,-0.0,0.27330338954925537,-1.621086899434225,0.0,0.006213183514773846,1.5621297359466553,-0.0,0.011642235331237316,0.6743260622024536,0.0,0.025355394929647446
270.0,314.0,-0.1388,0.0891,9.609,-0.0367,0.0295,-0.1165,-1.9463430843748988,0.0,3.5643444061279297,-1.6510895490646362,-0.0,1.9460418224334717,5.128170358925619,-0.0,0.2801329493522644,-1.6210911909686487,0.0,0.009591068141162395,1.5621256828308105,-0.0,0.007143886759877205,0.6743099093437195,0.0,0.007521142717450857
270.0,314.0,-0.1388,0.0891,9.609,-0.0367,0.0295,-0.1165,-1.946331640283102,0.0,3.5890755653381348,-1.651065707206726,-0.0,1.9927005767822266,5.128182190447607,-0.0,0.28113603591918945,-1.621086899434225,0.0,-0.005290239118039608,1.5621535778045654,-0.0,-0.0014208205975592136,0.6743702292442322,0.0,-0.002358878031373024
260.0,309.0,-0.0772,-0.0455,9.7591,-0.0312,0.0333,-0.1187,-1.9463592968382777,-2.270990284714003e-09,3.611307144165039,-1.651065707206726,-0.0,1.972275972366333,5.128185915737905,-0.0,0.28142035007476807,-1.6211074034320276,0.0,0.012648951262235641,1.5621376037597656,-0.0,0.002572113648056984,0.6743583679199219,0.0,0.0004374934360384941
260.0,309.0,-0.0772,-0.0455,9.7591,-0.0312,0.0333,-0.1187,-1.946331640283102,-5.484175379853696e-15,3.5695972442626953,-1.651057481765747,-0.0,1.9594013690948486,5.128186332970419,-0.0,0.2836093306541443,-1.6210911909686487,0.0,0.001536422991193831,1.562085509300232,-0.0,-0.015922008082270622,0.6743260622024536,0.0,0.03649742901325226
260.0,309.0,-0.0772,-0.0455,9.7591,-0.0312,0.0333,-0.1187,-1.9462791881956996,-1.3243640628559172e-20,3.6001393795013428,-1.6511101722717285,-0.0,2.0282063484191895,5.128182250052252,-0.0,0.2846318483352661,-1.6211355368243616,0.0,0.0052665178664028645,1.5621294975280762,-0.0,-0.006942929700016975,0.674329936504364,0.0,-0.027407493442296982
260.0,309.0,-0.0772,-0.0455,9.7591,-0.0312,0.0333,-0.1187,-1.946383615533346,-3.1981832419123066e-26,3.53908109664917,-1.6511061191558838,-0.0,2.0172669887542725,5.128170358925619,-0.0,0.2843508720397949,-1.6210749785052698,0.0,0.0020137110259383917,1.5621616840362549,-0.0,-0.006843137554824352,0.6742777228355408,0.0,0.020433707162737846
260.0,309.0,-0.0772,-0.0455,9.7591,-0.0312,0.0333,-0.1187,-1.946343561212057,-7.723236510255646e-32,3.58123779296875,-1.6510895490646362,-0.0,1.9680583477020264,5.128126132279196,-0.0,0.2840244472026825,-1.6210992972003382,0.0,-0.007012356538325548,1.5621416568756104,-0.0,-0.002400358207523823,0.6743583679199219,0.0,0.026289846748113632
260.0,309.0,-0.0772,-0.0455,9.7591,-0.0312,0.0333,-0.1187,-1.9463592968382777,-1.865071083038987e-37,3.558468818664551,-1.6511143445968628,-0.0,2.0108602046966553,5.128166216402807,-0.0,0.2928374409675598,-1.6210549513446253,0.0,0.004574156366288662,1.5621458292007446,-0.0,0.00034174369648098946,0.6743504405021667,0.0,-0.036305468529462814
260.0,309.0,-0.0772,-0.0455,9.7591,-0.0312,0.0333,-0.1187,-1.9462911091246546,-4.498168070482663e-43,3.6046838760375977,-1.651093602180481,-0.0,1.9954428672790527,5.12814615943984,-0.0,0.28239163756370544,-1.6210911909686487,0.0,0.0031330236233770847,1.5621416568756104,-0.0,-0.002561221830546856,0.6743342876434326,0.0,0.03676597401499748
260.0,309.0,-0.0772,-0.0455,9.7591,-0.0312,0.0333,-0.1187,-1.9463592968382777,0.0,3.5586585998535156,-1.6511825323104858,-0.0,2.029096841812134,5.128178465157308,-0.0,0.2923201620578766,-1.6211522261248987,0.0,-0.0015351532492786646,1.5621130466461182,-0.0,0.010199157521128654,0.6743016839027405,0.0,0.06531160324811935
260.0,309.0,-0.0772,-0.0455,9.7591,-0.0312,0.0333,-0.1187,-1.9463311634459437,0.0,3.5756332874298096,-1.6510698795318604,-0.0,1.9825654029846191,5.128150242358007,-0.0,0.281563937664032,-1.6211231390582483,0.0,-0.0027158136945217848,1.5621297359466553,-0.0,-0.014903164468705654,0.67430579662323,0.0,0.02083701640367508
260.0,309.0,-0.0772,-0.0455,9.7591,-0.0312,0.0333,-0.1187,-1.946287294427389,0.0,3.54231858253479,-1.6510895490646362,-0.0,1.9832624197006226,5.1281220493610284,-0.0,0.28450602293014526,-1.6210911909686487,0.0,0.006649352610111237,1.562137484550476,-0.0,-0.005485422909259796,0.6742896437644958,0.0,0.016200527548789978
260.0,309.0,-0.0772,-0.0455,9.7591,-0.0312,0.0333,-0.1187,-1.9463392696776332,0.0,3.5786638259887695,-1.6510977745056152,-0.0,1.9829680919647217,5.128110158234396,-0.0,0.28544020652770996,-1.6211112181292933,0.0,-0.012630926445126534,1.5621256828308105,-0.0,0.0023726823274046183,0.6743665933609009,0.0,-0.011168481782078743
260.0,309.0,-0.0772,-0.0455,9.7591,-0.0312,0.0333,-0.1187,-1.9463230572142542,0.0,3.601243495941162,-1.651093602180481,-0.0,2.0234689712524414,5.12813018539504,-0.0,0.273870050907135,-1.6210911909686487,0.0,0.00464780954644084,1.5621814727783203,-0.0,-0.013987974263727665,0.6743219494819641,0.0,-0.013871041126549244
260.0,309.0,-0.0772,-0.0455,9.7591,-0.0312,0.0333,-0.1187,-1.9463392696776332,0.0,3.6227798461914062,-1.651118516921997,-0.0,1.9588903188705444,5.128126132279196,-0.0,0.27475517988204956,-1.6210792700396937,0.0,0.016200589016079903,1.562100887298584,-0.0,-0.002418056596070528,0.6743342280387878,0.0,-0.0063624307513237
260.0,309.0,-0.0772,-0.0455,9.7591,-0.0312,0.0333,-0.1187,-1.946383615533346,0.0,3.590266704559326,-1.6511340141296387,-0.0,1.9515380859375,5.128142046719351,-0.0,0.27725380659103394,-1.6211031118976038,0.0,-0.013545351102948189,1.5621576309204102,-0.0,-0.007990222424268723,0.6743422150611877,0.0,-0.03735404461622238
268.0,313.0,-0.0712,0.0305,9.6126,-0.0438,0.0258,-0.1188,-1.9463755093016566,0.0,3.5828123092651367,-1.6510775089263916,-0.0,2.033968925476074,5.128101932793417,-0.0,0.27983933687210083,-1.621086899434225,0.0,0.002824248746037483,1.5621216297149658,-0.0,0.004203529097139835,0.674329936504364,0.0,-0.03900564834475517
268.0,313.0,-0.0712,0.0305,9.6126,-0.0438,0.0258,-0.1188,-1.9463349781432093,0.0,3.5289955139160156,-1.6510978937149048,-0.0,1.9948394298553467,5.1281703291232965,-0.0,0.2787910997867584,-1.6210668722735804,0.0,-0.007233412936329842,1.5621130466461182,-0.0,-0.008423816412687302,0.6743016839027405,0.0,0.021676387637853622
268.0,313.0,-0.0712,0.0305,9.6126,-0.0438,0.0258,-0.1188,-1.9463311634459437,0.0,3.5515036582946777,-1.6511261463165283,-0.0,2.0149013996124268,5.128114181547918,-0.0,0.27732038497924805,-1.6211069265948694,0.0,-0.004087981302291155,1.5621256828308105,-0.0,-0.008006861433386803,0.6743219494819641,0.0,-0.021938439458608627
268.0,313.0,-0.0712,0.0305,9.6126,-0.0438,0.0258,-0.1188,-1.9463511906065882,0.0,3.538743495941162,-1.6511462926864624,-0.0,1.9858477115631104,5.1281220493610284,-0.0,0.2774628698825836,-1.6210830847369593,0.0,0.0014864143449813128,1.5622056722640991,-0.0,-0.00812994223088026,0.6743099093437195,0.0,-0.03595535457134247
268.0,313.0,-0.0712,0.0305,9.6126,-0.0438,0.0258,-0.1188,-1.9463230572142542,0.0,3.5769035816192627,-1.6511220932006836,-0.0,1.9958674907684326,5.128153997450628,-0.0,0.28411197662353516,-1.6210592428790491,0.0,-0.0032690861262381077,1.5621416568756104,-0.0,0.005631379317492247,0.6742736101150513,0.0,-0.02022738754749298
268.0,313.0,-0.0712,0.0305,9.6126,-0.0438,0.0258,-0.1188,-1.9463268719115199,0.0,3.6339681148529053,-1.6511459350585938,-0.0,1.9965406656265259,5.128110128432073,-0.0,0.28309929370880127,-1.6210911909686487,0.0,0.004067929927259684,1.5621376037597656,-0.0,-0.0014132698997855186,0.674314022064209,0.0,0.0360567569732666
268.0,313.0,-0.0712,0.0305,9.6126,-0.0438,0.0258,-0.1188,-1.9463631115355433,0.0,3.5982589721679688,-1.6511344909667969,-0.0,2.035376787185669,5.128142136126318,-0.0,0.2753555178642273,-1.6210954825030726,0.0,0.0014896908542141318,1.562145709991455,-0.0,-0.00796815287321806,0.6743702292442322,0.0,-0.03925865516066551
268.0,313.0,-0.0712,0.0305,9.6126,-0.0438,0.0258,-0.1188,-1.946327348748678,0.0,3.6040024757385254,-1.6511143445968628,-0.0,1.983806848526001,5.128138023405828,-0.0,0.27689677476882935,-1.6210749785052698,0.0,0.008207173086702824,1.562134027481079,-0.0,0.002520259004086256,0.6743381023406982,0.0,-0.014958654530346394
268.0,313.0,-0.0712,0.0305,9.6126,-0.0438,0.0258,-0.1188,-1.9463793239989222,0.0,3.5691988468170166,-1.6511262655258179,-0.0,1.9981439113616943,5.128097879677572,-0.0,0.28561073541641235,-1.6211074034320276,0.0,0.004695558920502663,1.562153935432434,-0.0,-0.017707549035549164,0.6743219494819641,0.0,0.02443017065525055
268.0,313.0,-0.0712,0.0305,9.6126,-0.0438,0.0258,-0.1188,-1.9463468990721644,0.0,3.623969078063965,-1.6510615348815918,-0.0,2.0285680294036865,5.128118294268408,-0.0,0.286602258682251,-1.6211069265948694,0.0,-0.0005898032104596496,1.562125325202942,-0.0,0.0034993768204003572,0.6743339896202087,0.0,0.007013984024524689
268.0,313.0,-0.0712,0.0305,9.6126,-0.0438,0.0258,-0.1188,-1.9463349781432093,0.0,3.575087547302246,-1.651093602180481,-0.0,2.0117526054382324,5.128130632429876,-0.0,0.2822238802909851,-1.6210830847369593,0.0,0.011393648572266102,1.5621089935302734,-0.0,-0.0029354728758335114,0.6743422150611877,0.0,0.02747497148811817
268.0,313.0,-0.0712,0.0305,9.6126,-0.0438,0.0258,-0.1188,-1.9463030300536097,0.0,3.6074507236480713,-1.6511422395706177,-0.0,2.0431325435638428,5.128178494959631,-0.0,0.2960788607597351,-1.6211031118976038,0.0,0.0007906481041572988,1.562153935432434,-0.0,-0.004857709631323814,0.6743260622024536,0.0,-0.013199307024478912
268.0,313.0,-0.0712,0.0305,9.6126,-0.0438,0.0258,-0.1188,-1.9463592968382777,0.0,3.593480110168457,-1.6511061191558838,-0.0,2.024057149887085,5.128129797964849,-0.0,0.2858514189720154,-1.6211274305926722,0.0,-0.002661764621734619,1.5621376037597656,-0.0,9.884359315037727e-05,0.674314022064209,0.0,0.003711828263476491
268.0,313.0,-0.0712,0.0305,9.6126,-0.0438,0.0258,-0.1188,-1.9463230572142542,1.049133061314933e-05,3.521794557571411,-1.6511061191558838,-0.0,2.000734329223633,5.128138023405828,-0.0,0.27563536167144775,-1.6210830847369593,0.0,0.003615638241171837,1.5621616840362549,-0.0,-0.006702324375510216,0.6743501424789429,0.0,-0.02758875861763954
268.0,313.0,-0.0712,0.0305,9.6126,-0.0438,0.0258,-0.1188,-1.946303506890768,1.0279351954523008e-05,3.626950263977051,-1.6510977745056152,-0.0,1.9906100034713745,5.128186332970419,1.220345325236849e-06,0.2835657596588135,-1.6211431662188929,0.0,-0.007389927748590708,1.5621815919876099,-0.0,-0.007415915839374065,0.6743219494819641,0.0,-0.039264366030693054
265.0,297.0,-0.0915,0.2046,9.4893,-0.0304,0.0276,-0.1174,-1.946299215356344,1.6485817468492314e-05,3.615614175796509,-1.6510181427001953,8.30656717880629e-05,1.9844584465026855,5.128194111376562,0.0005731090204790235,0.2956864833831787,-1.621138874684469,0.0,-0.0013111971784383059,1.5621858835220337,-0.0,0.0029328546952456236,0.6743219494819641,0.0,0.024991748854517937
265.0,297.0,-0.0915,0.2046,9.4893,-0.0304,0.0276,-0.1174,-1.9463516674437464,3.981131049823894e-11,3.561622142791748,-1.6510655879974365,0.0022990291472524405,1.9848887920379639,5.128246116429128,0.0017004318069666624,0.2879211902618408,-1.6211026350604456,0.0,0.002723743673413992,1.5621896982192993,-0.0,0.0020008240826427937,0.6743699908256531,0.0,0.0005689030513167381
265.0,297.0,-0.0915,0.2046,9.4893,-0.0304,0.0276,-0.1174,-1.9463592968382777,9.613962917679218e-17,3.5846688747406006,-1.6510863304138184,0.0022093558218330145,1.9824773073196411,5.128242033510961,0.0031519837211817503,0.2804557979106903,-1.621110741292135,0.0,-0.0023907539434731007,1.5621896982192993,-0.0,0.01023194845765829,0.6743943691253662,0.0,0.01951846480369568
265.0,297.0,-0.0915,0.2046,9.4893,-0.0304,0.0276,-0.1174,-1.9463712177672328,2.3216590434857437e-22,3.579328775405884,-1.651033639907837,0.0014629546785727143,2.010676860809326,5.128245699196615,0.00443782564252615,0.2846617102622986,-1.6211031118976038,0.0,-0.006512017920613289,1.5621814727783203,-0.0,0.002431019674986601,0.6743864417076111,0.0,0.03285035863518715
265.0,297.0,-0.0915,0.2046,9.4893,-0.0304,0.0276,-0.1174,-1.94641174892568,5.606533735094364e-28,3.5777204036712646,-1.651082158088684,0.00031453449628315866,2.0497705936431885,5.128261405020513,0.004499278496950865,0.291118860244751,-1.621138874684469,0.0,0.004973003640770912,1.562133550643921,-0.0,0.0038216696120798588,0.6744064688682556,0.0,-0.004310720134526491
265.0,297.0,-0.0915,0.2046,9.4893,-0.0304,0.0276,-0.1174,-1.946451803246969,-0.005430740769952536,3.532057523727417,-1.6511551141738892,1.8363471099291928e-07,1.98894202709198,5.12832601645545,0.002146966988220811,0.287453830242157,-1.621138874684469,0.0,-0.006883485708385706,1.562145471572876,-0.0,-0.0009304779814556241,0.6743900179862976,-2.767692297567237e-09,-0.01690707728266716
265.0,297.0,-0.0915,0.2046,9.4893,-0.0304,0.0276,-0.1174,-1.9465276203551234,-0.01071478333324194,3.5395052433013916,-1.651073932647705,4.4345622551671127e-13,1.9813847541809082,5.128266173392095,0.0005079632392153144,0.2827030420303345,-1.621138874684469,0.0,-0.0004859041073359549,1.5621576309204102,-0.0,-0.006338303908705711,0.6743738055229187,-6.683651113163986e-15,-0.027251295745372772
265.0,297.0,-0.0915,0.2046,9.4893,-0.0304,0.0276,-0.1174,-1.9465753040709437,-0.011370770633220673,3.5679101943969727,-1.6510899066925049,1.0708945941883279e-18,2.0046310424804688,5.128213721304693,-0.00020847101404797286,0.2918560206890106,-1.621131722127096,0.0,0.0024687927216291428,1.5622097253799438,-0.0,0.0002649019006639719,0.6744298934936523,0.00095416943076998,0.05049915239214897
265.0,297.0,-0.0915,0.2046,9.4893,-0.0304,0.0276,-0.1174,-1.9465953312315882,-0.006668910384178162,3.5193705558776855,-1.651033639907837,-0.0001501413353253156,2.0355520248413086,5.128237950592794,-0.00021973016555421054,0.27607041597366333,-1.6211712996112269,9.754292928931818e-10,0.001729516894556582,1.562100887298584,-0.0,-0.006943620275706053,0.6744298934936523,0.0020430840086191893,0.0010219435207545757
265.0,297.0,-0.0915,0.2046,9.4893,-0.0304,0.0276,-0.1174,-1.9466315708556117,-0.0018532105023041368,3.5729706287384033,-1.6510541439056396,-1.7892647363737524e-08,1.9505844116210938,5.128238010197439,-0.00020502884581219405,0.2816152274608612,-1.621138874684469,2.715143377057111e-13,-0.007253552787005901,1.5621256828308105,-0.0,-0.015005713328719139,0.6744379997253418,0.0019715051166713238,0.03401102498173714
265.0,297.0,-0.0915,0.2046,9.4893,-0.0304,0.0276,-0.1174,-1.946622987786764,-0.00015629087283741683,3.59230637550354,-1.6510376930236816,-4.320863802929724e-14,1.9667521715164185,5.128245699196615,-0.00013988988939672709,0.2758890390396118,-1.621183220540182,7.557702426202228e-17,0.0010418974561616778,1.5620968341827393,-0.0,0.008595832623541355,0.6745063066482544,0.0033975751139223576,0.01130458153784275
265.0,297.0,-0.0915,0.2046,9.4893,-0.0304,0.0276,-0.1174,-1.946611066857809,-0.00020540297555271536,3.5691003799438477,-1.6510740518569946,-1.0434378717935816e-19,2.0199086666107178,5.128281879215994,-9.38984303502366e-05,0.28002381324768066,-1.621155087147848,-7.713109653195716e-07,0.002961709164083004,1.5621174573898315,-0.0,-0.0018442347645759583,0.6745384931564331,0.005851755850017071,0.021659720689058304
265.0,297.0,-0.0915,0.2046,9.4893,-0.0304,0.0276,-0.1174,-1.946651121179098,-0.0001530003792140633,3.5761618614196777,-1.65102219581604,0.0002096249081660062,1.9688527584075928,5.128285932331838,-8.118290861602873e-05,0.27932289242744446,-1.6212032477008265,-0.00038155537913553417,-0.02210746519267559,1.5621376037597656,-0.0,-0.0034012719988822937,0.6745585203170776,0.008375073783099651,0.13719648122787476
265.0,297.0,-0.0915,0.2046,9.4893,-0.0304,0.0276,-0.1174,-1.946639200250143,-0.000182857591426,3.5310606956481934,-1.6510097980499268,0.00015532775432802737,2.007025957107544,5.128229725151815,-4.441097553353757e-05,0.2781854271888733,-1.6211751143084925,-0.00036781266680918634,-0.005545094609260559,1.5621376037597656,-0.0,0.010300131514668465,0.6746143102645874,0.010460504330694675,0.11727703362703323
265.0,297.0,-0.0915,0.2046,9.4893,-0.0304,0.0276,-0.1174,-1.946691175500387,-0.0001780112652340904,3.5592637062072754,-1.6510099172592163,0.00012337831140030175,2.0263941287994385,5.128253954439916,-4.099977377336472e-05,0.2840895652770996,-1.621183220540182,-0.000312987802317366,-0.02067461796104908,1.5621215105056763,-0.0,0.004237589426338673,0.6746863126754761,0.012080211192369461,0.1713481843471527
263.0,303.0,0.0473,-0.6921,9.3858,-0.0095,0.0092,-0.1058,-1.9466749630370082,-0.001000886783003807,3.5866808891296387,-1.6510781049728394,9.682692325441167e-05,1.9709559679031372,5.128237950592794,-6.93176916684024e-05,0.28687170147895813,-1.6211264769183558,-0.0002610896190162748,-0.016433216631412506,1.5621089935302734,-0.0,0.00042213359847664833,0.6747339963912964,0.011148752644658089,0.1119856908917427
263.0,303.0,0.0473,-0.6921,9.3858,-0.0095,0.0092,-0.1058,-1.9467116794981898,-0.0008616699487902224,3.536482572555542,-1.6510252952575684,4.227205863571726e-05,2.0097055435180664,5.1282620308692834,-6.217155168997124e-05,0.2823641300201416,-1.621138874684469,-0.00023221364244818687,-0.003987017087638378,1.5621620416641235,-0.0,0.0042763203382492065,0.6748225092887878,0.00847028847783804,0.14085566997528076
263.0,303.0,0.0473,-0.6921,9.3858,-0.0095,0.0092,-0.1058,-1.9466997585692347,-0.0006342601263895631,3.613651752471924,-1.651050090789795,7.302348967641592e-05,2.0210728645324707,5.128266322403707,-5.6333690736209974e-05,0.2768567204475403,-1.621138874684469,-0.00020908992155455053,-0.005808942019939423,1.562162160873413,-0.0,-0.00642191618680954,0.6748504042625427,0.005424437113106251,0.06257879734039307
263.0,303.0,0.0473,-0.6921,9.3858,-0.0095,0.0092,-0.1058,-1.9466587505736292,-0.0005016465438529849,3.5949933528900146,-1.6510344743728638,9.770376345841214e-05,1.9581847190856934,5.128246116429128,-5.149804928805679e-05,0.2747263014316559,-1.6210950056659144,-8.227600483223796e-05,-0.01486612856388092,1.5621616840362549,-0.0,-0.011687593534588814,0.6749149560928345,0.0041290875524282455,0.03880280256271362
263.0,303.0,0.0473,-0.6921,9.3858,-0.0095,0.0092,-0.1058,-1.9466587505736292,-0.00041490697185508907,3.572849988937378,-1.6510417461395264,8.826245175441727e-05,1.9835729598999023,5.128234255104818,-6.955039134481922e-05,0.28061598539352417,-1.621147934590475,-7.216436642920598e-05,-0.00703632365912199,1.562117338180542,-0.0,0.000533280661329627,0.6748984456062317,0.0039700535126030445,0.03605642542243004
263.0,303.0,0.0473,-0.6921,9.3858,-0.0095,0.0092,-0.1058,-1.9466587505736292,-0.0003537451848387718,3.5827789306640625,-1.6510056257247925,8.037959196371958e-05,2.0325491428375244,5.128229725151815,-6.592850695597008e-05,0.2795686423778534,-1.6210954825030726,-3.2227377232629806e-05,0.008006880059838295,1.5620700120925903,-0.0,0.004556596279144287,0.6749104857444763,0.0033601142931729555,0.037049949169158936
263.0,303.0,0.0473,-0.6921,9.3858,-0.0095,0.0092,-0.1058,-1.9466468296446742,-0.00030829981551505625,3.5693397521972656,-1.6510344743728638,9.854265954345465e-05,1.9662694931030273,5.12820594289855,-6.142883648863062e-05,0.27821028232574463,-1.6210992972003382,-6.759357518149045e-08,-0.004454382695257664,1.5621293783187866,-0.0,-0.0036238250322639942,0.6749058365821838,0.0027602268382906914,0.009612828493118286
263.0,303.0,0.0473,-0.6921,9.3858,-0.0095,0.0092,-0.1058,-1.9467035732665003,-0.00020112823403906077,3.6118645668029785,-1.651033639907837,0.0001234770898008719,1.9758002758026123,5.12820594289855,-7.658639515284449e-05,0.2803691625595093,-1.6210954825030726,-1.8814923577470388e-11,-0.0029549424070864916,1.562145709991455,-0.0,2.3582717403769493e-05,0.6749786138534546,0.0020402518566697836,0.06566950678825378
263.0,303.0,0.0473,-0.6921,9.3858,-0.0095,0.0092,-0.1058,-1.9467035732665003,-0.00021232002472970635,3.548086166381836,-1.6510138511657715,0.001206511864438653,1.9581716060638428,5.12820194938735,-0.00017127118189819157,0.2914946973323822,-1.6210435072528284,-5.2372030188074445e-15,-0.008568959310650826,1.5621376037597656,-0.0,-0.011983875185251236,0.6749950051307678,0.0012811070773750544,0.07109858095645905
263.0,303.0,0.0473,-0.6921,9.3858,-0.0095,0.0092,-0.1058,-1.946719308892721,-0.0004299885767977685,3.5821456909179688,-1.6510059833526611,0.0013570287264883518,2.0360660552978516,5.128190058260717,-0.00020919986127410084,0.2776622474193573,-1.6210554281817835,0.0005564726307056844,0.001630568178370595,1.5621699094772339,-0.0,0.00011794175952672958,0.6749827861785889,0.0009090412058867514,0.020688356831669807
263.0,303.0,0.0473,-0.6921,9.3858,-0.0095,0.0092,-0.1058,-1.9467112026610316,-0.001454522949643433,3.5853419303894043,-1.6510018110275269,0.001374020823277533,1.999255657196045,5.128153967648306,-0.0005265984800644219,0.2842273414134979,-1.6210477987872522,0.0007162938709370792,-0.004128479864448309,1.5621256828308105,-0.0,-0.0009919041767716408,0.6749424338340759,0.0006592027493752539,0.034515343606472015
263.0,303.0,0.0473,-0.6921,9.3858,-0.0095,0.0092,-0.1058,-1.9467555485167445,-0.0019035052973777056,3.580522060394287,-1.6509658098220825,0.0018098216969519854,1.9970874786376953,5.128190028458395,-0.00046714130439795554,0.2865366041660309,-1.6210559050189417,0.0006867461488582194,0.006712364032864571,1.5621297359466553,-0.0,-0.0062263053841888905,0.6749745607376099,0.0005171207012608647,0.00045112892985343933
263.0,303.0,0.0473,-0.6921,9.3858,-0.0095,0.0092,-0.1058,-1.9467350445189417,-0.0023208516649901867,3.601926326751709,-1.6509900093078613,0.002281826687976718,1.988340973854065,5.128214168339529,-0.0003713102196343243,0.28717368841171265,-1.620967213307516,0.0006599820335395634,0.025248274207115173,1.5621174573898315,-0.0,-0.0027648438699543476,0.6749663352966309,0.0004254356899764389,-0.0786217451095581
263.0,303.0,0.0473,-0.6921,9.3858,-0.0095,0.0092,-0.1058,-1.9467069111266078,-0.002708401996642351,3.5854809284210205,-1.6509864330291748,0.003113773185759783,1.9914608001708984,5.12820194938735,-0.00030778683139942586,0.2829335629940033,-1.6209834257708948,0.0005757602630183101,0.04020524397492409,1.562145471572876,-0.0,0.0011103242868557572,0.6749908924102783,0.0003613698063418269,-0.11341401934623718
275.0,326.0,-0.0203,0.1651,9.3876,-0.0654,0.0145,-0.1153,-1.9467908344664515,-0.002878682455047965,3.5788581371307373,-1.6509300470352173,0.004476580303162336,2.049179792404175,5.128214198141851,-0.000262828660197556,0.2888699173927307,-1.6210115591632288,0.00045274916919879615,0.032197706401348114,1.562133550643921,-0.0,-0.0012180665507912636,0.6750147938728333,0.0003140750923193991,-0.19670602679252625
275.0,326.0,-0.0203,0.1651,9.3876,-0.0654,0.0145,-0.1153,-1.946770807305807,-0.0030644002836197615,3.607856273651123,-1.6508495807647705,0.005487324669957161,2.030916213989258,5.128169971495428,-0.00022933358559384942,0.29205530881881714,-1.6210358778582972,0.0004143062687944621,0.049610186368227005,1.562109351158142,-0.0,-0.0052208504639565945,0.6750109791755676,0.00027772810426540673,-0.15580585598945618
275.0,326.0,-0.0203,0.1651,9.3876,-0.0654,0.0145,-0.1153,-1.9468070469298304,-0.002936560893431306,3.5663106441497803,-1.6508538722991943,0.006244100630283356,2.0077786445617676,5.128218310862341,-0.00020341284107416868,0.2979760766029358,-1.6210196653949183,0.00039454622310586274,0.035825878381729126,1.5622135400772095,-0.0,-0.012077798135578632,0.6749743819236755,0.00021785774151794612,-0.2107996642589569
275.0,326.0,-0.0203,0.1651,9.3876,-0.0654,0.0145,-0.1153,-1.9468385181822718,-0.002401165198534727,3.588503837585449,-1.6507900953292847,0.0075142160058021545,1.9896862506866455,5.128197777062216,-0.00018275639740750194,0.2987056076526642,-1.6209991613971155,0.0004567531868815422,0.04930129647254944,1.5621535778045654,-0.0,-0.00791985634714365,0.6749745607376099,0.0001973384787561372,-0.3106413781642914
275.0,326.0,-0.0203,0.1651,9.3876,-0.0654,0.0145,-0.1153,-1.9468594990172328,-0.0017355988966301084,3.5900673866271973,-1.6507620811462402,0.008390187285840511,1.9961274862289429,5.128185945540228,-0.00016590958693996072,0.2942967414855957,-1.6210029760943812,0.0004595433420035988,0.0617932453751564,1.5621814727783203,-0.0,-0.004964268766343594,0.6749745607376099,0.00018038722919300199,-0.3275914788246155
275.0,326.0,-0.0203,0.1651,9.3876,-0.0654,0.0145,-0.1153,-1.946883340875143,-0.001133251585997641,3.5900163650512695,-1.6506818532943726,0.009449256584048271,2.011701822280884,5.128206032305517,-0.00017237450811080635,0.28085237741470337,-1.6210153738604944,0.0004309580253902823,0.058028049767017365,1.5621774196624756,-0.0,-0.0012381896376609802,0.6749663352966309,4.88280420540832e-05,-0.3499740958213806
275.0,326.0,-0.0203,0.1651,9.3876,-0.0654,0.0145,-0.1153,-1.9468628368773402,-0.0011039492674171925,3.538113832473755,-1.6506259441375732,0.00935155339539051,1.9844856262207031,5.1281699416931055,-0.0001592987246112898,0.27821433544158936,-1.621023956929342,0.000416833208873868,0.06805069744586945,1.5622175931930542,-0.0,-0.005839693825691938,0.6750390529632568,4.515342880040407e-05,-0.4153900146484375
275.0,326.0,-0.0203,0.1651,9.3876,-0.0654,0.0145,-0.1153,-1.946879049340719,-0.0012746901484206319,3.5721261501312256,-1.650598406791687,0.008902858011424541,2.04227352142334,5.12820194938735,-0.00016920607595238835,0.2742652893066406,-1.6209915320025843,0.0003891550877597183,0.064205102622509,1.5621695518493652,-0.0,0.009529873728752136,0.6749544143676758,4.199319300823845e-05,-0.44818997383117676
275.0,326.0,-0.0203,0.1651,9.3876,-0.0654,0.0145,-0.1153,-1.946883340875143,-0.0014394697500392795,3.562371253967285,-1.6504939794540405,0.00824491772800684,1.9949750900268555,5.128206032305517,-0.00011553716467460617,0.2779654860496521,-1.6210516134845179,0.00036788664874620736,0.07201622426509857,1.5621693134307861,-0.0,0.013883359730243683,0.6749622225761414,3.9246420783456415e-05,-0.46708589792251587
275.0,326.0,-0.0203,0.1651,9.3876,-0.0654,0.0145,-0.1153,-1.9469315014281214,-0.0014977812534198165,3.592031478881836,-1.6504946947097778,0.007957985624670982,2.0305593013763428,5.128230559616842,-0.00011641456512734294,0.27236178517341614,-1.6210358778582972,0.0003576173912733793,0.07325787097215652,1.5621774196624756,-0.0,0.01861540600657463,0.6749826669692993,3.6836871004197747e-05,-0.4881892204284668
275.0,326.0,-0.0203,0.1651,9.3876,-0.0654,0.0145,-0.1153,-1.9468828640379847,-0.0020284203346818686,3.5304627418518066,-1.6503859758377075,0.007492412813007832,1.9722299575805664,5.128218340664663,-0.00011879533849423751,0.28539004921913147,-1.6210358778582972,0.0003176967438776046,0.08032816648483276,1.5621930360794067,-0.0,0.019459843635559082,0.6750266551971436,3.4706114092841744e-05,-0.5310927033424377
275.0,326.0,-0.0203,0.1651,9.3876,-0.0654,0.0145,-0.1153,-1.9469105205931605,-0.0022674212232232094,3.5316321849823,-1.6503777503967285,0.00680325785651803,1.9653959274291992,5.128137695580282,-0.0001300059666391462,0.2795202434062958,-1.620995823537008,0.0003146762610413134,0.07284659147262573,1.5621774196624756,-0.0,0.02410372905433178,0.6749945878982544,3.2808384275995195e-05,-0.5610788464546204
275.0,326.0,-0.0203,0.1651,9.3876,-0.0654,0.0145,-0.1153,-1.9469753704466761,-0.002986475359648466,3.546739101409912,-1.6503498554229736,0.005826513282954693,1.982413649559021,5.128149854927816,-0.000237983200349845,0.264252245426178,-1.620995823537008,0.00031268096063286066,0.08695492148399353,1.5621975660324097,-0.0,0.012244703248143196,0.6750267148017883,3.110742545686662e-05,-0.5368791818618774
275.0,326.0,-0.0203,0.1651,9.3876,-0.0654,0.0145,-0.1153,-1.946946760217184,-0.003769605653360486,3.5262417793273926,-1.6502741575241089,0.005046330392360687,1.9863452911376953,5.1281940815742395,-0.00030700795468874276,0.259356826543808,-1.6209314505206507,0.0002723083889577538,0.08601339906454086,1.5621495246887207,-0.0,0.019998911768198013,0.6750024557113647,2.9574181098723784e-05,-0.5675861835479736
275.0,326.0,-0.0203,0.1651,9.3876,-0.0654,0.0145,-0.1153,-1.9469624958434046,-0.005209535825997591,3.503159523010254,-1.6502946615219116,0.003855473129078746,1.9751955270767212,5.128149854927816,-0.000326866953400895,0.25296226143836975,-1.6210358778582972,0.0002754696470219642,0.09003396332263947,1.5621733665466309,-0.0,0.02209385111927986,0.675006628036499,2.81849606835749e-05,-0.5929291248321533
267.0,316.0,-0.0568,0.0221,9.2411,-0.0348,0.0176,-0.118,-1.9470473728575648,-0.006173679139465094,3.495990753173828,-1.650221347808838,0.002755943452939391,1.9949743747711182,5.128137993603506,-0.00028526579262688756,0.26130473613739014,-1.6209195295916956,0.0003105161595158279,0.09147021174430847,1.5621572732925415,-0.0,0.025615887716412544,0.6750507950782776,2.6920381060335785e-05,-0.6359095573425293
267.0,316.0,-0.0568,0.0221,9.2411,-0.0348,0.0176,-0.118,-1.9470912418761195,-0.006698003038764,3.4899091720581055,-1.6502741575241089,0.0015989869134500623,1.9879881143569946,5.128202277212896,-0.00028699927497655153,0.24484708905220032,-1.621000115071432,0.0003208306443411857,0.07832999527454376,1.562217354774475,-0.0,0.016446776688098907,0.6749822497367859,2.576443694124464e-05,-0.6273895502090454
267.0,316.0,-0.0568,0.0221,9.2411,-0.0348,0.0176,-0.118,-1.947123189965719,-0.007761597167700529,3.4345550537109375,-1.6502461433410645,0.0009290515445172787,1.9318130016326904,5.128113794117727,-0.00032466687844134867,0.25305435061454773,-1.6209915320025843,0.00032594319782219827,0.08342868089675903,1.5622013807296753,-0.0,0.02595076896250248,0.6750107407569885,2.4703647795831785e-05,-0.629301905632019
267.0,316.0,-0.0568,0.0221,9.2411,-0.0348,0.0176,-0.118,-1.9471832714476527,-0.008352452889084816,3.3885016441345215,-1.6502699851989746,0.0005110037745907903,1.9717135429382324,5.128174412041464,-0.000345139967976138,0.2509314715862274,-1.6209877173053187,0.0002891416661441326,0.08525228500366211,1.5621247291564941,-0.0,0.021759452298283577,0.6750425696372986,2.3726770450593904e-05,-0.6558771133422852
267.0,316.0,-0.0568,0.0221,9.2411,-0.0348,0.0176,-0.118,-1.947190900842184,-0.0092034125700593,3.405421733856201,-1.6502585411071777,0.0003808064793702215,1.9554779529571533,5.128166216402807,-0.0005803569802083075,0.23648914694786072,-1.6210115591632288,0.0003083315386902541,0.0714133232831955,1.5622012615203857,-0.0,0.0179099440574646,0.6750143766403198,2.2824222469353117e-05,-0.6739578247070312
267.0,316.0,-0.0568,0.0221,9.2411,-0.0348,0.0176,-0.118,-1.9472791157164515,-0.010297594591975212,3.3873114585876465,-1.650262713432312,0.0003036884590983391,1.9745643138885498,5.128158110171118,-0.0006184850935824215,0.23208770155906677,-1.6209834257708948,0.0002587916678749025,0.07868215441703796,1.5621494054794312,-0.0,0.028207840397953987,0.6750508546829224,2.1987811123835854e-05,-0.686032772064209
267.0,316.0,-0.0568,0.0221,9.2411,-0.0348,0.0176,-0.118,-1.9473349056639613,-0.013857763260602951,3.3825995922088623,-1.6502947807312012,0.00025254793581552804,1.9475376605987549,5.128126132279196,-0.0007355939596891403,0.2364879697561264,-1.6210029760943812,0.00022070080740377307,0.08506906032562256,1.5621651411056519,-0.0,0.02673305943608284,0.6750102639198303,2.121054603776429e-05,-0.6575537919998169
267.0,316.0,-0.0568,0.0221,9.2411,-0.0348,0.0176,-0.118,-1.9474264583983363,-0.015689613297581673,3.343043327331543,-1.6502140760421753,0.00021615228615701199,1.945631742477417,5.128129857569494,-0.0007710285717621446,0.2330336570739746,-1.6210115591632288,0.00019238707318436354,0.08184859901666641,1.5622254610061646,-0.0,0.021038953214883804,0.6750549077987671,2.0486339053604752e-05,-0.6350225210189819
267.0,316.0,-0.0568,0.0221,9.2411,-0.0348,0.0176,-0.118,-1.9475227795042933,-0.01534208469092846,3.328036069869995,-1.6502461433410645,0.00022668922611046582,1.8971068859100342,5.128101962595739,-0.0007381142931990325,0.2317562699317932,-1.621000115071432,0.0001705130998743698,0.09313168376684189,1.562145471572876,-0.0,0.01911133900284767,0.6750102639198303,6.760397809557617e-06,-0.6742831468582153
267.0,316.0,-0.0568,0.0221,9.2411,-0.0348,0.0176,-0.118,-1.9476505718626917,-0.015198832377791405,3.3084144592285156,-1.6502503156661987,0.00019411154789850116,1.918575406074524,5.128090131073751,-0.0006077704601921141,0.21514829993247986,-1.6209715048419397,0.00014806771650910378,0.07301688194274902,1.5621814727783203,-0.0,0.0183781199157238,0.6750628352165222,2.1902828671854085e-13,-0.6937143802642822
267.0,316.0,-0.0568,0.0221,9.2411,-0.0348,0.0176,-0.118,-1.9477020702757777,-0.015856316313147545,3.2603840827941895,-1.6502503156661987,0.00017521601694170386,1.897353172302246,5.128126489907064,-0.0005332085420377553,0.20406046509742737,-1.6209633986102503,0.0001347637444268912,0.08285684138536453,1.5622212886810303,-0.0,0.020602982491254807,0.6750226020812988,5.289275112048093e-19,-0.6797342896461487
267.0,316.0,-0.0568,0.0221,9.2411,-0.0348,0.0176,-0.118,-1.9478584728636683,-0.01662888005375862,3.2796449661254883,-1.6502461433410645,0.00015967291255947202,1.897986650466919,5.128074097424307,-0.0005139680579304695,0.21203312277793884,-1.6209591070758265,0.0001236532989423722,0.0695342868566513,1.5622212886810303,-0.0,0.03110346570611,0.6750425696372986,1.2772978411468295e-24,-0.6700477004051208
267.0,316.0,-0.0568,0.0221,9.2411,-0.0348,0.0176,-0.118,-1.9479543171324671,-0.017449934035539627,3.311929702758789,-1.6502543687820435,0.000146662539918907,1.9179143905639648,5.128069954901495,-0.0004907044349238276,0.21284900605678558,-1.6209915320025843,0.0001142355686170049,0.07293566316366196,1.5621691942214966,-0.0,0.02724221535027027,0.6750144362449646,3.084523695710237e-30,-0.7048931121826172
267.0,316.0,-0.0568,0.0221,9.2411,-0.0348,0.0176,-0.118,-1.9480301342406214,-0.019673878327012062,3.2203786373138428,-1.650221347808838,0.00013561281957663596,1.9176912307739258,5.128114270954885,-0.0005111905047670007,0.19780683517456055,-1.6210029760943812,0.00010615088103804737,0.08968324959278107,1.5622053146362305,-0.0,0.0323629230260849,0.6750466823577881,7.448761309148765e-36,-0.6531370282173157
267.0,316.0,-0.0568,0.0221,9.2411,-0.0348,0.0176,-0.118,-1.948238035241598,-0.02124178223311901,3.2244534492492676,-1.650270938873291,0.0001471186405979097,1.9035571813583374,5.128045844822683,-0.0004792691324837506,0.20202770829200745,-1.6210029760943812,9.913515532389283e-05,0.07566860318183899,1.562193512916565,-0.0,0.03635981306433678,0.6750264167785645,1.7988468386537677e-41,-0.6792313456535339
271.0,312.0,-0.0909,0.1298,9.5169,-0.0428,0.0092,-0.1103,-1.9482737980284632,-0.02281949296593666,3.220310688018799,-1.6501976251602173,0.0001563522091601044,1.9234130382537842,5.128106105118551,-0.0006211721920408309,0.19573186337947845,-1.6210196653949183,9.2989212134853e-05,0.08848249912261963,1.5621774196624756,-0.0,0.017024576663970947,0.6750425696372986,0.0,-0.6638683080673218
271.0,312.0,-0.0909,0.1298,9.5169,-0.0428,0.0092,-0.1103,-1.9484664402403773,-0.024171803146600723,3.1982979774475098,-1.650201678276062,0.00010284294694429263,1.8745505809783936,5.128094243794241,-0.0007321031880564988,0.20315739512443542,-1.6209753195392054,8.756098395679146e-05,0.08314111828804016,1.5621929168701172,-0.0,0.015814676880836487,0.6750628352165222,0.0,-0.6423395872116089
271.0,312.0,-0.0909,0.1298,9.5169,-0.0428,0.0092,-0.1103,-1.948618074456686,-0.026005089282989502,3.189605712890625,-1.650237798690796,0.0001271794899366796,1.8736509084701538,5.128070133715429,-0.001498228288255632,0.1921975314617157,-1.6210029760943812,8.273148705484346e-05,0.08050571382045746,1.562185287475586,-0.0,0.01293829083442688,0.6750264763832092,0.0,-0.6712027788162231
271.0,312.0,-0.0909,0.1298,9.5169,-0.0428,0.0092,-0.1103,-1.9487420521178187,-0.028193209320306778,3.1298725605010986,-1.6501736640930176,0.0009207654511556029,1.8943803310394287,5.128058153181829,-0.0031204712577164173,0.18680712580680847,-1.6210196653949183,7.840702164685354e-05,0.0789685994386673,1.562197208404541,-0.0,0.032160546630620956,0.6750706434249878,0.0,-0.6798063516616821
271.0,312.0,-0.0909,0.1298,9.5169,-0.0428,0.0092,-0.1103,-1.9489017925658167,-0.02992982231080532,3.121241569519043,-1.6501696109771729,0.0013345556799322367,1.876712679862976,5.128034549742498,-0.008355125784873962,0.17934533953666687,-1.621007267628805,7.451200508512557e-05,0.08103376626968384,1.5621893405914307,-0.0,0.019306115806102753,0.6750747561454773,0.0,-0.6076526045799255
271.0,312.0,-0.0909,0.1298,9.5169,-0.0428,0.0092,-0.1103,-1.94909729580068,-0.032163817435503006,3.1657915115356445,-1.6502020359039307,0.0022409209050238132,1.939463496208191,5.127934652357855,-0.015511664561927319,0.1737232506275177,-1.6210029760943812,7.098575588315725e-05,0.06621739268302917,1.5621974468231201,-0.0,0.011745156720280647,0.6750628352165222,0.0,-0.6723894476890564
271.0,312.0,-0.0909,0.1298,9.5169,-0.0428,0.0092,-0.1103,-1.9492975674071253,-0.034478213638067245,3.1106274127960205,-1.6501704454421997,0.003295648144558072,1.9376450777053833,5.127882736712255,-0.010007452219724655,0.17103494703769684,-1.6210153738604944,6.777817179681733e-05,0.06849868595600128,1.5622339248657227,-0.0,0.02691570855677128,0.6751031875610352,0.0,-0.587969958782196
271.0,312.0,-0.0909,0.1298,9.5169,-0.0428,0.0092,-0.1103,-1.9494973621764125,-0.03999685123562813,3.055232524871826,-1.6501383781433105,0.0043333591893315315,1.9109454154968262,5.127854811936178,-0.0031549057457596064,0.18361833691596985,-1.6210716406451624,6.484801269834861e-05,0.06973645091056824,1.562225580215454,6.167756083641507e-08,0.043421246111392975,0.6750665307044983,0.0,-0.5948748588562012
271.0,312.0,-0.0909,0.1298,9.5169,-0.0428,0.0092,-0.1103,-1.949745317498678,-0.04368773475289345,3.0784168243408203,-1.6501103639602661,0.006197870243340731,1.866708755493164,5.127854811936178,-0.00079768878640607,0.16777870059013367,-1.621007267628805,5.05516909470316e-05,0.06558357924222946,1.5622339248657227,1.7168176602577745e-11,0.03075958602130413,0.6750747561454773,0.0,-0.5649911761283875
271.0,312.0,-0.0909,0.1298,9.5169,-0.0428,0.0092,-0.1103,-1.9500414333739222,-0.04767753183841705,3.0663084983825684,-1.6500141620635986,0.00821919646114111,1.9280414581298828,5.127859014063635,-0.00013388045772444457,0.1840594857931137,-1.6210029760943812,4.775002526002936e-05,0.06656244397163391,1.5622575283050537,4.778824363137202e-15,0.03929298371076584,0.6750909090042114,0.0,-0.5998824834823608
271.0,312.0,-0.0909,0.1298,9.5169,-0.0428,0.0092,-0.1103,-1.950325151483053,-0.05213849991559982,3.046842336654663,-1.649954080581665,0.01178149227052927,1.8997200727462769,5.1277986643608,-9.236187906935811e-05,0.16848841309547424,-1.621035401021139,4.592248296830803e-05,0.050696976482868195,1.5621929168701172,1.330203515309667e-18,0.03946792334318161,0.6750908493995667,1.6634901840006933e-05,-0.5360152721405029
271.0,312.0,-0.0909,0.1298,9.5169,-0.0428,0.0092,-0.1103,-1.9506288967528285,-0.05694931373000145,2.9985239505767822,-1.6499063968658447,0.012931633740663528,1.8925143480300903,5.127858984261312,-7.059994095470756e-05,0.17739324271678925,-1.6210115591632288,4.4229847844690084e-05,0.05224127322435379,1.5622894763946533,3.7026707510373455e-22,0.04058150202035904,0.6750785112380981,4.017132460010231e-11,-0.6050041913986206
271.0,312.0,-0.0909,0.1298,9.5169,-0.0428,0.0092,-0.1103,-1.9509841404356898,-0.061624620109796524,2.9693851470947266,-1.6498100757598877,0.015948157757520676,1.9499924182891846,5.127826171904363,-5.714303188142367e-05,0.17244982719421387,-1.6210153738604944,3.203975211363286e-05,0.052023131400346756,1.562253475189209,1.0306520728304589e-25,0.034362662583589554,0.6750422716140747,9.700901585292011e-17,-0.511763334274292
271.0,312.0,-0.0909,0.1298,9.5169,-0.0428,0.0092,-0.1103,-1.9514967403807582,-0.06547408550977707,3.036672830581665,-1.6496742963790894,0.020195843651890755,1.930514931678772,5.127830344229498,-1.1080999229307054e-07,0.16019223630428314,-1.6210034529315394,3.054541957681067e-05,0.048445623368024826,1.5622334480285645,1.8731592758319295e-30,0.032468635588884354,0.6750582456588745,0.0005217042635194957,-0.5696146488189697
269.0,308.0,-0.2142,0.0891,9.2154,-0.0548,-0.0061,-0.1074,-1.951916833917135,-0.06752084195613861,2.9577407836914062,-1.6495375633239746,0.022765636444091797,1.919258952140808,5.127894955664434,-3.0844368725801985e-11,0.16563117504119873,-1.6210234800921839,-1.626618904992938e-05,0.039875876158475876,1.5622732639312744,5.214008048827953e-34,0.036216504871845245,0.6751191020011902,0.0005486676236614585,-0.5547954440116882
269.0,308.0,-0.2142,0.0891,9.2154,-0.0548,-0.0061,-0.1074,-1.9523397884764613,-0.06771448999643326,2.9926085472106934,-1.649341344833374,0.02520500309765339,1.9209659099578857,5.127818751126089,-8.58564284391631e-15,0.16689559817314148,-1.6210315863238733,-2.2274363800534047e-05,0.049646224826574326,1.562317967414856,1.4513384961742249e-37,0.035082947462797165,0.6751311421394348,0.0008331475546583533,-0.5051616430282593
269.0,308.0,-0.2142,0.0891,9.2154,-0.0548,-0.0061,-0.1074,-1.9527837238707484,-0.07298498600721359,2.935574531555176,-1.649214267730713,0.027240626513957977,1.9712761640548706,5.127846646099844,-2.389845764830283e-18,0.16900543868541718,-1.6210029760943812,-2.147884151781909e-05,0.04508116468787193,1.5622613430023193,4.039803342802015e-41,0.04657527804374695,0.6750665307044983,0.0007149696466512978,-0.46825018525123596
269.0,308.0,-0.2142,0.0891,9.2154,-0.0548,-0.0061,-0.1074,-1.9531551800169886,-0.08025193959474564,2.970905065536499,-1.6490455865859985,0.029550472274422646,1.9698933362960815,5.1278708157833,-6.652224452449095e-22,0.15909981727600098,-1.6210396925555628,-2.5848636141745374e-05,0.03471177816390991,1.562241554260254,1.1210387714598537e-44,0.04849369078874588,0.6750707030296326,0.0005202809697948396,-0.44922393560409546
269.0,308.0,-0.2142,0.0891,9.2154,-0.0548,-0.0061,-0.1074,-1.9536587200560511,-0.0857669934630394,2.9847869873046875,-1.6488661766052246,0.03323279693722725,1.973736047744751,5.127850729018011,-1.8516708928528052e-25,0.16741275787353516,-1.6210678259478968,-3.00642495858483e-05,0.03471820801496506,1.5622215270996094,0.0,0.033145658671855927,0.6751149892807007,0.000463491101982072,-0.4599115252494812
269.0,308.0,-0.2142,0.0891,9.2154,-0.0548,-0.0061,-0.1074,-1.954130312005514,-0.08490727096796036,3.0295286178588867,-1.6486177444458008,0.036943838000297546,1.9995734691619873,5.127870428353109,-5.15419418017478e-29,0.17679302394390106,-1.6210592428790491,-6.42530153527332e-08,0.026780320331454277,1.56221342086792,0.00011483934940770268,0.03758707270026207,0.6750785112380981,0.0003685621195472777,-0.43415671586990356
269.0,308.0,-0.2142,0.0891,9.2154,-0.0548,-0.0061,-0.1074,-1.9546381435790003,-0.08439180999994278,2.9972755908966064,-1.6483898162841797,0.042026638984680176,2.054373264312744,5.127870428353109,-1.4346889450002818e-32,0.1846817135810852,-1.6210272947894495,-1.7885064956812968e-11,0.028298895806074142,1.5622293949127197,0.00010735017713159323,0.04512069374322891,0.6750665307044983,0.0003059128066524863,-0.4701225757598877
269.0,308.0,-0.2142,0.0891,9.2154,-0.0548,-0.0061,-0.1074,-1.9551941357054652,-0.08087916672229767,3.018477201461792,-1.6481261253356934,0.046623457223176956,2.0375754833221436,5.127890813141622,-3.993509239586665e-36,0.19022807478904724,-1.6210115591632288,-4.9783734670490534e-15,0.026547880843281746,1.5622694492340088,0.00010018043394666165,0.0464852936565876,0.6751149892807007,0.000261470238910988,-0.46770161390304565
269.0,308.0,-0.2142,0.0891,9.2154,-0.0548,-0.0061,-0.1074,-1.955641885797018,-0.07813118398189545,3.034010171890259,-1.6478462219238281,0.052151553332805634,2.056344747543335,5.127890813141622,-1.1116080327949476e-39,0.19323572516441345,-1.6210477987872522,-1.3857486934426027e-18,0.03325054049491882,1.5622572898864746,9.390832565259188e-05,0.04755015671253204,0.6750948429107666,0.00022830427042208612,-0.4985504448413849
269.0,308.0,-0.2142,0.0891,9.2154,-0.0548,-0.0061,-0.1074,-1.9561292133727015,-0.08127766102552414,3.059772253036499,-1.6475180387496948,0.05404854193329811,2.0742928981781006,5.127854811936178,-3.0968696061578457e-43,0.18736901879310608,-1.6210435072528284,-3.85728269218636e-22,0.028770774602890015,1.5622732639312744,0.00010487307008588687,0.04700947180390358,0.6750662326812744,0.00020260528253857046,-0.44445109367370605
269.0,308.0,-0.2142,0.0891,9.2154,-0.0548,-0.0061,-0.1074,-1.9566570721068324,-0.08567637205123901,3.0566792488098145,-1.6471331119537354,0.056084584444761276,2.0725762844085693,5.127890962153234,-0.0,0.17969432473182678,-1.6210516134845179,-1.073688872552857e-25,0.03023267537355423,1.5622453689575195,0.00010014936560764909,0.05472918599843979,0.675062358379364,0.00021245253446977586,-0.4448566436767578
269.0,308.0,-0.2142,0.0891,9.2154,-0.0548,-0.0061,-0.1074,-1.9571243725218714,-0.08757585287094116,3.067873001098633,-1.6468067169189453,0.061109062284231186,2.082554578781128,5.1278708157833,-0.0,0.17924487590789795,-1.6210396925555628,-2.9886520691690364e-29,0.021192826330661774,1.5622215270996094,9.487104398431256e-05,0.048944808542728424,0.6750624179840088,0.0001929380086949095,-0.4210178256034851
269.0,308.0,-0.2142,0.0891,9.2154,-0.0548,-0.0061,-0.1074,-1.957604547540182,-0.08394283056259155,3.02897310256958,-1.6464145183563232,0.06859929114580154,2.1205945014953613,5.127894985466757,-0.0,0.19068101048469543,-1.6210272947894495,-8.31902274459527e-33,0.026330459862947464,1.5622572898864746,9.012100781546906e-05,0.05010756105184555,0.6750909090042114,0.00020194592070765793,-0.41741520166397095
269.0,308.0,-0.2142,0.0891,9.2154,-0.0548,-0.0061,-0.1074,-1.9580799541869105,-0.08279401808977127,3.101076602935791,-1.6459381580352783,0.07576677948236465,2.1136717796325684,5.127902734070577,-0.0,0.17781032621860504,-1.6210559050189417,-2.315630600694121e-36,0.03683744743466377,1.5622895956039429,8.582395821576938e-05,0.04513193666934967,0.6750907301902771,0.00018627253302838653,-0.44955360889434814
269.0,308.0,-0.2142,0.0891,9.2154,-0.0548,-0.0061,-0.1074,-1.958571573297018,-0.08248990774154663,3.066145181655884,-1.6454941034317017,0.0810544490814209,2.1299850940704346,5.127882647305288,-0.0,0.18520265817642212,-1.6210396925555628,-6.4456366242627206e-40,0.042477212846279144,1.5622855424880981,8.191809320123866e-05,0.05349038541316986,0.6750785112380981,0.00017285638023167849,-0.4609794318675995
281.0,346.0,-0.1089,-0.527,9.9129,-0.0808,0.005,-0.1122,-1.9591037235655726,-0.08375418186187744,3.0803110599517822,-1.6449460983276367,0.08606705069541931,2.1252121925354004,5.127922850638189,8.617128332844004e-05,0.18171563744544983,-1.6210272947894495,-1.793662034335766e-43,0.04094649478793144,1.5622732639312744,9.139614121522754e-05,0.0462387278676033,0.6750909090042114,0.00016124334069900215,-0.5461605787277222
281.0,346.0,-0.1089,-0.527,9.9129,-0.0808,0.005,-0.1122,-1.95959534267568,-0.08469057828187943,3.0779175758361816,-1.6444543600082397,0.09296198189258575,2.14923357963562,5.127910572081365,0.00014014268526807427,0.19593849778175354,-1.6210315863238733,-0.0,0.044256627559661865,1.5622572898864746,8.759784395806491e-05,0.050401199609041214,0.6751311421394348,0.00015109215746633708,-0.4798662066459656
281.0,346.0,-0.1089,-0.527,9.9129,-0.0808,0.005,-0.1122,-1.9601026974120082,-0.08272551745176315,3.0867886543273926,-1.6438220739364624,0.10388877242803574,2.161534309387207,5.127902346640386,0.00014113870565779507,0.20152458548545837,-1.6210592428790491,-0.0,0.03289439529180527,1.5622494220733643,8.409014844801277e-05,0.04628654196858406,0.6751188039779663,0.00010487774852663279,-0.48208409547805786
281.0,346.0,-0.1089,-0.527,9.9129,-0.0808,0.005,-0.1122,-1.9607540569701136,-0.08408021181821823,3.095426082611084,-1.6429704427719116,0.11658348143100739,2.1585514545440674,5.1278826771076105,0.00012778217205777764,0.1900896430015564,-1.62101918855776,-0.0,0.02651320770382881,1.5622092485427856,7.982801616890356e-05,0.04916989058256149,0.6751229763031006,0.00012630806304514408,-0.46845465898513794
281.0,346.0,-0.1089,-0.527,9.9129,-0.0808,0.005,-0.1122,-1.9612895450987757,-0.08554558455944061,3.1262364387512207,-1.6422384977340698,0.12648674845695496,2.1421706676483154,5.127906846791067,0.00011931188055314124,0.19346004724502563,-1.6210592428790491,-0.0,0.035717982798814774,1.5622892379760742,7.690467464271933e-05,0.04418986290693283,0.6751551032066345,0.0006899226573295891,-0.4139330983161926
281.0,346.0,-0.1089,-0.527,9.9129,-0.0808,0.005,-0.1122,-1.9617968998351039,-0.0823979452252388,3.13676381111145,-1.6414748430252075,0.1379399299621582,2.200284481048584,5.127903151303091,0.0001118947911891155,0.19489836692810059,-1.6210358778582972,-0.0,0.033191703259944916,1.5622813701629639,7.418775203404948e-05,0.05062614008784294,0.6751348376274109,0.0015553112607449293,-0.4555474817752838
281.0,346.0,-0.1089,-0.527,9.9129,-0.0808,0.005,-0.1122,-1.9622675381102503,-0.07916878908872604,3.1512160301208496,-1.640599012374878,0.14385665953159332,2.244070053100586,5.127882647305288,0.0001053459636750631,0.19598042964935303,-1.6210315863238733,-0.0,0.031813278794288635,1.5621967315673828,8.180492295650765e-05,0.05349399521946907,0.675142765045166,0.0022626968566328287,-0.42015087604522705
281.0,346.0,-0.1089,-0.527,9.9129,-0.0808,0.005,-0.1122,-1.9627472362914027,-0.07645628601312637,3.125091552734375,-1.6397918462753296,0.14578595757484436,2.1464202404022217,5.1279068169887445,8.295334555441514e-05,0.19388192892074585,-1.6210153738604944,-0.0,0.02814541757106781,1.5622773170471191,2.034707722486928e-05,0.049461789429187775,0.6751465797424316,0.003464149311184883,-0.434711217880249
281.0,346.0,-0.1089,-0.527,9.9129,-0.0808,0.005,-0.1122,-1.9632545910277308,-0.07859645783901215,3.124509811401367,-1.6388190984725952,0.14550308883190155,2.1751513481140137,5.127882736712255,7.858918252168223e-05,0.1859464943408966,-1.6210396925555628,-0.0,0.01776244305074215,1.562253475189209,5.663683744216996e-09,0.061079759150743484,0.6752272844314575,0.004423646721988916,-0.4270576238632202
281.0,346.0,-0.1089,-0.527,9.9129,-0.0808,0.005,-0.1122,-1.9636732540526332,-0.08183165639638901,3.121159076690674,-1.6379467248916626,0.15427447855472565,2.1907269954681396,5.127922820835867,7.467666000593454e-05,0.1814735233783722,-1.6210358778582972,-0.0,0.04043017327785492,1.5622855424880981,1.5765072624088217e-12,0.06178658455610275,0.6752752661705017,0.005856163799762726,-0.40574878454208374
281.0,346.0,-0.1089,-0.527,9.9129,-0.0808,0.005,-0.1122,-1.9642135105528773,-0.08609902858734131,3.1158864498138428,-1.636942982673645,0.16381242871284485,2.2237021923065186,5.127830344229498,7.113525498425588e-05,0.20036271214485168,-1.6210554281817835,-0.0,0.02556012198328972,1.562205195426941,4.3882656767899205e-16,0.06485725194215775,0.6752629280090332,0.006387346424162388,-0.4645409882068634
281.0,346.0,-0.1089,-0.527,9.9129,-0.0808,0.005,-0.1122,-1.9647366009154261,-0.09386143088340759,3.1194610595703125,-1.6359189748764038,0.1734408736228943,2.218258857727051,5.127862620144644,6.791447958676144e-05,0.18586021661758423,-1.6210592428790491,-0.0,0.020781032741069794,1.5622572898864746,6.846890755696222e-05,0.04518157243728638,0.6752906441688538,0.006956364959478378,-0.39221468567848206
281.0,346.0,-0.1089,-0.527,9.9129,-0.0808,0.005,-0.1122,-1.965299745599264,-0.09916602075099945,3.0688905715942383,-1.6348676681518555,0.18092098832130432,2.2431039810180664,5.127886730223455,6.497275171568617e-05,0.18650521337985992,-1.621063534413473,-5.439523374661803e-05,0.022944625467061996,1.5622572898864746,6.555014260811731e-05,0.04870031028985977,0.6753912568092346,0.00786116998642683,-0.432378888130188
281.0,346.0,-0.1089,-0.527,9.9129,-0.0808,0.005,-0.1122,-1.965914865533346,-0.09888049215078354,3.1503124237060547,-1.6337075233459473,0.19403640925884247,2.2548718452453613,5.127902734070577,7.472674769815058e-05,0.17624399065971375,-1.6210592428790491,-5.251329639577307e-05,0.01978757046163082,1.5622532367706299,6.280557136051357e-05,0.054939307272434235,0.6753829717636108,0.00826084241271019,-0.4197826385498047
281.0,346.0,-0.1089,-0.527,9.9129,-0.0808,0.005,-0.1122,-1.966506143609518,-0.09513112902641296,3.1365275382995605,-1.6325316429138184,0.20840668678283691,2.263408899307251,5.127890842943945,7.175142673077062e-05,0.18696461617946625,-1.6210234800921839,-6.0862086684210226e-05,0.022547468543052673,1.5622892379760742,6.028151256032288e-05,0.0541185662150383,0.6754670143127441,0.009302094578742981,-0.40756726264953613
290.0,326.0,-0.4128,0.2638,9.2279,0.0254,0.0794,-0.1136,-1.9671293697752894,-0.09362011402845383,3.135692834854126,-1.63131582736969,0.2193971574306488,2.3170337677001953,5.127850729018011,4.8983634769683704e-05,0.1773459017276764,-1.6210835615741175,-2.2562196591024986e-06,0.026005243882536888,1.562325358390808,5.7952605857281014e-05,0.06481117010116577,0.675503134727478,0.010127303190529346,-0.41600120067596436
290.0,326.0,-0.4128,0.2638,9.2279,0.0254,0.0794,-0.1136,-1.967787881890768,-0.09575164318084717,3.134002685546875,-1.6300004720687866,0.22526375949382782,2.288935422897339,5.127911346941747,3.359888796694577e-05,0.17760318517684937,-1.6210034529315394,-6.280269082559187e-10,0.02079484425485134,1.5622692108154297,5.5796852393541485e-05,0.048807479441165924,0.675615668296814,0.011132310144603252,-0.410755455493927
290.0,326.0,-0.4128,0.2638,9.2279,0.0254,0.0794,-0.1136,-1.9684068165221156,-0.10536263138055801,3.1050896644592285,-1.6286123991012573,0.22232237458229065,2.3188514709472656,5.12785895445899,-4.7133362386375666e-05,0.17625674605369568,-1.6210716406451624,-1.7481360055273537e-13,0.04165458679199219,1.5622572898864746,5.3795749408891425e-05,0.05798472464084625,0.6756350994110107,0.011538981460034847,-0.419352263212204
290.0,326.0,-0.4128,0.2638,9.2279,0.0254,0.0794,-0.1136,-1.9690538845457972,-0.11883261054754257,3.132429599761963,-1.6271519660949707,0.2262544333934784,2.2144665718078613,5.127834397345342,-4.891775824944489e-05,0.1782713532447815,-1.6209948698626917,-4.8660004646730224e-17,0.02593427337706089,1.562253475189209,5.19332243129611e-05,0.0672512874007225,0.6757035255432129,0.010405930690467358,-0.4121589660644531
290.0,326.0,-0.4128,0.2638,9.2279,0.0254,0.0794,-0.1136,-1.9697891674437464,-0.1293373554944992,3.081087112426758,-1.625816822052002,0.23445124924182892,2.294020891189575,5.127886879235067,-4.639714825316332e-05,0.18230074644088745,-1.6210554281817835,-1.3544692366262993e-20,0.015496140345931053,1.5622494220733643,5.01953654747922e-05,0.056708939373493195,0.6757151484489441,0.009506925009191036,-0.4394323229789734
290.0,326.0,-0.4128,0.2638,9.2279,0.0254,0.0794,-0.1136,-1.9705401859679164,-0.13216379284858704,3.0901198387145996,-1.6243007183074951,0.24394164979457855,2.274458408355713,5.1278424737747095,-3.133820428047329e-05,0.17874453961849213,-1.6210716406451624,-3.770215151666813e-24,0.01817326247692108,1.5622692108154297,1.0727098498364285e-07,0.044728755950927734,0.6758077144622803,0.007608150597661734,-0.4107924699783325
290.0,326.0,-0.4128,0.2638,9.2279,0.0254,0.0794,-0.1136,-1.9713026485838832,-0.13001912832260132,3.1025731563568115,-1.6228379011154175,0.2521192729473114,2.267709732055664,5.127890813141622,-7.176808139774948e-06,0.18545536696910858,-1.6210554281817835,-1.0494530933922044e-27,0.018628757447004318,1.5622411966323853,2.985927824439294e-11,0.0644696056842804,0.6758513450622559,0.00699330260977149,-0.4243013858795166
290.0,326.0,-0.4128,0.2638,9.2279,0.0254,0.0794,-0.1136,-1.972400804559225,-0.12513186037540436,3.145627975463867,-1.6207294464111328,0.2721177339553833,2.3680968284606934,5.127910601883688,-1.3043494062614513e-10,0.18506573140621185,-1.6210554281817835,-8.167947817128152e-05,0.021251562982797623,1.5622938871383667,5.426776509820364e-16,0.0432836152613163,0.6759275794029236,0.009556476026773453,-0.4358052611351013
290.0,326.0,-0.4128,0.2638,9.2279,0.0254,0.0794,-0.1136,-1.9731995067992152,-0.11810653656721115,3.140002965927124,-1.6190935373306274,0.2817358672618866,2.426570177078247,5.127842533379354,-3.63070440682553e-14,0.1829877495765686,-1.6210311094867151,-0.00014728486712556332,0.014904885552823544,1.5622937679290771,1.5105629841971006e-19,0.04784940928220749,0.6759954690933228,0.011452068574726582,-0.3703855276107788
290.0,326.0,-0.4128,0.2638,9.2279,0.0254,0.0794,-0.1136,-1.9740344486632289,-0.12679460644721985,3.158700466156006,-1.6174259185791016,0.2793020009994507,2.3718361854553223,5.127826976567068,-0.0018824657890945673,0.1736624836921692,-1.6210315863238733,-0.00013652238703798503,0.006293497048318386,1.5622613430023193,4.204707826462877e-23,0.0568041056394577,0.6760839819908142,0.013362230733036995,-0.34573066234588623
290.0,326.0,-0.4128,0.2638,9.2279,0.0254,0.0794,-0.1136,-1.9748975239195765,-0.1455117166042328,3.121772289276123,-1.615770697593689,0.27720654010772705,2.4017772674560547,5.127799051790991,-0.003965447656810284,0.16273504495620728,-1.6210554281817835,-0.00012689751747529954,0.014202985912561417,1.562329888343811,1.1703957931470874e-26,0.05570210516452789,0.6761035919189453,0.013473814353346825,-0.3235958218574524
290.0,326.0,-0.4128,0.2638,9.2279,0.0254,0.0794,-0.1136,-1.975800176660055,-0.16385482251644135,3.0758228302001953,-1.6140629053115845,0.2784960865974426,2.3290350437164307,5.127791273384847,-0.0036273577716201544,0.164589062333107,-1.6210516134845179,-0.00011854014155687764,0.016082074493169785,1.5622211694717407,3.257839899349148e-30,0.03836602717638016,0.6761919260025024,0.011770782992243767,-0.3774816393852234
290.0,326.0,-0.4128,0.2638,9.2279,0.0254,0.0794,-0.1136,-1.9767066440977992,-0.16796691715717316,3.0766234397888184,-1.612423300743103,0.28565090894699097,2.349417209625244,5.127742814808645,-0.0015750566963106394,0.1605353057384491,-1.6210554281817835,-0.00011121574061689898,0.01537469681352377,1.5623055696487427,9.068317190284959e-34,0.053933508694171906,0.6762721538543701,0.009102354757487774,-0.395178884267807
290.0,326.0,-0.4128,0.2638,9.2279,0.0254,0.0794,-0.1136,-1.9776693783202113,-0.1620716005563736,3.019685745239258,-1.6106634140014648,0.29668036103248596,2.371690273284912,5.127778965025701,-0.0006120787584222853,0.16414344310760498,-1.6210358778582972,-0.00010474389273440465,0.021651998162269592,1.5622494220733643,2.52419950539182e-37,0.05115973949432373,0.6763119101524353,0.007090265862643719,-0.40019553899765015
290.0,326.0,-0.4128,0.2638,9.2279,0.0254,0.0794,-0.1136,-1.978579660455221,-0.15076734125614166,3.1418237686157227,-1.6088389158248901,0.30672740936279297,2.4386606216430664,5.127799021988668,-0.00030750405858270824,0.14738908410072327,-1.6210554281817835,-9.898373536998406e-05,0.030053935945034027,1.5622732639312744,7.026250629971065e-41,0.046771638095378876,0.6763802766799927,0.007498122751712799,-0.41946229338645935
269.0,321.0,0.064,-0.9978,9.1364,-0.0476,0.1069,-0.1413,-1.9795705280699671,-0.14478011429309845,3.0786027908325195,-1.6070476770401,0.31521308422088623,2.3698503971099854,5.127839582949438,-0.0002635401615407318,0.17601743340492249,-1.6210954825030726,-9.382423741044477e-05,0.021999400109052658,1.5622453689575195,1.961817850054744e-44,0.032151639461517334,0.6764684319496155,0.0090462202206254,-0.3913350999355316
269.0,321.0,0.064,-0.9978,9.1364,-0.0476,0.1069,-0.1413,-1.9805170498290003,-0.14681071043014526,3.114339828491211,-1.6052117347717285,0.32358941435813904,2.430006504058838,5.127755212574758,-0.00012976268772035837,0.16422824561595917,-1.6210630575763147,-8.917585364542902e-05,0.02330027148127556,1.5622293949127197,0.0,0.059122323989868164,0.676439642906189,0.011149957776069641,-0.4034019708633423
269.0,321.0,0.064,-0.9978,9.1364,-0.0476,0.1069,-0.1413,-1.9814468822874964,-0.1647128164768219,3.085165023803711,-1.6032769680023193,0.3164908289909363,2.38189697265625,5.127703118115225,-0.005052526481449604,0.16310982406139374,-1.6210315863238733,-8.496645750710741e-05,0.01919667422771454,1.562188982963562,0.0,0.028610993176698685,0.676535964012146,0.011488206684589386,-0.4171687960624695
