ramyac6/ROB537/final_project/csv/all/bad_40.csv
tof_0,tof_1,accelx,accely,accelz,gyrox,gyroy,gyroz,shoulder_lift_joint_position,shoulder_lift_joint_velocity,shoulder_lift_joint_effort,elbow_joint_position,elbow_joint_velocity,elbow_joint_effort,wrist_1_joint_position,wrist_1_joint_velocity,wrist_1_joint_effort,wrist_2_joint_position,wrist_2_joint_velocity,wrist_2_joint_effort,wrist_3_joint_position,wrist_3_joint_velocity,wrist_3_joint_effort,shoulder_pan_joint_position,shoulder_pan_joint_velocity,shoulder_pan_joint_effort
337.0,589.0,2.7356,1.2837,8.7829,-0.0362,0.0188,-0.1119,-1.7600633106627406,0.0,2.897345542907715,-1.6930125951766968,-0.0,2.1306066513061523,4.7107578951069335,-7.509186313552159e-20,0.2870325446128845,-1.4034536520587366,-0.0,-0.018085714429616928,0.007419671397656202,-0.0,0.0022113954182714224,1.2398097515106201,0.0,0.0008410526206716895
337.0,589.0,2.7356,1.2837,8.7829,-0.0362,0.0188,-0.1119,-1.7600394688048304,0.0,2.8885250091552734,-1.6930011510849,-0.0,2.104703426361084,4.710749788875244,-3.2012836338888436e-22,0.2889304757118225,-1.4034412542926233,-0.0,-0.021911513060331345,0.007451655343174934,-0.0,-0.002928219735622406,1.2397897243499756,0.0,0.00553711224347353
337.0,589.0,2.7356,1.2837,8.7829,-0.0362,0.0188,-0.1119,-1.7600232563414515,0.0,2.8853392601013184,-1.6929848194122314,-0.0,2.095860481262207,4.710712595576904,-8.910891434095698e-26,0.27710089087486267,-1.4034774939166468,-0.0,-0.024757012724876404,0.007415594533085823,-0.0,0.0014530160697177052,1.2397655248641968,0.0,0.011688305996358395
337.0,589.0,2.7356,1.2837,8.7829,-0.0362,0.0188,-0.1119,-1.7600437603392542,0.0,2.912064552307129,-1.6930125951766968,-0.0,2.0942625999450684,4.71074549734082,-3.798852759656345e-28,0.27495554089546204,-1.4034536520587366,-0.0,-0.02202613279223442,0.00749229546636343,-0.0,-0.006305881775915623,1.2398295402526855,0.0,-0.007985337637364864
337.0,589.0,2.7356,1.2837,8.7829,-0.0362,0.0188,-0.1119,-1.7600232563414515,0.0,2.9121594429016113,-1.6929569244384766,-0.0,2.096092700958252,4.710761709804199,-1.0574246419403848e-31,0.29472076892852783,-1.4034374395953577,-0.0,-0.026689058169722557,0.007492279168218374,-0.0,-0.013606584630906582,1.2398056983947754,0.0,-0.000105331651866436
337.0,589.0,2.7356,1.2837,8.7829,-0.0362,0.0188,-0.1119,-1.7600394688048304,0.0,2.890293598175049,-1.6930125951766968,-0.0,2.1191415786743164,4.71075360357251,-2.943380457273909e-35,0.2900785803794861,-1.4034693876849573,-0.0,-0.02784520573914051,0.007439799606800079,-0.0,-0.009988965466618538,1.239881992340088,0.0,0.0377037413418293
337.0,589.0,2.7356,1.2837,8.7829,-0.0362,0.0188,-0.1119,-1.7600232563414515,0.0,2.9212589263916016,-1.6929848194122314,-0.0,2.111698865890503,4.710728808040283,-1.2548094133573522e-37,0.2863353192806244,-1.403449837361471,-0.0,-0.0341712050139904,0.007512276992201805,-0.0,-0.005602244287729263,1.2398173809051514,0.0,0.029805785045027733
337.0,589.0,2.7356,1.2837,8.7829,-0.0362,0.0188,-0.1119,-1.7600275478758753,0.0,2.896618604660034,-1.693000316619873,-0.0,2.1090168952941895,4.710689230556152,-3.492876552176039e-41,0.2875896394252777,-1.4034493605243128,-0.0,-0.03441762924194336,0.0074275401420891285,-0.0,0.0015596114099025726,1.2397533655166626,0.0,0.010578326880931854
337.0,589.0,2.7356,1.2837,8.7829,-0.0362,0.0188,-0.1119,-1.7600838146605433,0.0,2.875941514968872,-1.693000316619873,-0.0,2.1448943614959717,4.710688753718994,-9.80908925027372e-45,0.2855484187602997,-1.4034536520587366,-0.0,-0.026180325075984,0.007415594533085823,-0.0,-7.540266960859299e-05,1.239837408065796,0.0,0.007234645541757345
315.0,548.0,2.6327,1.2694,8.9677,-0.0312,0.0218,-0.1164,-1.7600399456419886,0.0,2.913674831390381,-1.6930290460586548,-0.0,2.051427125930786,4.710728808040283,-0.0,0.29925450682640076,-1.4034331480609339,-0.0,-0.02826699987053871,0.007467985153198242,-0.0,-0.005088726058602333,1.2398173809051514,0.0,0.005149931646883488
315.0,548.0,2.6327,1.2694,8.9677,-0.0312,0.0218,-0.1164,-1.760015150109762,0.0,2.896012544631958,-1.692940354347229,-0.0,2.117030620574951,4.710733099574707,-0.0,0.2773279845714569,-1.4034174124347132,-0.0,-0.030984099954366684,0.007451667450368404,-0.0,0.008601517416536808,1.2398133277893066,0.0,0.0003659650683403015
315.0,548.0,2.6327,1.2694,8.9677,-0.0312,0.0218,-0.1164,-1.7600475750365199,0.0,2.920693874359131,-1.6929444074630737,-0.0,2.106177568435669,4.710777922267578,-0.0,0.2859947383403778,-1.4034298102008265,-0.0,-0.02234353870153427,0.007488141767680645,-0.0,0.008079038001596928,1.2397937774658203,0.0,-0.019166374579072
315.0,548.0,2.6327,1.2694,8.9677,-0.0312,0.0218,-0.1164,-1.760019441644186,0.0,2.9421725273132324,-1.6930168867111206,-0.0,2.0729618072509766,4.710754080409668,-0.0,0.2863107919692993,-1.4034341017352503,-0.0,-0.0408509336411953,0.007439828012138605,-0.0,-0.009021712467074394,1.2398295402526855,0.0,0.000757827889174223
315.0,548.0,2.6327,1.2694,8.9677,-0.0312,0.0218,-0.1164,-1.7600351772704066,0.0,2.9174790382385254,-1.692920207977295,-0.0,2.0717456340789795,4.710761709804199,-0.0,0.29029345512390137,-1.40348989168276,-0.0,-0.002477465197443962,0.007447590120136738,-0.0,-0.01225352007895708,1.2398254871368408,0.0,-0.018071193248033524
315.0,548.0,2.6327,1.2694,8.9677,-0.0312,0.0218,-0.1164,-1.7600232563414515,0.0,2.9334464073181152,-1.6929484605789185,-0.0,2.087646007537842,4.710765524501465,-0.0,0.2870091497898102,-1.4034259955035608,-0.0,-0.034605663269758224,0.007423830218613148,-0.0,-0.0014792797155678272,1.239821434020996,0.0,0.03770587220788002
315.0,548.0,2.6327,1.2694,8.9677,-0.0312,0.0218,-0.1164,-1.7599951229491175,0.0,2.8842992782592773,-1.692976474761963,-0.0,2.089592695236206,4.710765524501465,-0.0,0.28853780031204224,-1.4034579435931605,-0.0,-0.016744980588555336,0.00742789451032877,-0.0,0.0031988024711608887,1.2398254871368408,0.0,0.02558598481118679
315.0,548.0,2.6327,1.2694,8.9677,-0.0312,0.0218,-0.1164,-1.7600318394102992,0.0,2.909637451171875,-1.6929444074630737,-0.0,2.0940513610839844,4.710757418269775,-0.0,0.2733815908432007,-1.4034374395953577,-0.0,-0.02965191937983036,0.007492210250347853,-0.0,-0.00023824209347367287,1.2397937774658203,0.0,0.017442379146814346
315.0,548.0,2.6327,1.2694,8.9677,-0.0312,0.0218,-0.1164,-1.760087629357809,0.0,2.887700080871582,-1.6929569244384766,-0.0,2.0943260192871094,4.7107130724140625,-0.0,0.28948974609375,-1.4034579435931605,-0.0,-0.021673288196325302,0.007439828012138605,-0.0,0.0008986948523670435,1.2397979497909546,0.0,0.013379263691604137
315.0,548.0,2.6327,1.2694,8.9677,-0.0312,0.0218,-0.1164,-1.759987016717428,0.0,2.9355461597442627,-1.6929609775543213,-0.0,2.0781338214874268,4.710737391109131,-0.0,0.2828928232192993,-1.403449837361471,-0.0,-0.02980596199631691,0.00743566919118166,-0.0,-0.012799433432519436,1.239761471748352,0.0,0.03145710751414299
315.0,548.0,2.6327,1.2694,8.9677,-0.0312,0.0218,-0.1164,-1.7600108585753382,0.0,2.884701728820801,-1.693000316619873,-0.0,2.110356330871582,4.7107860284992675,-0.0,0.27505114674568176,-1.4035099188434046,-0.0,-0.03637013956904411,0.007476220838725567,-0.0,-0.01109592616558075,1.2398173809051514,0.0,-0.026634760200977325
315.0,548.0,2.6327,1.2694,8.9677,-0.0312,0.0218,-0.1164,-1.7600275478758753,0.0,2.9308977127075195,-1.6929569244384766,-0.0,2.113722562789917,4.710749788875244,-0.0,0.27755680680274963,-1.4034374395953577,-0.0,-0.0321463942527771,0.00747213140130043,-0.0,-0.014682644978165627,1.2397856712341309,0.0,-0.030582232400774956
315.0,548.0,2.6327,1.2694,8.9677,-0.0312,0.0218,-0.1164,-1.7600437603392542,0.0,2.921419620513916,-1.693000316619873,-0.0,2.058623790740967,4.7107578951069335,-0.0,0.2842184007167816,-1.403421703969137,-0.0,-0.032620079815387726,0.007435645442456007,-0.0,0.0021567423827946186,1.2397856712341309,0.0,-0.009230108000338078
315.0,548.0,2.6327,1.2694,8.9677,-0.0312,0.0218,-0.1164,-1.7600275478758753,0.0,2.902923345565796,-1.6929528713226318,-0.0,2.1080482006073,4.710765524501465,-0.0,0.2735052704811096,-1.4034622351275843,-0.0,-0.03451075777411461,0.007415675092488527,-0.0,-0.015690743923187256,1.2397937774658203,0.0,-0.02224210649728775
315.0,548.0,2.6327,1.2694,8.9677,-0.0312,0.0218,-0.1164,-1.7600108585753382,0.0,2.9229674339294434,-1.6929887533187866,-0.0,2.1396288871765137,4.710761709804199,-0.0,0.29045718908309937,-1.4034536520587366,-0.0,-0.03135031461715698,0.007451655343174934,-0.0,-0.0038700979202985764,1.2397897243499756,0.0,0.006896700710058212
315.0,548.0,2.6327,1.2694,8.9677,-0.0312,0.0218,-0.1164,-1.7600676021971644,0.0,2.884514331817627,-1.6930127143859863,-0.0,2.1181304454803467,4.710769816035889,-0.0,0.2852688431739807,-1.4034736792193812,-0.0,-0.028059255331754684,0.007447582203894854,-0.0,-0.00913565419614315,1.2398091554641724,0.0,-0.023218641057610512
315.0,548.0,2.6327,1.2694,8.9677,-0.0312,0.0218,-0.1164,-1.7600676021971644,0.0,2.9489850997924805,-1.692976474761963,-0.0,2.067387104034424,4.710773153895996,-0.0,0.2816145420074463,-1.4034579435931605,-0.0,-0.03902352228760719,0.00740785663947463,-0.0,-0.011861899867653847,1.2397733926773071,0.0,0.023491311818361282
315.0,548.0,2.6327,1.2694,8.9677,-0.0312,0.0218,-0.1164,-1.7599946461119593,0.0,2.907677173614502,-1.693000316619873,-0.0,2.109222888946533,4.71075360357251,-0.0,0.272601842880249,-1.4034579435931605,-0.0,-0.037566158920526505,0.007471768651157618,-0.0,-0.005258562974631786,1.2397897243499756,0.0,-0.023634526878595352
314.0,597.0,2.6853,1.2897,8.8863,-0.0412,0.0286,-0.1197,-1.7600351772704066,0.0,2.880021572113037,-1.6929484605789185,-0.0,2.084908962249756,4.71074549734082,-0.0,0.2878553867340088,-1.4034374395953577,-0.0,-0.02756948210299015,0.007439815904945135,-0.0,-0.001249717315658927,1.2397656440734863,0.0,0.00950072705745697
314.0,597.0,2.6853,1.2897,8.8863,-0.0412,0.0286,-0.1197,-1.7600437603392542,0.0,2.8948311805725098,-1.6929486989974976,-0.0,2.1037979125976562,4.7107531267353515,-0.0,0.29086554050445557,-1.4034817854510706,-0.0,-0.02418190985918045,0.007459927350282669,-0.0,-0.0023538991808891296,1.2398016452789307,0.0,-0.0036426279693841934
314.0,597.0,2.6853,1.2897,8.8863,-0.0412,0.0286,-0.1197,-1.7600108585753382,0.0,2.9422223567962646,-1.6930166482925415,-0.0,2.096465587615967,4.710728808040283,-0.0,0.2854776978492737,-1.4034536520587366,-0.0,-0.029917631298303604,0.007427907083183527,-0.0,0.002256221603602171,1.2398455142974854,0.0,-0.01333076786249876
314.0,597.0,2.6853,1.2897,8.8863,-0.0412,0.0286,-0.1197,-1.76007141689443,0.0,2.9379074573516846,-1.6930570602416992,-0.0,2.1193623542785645,4.710749788875244,-0.0,0.2836044728755951,-1.4034331480609339,-0.0,-0.0306086502969265,0.007423830218613148,-0.0,0.0005623708129860461,1.2398414611816406,0.0,-0.0054805688560009
314.0,597.0,2.6853,1.2897,8.8863,-0.0412,0.0286,-0.1197,-1.7600232563414515,0.0,2.907809257507324,-1.69293212890625,-0.0,2.096933126449585,4.710716887111328,-0.0,0.2774444818496704,-1.40346604982485,-0.0,-0.02745172195136547,0.00743566919118166,-0.0,-0.017137940973043442,1.2397775650024414,0.0,0.04837996885180473
314.0,597.0,2.6853,1.2897,8.8863,-0.0412,0.0286,-0.1197,-1.7600475750365199,0.0,2.866666078567505,-1.6929445266723633,-0.0,2.1057753562927246,4.710765524501465,-0.0,0.2972087264060974,-1.40348989168276,-0.0,-0.03152241185307503,0.007439832203090191,-0.0,0.0014672739198431373,1.2397897243499756,0.0,0.014932521618902683
314.0,597.0,2.6853,1.2897,8.8863,-0.0412,0.0286,-0.1197,-1.7600838146605433,0.0,2.9400250911712646,-1.6930124759674072,-0.0,2.070502996444702,4.710728808040283,-0.0,0.2807044982910156,-1.4034774939166468,-0.0,-0.030238786712288857,0.007439828012138605,-0.0,0.015173371881246567,1.2397533655166626,0.0,0.017067398875951767
314.0,597.0,2.6853,1.2897,8.8863,-0.0412,0.0286,-0.1197,-1.7600437603392542,0.0,2.894273281097412,-1.6929805278778076,-0.0,2.0774621963500977,4.710721178645752,-0.0,0.27993345260620117,-1.4034093062030237,-0.0,-0.027439596131443977,0.007451663259416819,-0.0,0.00566114904358983,1.2398139238357544,0.0,0.03185245767235756
314.0,597.0,2.6853,1.2897,8.8863,-0.0412,0.0286,-0.1197,-1.7600518665709437,0.0,2.8740997314453125,-1.6930011510849,-0.0,2.1548118591308594,4.710728808040283,-0.0,0.2758554518222809,-1.4034536520587366,-0.0,-0.021433062851428986,0.007447606883943081,-0.0,0.0026859173085540533,1.2397733926773071,0.0,-0.034497566521167755
314.0,597.0,2.6853,1.2897,8.8863,-0.0412,0.0286,-0.1197,-1.760059495965475,0.0,2.906370162963867,-1.6929970979690552,-0.0,2.117887020111084,4.71074549734082,-0.0,0.2908092439174652,-1.4034860769854944,-0.0,-0.021019555628299713,0.007480289321392775,-0.0,-0.002994211856275797,1.2398017644882202,0.0,-0.0005554785020649433
314.0,597.0,2.6853,1.2897,8.8863,-0.0412,0.0286,-0.1197,-1.7600275478758753,0.0,2.9128119945526123,-1.692936658859253,-0.0,2.094304323196411,4.710749788875244,-0.0,0.27317798137664795,-1.4034331480609339,-0.0,-0.025913678109645844,0.007443485781550407,-0.0,-0.014473838731646538,1.2397937774658203,0.0,0.07068845629692078
314.0,597.0,2.6853,1.2897,8.8863,-0.0412,0.0286,-0.1197,-1.7600232563414515,0.0,2.898332118988037,-1.692992925643921,-0.0,2.1081297397613525,4.710728808040283,-0.0,0.2855641841888428,-1.4034374395953577,-0.0,-0.02266799844801426,0.00747990608215332,-0.0,-0.0012191394343972206,1.2397816181182861,0.0,0.028087079524993896
314.0,597.0,2.6853,1.2897,8.8863,-0.0412,0.0286,-0.1197,-1.7600318394102992,0.0,2.9396042823791504,-1.6930084228515625,-0.0,2.062899589538574,4.710733099574707,-0.0,0.297906756401062,-1.4035099188434046,-0.0,-0.03431933373212814,0.0074721393175423145,-0.0,-0.011015382595360279,1.2397615909576416,0.0,-0.012032647617161274
314.0,597.0,2.6853,1.2897,8.8863,-0.0412,0.0286,-0.1197,-1.760031362573141,0.0,2.9025073051452637,-1.6929805278778076,-0.0,2.104304075241089,4.71069256841626,-0.0,0.285161554813385,-1.4034579435931605,-0.0,-0.02654009684920311,0.0075086080469191074,-0.0,0.013040588237345219,1.2397534847259521,0.0,-0.055489666759967804
314.0,597.0,2.6853,1.2897,8.8863,-0.0412,0.0286,-0.1197,-1.760015150109762,0.0,2.912444591522217,-1.6929569244384766,-0.0,2.085379123687744,4.710757418269775,-0.0,0.28554338216781616,-1.4034860769854944,-0.0,-0.026203375309705734,0.00743566919118166,-0.0,-0.006844162940979004,1.2397937774658203,0.0,0.011453467421233654
314.0,597.0,2.6853,1.2897,8.8863,-0.0412,0.0286,-0.1197,-1.7599832020201625,0.0,2.933934211730957,-1.6929848194122314,-0.0,2.1211771965026855,4.710716887111328,-0.0,0.2875179946422577,-1.4034703413592737,-0.0,-0.01873953826725483,0.0074315923266112804,-0.0,-0.005897952243685722,1.2397897243499756,0.0,0.012978719547390938
314.0,597.0,2.6853,1.2897,8.8863,-0.0412,0.0286,-0.1197,-1.7599989376463832,0.0,2.9206414222717285,-1.693000316619873,-0.0,2.1407337188720703,4.7107249933430175,-0.0,0.2810034453868866,-1.4034579435931605,-0.0,-0.018104426562786102,0.00743566919118166,-0.0,-0.0033804846461862326,1.2398017644882202,0.0,0.009397191926836967
330.0,632.0,2.6806,1.2867,8.9749,-0.0382,0.025,-0.1184,-1.760015150109762,0.0,2.9339237213134766,-1.6929683685302734,-0.0,2.116284132003784,4.710737391109131,-0.0,0.2817482054233551,-1.4034298102008265,-0.0,-0.029295284301042557,0.007415986154228449,-0.0,-0.008045614697039127,1.2398097515106201,0.0,-0.01592366024851799
330.0,632.0,2.6806,1.2867,8.9749,-0.0382,0.025,-0.1184,-1.760059495965475,0.0,2.8937911987304688,-1.6929969787597656,-0.0,2.094597339630127,4.71074549734082,-0.0,0.2776471972465515,-1.4034693876849573,-0.0,-0.03141721338033676,0.007439815904945135,-0.0,0.0042241597548127174,1.2398333549499512,0.0,-0.04606923088431358
330.0,632.0,2.6806,1.2867,8.9749,-0.0382,0.025,-0.1184,-1.7599989376463832,0.0,2.92098331451416,-1.6930209398269653,-0.0,2.1060233116149902,4.710781736964844,-0.0,0.2888588309288025,-1.4034693876849573,-0.0,-0.026381386443972588,0.007476220838725567,-0.0,-0.0013831937685608864,1.2398097515106201,0.0,0.00611783005297184
330.0,632.0,2.6806,1.2867,8.9749,-0.0382,0.025,-0.1184,-1.7600475750365199,0.0,2.9216084480285645,-1.6929724216461182,-0.0,2.1181867122650146,4.710701151485107,-0.0,0.28982728719711304,-1.4034817854510706,-0.0,-0.03230935335159302,0.007427515462040901,-0.0,-0.002528770826756954,1.239797592163086,0.0,-0.017338242381811142
330.0,632.0,2.6806,1.2867,8.9749,-0.0382,0.025,-0.1184,-1.7600637874998988,0.0,2.907291889190674,-1.6929444074630737,-0.0,2.134817123413086,4.710733099574707,-0.0,0.294098436832428,-1.4034736792193812,-0.0,-0.03585535287857056,0.007399716880172491,-0.0,-0.006380380596965551,1.239821434020996,0.0,-0.002852553501725197
330.0,632.0,2.6806,1.2867,8.9749,-0.0382,0.025,-0.1184,-1.7600070438780726,0.0,2.9422316551208496,-1.6929848194122314,-0.0,2.1446244716644287,4.710781736964844,-0.0,0.2958337366580963,-1.4034579435931605,-0.0,-0.023090442642569542,0.007476228754967451,-0.0,-0.0025805726181715727,1.2398293018341064,0.0,-0.028899043798446655
330.0,632.0,2.6806,1.2867,8.9749,-0.0382,0.025,-0.1184,-1.7600676021971644,0.0,2.9251253604888916,-1.6929683685302734,-0.0,2.084549903869629,4.710708780879639,-0.0,0.2818946838378906,-1.403449837361471,-0.0,-0.033503033220767975,0.007387363817542791,-0.0,0.00918088760226965,1.2398293018341064,0.0,0.008235549554228783
330.0,632.0,2.6806,1.2867,8.9749,-0.0382,0.025,-0.1184,-1.760015150109762,0.0,2.912567377090454,-1.6930168867111206,-0.0,2.10966420173645,4.710789843196533,-0.0,0.28540730476379395,-1.4034622351275843,-0.0,-0.026678740978240967,0.00745587470009923,-0.0,-0.01120704598724842,1.239821434020996,0.0,0.01997791975736618
330.0,632.0,2.6806,1.2867,8.9749,-0.0382,0.025,-0.1184,-1.7600475750365199,0.0,2.9021825790405273,-1.6929527521133423,-0.0,2.069941282272339,4.710733099574707,-0.0,0.28449201583862305,-1.4035099188434046,-0.0,-0.02685786783695221,0.007395676337182522,-0.0,-0.017477400600910187,1.239797592163086,0.0,0.0008441479876637459
330.0,632.0,2.6806,1.2867,8.9749,-0.0382,0.025,-0.1184,-1.7600957355894984,0.0,2.891557216644287,-1.693000316619873,-0.0,2.0982420444488525,4.71074549734082,-0.0,0.28163355588912964,-1.4034693876849573,-0.0,-0.022618643939495087,0.007467927876859903,-0.0,-0.013658368960022926,1.2397493124008179,0.0,0.00740781519562006
330.0,632.0,2.6806,1.2867,8.9749,-0.0382,0.025,-0.1184,-1.7600356541075648,0.0,2.8856048583984375,-1.692976474761963,-0.0,2.1171751022338867,4.710781736964844,-0.0,0.2880689203739166,-1.4034093062030237,-0.0,-0.035954080522060394,0.007447961717844009,-0.0,-0.000553817255422473,1.2398097515106201,0.0,-0.015220139175653458
330.0,632.0,2.6806,1.2867,8.9749,-0.0382,0.025,-0.1184,-1.7600232563414515,0.0,2.966236114501953,-1.6930043697357178,-0.0,2.101548433303833,4.71075360357251,-0.0,0.27464592456817627,-1.4034579435931605,-0.0,-0.02928837016224861,0.00743526965379715,-0.0,-0.006874264217913151,1.2398618459701538,0.0,-0.013304183259606361
330.0,632.0,2.6806,1.2867,8.9749,-0.0382,0.025,-0.1184,-1.7600070438780726,0.0,2.919773817062378,-1.6929848194122314,-0.0,2.084559917449951,4.710720701808594,-0.0,0.28512337803840637,-1.403506104146139,-0.0,-0.023260017856955528,0.007443570997565985,-0.0,0.0008492484921589494,1.2397897243499756,0.0,0.0032680328004062176
330.0,632.0,2.6806,1.2867,8.9749,-0.0382,0.025,-0.1184,-1.760059495965475,0.0,2.911623477935791,-1.6930209398269653,-0.0,2.1201887130737305,4.710680647487305,-0.0,0.29253849387168884,-1.403421703969137,-0.0,-0.034090109169483185,0.007459914777427912,-0.0,0.00018688314594328403,1.239821434020996,0.0,0.041885510087013245
330.0,632.0,2.6806,1.2867,8.9749,-0.0382,0.025,-0.1184,-1.7600232563414515,0.0,2.901702404022217,-1.6929724216461182,-0.0,2.135834217071533,4.71075360357251,-0.0,0.2862829267978668,-1.4034259955035608,-0.0,-0.029093801975250244,0.007439828012138605,-0.0,0.011663445271551609,1.2398337125778198,0.0,0.04740332067012787
330.0,632.0,2.6806,1.2867,8.9749,-0.0382,0.025,-0.1184,-1.7600475750365199,0.0,2.9470901489257812,-1.6929961442947388,-0.0,2.0569891929626465,4.71074549734082,-0.0,0.27761518955230713,-1.4034579435931605,-0.0,-0.027789421379566193,0.0074839829467237,-0.0,-0.013335584662854671,1.239829659461975,0.0,0.005844844505190849
330.0,632.0,2.6806,1.2867,8.9749,-0.0382,0.025,-0.1184,-1.7600027523436488,0.0,2.9100594520568848,-1.6930084228515625,-0.0,2.077230453491211,4.7107249933430175,-0.0,0.2992727756500244,-1.4034093062030237,-0.0,-0.03739817813038826,0.007464003749191761,-0.0,-9.88490937743336e-05,1.239829659461975,0.0,0.01938866823911667
330.0,632.0,2.6806,1.2867,8.9749,-0.0382,0.025,-0.1184,-1.7599989376463832,0.0,2.9232962131500244,-1.6929888725280762,-0.0,2.104464530944824,4.710749788875244,-0.0,0.2821234464645386,-1.4035418669330042,-0.0,-0.0280557069927454,0.007455817423760891,-0.0,0.002802784787490964,1.2397652864456177,0.0,0.04346378892660141
344.0,641.0,2.6495,1.3143,9.0359,-0.0423,0.0275,-0.1219,-1.7599832020201625,0.0,2.9064388275146484,-1.6929641962051392,-0.0,2.130429267883301,4.710737391109131,-0.0,0.29161202907562256,-1.4034455458270472,-0.0,-0.01769806072115898,0.007451675832271576,-0.0,-0.0038664338644593954,1.2397774457931519,0.0,0.013549190945923328
344.0,641.0,2.6495,1.3143,9.0359,-0.0423,0.0275,-0.1219,-1.7600475750365199,0.0,2.9184513092041016,-1.6929806470870972,-0.0,2.128239393234253,4.710701151485107,-0.0,0.2821209728717804,-1.4034860769854944,-0.0,-0.03232721984386444,0.0074721435084939,-0.0,0.0007509185816161335,1.2398254871368408,0.0,-0.003251965157687664
344.0,641.0,2.6495,1.3143,9.0359,-0.0423,0.0275,-0.1219,-1.7600513897337855,0.0,2.912346839904785,-1.6930084228515625,-0.0,2.088696002960205,4.710749788875244,-0.0,0.2884480357170105,-1.4034579435931605,-0.0,-0.023445893079042435,0.0074315923266112804,-0.0,0.004750184714794159,1.2397937774658203,0.0,0.005570974200963974
344.0,641.0,2.6495,1.3143,9.0359,-0.0423,0.0275,-0.1219,-1.7600027523436488,0.0,2.8638062477111816,-1.6929363012313843,-0.0,2.078193187713623,4.71077744543042,-0.0,0.28517842292785645,-1.4034693876849573,-0.0,-0.024089932441711426,0.007488182280212641,-0.0,-0.005860352888703346,1.2398139238357544,0.0,-0.013881487771868706
344.0,641.0,2.6495,1.3143,9.0359,-0.0423,0.0275,-0.1219,-1.7600475750365199,0.0,2.8646090030670166,-1.6929848194122314,-0.0,2.0776407718658447,4.710672541255615,-0.0,0.29672157764434814,-1.4034612814532679,-0.0,-0.026993345469236374,0.007439396809786558,-0.0,-0.009271318092942238,1.2397979497909546,0.0,0.007959544658660889
344.0,641.0,2.6495,1.3143,9.0359,-0.0423,0.0275,-0.1219,-1.7600275478758753,0.0,2.860100030899048,-1.6929279565811157,-0.0,2.0564277172088623,4.710757418269775,-0.0,0.2766789197921753,-1.4034579435931605,-0.0,-0.02844812534749508,0.0074839829467237,-0.0,0.001190086011774838,1.239769458770752,0.0,-0.0034864668268710375
344.0,641.0,2.6495,1.3143,9.0359,-0.0423,0.0275,-0.1219,-1.7600070438780726,0.0,2.911147117614746,-1.692976474761963,-0.0,2.113466739654541,4.7107578951069335,-0.0,0.29699116945266724,-1.4034650961505335,-0.0,-0.033984214067459106,0.0074275643564760685,-0.0,-0.0046498654410243034,1.239797592163086,0.0,-0.027719130739569664
344.0,641.0,2.6495,1.3143,9.0359,-0.0423,0.0275,-0.1219,-1.7600027523436488,0.0,2.903444528579712,-1.6929961442947388,-0.0,2.1002979278564453,4.71075360357251,-0.0,0.28828883171081543,-1.403449837361471,-0.0,-0.022855715826153755,0.007512293290346861,-0.0,-0.005531309172511101,1.2397611141204834,0.0,0.0184241384267807
344.0,641.0,2.6495,1.3143,9.0359,-0.0423,0.0275,-0.1219,-1.7600637874998988,0.0,2.9086239337921143,-1.692992925643921,-0.0,2.1091721057891846,4.710737391109131,-0.0,0.2925577163696289,-1.4034736792193812,-0.0,-0.0274369977414608,0.00743566919118166,-0.0,-0.006001641508191824,1.2398254871368408,0.0,-0.016092460602521896
344.0,641.0,2.6495,1.3143,9.0359,-0.0423,0.0275,-0.1219,-1.7600676021971644,0.0,2.9061150550842285,-1.692992925643921,-0.0,2.061675786972046,4.71077744543042,-0.0,0.2813098132610321,-1.4034817854510706,-0.0,-0.02037867158651352,0.0074558258056640625,-0.0,-0.0029117045924067497,1.2398254871368408,0.0,-0.030412206426262856
344.0,641.0,2.6495,1.3143,9.0359,-0.0423,0.0275,-0.1219,-1.7600637874998988,0.0,2.884312391281128,-1.6929806470870972,-0.0,2.093421459197998,4.71074549734082,-0.0,0.2840203046798706,-1.40346604982485,-0.0,-0.018887117505073547,0.007488141767680645,-0.0,-0.01661907322704792,1.2397774457931519,0.0,0.012071160599589348
344.0,641.0,2.6495,1.3143,9.0359,-0.0423,0.0275,-0.1219,-1.7600470981993617,0.0,2.920703411102295,-1.6929408311843872,-0.0,2.1048130989074707,4.710728808040283,-0.0,0.27551138401031494,-1.4034135977374476,-0.0,-0.013877106830477715,0.00737135810777545,-0.0,-0.0011292982380837202,1.2397897243499756,0.0,0.01530081033706665
344.0,641.0,2.6495,1.3143,9.0359,-0.0423,0.0275,-0.1219,-1.7600475750365199,0.0,2.953022003173828,-1.6930168867111206,-0.0,2.077974796295166,4.7107130724140625,-0.0,0.29080483317375183,-1.4034774939166468,-0.0,-0.02399485558271408,0.0073955911211669445,-0.0,-0.011073702946305275,1.2397857904434204,0.0,0.05620085448026657
344.0,641.0,2.6495,1.3143,9.0359,-0.0423,0.0275,-0.1219,-1.760015150109762,0.0,2.887099266052246,-1.6930084228515625,-0.0,2.1193151473999023,4.710761709804199,-0.0,0.28725266456604004,-1.4034622351275843,-0.0,-0.036152806133031845,0.007495936471968889,-0.0,-0.009844969026744366,1.2398254871368408,0.0,0.03329624608159065
344.0,641.0,2.6495,1.3143,9.0359,-0.0423,0.0275,-0.1219,-1.7599951229491175,0.0,2.929269313812256,-1.6929805278778076,-0.0,2.0811593532562256,4.710741205806396,-0.0,0.29477667808532715,-1.4034736792193812,-0.0,-0.028910815715789795,0.007524282205849886,-0.0,0.0066803875379264355,1.2398173809051514,0.0,-0.0012657241895794868
344.0,641.0,2.6495,1.3143,9.0359,-0.0423,0.0275,-0.1219,-1.7600351772704066,0.0,2.911895275115967,-1.692992925643921,-0.0,2.0679099559783936,4.710728808040283,-0.0,0.29395654797554016,-1.4034455458270472,-0.0,-0.024505484849214554,0.00743562076240778,-0.0,-0.0004473141743801534,1.2397856712341309,0.0,0.025910649448633194
344.0,641.0,2.6495,1.3143,9.0359,-0.0423,0.0275,-0.1219,-1.7600232563414515,0.0,2.9168455600738525,-1.6930052042007446,-0.0,2.137392997741699,4.710721178645752,-0.0,0.29534396529197693,-1.4034536520587366,-0.0,-0.021233249455690384,0.0074558258056640625,-0.0,-0.005668454337865114,1.2397533655166626,0.0,-0.019803127273917198
318.0,633.0,2.6841,1.2395,8.985,-0.0289,0.0302,-0.121,-1.7599989376463832,0.0,2.895660400390625,-1.6929724216461182,-0.0,2.083388566970825,4.710705443019531,-0.0,0.2862023115158081,-1.4034736792193812,-0.0,-0.026697132736444473,0.007476220838725567,-0.0,0.004142976365983486,1.2398056983947754,0.0,-0.009436054155230522
318.0,633.0,2.6841,1.2395,8.985,-0.0289,0.0302,-0.121,-1.7600475750365199,0.0,2.917541265487671,-1.692976474761963,-0.0,2.0873639583587646,4.710728808040283,-0.0,0.29103755950927734,-1.4034693876849573,-0.0,-0.02855970710515976,0.007451667450368404,-0.0,-0.004400924313813448,1.2398097515106201,0.0,0.010093322023749352
318.0,633.0,2.6841,1.2395,8.985,-0.0289,0.0302,-0.121,-1.7599951229491175,0.0,2.9079360961914062,-1.693000316619873,-0.0,2.0855202674865723,4.71075360357251,-0.0,0.28366878628730774,-1.403449837361471,-0.0,-0.026555445045232773,0.007443904876708984,-0.0,-0.019900701940059662,1.2398337125778198,0.0,-0.016961626708507538
318.0,633.0,2.6841,1.2395,8.985,-0.0289,0.0302,-0.121,-1.7600275478758753,0.0,2.905618190765381,-1.6929724216461182,-0.0,2.0966973304748535,4.7107249933430175,-0.0,0.277901291847229,-1.4034774939166468,-0.0,-0.03641225025057793,0.0074197156354784966,-0.0,-0.008165127597749233,1.2398016452789307,0.0,-0.02291775681078434
318.0,633.0,2.6841,1.2395,8.985,-0.0289,0.0302,-0.121,-1.7599989376463832,0.0,2.940143585205078,-1.6929806470870972,-0.0,2.101300001144409,4.710789843196533,-0.0,0.2775270938873291,-1.4034536520587366,-0.0,-0.026819277554750443,0.007504139561206102,-0.0,0.0009406096069142222,1.2398295402526855,0.0,-0.0009444579482078552
318.0,633.0,2.6841,1.2395,8.985,-0.0289,0.0302,-0.121,-1.7600394688048304,0.0,2.934875965118408,-1.692976474761963,-0.0,2.157820701599121,4.710785074824951,-0.0,0.2836310863494873,-1.4034536520587366,-0.0,-0.031113946810364723,0.007476245053112507,-0.0,0.0015634282026439905,1.2398173809051514,0.0,0.018632996827363968
318.0,633.0,2.6841,1.2395,8.985,-0.0289,0.0302,-0.121,-1.7600275478758753,0.0,2.8924813270568848,-1.6929888725280762,-0.0,2.0915732383728027,4.710716887111328,-0.0,0.2726042568683624,-1.4035185019122522,-0.0,-0.018070103600621223,0.0074639879167079926,-0.0,0.004157128743827343,1.2398537397384644,0.0,-0.0005115168169140816
318.0,633.0,2.6841,1.2395,8.985,-0.0289,0.0302,-0.121,-1.760015150109762,0.0,2.9349231719970703,-1.6930052042007446,-0.0,2.0800604820251465,4.710725470180176,-0.0,0.28125274181365967,-1.4034979979144495,-0.0,-0.02358497492969036,0.007472139783203602,-0.0,0.009938030503690243,1.2397574186325073,0.0,0.017340468242764473
318.0,633.0,2.6841,1.2395,8.985,-0.0289,0.0302,-0.121,-1.7600475750365199,0.0,2.9258956909179688,-1.692976474761963,-0.0,2.149616241455078,4.710705443019531,-0.0,0.28172194957733154,-1.4034259955035608,-0.0,-0.027795955538749695,0.007467968389391899,-0.0,-0.0008750827983021736,1.2398097515106201,0.0,-0.01870115101337433
318.0,633.0,2.6841,1.2395,8.985,-0.0289,0.0302,-0.121,-1.7600513897337855,0.0,2.890824317932129,-1.6929243803024292,-0.0,2.0832509994506836,4.710737391109131,-0.0,0.2949836552143097,-1.4034622351275843,-0.0,-0.019257638603448868,0.007504062727093697,-0.0,-0.009279828518629074,1.2398179769515991,0.0,-0.008973255753517151
318.0,633.0,2.6841,1.2395,8.985,-0.0289,0.0302,-0.121,-1.7600437603392542,0.0,2.911268711090088,-1.6929887533187866,-0.0,2.089510202407837,4.710749788875244,-0.0,0.27777355909347534,-1.40348989168276,-0.0,-0.032166849821805954,0.007411949336528778,-0.0,-0.002329314826056361,1.2398133277893066,0.0,0.032064277678728104
318.0,633.0,2.6841,1.2395,8.985,-0.0289,0.0302,-0.121,-1.760031362573141,0.0,2.9378576278686523,-1.6929569244384766,-0.0,2.0912580490112305,4.710728808040283,-0.0,0.28027257323265076,-1.4034622351275843,-0.0,-0.021701596677303314,0.007432000245898962,-0.0,-0.012007837183773518,1.2397856712341309,0.0,-0.0019077947363257408
318.0,633.0,2.6841,1.2395,8.985,-0.0289,0.0302,-0.121,-1.7600232563414515,0.0,2.9343600273132324,-1.6930415630340576,-0.0,2.1485776901245117,4.710761709804199,-0.0,0.27491170167922974,-1.40348989168276,-0.0,-0.022370770573616028,0.007459902670234442,-0.0,-0.008953358978033066,1.2398254871368408,0.0,0.011557108722627163
318.0,633.0,2.6841,1.2395,8.985,-0.0289,0.0302,-0.121,-1.7600437603392542,0.0,2.867692470550537,-1.6929848194122314,-0.0,2.108347177505493,4.710701151485107,-0.0,0.2950683534145355,-1.4034293333636683,-0.0,-0.03541112318634987,0.007451659068465233,-0.0,0.0013930704444646835,1.2397856712341309,0.0,0.029231730848550797
318.0,633.0,2.6841,1.2395,8.985,-0.0289,0.0302,-0.121,-1.760015150109762,0.0,2.90244722366333,-1.693000316619873,-0.0,2.1139230728149414,4.710765524501465,-0.0,0.28266483545303345,-1.4034817854510706,-0.0,-0.02513260394334793,0.007467985153198242,-0.0,-0.014798803254961967,1.2398179769515991,0.0,0.003781920298933983
318.0,633.0,2.6841,1.2395,8.985,-0.0289,0.0302,-0.121,-1.7600394688048304,0.0,2.907519817352295,-1.6929888725280762,-0.0,2.122394323348999,4.710728808040283,-0.0,0.2751581370830536,-1.4034455458270472,-0.0,-0.04258742183446884,0.0074558258056640625,-0.0,-0.012203751131892204,1.2397774457931519,0.0,0.006593156140297651
318.0,633.0,2.6841,1.2395,8.985,-0.0289,0.0302,-0.121,-1.7600556812682093,0.0,2.8618593215942383,-1.693000316619873,-0.0,2.081578254699707,4.710749788875244,-0.0,0.2856772243976593,-1.40348989168276,-0.0,-0.02077394537627697,0.007495912257581949,-0.0,-0.0023615695536136627,1.2397937774658203,0.0,0.0023455489426851273
318.0,633.0,2.6841,1.2395,8.985,-0.0289,0.0302,-0.121,-1.7600475750365199,0.0,2.8478403091430664,-1.6929527521133423,-0.0,2.106800079345703,4.7107741075703125,-0.0,0.29282844066619873,-1.4034774939166468,-0.0,-0.017857883125543594,0.007488125003874302,-0.0,-0.0072778030298650265,1.2398139238357544,0.0,-0.01843922957777977
303.0,657.0,2.665,1.2897,8.9952,-0.0313,0.0299,-0.1243,-1.7600356541075648,0.0,2.9264373779296875,-1.6930125951766968,-0.0,2.1206130981445312,4.710716887111328,-0.0,0.29732364416122437,-1.4034455458270472,-0.0,-0.029299229383468628,0.0074558258056640625,-0.0,-0.002209458965808153,1.2398254871368408,0.0,0.0860729068517685
303.0,657.0,2.665,1.2897,8.9952,-0.0313,0.0299,-0.1243,-1.7600437603392542,0.0,2.915249824523926,-1.6930043697357178,-0.0,2.068699598312378,4.7107130724140625,-0.0,0.28654056787490845,-1.4034774939166468,-0.0,-0.027553332969546318,0.007423830218613148,-0.0,-0.00758800283074379,1.2398017644882202,0.0,0.006139963865280151
303.0,657.0,2.665,1.2897,8.9952,-0.0313,0.0299,-0.1243,-1.7600556812682093,0.0,2.8823752403259277,-1.69302499294281,-0.0,2.142749071121216,4.710749788875244,-0.0,0.2859051525592804,-1.4034650961505335,-0.0,-0.03135288506746292,0.00752013735473156,-0.0,-0.001548372209072113,1.2397693395614624,0.0,-0.022421790286898613
303.0,657.0,2.665,1.2897,8.9952,-0.0313,0.0299,-0.1243,-1.7600108585753382,0.0,2.8977127075195312,-1.6929805278778076,-0.0,2.109652042388916,4.710737391109131,-0.0,0.2903822064399719,-1.4034736792193812,-0.0,-0.022178232669830322,0.0074315923266112804,-0.0,0.0022317408584058285,1.2397733926773071,0.0,0.002757621929049492
303.0,657.0,2.665,1.2897,8.9952,-0.0313,0.0299,-0.1243,-1.7600270710387171,0.0,2.9381465911865234,-1.6929445266723633,-0.0,2.0814762115478516,4.7107130724140625,-0.0,0.2773534059524536,-1.4034579435931605,-0.0,-0.018092207610607147,0.007467985153198242,-0.0,0.001965138129889965,1.2398496866226196,0.0,0.02358590066432953
303.0,657.0,2.665,1.2897,8.9952,-0.0313,0.0299,-0.1243,-1.760019441644186,0.0,2.912093162536621,-1.6929724216461182,-0.0,2.074706554412842,4.710733099574707,-0.0,0.28249335289001465,-1.4034736792193812,-0.0,-0.024363381788134575,0.007427907083183527,-0.0,-0.0019547154661267996,1.239769458770752,0.0,0.015590415336191654
303.0,657.0,2.665,1.2897,8.9952,-0.0313,0.0299,-0.1243,-1.7600394688048304,0.0,2.933297872543335,-1.693000316619873,-0.0,2.0806071758270264,4.710761709804199,-0.0,0.2843063473701477,-1.4034579435931605,-0.0,-0.02369053289294243,0.007488141767680645,-0.0,-0.0033956661354750395,1.2398017644882202,0.0,0.023597273975610733
303.0,657.0,2.665,1.2897,8.9952,-0.0313,0.0299,-0.1243,-1.7600637874998988,0.0,2.8884849548339844,-1.693000316619873,-0.0,2.1031668186187744,4.710737391109131,-0.0,0.27623552083969116,-1.4034817854510706,-0.0,-0.026959024369716644,0.007463979534804821,-0.0,-0.013369840569794178,1.2398254871368408,0.0,-0.061287082731723785
303.0,657.0,2.665,1.2897,8.9952,-0.0313,0.0299,-0.1243,-1.7600232563414515,0.0,2.9204788208007812,-1.6929888725280762,-0.0,2.131307601928711,4.710773630733154,-0.0,0.2859887480735779,-1.4034412542926233,-0.0,-0.020910076797008514,0.007423830218613148,-0.0,-0.0001546426210552454,1.2397857904434204,0.0,0.015510596334934235
303.0,657.0,2.665,1.2897,8.9952,-0.0313,0.0299,-0.1243,-1.7599827251830042,0.0,2.858044385910034,-1.6930084228515625,-0.0,2.1204259395599365,4.710749788875244,-0.0,0.2851141393184662,-1.4034331480609339,-0.0,-0.03042544238269329,0.007427907083183527,-0.0,-0.0028523209039121866,1.239797592163086,0.0,-0.026912754401564598
303.0,657.0,2.665,1.2897,8.9952,-0.0313,0.0299,-0.1243,-1.7600518665709437,0.0,2.9214067459106445,-1.6930125951766968,-0.0,2.088907241821289,4.710741205806396,-0.0,0.2799428105354309,-1.4034374395953577,-0.0,-0.023822307586669922,0.007463979534804821,-0.0,-0.011884806677699089,1.2398254871368408,0.0,-0.028480153530836105
303.0,657.0,2.665,1.2897,8.9952,-0.0313,0.0299,-0.1243,-1.7600232563414515,0.0,2.8913533687591553,-1.6929848194122314,-0.0,2.089801549911499,4.7107130724140625,-0.0,0.29133737087249756,-1.4034579435931605,-0.0,-0.025209100916981697,0.007447981741279364,-0.0,0.0008627048227936029,1.239797592163086,0.0,0.006554553750902414
303.0,657.0,2.665,1.2897,8.9952,-0.0313,0.0299,-0.1243,-1.7600275478758753,0.0,2.915142059326172,-1.69302499294281,-0.0,2.0760421752929688,4.710728808040283,-0.0,0.28336286544799805,-1.4034860769854944,-0.0,-0.019273417070508003,0.007439828012138605,-0.0,-0.008766235783696175,1.2398097515106201,0.0,0.030681204050779343
303.0,657.0,2.665,1.2897,8.9952,-0.0313,0.0299,-0.1243,-1.760019441644186,0.0,2.893947124481201,-1.6929683685302734,-0.0,2.107893705368042,4.71075360357251,-0.0,0.282075971364975,-1.4034650961505335,-0.0,-0.026851167902350426,0.00740374531596899,-0.0,-0.008236975409090519,1.2397897243499756,0.0,0.019689127802848816
303.0,657.0,2.665,1.2897,8.9952,-0.0313,0.0299,-0.1243,-1.7600070438780726,0.0,2.9312663078308105,-1.6929848194122314,-0.0,2.077542304992676,4.710704966182373,-0.0,0.2912604808807373,-1.4034979979144495,-0.0,-0.018258608877658844,0.007476220838725567,-0.0,-0.013945212587714195,1.239829421043396,0.0,-0.03313841298222542
303.0,657.0,2.665,1.2897,8.9952,-0.0313,0.0299,-0.1243,-1.7600108585753382,0.0,2.930927276611328,-1.6929919719696045,-0.0,2.1207096576690674,4.71075360357251,-0.0,0.2820480763912201,-1.4034374395953577,-0.0,-0.019449029117822647,0.007467985153198242,-0.0,-0.004928022623062134,1.239797592163086,0.0,-0.01775716431438923
303.0,657.0,2.665,1.2897,8.9952,-0.0313,0.0299,-0.1243,-1.7599832020201625,0.0,2.932708263397217,-1.693008542060852,-0.0,2.134838581085205,4.710725470180176,-0.0,0.29766353964805603,-1.403449837361471,-0.0,-0.018469814211130142,0.0074962954968214035,-0.0,-0.0049360026605427265,1.2397693395614624,0.0,-0.014785018749535084
303.0,657.0,2.665,1.2897,8.9952,-0.0313,0.0299,-0.1243,-1.7600275478758753,0.0,2.908698558807373,-1.693037509918213,-0.0,2.0963613986968994,4.710708780879639,-0.0,0.2787347137928009,-1.4034579435931605,-0.0,-0.025896873325109482,0.0074558258056640625,-0.0,0.004838300868868828,1.239837408065796,0.0,0.017462462186813354
317.0,581.0,2.7176,1.2891,8.9228,-0.0374,0.0255,-0.1132,-1.7600394688048304,0.0,2.9244401454925537,-1.6930052042007446,-0.0,2.082597494125366,4.7107130724140625,-0.0,0.28397268056869507,-1.4034622351275843,-0.0,-0.01662527211010456,0.007480297703295946,-0.0,-0.007646095938980579,1.2398139238357544,0.0,-0.007489321753382683
317.0,581.0,2.7176,1.2891,8.9228,-0.0374,0.0255,-0.1132,-1.7601119480528773,0.0,2.934026002883911,-1.6929848194122314,-0.0,2.1236612796783447,4.710728808040283,-0.0,0.28470176458358765,-1.40346604982485,-0.0,-0.020490482449531555,0.0074558258056640625,-0.0,-0.004948007874190807,1.2397856712341309,0.0,-0.02196049503982067
317.0,581.0,2.7176,1.2891,8.9228,-0.0374,0.0255,-0.1132,-1.7600513897337855,0.0,2.9505019187927246,-1.6930011510849,-0.0,2.1041922569274902,4.7107130724140625,-0.0,0.2950700521469116,-1.40346604982485,-0.0,-0.03717059642076492,0.007463979534804821,-0.0,-0.005101872608065605,1.2397856712341309,0.0,-0.030833084136247635
317.0,581.0,2.7176,1.2891,8.9228,-0.0374,0.0255,-0.1132,-1.7600232563414515,0.0,2.9422531127929688,-1.6929609775543213,-0.0,2.1652467250823975,4.710721178645752,-0.0,0.2942112982273102,-1.4034622351275843,-0.0,-0.033399127423763275,0.007448006421327591,-0.0,-0.004351206123828888,1.2397774457931519,0.0,-0.033564940094947815
317.0,581.0,2.7176,1.2891,8.9228,-0.0374,0.0255,-0.1132,-1.7600356541075648,0.0,2.936990261077881,-1.6929527521133423,-0.0,2.092384099960327,4.710704966182373,-0.0,0.28375619649887085,-1.4035099188434046,-0.0,-0.01906919851899147,0.007435645442456007,-0.0,0.0014488346641883254,1.2397897243499756,0.0,0.0366547629237175
317.0,581.0,2.7176,1.2891,8.9228,-0.0374,0.0255,-0.1132,-1.7600275478758753,0.0,2.8881869316101074,-1.693016767501831,-0.0,2.0576817989349365,4.710721178645752,-0.0,0.2812577784061432,-1.4034579435931605,-0.0,-0.026691816747188568,0.007451667450368404,-0.0,-0.012497331947088242,1.2397897243499756,0.0,-0.035568706691265106
317.0,581.0,2.7176,1.2891,8.9228,-0.0374,0.0255,-0.1132,-1.7600356541075648,0.0,2.9079365730285645,-1.6930084228515625,-0.0,2.118321657180786,4.710708780879639,-0.0,0.2831830084323883,-1.4034736792193812,-0.0,-0.026122506707906723,0.007407831959426403,-0.0,-0.003827241249382496,1.2397816181182861,0.0,0.009224945679306984
317.0,581.0,2.7176,1.2891,8.9228,-0.0374,0.0255,-0.1132,-1.760031362573141,0.0,2.919603109359741,-1.6929724216461182,-0.0,2.099623918533325,4.710741205806396,-0.0,0.29284927248954773,-1.4034412542926233,-0.0,-0.029901985079050064,0.007492254488170147,-0.0,-0.007534657139331102,1.2398414611816406,0.0,0.008993077091872692
317.0,581.0,2.7176,1.2891,8.9228,-0.0374,0.0255,-0.1132,-1.760059495965475,0.0,2.9398136138916016,-1.6930084228515625,-0.0,2.0640153884887695,4.710705443019531,-0.0,0.2858676314353943,-1.4034860769854944,-0.0,-0.027827143669128418,0.00747990608215332,-0.0,-0.012368923984467983,1.239845633506775,0.0,-0.06293079257011414
317.0,581.0,2.7176,1.2891,8.9228,-0.0374,0.0255,-0.1132,-1.7600232563414515,0.0,2.8883919715881348,-1.6929848194122314,-0.0,2.093106269836426,4.71075360357251,-0.0,0.29535189270973206,-1.4034579435931605,-0.0,-0.03403940424323082,0.007476253435015678,-0.0,3.524310886859894e-05,1.2398020029067993,0.0,0.03200295567512512
317.0,581.0,2.7176,1.2891,8.9228,-0.0374,0.0255,-0.1132,-1.7600275478758753,0.0,2.892228841781616,-1.6929609775543213,-0.0,2.087092638015747,4.710741205806396,-0.0,0.2777916193008423,-1.40348989168276,-0.0,-0.035079944878816605,0.00749185960739851,-0.0,-0.009085244499146938,1.239866018295288,0.0,0.035652998834848404
317.0,581.0,2.7176,1.2891,8.9228,-0.0374,0.0255,-0.1132,-1.7600556812682093,0.0,2.908255100250244,-1.6929724216461182,-0.0,2.1070737838745117,4.710733099574707,-0.0,0.2735660672187805,-1.403449837361471,-0.0,-0.03308304771780968,0.007464004214853048,-0.0,-0.014964425936341286,1.2398056983947754,0.0,0.007160136476159096
317.0,581.0,2.7176,1.2891,8.9228,-0.0374,0.0255,-0.1132,-1.7600437603392542,0.0,2.943704128265381,-1.692992925643921,-0.0,2.083324909210205,4.710728808040283,-0.0,0.29340773820877075,-1.403421703969137,-0.0,-0.023643016815185547,0.00747211929410696,-0.0,-0.00495366333052516,1.2398016452789307,0.0,0.02181393653154373
317.0,581.0,2.7176,1.2891,8.9228,-0.0374,0.0255,-0.1132,-1.7600757084288539,0.0,2.909113883972168,-1.6929961442947388,-0.0,2.119763135910034,4.71075360357251,-0.0,0.2884315550327301,-1.4034302870379847,-0.0,-0.04023689404129982,0.007483966648578644,-0.0,-0.0027607278898358345,1.2397533655166626,0.0,-0.0051817987114191055
317.0,581.0,2.7176,1.2891,8.9228,-0.0374,0.0255,-0.1132,-1.7599908314146937,0.0,2.9248251914978027,-1.6929888725280762,-0.0,2.0951614379882812,4.71077744543042,-0.0,0.30247658491134644,-1.4034774939166468,-0.0,-0.03238699212670326,0.0074721435084939,-0.0,-0.016452496871352196,1.2398097515106201,0.0,0.015002593398094177
317.0,581.0,2.7176,1.2891,8.9228,-0.0374,0.0255,-0.1132,-1.760019441644186,0.0,2.925567626953125,-1.6929969787597656,-0.0,2.1120686531066895,4.7106968599506835,-0.0,0.28074467182159424,-1.4034412542926233,-0.0,-0.021979883313179016,0.007451667450368404,-0.0,0.0006376202218234539,1.2397897243499756,0.0,0.025989005342125893
317.0,581.0,2.7176,1.2891,8.9228,-0.0374,0.0255,-0.1132,-1.7600027523436488,0.0,2.872710704803467,-1.6930124759674072,-0.0,2.0781569480895996,4.710737391109131,-0.0,0.2958601117134094,-1.4034941832171839,-0.0,-0.029948551207780838,0.0074839829467237,-0.0,-0.01647571101784706,1.2398173809051514,0.0,0.0051663885824382305
334.0,657.0,2.6548,1.2897,8.9671,-0.0379,0.0322,-0.1191,-1.760087629357809,0.0,2.8933892250061035,-1.693000316619873,-0.0,2.1018753051757812,4.710733099574707,-0.0,0.2958014905452728,-1.403506104146139,-0.0,-0.029682904481887817,0.007495903875678778,-0.0,0.0039006471633911133,1.2397611141204834,0.0,0.0023263704497367144
334.0,657.0,2.6548,1.2897,8.9671,-0.0379,0.0322,-0.1191,-1.760059495965475,0.0,2.8739819526672363,-1.692965030670166,-0.0,2.1294820308685303,4.7106968599506835,-0.0,0.28733018040657043,-1.4035504500018519,-0.0,-0.023096337914466858,0.007451667450368404,-0.0,-0.002742102136835456,1.239845633506775,0.0,-0.029304739087820053
334.0,657.0,2.6548,1.2897,8.9671,-0.0379,0.0322,-0.1191,-1.7600351772704066,0.0,2.896190881729126,-1.6930168867111206,-0.0,2.070600986480713,4.710721178645752,-0.0,0.3009791970252991,-1.4034693876849573,-0.0,-0.0169223565608263,0.007427515462040901,-0.0,-0.011028056032955647,1.2397693395614624,0.0,-0.008707082830369473
334.0,657.0,2.6548,1.2897,8.9671,-0.0379,0.0322,-0.1191,-1.760059495965475,0.0,2.9533605575561523,-1.6929641962051392,-0.0,2.1293320655822754,4.710721178645752,-0.0,0.2785101532936096,-1.4034622351275843,-0.0,-0.03102356381714344,0.007447590120136738,-0.0,-0.0040639364160597324,1.2398496866226196,0.0,0.06860405951738358
334.0,657.0,2.6548,1.2897,8.9671,-0.0379,0.0322,-0.1191,-1.7600027523436488,0.0,2.9153175354003906,-1.693000316619873,-0.0,2.0547962188720703,4.7106968599506835,-0.0,0.28976017236709595,-1.4034860769854944,-0.0,-0.018682323396205902,0.00743566919118166,-0.0,-0.008868347853422165,1.239797592163086,0.0,0.028014305979013443
334.0,657.0,2.6548,1.2897,8.9671,-0.0379,0.0322,-0.1191,-1.7600556812682093,0.0,2.87429141998291,-1.6929279565811157,-0.0,2.1191627979278564,4.710716887111328,-0.0,0.27482783794403076,-1.403449837361471,-0.0,-0.02594153955578804,0.007467985153198242,-0.0,-0.0055121323093771935,1.2397733926773071,0.0,-0.032548896968364716
334.0,657.0,2.6548,1.2897,8.9671,-0.0379,0.0322,-0.1191,-1.760015150109762,0.0,2.887228488922119,-1.6929363012313843,-0.0,2.1237120628356934,4.710728808040283,-0.0,0.2914339005947113,-1.403449837361471,-0.0,-0.039539940655231476,0.00743566919118166,-0.0,-0.010755391791462898,1.2398056983947754,0.0,0.0048057399690151215
334.0,657.0,2.6548,1.2897,8.9671,-0.0379,0.0322,-0.1191,-1.7600676021971644,0.0,2.905400037765503,-1.6929527521133423,-0.0,2.094163417816162,4.7107130724140625,-0.0,0.29365795850753784,-1.4034860769854944,-0.0,-0.03474942594766617,0.007476220838725567,-0.0,-0.0033914288505911827,1.2397897243499756,0.0,-0.010237475857138634
334.0,657.0,2.6548,1.2897,8.9671,-0.0379,0.0322,-0.1191,-1.760019441644186,0.0,2.9404728412628174,-1.6930125951766968,-0.0,2.1083312034606934,4.710725470180176,-0.0,0.2834997773170471,-1.4034774939166468,-0.0,-0.031239718198776245,0.007463908288627863,-0.0,-0.0013875352451577783,1.239829659461975,0.0,-0.01598244160413742
334.0,657.0,2.6548,1.2897,8.9671,-0.0379,0.0322,-0.1191,-1.7600470981993617,0.0,2.899961471557617,-1.6930209398269653,-0.0,2.1383373737335205,4.710716887111328,-0.0,0.2920241951942444,-1.4034093062030237,-0.0,-0.038924552500247955,0.007500372361391783,-0.0,0.004465899895876646,1.2397897243499756,0.0,-0.01658240705728531
334.0,657.0,2.6548,1.2897,8.9671,-0.0379,0.0322,-0.1191,-1.7600475750365199,0.0,2.9566726684570312,-1.6930168867111206,-0.0,2.1280806064605713,4.710741205806396,-0.0,0.2917415499687195,-1.403421703969137,-0.0,-0.03686992824077606,0.007387355901300907,-0.0,-0.0008118334226310253,1.2398337125778198,0.0,0.008961448445916176
334.0,657.0,2.6548,1.2897,8.9671,-0.0379,0.0322,-0.1191,-1.7600437603392542,0.0,2.9403598308563232,-1.6929969787597656,-0.0,2.102320432662964,4.7107130724140625,-0.0,0.2750864028930664,-1.4034455458270472,-0.0,-0.015735242515802383,0.0074721435084939,-0.0,-0.005107742268592119,1.2397856712341309,0.0,-0.024733541533350945
334.0,657.0,2.6548,1.2897,8.9671,-0.0379,0.0322,-0.1191,-1.7600275478758753,0.0,2.91371488571167,-1.6929165124893188,2.0537029286060715e-06,2.0660555362701416,4.71077744543042,-0.0,0.2779783308506012,-1.4034331480609339,-0.0,-0.03754241764545441,0.007407831959426403,-0.0,0.004314741585403681,1.2397937774658203,0.0,0.025231601670384407
334.0,657.0,2.6548,1.2897,8.9671,-0.0379,0.0322,-0.1191,-1.760031362573141,0.0,2.948190212249756,-1.6930043697357178,0.002387553919106722,2.1230099201202393,4.710733099574707,-0.0,0.2844955325126648,-1.40346604982485,-0.0,-0.017473427578806877,0.00743566919118166,-0.0,-0.014376331120729446,1.2398016452789307,0.0,0.03638762980699539
334.0,657.0,2.6548,1.2897,8.9671,-0.0379,0.0322,-0.1191,-1.7600108585753382,0.0,2.900150775909424,-1.6929692029953003,0.0010811807587742805,2.1078362464904785,4.710765524501465,-0.0,0.2829822897911072,-1.4034455458270472,-0.0,-0.02280210331082344,0.007411517668515444,-0.0,-0.0027020880952477455,1.239821434020996,0.0,0.039068032056093216
334.0,657.0,2.6548,1.2897,8.9671,-0.0379,0.0322,-0.1191,-1.760031362573141,0.0,2.9015800952911377,-1.6929609775543213,-0.0025625957641750574,2.139357566833496,4.710733099574707,-0.0,0.28627222776412964,-1.40348989168276,-0.0,-0.01563546434044838,0.007447590120136738,-0.0,-0.006189939100295305,1.2397897243499756,0.0,-0.02451544813811779
334.0,657.0,2.6548,1.2897,8.9671,-0.0379,0.0322,-0.1191,-1.7600232563414515,0.0,2.908536911010742,-1.6929124593734741,-0.000980312586762011,2.0640032291412354,4.710737391109131,-0.0,0.28626948595046997,-1.4034622351275843,-0.0,-0.032698001712560654,0.007488149683922529,-0.0,-0.009880234487354755,1.2397856712341309,2.5399050918029076e-11,-0.012025057338178158
334.0,657.0,2.6548,1.2897,8.9671,-0.0379,0.0322,-0.1191,-1.760059495965475,0.0,2.9679746627807617,-1.692976474761963,0.0007771234377287328,2.1459732055664062,4.710749788875244,-0.0,0.2844228744506836,-1.4034579435931605,-0.0,-0.02400774136185646,0.0074558258056640625,-0.0,-0.00777534581720829,1.2398056983947754,4.571739207093629e-15,0.04729447886347771
305.0,626.0,2.6171,1.407,8.9659,-0.0287,0.0232,-0.1194,-1.7600556812682093,0.0,2.8945839405059814,-1.6929609775543213,0.0015300706727430224,2.0647335052490234,4.710741205806396,-0.0,0.29525136947631836,-1.4034455458270472,-0.0,-0.03305705636739731,0.007443904876708984,-0.0,-0.0015832127537578344,1.2398173809051514,1.1040214038064036e-20,-0.026835912838578224
305.0,626.0,2.6171,1.407,8.9659,-0.0287,0.0232,-0.1194,-1.7600437603392542,0.0,2.9227471351623535,-1.6929607391357422,0.0010671868221834302,2.0977425575256348,4.710693045253418,-0.0,0.2841513752937317,-1.4034417311297815,-0.0,-0.024006227031350136,0.0074197156354784966,-0.0,-0.003625154960900545,1.239837408065796,1.987199587604394e-24,0.04778222739696503
305.0,626.0,2.6171,1.407,8.9659,-0.0287,0.0232,-0.1194,-1.7600027523436488,0.0,2.9236037731170654,-1.692965030670166,0.0001345676719211042,2.096778392791748,4.7107130724140625,-0.0,0.2861959636211395,-1.4034579435931605,-0.0,-0.022533472627401352,0.00743566919118166,-0.0,-0.019633660092949867,1.239837408065796,4.798853560282789e-30,-0.0026788348332047462
305.0,626.0,2.6171,1.407,8.9659,-0.0287,0.0232,-0.1194,-1.760019441644186,0.0,2.9265666007995605,-1.6929527521133423,3.249650548653449e-10,2.087019205093384,4.710789843196533,-0.0,0.2912055253982544,-1.4034093062030237,-0.0,-0.016070716083049774,0.0074839829467237,-0.0,-0.008177031762897968,1.2398017644882202,1.1588663145526999e-35,0.013560330495238304
305.0,626.0,2.6171,1.407,8.9659,-0.0287,0.0232,-0.1194,-1.760015150109762,0.0,2.9462902545928955,-1.6929526329040527,5.849256490405783e-14,2.087128162384033,4.710741205806396,-0.0,0.29278701543807983,-1.4035304228412073,-0.0,-0.024837862700223923,0.007423814386129379,-0.0,-0.002464111428707838,1.2398056983947754,2.085918243353814e-39,0.021914128214120865
305.0,626.0,2.6171,1.407,8.9659,-0.0287,0.0232,-0.1194,-1.7600108585753382,0.0,2.9075493812561035,-1.6929526329040527,1.41252631347914e-19,2.0913429260253906,4.710728808040283,-0.0,0.28430014848709106,-1.4034693876849573,-0.0,-0.025795459747314453,0.007383279036730528,-0.0,-0.01490296795964241,1.2397856712341309,5.605193857299268e-45,0.012254633940756321
305.0,626.0,2.6171,1.407,8.9659,-0.0287,0.0232,-0.1194,-1.7600070438780726,0.0,2.9097890853881836,-1.6930125951766968,3.4110855836154615e-25,2.1024036407470703,4.7107249933430175,-0.0,0.2783365845680237,-1.4034178892718714,-0.0,-0.02613946795463562,0.00740745710209012,-0.0,-0.018834739923477173,1.239797592163086,0.0,0.02528081275522709
305.0,626.0,2.6171,1.407,8.9659,-0.0287,0.0232,-0.1194,-1.7600394688048304,0.0,2.8844335079193115,-1.692976474761963,6.139833968198019e-29,2.121058940887451,4.710769816035889,-0.0,0.28161028027534485,-1.403449837361471,-0.0,-0.021360334008932114,0.007467985153198242,-0.0,-0.005294900853186846,1.2398252487182617,0.0,-0.031185002997517586
305.0,626.0,2.6171,1.407,8.9659,-0.0287,0.0232,-0.1194,-1.7600394688048304,0.0,2.896718978881836,-1.6929484605789185,1.4826976312064514e-34,2.0968596935272217,4.710785074824951,-0.0,0.29868200421333313,-1.4034579435931605,-0.0,-0.02802923507988453,0.007443904876708984,-0.0,0.005238579120486975,1.2398496866226196,0.0,-0.03557143732905388
305.0,626.0,2.6171,1.407,8.9659,-0.0287,0.0232,-0.1194,-1.7600556812682093,0.0,2.9513356685638428,-1.6929526329040527,3.5805417841041996e-40,2.0966765880584717,4.710720701808594,-0.0,0.28844940662384033,-1.4035018126117151,-0.0,-0.031770799309015274,0.007443937938660383,-0.0,-0.0038783755153417587,1.239845633506775,0.0,0.04246953874826431
305.0,626.0,2.6171,1.407,8.9659,-0.0287,0.0232,-0.1194,-1.760015150109762,0.0,2.9657084941864014,-1.6930012702941895,6.445972935894159e-44,2.117034912109375,4.71074549734082,-0.0,0.2888554036617279,-1.4034536520587366,-0.0,-0.02979465201497078,0.007483925670385361,-0.0,0.00621451810002327,1.2398051023483276,0.0,-0.029784943908452988
305.0,626.0,2.6171,1.407,8.9659,-0.0287,0.0232,-0.1194,-1.7600275478758753,0.0,2.9474611282348633,-1.692984700202942,-0.0,2.1560888290405273,4.710733099574707,-0.0,0.2888287603855133,-1.4034736792193812,-0.0,-0.01784517616033554,0.007443904876708984,-0.0,-0.00016852328553795815,1.2398333549499512,0.0,0.0034408578649163246
305.0,626.0,2.6171,1.407,8.9659,-0.0287,0.0232,-0.1194,-1.760015150109762,0.0,2.9273390769958496,-1.6929805278778076,-0.0,2.062462329864502,4.710720701808594,-0.0,0.2853243350982666,-1.4034579435931605,-0.0,-0.0354246087372303,0.007463955786079168,-0.0,-4.6669505536556244e-05,1.2398414611816406,0.0,-0.03386662155389786
305.0,626.0,2.6171,1.407,8.9659,-0.0287,0.0232,-0.1194,-1.7600232563414515,0.0,2.931424379348755,-1.6929486989974976,-0.0,2.1235110759735107,4.710773630733154,-0.0,0.28276437520980835,-1.40348989168276,-0.0,-0.031558942049741745,0.007439852692186832,-0.0,0.008311448618769646,1.2398333549499512,0.0,0.03927949070930481
305.0,626.0,2.6171,1.407,8.9659,-0.0287,0.0232,-0.1194,-1.760015150109762,0.0,2.91214919090271,-1.6929609775543213,-0.0,2.136723279953003,4.7107531267353515,-0.0,0.27764639258384705,-1.4034774939166468,-0.0,-0.03957575932145119,0.007443937938660383,-0.0,-0.008175184950232506,1.239837408065796,0.0,-0.000182220246642828
305.0,626.0,2.6171,1.407,8.9659,-0.0287,0.0232,-0.1194,-1.7600027523436488,-6.177042877197891e-08,2.9607245922088623,-1.6929407119750977,-0.0,2.0934829711914062,4.710773630733154,-0.0,0.28238245844841003,-1.4034650961505335,-0.0,-0.03416544944047928,0.007480297703295946,-0.0,0.004341823980212212,1.239837408065796,0.0,-0.01806826703250408
305.0,626.0,2.6171,1.407,8.9659,-0.0287,0.0232,-0.1194,-1.7600275478758753,-1.4916831604563224e-13,2.9651741981506348,-1.6929324865341187,-0.0,2.0874454975128174,4.710737391109131,-0.0,0.2786564826965332,-1.4034455458270472,-0.0,-0.020157944411039352,0.007475829217582941,-0.0,-0.0027468169573694468,1.239829182624817,0.0009349665488116443,-0.07118509709835052
346.0,565.0,2.8756,1.2287,8.6447,-0.0174,0.0376,-0.1179,-1.759987016717428,-3.6022394772643685e-19,2.874103546142578,-1.6929724216461182,-0.0,2.1088216304779053,4.710761709804199,-0.0,0.2738304138183594,-1.4035099188434046,-0.0,-0.01845850795507431,0.007447590120136738,-0.0,0.0026912821922451258,1.2398935556411743,0.0024351056199520826,0.041924476623535156
346.0,565.0,2.8756,1.2287,8.6447,-0.0174,0.0376,-0.1179,-1.7600518665709437,-6.483904002033512e-23,2.921422004699707,-1.6929082870483398,-0.0,2.0700461864471436,4.71076933919873,-0.0,0.2884899973869324,-1.4034979979144495,-0.0,-0.013927376829087734,0.007476220838725567,-0.0,-0.01017043273895979,1.2398853302001953,0.00324781471863389,0.0019627700094133615
346.0,565.0,2.8756,1.2287,8.6447,-0.0174,0.0376,-0.1179,-1.760015150109762,-1.5657865818354129e-28,2.923281669616699,-1.6929489374160767,-0.0,2.0702662467956543,4.71077744543042,-0.0,0.2814023494720459,-1.403518025075094,-0.0,-0.026027271524071693,0.007447590120136738,-0.0,0.0014056176878511906,1.2398935556411743,0.0034493880812078714,0.0017420747317373753
346.0,565.0,2.8756,1.2287,8.6447,-0.0174,0.0376,-0.1179,-1.760015150109762,-2.8183602596805255e-32,2.9195704460144043,-1.6929566860198975,-0.0,2.139291286468506,4.710749312038086,-0.0,0.2797955870628357,-1.4034817854510706,-0.0,-0.006041118409484625,0.0074558258056640625,-0.0,0.020711589604616165,1.2399256229400635,0.004800226539373398,0.01939712092280388
346.0,565.0,2.8756,1.2287,8.6447,-0.0174,0.0376,-0.1179,-1.7600757084288539,-6.806008550333134e-38,2.888498306274414,-1.6929206848144531,-0.0,2.147444725036621,4.710757418269775,-0.0,0.281962126493454,-1.4034860769854944,-0.0,-0.03442241623997688,0.007480297703295946,-0.0,-0.02094034105539322,1.2399934530258179,0.0056689134798944,0.016879303380846977
346.0,565.0,2.8756,1.2287,8.6447,-0.0174,0.0376,-0.1179,-1.7600556812682093,-1.639519203260036e-43,2.9410948753356934,-1.6928926706314087,-0.0,2.1352529525756836,4.71077744543042,-0.0,0.28525102138519287,-1.4034455458270472,-0.0,-0.0270545557141304,0.007451667450368404,-0.0,-0.0017742204945534468,1.2399811744689941,0.005280084442347288,0.03362935036420822
346.0,565.0,2.8756,1.2287,8.6447,-0.0174,0.0376,-0.1179,-1.7600637874998988,-0.0,2.9226956367492676,-1.6929124593734741,0.00022929157421458513,2.122953176498413,4.710776968593262,-0.0,0.280959814786911,-1.4034937063800257,-0.0,-0.031816475093364716,0.007447590120136738,-0.0,-0.0018001754069700837,1.239997148513794,0.004813623148947954,-0.041857779026031494
346.0,565.0,2.8756,1.2287,8.6447,-0.0174,0.0376,-0.1179,-1.7600232563414515,0.0,2.925539493560791,-1.6929566860198975,0.0002786021796055138,2.0875773429870605,4.710761232967041,-0.0,0.288894921541214,-1.4035099188434046,-0.0,-0.030217934399843216,0.0074721435084939,-0.0,-0.01359756663441658,1.2400692701339722,0.005176134407520294,-0.018837597221136093
346.0,565.0,2.8756,1.2287,8.6447,-0.0174,0.0376,-0.1179,-1.760019441644186,0.0,2.9063632488250732,-1.6929329633712769,0.000725934689398855,2.073230266571045,4.710761232967041,-0.0,0.2870147228240967,-1.4034937063800257,-0.0,-0.037598785012960434,0.007515978999435902,-0.0,0.0001233962830156088,1.2400933504104614,0.005575025454163551,0.03513703867793083
346.0,565.0,2.8756,1.2287,8.6447,-0.0174,0.0376,-0.1179,-1.760059495965475,0.0,2.9498085975646973,-1.6929411888122559,0.0018506752094253898,2.0612263679504395,4.71082512914624,-0.0,0.28319525718688965,-1.4035256544696253,-0.0,-0.032444585114717484,0.0075848400592803955,-0.0,0.0036365205887705088,1.2400487661361694,0.0053028082475066185,-0.018754204735159874
346.0,565.0,2.8756,1.2287,8.6447,-0.0174,0.0376,-0.1179,-1.760043283502096,0.0,2.902458667755127,-1.6928527355194092,0.003884227480739355,2.120215654373169,4.710817022914551,0.0001331802923232317,0.2908513844013214,-1.4034894148456019,-0.0,-0.030594956129789352,0.0074721435084939,-0.0,-0.014673518016934395,1.240117073059082,0.0045569660142064095,0.02083844505250454
346.0,565.0,2.8756,1.2287,8.6447,-0.0174,0.0376,-0.1179,-1.7600795231261195,0.0,2.908806562423706,-1.6928809881210327,0.005885212682187557,2.092524290084839,4.710785074824951,0.0002193376567447558,0.2823931574821472,-1.4034650961505335,-0.0,-0.030557047575712204,0.007451667450368404,-0.0,0.0033150161616504192,1.2400970458984375,0.0030572586692869663,-0.00842136051505804
346.0,565.0,2.8756,1.2287,8.6447,-0.0174,0.0376,-0.1179,-1.7600590191283167,-0.0012719962978735566,2.9312844276428223,-1.6928086280822754,0.008359682746231556,2.115586757659912,4.710812731380127,0.0012796609662473202,0.2965492010116577,-1.4034860769854944,-0.0,-0.029209479689598083,0.0074315923266112804,-0.0,3.3110613003373146e-05,1.240105152130127,0.0015222304500639439,0.009423245675861835
346.0,565.0,2.8756,1.2287,8.6447,-0.0174,0.0376,-0.1179,-1.760155817071432,-0.0053151631727814674,2.9019787311553955,-1.6928410530090332,0.00567635940387845,2.1260828971862793,4.710793181056641,0.0006675748154520988,0.28725022077560425,-1.403518025075094,-0.0,-0.035697177052497864,0.0074839829467237,-0.0,0.0018061043228954077,1.2401010990142822,0.0004675900563597679,0.034662045538425446
346.0,565.0,2.8756,1.2287,8.6447,-0.0174,0.0376,-0.1179,-1.7602325878539027,-0.007749685551971197,2.9194788932800293,-1.6928328275680542,0.0024339878000319004,2.102996826171875,4.710813685054443,0.0003723518457263708,0.28481030464172363,-1.4034817854510706,-0.0,-0.020583953708410263,0.007451667450368404,-0.0,-0.014363506808876991,1.2400527000427246,0.00021019803534727544,0.03812906891107559
346.0,565.0,2.8756,1.2287,8.6447,-0.0174,0.0376,-0.1179,-1.760268350640768,-0.009999139234423637,2.911579132080078,-1.6928168535232544,-0.00123596319463104,2.081566572189331,4.710732622737549,0.00025459087919443846,0.29590168595314026,-1.4034135977374476,-0.0,-0.028316032141447067,0.007439828012138605,-0.0,-0.007191348820924759,1.2401413917541504,3.9848907817940926e-07,0.01110612042248249
346.0,565.0,2.8756,1.2287,8.6447,-0.0174,0.0376,-0.1179,-1.7603198490538539,-0.009023530408740044,2.9007604122161865,-1.6928366422653198,-0.0023427587002515793,2.1148529052734375,4.710797472591064,0.00019924482330679893,0.29162508249282837,-1.4034579435931605,-0.0,-0.020072124898433685,0.0074435132555663586,-0.0,-0.01659965142607689,1.2400970458984375,9.623042380307867e-13,0.04677661135792732
346.0,565.0,2.8756,1.2287,8.6447,-0.0174,0.0376,-0.1179,-1.7603069744505824,-0.007081066258251667,2.8788962364196777,-1.692796230316162,-0.0014234099071472883,2.094413995742798,4.71080128728833,-0.00014329612895380706,0.2782577872276306,-1.4034341017352503,-0.0,-0.021163228899240494,0.007439828012138605,-0.0,-0.0038064608816057444,1.2400290966033936,-0.0013784336624667048,0.00781120965257287
322.0,669.0,2.6064,0.7149,8.8511,-0.0935,0.0321,-0.1092,-1.7603918514647425,-0.00395291019231081,2.9121556282043457,-1.6928324699401855,-0.0002629107912071049,2.0923638343811035,4.71080128728833,-0.00011668482329696417,0.2852374315261841,-1.4034412542926233,-0.0,-0.010576648637652397,0.007439388427883387,-0.0,-0.01327734999358654,1.2400610446929932,-0.0016724019078537822,-0.0028635505586862564
322.0,669.0,2.6064,0.7149,8.8511,-0.0935,0.0321,-0.1092,-1.7604004345335902,-0.0025545416865497828,2.9068050384521484,-1.6928163766860962,-0.00020284541824366897,2.108405590057373,4.710797472591064,-0.00010328760981792584,0.28549185395240784,-1.4034298102008265,-0.0,-0.024422306567430496,0.007463908288627863,-0.0,-0.015192528255283833,1.2400171756744385,-0.0019288312178105116,0.05528470501303673
322.0,669.0,2.6064,0.7149,8.8511,-0.0935,0.0321,-0.1092,-1.7603875599303187,-0.0011071843327954412,2.9276814460754395,-1.6927725076675415,-0.00015157666348386556,2.1121666431427,4.710808916682861,-4.4463129597716033e-05,0.2856677174568176,-1.4034412542926233,-0.0,-0.02545064687728882,0.0074958838522434235,-0.0,-0.01614890992641449,1.239988923072815,-0.0031689577735960484,-0.07067544758319855
322.0,669.0,2.6064,0.7149,8.8511,-0.0935,0.0321,-0.1092,-1.7603680096068324,-0.0006851300713606179,2.943394660949707,-1.6928691864013672,-1.0474526845882792e-07,2.105178117752075,4.710788889522217,-1.339331333838345e-06,0.2718668282032013,-1.4034178892718714,-0.0,-0.025161877274513245,0.0074558258056640625,-0.0,0.0014079329557716846,1.2399451732635498,-0.006208439823240042,0.023483537137508392
322.0,669.0,2.6064,0.7149,8.8511,-0.0935,0.0321,-0.1092,-1.7603517971434535,-0.00045920719276182353,2.9184517860412598,-1.6927725076675415,-1.8853779648608793e-11,2.103696346282959,4.710845633144043,-5.709778871931803e-09,0.2861146926879883,-1.4034817854510706,-0.0,-0.03832355514168739,0.00752013735473156,-0.0,0.005732417106628418,1.2399373054504395,-0.007983979769051075,0.01482667401432991
322.0,669.0,2.6064,0.7149,8.8511,-0.0935,0.0321,-0.1092,-1.760383745233053,-0.0003492636024020612,2.939155101776123,-1.692800760269165,0.0015881451545283198,2.1150145530700684,4.710840864772461,0.001472639269195497,0.2834545075893402,-1.4034536520587366,-0.0,-0.027553217485547066,0.007504200097173452,-0.0,-0.013773063197731972,1.2398772239685059,-0.009364869445562363,0.018159085884690285
322.0,669.0,2.6064,0.7149,8.8511,-0.0935,0.0321,-0.1092,-1.7603475056090296,-0.00022664168500341475,2.929594039916992,-1.6927889585494995,0.0023927309084683657,2.1356208324432373,4.710925741786621,0.004237595945596695,0.3077016770839691,-1.4034650961505335,-0.0,-0.031099746003746986,0.0074918270111083984,-0.0,-0.0015100606251507998,1.2398173809051514,-0.007618389558047056,0.03458036854863167
322.0,669.0,2.6064,0.7149,8.8511,-0.0935,0.0321,-0.1092,-1.7603761158385218,-0.00015099201118573546,2.8860769271850586,-1.6927847862243652,0.00304630515165627,2.1321935653686523,4.710929556483887,0.007723665330559015,0.2969612181186676,-1.4034693876849573,-0.0,-0.03881156072020531,0.007439436390995979,-0.0,-0.0014342807698994875,1.2397372722625732,-0.00681022135540843,-0.0014982642605900764
322.0,669.0,2.6064,0.7149,8.8511,-0.0935,0.0321,-0.1092,-1.7603188953795375,0.00012540032912511379,2.916062116622925,-1.692732810974121,0.004634931683540344,2.162261962890625,4.711021109218262,0.01622842252254486,0.31617552042007446,-1.4034774939166468,-0.0,-0.018849622458219528,0.007467968855053186,-0.0,-0.008315883576869965,1.2397377490997314,-0.008065156638622284,0.0004938915371894836
322.0,669.0,2.6064,0.7149,8.8511,-0.0935,0.0321,-0.1092,-1.7603074512877406,0.00012242792581673712,2.9171409606933594,-1.6927567720413208,0.004721938166767359,2.15010666847229,4.711133642787598,0.014949760399758816,0.3130761981010437,-1.4034178892718714,-0.0,-0.04177011922001839,0.007447623182088137,-0.0,-0.004569447599351406,1.2396697998046875,-0.008467755280435085,-0.00829063169658184
322.0,669.0,2.6064,0.7149,8.8511,-0.0935,0.0321,-0.1092,-1.7603031597533167,0.00011224786430830136,2.9370903968811035,-1.6926721334457397,0.004043424502015114,2.1545300483703613,4.711128874416016,0.01081095915287733,0.3100721836090088,-1.403506104146139,-0.0,-0.02611074596643448,0.007499980740249157,-0.0,-0.0017195931868627667,1.2396456003189087,-0.0077368575148284435,-0.02879335545003414
322.0,669.0,2.6064,0.7149,8.8511,-0.0935,0.0321,-0.1092,-1.7603231869139613,9.980006871046498e-05,2.9346861839294434,-1.6926884651184082,0.0023224777542054653,2.1006739139556885,4.711165114040039,0.004204738885164261,0.32007139921188354,-1.4035018126117151,-0.0,-0.025632042437791824,0.007552428636699915,-0.0,0.01822534389793873,1.2395615577697754,-0.0075186374597251415,0.025146443396806717
322.0,669.0,2.6064,0.7149,8.8511,-0.0935,0.0321,-0.1092,-1.760327478448385,6.197067705215886e-05,2.8909881114959717,-1.692692518234253,0.0016567587153986096,2.1090269088745117,4.711144610042236,0.0018129124073311687,0.31058967113494873,-1.4034817854510706,-0.0,-0.030214745551347733,0.0074996016919612885,-0.0,0.008213753812015057,1.2396386861801147,-0.007990365847945213,-0.033285435289144516
322.0,669.0,2.6064,0.7149,8.8511,-0.0935,0.0321,-0.1092,-1.7603517971434535,5.615480404230766e-05,2.878793239593506,-1.6926119327545166,0.0008661015308462083,2.115007162094116,4.711229010219238,0.00015563139459118247,0.3038257956504822,-1.4034817854510706,-0.0,-0.03523717448115349,0.007499560713768005,-0.0,0.005703686736524105,1.2394816875457764,-0.008727884851396084,-0.007431137375533581
322.0,669.0,2.6064,0.7149,8.8511,-0.0935,0.0321,-0.1092,-1.760359903375143,5.134897219249979e-05,2.921165943145752,-1.6926965713500977,0.0002062287530861795,2.1244890689849854,4.71118084966626,0.00020302039047237486,0.29551705718040466,-1.4034975210772913,-0.0,-0.02357187122106552,0.00757205206900835,-0.0,0.014812634326517582,1.2394498586654663,-0.008732518181204796,0.015712056308984756
322.0,669.0,2.6064,0.7149,8.8511,-0.0935,0.0321,-0.1092,-1.7603680096068324,3.261091114836745e-05,2.9082350730895996,-1.6926605701446533,0.00016759514983277768,2.0840189456939697,4.711193247432373,8.333225559908897e-05,0.3049633204936981,-1.4034541288958948,-0.0,-0.04121163487434387,0.0074877748265862465,-0.0,0.00333287101238966,1.2394822835922241,-0.00783977098762989,0.0733712688088417
322.0,669.0,2.6064,0.7149,8.8511,-0.0935,0.0321,-0.1092,-1.7603312931456507,2.2469479517894797e-05,2.8964991569519043,-1.6926687955856323,0.0001309939834754914,2.1283960342407227,4.711169405574463,6.4938394643832e-05,0.3091442584991455,-1.4034979979144495,-0.0,-0.0432099886238575,0.007520077750086784,-0.0,0.019803747534751892,1.2393579483032227,-0.007575714960694313,0.005353247746825218
315.0,615.0,2.7021,1.0893,8.8463,-0.042,0.0249,-0.1251,-1.7604204616942347,2.0903820768580772e-05,2.903139591217041,-1.6926770210266113,0.00016118137864395976,2.1405160427093506,4.711160822505615,5.337730181054212e-05,0.2954001724720001,-1.4034774939166468,-0.0,-0.047094088047742844,0.007520078215748072,-0.0,0.013078976422548294,1.239286184310913,-0.006874228827655315,0.08253496885299683
315.0,615.0,2.7021,1.0893,8.8463,-0.042,0.0249,-0.1251,-1.760388036767477,1.997589242819231e-05,2.871565818786621,-1.6926729679107666,0.00016663639689795673,2.0836706161499023,4.7112013536640625,4.771546446136199e-05,0.3111201226711273,-1.4035018126117151,-0.0,-0.04160130023956299,0.0074995895847678185,5.443544432637282e-05,0.02684732899069786,1.2392981052398682,-0.006823444273322821,0.04507718235254288
315.0,615.0,2.7021,1.0893,8.8463,-0.042,0.0249,-0.1251,-1.760383745233053,1.8728800569078885e-05,2.861227512359619,-1.6927050352096558,0.0002838002401404083,2.084467649459839,4.7112013536640625,4.116585841984488e-05,0.3098101019859314,-1.40348989168276,-0.0,-0.0439239963889122,0.007527828216552734,6.95277558406815e-05,0.028146667405962944,1.2393068075180054,-0.005639381241053343,0.05715535953640938
315.0,615.0,2.7021,1.0893,8.8463,-0.042,0.0249,-0.1251,-1.7603351078429164,1.7980459233513102e-05,2.8271031379699707,-1.6926366090774536,0.0010317544220015407,2.105443239212036,4.711160822505615,3.7714893551310524e-05,0.3001176118850708,-1.4034693876849573,-0.0,-0.04845764487981796,0.007491435389965773,6.744852726114914e-05,0.03160354495048523,1.2392301559448242,-0.0052599492482841015,0.01877891644835472
315.0,615.0,2.7021,1.0893,8.8463,-0.042,0.0249,-0.1251,-1.7603193722166957,1.6963760572252795e-05,2.8588552474975586,-1.692664623260498,0.0015010469360277057,2.1288888454437256,4.711165114040039,3.350231781951152e-05,0.31097814440727234,-1.40348989168276,-0.0,-0.0585213303565979,0.007536063902080059,7.744085451122373e-05,0.031483180820941925,1.2392146587371826,-0.00471519073471427,0.05976991355419159
315.0,615.0,2.7021,1.0893,8.8463,-0.042,0.0249,-0.1251,-1.760371824304098,2.996928261111975e-09,2.835103750228882,-1.6926324367523193,0.0021887547336518764,2.1179075241088867,4.7112013536640625,3.0136470741126686e-05,0.31528422236442566,-1.4034774939166468,-0.0,-0.04369192570447922,0.007527828216552734,7.425995863741264e-05,0.030133884400129318,1.2391703128814697,-0.004640108440071344,0.08035872131586075
315.0,615.0,2.7021,1.0893,8.8463,-0.042,0.0249,-0.1251,-1.7603637180724085,5.394364967735432e-13,2.840512990951538,-1.6926209926605225,0.0024125860072672367,2.0696184635162354,4.711124582881592,2.8244696295587346e-05,0.31425994634628296,-1.40348989168276,-0.0,-0.046673014760017395,0.007527828216552734,7.227219612104818e-05,0.03955652564764023,1.2391583919525146,-0.0036497064866125584,0.05534818023443222
315.0,615.0,2.7021,1.0893,8.8463,-0.042,0.0249,-0.1251,-1.760355611840719,1.3026757717045147e-18,2.8364429473876953,-1.6926571130752563,0.0028201816603541374,2.15136456489563,4.711148424739502,2.5814113541855477e-05,0.30807799100875854,-1.4034536520587366,-0.0,-0.07390118390321732,0.007523751351982355,8.101213461486623e-05,0.04243762046098709,1.2391748428344727,-0.0029794282745569944,0.01762217842042446
315.0,615.0,2.7021,1.0893,8.8463,-0.042,0.0249,-0.1251,-1.7603956661620082,3.145808079357225e-24,2.8549580574035645,-1.6926045417785645,0.0026770345866680145,2.111562490463257,4.711169405574463,4.129151705001277e-07,0.30147892236709595,-1.4034860769854944,-0.0,-0.055907733738422394,0.007547902874648571,7.804998313076794e-05,0.05006192624568939,1.2391265630722046,-0.002044931286945939,0.06410615146160126
315.0,615.0,2.7021,1.0893,8.8463,-0.042,0.0249,-0.1251,-1.7603680096068324,-0.0004272240330465138,2.792710781097412,-1.6925766468048096,0.0022860178723931313,2.117955207824707,4.71118084966626,1.7603222213224967e-09,0.3159613311290741,-1.4034860769854944,-0.0,-0.05161594972014427,0.007519674487411976,7.616283983225003e-05,0.04916239529848099,1.2391425371170044,-0.001563715166412294,0.0852126032114029
315.0,615.0,2.7021,1.0893,8.8463,-0.042,0.0249,-0.1251,-1.7603875599303187,-0.000697181501891464,2.752873420715332,-1.692604899406433,0.0015960776945576072,2.1164538860321045,4.711148424739502,4.899922156388625e-13,0.3006460964679718,-1.4034650961505335,-0.0,-0.07130665332078934,0.0075397491455078125,8.399091166211292e-05,0.04991356283426285,1.239179015159607,-0.0012370850890874863,0.09519918262958527
315.0,615.0,2.7021,1.0893,8.8463,-0.042,0.0249,-0.1251,-1.7603918514647425,-0.0008389507420361042,2.7638325691223145,-1.6925811767578125,0.0014937883242964745,2.1020028591156006,4.711165114040039,2.0889139027612186e-15,0.3150634169578552,-1.4034941832171839,-0.0,-0.06170489266514778,0.007519674487411976,8.208174403989688e-05,0.052168458700180054,1.23910653591156,-0.0011086513986811042,0.06460999697446823
315.0,615.0,2.7021,1.0893,8.8463,-0.042,0.0249,-0.1251,-1.760383745233053,-0.0007538394420407712,2.763246536254883,-1.6925568580627441,0.001506649306975305,2.1144473552703857,4.711237593288086,5.814567888243767e-19,0.31201139092445374,-1.403456989918844,3.470622400580936e-10,-0.07031616568565369,0.0076121981255710125,4.023047586088069e-05,0.04153351113200188,1.2391467094421387,-0.0008705274667590857,0.09579814970493317
315.0,615.0,2.7021,1.0893,8.8463,-0.042,0.0249,-0.1251,-1.7603794536986292,-0.0006243854877538979,2.7795591354370117,-1.692581057548523,0.0016629823949187994,2.110684871673584,4.711197062129639,1.6185064241129293e-22,0.3176484704017639,-1.4034612814532679,9.660605242199985e-14,-0.06210215389728546,0.007592188660055399,0.00013921970094088465,0.05051621049642563,1.2391347885131836,-0.0007716122199781239,0.0949179157614708
315.0,615.0,2.7021,1.0893,8.8463,-0.042,0.0249,-0.1251,-1.7603713474669398,-0.0005390309379436076,2.776458740234375,-1.6925045251846313,0.002087992848828435,2.1377182006835938,4.7112013536640625,6.899946936028926e-25,0.318598210811615,-1.4034331480609339,4.1184674189415006e-16,-0.08057913184165955,0.0075475117191672325,0.00013130785373505205,0.04753982275724411,1.2391225099563599,-0.0006197624607011676,0.09684242308139801
315.0,615.0,2.7021,1.0893,8.8463,-0.042,0.0249,-0.1251,-1.7603713474669398,-0.0004401550395414233,2.7903385162353516,-1.6925206184387207,0.002960017416626215,2.1608595848083496,4.71118084966626,1.9206258129497719e-28,0.31125491857528687,-1.4035337607013147,1.1463903864190653e-19,-0.07382221519947052,0.007535614538937807,0.0001446726091671735,0.0574413426220417,1.2391388416290283,-0.0004784950870089233,0.11632699519395828
315.0,615.0,2.7021,1.0893,8.8463,-0.042,0.0249,-0.1251,-1.7604242763915003,-0.00029658415587618947,2.813142776489258,-1.6925371885299683,0.004113455303013325,2.1174206733703613,4.711225195521973,5.346132438366027e-32,0.31376388669013977,-1.4034774939166468,3.1910196699877044e-23,-0.0684489905834198,0.007535712793469429,0.00013409217353910208,0.06612130999565125,1.2391430139541626,-0.00038968518492765725,0.10238516330718994
315.0,615.0,2.7021,1.0893,8.8463,-0.042,0.0249,-0.1251,-1.7604080639281214,-0.0002620065934024751,2.792409896850586,-1.692420244216919,0.0054763248190283775,2.107192277908325,4.711165114040039,2.2791400532816686e-34,0.3057507276535034,-1.4035018126117151,1.3603817563684511e-25,-0.08266744017601013,0.007531553972512484,0.0001277475239476189,0.060261987149715424,1.2391107082366943,-0.00039623427437618375,0.09091886878013611
303.0,572.0,2.5729,1.3687,9.0102,-0.0231,0.037,-0.1129,-1.7603713474669398,-0.0002230430400231853,2.797011613845825,-1.6924165487289429,0.007629441563040018,2.1363115310668945,4.71119658529248,6.344070511568458e-38,0.31953027844429016,-1.4034774939166468,3.78667317868804e-29,-0.08245661109685898,0.007588071282953024,0.00013915609451942146,0.061301469802856445,1.2391430139541626,-0.00034014382981695235,0.11028115451335907
303.0,572.0,2.5729,1.3687,9.0102,-0.0231,0.037,-0.1129,-1.7604042492308558,-0.00019416867871768773,2.766058921813965,-1.69234037399292,0.0077331350184977055,2.122445583343506,4.711176558131836,1.7659163247421345e-41,0.3176802396774292,-1.4034774939166468,1.0540343399084607e-32,-0.07673855870962143,0.007608058396726847,0.00013968344137538224,0.06553025543689728,1.2391430139541626,-0.0002979177806992084,0.12057076394557953
303.0,572.0,2.5729,1.3687,9.0102,-0.0231,0.037,-0.1129,-1.7604519329466761,-0.0002144843601854518,2.753575325012207,-1.6923770904541016,0.008192564360797405,2.128127336502075,4.711193247432373,7.567011707354012e-44,0.3169493079185486,-1.4034817854510706,4.493513122897914e-35,-0.08762392401695251,0.007595825009047985,0.00014318285684566945,0.06483903527259827,1.2391871213912964,-0.0002751471474766731,0.08112286031246185
303.0,572.0,2.5729,1.3687,9.0102,-0.0231,0.037,-0.1129,-1.7603756390013636,-0.00022358843125402927,2.841848850250244,-1.6922922134399414,0.007578900083899498,2.163177967071533,4.711200876826904,0.0,0.30995699763298035,-1.4034817854510706,1.2507859771806135e-38,-0.08476860821247101,0.007571714464575052,0.0001351574610453099,0.06336774677038193,1.2391467094421387,-0.0002468464954290539,0.089714914560318
303.0,572.0,2.5729,1.3687,9.0102,-0.0231,0.037,-0.1129,-1.7604237995543421,-0.0002584085159469396,2.79670786857605,-1.692317008972168,0.006780469790101051,2.1155431270599365,4.711148424739502,0.0,0.32525938749313354,-1.4034894148456019,5.332361046295226e-41,-0.09248742461204529,0.007575766649097204,0.00017885449051391333,0.06703265756368637,1.2391425371170044,-0.00023100635735318065,0.10530148446559906
303.0,572.0,2.5729,1.3687,9.0102,-0.0231,0.037,-0.1129,-1.760416170159811,-0.00031923942151479423,2.816372871398926,-1.6922047138214111,0.006390899885445833,2.125594139099121,4.711184664363525,0.0,0.32368141412734985,-1.4035137335406702,1.5414283107572988e-44,-0.08472087979316711,0.007591772824525833,0.00017588619084563106,0.07854416966438293,1.2391831874847412,-0.0001934118481585756,0.14192190766334534
303.0,572.0,2.5729,1.3687,9.0102,-0.0231,0.037,-0.1129,-1.7603918514647425,-0.0007047937833704054,2.752351760864258,-1.6921807527542114,0.005327059421688318,2.1870126724243164,4.711205168361328,0.0,0.3292751908302307,-1.4034937063800257,0.0,-0.0862148106098175,0.0075516533106565475,0.00017367259715683758,0.07410141825675964,1.2391630411148071,-0.00016950028657447547,0.09197959303855896
303.0,572.0,2.5729,1.3687,9.0102,-0.0231,0.037,-0.1129,-1.7604319057860316,-0.000743389711715281,2.778609037399292,-1.6921570301055908,0.005173448473215103,2.0808939933776855,4.71118084966626,0.0,0.31246301531791687,-1.4034894148456019,0.0,-0.09709465503692627,0.007535199169069529,0.00018944333714898676,0.07744738459587097,1.2391548156738281,-0.00016084541857708246,0.12667398154735565
303.0,572.0,2.5729,1.3687,9.0102,-0.0231,0.037,-0.1129,-1.7604237995543421,-0.0006356432568281889,2.7682790756225586,-1.6921528577804565,0.004576337058097124,2.1256606578826904,4.711205645198486,0.0,0.3255006670951843,-1.4034894148456019,0.0,-0.0938262939453125,0.007616301532834768,0.00018679314234759659,0.08077728748321533,1.2391670942306519,-4.7304438339779153e-05,0.14191700518131256
303.0,572.0,2.5729,1.3687,9.0102,-0.0231,0.037,-0.1129,-1.760440012017721,-0.0006002275622449815,2.8079774379730225,-1.6921005249023438,0.004376442637294531,2.144437789916992,4.7112132745930175,0.0,0.31786981225013733,-1.403501335774557,0.0,-0.09433324635028839,0.007567946799099445,0.00018417355022393167,0.07938500493764877,1.2391670942306519,-4.384673957247287e-05,0.12135103344917297
303.0,572.0,2.5729,1.3687,9.0102,-0.0231,0.037,-0.1129,-1.7604519329466761,-0.0005750181735493243,2.7569894790649414,-1.692116618156433,0.004698446020483971,2.131474494934082,4.71118084966626,0.0,0.31902948021888733,-1.4034774939166468,0.0,-0.08725263178348541,0.007571665104478598,0.00017521261179354042,0.08673368394374847,1.2391307353973389,-4.180991163593717e-05,0.12516510486602783
303.0,572.0,2.5729,1.3687,9.0102,-0.0231,0.037,-0.1129,-1.7604638538756312,-0.0005167071940377355,2.7902798652648926,-1.692048192024231,0.004247811157256365,2.1181833744049072,4.711172266597412,0.0,0.32831382751464844,-1.4035218397723597,0.0,-0.10168826580047607,0.007632274646311998,0.00021871228818781674,0.08001913875341415,1.2391670942306519,-1.95431803149404e-05,0.12707209587097168
303.0,572.0,2.5729,1.3687,9.0102,-0.0231,0.037,-0.1129,-1.7604357204832972,-0.0005219968152232468,2.768731117248535,-1.6920400857925415,0.0047132764011621475,2.080021381378174,4.711172266597412,0.0,0.31218019127845764,-1.4034937063800257,0.0,-0.09148131310939789,0.007571668829768896,0.00022881968470755965,0.09477505087852478,1.239179015159607,-3.00436298061868e-08,0.1385951042175293
303.0,572.0,2.5729,1.3687,9.0102,-0.0231,0.037,-0.1129,-1.7604237995543421,-0.0005404383991844952,2.771047830581665,-1.6920130252838135,0.004556596279144287,2.1213691234588623,4.7111403185078125,0.0,0.30623123049736023,-1.4034975210772913,0.0,-0.10649960488080978,0.00756349042057991,0.00021116486459504813,0.08113400638103485,1.2391786575317383,-7.255184137928278e-14,0.13541176915168762
303.0,572.0,2.5729,1.3687,9.0102,-0.0231,0.037,-0.1129,-1.7604228458800257,-0.0007739236461929977,2.8114700317382812,-1.6919887065887451,0.004210139159113169,2.1412546634674072,4.7112132745930175,0.0,0.3096393644809723,-1.4035175482379358,0.0,-0.0844971239566803,0.007632324006408453,0.00021631257550325245,0.07718726992607117,1.239170789718628,-1.7520416911727353e-19,0.17833274602890015
303.0,572.0,2.5729,1.3687,9.0102,-0.0231,0.037,-0.1129,-1.7604395351805628,-0.0009894820395857096,2.776154041290283,-1.6920170783996582,0.004568431992083788,2.1159780025482178,4.711176558131836,0.0,0.32140931487083435,-1.4035175482379358,0.0,-0.10362233221530914,0.007571673486381769,0.00020604768360499293,0.09471451491117477,1.2391748428344727,-3.1536128324952103e-23,0.08763523399829865
303.0,572.0,2.5729,1.3687,9.0102,-0.0231,0.037,-0.1129,-1.7604395351805628,-0.0015835994854569435,2.72723126411438,-1.6919445991516113,0.003670291043817997,2.1463582515716553,4.711184664363525,0.0,0.31383687257766724,-1.4035218397723597,0.0,-0.09761695563793182,0.007583937142044306,0.00018764997366815805,0.08130115270614624,1.2391867637634277,-7.615603667768366e-29,0.12266387045383453
312.0,512.0,2.7045,1.1515,9.0245,-0.0414,0.0231,-0.113,-1.7605043850340785,-0.0019479963229969144,2.728781223297119,-1.691916584968567,0.0037638514768332243,2.152421474456787,4.711208983058594,0.0,0.3071417212486267,-1.4034894148456019,0.0,-0.09838184714317322,0.0075876545161008835,0.00017225643387064338,0.1013123095035553,1.2391786575317383,-1.8390787049888494e-34,0.14149267971515656
312.0,512.0,2.7045,1.1515,9.0245,-0.0414,0.0231,-0.113,-1.760479589501852,-0.0023667782079428434,2.7265214920043945,-1.6919286251068115,0.003510353621095419,2.1300370693206787,4.711136503810547,0.0,0.3140425384044647,-1.403541390095846,0.0,-0.09738434106111526,0.0076317861676216125,0.0001633245701668784,0.08956293761730194,1.2391786575317383,0.00016505931853316724,0.12953892350196838
312.0,512.0,2.7045,1.1515,9.0245,-0.0414,0.0231,-0.113,-1.760475297967428,-0.0029561666306108236,2.7549920082092285,-1.6918805837631226,0.0032936823554337025,2.1558749675750732,4.711208983058594,0.0,0.3139244318008423,-1.4035218397723597,0.0,-0.10465598106384277,0.007535247132182121,0.00015153823187574744,0.09307387471199036,1.239219069480896,0.00033111622906289995,0.15949591994285583
312.0,512.0,2.7045,1.1515,9.0245,-0.0414,0.0231,-0.113,-1.760479589501852,-0.0028819588478654623,2.717820167541504,-1.69190514087677,0.003251954447478056,2.0836894512176514,4.7112013536640625,0.0,0.31857025623321533,-1.4034975210772913,0.0,-0.1040797084569931,0.007567538879811764,0.000163856748258695,0.09543676674365997,1.239243507385254,0.000288631534203887,0.1445685178041458
312.0,512.0,2.7045,1.1515,9.0245,-0.0414,0.0231,-0.113,-1.7605239353575648,-0.0031415040139108896,2.6997787952423096,-1.6918524503707886,0.0038839278277009726,2.131277322769165,4.711217089290283,0.0,0.31592655181884766,-1.4035175482379358,0.0,-0.10279487073421478,0.007579459808766842,0.00015459272253792733,0.07739734649658203,1.2391867637634277,0.00024204979126807302,0.1938709318637848
312.0,512.0,2.7045,1.1515,9.0245,-0.0414,0.0231,-0.113,-1.760514875451559,-0.002640088787302375,2.747201681137085,-1.6918327808380127,0.0041946787387132645,2.104597330093384,4.7112132745930175,0.0,0.30111008882522583,-1.4034937063800257,0.0,-0.10411422699689865,0.007567538879811764,0.00014523742720484734,0.08644212782382965,1.2391986846923828,0.0002084154257318005,0.11979904770851135
312.0,512.0,2.7045,1.1515,9.0245,-0.0414,0.0231,-0.113,-1.7605473003783167,-0.0024469271302223206,2.7402944564819336,-1.6917965412139893,0.004234700929373503,2.094125747680664,4.711217089290283,0.0,0.3013665974140167,-1.4035056273089808,0.0,-0.09896974265575409,0.007608042098581791,0.00013960516662336886,0.09007821977138519,1.239182710647583,0.00019074500596616417,0.13836689293384552
312.0,512.0,2.7045,1.1515,9.0245,-0.0414,0.0231,-0.113,-1.7605678043761195,-0.0022471921984106302,2.7634224891662598,-1.6917728185653687,0.00507072638720274,2.1244750022888184,4.7112013536640625,0.0,0.3212737739086151,-1.4035456816302698,0.0,-0.10332117974758148,0.007575783412903547,0.00013193082122597843,0.08573587238788605,1.239202857017517,0.00016922492068260908,0.13372552394866943
312.0,512.0,2.7045,1.1515,9.0245,-0.0414,0.0231,-0.113,-1.7605554066100062,-0.002023936714977026,2.729281425476074,-1.6917601823806763,0.005699213594198227,2.107114553451538,4.711200876826904,0.0,0.31791186332702637,-1.403557602559225,0.0,-0.10659056901931763,0.007579459808766842,0.00012505616177804768,0.09024740755558014,1.2392151355743408,0.00015206837269943208,0.11142043769359589
312.0,512.0,2.7045,1.1515,9.0245,-0.0414,0.0231,-0.113,-1.7606083355345667,-0.001925519434735179,2.7692136764526367,-1.6917643547058105,0.006175127346068621,2.139528512954712,4.711176558131836,0.0,0.31316426396369934,-1.4035218397723597,0.0,-0.09467479586601257,0.007551553193479776,0.00012085776688763872,0.08860895037651062,1.2391748428344727,0.00017091368499677628,0.17201963067054749
312.0,512.0,2.7045,1.1515,9.0245,-0.0414,0.0231,-0.113,-1.7606202564635218,-0.0018381457775831223,2.762455940246582,-1.6917203664779663,0.006522712763398886,2.1404027938842773,4.711152716273926,0.0,0.31152552366256714,-1.4035375753985804,-8.257502486230806e-05,-0.09541672468185425,0.007519648876041174,0.00011506349983392283,0.09313862770795822,1.2392067909240723,0.0001561054086778313,0.15754979848861694
312.0,512.0,2.7045,1.1515,9.0245,-0.0414,0.0231,-0.113,-1.7606398067870082,-0.0017127832397818565,2.7450592517852783,-1.6916484832763672,0.007116700056940317,2.145244598388672,4.711200876826904,0.0,0.32143038511276245,-1.4035819212542933,-7.974279287736863e-05,-0.10298560559749603,0.00756762083619833,0.0001114996921387501,0.08769382536411285,1.2392269372940063,0.0001475731551181525,0.18304622173309326
312.0,512.0,2.7045,1.1515,9.0245,-0.0414,0.0231,-0.113,-1.7606202564635218,-0.001536815776489675,2.7893226146698,-1.6916327476501465,0.0073044938035309315,2.1659348011016846,4.711208983058594,0.0,0.30620720982551575,-1.4035175482379358,-7.571786409243941e-05,-0.1028643548488617,0.007591716479510069,0.00010654961806721985,0.09375675022602081,1.239134430885315,0.00013639101234730333,0.1270706206560135
312.0,512.0,2.7045,1.1515,9.0245,-0.0414,0.0231,-0.113,-1.7606193027892054,-0.0013637769734486938,2.712012767791748,-1.691596508026123,0.007981400936841965,2.1075077056884766,4.711200876826904,0.0,0.3183348476886749,-1.4034693876849573,-7.207936141639948e-05,-0.1048867329955101,0.0075556994415819645,0.00010202031262451783,0.08675666898488998,1.239134430885315,0.00012678452185355127,0.12380284070968628
312.0,512.0,2.7045,1.1515,9.0245,-0.0414,0.0231,-0.113,-1.7605954609312953,-0.0012055020779371262,2.738919734954834,-1.6915323734283447,0.008047797717154026,2.1877048015594482,4.71118084966626,0.0,0.31939858198165894,-1.4035218397723597,-6.984196079429239e-05,-0.09939160943031311,0.007587687578052282,9.920888260239735e-05,0.07677662372589111,1.2391908168792725,0.00010094735625898466,0.1739455908536911
312.0,512.0,2.7045,1.1515,9.0245,-0.0414,0.0231,-0.113,-1.760672231713766,-0.0009600874036550522,2.76755952835083,-1.6914966106414795,0.009034560061991215,2.1379356384277344,4.7111403185078125,0.0,0.32221198081970215,-1.4034693876849573,-6.673466850770637e-05,-0.10453879833221436,0.007571685127913952,9.52706323005259e-05,0.07727152109146118,1.239190936088562,9.455365216126665e-05,0.10027816891670227
312.0,512.0,2.7045,1.1515,9.0245,-0.0414,0.0231,-0.113,-1.760672231713766,-0.0007350268424488604,2.7889974117279053,-1.691431999206543,0.009067810140550137,2.090728759765625,4.711168451900146,0.0,0.3213617503643036,-1.4034856001483362,-6.389212649082765e-05,-0.1039389967918396,0.007603976875543594,9.163318463834003e-05,0.08813998103141785,1.239182710647583,7.118604116840288e-05,0.12127864360809326
312.0,512.0,2.7045,1.1515,9.0245,-0.0414,0.0231,-0.113,-1.7606035671629847,-0.0007707942859269679,2.7453598976135254,-1.6913678646087646,0.009040804579854012,2.1679880619049072,4.711200876826904,0.0,0.3130931556224823,-1.4034488836871546,-6.21278741164133e-05,-0.11546666920185089,0.007591777481138706,8.935868390835822e-05,0.07964200526475906,1.2391507625579834,6.845156167401001e-05,0.08901958167552948
292.0,494.0,2.7715,1.2389,8.9462,-0.0496,0.0257,-0.1171,-1.7606398067870082,-0.0007258107070811093,2.7595276832580566,-1.6913763284683228,0.009556028060615063,2.133418560028076,4.711225195521973,0.0,0.3207823932170868,-1.4034817854510706,-5.9657020756276324e-05,-0.10592129826545715,0.007531537674367428,8.615108527010307e-05,0.08119548857212067,1.2391425371170044,6.475758709711954e-05,0.09141188859939575
292.0,494.0,2.7715,1.2389,8.9462,-0.0496,0.0257,-0.1171,-1.7606355152525843,-0.0006873102975077927,2.7794947624206543,-1.6913208961486816,0.011066852137446404,2.1318516731262207,4.711188955897949,0.0,0.30990666151046753,-1.4034975210772913,-5.737516767112538e-05,-0.09255164861679077,0.007507413160055876,7.279308192664757e-05,0.08388315141201019,1.2391023635864258,6.144197686808184e-05,0.12124761939048767
292.0,494.0,2.7715,1.2389,8.9462,-0.0496,0.0257,-0.1171,-1.7606922588744105,-0.0006447326741181314,2.734346389770508,-1.6912567615509033,0.011123577132821083,2.164067029953003,4.711229487056396,0.0,0.315649151802063,-1.4034856001483362,-5.594845788436942e-05,-0.09536264836788177,0.007672387640923262,7.112699677236378e-05,0.06925815343856812,1.239170789718628,4.456323949852958e-05,0.11875439435243607
292.0,494.0,2.7715,1.2389,8.9462,-0.0496,0.0257,-0.1171,-1.7606355152525843,-0.0005110351485200226,2.7757253646850586,-1.6911604404449463,0.0124562568962574,2.1774535179138184,4.711205168361328,0.0,0.30495965480804443,-1.403501335774557,-5.393671744968742e-05,-0.101133793592453,0.007583961822092533,4.541533598967362e-06,0.08692756295204163,1.2391467094421387,4.245832678861916e-05,0.12374286353588104
292.0,494.0,2.7715,1.2389,8.9462,-0.0496,0.0257,-0.1171,-1.7606317005553187,-0.0004168885061517358,2.741101026535034,-1.6910879611968994,0.013128476217389107,2.1108624935150146,4.711200876826904,0.0,0.3140864670276642,-1.4035099188434046,-5.2674004109576344e-05,-0.0884474366903305,0.0075556994415819645,1.9361269920636914e-08,0.07515522092580795,1.239182710647583,4.116373020224273e-05,0.13572034239768982
292.0,494.0,2.7715,1.2389,8.9462,-0.0496,0.0257,-0.1171,-1.7606078586974085,-0.00039143505273386836,2.7912492752075195,-1.6910204887390137,0.01524400431662798,2.163374185562134,4.711220903987549,0.0,0.3114485442638397,-1.403501335774557,-5.088708712719381e-05,-0.08310464024543762,0.007543458603322506,5.389281902690168e-12,0.08231549710035324,1.2391667366027832,3.936338907806203e-05,0.09387414157390594
292.0,494.0,2.7715,1.2389,8.9462,-0.0496,0.0257,-0.1171,-1.7606564960875453,-0.00037508318200707436,2.792893648147583,-1.6909040212631226,0.016768692061305046,2.126675605773926,4.711220903987549,0.0,0.31470605731010437,-1.4034655729876917,-3.249079554734635e-06,-0.10661137104034424,0.007543433923274279,1.500126583927296e-15,0.07423755526542664,1.239182710647583,3.7713904021074995e-05,0.14867782592773438
292.0,494.0,2.7715,1.2389,8.9462,-0.0496,0.0257,-0.1171,-1.7606564960875453,-0.0003665403928607702,2.8031678199768066,-1.6908444166183472,0.01841983199119568,2.219717025756836,4.711205168361328,0.0,0.33489638566970825,-1.4035418669330042,-1.3851336078118948e-08,-0.09206965565681458,0.007575701456516981,6.395275354830748e-18,0.08364970982074738,1.2391786575317383,3.668899444164708e-05,0.11263406276702881
292.0,494.0,2.7715,1.2389,8.9462,-0.0496,0.0257,-0.1171,-1.7606312237181605,-0.00033172633266076446,2.760136365890503,-1.6907687187194824,0.021017707884311676,2.1572513580322266,4.71119658529248,0.0,0.31200942397117615,-1.403501335774557,-3.855570810534781e-12,-0.09149012714624405,0.007591712288558483,1.780148415970235e-21,0.0712452381849289,1.2391867637634277,3.525194188114256e-05,0.14820361137390137
292.0,494.0,2.7715,1.2389,8.9462,-0.0496,0.0257,-0.1171,-1.7606922588744105,-0.00032180437119677663,2.8033599853515625,-1.690616488456726,0.02388175018131733,2.120441436767578,4.711197062129639,0.0,0.31217432022094727,-1.4035218397723597,-1.0732123435113535e-15,-0.08742143213748932,0.00754344230517745,2.0120640328968875e-05,0.07756976783275604,1.2391986846923828,3.392323924344964e-05,0.10426653921604156
292.0,494.0,2.7715,1.2389,8.9462,-0.0496,0.0257,-0.1171,-1.7606717548766078,-0.0003827803593594581,2.801506996154785,-1.6905087232589722,0.02618597447872162,2.167696714401245,4.711200876826904,0.0,0.30913621187210083,-1.403501335774557,-4.575272452831867e-18,-0.1037900447845459,0.007571741472929716,1.2980681276530959e-06,0.07463172823190689,1.2391828298568726,3.309171734144911e-05,0.07337453961372375
292.0,494.0,2.7715,1.2389,8.9462,-0.0496,0.0257,-0.1171,-1.7607323131956996,-0.0008849066216498613,2.7683653831481934,-1.6903408765792847,0.02927177958190441,2.1359100341796875,4.711188955897949,0.0,0.3144676089286804,-1.4035175482379358,-1.2735438106599246e-21,-0.1046457439661026,0.007551670074462891,3.6132202785310596e-10,0.0740051120519638,1.2391630411148071,3.191819996573031e-05,0.14232666790485382
292.0,494.0,2.7715,1.2389,8.9462,-0.0496,0.0257,-0.1171,-1.7607084713377894,-0.001456832280382514,2.7865350246429443,-1.6902289390563965,0.03128640726208687,2.2055418491363525,4.711188955897949,0.0,0.3113940358161926,-1.403513256703512,-5.429317036382794e-24,-0.09267987310886383,0.007551686372607946,1.540372647143573e-12,0.07389932870864868,1.2391748428344727,3.1180974474409595e-05,0.11841651797294617
292.0,494.0,2.7715,1.2389,8.9462,-0.0496,0.0257,-0.1171,-1.760728498498434,-0.0017633310053497553,2.7954165935516357,-1.68999183177948,0.034085117280483246,2.1333441734313965,4.711208983058594,0.0,0.30496659874916077,-1.4035375753985804,-1.511270197716367e-27,-0.1009039431810379,0.007539465557783842,4.2876834259792285e-16,0.07187685370445251,1.239134430885315,-2.2763479137211107e-05,0.10582056641578674
292.0,494.0,2.7715,1.2389,8.9462,-0.0496,0.0257,-0.1171,-1.760712286035055,-0.0021874282974749804,2.8006057739257812,-1.6897965669631958,0.0377066507935524,2.1614761352539062,4.711220903987549,0.0,0.3068617582321167,-1.403525177632467,-4.206676275801815e-31,-0.08336539566516876,0.007599875796586275,1.1934925061902782e-19,0.05346192419528961,1.239134430885315,-2.193452382925898e-05,0.09658298641443253
292.0,494.0,2.7715,1.2389,8.9462,-0.0496,0.0257,-0.1171,-1.760691305200094,-0.002801040653139353,2.807616710662842,-1.689612627029419,0.04047452285885811,2.1533689498901367,4.71118084966626,0.0,0.31622740626335144,-1.4035175482379358,-1.7933722015098912e-33,-0.08503682911396027,0.007535737007856369,5.088045806027906e-22,0.06720513105392456,1.2392069101333618,-2.1412668502307497e-05,0.12429565191268921
292.0,494.0,2.7715,1.2389,8.9462,-0.0496,0.0257,-0.1171,-1.76072420696401,-0.0030413682106882334,2.7598185539245605,-1.6894044876098633,0.04523911699652672,2.1940317153930664,4.71118084966626,0.0,0.30515581369400024,-1.4035657087909144,-4.991916593322406e-37,-0.09472338855266571,0.007535696029663086,1.416276495807886e-25,0.06000746041536331,1.2391588687896729,-1.0337453204556368e-05,0.13049723207950592
310.0,477.0,2.9139,1.4375,9.3278,-0.0877,0.0635,-0.1188,-1.7607766590514125,-0.0035740050952881575,2.774669885635376,-1.68906831741333,0.048828039318323135,2.2431252002716064,4.711168451900146,0.0,0.3219220042228699,-1.4035657087909144,-1.3895135442398454e-40,-0.08687256276607513,0.007571697235107422,3.9422570218329323e-29,0.07348669320344925,1.239134430885315,-9.993091225624084e-06,0.12915831804275513
310.0,477.0,2.9139,1.4375,9.3278,-0.0877,0.0635,-0.1188,-1.7608047924437464,-0.004672539886087179,2.7248220443725586,-1.6889090538024902,0.05427846685051918,2.192126750946045,4.711205168361328,0.0,0.3090079426765442,-1.403557602559225,-5.927492504093976e-43,-0.0918441116809845,0.007571709342300892,1.6806457683212085e-31,0.049930550158023834,1.2392027378082275,-1.5443415435356656e-08,0.1591746062040329
310.0,477.0,2.9139,1.4375,9.3278,-0.0877,0.0635,-0.1188,-1.7608124218382777,-0.004972702823579311,2.7637269496917725,-1.6885404586791992,0.059663932770490646,2.1783432960510254,4.711253328914307,0.0,0.3131990432739258,-1.4035094420062464,-0.0,-0.07887351512908936,0.007559788413345814,4.6781397783457905e-35,0.058808501809835434,1.2391867637634277,-3.7294030575318535e-14,0.10630115866661072
310.0,477.0,2.9139,1.4375,9.3278,-0.0877,0.0635,-0.1188,-1.760852952996725,-0.005607855040580034,2.7579522132873535,-1.6882565021514893,0.06301474571228027,2.237121105194092,4.71115700780835,0.0,0.2997511625289917,-1.4035537878619593,-0.0,-0.08359723538160324,0.007495560683310032,1.994364296083275e-37,0.0713689774274826,1.2391225099563599,-6.712793182452596e-18,0.09772157669067383
310.0,477.0,2.9139,1.4375,9.3278,-0.0877,0.0635,-0.1188,-1.7608639202513636,-0.006574816070497036,2.749232292175293,-1.687883973121643,0.06987447291612625,2.2290477752685547,4.711136503810547,0.0,0.3106551766395569,-1.4035418669330042,-0.0,-0.09277226030826569,0.007571709342300892,5.551383996269195e-41,0.06495023518800735,1.2391465902328491,-1.6210608819417797e-23,0.12935084104537964
310.0,477.0,2.9139,1.4375,9.3278,-0.0877,0.0635,-0.1188,-1.7608958683409632,-0.0076000564731657505,2.716529369354248,-1.687440037727356,0.07508871704339981,2.2778549194335938,4.711176558131836,0.0,0.3070266842842102,-1.4034856001483362,-0.0,-0.08404292166233063,0.007531586103141308,1.5414283107572988e-44,0.059658750891685486,1.2391867637634277,-3.914671987424785e-29,0.09332355111837387
310.0,477.0,2.9139,1.4375,9.3278,-0.0877,0.0635,-0.1188,-1.7609197101988734,-0.008001486770808697,2.7210705280303955,-1.6870476007461548,0.07730524986982346,2.2438735961914062,4.711176558131836,0.0,0.3026539981365204,-1.4035494963275355,-0.0,-0.07465996593236923,0.007555711083114147,0.0,0.054805438965559006,1.2391908168792725,-7.046270929921823e-33,0.13607802987098694
310.0,477.0,2.9139,1.4375,9.3278,-0.0877,0.0635,-0.1188,-1.7609840832152308,-0.007956459186971188,2.7330751419067383,-1.6865959167480469,0.07800627499818802,2.2393410205841064,4.711225195521973,0.0,0.30565178394317627,-1.403541390095846,-0.0,-0.07369109243154526,0.007507541216909885,0.0,0.05874873697757721,1.239174485206604,-1.7015912601656145e-38,0.09880919009447098
