ramyac6/ROB537/final_project/csv/all/bad_124.csv
tof_0,tof_1,accelx,accely,accelz,gyrox,gyroy,gyroz,shoulder_lift_joint_position,shoulder_lift_joint_velocity,shoulder_lift_joint_effort,elbow_joint_position,elbow_joint_velocity,elbow_joint_effort,wrist_1_joint_position,wrist_1_joint_velocity,wrist_1_joint_effort,wrist_2_joint_position,wrist_2_joint_velocity,wrist_2_joint_effort,wrist_3_joint_position,wrist_3_joint_velocity,wrist_3_joint_effort,shoulder_pan_joint_position,shoulder_pan_joint_velocity,shoulder_pan_joint_effort
631.0,396.0,-1.3484,0.2381,9.3715,-0.0431,0.0203,-0.1151,-1.7381802997984828,0.0,2.7340683937072754,-1.8292107582092285,-0.0,2.033735752105713,5.163683879166403,-0.0,0.26382237672805786,-1.5967415014850062,-0.0,-0.011374430730938911,0.8255423307418823,0.0,-0.01533406414091587,0.8028656840324402,0.0,0.035929251462221146
631.0,396.0,-1.3484,0.2381,9.3715,-0.0431,0.0203,-0.1151,-1.7381888828673304,0.0,2.7579078674316406,-1.82917058467865,-0.0,2.010683298110962,5.1636719582374475,-0.0,0.2646181881427765,-1.5967219511615198,-0.0,-0.00986323319375515,0.8254466652870178,0.0,-0.007263205014169216,0.8028574585914612,0.0,0.05122549459338188
631.0,396.0,-1.3484,0.2381,9.3715,-0.0431,0.0203,-0.1151,-1.7381845913329066,0.0,2.704216480255127,-1.829255223274231,-0.0,2.0038881301879883,5.16366787531928,-0.0,0.2752848267555237,-1.59674579301943,-0.0,0.001277448725886643,0.8254665732383728,0.0,-0.014208505861461163,0.8028697967529297,0.0,-0.004012720659375191
631.0,396.0,-1.3484,0.2381,9.3715,-0.0431,0.0203,-0.1151,-1.7382003269591273,0.0,2.72666072845459,-1.829210877418518,-0.0,1.9670665264129639,5.1636641202266595,-0.0,0.2638920545578003,-1.5967257658587855,-0.0,-0.012927008792757988,0.8254348039627075,0.0,-0.00642175180837512,0.8028210997581482,0.0,-0.02663714811205864
631.0,396.0,-1.3484,0.2381,9.3715,-0.0431,0.0203,-0.1151,-1.7381602726378382,0.0,2.7072830200195312,-1.8292312622070312,-0.0,2.042757034301758,5.163723963290014,-0.0,0.27393221855163574,-1.5967376867877405,-0.0,-0.020130682736635208,0.8254824280738831,0.0,0.008301305584609509,0.8028936982154846,0.0,0.003835017327219248
631.0,396.0,-1.3484,0.2381,9.3715,-0.0431,0.0203,-0.1151,-1.73822083095693,0.0,2.746760845184326,-1.829246997833252,-0.0,2.0114102363586426,5.163696038513937,-0.0,0.2789885103702545,-1.5966900030719202,-0.0,0.004914121236652136,0.8254188895225525,0.0,-0.0041035255417227745,0.8028855323791504,0.0,0.018227331340312958
631.0,396.0,-1.3484,0.2381,9.3715,-0.0431,0.0203,-0.1151,-1.7382003269591273,0.0,2.745384693145752,-1.829243779182434,-0.0,1.9868996143341064,5.163704234152593,-0.0,0.2656093239784241,-1.5967100302325647,-0.0,-0.0006893284153193235,0.8254824280738831,0.0,-0.0066074407659471035,0.8028132319450378,0.0,-0.02107095904648304
578.0,398.0,-1.5165,0.1681,9.7866,-0.0367,0.0289,-0.1194,-1.7382012806334437,0.0,2.708442211151123,-1.8292067050933838,-0.0,2.013075828552246,5.163627761393347,-0.0,0.2683473229408264,-1.5966938177691858,-0.0,-0.004610662814229727,0.8254983425140381,0.0,0.00025233812630176544,0.8028615713119507,0.0,-0.003069116733968258
578.0,398.0,-1.5165,0.1681,9.7866,-0.0367,0.0289,-0.1194,-1.7382165394225062,0.0,2.704526901245117,-1.8292025327682495,-0.0,1.9841647148132324,5.163668262749471,-0.0,0.28089842200279236,-1.5967138449298304,-0.0,-0.012524992227554321,0.8255102634429932,0.0,0.000608681351877749,0.8028615713119507,0.0,0.0304168201982975
578.0,398.0,-1.5165,0.1681,9.7866,-0.0367,0.0289,-0.1194,-1.7382251224913539,0.0,2.712644577026367,-1.8292478322982788,-0.0,2.0165305137634277,5.163683879166403,-0.0,0.2761683464050293,-1.5967415014850062,-0.0,-0.009712143801152706,0.8255661725997925,0.0,0.001490915659815073,0.8028292655944824,0.0,0.00012595998123288155
578.0,398.0,-1.5165,0.1681,9.7866,-0.0367,0.0289,-0.1194,-1.7382251224913539,0.0,2.7436254024505615,-1.8292148113250732,-0.0,1.9787756204605103,5.163643646031179,-0.0,0.27185818552970886,-1.59674579301943,-0.0,-0.007354579865932465,0.8254625797271729,0.0,0.009495592676103115,0.8028818368911743,0.0,-0.024373773485422134
578.0,398.0,-1.5165,0.1681,9.7866,-0.0367,0.0289,-0.1194,-1.7381679020323695,0.0,2.729933261871338,-1.829255223274231,-0.0,2.016381025314331,5.163683879166403,-0.0,0.27154552936553955,-1.5967100302325647,-0.0,-0.0053945137187838554,0.8254784941673279,0.0,0.0022974286694079638,0.8028895854949951,0.0,-0.01869022101163864
578.0,398.0,-1.5165,0.1681,9.7866,-0.0367,0.0289,-0.1194,-1.7382012806334437,0.0,2.6980557441711426,-1.8292107582092285,-0.0,1.9978790283203125,5.16369195559577,-0.0,0.276305615901947,-1.5967534224139612,-0.0,-0.028386060148477554,0.8254745006561279,0.0,0.011856665834784508,0.8028132319450378,0.0,-0.004115530755370855
578.0,398.0,-1.5165,0.1681,9.7866,-0.0367,0.0289,-0.1194,-1.7382012806334437,0.0,2.693763256072998,-1.8292067050933838,-0.0,2.013155937194824,5.1636637327964685,-0.0,0.2654199004173279,-1.5967415014850062,-0.0,-0.010406152345240116,0.825486421585083,0.0,-0.012738039717078209,0.8028412461280823,0.0,-0.004603453911840916
578.0,398.0,-1.5165,0.1681,9.7866,-0.0367,0.0289,-0.1194,-1.7381969890990199,0.0,2.7434167861938477,-1.8292189836502075,-0.0,2.0469579696655273,5.163676070957937,-0.0,0.27400898933410645,-1.596729580556051,-0.0,0.0005540088750422001,0.8254942893981934,0.0,0.0012259690556675196,0.8028132319450378,0.0,-0.01848362572491169
578.0,398.0,-1.5165,0.1681,9.7866,-0.0367,0.0289,-0.1194,-1.7382084331908167,0.0,2.7592051029205322,-1.829162359237671,-0.0,1.984356164932251,5.163647728949346,-0.0,0.2689019739627838,-1.5967658201800745,-0.0,-0.006163579411804676,0.8254824280738831,0.0,-0.0018630544655025005,0.8028536438941956,0.0,-0.020460084080696106
578.0,398.0,-1.5165,0.1681,9.7866,-0.0367,0.0289,-0.1194,-1.7381969890990199,0.0,2.7223267555236816,-1.8291912078857422,-0.0,1.9882845878601074,5.163696038513937,-0.0,0.2737446427345276,-1.5967376867877405,-0.0,-0.012682866305112839,0.8254625797271729,0.0,-0.006153099704533815,0.8028615713119507,0.0,0.022206397727131844
578.0,398.0,-1.5165,0.1681,9.7866,-0.0367,0.0289,-0.1194,-1.7382408581175746,0.0,2.7014272212982178,-1.8292149305343628,-0.0,1.9793142080307007,5.163675653725424,-0.0,0.28078728914260864,-1.5967219511615198,-0.0,0.0005641018506139517,0.8254506587982178,0.0,0.004638226702809334,0.8028818964958191,0.0,0.028087908402085304
578.0,398.0,-1.5165,0.1681,9.7866,-0.0367,0.0289,-0.1194,-1.7382084331908167,0.0,2.7403690814971924,-1.8292510509490967,-0.0,1.9805828332901,5.163659649878301,-0.0,0.27078792452812195,-1.5967138449298304,-0.0,-0.011507092975080013,0.8254387974739075,0.0,0.0016987051349133253,0.8028536438941956,0.0,-0.07771425694227219
578.0,398.0,-1.5165,0.1681,9.7866,-0.0367,0.0289,-0.1194,-1.7382613621153773,0.0,2.6940393447875977,-1.8292272090911865,-0.0,1.985872745513916,5.163692045002737,-0.0,0.26292872428894043,-1.596757713948385,-0.0,-0.01062786765396595,0.8255221247673035,0.0,0.0006605950184166431,0.8028534054756165,0.0,-0.012622439302504063
583.0,410.0,-1.3669,0.25,9.3978,-0.0353,0.0284,-0.1156,-1.7381640873351039,0.0,2.781052827835083,-1.8292231559753418,-0.0,1.9986250400543213,5.163655954390325,-0.0,0.27789437770843506,-1.5967219511615198,-0.0,0.0010394449345767498,0.8254903554916382,0.0,-0.004850082099437714,0.8028292655944824,0.0,-0.03760087490081787
583.0,410.0,-1.3669,0.25,9.3978,-0.0353,0.0284,-0.1156,-1.7381683788695277,0.0,2.7589921951293945,-1.8292067050933838,-0.0,1.9366323947906494,5.163639950543203,-0.0,0.26511043310165405,-1.5967534224139612,-0.0,-0.006069188471883535,0.8255102634429932,0.0,-0.0013039119075983763,0.802841305732727,0.0,0.030897771939635277
583.0,410.0,-1.3669,0.25,9.3978,-0.0353,0.0284,-0.1156,-1.7382451496519984,0.0,2.7454090118408203,-1.829235553741455,-0.0,2.004520893096924,5.16364403346137,-0.0,0.2686692774295807,-1.5967415014850062,-0.0,-0.0061218710616230965,0.8255102038383484,0.0,-0.005216222256422043,0.8028777241706848,0.0,0.0037834104150533676
583.0,410.0,-1.3669,0.25,9.3978,-0.0353,0.0284,-0.1156,-1.7381802997984828,0.0,2.6877598762512207,-1.8292231559753418,-0.0,1.9854545593261719,5.16366787531928,-0.0,0.2631896436214447,-1.5967658201800745,-0.0,-0.010895674116909504,0.825466513633728,0.0,0.01577765867114067,0.8028777241706848,0.0,-0.023663019761443138
583.0,410.0,-1.3669,0.25,9.3978,-0.0353,0.0284,-0.1156,-1.7382003269591273,0.0,2.7468950748443604,-1.8291457891464233,-0.0,2.027520179748535,5.1636719582374475,-0.0,0.27416980266571045,-1.5967901388751429,-0.0,-0.00040740869008004665,0.8255181908607483,0.0,-0.0025808895006775856,0.802849531173706,0.0,-0.03050127997994423
583.0,410.0,-1.3669,0.25,9.3978,-0.0353,0.0284,-0.1156,-1.7382003269591273,0.0,2.7243337631225586,-1.8292189836502075,-0.0,1.969498634338379,5.163683879166403,-0.0,0.2819063365459442,-1.5966981093036097,-0.0,-0.007737739942967892,0.8254625797271729,0.0,0.0045532421208918095,0.8029016852378845,0.0,0.003438328392803669
583.0,410.0,-1.3669,0.25,9.3978,-0.0353,0.0284,-0.1156,-1.7382289371886195,0.0,2.7081286907196045,-1.8292354345321655,-0.0,2.0267419815063477,5.1636637327964685,-0.0,0.2681698203086853,-1.5967415014850062,-0.0,-0.0014983478467911482,0.825466513633728,0.0,-0.0007272646762430668,0.802865743637085,0.0,0.025097887963056564
583.0,410.0,-1.3669,0.25,9.3978,-0.0353,0.0284,-0.1156,-1.738237043420309,0.0,2.7140119075775146,-1.8291385173797607,-0.0,2.0095300674438477,5.1636719582374475,-0.0,0.2699008285999298,-1.5967219511615198,-0.0,-0.01093294844031334,0.8254586458206177,0.0,0.008595995604991913,0.8028697967529297,0.0,0.0326760858297348
583.0,410.0,-1.3669,0.25,9.3978,-0.0353,0.0284,-0.1156,-1.7382413349547328,0.0,2.6917724609375,-1.829203486442566,-0.0,2.0506460666656494,5.16368796208457,-0.0,0.26228368282318115,-1.596717659627096,-0.0,0.012014745734632015,0.8254506587982178,0.0,0.000364745210390538,0.8028615713119507,0.0,-0.022255759686231613
583.0,410.0,-1.3669,0.25,9.3978,-0.0353,0.0284,-0.1156,-1.738192697564596,0.0,2.6765928268432617,-1.8291746377944946,-0.0,2.0035061836242676,5.163643646031179,-0.0,0.27457642555236816,-1.596705738698141,-0.0,0.004244288429617882,0.8254784941673279,0.0,0.004307018592953682,0.8028534054756165,0.0,-0.01059670653194189
583.0,410.0,-1.3669,0.25,9.3978,-0.0353,0.0284,-0.1156,-1.7381969890990199,0.0,2.7149174213409424,-1.8291983604431152,-0.0,1.9591517448425293,5.163712042361059,-0.0,0.2618664503097534,-1.596733872090475,-0.0,-0.011192909441888332,0.8254507780075073,0.0,0.001648245146498084,0.802849531173706,0.0,-0.02624676190316677
583.0,410.0,-1.3669,0.25,9.3978,-0.0353,0.0284,-0.1156,-1.7382165394225062,0.0,2.711376905441284,-1.8292033672332764,-0.0,2.0299034118652344,5.1636719582374475,-0.0,0.269351065158844,-1.596733872090475,-0.0,0.002391151152551174,0.8254546523094177,0.0,0.0033173775300383568,0.8028656840324402,0.0,-0.030462173745036125
583.0,410.0,-1.3669,0.25,9.3978,-0.0353,0.0284,-0.1156,-1.7382127247252406,0.0,2.6996335983276367,-1.8292313814163208,-0.0,2.040658950805664,5.1636719582374475,-0.0,0.28012725710868835,-1.5967534224139612,-0.0,-0.007586309686303139,0.8255102634429932,0.0,0.0014588054036721587,0.8028656840324402,0.0,0.0015795540530234575
602.0,431.0,-1.4997,0.2142,9.7615,-0.0261,0.0171,-0.1097,-1.738192697564596,0.0,2.7350244522094727,-1.8292189836502075,-0.0,1.9905116558074951,5.16366787531928,-0.0,0.2691284716129303,-1.596705738698141,-0.0,-0.00921147782355547,0.8255221247673035,0.0,0.0009614680893719196,0.8028656840324402,0.0,0.009421800263226032
602.0,431.0,-1.4997,0.2142,9.7615,-0.0261,0.0171,-0.1097,-1.7382732830443324,0.0,2.760006904602051,-1.8292149305343628,-0.0,1.9992047548294067,5.163679706841268,-0.0,0.27255022525787354,-1.5967019240008753,-0.0,-0.003222524654120207,0.8254145979881287,0.0,-0.005902150645852089,0.8028656840324402,0.0,-0.008602550253272057
602.0,431.0,-1.4997,0.2142,9.7615,-0.0261,0.0171,-0.1097,-1.7382127247252406,0.0,2.739311695098877,-1.829255223274231,-0.0,2.037914514541626,5.163655566960134,-0.0,0.2587646245956421,-1.5966938177691858,-0.0,-0.00477280467748642,0.8255102038383484,0.0,0.0027666359674185514,0.8028292655944824,0.0,0.013942768797278404
602.0,431.0,-1.4997,0.2142,9.7615,-0.0261,0.0171,-0.1097,-1.738192697564596,0.0,2.7281079292297363,-1.8292149305343628,-0.0,2.0299720764160156,5.163675653725424,-0.0,0.27003729343414307,-1.5967415014850062,-0.0,-0.0019652999471873045,0.825470507144928,0.0,0.007405531592667103,0.8028615713119507,0.0,0.03827720135450363
602.0,431.0,-1.4997,0.2142,9.7615,-0.0261,0.0171,-0.1097,-1.7382289371886195,0.0,2.7220332622528076,-1.829195261001587,-0.0,1.9891173839569092,5.163704263954916,-0.0,0.2809976637363434,-1.59674579301943,-0.0,-0.003501025727018714,0.8254903554916382,0.0,0.0030394461937248707,0.8028292655944824,0.0,-0.024269651621580124
602.0,431.0,-1.4997,0.2142,9.7615,-0.0261,0.0171,-0.1097,-1.7381721935667933,0.0,2.7095513343811035,-1.829315185546875,-0.0,1.9994351863861084,5.163651871472158,-0.0,0.25671491026878357,-1.596773926411764,-0.0,-0.006509348750114441,0.8254547119140625,0.0,-0.008060019463300705,0.8028333783149719,0.0,-0.0012649986892938614
602.0,431.0,-1.4997,0.2142,9.7615,-0.0261,0.0171,-0.1097,-1.73822083095693,0.0,2.758979320526123,-1.829255223274231,-0.0,2.0145392417907715,5.163643646031179,-0.0,0.2707114815711975,-1.5967019240008753,-0.0,-0.0023261443711817265,0.8254824876785278,0.0,-0.01068426389247179,0.8028615713119507,0.0,0.011241515167057514
602.0,431.0,-1.4997,0.2142,9.7615,-0.0261,0.0171,-0.1097,-1.738204141656393,0.0,2.7128405570983887,-1.8291910886764526,-0.0,2.012805223464966,5.163704263954916,-0.0,0.2641414403915405,-1.59674579301943,-0.0,0.009448722936213017,0.8254745006561279,0.0,0.010564696043729782,0.8028777241706848,0.0,0.0021058255806565285
602.0,431.0,-1.4997,0.2142,9.7615,-0.0261,0.0171,-0.1097,-1.7381521664061488,0.0,2.727870464324951,-1.8292478322982788,-0.0,2.053522825241089,5.1636719582374475,-0.0,0.25948357582092285,-1.5967415014850062,-0.0,0.007274186238646507,0.8254507184028625,0.0,0.0019029279937967658,0.8028656840324402,0.0,-0.006183849181979895
602.0,431.0,-1.4997,0.2142,9.7615,-0.0261,0.0171,-0.1097,-1.738204141656393,0.0,2.6848044395446777,-1.8292397260665894,-0.0,2.041351795196533,5.16368796208457,-0.0,0.26884740591049194,-1.596733872090475,-0.0,-0.006835491396486759,0.8254507184028625,0.0,0.005463147535920143,0.8028697967529297,0.0,-0.005001277197152376
602.0,431.0,-1.4997,0.2142,9.7615,-0.0261,0.0171,-0.1097,-1.7382694683470667,0.0,2.7593789100646973,-1.8292707204818726,-0.0,2.0566015243530273,5.163704263954916,-0.0,0.27139121294021606,-1.5966699759112757,-0.0,-0.0037631699815392494,0.8254586458206177,0.0,-0.006185535341501236,0.8028978705406189,0.0,-0.005195422098040581
602.0,431.0,-1.4997,0.2142,9.7615,-0.0261,0.0171,-0.1097,-1.738232751885885,0.0,2.758734703063965,-1.8291984796524048,-0.0,2.033316135406494,5.163655954390325,-0.0,0.2745155394077301,-1.5967219511615198,-0.0,0.011226722970604897,0.8254586458206177,0.0,0.0032982993870973587,0.8028574585914612,0.0,0.024966426193714142
602.0,431.0,-1.4997,0.2142,9.7615,-0.0261,0.0171,-0.1097,-1.7381845913329066,0.0,2.745400905609131,-1.829254388809204,-0.0,2.0197527408599854,5.1636637327964685,-0.0,0.26855161786079407,-1.5967219511615198,-0.0,-0.005598753225058317,0.8254387974739075,0.0,0.006084187887609005,0.8028818368911743,0.0,0.011894836090505123
637.0,411.0,-1.4273,0.2219,9.6,-0.0308,0.0208,-0.1199,-1.7381969890990199,0.0,2.703075885772705,-1.8291984796524048,-0.0,1.9686012268066406,5.16368796208457,-0.0,0.26629576086997986,-1.5967376867877405,-0.0,0.0016409017844125628,0.8254150748252869,0.0,-0.016842911019921303,0.8028454184532166,0.0,-0.021756837144494057
637.0,411.0,-1.4273,0.2219,9.6,-0.0308,0.0208,-0.1199,-1.7381683788695277,0.0,2.710460901260376,-1.8291984796524048,-0.0,2.0260860919952393,5.163696008711614,-0.0,0.28366950154304504,-1.596802059804098,-0.0,-0.007209653966128826,0.8255659937858582,0.0,0.00416110223159194,0.8028777241706848,0.0,0.015096760354936123
637.0,411.0,-1.4273,0.2219,9.6,-0.0308,0.0208,-0.1199,-1.7382093868651332,0.0,2.725069046020508,-1.829235553741455,-0.0,1.9702448844909668,5.163631725102224,-0.0,0.272549033164978,-1.596729580556051,-0.0,-0.00669059157371521,0.8254586458206177,0.0,0.003012626199051738,0.8028656840324402,0.0,0.0017524256836622953
637.0,411.0,-1.4273,0.2219,9.6,-0.0308,0.0208,-0.1199,-1.738164564172262,0.0,2.733715772628784,-1.8292067050933838,-0.0,2.026994228363037,5.163704263954916,-0.0,0.26423969864845276,-1.596733872090475,-0.0,0.0016014577122405171,0.8254863619804382,0.0,0.0048385560512542725,0.8028694987297058,0.0,0.011064702644944191
637.0,411.0,-1.4273,0.2219,9.6,-0.0308,0.0208,-0.1199,-1.7382408581175746,0.0,2.7474284172058105,-1.829202651977539,-0.0,2.020233631134033,5.163687932282247,-0.0,0.26194843649864197,-1.5967701117144983,-0.0,0.004812967032194138,0.8254547119140625,0.0,-0.00655968114733696,0.8028777241706848,0.0,-0.0034263543784618378
637.0,411.0,-1.4273,0.2219,9.6,-0.0308,0.0208,-0.1199,-1.73822083095693,0.0,2.733450174331665,-1.8292067050933838,-0.0,1.9920837879180908,5.163627612381735,-0.0,0.2612154483795166,-1.5967496077166956,-0.0,-0.006020143628120422,0.8254785537719727,0.0,0.003614073619246483,0.8028978705406189,0.0,-0.03984246402978897
637.0,411.0,-1.4273,0.2219,9.6,-0.0308,0.0208,-0.1199,-1.7382084331908167,0.0,2.7216134071350098,-1.8292067050933838,-0.0,2.030454635620117,5.163696068316259,-0.0,0.28052496910095215,-1.59674579301943,-0.0,-0.012909220531582832,0.8254147171974182,0.0,-0.0009357959497720003,0.8028697967529297,0.0,0.047529663890600204
637.0,411.0,-1.4273,0.2219,9.6,-0.0308,0.0208,-0.1199,-1.7382165394225062,0.0,2.7359273433685303,-1.8292231559753418,-0.0,1.9691317081451416,5.163707899838247,-0.0,0.2689785957336426,-1.5967701117144983,-0.0,-0.006978184916079044,0.8254547119140625,0.0,0.00814804807305336,0.8028132915496826,0.0,-0.012771323323249817
637.0,411.0,-1.4273,0.2219,9.6,-0.0308,0.0208,-0.1199,-1.738192697564596,0.0,2.7284977436065674,-1.8292107582092285,-0.0,2.0179035663604736,5.163663762598791,-0.0,0.25806519389152527,-1.5967138449298304,-0.0,0.00276024267077446,0.8254705667495728,0.0,0.003069809637963772,0.8028333783149719,0.0,0.007814405485987663
637.0,411.0,-1.4273,0.2219,9.6,-0.0308,0.0208,-0.1199,-1.7382408581175746,0.0,2.6791763305664062,-1.8292748928070068,-0.0,2.020299196243286,5.16367198803977,-0.0,0.28324687480926514,-1.5967415014850062,-0.0,0.0022800075821578503,0.8255701065063477,0.0,0.0005592368543148041,0.8028454780578613,0.0,0.00465495977550745
637.0,411.0,-1.4273,0.2219,9.6,-0.0308,0.0208,-0.1199,-1.7382084331908167,0.0,2.715517997741699,-1.8291869163513184,-0.0,1.9829492568969727,5.163691925793447,-0.0,0.27684566378593445,-1.5967415014850062,-0.0,-0.007779278792440891,0.8254586458206177,0.0,0.0019325040047988296,0.8028736114501953,0.0,-0.030638571828603745
637.0,411.0,-1.4273,0.2219,9.6,-0.0308,0.0208,-0.1199,-1.7382375202574671,0.0,2.748985767364502,-1.8292231559753418,-0.0,1.9953312873840332,5.163683879166403,-0.0,0.27162906527519226,-1.59674579301943,-0.0,-0.015231380239129066,0.8254863619804382,0.0,0.001759965205565095,0.8028736114501953,0.0,-0.013304519467055798
637.0,411.0,-1.4273,0.2219,9.6,-0.0308,0.0208,-0.1199,-1.7382084331908167,0.0,2.7264347076416016,-1.8292553424835205,-0.0,2.0127179622650146,5.163660037308492,-0.0,0.28222978115081787,-1.5967662970172327,-0.0,-0.00020744535140693188,0.8254468441009521,0.0,-0.0020712697878479958,0.8028895854949951,0.0,-0.04131719470024109
633.0,406.0,-1.4339,0.1932,9.6012,-0.0437,0.0287,-0.1193,-1.7382332287230433,0.0,2.7359442710876465,-1.829255223274231,-0.0,1.9400179386138916,5.163696008711614,-0.0,0.277975857257843,-1.5966737906085413,-0.0,-0.013797948136925697,0.8254745602607727,0.0,-0.004005120135843754,0.8028900623321533,0.0,-0.050891995429992676
633.0,406.0,-1.4339,0.1932,9.6012,-0.0437,0.0287,-0.1193,-1.7382093868651332,0.0,2.7601213455200195,-1.8292025327682495,-0.0,2.017357587814331,5.163691985398092,-0.0,0.28119856119155884,-1.596729580556051,-0.0,0.004549939651042223,0.8254506587982178,0.0,-0.0012213574955239892,0.8028656840324402,0.0,-0.047130100429058075
633.0,406.0,-1.4339,0.1932,9.6012,-0.0437,0.0287,-0.1193,-1.738237043420309,0.0,2.7443037033081055,-1.8292593955993652,-0.0,2.005077362060547,5.163704263954916,-0.0,0.2838217616081238,-1.5967376867877405,-0.0,0.0003544730134308338,0.8254705667495728,0.0,0.003361599752679467,0.8028697967529297,0.0,0.009354796260595322
633.0,406.0,-1.4339,0.1932,9.6012,-0.0437,0.0287,-0.1193,-1.7382003269591273,0.0,2.76564884185791,-1.8292107582092285,-0.0,2.0155322551727295,5.163647788553991,-0.0,0.2518071234226227,-1.5967534224139612,-0.0,0.002307276241481304,0.8255299925804138,0.0,-0.007606029976159334,0.8029300570487976,0.0,-0.01586674526333809
633.0,406.0,-1.4339,0.1932,9.6012,-0.0437,0.0287,-0.1193,-1.7382165394225062,0.0,2.7294745445251465,-1.8291993141174316,-0.0,2.025789737701416,5.163683819561758,-0.0,0.2653784155845642,-1.5967415014850062,-0.0,-0.015557508915662766,0.8255181312561035,0.0,0.018094712868332863,0.8029020428657532,0.0,-0.0009747403673827648
633.0,406.0,-1.4339,0.1932,9.6012,-0.0437,0.0287,-0.1193,-1.7382251224913539,0.0,2.697967052459717,-1.8291869163513184,-0.0,2.0312130451202393,5.163696068316259,-0.0,0.2690335512161255,-1.5966938177691858,-0.0,-0.008172855712473392,0.8254547119140625,0.0,0.004653081763535738,0.8028412461280823,0.0,0.006173636764287949
633.0,406.0,-1.4339,0.1932,9.6012,-0.0437,0.0287,-0.1193,-1.7381764851012171,0.0,2.7626354694366455,-1.8292397260665894,-0.0,2.0237388610839844,5.163716184883871,-0.0,0.2678912281990051,-1.5967219511615198,-0.0,-0.008260810747742653,0.8254547119140625,0.0,0.005574186332523823,0.8028536438941956,0.0,0.01085884403437376
633.0,406.0,-1.4339,0.1932,9.6012,-0.0437,0.0287,-0.1193,-1.7382165394225062,0.0,2.7109031677246094,-1.8291983604431152,-0.0,1.999711036682129,5.16366787531928,-0.0,0.2755970358848572,-1.5966938177691858,-0.0,-0.011607600376009941,0.8255142569541931,0.0,-0.007227927912026644,0.8028855323791504,0.0,0.0016231124754995108
633.0,406.0,-1.4339,0.1932,9.6012,-0.0437,0.0287,-0.1193,-1.7382251224913539,0.0,2.7472763061523438,-1.8291704654693604,-0.0,2.024463176727295,5.1636960981185815,-0.0,0.2665000557899475,-1.5967496077166956,-0.0,-0.012177236378192902,0.8254784345626831,0.0,-3.492366522550583e-05,0.8028174042701721,0.0,0.009085824713110924
633.0,406.0,-1.4339,0.1932,9.6012,-0.0437,0.0287,-0.1193,-1.7381969890990199,0.0,2.771472930908203,-1.8292025327682495,-0.0,2.0192995071411133,5.163700210839071,-0.0,0.2866131663322449,-1.5967415014850062,-0.0,-0.003932241350412369,0.8254387378692627,0.0,0.0045903874561190605,0.8028978705406189,0.0,0.03928621858358383
633.0,406.0,-1.4339,0.1932,9.6012,-0.0437,0.0287,-0.1193,-1.7382527790465296,0.0,2.7422597408294678,-1.8291869163513184,-0.0,1.9789257049560547,5.16366787531928,-0.0,0.2704842686653137,-1.5966742674456995,-0.0,-0.003997491672635078,0.8254823684692383,0.0,0.001225865911692381,0.8028739094734192,0.0,-0.013376019895076752
633.0,406.0,-1.4339,0.1932,9.6012,-0.0437,0.0287,-0.1193,-1.7381888828673304,0.0,2.6898152828216553,-1.8291828632354736,-0.0,2.0037636756896973,5.163683879166403,-0.0,0.27097389101982117,-1.596733872090475,-0.0,-0.021739434450864792,0.8254387974739075,0.0,0.005105947609990835,0.8028574585914612,0.0,0.0348183810710907
633.0,406.0,-1.4339,0.1932,9.6012,-0.0437,0.0287,-0.1193,-1.7382246456541957,0.0,2.7437617778778076,-1.8292274475097656,-0.0,1.9865472316741943,5.1636719582374475,-0.0,0.27308693528175354,-1.5967376867877405,-0.0,0.0030176546424627304,0.8254547119140625,0.0,0.0027470141649246216,0.8028656840324402,0.0,0.03606726974248886
641.0,410.0,-1.3944,0.2429,9.5175,-0.0391,0.0224,-0.1164,-1.738248964349264,0.0,2.724062204360962,-1.829235553741455,-0.0,2.020220994949341,5.163708346873083,-0.0,0.2646336257457733,-1.596733872090475,-0.0,-0.01483012456446886,0.8255180716514587,0.0,0.011237355880439281,0.8028777241706848,0.0,-0.021751323714852333
641.0,410.0,-1.3944,0.2429,9.5175,-0.0391,0.0224,-0.1164,-1.7382165394225062,0.0,2.7175750732421875,-1.8292272090911865,-0.0,2.0208609104156494,5.163692045002737,-0.0,0.2699891924858093,-1.5967415014850062,-0.0,-0.005449420306831598,0.8255062103271484,0.0,-0.01020009070634842,0.8028251528739929,0.0,-0.036490630358457565
641.0,410.0,-1.3944,0.2429,9.5175,-0.0391,0.0224,-0.1164,-1.7382251224913539,0.0,2.7191433906555176,-1.8292189836502075,-0.0,2.0268876552581787,5.163704263954916,-0.0,0.2642952799797058,-1.5967376867877405,-0.0,-0.023161964491009712,0.8254784345626831,0.0,-0.0024466481991112232,0.8028534054756165,0.0,-0.00345986639149487
641.0,410.0,-1.3944,0.2429,9.5175,-0.0391,0.0224,-0.1164,-1.738192697564596,0.0,2.6920578479766846,-1.8292149305343628,-0.0,1.985072374343872,5.163683879166403,-0.0,0.283153772354126,-1.5967376867877405,-0.0,0.0033408869057893753,0.8254387378692627,0.0,0.0013029193505644798,0.8028534054756165,0.0,0.006144676357507706
641.0,410.0,-1.3944,0.2429,9.5175,-0.0391,0.0224,-0.1164,-1.7381888828673304,0.0,2.757398843765259,-1.8291581869125366,-0.0,2.066555976867676,5.163676041155615,-0.0,0.2592044174671173,-1.5966938177691858,-0.0,-0.007524082437157631,0.825502336025238,0.0,0.005412053316831589,0.8028736114501953,0.0,0.00021538432338275015
641.0,410.0,-1.3944,0.2429,9.5175,-0.0391,0.0224,-0.1164,-1.738237043420309,0.0,2.7162129878997803,-1.8292149305343628,-0.0,2.017429828643799,5.163704263954916,-0.0,0.27297404408454895,-1.5967376867877405,-0.0,-0.0037334314547479153,0.8254625797271729,0.0,0.003401783760637045,0.8028859496116638,0.0,0.01207659486681223
641.0,410.0,-1.3944,0.2429,9.5175,-0.0391,0.0224,-0.1164,-1.7381764851012171,0.0,2.7371139526367188,-1.8291984796524048,-0.0,2.019777774810791,5.163683879166403,-0.0,0.2624150216579437,-1.5967219511615198,-0.0,-0.010704129934310913,0.8255024552345276,0.0,-0.0015037301927804947,0.8028412461280823,0.0,0.008430645801126957
641.0,410.0,-1.3944,0.2429,9.5175,-0.0391,0.0224,-0.1164,-1.7381888828673304,0.0,2.717843770980835,-1.8292107582092285,-0.0,2.0240819454193115,5.163676041155615,-0.0,0.27423980832099915,-1.596785847340719,-0.0,-0.0041605886071920395,0.8254544138908386,0.0,-0.0007706449832767248,0.8028895854949951,0.0,-0.035992331802845
641.0,410.0,-1.3944,0.2429,9.5175,-0.0391,0.0224,-0.1164,-1.7381888828673304,0.0,2.7086257934570312,-1.829195261001587,-0.0,2.0076208114624023,5.163724350720205,-0.0,0.27632299065589905,-1.5967453161822718,-0.0,-0.0007522790692746639,0.8254625797271729,0.0,0.009001536294817924,0.8028372526168823,0.0,-0.014736364595592022
641.0,410.0,-1.3944,0.2429,9.5175,-0.0391,0.0224,-0.1164,-1.7382084331908167,0.0,2.6676177978515625,-1.8292075395584106,-0.0,2.038084030151367,5.163704263954916,-0.0,0.26628756523132324,-1.5967658201800745,-0.0,-0.017032627016305923,0.8254826664924622,0.0,-0.008179671131074429,0.8028978705406189,0.0,0.024495799094438553
641.0,410.0,-1.3944,0.2429,9.5175,-0.0391,0.0224,-0.1164,-1.73822083095693,0.0,2.7395286560058594,-1.829235553741455,-0.0,2.041898727416992,5.163639950543203,-0.0,0.2691475450992584,-1.5967138449298304,-0.0,-0.0025825239717960358,0.8254462480545044,0.0,-0.0004867303650826216,0.8028451204299927,0.0,0.04858894646167755
641.0,410.0,-1.3944,0.2429,9.5175,-0.0391,0.0224,-0.1164,-1.7382251224913539,0.0,2.7336320877075195,-1.8291383981704712,-0.0,2.0260226726531982,5.16368796208457,-0.0,0.27424031496047974,-1.5967496077166956,-0.0,0.0019874009303748608,0.8254581093788147,0.0,-0.0025754321832209826,0.8028855323791504,0.0,-0.018642693758010864
641.0,410.0,-1.3944,0.2429,9.5175,-0.0391,0.0224,-0.1164,-1.73822083095693,0.0,2.7474656105041504,-1.8292149305343628,-0.0,1.972815990447998,5.1636719582374475,-0.0,0.2806210219860077,-1.596733872090475,-0.0,-0.001221946207806468,0.8255187273025513,0.0,-0.0008587747579440475,0.8028653860092163,0.0006096846773289144,0.008097833022475243
593.0,409.0,-1.4369,0.1478,9.7011,-0.0447,0.0269,-0.106,-1.7382165394225062,0.0,2.7220993041992188,-1.8292067050933838,-0.0,2.0464298725128174,5.163660037308492,-0.0,0.2770574688911438,-1.5967701117144983,-0.0,-0.014300568029284477,0.8254945874214172,0.0,0.00041996926302090287,0.8028892874717712,0.0005340694333426654,0.006223486736416817
593.0,409.0,-1.4369,0.1478,9.7011,-0.0447,0.0269,-0.106,-1.7382451496519984,0.0,2.736527919769287,-1.829235553741455,-0.0,2.0017054080963135,5.163700181036749,-0.0,0.27440977096557617,-1.596773926411764,-0.0,-0.012789200060069561,0.8254462480545044,0.0,-0.008312104269862175,0.8029053211212158,0.0005000302917324007,0.023525694385170937
593.0,409.0,-1.4369,0.1478,9.7011,-0.0447,0.0269,-0.106,-1.7381764851012171,0.0,2.6989171504974365,-1.829246997833252,-0.0,2.0364763736724854,5.163635897427358,-0.0,0.2714371085166931,-1.596729580556051,-0.0,-0.005858409684151411,0.8255306482315063,0.0,-0.0019155422924086452,0.8028410077095032,0.0005245847860351205,0.001971583813428879
593.0,409.0,-1.4369,0.1478,9.7011,-0.0447,0.0269,-0.106,-1.7382122478880824,0.0,2.716114044189453,-1.8292189836502075,-0.0,2.002925395965576,5.16368384936408,-0.0,0.26961156725883484,-1.5967257658587855,-0.0,-0.012394754216074944,0.8254625797271729,0.0,0.005124381277710199,0.8028935194015503,0.0004922625957988203,-0.011850638315081596
593.0,409.0,-1.4369,0.1478,9.7011,-0.0447,0.0269,-0.106,-1.7382084331908167,0.0,2.7267661094665527,-1.8292397260665894,-0.0,2.0061533451080322,5.163671928435125,-0.0,0.27861514687538147,-1.596773926411764,-0.0,-0.01015661284327507,0.8254707455635071,0.0,0.006719848141074181,0.802897572517395,0.00044387797242961824,-0.018423132598400116
593.0,409.0,-1.4369,0.1478,9.7011,-0.0447,0.0269,-0.106,-1.738204141656393,0.0,2.7523860931396484,-1.8292790651321411,-0.0,2.0176405906677246,5.163680094271459,-0.0,0.26845312118530273,-1.5967415014850062,-0.0,-0.013209505006670952,0.8253782987594604,0.0,-0.0002895089564844966,0.8028975129127502,0.0003567493404261768,-0.006860436871647835
593.0,409.0,-1.4369,0.1478,9.7011,-0.0447,0.0269,-0.106,-1.7382527790465296,0.0,2.7529196739196777,-1.8292025327682495,-0.0,1.9830265045166016,5.163648116379537,-0.0,0.266083687543869,-1.596717659627096,-0.0,-0.019822485744953156,0.8254425525665283,0.0,0.00018825771985575557,0.8028773069381714,0.00028217126964591444,0.01262996718287468
593.0,409.0,-1.4369,0.1478,9.7011,-0.0447,0.0269,-0.106,-1.73822083095693,0.0,2.733881950378418,-1.8292874097824097,-0.0,2.0475974082946777,5.163660067110815,-0.0,0.27329468727111816,-1.596733872090475,-0.0,-0.012246228754520416,0.8254785537719727,0.0,-0.002304720226675272,0.8029298782348633,0.00024392920022364706,-0.003838668577373028
593.0,409.0,-1.4369,0.1478,9.7011,-0.0447,0.0269,-0.106,-1.7382732830443324,0.0,2.7396011352539062,-1.8292149305343628,-0.0,1.9895904064178467,5.163635927229681,-0.0,0.269786536693573,-1.5967581907855433,-0.0,-0.009183418937027454,0.825446605682373,0.0,-8.760672062635422e-05,0.8029216527938843,0.00020659751316998154,0.015375200659036636
593.0,409.0,-1.4369,0.1478,9.7011,-0.0447,0.0269,-0.106,-1.7382408581175746,0.0,2.7477378845214844,-1.8292913436889648,-0.0,2.0142202377319336,5.163627731591024,-0.0,0.255653440952301,-1.596717659627096,-0.0,0.0038226323667913675,0.8255146741867065,0.0,0.0016500353813171387,0.8029177188873291,0.00018532588728703558,4.03551384806633e-05
593.0,409.0,-1.4369,0.1478,9.7011,-0.0447,0.0269,-0.106,-1.738248964349264,0.0,2.7307305335998535,-1.8292914628982544,-9.969220991479233e-05,1.9967286586761475,5.16368384936408,-0.0,0.26869291067123413,-1.59674579301943,-0.0,-0.006797467358410358,0.8254905343055725,0.0,0.010541573166847229,0.8029017448425293,0.00016295514069497585,-0.016108732670545578
593.0,409.0,-1.4369,0.1478,9.7011,-0.0447,0.0269,-0.106,-1.7381845913329066,0.0,2.6941275596618652,-1.8292790651321411,-8.560879359720275e-05,1.9763613939285278,5.163644063263693,-0.0,0.28230544924736023,-1.5967219511615198,-0.0,-0.0020733762066811323,0.8255068063735962,0.0,-0.0009433224331587553,0.8028653264045715,0.00014942692359909415,0.01716531068086624
593.0,409.0,-1.4369,0.1478,9.7011,-0.0447,0.0269,-0.106,-1.7382446728148402,0.0,2.7336864471435547,-1.8292790651321411,-7.19246527296491e-05,2.034165382385254,5.163676041155615,-0.0,0.2741391956806183,-1.5967534224139612,-0.0,-0.008696979843080044,0.8255429267883301,0.0,-0.014153395779430866,0.8029217720031738,0.00013190554454922676,-0.008771535009145737
565.0,401.0,-1.3095,0.1998,9.719,-0.0362,0.0209,-0.1164,-1.7382246456541957,0.0,2.7272112369537354,-1.829219102859497,-6.422539445338771e-05,2.002708911895752,5.163608419686117,-0.0,0.2696465253829956,-1.5967138449298304,-0.0,-0.010177974589169025,0.8255388140678406,0.0,-0.009982389397919178,0.8028731942176819,0.0001251793437404558,-0.01956355571746826
565.0,401.0,-1.3095,0.1998,9.719,-0.0362,0.0209,-0.1164,-1.7381960354247035,0.0,2.7224202156066895,-1.8292584419250488,-5.801515362691134e-05,1.998443603515625,5.163635986834326,-0.0,0.27972638607025146,-1.596733872090475,-0.0,-0.004232839681208134,0.8254544734954834,0.0,0.006232517771422863,0.8028574585914612,0.000117039933684282,-0.03786855563521385
565.0,401.0,-1.3095,0.1998,9.719,-0.0362,0.0209,-0.1164,-1.7382565937437953,0.0,2.6845016479492188,-1.8291983604431152,-5.13897612108849e-05,1.9995003938674927,5.163648116379537,-0.0,0.2741984724998474,-1.596773926411764,-0.0,-0.0016172651667147875,0.8254905343055725,0.0,-0.013017798773944378,0.802953839302063,0.00010770261724246666,-0.024550320580601692
565.0,401.0,-1.3095,0.1998,9.719,-0.0362,0.0209,-0.1164,-1.7382565937437953,0.0,2.7282350063323975,-1.8292107582092285,-4.733556852443144e-05,2.0031239986419678,5.163672315865316,-0.00010836585715878755,0.2719435691833496,-1.5967534224139612,-0.0,0.006613507401198149,0.8255146145820618,0.0,0.011291665956377983,0.8028813600540161,0.00011855919728986919,0.017573900520801544
565.0,401.0,-1.3095,0.1998,9.719,-0.0362,0.0209,-0.1164,-1.7382852039732875,0.0,2.746401309967041,-1.8292189836502075,-4.2830251913983375e-05,2.0424070358276367,5.16364003995017,-0.00015017783152870834,0.27869924902915955,-1.596729580556051,-0.0,-0.005670828744769096,0.8254384398460388,0.0,-0.009632165543735027,0.8029258251190186,0.00010339301661588252,-0.045551981776952744
565.0,401.0,-1.3095,0.1998,9.719,-0.0362,0.0209,-0.1164,-1.7382689915099085,0.0,2.736712694168091,-1.8292584419250488,-3.9976544940145686e-05,1.976219654083252,5.16364403346137,-0.00013870885595679283,0.267072856426239,-1.596733872090475,-0.0,-0.006088644731789827,0.8255307078361511,0.0,-0.0030606165528297424,0.8029537796974182,0.00013602773833554238,0.04038643836975098
565.0,401.0,-1.3095,0.1998,9.719,-0.0362,0.0209,-0.1164,-1.7382523022093714,-0.00010409276001155376,2.7664148807525635,-1.8292272090911865,-1.8357517546974123e-05,2.0274739265441895,5.163619982987203,-0.00014603561430703849,0.27253299951553345,-1.596733872090475,-0.0,-0.0017133844085037708,0.8254182934761047,0.0,0.005427127704024315,0.8029415607452393,0.0027371225878596306,-0.007040051277726889
565.0,401.0,-1.3095,0.1998,9.719,-0.0362,0.0209,-0.1164,-1.738305231133932,-0.00011685324716381729,2.704979181289673,-1.8292593955993652,-1.7298947568633594e-05,2.0420937538146973,5.163628029614248,-0.00013716296234633774,0.27818113565444946,-1.5967376867877405,-0.0,-0.0016969479620456696,0.825486421585083,0.0,-0.0034137344919145107,0.802993655204773,0.005032958462834358,-0.0009974492713809013
565.0,401.0,-1.3095,0.1998,9.719,-0.0362,0.0209,-0.1164,-1.7383090458311976,-0.00012802147830370814,2.7226009368896484,-1.8292748928070068,-1.6355816114810295e-05,2.0036087036132812,5.163592028408804,-0.0001470646820962429,0.27169397473335266,-1.5967376867877405,-0.0,-0.0035383421927690506,0.8254463076591492,0.0,0.004114342387765646,0.8030335307121277,0.010123070329427719,-0.00966320838779211
565.0,401.0,-1.3095,0.1998,9.719,-0.0362,0.0209,-0.1164,-1.7382852039732875,-0.0001353115658275783,2.7367420196533203,-1.829246997833252,-1.5247465853462927e-05,2.0315101146698,5.163619953184881,-0.000210562240681611,0.27180975675582886,-1.5967581907855433,-0.0,-0.015366679057478905,0.8255184292793274,0.0,-0.007651725318282843,0.8031458258628845,0.012617823667824268,0.055981360375881195
565.0,401.0,-1.3095,0.1998,9.719,-0.0362,0.0209,-0.1164,-1.738317152062887,-0.0003059798327740282,2.6893091201782227,-1.8292107582092285,-1.4509993889078032e-05,1.9661273956298828,5.163636255055227,-0.00018471760267857462,0.2634969651699066,-1.596729580556051,-0.0,0.0038182679563760757,0.825486421585083,0.0,0.0022005639038980007,0.8032503724098206,0.013145523145794868,-0.007426841650158167
565.0,401.0,-1.3095,0.1998,9.719,-0.0362,0.0209,-0.1164,-1.7382971249022425,-0.0002886613947339356,2.759920120239258,-1.8292748928070068,-1.3630980902235024e-05,2.04025936126709,5.163600134640493,-0.00019039343169424683,0.2750208079814911,-1.5967896620379847,-0.0,-0.013514013029634953,0.8255143165588379,0.0,-0.0013139477232471108,0.8033137321472168,0.014911684207618237,-0.009385718032717705
565.0,401.0,-1.3095,0.1998,9.719,-0.0362,0.0209,-0.1164,-1.738317152062887,-0.00033065699972212315,2.748776912689209,-1.829246997833252,-1.3038568795309402e-05,2.00730562210083,5.163587975292959,-0.00020037411013618112,0.26289084553718567,-1.5967376867877405,-0.0,-0.012819548137485981,0.8255102634429932,0.0,0.010883455164730549,0.8034582138061523,0.01659533940255642,0.008397516794502735
610.0,408.0,-1.4997,0.2812,9.618,-0.0302,0.0228,-0.1046,-1.7383891544737757,-0.0013630735920742154,2.7067370414733887,-1.829219102859497,-1.2324401723162737e-05,2.028970241546631,5.163572269469061,-0.0002018937811953947,0.259630024433136,-1.5967896620379847,-0.0,-0.011371445842087269,0.8254942893981934,0.0,4.381407052278519e-06,0.8035220503807068,0.01671634055674076,0.015250316821038723
610.0,408.0,-1.4997,0.2812,9.618,-0.0302,0.0228,-0.1046,-1.7383328876891078,-0.0019739591516554356,2.740447521209717,-1.829243779182434,-1.1838087630167138e-05,2.019237756729126,5.163628029614248,-0.0002199285663664341,0.27407485246658325,-1.5967658201800745,-0.0,0.0041863271035254,0.8254782557487488,0.0,-0.008313791826367378,0.803678572177887,0.016223154962062836,0.009456652216613293
610.0,408.0,-1.4997,0.2812,9.618,-0.0302,0.0228,-0.1046,-1.7384010754027308,-0.0036013226490467787,2.7877259254455566,-1.8292831182479858,-2.2324131350615062e-05,2.024705171585083,5.163584190398016,-0.00023842148948460817,0.27785807847976685,-1.5967496077166956,-0.0,-0.0057877735234797,0.8254945874214172,0.0,0.0028063980862498283,0.8037344813346863,0.014406971633434296,0.03291461989283562
610.0,408.0,-1.4997,0.2812,9.618,-0.0302,0.0228,-0.1046,-1.7384449444212855,-0.005978044122457504,2.7094552516937256,-1.8292624950408936,-2.16800399357453e-05,2.008537769317627,5.163660335331716,-0.00023869295546319336,0.2913554906845093,-1.59674579301943,-0.0,0.007115304470062256,0.8255383968353271,0.0,0.014290707185864449,0.8038586974143982,0.011048784479498863,0.026995602995157242
610.0,408.0,-1.4997,0.2812,9.618,-0.0302,0.0228,-0.1046,-1.7384849987425746,-0.007864471524953842,2.7215828895568848,-1.8292315006256104,-2.092400063702371e-05,2.037092447280884,5.163580047875204,-0.000244894006755203,0.2707267701625824,-1.5967376867877405,-0.0,-0.0020763191860169172,0.8255064487457275,0.0,-0.005853251554071903,0.8038904070854187,0.007994663901627064,0.009652508422732353
610.0,408.0,-1.4997,0.2812,9.618,-0.0302,0.0228,-0.1046,-1.7385169468321742,-0.007627387996762991,2.7062501907348633,-1.8292624950408936,-1.9994340618723072e-05,2.020277976989746,5.163632201939382,-0.00021561834728345275,0.271377831697464,-1.596733872090475,-0.0,-0.011426061391830444,0.8255060911178589,0.0,-0.006168236956000328,0.8039343357086182,0.004565735347568989,0.011700176633894444
610.0,408.0,-1.4997,0.2812,9.618,-0.0302,0.0228,-0.1046,-1.7386056385436,-0.006714372429996729,2.7310566902160645,-1.8292149305343628,-4.1455447408189627e-10,1.9949722290039062,5.163568186550894,-0.00028241309337317944,0.2736112177371979,-1.596785847340719,-0.0,-0.010321690700948238,0.8255506753921509,0.0,0.006497917231172323,0.8039461374282837,0.0030128397047519684,0.014331603422760963
610.0,408.0,-1.4997,0.2812,9.618,-0.0302,0.0228,-0.1046,-1.7386652431883753,-0.007718113251030445,2.6852755546569824,-1.8292955160140991,-1.3431039139503142e-17,2.0434045791625977,5.163596439152517,-0.0002937168756034225,0.26858556270599365,-1.5967701117144983,-0.0,-0.0021904115565121174,0.825574517250061,0.0,0.0007906965911388397,0.8039060831069946,0.0014854638138785958,-0.07129843533039093
610.0,408.0,-1.4997,0.2812,9.618,-0.0302,0.0228,-0.1046,-1.7386847935118617,-0.009378734976053238,2.6843771934509277,-1.8292429447174072,-3.24343789941783e-23,2.026061773300171,5.163588273316183,-0.0002944912121165544,0.2776273190975189,-1.5967138449298304,-0.0,-0.0035592857748270035,0.8255102634429932,0.0,0.011433036997914314,0.8039705753326416,0.0008230672683566809,0.0020102038979530334
610.0,408.0,-1.4997,0.2812,9.618,-0.0302,0.0228,-0.1046,-1.7387811146178187,-0.010069474577903748,2.7212862968444824,-1.8292633295059204,-7.832522361110916e-29,1.9796490669250488,5.16359235623435,-0.0004523734387475997,0.2738082706928253,-1.5967219511615198,-0.0,-0.01787898875772953,0.8255627155303955,0.0,0.0019994094036519527,0.8039220571517944,0.0005646472563967109,0.060219716280698776
610.0,408.0,-1.4997,0.2812,9.618,-0.0302,0.0228,-0.1046,-1.7388578854002894,-0.007881770841777325,2.743516445159912,-1.8292790651321411,-2.5376373523037582e-36,2.0012030601501465,5.163612413197317,-0.0003448319621384144,0.2708594799041748,-1.596705738698141,-0.0,-0.012535134330391884,0.8255306482315063,0.0,-0.0024457713589072227,0.8039261102676392,0.00046441549784503877,0.025005802512168884
610.0,408.0,-1.4997,0.2812,9.618,-0.0302,0.0228,-0.1046,-1.738845010797018,-0.0061779022216796875,2.6886603832244873,-1.8292429447174072,-6.127878184492425e-42,1.9881401062011719,5.163588273316183,-0.0003367252356838435,0.27780693769454956,-1.596729580556051,-0.0,0.003770932089537382,0.8254700899124146,0.0,-0.0052185626700520515,0.8039543628692627,0.00038030522409826517,-0.004757456015795469
610.0,408.0,-1.4997,0.2812,9.618,-0.0302,0.0228,-0.1046,-1.7389899692931117,-0.004996675532311201,2.711909294128418,-1.8292510509490967,-0.0,1.9738049507141113,5.163580435305395,-0.00029740924946963787,0.27013862133026123,-1.596717659627096,-0.0,-0.0039086793549358845,0.8255629539489746,0.0,-0.000907998182810843,0.8039625883102417,0.00034489453537389636,0.0008145964820869267
585.0,387.0,-1.477,0.0455,9.4331,-0.0458,0.0057,-0.1214,-1.7389732799925746,-0.004364348948001862,2.7014174461364746,-1.829246997833252,-0.0,1.998068928718567,5.163580435305395,-0.0002805547264870256,0.27855491638183594,-1.5967701117144983,-0.0,0.003628599690273404,0.8254901170730591,0.0,-0.0012094131670892239,0.8039461374282837,0.00021581625333055854,-0.03478970751166344
585.0,387.0,-1.477,0.0455,9.4331,-0.0458,0.0057,-0.1214,-1.739053865472311,-0.0041763149201869965,2.7347946166992188,-1.8292790651321411,-0.0,2.0401368141174316,5.16359235623435,-0.00021993873815517873,0.27718713879585266,-1.5967701117144983,-0.0,-0.005415225401520729,0.8254901170730591,0.0,0.011535266414284706,0.8039743304252625,0.0009196605533361435,0.02630460262298584
585.0,387.0,-1.477,0.0455,9.4331,-0.0458,0.0057,-0.1214,-1.7390333614745082,-0.00322877150028944,2.725581169128418,-1.8292149305343628,-0.0,1.9844070672988892,5.163548099785604,-0.0001918012130772695,0.27576392889022827,-1.5967257658587855,-0.0,-0.0053329188376665115,0.8254983425140381,0.0,0.0032040616497397423,0.8039825558662415,0.0014188495697453618,0.012808584608137608
585.0,387.0,-1.477,0.0455,9.4331,-0.0458,0.0057,-0.1214,-1.739049573937887,-0.002579797524958849,2.71138334274292,-1.8291828632354736,-0.0,2.029352903366089,5.163584220200338,-0.00020398380002006888,0.26836782693862915,-1.59674579301943,-0.0,-0.007877262309193611,0.8255060911178589,0.0,0.006432690192013979,0.8039619326591492,0.0017882296815514565,0.021103573963046074
585.0,387.0,-1.477,0.0455,9.4331,-0.0458,0.0057,-0.1214,-1.7391063175597132,-0.0018481154693290591,2.739144802093506,-1.8292790651321411,-0.0,2.0125553607940674,5.163556355028906,-0.00019830616656690836,0.2839902937412262,-1.5967415014850062,-0.0,0.006715622264891863,0.8255184292793274,0.0,-0.005186301656067371,0.8039780259132385,0.0024963209871202707,0.0007054092711769044
585.0,387.0,-1.477,0.0455,9.4331,-0.0458,0.0057,-0.1214,-1.7390939197936,-0.0016868698876351118,2.7471046447753906,-1.8292429447174072,-2.0728032623651416e-08,2.068859338760376,5.163564431458273,-0.00018280325457453728,0.27381470799446106,-1.5967376867877405,-0.0,0.0036847880110144615,0.8255306482315063,0.0,0.005166448652744293,0.8040869235992432,0.0032868438865989447,-0.031779613345861435
585.0,387.0,-1.477,0.0455,9.4331,-0.0458,0.0057,-0.1214,-1.7390781841673792,-0.0014677603030577302,2.696816921234131,-1.82919442653656,-6.715618665988955e-16,2.046454906463623,5.163512038975515,-0.0001871903077699244,0.2731010615825653,-1.5967257658587855,-0.0,0.006337483413517475,0.8255102634429932,0.0,-0.005300742574036121,0.8040501475334167,0.004679608624428511,-0.05954958498477936
585.0,387.0,-1.477,0.0455,9.4331,-0.0458,0.0057,-0.1214,-1.739105840722555,-0.0016024528304114938,2.7544455528259277,-1.8292584419250488,-1.6217428237953507e-21,1.9731979370117188,5.163568603783407,-0.00020895552006550133,0.2882270812988281,-1.5967534224139612,-0.0,0.003946712240576744,0.8254904747009277,0.0,0.007071832660585642,0.8041143417358398,0.006118910852819681,0.026608072221279144
585.0,387.0,-1.477,0.0455,9.4331,-0.0458,0.0057,-0.1214,-1.7390934429564417,-0.0020212922245264053,2.7516703605651855,-1.8292748928070068,-5.254240824107728e-29,2.0563673973083496,5.163536298065939,-0.0002519300614949316,0.27166107296943665,-1.5967219511615198,-0.0,0.00237444881349802,0.8254261016845703,0.0,0.002424113219603896,0.804194986820221,0.007030487060546875,0.07545174658298492
585.0,387.0,-1.477,0.0455,9.4331,-0.0458,0.0057,-0.1214,-1.7391015491881312,-0.002446368569508195,2.7565927505493164,-1.8292107582092285,-1.2688374414440823e-34,2.0207114219665527,5.16349612453536,-0.00045909991604276,0.2780512571334839,-1.5966938177691858,-0.0,-0.021485384553670883,0.8254462480545044,0.0,0.005878463853150606,0.8042306900024414,0.007499383296817541,0.035894058644771576
585.0,387.0,-1.477,0.0455,9.4331,-0.0458,0.0057,-0.1214,-1.7391296825804652,-0.003138332860544324,2.7183127403259277,-1.8292149305343628,-4.111409694329013e-42,2.0122342109680176,5.163504349976339,-0.0005113678053021431,0.2849007844924927,-1.5967257658587855,-0.0,0.0020475711207836866,0.8255749344825745,0.0,-0.001008724793791771,0.804294764995575,0.008282293565571308,-0.028621355071663857
585.0,387.0,-1.477,0.0455,9.4331,-0.0458,0.0057,-0.1214,-1.739174028436178,-0.0034381805453449488,2.739509344100952,-1.8292510509490967,-0.0,1.9574034214019775,5.163552331715383,-0.0005962293362244964,0.27339446544647217,-1.5967376867877405,-0.0,0.002859706524759531,0.8255060911178589,0.0,0.0010166438296437263,0.8043385744094849,0.008967692032456398,0.024317968636751175
585.0,387.0,-1.477,0.0455,9.4331,-0.0458,0.0057,-0.1214,-1.7392260036864222,-0.004403343424201012,2.7303361892700195,-1.8292748928070068,-0.0,2.010401964187622,5.163536655693807,-0.0006208412232808769,0.27911314368247986,-1.596705738698141,-0.0,-0.008746849372982979,0.8255585432052612,0.0,-0.0029870285652577877,0.804398775100708,0.009382081218063831,0.012603789567947388
536.0,413.0,-1.5099,0.1178,9.5145,-0.0447,0.0257,-0.102,-1.7392741642394007,-0.005729496479034424,2.7048325538635254,-1.8292067050933838,-0.0,2.003434658050537,5.163516509323873,-0.0007557697826996446,0.28355371952056885,-1.5967534224139612,-0.0,0.00026810867711901665,0.8255143165588379,0.0,0.004992528818547726,0.8044869303703308,0.010301059111952782,0.043188899755477905
536.0,413.0,-1.5099,0.1178,9.5145,-0.0447,0.0257,-0.102,-1.7392898998656214,-0.006578532978892326,2.6858181953430176,-1.8292624950408936,-0.0,1.9630908966064453,5.163484591036596,-0.000902198429685086,0.2751712203025818,-1.596733872090475,-0.0,-0.0013268510811030865,0.8254823684692383,0.0,0.008214353583753109,0.8045551180839539,0.010303924791514874,0.031350232660770416
536.0,413.0,-1.5099,0.1178,9.5145,-0.0447,0.0257,-0.102,-1.7393261394896449,-0.00777075532823801,2.739541530609131,-1.8292315006256104,-0.0,2.0057637691497803,5.163492429047384,-0.0010789406951516867,0.27512484788894653,-1.5966981093036097,-0.0,-0.0036142272874712944,0.8255265951156616,0.0,-0.0021572858095169067,0.8046308159828186,0.010687003843486309,-0.010675014927983284
536.0,413.0,-1.5099,0.1178,9.5145,-0.0447,0.0257,-0.102,-1.7393743000426234,-0.00923406332731247,2.739861011505127,-1.8292272090911865,-0.0,2.00258731842041,5.163496511965551,-0.001599104143679142,0.2814786434173584,-1.59674579301943,-0.0,-0.011826664209365845,0.825526237487793,0.0,0.0017272987170144916,0.8046993613243103,0.010692115873098373,0.00032245833426713943
536.0,413.0,-1.5099,0.1178,9.5145,-0.0447,0.0257,-0.102,-1.739474435845846,-0.011291244998574257,2.758450508117676,-1.8292789459228516,-0.0,2.0591468811035156,5.163452255516805,-0.004826839547604322,0.26337018609046936,-1.596717659627096,-0.0,0.015809867531061172,0.8255547285079956,0.0,0.00038048491114750504,0.8047991394996643,0.010683896951377392,0.04267702251672745
536.0,413.0,-1.5099,0.1178,9.5145,-0.0447,0.0257,-0.102,-1.7395507297911585,-0.012548915110528469,2.6798009872436523,-1.8292592763900757,-0.0,1.9680052995681763,5.163388716965475,-0.012849023565649986,0.2869976758956909,-1.5967496077166956,-0.0,0.0009326448198407888,0.8254302144050598,0.0,0.0028014627750962973,0.8048150539398193,0.0110094603151083,0.04425855726003647
536.0,413.0,-1.5099,0.1178,9.5145,-0.0447,0.0257,-0.102,-1.739627023736471,-0.01417546346783638,2.689030647277832,-1.8292274475097656,-0.0,2.007469415664673,5.163284617453375,-0.016163872554898262,0.2768506705760956,-1.5967138449298304,-0.0,0.00923076644539833,0.8255020380020142,0.0,-0.018361886963248253,0.804919421672821,0.010599340312182903,0.00016948580741882324
536.0,413.0,-1.5099,0.1178,9.5145,-0.0447,0.0257,-0.102,-1.7397548160948695,-0.016113776713609695,2.6940746307373047,-1.829210877418518,-0.0,2.048257827758789,5.16322489359931,-0.009341437369585037,0.28526216745376587,-1.5966981093036097,-0.0,0.007440661080181599,0.8254942893981934,0.0,0.0014321228954941034,0.8049671649932861,0.009516388177871704,0.01090353261679411
536.0,413.0,-1.5099,0.1178,9.5145,-0.0447,0.0257,-0.102,-1.739915510217184,-0.01939745619893074,2.734910726547241,-1.8291984796524048,-0.0,2.035581111907959,5.1631929753120325,-0.004611948970705271,0.27608799934387207,-1.5967376867877405,-0.0,-0.005834235809743404,0.8255266547203064,0.0,-5.978182889521122e-05,0.8049871921539307,0.008725984022021294,0.037134215235710144
536.0,413.0,-1.5099,0.1178,9.5145,-0.0447,0.0257,-0.102,-1.739978929559225,-0.02192211151123047,2.7353267669677734,-1.8292107582092285,-0.0,1.9803448915481567,5.163149285107412,-0.0012775950599461794,0.2817174792289734,-1.5967219511615198,-0.0,-0.007329829502850771,0.825558602809906,0.0,0.0010847304947674274,0.8050308227539062,0.007376163266599178,0.03940648213028908
536.0,413.0,-1.5099,0.1178,9.5145,-0.0447,0.0257,-0.102,-1.7400781116881312,-0.024358324706554413,2.7235398292541504,-1.8292272090911865,-0.0,2.021230697631836,5.1631734547908685,-0.0007929872954264283,0.2748993933200836,-1.5966818968402308,-0.0,0.004529430530965328,0.8255224227905273,0.0,0.00501582445576787,0.8051072359085083,0.006742377765476704,0.010783564299345016
536.0,413.0,-1.5099,0.1178,9.5145,-0.0447,0.0257,-0.102,-1.7403556309142054,-0.027823014184832573,2.649885416030884,-1.8292231559753418,6.666410627076402e-05,2.089874744415283,5.1631772992904565,-0.0005271495319902897,0.2788429260253906,-1.596717659627096,-0.0,0.0006581397028639913,0.8255184292793274,0.0,0.0007560141384601593,0.8051673173904419,0.00469483807682991,0.012151037342846394
536.0,413.0,-1.5099,0.1178,9.5145,-0.0447,0.0257,-0.102,-1.7404595814146937,-0.029680447652935982,2.7043604850769043,-1.829246997833252,6.383670552168041e-05,1.996767520904541,5.163189458637991,-0.0004213074571453035,0.27450037002563477,-1.5967415014850062,-0.0,0.014409715309739113,0.8254783153533936,0.0,0.0010092980228364468,0.8051793575286865,0.0035351573023945093,0.04281576722860336
579.0,387.0,-1.1898,0.2674,9.1992,-0.038,-0.0144,-0.1158,-1.740676065484518,-0.03199131786823273,2.712494373321533,-1.8292025327682495,7.347697828663513e-05,2.0148534774780273,5.163205134659567,-0.00035087927244603634,0.2841640114784241,-1.5967100302325647,-0.0,-0.0009615363669581711,0.8254462480545044,0.0,0.008810285478830338,0.8051992058753967,0.0025287391617894173,-0.010358858853578568
579.0,387.0,-1.1898,0.2674,9.1992,-0.038,-0.0144,-0.1158,-1.740944047967428,-0.035785283893346786,2.650493621826172,-1.829178810119629,9.155856969300658e-05,2.021149158477783,5.163185375719824,-0.00028693480999208987,0.27725285291671753,-1.5966981093036097,-0.0,0.00035105441929772496,0.8254983425140381,0.0,-0.00038940785452723503,0.8052273988723755,0.0018328421283513308,-0.002699439413845539
579.0,387.0,-1.1898,0.2674,9.1992,-0.038,-0.0144,-0.1158,-1.7411724529662074,-0.03850729763507843,2.6660618782043457,-1.8292560577392578,0.00022636349603999406,2.0411410331726074,5.163188802986898,-0.0002524356241337955,0.28334447741508484,-1.5966742674456995,-0.0,0.0015567471273243427,0.8254700303077698,0.0,0.00418750150129199,0.8052071332931519,0.0016807707725092769,-0.04641086980700493
579.0,387.0,-1.1898,0.2674,9.1992,-0.038,-0.0144,-0.1158,-1.7414728603758753,-0.04066212475299835,2.6860830783843994,-1.8291869163513184,0.00028356112306937575,2.0044968128204346,5.163153368025579,-0.00021756027126684785,0.2800682485103607,-1.5967534224139612,-0.0,0.01142287440598011,0.8255425691604614,0.0,0.01097169704735279,0.8051870465278625,0.0013425691286101937,0.007592998910695314
579.0,387.0,-1.1898,0.2674,9.1992,-0.038,-0.0144,-0.1158,-1.7417174778380335,-0.04318695887923241,2.6192679405212402,-1.8292231559753418,0.0002719300682656467,2.00101375579834,5.1631812928016565,-0.00019713505753315985,0.27257639169692993,-1.596705738698141,-0.0,-0.0004407898522913456,0.8254700303077698,0.0,-0.0022373723331838846,0.8052757382392883,0.0012603944633156061,-0.020047936588525772
579.0,387.0,-1.1898,0.2674,9.1992,-0.038,-0.0144,-0.1158,-1.7421018085875453,-0.046655502170324326,2.664320230484009,-1.8292397260665894,0.00024204277724493295,2.042344570159912,5.163169371872701,-0.0001752039388520643,0.2815092206001282,-1.5966780821429651,-0.0,0.016697518527507782,0.8254901170730591,0.0,-0.011841831728816032,0.8052352070808411,0.001267128624022007,0.025885213166475296
579.0,387.0,-1.1898,0.2674,9.1992,-0.038,-0.0144,-0.1158,-1.7424184284605921,-0.046080075204372406,2.642700672149658,-1.8292189836502075,0.000248029304202646,2.018857479095459,5.163165288954534,-0.00016171106835827231,0.29136645793914795,-1.5966656843768519,-0.0,0.012702633626759052,0.8254700303077698,0.0,0.006125939078629017,0.805299699306488,0.0012980649480596185,0.008015846833586693
579.0,387.0,-1.1898,0.2674,9.1992,-0.038,-0.0144,-0.1158,-1.7426864109435023,-0.047786153852939606,2.6239404678344727,-1.829171061515808,0.00024901723372749984,2.0372910499572754,5.163165288954534,-0.0001501485676271841,0.26784446835517883,-1.5966623465167444,-0.0,-0.005189618095755577,0.8255425095558167,0.0,-0.00019661965779960155,0.8052634000778198,0.0011186369229108095,-0.056002549827098846
579.0,387.0,-1.1898,0.2674,9.1992,-0.038,-0.0144,-0.1158,-1.7430750332274378,-0.051208995282649994,2.6573524475097656,-1.8292033672332764,0.00021277533960528672,2.016913652420044,5.163161295443334,-0.00015666204853914678,0.26665830612182617,-1.5966938177691858,-0.0,0.010485302656888962,0.8255102634429932,0.0,0.004932639189064503,0.8052228689193726,0.0008293903083540499,0.009378860704600811
579.0,387.0,-1.1898,0.2674,9.1992,-0.038,-0.0144,-0.1158,-1.7434035740294398,-0.05235140025615692,2.6590514183044434,-1.8291548490524292,0.0002235475112684071,2.0315356254577637,5.163165288954534,-0.00014706258662045002,0.2632012367248535,-1.5966699759112757,-0.0,0.008833413943648338,0.8255585432052612,0.0,0.010377932339906693,0.8053035140037537,0.0007239120313897729,0.03986978530883789
579.0,387.0,-1.1898,0.2674,9.1992,-0.038,-0.0144,-0.1158,-1.743847986260885,-0.05228491872549057,2.629194498062134,-1.8291910886764526,0.000191833489225246,2.0384669303894043,5.163157450943746,-8.823823736747727e-05,0.275728315114975,-1.5966861883746546,-0.0,0.020024098455905914,0.8254904747009277,0.0,-0.00044228858314454556,0.8052672743797302,0.0005585495382547379,0.014688045717775822
579.0,387.0,-1.1898,0.2674,9.1992,-0.038,-0.0144,-0.1158,-1.7442089519896449,-0.05244085192680359,2.6729254722595215,-1.8291829824447632,0.0001733574754325673,1.9999735355377197,5.163157450943746,-0.00011021733371308073,0.27574557065963745,-1.5966861883746546,-0.0,0.011166153475642204,0.8255143761634827,0.0,0.008261396549642086,0.805351972579956,0.0005051011103205383,-0.004049402661621571
579.0,387.0,-1.1898,0.2674,9.1992,-0.038,-0.0144,-0.1158,-1.744669576684469,-0.05490974709391594,2.6416678428649902,-1.829243540763855,0.00015362922567874193,2.0210354328155518,5.163161623268881,-0.0007613754132762551,0.2757284641265869,-1.5966456572162073,-0.0,-0.0012013923842459917,0.8254942893981934,0.0,0.010460203513503075,0.8053197264671326,0.0005127285257913172,-0.03957095742225647
512.0,374.0,-1.471,0.2506,9.2842,-0.0463,-0.0188,-0.124,-1.7449537716307582,-0.057103339582681656,2.5912086963653564,-1.8291953802108765,0.00014154832751955837,2.0020227432250977,5.163089084416189,-0.0014551653293892741,0.27643847465515137,-1.5966337362872522,-0.0,0.018856702372431755,0.8255183696746826,0.0,-0.0012971905525773764,0.8052873611450195,0.0005094240186735988,0.021556492894887924
512.0,374.0,-1.471,0.2506,9.2842,-0.0463,-0.0188,-0.124,-1.7454339466490687,-0.062055960297584534,2.644773006439209,-1.8291823863983154,0.00014946804731152952,2.0472254753112793,5.16312141993598,-0.002000701380893588,0.26560351252555847,-1.5966938177691858,-0.0,0.018212933093309402,0.8254823684692383,0.0,0.014633936807513237,0.8052873611450195,0.0004570347082335502,-8.083874126896262e-05
512.0,374.0,-1.471,0.2506,9.2842,-0.0463,-0.0188,-0.124,-1.745826860467428,-0.0647110641002655,2.5990991592407227,-1.8291869163513184,0.0001594682689756155,2.0070724487304688,5.163040864258566,-0.0018162759952247143,0.2746730446815491,-1.5966981093036097,-0.0,0.0019535368774086237,0.8255102634429932,0.0,-0.0018470615614205599,0.8052754402160645,0.0004877093597315252,0.003564269980415702
512.0,374.0,-1.471,0.2506,9.2842,-0.0463,-0.0188,-0.124,-1.7462431393065394,-0.07047364115715027,2.667574405670166,-1.8291783332824707,0.00019855177379213274,2.0057435035705566,5.163133758097448,-0.0017407332779839635,0.26745277643203735,-1.5966694990741175,-0.0,0.012313177809119225,0.8255060911178589,0.0,0.0021843768190592527,0.805275022983551,0.0004500476352404803,-0.008604994043707848
512.0,374.0,-1.471,0.2506,9.2842,-0.0463,-0.0188,-0.124,-1.7468439541258753,-0.07744016498327255,2.627047061920166,-1.8291398286819458,0.0007239960832521319,2.0162715911865234,5.1630776701267145,-0.0020022434182465076,0.2733639180660248,-1.5966780821429651,-0.0,-0.00040733348578214645,0.8254942297935486,0.0,0.0014728225069120526,0.8053035140037537,0.0003500823804643005,-0.08131430298089981
512.0,374.0,-1.471,0.2506,9.2842,-0.0463,-0.0188,-0.124,-1.7473045788206996,-0.08692537248134613,2.6254820823669434,-1.8291188478469849,0.001360623980872333,1.9833855628967285,5.163053142815389,-0.0017117776442319155,0.2642030119895935,-1.5966900030719202,-0.0,0.017329078167676926,0.8255343437194824,0.0,-0.006871162448078394,0.8052754402160645,0.00030005682492628694,-0.02158317342400551
512.0,374.0,-1.471,0.2506,9.2842,-0.0463,-0.0188,-0.124,-1.7480737171568812,-0.09244289249181747,2.6138339042663574,-1.8291226625442505,0.0033562604803591967,2.031571865081787,5.163037109165945,-0.000922326697036624,0.2569950222969055,-1.5966981093036097,-0.0,0.023989778012037277,0.825486421585083,0.0,0.006348659750074148,0.8053075671195984,0.0002520367852412164,-0.08829094469547272
512.0,374.0,-1.471,0.2506,9.2842,-0.0463,-0.0188,-0.124,-1.748634477654928,-0.09430017322301865,2.6214447021484375,-1.8291237354278564,0.006372593343257904,2.012972354888916,5.163077223091879,-0.000707281637005508,0.2637825012207031,-1.5966818968402308,-0.0,0.013480616733431816,0.8254581093788147,0.0,-0.0007615876384079456,0.8052754402160645,0.00022502834326587617,-0.09625498205423355
512.0,374.0,-1.471,0.2506,9.2842,-0.0463,-0.0188,-0.124,-1.7494389019408167,-0.09213865548372269,2.5490756034851074,-1.8290759325027466,0.008873609825968742,2.0247151851654053,5.163065391569891,-0.00045461716945283115,0.2744166851043701,-1.5966742674456995,-0.0,0.013978674076497555,0.8254741430282593,0.0,0.0065542180091142654,0.8052631616592407,0.00019689594046212733,-0.025293564423918724
512.0,374.0,-1.471,0.2506,9.2842,-0.0463,-0.0188,-0.124,-1.7500277958311976,-0.09064621478319168,2.636556625366211,-1.8290470838546753,0.006107001099735498,2.0356924533843994,5.163033443480291,-0.0014979139668866992,0.25262925028800964,-1.5966575781451624,-0.0,0.021549012511968613,0.8254823684692383,0.0,0.010899582877755165,0.8053155541419983,0.0001800172176444903,-0.061101946979761124
512.0,374.0,-1.471,0.2506,9.2842,-0.0463,-0.0188,-0.124,-1.750608583489889,-0.09403596818447113,2.6476316452026367,-1.829016089439392,0.002584738889709115,2.031355142593384,5.163025605469503,-0.003969952464103699,0.26700156927108765,-1.5966699759112757,-0.0,-0.0013280659914016724,0.8254823684692383,0.0,0.004603407345712185,0.8052994012832642,0.0001658038963796571,-0.05080906301736832
512.0,374.0,-1.471,0.2506,9.2842,-0.0463,-0.0188,-0.124,-1.751409193078512,-0.1050216406583786,2.628655433654785,-1.829007625579834,0.0006219391361810267,2.001332998275757,5.162985849171438,-0.006671552546322346,0.2739563286304474,-1.5966656843768519,-0.0,0.007104524411261082,0.8255183696746826,0.0,0.006190738640725613,0.8053035140037537,0.00015001182327978313,-0.06465242803096771
512.0,374.0,-1.471,0.2506,9.2842,-0.0463,-0.0188,-0.124,-1.7520142994322718,-0.10882362723350525,2.6158440113067627,-1.8290473222732544,0.00013516076433006674,1.987304449081421,5.162982213288107,-0.006663390900939703,0.2590857744216919,-1.5966418425189417,-0.0,0.010586727410554886,0.8255060911178589,0.0,0.0007883306825533509,0.8052349090576172,4.925492248730734e-05,-0.07804526388645172
462.0,373.0,-1.3645,0.3123,9.7843,-0.0547,-0.0728,-0.115,-1.7529078922667445,-0.11132918298244476,2.5797619819641113,-1.8289281129837036,0.0029427390545606613,2.0094382762908936,5.162938284664907,-0.002969062654301524,0.25990962982177734,-1.5967219511615198,-0.0,0.01710248552262783,0.8254942297935486,0.0,-0.004407918080687523,0.8053035140037537,1.4285407301528608e-09,-0.06591174751520157
462.0,373.0,-1.3645,0.3123,9.7843,-0.0547,-0.0728,-0.115,-1.7536050281920375,-0.11151600629091263,2.561845302581787,-1.8289117813110352,0.007307518273591995,2.0517258644104004,5.162933754711904,-0.0009101683390326798,0.27391865849494934,-1.5966780821429651,-0.0,0.018546104431152344,0.8255224227905273,0.0,-0.0005840494995936751,0.8052873611450195,3.449757671094688e-15,-0.07962335646152496
462.0,373.0,-1.3645,0.3123,9.7843,-0.0547,-0.0728,-0.115,-1.7545577488341273,-0.11221256852149963,2.6382763385772705,-1.8288556337356567,0.00843222439289093,2.0373427867889404,5.162921923189916,-0.00012680352665483952,0.2637748718261719,-1.5967219511615198,-0.0,0.019839679822325706,0.8254782557487488,0.0,0.009491381235420704,0.8052713871002197,1.1176773156143445e-22,-0.024247517809271812
462.0,373.0,-1.3645,0.3123,9.7843,-0.0547,-0.0728,-0.115,-1.755242486993307,-0.10735546052455902,2.667449951171875,-1.8288079500198364,0.006067449692636728,2.0339858531951904,5.162885832577505,-0.0002420447999611497,0.2731247544288635,-1.5967019240008753,-0.0,0.024878336116671562,0.8255183696746826,0.0,0.011554117314517498,0.8052914142608643,2.6990593723400066e-28,-0.0517936572432518
462.0,373.0,-1.3645,0.3123,9.7843,-0.0547,-0.0728,-0.115,-1.7559391460814417,-0.10780815780162811,2.588737726211548,-1.8287955522537231,0.0024560836609452963,2.072366714477539,5.162874001055517,-0.0008023058762773871,0.26557764410972595,-1.5966818968402308,-0.0,0.026205183938145638,0.825510561466217,0.0,0.009703483432531357,0.80528324842453,6.517910922975671e-34,-0.0986260250210762
462.0,373.0,-1.3645,0.3123,9.7843,-0.0547,-0.0728,-0.115,-1.7568489513792933,-0.10997914522886276,2.5725903511047363,-1.828803539276123,-0.0009285943233408034,2.0182442665100098,5.162862080126562,-0.005134408827871084,0.2716296315193176,-1.5967019240008753,-0.0,0.022036459296941757,0.825469970703125,0.0,0.013720384798943996,0.8052873611450195,2.1117567857374993e-41,-0.09901997447013855
462.0,373.0,-1.3645,0.3123,9.7843,-0.0547,-0.0728,-0.115,-1.7574454746642054,-0.11827956140041351,2.6309571266174316,-1.8288198709487915,-0.0014662505127489567,1.9964373111724854,5.162789988308706,-0.006423245649784803,0.27192479372024536,-1.596614185963766,-0.0,0.013661212287843227,0.8255103230476379,0.0,0.0017105330480262637,0.8052791357040405,0.0,-0.08688396215438843
462.0,373.0,-1.3645,0.3123,9.7843,-0.0547,-0.0728,-0.115,-1.7583948574461878,-0.1260918378829956,2.608311176300049,-1.8287876844406128,-3.600981983709062e-07,2.0314738750457764,5.162802326470175,-0.0036600367166101933,0.2525593042373657,-1.5966861883746546,6.8647882933703386e-09,0.026749327778816223,0.8254782557487488,0.0,0.0010485745733603835,0.805279552936554,0.0,-0.010850759223103523
462.0,373.0,-1.3645,0.3123,9.7843,-0.0547,-0.0728,-0.115,-1.7590552769102992,-0.12478651106357574,2.618802070617676,-1.828760027885437,0.006665096618235111,2.018122911453247,5.162810075073995,-0.0005133611848577857,0.26848581433296204,-1.5966180006610315,1.910838891630573e-12,0.027505911886692047,0.8255143165588379,0.0,0.004563838243484497,0.8052836656570435,-8.849578443914652e-05,-0.11560797691345215
462.0,373.0,-1.3645,0.3123,9.7843,-0.0547,-0.0728,-0.115,-1.7600046596922816,-0.1127130389213562,2.6135196685791016,-1.828691840171814,0.011703605763614178,2.0453176498413086,5.16284607627944,-1.3104257234886063e-08,0.2625139653682709,-1.596705738698141,3.4728552669495777e-17,0.012320724315941334,0.8255507349967957,0.0,0.008596132509410381,0.8053075671195984,-0.00011101358541054651,-0.05207466706633568
462.0,373.0,-1.3645,0.3123,9.7843,-0.0547,-0.0728,-0.115,-1.7607327900328578,-0.10692116618156433,2.6268513202667236,-1.8286324739456177,0.011672318913042545,1.9921271800994873,5.16277368643836,-3.647617798085978e-12,0.26305249333381653,-1.5966418425189417,9.66682199479395e-21,0.029139146208763123,0.8254823684692383,0.0,-0.0012031793594360352,0.8052836656570435,-6.588302494492382e-05,-0.02732805348932743
462.0,373.0,-1.3645,0.3123,9.7843,-0.0547,-0.0728,-0.115,-1.7614385090269984,-0.10827997326850891,2.6282918453216553,-1.8285517692565918,0.008120245300233364,2.023257255554199,5.162765848427572,-1.0153278059618891e-15,0.26145273447036743,-1.5966900030719202,2.6907950813780086e-24,0.02210524119436741,0.8254860043525696,0.0,0.007029398810118437,0.8052713871002197,-2.9823191653122194e-05,-0.0738191306591034
462.0,373.0,-1.3645,0.3123,9.7843,-0.0547,-0.0728,-0.115,-1.7623397312560023,-0.11874814331531525,2.6187515258789062,-1.828568696975708,0.002476255176588893,1.9789040088653564,5.162818300514974,-0.000149077401147224,0.2647995948791504,-1.5966981093036097,4.8903869167768e-29,0.013455471023917198,0.8255023956298828,0.0,0.012278126552700996,0.8052914142608643,-6.939421259843925e-11,-0.06488117575645447
425.0,330.0,-1.6654,0.475,9.1262,-0.0289,-0.066,-0.1232,-1.7630163631834925,-0.12222665548324585,2.636291265487671,-1.8285646438598633,0.0010430420516058803,2.0191423892974854,5.162826078921118,-0.0001197941237478517,0.2628174126148224,-1.5966938177691858,1.361257282272352e-32,0.01374732330441475,0.8254700899124146,0.0,-0.003076468361541629,0.8053076267242432,-1.675788379344731e-16,-0.06306225806474686
425.0,330.0,-1.6654,0.475,9.1262,-0.0289,-0.066,-0.1232,-1.7638970814146937,-0.1179259866476059,2.607409954071045,-1.8285164833068848,0.0009172909776680171,2.0315651893615723,5.162826078921118,-4.815642751054838e-05,0.26260414719581604,-1.5966418425189417,2.474018222657208e-37,0.014553672634065151,0.8255467414855957,0.0,0.010795995593070984,0.805271327495575,-5.429341885501308e-24,-0.08405977487564087
425.0,330.0,-1.6654,0.475,9.1262,-0.0289,-0.066,-0.1232,-1.764573713342184,-0.10976339876651764,2.618427276611328,-1.8285163640975952,0.0054023126140236855,2.0138375759124756,5.162829744606771,-4.085636464878917e-05,0.25585341453552246,-1.5966780821429651,6.886541173077881e-41,0.015530708245933056,0.8254823088645935,0.0,0.001389671117067337,0.805279552936554,-1.3111220990879593e-29,-0.11833491921424866
425.0,330.0,-1.6654,0.475,9.1262,-0.0289,-0.066,-0.1232,-1.7654510937132777,-0.10109203308820724,2.604665756225586,-1.8283839225769043,0.007848229259252548,2.0256638526916504,5.162818300514974,-3.457627826719545e-05,0.26002052426338196,-1.5966694990741175,1.401298464324817e-45,0.019883442670106888,0.8255225419998169,0.0,0.007064712233841419,0.8052914142608643,-4.247868362992718e-37,-0.07390812784433365
425.0,330.0,-1.6654,0.475,9.1262,-0.0289,-0.066,-0.1232,-1.7660757503905238,-0.10397946834564209,2.616384983062744,-1.8283476829528809,0.006390631664544344,2.045821189880371,5.162745761662283,-6.980799662414938e-05,0.2732173502445221,-1.5966456572162073,0.0,0.009321794845163822,0.8254380226135254,0.0,-0.009480784647166729,0.8052027821540833,-0.00013170400052331388,-0.08322396874427795
425.0,330.0,-1.6654,0.475,9.1262,-0.0289,-0.066,-0.1232,-1.7669249973692835,-0.116049624979496,2.644172191619873,-1.8284045457839966,0.0023573783691972494,2.026996374130249,5.162781822472372,-0.00015419120609294623,0.2751408517360687,-1.5966742674456995,0.0,0.03819529339671135,0.8254740834236145,0.0,0.009539427235722542,0.8053398728370667,-2.5572563799869386e-07,-0.08323851227760315
425.0,330.0,-1.6654,0.475,9.1262,-0.0289,-0.066,-0.1232,-1.7676135502257289,-0.11755151301622391,2.6492414474487305,-1.828344702720642,0.0012211293214932084,2.0380167961120605,5.16274647691802,-0.0006184290978126228,0.26317620277404785,-1.5966780821429651,0.0,0.02687341347336769,0.8254697322845459,0.0,-0.012036625295877457,0.8052713871002197,-6.175473543992838e-13,-0.13581979274749756
425.0,330.0,-1.6654,0.475,9.1262,-0.0289,-0.066,-0.1232,-1.768262048760885,-0.11571983247995377,2.642134666442871,-1.828324794769287,0.001017670496366918,2.038814067840576,5.162790077715673,-0.00046250681043602526,0.2712615132331848,-1.5966938177691858,0.0,0.020682241767644882,0.8254740834236145,0.0,0.004222050309181213,0.8052472472190857,-1.4913040740371523e-18,-0.09752511233091354
425.0,330.0,-1.6654,0.475,9.1262,-0.0289,-0.066,-0.1232,-1.7691194019713343,-0.11020828783512115,2.6115517616271973,-1.828300952911377,0.004443571902811527,2.0165655612945557,5.16274984458045,-0.0003444216272328049,0.2584400177001953,-1.5966499487506312,0.0,0.014602763578295708,0.825558602809906,0.0,0.0019726715981960297,0.8052634000778198,-4.83163684271303e-26,-0.07439853250980377
425.0,330.0,-1.6654,0.475,9.1262,-0.0289,-0.066,-0.1232,-1.769747873345846,-0.10538697987794876,2.611602306365967,-1.8282603025436401,0.006528222467750311,2.02626371383667,5.1626940844352625,-0.00028908165404573083,0.2537035644054413,-1.596609894429342,0.0,0.008895653299987316,0.8254823088645935,0.0,0.0007577050710096955,0.8053236603736877,-1.1667835850343891e-31,-0.09579376876354218
425.0,330.0,-1.6654,0.475,9.1262,-0.0289,-0.066,-0.1232,-1.770632883111471,-0.10106074810028076,2.677700996398926,-1.8282490968704224,0.006191365886479616,2.0197784900665283,5.162802296667852,-0.0002574836544226855,0.2618924379348755,-1.596717659627096,0.0,0.012890201061964035,0.8255306482315063,0.0,0.005711825098842382,0.8052791357040405,0.00012833610526286066,-0.08253870159387589
425.0,330.0,-1.6654,0.475,9.1262,-0.0289,-0.066,-0.1232,-1.7712136707701625,-0.10341687500476837,2.7114200592041016,-1.8281725645065308,0.0042139519937336445,1.9855165481567383,5.162782150297918,-0.0002932421048171818,0.28461968898773193,-1.596638027821676,0.0,0.01670878566801548,0.8255265355110168,0.0,0.016835892572999,0.8052749633789062,0.00021504775213543326,-0.10726925730705261
425.0,330.0,-1.6654,0.475,9.1262,-0.0289,-0.066,-0.1232,-1.7720748386778773,-0.11755497753620148,2.666569471359253,-1.8282055854797363,0.0013539058854803443,2.0089194774627686,5.162730115443029,-0.003178504528477788,0.25751397013664246,-1.596717659627096,0.0,0.023742036893963814,0.8255020380020142,0.0,-0.004804087802767754,0.8052911758422852,0.0007251290371641517,-0.07023978233337402
373.0,313.0,-1.4028,0.4732,9.5569,-0.0308,-0.0716,-0.1126,-1.772743364373678,-0.12481606006622314,2.662619113922119,-1.8281611204147339,0.0010279306443408132,1.9929001331329346,5.162726390152731,-0.002116367919370532,0.26016008853912354,-1.5966737906085413,0.0,0.019030150026082993,0.825486421585083,0.0,0.010471785441040993,0.8052791357040405,0.0006041026790626347,-0.08172254264354706
373.0,313.0,-1.4028,0.4732,9.5569,-0.0308,-0.0716,-0.1126,-1.7734610042967738,-0.11977478861808777,2.6176812648773193,-1.8281569480895996,0.004309782292693853,2.054654836654663,5.16277031877593,-0.0008824125397950411,0.2685154378414154,-1.5966537634478968,0.0,0.01667626202106476,0.8255786895751953,0.0,-0.006706067360937595,0.8053193688392639,0.0004691093636211008,-0.10166522860527039
373.0,313.0,-1.4028,0.4732,9.5569,-0.0308,-0.0716,-0.1126,-1.7743736706175746,-0.11096933484077454,2.646679401397705,-1.8281257152557373,0.009105019271373749,2.0044095516204834,5.162790375738897,-0.0004937199992127717,0.26777803897857666,-1.5966818968402308,0.0,0.00694653857499361,0.8255265355110168,0.0,0.00047402456402778625,0.805343747138977,0.00036143549368716776,-0.038254689425230026
373.0,313.0,-1.4028,0.4732,9.5569,-0.0308,-0.0716,-0.1126,-1.77514710048818,-0.10528590530157089,2.721369504928589,-1.8280212879180908,0.010352580808103085,2.0263772010803223,5.162738311081686,-0.0004072683514095843,0.26261600852012634,-1.5966818968402308,0.0,0.021641192957758904,0.8254983425140381,0.0,-0.011813897639513016,0.805343747138977,0.0003521933394949883,-0.10135642439126968
373.0,313.0,-1.4028,0.4732,9.5569,-0.0308,-0.0716,-0.1126,-1.7760240040221156,-0.10941401869058609,2.6471853256225586,-1.8280822038650513,0.006060359533876181,2.023378849029541,5.162682133703985,-0.0004842769412789494,0.2664414048194885,-1.5967138449298304,0.0,0.03363806754350662,0.8254901170730591,0.0,-0.005562489852309227,0.8053070306777954,0.001342644332908094,-0.10060971975326538
373.0,313.0,-1.4028,0.4732,9.5569,-0.0308,-0.0716,-0.1126,-1.7767492733397425,-0.12031276524066925,2.6407132148742676,-1.8279935121536255,0.0021546806674450636,1.9823286533355713,5.1626585004623315,-0.005642425734549761,0.2639455795288086,-1.5966818968402308,0.0,0.02469933219254017,0.8255503177642822,0.0,0.0035757808946073055,0.8053314089775085,0.0016406695358455181,-0.09653445333242416
373.0,313.0,-1.4028,0.4732,9.5569,-0.0308,-0.0716,-0.1126,-1.7776504955687464,-0.12989267706871033,2.650559663772583,-1.828053593635559,0.00015147771046031266,2.00413179397583,5.162666636496343,-0.0055639478377997875,0.2608618140220642,-1.5967019240008753,0.0,0.0301909688860178,0.8255342841148376,0.0,-0.006425973027944565,0.8053635954856873,0.0010199310490861535,-0.04708878695964813
373.0,313.0,-1.4028,0.4732,9.5569,-0.0308,-0.0716,-0.1126,-1.7784034214415492,-0.13411852717399597,2.6503076553344727,-1.8279973268508911,0.0007128543802537024,2.0188968181610107,5.162598240166464,-0.002688867272809148,0.2590199112892151,-1.596705738698141,0.0,0.021258849650621414,0.8254860043525696,0.0,-0.0033152448013424873,0.8053556084632874,0.0007593576447106898,-0.09089450538158417
373.0,313.0,-1.4028,0.4732,9.5569,-0.0308,-0.0716,-0.1126,-1.7792250118651332,-0.1317453533411026,2.6457974910736084,-1.8279612064361572,0.006298787426203489,2.074122190475464,5.162654775172033,-0.0003065158089157194,0.270487904548645,-1.5967138449298304,0.0,0.012047196738421917,0.8255503177642822,0.0,-0.004108736291527748,0.8053635954856873,0.0005576139665208757,-0.058861203491687775
373.0,313.0,-1.4028,0.4732,9.5569,-0.0308,-0.0716,-0.1126,-1.7802864513792933,-0.12322329729795456,2.6967787742614746,-1.8279019594192505,0.011495944112539291,2.0125393867492676,5.162602293282308,-0.0001118964355555363,0.2713940441608429,-1.5966938177691858,0.0,0.0155995674431324,0.8254979252815247,0.0,-0.013138690032064915,0.8053275942802429,0.00041178500396199524,-0.039504002779722214
373.0,313.0,-1.4028,0.4732,9.5569,-0.0308,-0.0716,-0.1126,-1.781123777429098,-0.1197054535150528,2.685244560241699,-1.8277820348739624,0.010313265025615692,2.056527853012085,5.162558483868398,-0.00023846742988098413,0.2696174085140228,-1.5967019240008753,0.0,0.008054867386817932,0.8255667090415955,0.0,0.005324610508978367,0.8053594827651978,0.0002983593731187284,-0.07570406794548035
373.0,313.0,-1.4028,0.4732,9.5569,-0.0308,-0.0716,-0.1126,-1.7821327648558558,-0.1318833827972412,2.674854278564453,-1.827833652496338,0.003459968836978078,2.018491268157959,5.16251893618659,-0.003972075413912535,0.26619213819503784,-1.5966656843768519,0.0,0.01505587249994278,0.8255102634429932,0.0,-0.011474909260869026,0.8053674101829529,0.0011438917135819793,-0.08953683078289032
373.0,313.0,-1.4028,0.4732,9.5569,-0.0308,-0.0716,-0.1126,-1.7830187282957972,-0.14946706593036652,2.6767921447753906,-1.8277695178985596,-0.0008078990504145622,2.015533685684204,5.162490713387289,-0.00671983789652586,0.2646617889404297,-1.596705738698141,0.0,0.0176650732755661,0.8255426287651062,0.0,0.00048184965271502733,0.8053876757621765,0.0012993322452530265,-0.02580164186656475
343.0,306.0,-1.5912,0.7932,9.3601,-0.0173,-0.0947,-0.1217,-1.7841445408263148,-0.1601811647415161,2.6580252647399902,-1.8277373313903809,-9.716796193970367e-05,1.946415901184082,5.162494826107778,-0.0028739701956510544,0.26278507709503174,-1.5966861883746546,0.0,0.014537133276462555,0.8255466222763062,0.0,0.0011402969248592854,0.8053718209266663,0.0004925882676616311,-0.050459932535886765
343.0,306.0,-1.5912,0.7932,9.3601,-0.0173,-0.0947,-0.1217,-1.7850495777525843,-0.15398293733596802,2.646732807159424,-1.8276814222335815,0.006210292689502239,1.9956231117248535,5.162514912873068,-0.0006333354976959527,0.2694195508956909,-1.5966900030719202,0.0,0.023575741797685623,0.8255020380020142,0.0,0.011772209778428078,0.8053674101829529,1.660473117226502e-06,-0.08535132557153702
343.0,306.0,-1.5912,0.7932,9.3601,-0.0173,-0.0947,-0.1217,-1.78595032314443,-0.1385228931903839,2.6925487518310547,-1.8276697397232056,0.011853517964482307,2.0464868545532227,5.162534940033712,0.0005594388931058347,0.26902899146080017,-1.5966656843768519,0.0,0.02997129037976265,0.8255343437194824,0.0,0.008366735652089119,0.8053553700447083,4.009847141828171e-12,-0.03538208454847336
343.0,306.0,-1.5912,0.7932,9.3601,-0.0173,-0.0947,-0.1217,-1.7871643505492152,-0.1274414360523224,2.7030563354492188,-1.8275859355926514,0.012749504297971725,2.0410027503967285,5.162523168116369,4.151850225753151e-05,0.2732929289340973,-1.5966618696795862,0.0,0.01326928660273552,0.8255343437194824,0.0,-0.01208647433668375,0.8053756356239319,1.2991393677906974e-19,-0.10209746658802032
343.0,306.0,-1.5912,0.7932,9.3601,-0.0173,-0.0947,-0.1217,-1.7879816494383753,-0.13255703449249268,2.7075748443603516,-1.8275622129440308,0.006184006575495005,2.0710041522979736,5.162470686226644,-0.002398259239271283,0.26063650846481323,-1.5966742674456995,0.0,0.017070993781089783,0.8255224823951721,0.0,0.0076439268887043,0.8054078221321106,3.137268265627755e-25,-0.04739603400230408
343.0,306.0,-1.5912,0.7932,9.3601,-0.0173,-0.0947,-0.1217,-1.7890955410399378,-0.15743525326251984,2.6711363792419434,-1.827638030052185,2.7348410185368266e-06,2.01853084564209,5.1623907563980005,-0.005892402958124876,0.25959452986717224,-1.5966861883746546,0.0,0.011905388906598091,0.8255384564399719,0.0,0.014880367554724216,0.8054194450378418,0.0016242994461208582,-0.09315994381904602
343.0,306.0,-1.5912,0.7932,9.3601,-0.0173,-0.0947,-0.1217,-1.790025373498434,-0.16917632520198822,2.6689321994781494,-1.82753324508667,-0.0019455652218312025,1.9880831241607666,5.162362563401022,-0.004500139504671097,0.26530778408050537,-1.5966537634478968,0.0,0.01583125628530979,0.8255020380020142,0.0,0.000938129611313343,0.8054116368293762,0.0009683141252025962,-0.06522251665592194
343.0,306.0,-1.5912,0.7932,9.3601,-0.0173,-0.0947,-0.1217,-1.7911621532835902,-0.15724049508571625,2.6718392372131348,-1.827478289604187,0.008315317332744598,1.985669732093811,5.162439214974203,-0.00012489962682593614,0.26672494411468506,-1.5966742674456995,0.0,0.032854557037353516,0.8255142569541931,0.0,0.014511591754853725,0.8053913712501526,0.0004525697440840304,-0.09606987982988358
343.0,306.0,-1.5912,0.7932,9.3601,-0.0173,-0.0947,-0.1217,-1.7921120129027308,-0.13826368749141693,2.6401124000549316,-1.8274098634719849,0.013709898106753826,2.0364739894866943,5.1624386785324,-3.47662698629847e-08,0.27380451560020447,-1.5967100302325647,0.0,0.033802058547735214,0.8255019783973694,0.0,0.010879126377403736,0.8053954839706421,0.00030890130437910557,-0.051154062151908875
343.0,306.0,-1.5912,0.7932,9.3601,-0.0173,-0.0947,-0.1217,-1.7929769955077113,-0.12612828612327576,2.741161823272705,-1.8272544145584106,0.017064983025193214,2.0359511375427246,5.162426876812734,0.000363999221008271,0.2611108720302582,-1.596626106892721,0.0,0.018485523760318756,0.8255102634429932,0.0,0.01523207314312458,0.8053914308547974,0.00015596130106132478,-0.09087657928466797
343.0,306.0,-1.5912,0.7932,9.3601,-0.0173,-0.0947,-0.1217,-1.79408659557485,-0.13653603196144104,2.6895251274108887,-1.827231526374817,0.011097006499767303,2.076766014099121,5.16236703374938,4.537495357226362e-08,0.2576441168785095,-1.5966537634478968,0.0,0.032378748059272766,0.8255466818809509,0.0,0.011720176786184311,0.8054757118225098,0.0016165743581950665,-0.0687650591135025
343.0,306.0,-1.5912,0.7932,9.3601,-0.0173,-0.0947,-0.1217,-1.7949606380858363,-0.1554858535528183,2.6763598918914795,-1.827178955078125,0.004290922079235315,2.0161657333374023,5.162391203432836,-0.0025568578857928514,0.26174113154411316,-1.5966218153582972,0.0,0.032581668347120285,0.8255143165588379,0.0,0.012044685892760754,0.8054193258285522,0.0019759535789489746,-0.05943766236305237
343.0,306.0,-1.5912,0.7932,9.3601,-0.0173,-0.0947,-0.1217,-1.7961584530272425,-0.1605716347694397,2.719571113586426,-1.8271433115005493,0.0017176363617181778,2.0378098487854004,5.162358838110723,-0.0014224404003471136,0.26264849305152893,-1.5966900030719202,0.0,0.026091666892170906,0.8255343437194824,0.0,0.01582285948097706,0.8054596781730652,0.0010295978281646967,-0.09143177419900894
315.0,292.0,-1.0104,1.273,10.6397,-0.0363,-0.1135,-0.1289,-1.79697908977651,-0.1496858447790146,2.6256327629089355,-1.8270823955535889,0.006450642831623554,2.0167009830474854,5.162415015488424,-7.956402987474576e-05,0.27140066027641296,-1.5966575781451624,0.0,0.012530696578323841,0.8255265355110168,0.0,0.022076686844229698,0.8054194450378418,0.0004501035436987877,-0.12439818680286407
315.0,292.0,-1.0104,1.273,10.6397,-0.0363,-0.1135,-0.1289,-1.7981044254698695,-0.1315484493970871,2.714026927947998,-1.827022671699524,0.011494690552353859,2.0489511489868164,5.162447321205892,-1.4460367347979286e-09,0.26486411690711975,-1.5966537634478968,0.0,0.03142867237329483,0.8255180716514587,0.0,0.00805298425257206,0.8054234385490417,0.0002204001066274941,-0.15079107880592346
315.0,292.0,-1.0104,1.273,10.6397,-0.0363,-0.1135,-0.1289,-1.7989260158934535,-0.12767615914344788,2.673137664794922,-1.8269387483596802,0.01171091664582491,1.9754149913787842,5.162374782353201,-4.025095957493202e-13,0.2635769844055176,-1.5967138449298304,0.0,0.036767832934856415,0.8255663514137268,0.0,0.0243563000112772,0.805431604385376,7.726095645921305e-05,-0.13821157813072205
315.0,292.0,-1.0104,1.273,10.6397,-0.0363,-0.1135,-0.1289,-1.800079961816305,-0.13618944585323334,2.700784683227539,-1.826894998550415,0.008010869845747948,2.0505263805389404,5.1623510895069025,-7.315414111032178e-18,0.2779597342014313,-1.5966656843768519,0.0,0.0291571244597435,0.825550377368927,0.0,0.012692335061728954,0.8054353594779968,0.00021413699141703546,-0.1389903724193573
315.0,292.0,-1.0104,1.273,10.6397,-0.0363,-0.1135,-0.1289,-1.8008924923338832,-0.14553499221801758,2.652510404586792,-1.8268548250198364,0.0036172831896692514,2.0199196338653564,5.16240348198966,-2.0362724930160272e-21,0.2632657587528229,-1.5967219511615198,0.0,0.02858998253941536,0.8255265951156616,0.0,0.009099967777729034,0.8054029941558838,0.000581596395932138,-0.13051725924015045
315.0,292.0,-1.0104,1.273,10.6397,-0.0363,-0.1135,-0.1289,-1.8016892872252406,-0.14637789130210876,2.71191668510437,-1.8268553018569946,0.0014948922907933593,2.0130691528320312,5.162347423821249,-5.668039559722834e-25,0.2584262788295746,-1.5966575781451624,0.0,0.04047830402851105,0.8255343437194824,0.0,0.011594184674322605,0.8054030537605286,0.00041907915147021413,-0.13761430978775024
315.0,292.0,-1.0104,1.273,10.6397,-0.0363,-0.1135,-0.1289,-1.8027669392027796,-0.13740934431552887,2.695760726928711,-1.826874852180481,0.0007480394560843706,1.9765621423721313,5.162439155369558,-1.0301383241566682e-29,0.2651131749153137,-1.5966337362872522,0.0,0.04071345925331116,0.8255462646484375,0.0,0.009585724212229252,0.805403470993042,0.00018329177692066878,-0.10904036462306976
315.0,292.0,-1.0104,1.273,10.6397,-0.0363,-0.1135,-0.1289,-1.8035766086974085,-0.13579952716827393,2.672891616821289,-1.8268111944198608,0.003194117685779929,2.0378544330596924,5.162391173630514,-2.8674278183409464e-33,0.2624913156032562,-1.5966818968402308,0.0,0.03148471564054489,0.8255182504653931,0.0,0.026751715689897537,0.8054194450378418,0.00015220182831399143,-0.11309614777565002
315.0,292.0,-1.0104,1.273,10.6397,-0.0363,-0.1135,-0.1289,-1.8046986065306605,-0.130143404006958,2.6627330780029297,-1.8267555236816406,0.005845312029123306,1.9911959171295166,5.162399011641302,-5.211408249606723e-38,0.2716262936592102,-1.596677605305807,0.0,0.02101701684296131,0.8255142569541931,0.0,0.016569245606660843,0.8054152727127075,0.00012419512495398521,-0.07586097717285156
315.0,292.0,-1.0104,1.273,10.6397,-0.0363,-0.1135,-0.1289,-1.8054548702635707,-0.1286357343196869,2.6934571266174316,-1.8267674446105957,0.0068598585203289986,2.05102801322937,5.162370788842001,-1.4506241702690506e-41,0.2470274269580841,-1.5966656843768519,0.0,0.03403867408633232,0.8255224227905273,0.0,0.013271834701299667,0.8053872585296631,0.00014545177691616118,-0.11100336164236069
315.0,292.0,-1.0104,1.273,10.6397,-0.0363,-0.1135,-0.1289,-1.8065210781493128,-0.12572748959064484,2.783453941345215,-1.8266793489456177,0.005033870693296194,2.013939142227173,5.16237901428298,-0.0,0.274890273809433,-1.5966418425189417,0.0,0.03713136538863182,0.8255701065063477,0.0,0.0059862155467271805,0.8054475784301758,3.897549322573468e-05,-0.08558812737464905
315.0,292.0,-1.0104,1.273,10.6397,-0.0363,-0.1135,-0.1289,-1.8072811565794886,-0.12985225021839142,2.6906800270080566,-1.8266795873641968,0.002570912940427661,2.0326292514801025,5.162399399071493,-3.75967392756138e-05,0.2693653404712677,-1.5966618696795862,0.0,0.03362702205777168,0.8255143165588379,0.0,0.02160036191344261,0.8054879903793335,6.895920523675159e-05,-0.0515572652220726
315.0,292.0,-1.0104,1.273,10.6397,-0.0363,-0.1135,-0.1289,-1.8081070385374964,-0.1359260529279709,2.7535996437072754,-1.8267158269882202,0.00045045846491120756,1.99165940284729,5.162427711277761,-3.285146158304997e-05,0.2535279393196106,-1.5966456572162073,0.0,0.029459282755851746,0.8255142569541931,0.0,0.02310878410935402,0.8054918646812439,0.00011311257549095899,-0.06120280921459198
302.0,300.0,-0.9529,0.5593,9.9476,-0.0273,-0.1054,-0.1155,-1.8091966114439906,-0.14018024504184723,2.706068277359009,-1.8266714811325073,0.0003972414997406304,2.008809804916382,5.16233508565978,-2.866538670787122e-05,0.2614542543888092,-1.5966499487506312,0.0,0.040319882333278656,0.825558602809906,0.0,0.020423131063580513,0.8054517507553101,0.0001087769924197346,-0.10799276828765869
302.0,300.0,-0.9529,0.5593,9.9476,-0.0273,-0.1054,-0.1155,-1.8100058041014613,-0.1413274109363556,2.7231950759887695,-1.826619267463684,0.00359415914863348,2.0086770057678223,5.162435102253713,-1.1843257397003981e-07,0.2653411626815796,-1.5967062155352991,0.0,0.04256771504878998,0.8255503177642822,0.0,0.01968703232705593,0.8054357767105103,7.48069433029741e-05,-0.0808388739824295
302.0,300.0,-0.9529,0.5593,9.9476,-0.0273,-0.1054,-0.1155,-1.8111473522581996,-0.13423578441143036,2.715501546859741,-1.826656460762024,0.008066300302743912,1.9733600616455078,5.162338781147756,-2.152453562609402e-12,0.2641388177871704,-1.5966575781451624,0.0,0.020328592509031296,0.8255060911178589,0.0,0.024548310786485672,0.8054476380348206,6.733961345162243e-05,-0.09782634675502777
302.0,300.0,-0.9529,0.5593,9.9476,-0.0273,-0.1054,-0.1155,-1.8119884930052699,-0.12602926790714264,2.7974655628204346,-1.8265633583068848,0.008548183366656303,2.016627550125122,5.162387090712347,-5.991433554052906e-16,0.26592373847961426,-1.5966742674456995,0.0,0.022426925599575043,0.8255462646484375,0.0,0.013290293514728546,0.8054475784301758,8.353529847227037e-05,-0.07835744321346283
302.0,300.0,-0.9529,0.5593,9.9476,-0.0273,-0.1054,-0.1155,-1.8130980930724085,-0.12435182183980942,2.7578442096710205,-1.826575756072998,0.0037658822257071733,1.979285717010498,5.162339168577947,-1.0889134830618768e-20,0.28340303897857666,-1.5966337362872522,0.0,0.025350216776132584,0.8255102038383484,0.0,0.012492962181568146,0.8054674863815308,0.00026285366038791835,-0.10168791562318802
302.0,300.0,-0.9529,0.5593,9.9476,-0.0273,-0.1054,-0.1155,-1.8139358959593714,-0.138895645737648,2.7838215827941895,-1.8265081644058228,0.0006920226151123643,1.9629992246627808,5.162375259190359,-3.0310303953693784e-24,0.2853838801383972,-1.5966418425189417,0.0,0.024377547204494476,0.8255462646484375,0.0,0.02530970796942711,0.8054633736610413,0.0008913393830880523,-0.06211572885513306
302.0,300.0,-0.9529,0.5593,9.9476,-0.0273,-0.1054,-0.1155,-1.8147078953185023,-0.1491619497537613,2.7809829711914062,-1.82656729221344,-0.0007743550231680274,1.9823834896087646,5.162415730744161,-8.436983900100357e-28,0.2716388702392578,-1.5966299215899866,0.0,0.029774073511362076,0.8254942893981934,0.0,0.017083564773201942,0.8054674863815308,0.0008763110381551087,-0.10452251136302948
302.0,300.0,-0.9529,0.5593,9.9476,-0.0273,-0.1054,-0.1155,-1.8158780537047328,-0.1511257290840149,2.690173864364624,-1.8265081644058228,0.0038767987862229347,1.9798352718353271,5.162358867913046,-9.883413440547884e-05,0.27939704060554504,-1.5966861883746546,0.0,0.03597131744027138,0.8255544304847717,0.0,0.008987403474748135,0.8054476380348206,0.0004121760721318424,-0.05604293942451477
302.0,300.0,-0.9529,0.5593,9.9476,-0.0273,-0.1054,-0.1155,-1.8167873821654261,-0.1411149501800537,2.7295565605163574,-1.8264845609664917,0.008207008242607117,2.045591115951538,5.162358867913046,-8.94820459507173e-06,0.27299970388412476,-1.5966499487506312,0.0,0.033631645143032074,0.8255142569541931,0.0,0.01974570006132126,0.8054596781730652,0.00029991797055117786,-0.1070910394191742
302.0,300.0,-0.9529,0.5593,9.9476,-0.0273,-0.1054,-0.1155,-1.817925592462057,-0.12157590687274933,2.7994236946105957,-1.8263602256774902,0.012589026242494583,1.9875149726867676,5.162431406765737,-1.6262920177201323e-10,0.2756018042564392,-1.5966656843768519,1.5013701215593755e-07,0.018242426216602325,0.8255221247673035,0.0,0.02117854356765747,0.8055120706558228,0.00014662333705928177,-0.05952257663011551
302.0,300.0,-0.9529,0.5593,9.9476,-0.0273,-0.1054,-0.1155,-1.8187066517271937,-0.12144958972930908,2.8035526275634766,-1.8263685703277588,0.00881893839687109,2.0306589603424072,5.162375259190359,-4.526843919790309e-14,0.2852688431739807,-1.5966618696795862,4.1791195504181644e-11,0.022291338071227074,0.8255261778831482,0.0,0.012589022517204285,0.8054956793785095,0.0010148988803848624,-0.0800454244017601
302.0,300.0,-0.9529,0.5593,9.9476,-0.0273,-0.1054,-0.1155,-1.819735666314596,-0.13461428880691528,2.757430076599121,-1.8263280391693115,0.0015380845870822668,1.973809003829956,5.162355202227392,-0.0017922130646184087,0.2792055010795593,-1.5967019240008753,7.595342320446943e-16,0.01630784198641777,0.8255261778831482,0.0,0.020615382120013237,0.8054956793785095,0.0020082087721675634,-0.04711327701807022
302.0,300.0,-0.9529,0.5593,9.9476,-0.0273,-0.1054,-0.1155,-1.8205529652037562,-0.14714376628398895,2.780029296875,-1.8263399600982666,-0.0005169096984900534,1.973586082458496,5.162322866707601,-0.0015405172016471624,0.2713426947593689,-1.5966575781451624,2.1141914446121663e-19,0.00770388450473547,0.8255302906036377,0.0,0.01542341336607933,0.8054592609405518,0.0017699311720207334,-0.06796325743198395
307.0,329.0,-0.874,0.7807,10.6558,-0.0183,-0.0854,-0.1133,-1.8212810955443324,-0.15244382619857788,2.769723415374756,-1.8263081312179565,-2.3424033770425012e-06,1.9207282066345215,5.162379401713171,-0.0006361310370266438,0.28082025051116943,-1.5966499487506312,5.884929489763888e-23,0.03541677072644234,0.8255183696746826,0.0,0.023690853267908096,0.805442750453949,0.001109879114665091,-0.022119082510471344
307.0,329.0,-0.874,0.7807,10.6558,-0.0183,-0.0854,-0.1133,-1.8223754368224085,-0.12924405932426453,2.7386159896850586,-1.8262648582458496,0.008895556442439556,2.009567975997925,5.162347036391058,-5.679229957422649e-07,0.2850947380065918,-1.5966618696795862,1.0695567205236961e-27,0.025295358151197433,0.8255142569541931,0.0,0.0060533261857926846,0.8054874539375305,0.0006863491726107895,-0.05735444650053978
307.0,329.0,-0.874,0.7807,10.6558,-0.0183,-0.0854,-0.1133,-1.823092599908346,-0.10931722819805145,2.8219194412231445,-1.826196312904358,0.015775643289089203,2.0213422775268555,5.162367093354025,-1.5808340747547334e-10,0.2765815854072571,-1.5966656843768519,2.977150797341721e-31,0.01991282030940056,0.8255344033241272,0.0,0.013688712380826473,0.8055602312088013,0.0005336740869097412,-0.07540757209062576
307.0,329.0,-0.874,0.7807,10.6558,-0.0183,-0.0854,-0.1133,-1.824130197564596,-0.103922039270401,2.818016529083252,-1.8260565996170044,0.016465334221720695,1.9852821826934814,5.162283110409536,3.9018996176309884e-05,0.28151771426200867,-1.5966780821429651,-3.531137190293521e-05,0.02225489169359207,0.8254820704460144,0.0,0.02266797050833702,0.8055561184883118,0.0004078089550603181,-0.08022322505712509
307.0,329.0,-0.874,0.7807,10.6558,-0.0183,-0.0854,-0.1133,-1.8247386417784632,-0.1131710559129715,2.858971118927002,-1.8259892463684082,0.011682853102684021,2.02242374420166,5.162347453623571,1.0861080035340365e-08,0.2978563606739044,-1.5966818968402308,-3.174151788698509e-05,0.02831173688173294,0.8255782723426819,0.0,0.01464490033686161,0.8055193424224854,0.0011997626861557364,-0.08163151144981384
307.0,329.0,-0.874,0.7807,10.6558,-0.0183,-0.0854,-0.1133,-1.8256479702391566,-0.12452193349599838,2.7966926097869873,-1.8258483409881592,0.007667086087167263,1.9534871578216553,5.162303405791082,-0.0009748634765855968,0.2747744917869568,-1.5966900030719202,-1.6740397512648997e-08,0.023604681715369225,0.8255341053009033,0.0,0.015699492767453194,0.8055234551429749,0.0011973081855103374,-0.0912758931517601
307.0,329.0,-0.874,0.7807,10.6558,-0.0183,-0.0854,-0.1133,-1.82631315807485,-0.12565121054649353,2.7984564304351807,-1.825780987739563,0.010341000743210316,1.9740612506866455,5.162303405791082,-0.0005290324334055185,0.2759775221347809,-1.5966575781451624,-4.659751751123764e-12,0.013278492726385593,0.8255340456962585,0.0,0.03263117000460625,0.8054995536804199,0.0007048475672490895,-0.02299439162015915
307.0,329.0,-0.874,0.7807,10.6558,-0.0183,-0.0854,-0.1133,-1.827141901055807,-0.10440605133771896,2.8399882316589355,-1.825649380683899,0.019904814660549164,1.9687283039093018,5.162331062346258,-2.1831621779710986e-05,0.2805284857749939,-1.5967019240008753,-8.46886834070899e-17,0.028927652165293694,0.8255939483642578,0.0,0.026069311425089836,0.8055155277252197,0.00034646427957341075,-0.11513713002204895
307.0,329.0,-0.874,0.7807,10.6558,-0.0183,-0.0854,-0.1133,-1.8277751408019007,-0.0891830250620842,2.8245627880096436,-1.8255292177200317,0.027674192562699318,2.0495505332946777,5.1623510895069025,0.00014262883632909507,0.2800314426422119,-1.5966861883746546,-2.3573408302429593e-20,0.01609644666314125,0.8255782723426819,0.0,0.018834326416254044,0.8055155277252197,0.00026882122620008886,-0.05761498957872391
307.0,329.0,-0.874,0.7807,10.6558,-0.0183,-0.0854,-0.1133,-1.8283316097655238,-0.0862516239285469,2.8133230209350586,-1.825390338897705,0.03357589989900589,2.035243511199951,5.1623554704482935,1.5494782928726636e-05,0.2784624397754669,-1.5966694990741175,-6.561744220767471e-24,0.02382851578295231,0.8255620002746582,0.0,0.02317751757800579,0.8054912090301514,0.00013090731226839125,-0.09153708815574646
307.0,329.0,-0.874,0.7807,10.6558,-0.0183,-0.0854,-0.1133,-1.8290769062437953,-0.09470082074403763,2.8601255416870117,-1.8251229524612427,0.03780413046479225,2.032186269760132,5.162307518511572,2.8161004084203967e-10,0.28633713722229004,-1.5966742674456995,-1.1925644697724992e-28,0.013837223872542381,0.825566291809082,0.0,0.003719673492014408,0.8055598735809326,0.0008909354219213128,-0.07177365571260452
307.0,329.0,-0.874,0.7807,10.6558,-0.0183,-0.0854,-0.1133,-1.8296414814391078,-0.09987065941095352,2.8683061599731445,-1.8248547315597534,0.039668742567300797,2.012556791305542,5.162267374783315,-0.0011444714618846774,0.2853236794471741,-1.596649471913473,-3.319546969832993e-32,0.010846366174519062,0.8255823254585266,0.0,0.013517811894416809,0.8055516481399536,0.001113150268793106,-0.09333803504705429
307.0,329.0,-0.874,0.7807,10.6558,-0.0183,-0.0854,-0.1133,-1.8303944073119105,-0.09922299534082413,2.8190665245056152,-1.8244422674179077,0.04674753174185753,2.052443027496338,5.162319826870718,-0.001860770513303578,0.27678418159484863,-1.5966499487506312,-6.033113189816855e-37,0.01710721291601658,0.825538158416748,0.0,0.027903925627470016,0.8055598735809326,0.0008004266419447958,-0.06856349110603333
305.0,360.0,-0.2788,0.9631,11.0357,-0.0348,-0.0411,-0.1213,-1.8308869800963343,-0.09289798140525818,2.8513877391815186,-1.8241428136825562,0.058146435767412186,2.0956735610961914,5.162275153189459,-0.0010740881552919745,0.28039759397506714,-1.5966818968402308,-1.6793441056161473e-40,0.028376389294862747,0.8255343437194824,0.0,0.01165992021560669,0.8055595755577087,0.000579552783165127,0.002348393201828003
305.0,360.0,-0.2788,0.9631,11.0357,-0.0348,-0.0411,-0.1213,-1.8316203556456507,-0.08188119530677795,2.8503122329711914,-1.8236567974090576,0.0728020891547203,2.093477487564087,5.162267404585638,-0.000610783405136317,0.2736384868621826,-1.5966456572162073,-2.802596928649634e-45,0.019116410985589027,0.8255062103271484,0.0,0.014465440064668655,0.8055801391601562,0.0004631888004951179,-0.0121023403480649
305.0,360.0,-0.2788,0.9631,11.0357,-0.0348,-0.0411,-0.1213,-1.8321010075011195,-0.07788696885108948,2.7832446098327637,-1.8231170177459717,0.08399186283349991,2.0893468856811523,5.162271517306127,-0.0005399731453508139,0.2797392010688782,-1.5966742674456995,-0.0,0.015149165876209736,0.8255302906036377,0.0,0.019839942455291748,0.8055356740951538,0.0003133570426143706,-0.07072929292917252
305.0,360.0,-0.2788,0.9631,11.0357,-0.0348,-0.0411,-0.1213,-1.8325940571227015,-0.07756075263023376,2.8272275924682617,-1.8226144313812256,0.09067476540803909,2.1238644123077393,5.162279742747106,-0.00036475592060014606,0.27922770380973816,-1.5966900030719202,-0.0,0.016809560358524323,0.8254418969154358,0.0,0.02367382124066353,0.8055393099784851,0.00041505720582790673,-0.05300123989582062
