ramyac6/ROB537/final_project/csv/all/good_32.csv
tof_0,tof_1,accelx,accely,accelz,gyrox,gyroy,gyroz,shoulder_lift_joint_position,shoulder_lift_joint_velocity,shoulder_lift_joint_effort,elbow_joint_position,elbow_joint_velocity,elbow_joint_effort,wrist_1_joint_position,wrist_1_joint_velocity,wrist_1_joint_effort,wrist_2_joint_position,wrist_2_joint_velocity,wrist_2_joint_effort,wrist_3_joint_position,wrist_3_joint_velocity,wrist_3_joint_effort,shoulder_pan_joint_position,shoulder_pan_joint_velocity,shoulder_pan_joint_effort
518.0,702.0,-1.3771,-0.32,9.6245,-0.0318,0.027,-0.1132,-2.045372625390524,0.0,3.863313674926758,-1.6371088027954102,-0.0,1.8937256336212158,5.339557814389028,0.0,0.23420457541942596,-1.5593746344195765,0.0,0.021503981202840805,0.5217222571372986,-0.0,0.00487638870254159,1.1336841583251953,0.0,0.03236594423651695
518.0,702.0,-1.3771,-0.32,9.6245,-0.0318,0.027,-0.1132,-2.045340677300924,0.0,3.863409996032715,-1.6371129751205444,-0.0,1.8649756908416748,5.3395941136176965,0.0,0.23437362909317017,-1.559326473866598,0.0,0.018503108993172646,0.5217262506484985,-0.0,0.004867341835051775,1.1337002515792847,0.0,-0.011651857756078243
518.0,702.0,-1.3771,-0.32,9.6245,-0.0318,0.027,-0.1132,-2.0453931293883265,0.0,3.902273178100586,-1.6371285915374756,-0.0,1.8813202381134033,5.339598166733541,0.0,0.2343379259109497,-1.5593746344195765,0.0,0.019529808312654495,0.5217822790145874,-0.0,0.003639716189354658,1.1336760520935059,0.0,0.022472966462373734
518.0,702.0,-1.3771,-0.32,9.6245,-0.0318,0.027,-0.1132,-2.045328756371969,0.0,3.836824655532837,-1.6370923519134521,-0.0,1.8746147155761719,5.339553582459249,0.0,0.242920383810997,-1.5593541304217737,0.0,0.026867255568504333,0.521710216999054,-0.0,0.008313331753015518,1.1336722373962402,0.0,0.002264908514916897
518.0,702.0,-1.3771,-0.32,9.6245,-0.0318,0.027,-0.1132,-2.0453645191588343,0.0,3.8465805053710938,-1.6371326446533203,-0.0,1.9006991386413574,5.339534210949697,0.0,0.2348712682723999,-1.5593422094928187,0.0,0.03223481401801109,0.5217742323875427,-0.0,0.016909586265683174,1.1336722373962402,0.0,0.0043357135728001595
518.0,702.0,-1.3771,-0.32,9.6245,-0.0318,0.027,-0.1132,-2.045344968835348,0.0,3.8708863258361816,-1.637096881866455,-0.0,1.9183281660079956,5.3395941136176965,0.0,0.22655001282691956,-1.5593660513507288,0.0,0.01707657054066658,0.5217660069465637,-0.0,0.01262193825095892,1.1336801052093506,0.0,0.01099454052746296
518.0,702.0,-1.3771,-0.32,9.6245,-0.0318,0.027,-0.1132,-2.045384546319479,0.0,3.8616366386413574,-1.637096643447876,-0.0,1.8995552062988281,5.339590060501852,0.0,0.23494192957878113,-1.5593703428851526,0.0,0.028104819357395172,0.5217742323875427,-0.0,0.005680501461029053,1.1337001323699951,0.0,-0.0008723684586584568
521.0,700.0,-1.4913,-0.3517,9.9087,-0.0348,0.0263,-0.1211,-2.0453525982298792,0.0,3.813891649246216,-1.637136697769165,-0.0,1.9079567193984985,5.33963834026412,0.0,0.24146991968154907,-1.559350315724508,0.0,0.01154275331646204,0.521765947341919,-0.0,-0.004114941693842411,1.1336841583251953,0.0,0.008281848393380642
521.0,700.0,-1.4913,-0.3517,9.9087,-0.0348,0.0263,-0.1211,-2.0453888378539027,0.0,3.8485496044158936,-1.6371285915374756,-0.0,1.8682332038879395,5.339574086457052,0.0,0.24601370096206665,-1.559389893208639,0.0,0.019760236144065857,0.5217540264129639,-0.0,-0.003245254745706916,1.1336801052093506,0.0,0.06087934225797653
521.0,700.0,-1.4913,-0.3517,9.9087,-0.0348,0.0263,-0.1211,-2.0453812084593714,0.0,3.853682041168213,-1.6371047496795654,-0.0,1.9253655672073364,5.339578139572897,0.0,0.2533406913280487,-1.5593741575824183,0.0,0.017299432307481766,0.5217940807342529,-0.0,0.006762521341443062,1.13368821144104,0.0,-0.003404137445613742
521.0,700.0,-1.4913,-0.3517,9.9087,-0.0348,0.0263,-0.1211,-2.0453931293883265,0.0,3.8444700241088867,-1.6371486186981201,-0.0,1.902064323425293,5.339618193894186,0.0,0.24196237325668335,-1.5593903700457972,0.0,0.016381431370973587,0.5217060446739197,-0.0,0.0033994712866842747,1.1336760520935059,0.0,0.007938493974506855
521.0,700.0,-1.4913,-0.3517,9.9087,-0.0348,0.0263,-0.1211,-2.0454050503172816,0.0,3.9093337059020996,-1.6371244192123413,-0.0,1.8728699684143066,5.339650141983785,0.0,0.24468564987182617,-1.5593627134906214,0.0,0.01756446063518524,0.5217781066894531,-0.0,0.0025226667057722807,1.133648157119751,0.0,0.0019144676625728607
521.0,700.0,-1.4913,-0.3517,9.9087,-0.0348,0.0263,-0.1211,-2.045372625390524,0.0,3.8537936210632324,-1.6371285915374756,-0.0,1.84868323802948,5.339602219849386,0.0,0.22837382555007935,-1.5593660513507288,0.0,0.02136480249464512,0.5217540264129639,-0.0,0.009123271331191063,1.1336641311645508,0.0,-0.023045502603054047
521.0,700.0,-1.4913,-0.3517,9.9087,-0.0348,0.0263,-0.1211,-2.0453649959959925,0.0,3.8946146965026855,-1.637161135673523,-0.0,1.901535153388977,5.339578139572897,0.0,0.23911693692207336,-1.5593984762774866,0.0,0.018788199871778488,0.5217540264129639,-0.0,0.013660488650202751,1.1336641311645508,0.0,0.03217390552163124
521.0,700.0,-1.4913,-0.3517,9.9087,-0.0348,0.0263,-0.1211,-2.0453525982298792,0.0,3.8695766925811768,-1.6371403932571411,-0.0,1.9046964645385742,5.33960239866332,0.0,0.23773494362831116,-1.559350315724508,0.0,0.021244823932647705,0.5217702388763428,-0.0,0.009810015559196472,1.1336562633514404,0.0,0.04337437450885773
521.0,700.0,-1.4913,-0.3517,9.9087,-0.0348,0.0263,-0.1211,-2.0453692875304164,0.0,3.904109239578247,-1.6371005773544312,-0.0,1.882230281829834,5.339590060501852,0.0,0.2471579909324646,-1.5593746344195765,0.0,0.01842362806200981,0.521761953830719,-0.0,0.0012909804936498404,1.1336681842803955,0.0,-0.009438641369342804
521.0,700.0,-1.4913,-0.3517,9.9087,-0.0348,0.0263,-0.1211,-2.0453769169249476,0.0,3.8477630615234375,-1.6371166706085205,-0.0,1.8604114055633545,5.339626121311941,0.0,0.24584725499153137,-1.559406582509176,0.0,0.004620351828634739,0.5217421054840088,-0.0,0.008450944907963276,1.1336439847946167,0.0,-0.01777300238609314
521.0,700.0,-1.4913,-0.3517,9.9087,-0.0348,0.0263,-0.1211,-2.045372625390524,0.0,3.8753795623779297,-1.6371327638626099,-0.0,1.9042816162109375,5.339606034546652,0.0,0.2540026307106018,-1.5593541304217737,0.0,0.02516939491033554,0.5217580199241638,-0.0,-0.004278995096683502,1.1336522102355957,0.0,-0.03213537856936455
521.0,700.0,-1.4913,-0.3517,9.9087,-0.0348,0.0263,-0.1211,-2.045344968835348,0.0,3.8661985397338867,-1.63712477684021,-0.0,1.907194972038269,5.3395821926887415,0.0,0.2396235167980194,-1.5593703428851526,0.0,0.020074402913451195,0.5217342376708984,-0.0,0.004639741498976946,1.1336801052093506,0.0,-0.0014874739572405815
521.0,700.0,-1.4913,-0.3517,9.9087,-0.0348,0.0263,-0.1211,-2.0453607044615687,0.0,3.8470585346221924,-1.6371526718139648,-0.0,1.8775780200958252,5.339610087662496,0.0,0.25107717514038086,-1.5593422094928187,0.0,0.018860705196857452,0.5217182040214539,-0.0,-0.005264305975288153,1.1336522102355957,0.0,0.01958037167787552
534.0,697.0,-1.3466,-0.2794,9.5827,-0.0325,0.0174,-0.1107,-2.045344968835348,1.339402277977797e-08,3.8589344024658203,-1.637088656425476,-0.0,1.870760202407837,5.339614140778341,0.0,0.23384320735931396,-1.5593541304217737,0.0,0.015373576432466507,0.5217059850692749,-0.0,0.014636312611401081,1.1336841583251953,0.0,0.01631171815097332
534.0,697.0,-1.3466,-0.2794,9.5827,-0.0325,0.0174,-0.1107,-2.0453692875304164,4.339493254989222e-16,3.885624408721924,-1.6371407508850098,-0.0,1.9367890357971191,5.3396461484725855,0.0,0.24698856472969055,-1.5593579451190394,0.0,0.020085588097572327,0.5217901468276978,-0.0,0.008399954997003078,1.1336801052093506,0.0,0.006086349952965975
534.0,697.0,-1.3466,-0.2794,9.5827,-0.0325,0.0174,-0.1107,-2.045340677300924,1.047936659960426e-21,3.8451366424560547,-1.6371289491653442,-0.0,1.8873414993286133,5.339626061707296,2.6076296677501887e-08,0.24625155329704285,-1.5594108740436,0.0,0.015052041038870811,0.5217381119728088,-0.0,0.005242182873189449,1.1336358785629272,0.0,-0.006948485039174557
534.0,697.0,-1.3466,-0.2794,9.5827,-0.0325,0.0174,-0.1107,-2.0453530750670375,3.3951815748020475e-29,3.8594980239868164,-1.6371285915374756,-0.0,1.8853795528411865,5.339642035752096,4.739237973415411e-13,0.24525094032287598,-1.5593984762774866,0.0,0.021528223529458046,0.5217261910438538,-0.0,0.004700041376054287,1.1337124109268188,0.0,-0.04870370030403137
534.0,697.0,-1.3466,-0.2794,9.5827,-0.0325,0.0174,-0.1107,-2.045373102227682,8.198963468361917e-35,3.81472110748291,-1.6371486186981201,-0.0,1.8499817848205566,5.339614140778341,1.3191843321771183e-16,0.2546791434288025,-1.5593865553485315,0.0,0.021371938288211823,0.521757960319519,-0.0,0.0010208359453827143,1.1336439847946167,0.0,0.020464632660150528
534.0,697.0,-1.3466,-0.2794,9.5827,-0.0325,0.0174,-0.1107,-2.0453649959959925,2.6568618883598532e-42,3.84566593170166,-1.6371047496795654,-0.0,1.8640024662017822,5.339606034546652,2.397552107381015e-21,0.24468648433685303,-1.5593703428851526,0.0,0.012768035754561424,0.5217980742454529,-0.0,-0.003521772800013423,1.1337002515792847,0.0,0.05453486740589142
534.0,697.0,-1.3466,-0.2794,9.5827,-0.0325,0.0174,-0.1107,-2.0453692875304164,0.0,3.882789134979248,-1.6371407508850098,-0.0,1.8812092542648315,5.339610087662496,6.6736745113179225e-25,0.24087323248386383,-1.5593779722796839,0.0,0.010518187656998634,0.5217262506484985,-0.0,-0.002770249266177416,1.1336960792541504,0.0,0.00991557352244854
534.0,697.0,-1.3466,-0.2794,9.5827,-0.0325,0.0174,-0.1107,-2.0453368626036585,0.0,3.8392319679260254,-1.6371526718139648,-0.0,1.8918356895446777,5.339585947781362,1.2129071950880555e-29,0.2435300499200821,-1.5593622366534632,0.0,0.005594752263277769,0.521761953830719,-0.0,0.005926813930273056,1.1336562633514404,0.0,0.007449432276189327
534.0,697.0,-1.3466,-0.2794,9.5827,-0.0325,0.0174,-0.1107,-2.0453888378539027,0.0,3.843998908996582,-1.6371326446533203,-0.0,1.9499385356903076,5.339630114823141,3.376171487801263e-33,0.24428631365299225,-1.5593941847430628,0.0,0.014482352882623672,0.5216941237449646,-0.0,0.011953452602028847,1.1336116790771484,0.0,-0.007422982715070248
534.0,697.0,-1.3466,-0.2794,9.5827,-0.0325,0.0174,-0.1107,-2.0453692875304164,0.0,3.8717808723449707,-1.637161135673523,-0.0,1.8775681257247925,5.339618193894186,6.13602533376401e-38,0.23416756093502045,-1.5593541304217737,0.0,0.01110827922821045,0.521761953830719,-0.0,0.014931237325072289,1.1337083578109741,0.0,0.01435688603669405
534.0,697.0,-1.3466,-0.2794,9.5827,-0.0325,0.0174,-0.1107,-2.045372625390524,0.0,3.860436201095581,-1.6371486186981201,-0.0,1.8614275455474854,5.339606034546652,1.7080426981655195e-41,0.24192002415657043,-1.5593660513507288,0.0,0.008465459570288658,0.5217262506484985,-0.0,0.0002381393569521606,1.1336641311645508,0.0,-0.018864985555410385
534.0,697.0,-1.3466,-0.2794,9.5827,-0.0325,0.0174,-0.1107,-2.045333047906393,0.0,3.8425445556640625,-1.637136697769165,-0.0,1.8828177452087402,5.339618193894186,0.0,0.2524012327194214,-1.5593984762774866,0.0,0.019433744251728058,0.5217861533164978,-0.0,0.005609963089227676,1.1336718797683716,0.0,0.018598224967718124
534.0,697.0,-1.3466,-0.2794,9.5827,-0.0325,0.0174,-0.1107,-2.045340677300924,0.0,3.866792678833008,-1.6371088027954102,-0.0,1.8265540599822998,5.3395577547843835,0.0,0.2363070845603943,-1.5593584219561976,0.0,0.0024383594281971455,0.5217381715774536,-0.0,0.0017673266120254993,1.1336722373962402,0.0,0.026929005980491638
546.0,698.0,-1.4297,-0.2536,9.4594,-0.0307,0.0287,-0.118,-2.045401235620016,0.0,3.8572726249694824,-1.6371407508850098,-0.0,1.862886905670166,5.3396339295204065,0.0,0.2610894739627838,-1.5593703428851526,0.0,0.032168030738830566,0.5217301249504089,-0.0,0.004815689753741026,1.1336641311645508,0.0,-0.005403995513916016
546.0,698.0,-1.4297,-0.2536,9.4594,-0.0307,0.0287,-0.118,-2.0453812084593714,0.0,3.860398292541504,-1.6371009349822998,-0.0,1.8653759956359863,5.339618193894186,0.0,0.24796609580516815,-1.5593465010272425,0.0,0.02434137836098671,0.5217341184616089,-0.0,0.0042296163737773895,1.133648157119751,0.0,0.003121481742709875
546.0,698.0,-1.4297,-0.2536,9.4594,-0.0307,0.0287,-0.118,-2.0453530750670375,0.0,3.835536003112793,-1.6371445655822754,-0.0,1.8651928901672363,5.339606034546652,0.0,0.2371591329574585,-1.5593541304217737,0.0,0.014513448812067509,0.5217381715774536,-0.0,-0.006231531035155058,1.1337043046951294,0.0,0.030693810433149338
546.0,698.0,-1.4297,-0.2536,9.4594,-0.0307,0.0287,-0.118,-2.0453812084593714,0.0,3.836064338684082,-1.6371166706085205,-0.0,1.8888509273529053,5.3395941136176965,0.0,0.2580980360507965,-1.5593703428851526,0.0,0.015907172113656998,0.5217021107673645,-0.0,0.01764712855219841,1.1336439847946167,0.0,-0.0036363089457154274
546.0,698.0,-1.4297,-0.2536,9.4594,-0.0307,0.0287,-0.118,-2.0453649959959925,0.0,3.8762259483337402,-1.637136697769165,-0.0,1.9011214971542358,5.339602219849386,0.0,0.25406041741371155,-1.5593584219561976,0.0,0.013447405770421028,0.5217781662940979,-0.0,0.0011670136591419578,1.133639931678772,0.0,-0.0228426456451416
546.0,698.0,-1.4297,-0.2536,9.4594,-0.0307,0.0287,-0.118,-2.045372625390524,0.0,3.827939987182617,-1.637116551399231,-0.0,1.8871665000915527,5.339617955475607,0.0,0.24102547764778137,-1.559350315724508,0.0,0.017512468621134758,0.5217060446739197,-0.0,0.00892192218452692,1.1336441040039062,0.0,0.010099237784743309
546.0,698.0,-1.4297,-0.2536,9.4594,-0.0307,0.0287,-0.118,-2.045344968835348,0.0,3.8567914962768555,-1.6371651887893677,-0.0,1.9001049995422363,5.339581835060873,0.0,0.2472946047782898,-1.559338394795553,0.0,0.011145826429128647,0.521774172782898,-0.0,0.003349333070218563,1.1336920261383057,0.0,0.02100786194205284
546.0,698.0,-1.4297,-0.2536,9.4594,-0.0307,0.0287,-0.118,-2.045344968835348,0.0,3.851935863494873,-1.6371692419052124,-0.0,1.8882193565368652,5.339606034546652,0.0,0.24139845371246338,-1.559338394795553,0.0,0.008830178529024124,0.5216980576515198,-0.0,0.009287247434258461,1.1336759328842163,0.0,0.006523226387798786
546.0,698.0,-1.4297,-0.2536,9.4594,-0.0307,0.0287,-0.118,-2.0453692875304164,0.0,3.8682284355163574,-1.6371126174926758,-0.0,1.8348262310028076,5.339622008591451,0.0,0.2552742063999176,-1.5593097845660608,0.0,0.017688259482383728,0.5217222571372986,-0.0,-0.0005034345667809248,1.1336920261383057,0.0,-0.009666714817285538
546.0,698.0,-1.4297,-0.2536,9.4594,-0.0307,0.0287,-0.118,-2.045373102227682,0.0,3.840956926345825,-1.6371326446533203,-0.0,1.9041811227798462,5.3395941136176965,0.0,0.24873971939086914,-1.5593703428851526,0.0,0.012064861133694649,0.5217100381851196,-0.0,-0.009889565408229828,1.1336841583251953,0.0,0.031031668186187744
546.0,698.0,-1.4297,-0.2536,9.4594,-0.0307,0.0287,-0.118,-2.0453692875304164,0.0,3.8725576400756836,-1.6370924711227417,-0.0,1.843148946762085,5.339630174427786,0.0,0.24187710881233215,-1.559382740651266,0.0,0.0018529010703787208,0.5216861963272095,-0.0,0.002473272383213043,1.1336923837661743,0.0,0.00627351738512516
546.0,698.0,-1.4297,-0.2536,9.4594,-0.0307,0.0287,-0.118,-2.045373102227682,0.0,3.8405566215515137,-1.6371445655822754,-0.0,1.8692946434020996,5.33967404344634,0.0,0.24852237105369568,-1.5593660513507288,0.0,0.02074434421956539,0.5217342376708984,-0.0,0.0014179490972310305,1.1336641311645508,0.0,0.004104673862457275
535.0,693.0,-1.2921,-0.2776,9.6102,-0.036,0.0224,-0.1168,-2.0453649959959925,0.0,3.8673348426818848,-1.6371489763259888,-0.0,1.887622594833374,5.339613902359762,0.0,0.24830888211727142,-1.5593584219561976,0.0,0.016481993719935417,0.521765947341919,-0.0,0.0037782653234899044,1.133660078048706,0.0,0.011996782384812832
535.0,693.0,-1.2921,-0.2776,9.6102,-0.036,0.0224,-0.1168,-2.0453649959959925,0.0,3.8380022048950195,-1.6371166706085205,-0.0,1.8850634098052979,5.339585947781362,0.0,0.24439086019992828,-1.5594146887408655,0.0,0.01712018996477127,0.5217219591140747,-0.0,-0.0009409049525856972,1.1336559057235718,0.0,-0.022589024156332016
535.0,693.0,-1.2921,-0.2776,9.6102,-0.036,0.0224,-0.1168,-2.0453812084593714,0.0,3.817709445953369,-1.6371407508850098,-0.0,1.8933134078979492,5.339622008591451,0.0,0.23909132182598114,-1.5593779722796839,0.0,0.011839017271995544,0.5217342376708984,-0.0,-0.008215878158807755,1.1336801052093506,0.0,-0.03089236468076706
535.0,693.0,-1.2921,-0.2776,9.6102,-0.036,0.0224,-0.1168,-2.045373102227682,0.0,3.879672050476074,-1.6371527910232544,-0.0,1.8656184673309326,5.339602219849386,0.0,0.23453837633132935,-1.5593660513507288,0.0,0.014829590916633606,0.5217421054840088,-0.0,0.009638655930757523,1.1336883306503296,0.0,-0.014220701530575752
535.0,693.0,-1.2921,-0.2776,9.6102,-0.036,0.0224,-0.1168,-2.0453812084593714,0.0,3.8492579460144043,-1.637080430984497,2.5946775394913857e-07,1.903761625289917,5.3395739672477625,0.0,0.23921561241149902,-1.5594428221331995,0.0,0.021767310798168182,0.5217100381851196,-0.0,0.008830626495182514,1.1336641311645508,0.0,0.02631700225174427
535.0,693.0,-1.2921,-0.2776,9.6102,-0.036,0.0224,-0.1168,-2.0453530750670375,0.0,3.8663687705993652,-1.6371407508850098,6.265841795069504e-13,1.871028184890747,5.339590000897207,0.0,0.2559207081794739,-1.5594146887408655,0.0,0.016338927671313286,0.5217262506484985,-0.0,0.0030137235298752785,1.1337201595306396,0.0,-0.06872791796922684
535.0,693.0,-1.2921,-0.2776,9.6102,-0.036,0.0224,-0.1168,-2.045373102227682,0.0,3.8588809967041016,-1.6371047496795654,1.5131271665478326e-18,1.8551666736602783,5.339598166733541,0.0,0.24915122985839844,-1.5594466368304651,0.0,0.02057025581598282,0.5217139720916748,-0.0,-0.007006739731878042,1.1337201595306396,0.0,-0.04328128322958946
535.0,693.0,-1.2921,-0.2776,9.6102,-0.036,0.0224,-0.1168,-2.0453769169249476,4.342581689797953e-07,3.8531057834625244,-1.6371734142303467,4.902340042087419e-26,1.8954463005065918,5.3395821926887415,0.0,0.2543752193450928,-1.5593817869769495,0.0,0.024234283715486526,0.5216941833496094,-0.0,-0.0011269324459135532,1.13372802734375,0.0,0.022948212921619415
535.0,693.0,-1.2921,-0.2776,9.6102,-0.036,0.0224,-0.1168,-2.0454169712462367,1.048682299852055e-12,3.8679912090301514,-1.637096881866455,1.1838575229306478e-31,1.882286548614502,5.339610087662496,0.0,0.24606603384017944,-1.559389893208639,-8.188142237486318e-05,0.014051949605345726,0.5217301845550537,-0.0,0.00010095382458530366,1.1337357759475708,0.0005493617500178516,-0.011649717576801777
535.0,693.0,-1.2921,-0.2776,9.6102,-0.036,0.0224,-0.1168,-2.0453525982298792,3.3975971909172515e-20,3.850656747817993,-1.6371326446533203,3.835547276045101e-39,1.9098474979400635,5.339610087662496,0.0,0.24558518826961517,-1.559422794972555,-9.170394332613796e-05,0.02143353968858719,0.5217540264129639,-0.0,0.00864319782704115,1.1337521076202393,0.001659352332353592,0.03717922046780586
535.0,693.0,-1.2921,-0.2776,9.6102,-0.036,0.0224,-0.1168,-2.0453607044615687,8.20479867786709e-26,3.841132402420044,-1.6371408700942993,9.80908925027372e-45,1.9106497764587402,5.339634287148275,0.0,0.25773417949676514,-1.5594547430621546,-8.727410749997944e-05,0.018445922061800957,0.5217061042785645,-0.0,0.013582572340965271,1.1337922811508179,0.0022716110106557608,0.022082440555095673
535.0,693.0,-1.2921,-0.2776,9.6102,-0.036,0.0224,-0.1168,-2.0453888378539027,2.6582506189930358e-33,3.9115917682647705,-1.6371407508850098,-0.0,1.8624727725982666,5.339586245804586,0.0,0.23696142435073853,-1.5594103972064417,-8.197471470339224e-05,0.02547048032283783,0.521766185760498,-0.0,-0.001137981191277504,1.1338204145431519,0.0023083502892404795,0.02577122673392296
535.0,693.0,-1.2921,-0.2776,9.6102,-0.036,0.0224,-0.1168,-2.0453325710692347,6.41936227805663e-39,3.8540797233581543,-1.6371368169784546,-0.0,1.8447331190109253,5.33961050489501,0.0,0.250568687915802,-1.5594022909747522,-7.840398757252842e-05,0.02292138710618019,0.5217301845550537,-0.0,0.011340545490384102,1.1337552070617676,0.0016346977790817618,0.0025852383114397526
515.0,694.0,-1.4746,-0.079,9.5151,-0.0293,0.0252,-0.1167,-2.0453931293883265,0.0,3.854727029800415,-1.6371207237243652,-0.0,1.8799469470977783,5.33963422754363,0.0,0.2404884397983551,-1.5594146887408655,-7.410046964650974e-05,0.021305829286575317,0.521746039390564,-0.0,0.002226076554507017,1.1337918043136597,0.0009669116116128862,0.01985851861536503
515.0,694.0,-1.4746,-0.079,9.5151,-0.0293,0.0252,-0.1167,-2.0453487835326136,0.0,3.862877368927002,-1.6370885372161865,-0.0,1.8918043375015259,5.339553940087118,3.503257772763391e-08,0.2478998899459839,-1.559406582509176,-7.117060158634558e-05,0.028045881539583206,0.5217262506484985,-0.0,-0.0016279472038149834,1.1337599754333496,0.0006298795924521983,-0.016133395954966545
515.0,694.0,-1.4746,-0.079,9.5151,-0.0293,0.0252,-0.1167,-2.0453931293883265,0.0,3.8486580848693848,-1.6371889114379883,-0.0,1.8906371593475342,5.339578139572897,6.366997857762402e-13,0.24826210737228394,-1.559422794972555,-6.760648830095306e-05,0.017703577876091003,0.5217061638832092,-0.0,-0.009526539593935013,1.1337840557098389,0.00042942565050907433,0.022708779200911522
515.0,694.0,-1.4746,-0.079,9.5151,-0.0293,0.0252,-0.1167,-2.0453931293883265,0.0,3.8488826751708984,-1.6371088027954102,-0.0,1.9039888381958008,5.3395821926887415,1.7722772110889185e-16,0.2342539131641388,-1.5593822638141077,-6.515913992188871e-05,0.022058576345443726,0.5217223167419434,-0.0,-0.005570697132498026,1.1337922811508179,0.00028894608840346336,0.04506159573793411
515.0,694.0,-1.4746,-0.079,9.5151,-0.0293,0.0252,-0.1167,-2.0454207859435023,0.0,3.8886218070983887,-1.6371207237243652,-0.0,1.9175117015838623,5.339582133084097,3.2210261591521095e-21,0.24798348546028137,-1.5594385305987757,-6.215902976691723e-05,0.01841028779745102,0.5217698812484741,-0.0,0.0024963056202977896,1.1337357759475708,0.00014338691835291684,0.013970475643873215
515.0,694.0,-1.4746,-0.079,9.5151,-0.0293,0.0252,-0.1167,-2.0454169712462367,0.0,3.829287052154541,-1.6370965242385864,-0.0,1.886115312576294,5.339586245804586,8.965844963867591e-25,0.23179945349693298,-1.559389893208639,-6.0084166761953384e-05,0.0201885923743248,0.521757960319519,-0.0,0.006173048168420792,1.1337922811508179,-2.0609351849998347e-05,0.016036415472626686
515.0,694.0,-1.4746,-0.079,9.5151,-0.0293,0.0252,-0.1167,-2.0453692875304164,0.0,3.855112075805664,-1.6371732950210571,1.690063436399214e-05,1.8405449390411377,5.3395617482955835,1.629498029584444e-29,0.2394706904888153,-1.5593741575824183,-8.384049898779722e-09,0.019513417035341263,0.5217262506484985,-0.0,-0.002542987000197172,1.1338003873825073,-7.817518780939281e-05,0.006205386016517878
515.0,694.0,-1.4746,-0.079,9.5151,-0.0293,0.0252,-0.1167,-2.045340677300924,0.0,3.8067467212677,-1.6371331214904785,1.6195348507608287e-05,1.9049367904663086,5.339594054013052,4.535767277528679e-33,0.24801087379455566,-1.559422794972555,-2.333731081646806e-12,0.030280835926532745,0.5217260718345642,-0.0,0.007257447112351656,1.1337398290634155,-0.00010373828990850598,0.006881429348140955
515.0,694.0,-1.4746,-0.079,9.5151,-0.0293,0.0252,-0.1167,-2.045385023156637,0.0,3.7992568016052246,-1.6370846033096313,3.0215845981729217e-05,1.8700659275054932,5.339638399868765,8.243531700999519e-38,0.2497328519821167,-1.559406582509176,-4.241440721015064e-17,0.017594531178474426,0.521774411201477,-0.0,-0.008137127384543419,1.1337521076202393,-0.00011975508095929399,-0.011035523377358913
515.0,694.0,-1.4746,-0.079,9.5151,-0.0293,0.0252,-0.1167,-2.04531254390859,0.0,3.8461523056030273,-1.6370731592178345,2.876714279409498e-05,1.912192940711975,5.339630174427786,2.294626235331888e-41,0.24388891458511353,-1.5593622366534632,-1.1806206711301581e-20,0.016751959919929504,0.521761953830719,-0.0,0.008211275562644005,1.1338040828704834,-0.0001362138573313132,-0.024228176102042198
515.0,694.0,-1.4746,-0.079,9.5151,-0.0293,0.0252,-0.1167,-2.0453812084593714,0.0,3.8693294525146484,-1.6371207237243652,2.7038680855184793e-05,1.86741304397583,5.339553940087118,0.0,0.24483813345432281,-1.5594266096698206,-2.1457194115715196e-25,0.0023545976728200912,0.5217462182044983,-0.0,-0.00598479388281703,1.1337562799453735,-0.00029301055474206805,-0.03686103969812393
515.0,694.0,-1.4746,-0.079,9.5151,-0.0293,0.0252,-0.1167,-2.045368810693258,0.0,3.854336738586426,-1.6371326446533203,2.587277595011983e-05,1.884520173072815,5.339582133084097,0.0,0.25173044204711914,-1.5593660513507288,-5.97268792500262e-29,0.017331644892692566,0.5217379927635193,-0.0,0.007668556645512581,1.133719801902771,-0.0003362713323440403,-0.017183730378746986
515.0,694.0,-1.4746,-0.079,9.5151,-0.0293,0.0252,-0.1167,-2.045344968835348,-1.4196476513461675e-05,3.8404414653778076,-1.6371166706085205,1.2233325833221897e-05,1.8994284868240356,5.339578079968252,0.0,0.24775263667106628,-1.5593703428851526,-1.085506493011499e-33,0.01299438439309597,0.5217260718345642,-0.0,0.0029090610332787037,1.133716106414795,-0.0007581862737424672,-0.019508490338921547
545.0,719.0,-1.3442,-0.2746,9.5324,-0.0435,0.0275,-0.1213,-2.0453931293883265,-1.3555049918068107e-05,3.792128801345825,-1.6371207237243652,1.1753800208680332e-05,1.9146497249603271,5.339606034546652,0.0,0.24124200642108917,-1.5593822638141077,-3.0215474595189667e-37,0.015497418120503426,0.5217301249504089,-0.0,-0.0007233889773488045,1.133716106414795,-0.0008692448609508574,-0.0176257137209177
545.0,719.0,-1.3442,-0.2746,9.5324,-0.0435,0.0275,-0.1213,-2.0453769169249476,-1.278484796785051e-05,3.8437001705169678,-1.6371408700942993,1.117028295993805e-05,1.90596342086792,5.339602279454031,0.0,0.2541680634021759,-1.5593703428851526,-5.491688681688958e-42,0.016843704506754875,0.5217621922492981,-0.0,0.013218390755355358,1.1337041854858398,-0.0007059671333990991,0.007684136740863323
545.0,719.0,-1.3442,-0.2746,9.5324,-0.0435,0.0275,-0.1213,-2.045408865014547,-1.2262285963515751e-05,3.880743980407715,-1.6371610164642334,1.0769302207336295e-05,1.865818977355957,5.3395821926887415,0.0,0.25979113578796387,-1.5593660513507288,-1.401298464324817e-45,0.01460794173181057,0.5217178463935852,-0.0,-0.0018590812105685472,1.133716106414795,-0.0005027420702390373,0.03989773988723755
545.0,719.0,-1.3442,-0.2746,9.5324,-0.0435,0.0275,-0.1213,-2.045413156548971,-1.1628550055320375e-05,3.8569233417510986,-1.6371568441390991,1.0277400178893004e-05,1.8893712759017944,5.339578139572897,0.0,0.2510906457901001,-1.5593660513507288,-0.0,0.011208411306142807,0.5217220187187195,-0.0,0.003538052085787058,1.1336838006973267,-0.0003472392272669822,0.008221838623285294
545.0,719.0,-1.3442,-0.2746,9.5324,-0.0435,0.0275,-0.1213,-2.0453607044615687,-1.1194638318556827e-05,3.8549251556396484,-1.637136697769165,9.936989044945221e-06,1.8706088066101074,5.339569914131918,0.0,0.23676884174346924,-1.5593703428851526,-0.0,0.0021562594920396805,0.5217297673225403,-0.0,0.003181982785463333,1.1336959600448608,-0.0003375378146301955,0.010778423398733139
545.0,719.0,-1.3442,-0.2746,9.5324,-0.0435,0.0275,-0.1213,-2.045356889764303,-1.066407003236236e-05,3.8603296279907227,-1.6370844841003418,3.2194581202349415e-13,1.896284818649292,5.339654493122854,0.0,0.25606590509414673,-1.5593622366534632,-0.0,0.015300413593649864,0.5217342972755432,-0.0,-0.00490195956081152,1.1337201595306396,-0.00031498511089012027,0.045189641416072845
545.0,719.0,-1.3442,-0.2746,9.5324,-0.0435,0.0275,-0.1213,-2.045396944085592,-1.0298014785803389e-05,3.8663997650146484,-1.6371486186981201,7.774613191730911e-19,1.8874388933181763,5.339553940087118,0.0,0.23875373601913452,-1.5594103972064417,-0.0,0.004501850809901953,0.521733820438385,-0.0,-0.007814413867890835,1.1336878538131714,-0.00030083785532042384,-0.015719981864094734
545.0,719.0,-1.3442,-0.2746,9.5324,-0.0435,0.0275,-0.1213,-2.0453363857665003,-4.558527066933493e-08,3.8320560455322266,-1.6371047496795654,2.518876011201445e-26,1.896454930305481,5.339538204460897,0.0,0.25258520245552063,-1.5593865553485315,-0.0,0.010759957134723663,0.5217703580856323,-0.0,0.011496571823954582,1.1337041854858398,-0.0014619611902162433,0.004382692277431488
545.0,719.0,-1.3442,-0.2746,9.5324,-0.0435,0.0275,-0.1213,-2.0453649959959925,-1.100830784492822e-13,3.866927146911621,-1.6371129751205444,6.082789474897812e-32,1.8995814323425293,5.339549767761984,0.0,0.2448718249797821,-1.5593822638141077,-0.0,0.009257292374968529,0.521726131439209,-0.0,-0.013706259429454803,1.1337001323699951,-0.0017469333251938224,-0.013678454793989658
545.0,719.0,-1.3442,-0.2746,9.5324,-0.0435,0.0275,-0.1213,-2.045385023156637,-3.5665519814261185e-21,3.816067695617676,-1.6371289491653442,1.9707469238694216e-39,1.9073588848114014,5.3395617482955835,0.0,0.24756905436515808,-1.5593460241900843,-0.0,0.009687898680567741,0.5217220187187195,-0.0,0.002230804180726409,1.1336318254470825,-0.0014816714683547616,0.020272620022296906
545.0,719.0,-1.3442,-0.2746,9.5324,-0.0435,0.0275,-0.1213,-2.0453692875304164,-8.612804933618384e-27,3.8873038291931152,-1.6371326446533203,4.203895392974451e-45,1.902338981628418,5.339578079968252,0.0,0.2477170079946518,-1.559406582509176,-0.0,0.011294716037809849,0.5217544436454773,-0.0,0.007380510214716196,1.1336281299591064,-0.0014763366198167205,-0.01872982271015644
545.0,719.0,-1.3442,-0.2746,9.5324,-0.0435,0.0275,-0.1213,-2.045344968835348,-2.7904387699160926e-34,3.836726427078247,-1.6371166706085205,-0.0,1.8661220073699951,5.339618253498831,0.0,0.2577991187572479,-1.5593660513507288,-0.0,0.0031297439709305763,0.5216814875602722,-0.0,-0.005972396582365036,1.133608341217041,-0.0018287317361682653,-0.014926902949810028
545.0,719.0,-1.3442,-0.2746,9.5324,-0.0435,0.0275,-0.1213,-2.045361181298727,-6.7385780682298236e-40,3.8513259887695312,-1.6370846033096313,-0.0,1.8928229808807373,5.339626121311941,0.0,0.2404903918504715,-1.5593984762774866,-0.0,-0.006118064746260643,0.5217580795288086,-0.0,0.008070133626461029,1.133608341217041,-0.0017854379257187247,-0.01309332624077797
539.0,703.0,-1.3232,-0.0622,9.478,-0.0301,0.0255,-0.1155,-2.0453249416747035,-0.0,3.8570263385772705,-1.6370846033096313,-0.0,1.874312400817871,5.339630174427786,0.0,0.25942370295524597,-1.559378449116842,-0.0,0.0019906358793377876,0.5217380523681641,-0.0,0.0071765100583434105,1.1336166858673096,-0.0016412953846156597,-0.017858214676380157
539.0,703.0,-1.3232,-0.0622,9.478,-0.0301,0.0255,-0.1155,-2.0453530750670375,0.0,3.836078643798828,-1.6371124982833862,-0.0,1.866279125213623,5.339605974942007,0.0,0.2510130703449249,-1.5593584219561976,-0.0,0.0033069371711462736,0.5217417478561401,-0.0,0.0032629752531647682,1.1335316896438599,-0.001461191801354289,-0.012029191479086876
539.0,703.0,-1.3232,-0.0622,9.478,-0.0301,0.0255,-0.1155,-2.045385023156637,0.0,3.9121508598327637,-1.6370927095413208,-0.0,1.885990023612976,5.339610087662496,0.0,0.2501998543739319,-1.5593660513507288,-0.0,-0.005841606762260199,0.5217137932777405,-0.0,0.005067193880677223,1.1335803270339966,-0.0012935776030644774,-0.0156514011323452
539.0,703.0,-1.3232,-0.0622,9.478,-0.0301,0.0255,-0.1155,-2.045328756371969,0.0,3.876403331756592,-1.6371326446533203,-0.0,1.9026050567626953,5.33964620807723,0.0,0.2494620978832245,-1.5593302885638636,-0.0,0.010799052193760872,0.521710216999054,-0.0,0.010949196293950081,1.1335599422454834,-0.0010292127262800932,-0.06888210028409958
539.0,703.0,-1.3232,-0.0622,9.478,-0.0301,0.0255,-0.1155,-2.0453487835326136,0.0,3.8615691661834717,-1.6371651887893677,-0.0,1.891127586364746,5.339598166733541,0.0,0.2528476417064667,-1.559378449116842,-0.0,0.01008573267608881,0.5216933488845825,-0.0,0.008518466725945473,1.1335599422454834,-0.0007517535705119371,0.009256876073777676
539.0,703.0,-1.3232,-0.0622,9.478,-0.0301,0.0255,-0.1155,-2.045344968835348,0.0,3.860062599182129,-1.637088656425476,-0.0,1.8717570304870605,5.339618253498831,0.0,0.2481432557106018,-1.5593746344195765,-0.0,0.009179895743727684,0.521733820438385,-0.0,0.0092698335647583,1.1335680484771729,-0.0006308994488790631,-0.020273830741643906
539.0,703.0,-1.3232,-0.0622,9.478,-0.0301,0.0255,-0.1155,-2.0453812084593714,0.0,3.82230806350708,-1.6370762586593628,-0.0,1.8895013332366943,5.3395941136176965,0.0,0.24608775973320007,-1.5593302885638636,-0.0,0.006237725727260113,0.5217421054840088,-0.0,0.013176774606108665,1.1335844993591309,-0.0004860089102294296,0.01869279332458973
539.0,703.0,-1.3232,-0.0622,9.478,-0.0301,0.0255,-0.1155,-2.0453649959959925,0.0,3.8206136226654053,-1.6371486186981201,-0.0,1.9005680084228516,5.3395739672477625,0.0,0.2414036989212036,-1.5593541304217737,-0.0,-0.00035245134495198727,0.5217822194099426,-0.0,-0.004081689286977053,1.1335278749465942,-0.00038291511009447277,0.029669001698493958
539.0,703.0,-1.3232,-0.0622,9.478,-0.0301,0.0255,-0.1155,-2.0453649959959925,0.0,3.8645055294036865,-1.6371129751205444,-0.0,1.890913724899292,5.339622425823965,0.0,0.25769269466400146,-1.5593865553485315,-0.0,0.004488300532102585,0.5217261910438538,-0.0,0.002899105893447995,1.1335922479629517,-0.0002982925798278302,-0.010451911948621273
539.0,703.0,-1.3232,-0.0622,9.478,-0.0301,0.0255,-0.1155,-2.0453812084593714,0.0,3.8197741508483887,-1.6371244192123413,-0.0,1.899344801902771,5.339630174427786,0.0,0.2545284330844879,-1.5593741575824183,-0.0,0.017009016126394272,0.5217822194099426,-0.0,0.004818697925657034,1.133600115776062,-0.0002558835258241743,0.02183721587061882
539.0,703.0,-1.3232,-0.0622,9.478,-0.0301,0.0255,-0.1155,-2.045372625390524,0.0,3.8974320888519287,-1.6371207237243652,-0.0,1.8530244827270508,5.339650261193075,0.0,0.25228944420814514,-1.5593865553485315,-0.0,0.003342839889228344,0.5217944979667664,-0.0,0.006838422734290361,1.133575677871704,-0.00017925709835253656,-0.008529884740710258
539.0,703.0,-1.3232,-0.0622,9.478,-0.0301,0.0255,-0.1155,-2.045396944085592,0.0,3.8219542503356934,-1.6371126174926758,-0.0,1.9068293571472168,5.339598166733541,0.0,0.24751292169094086,-1.559350315724508,-0.0,-0.0007156995125114918,0.5217220187187195,-0.0,0.0025489830877631903,1.1335433721542358,-0.00016012093692552298,-0.03294004499912262
539.0,703.0,-1.3232,-0.0622,9.478,-0.0301,0.0255,-0.1155,-2.0453649959959925,0.0,3.8478012084960938,-1.6371408700942993,-0.0,1.873749017715454,5.339614140778341,0.0,0.2535163462162018,-1.559406582509176,-0.0,0.00690195057541132,0.5217944979667664,-0.0,-0.0006471824599429965,1.133575677871704,-0.00011213617108296603,-0.02246004343032837
522.0,697.0,-1.3992,-0.3757,9.5504,-0.0312,0.0188,-0.1208,-2.0453206501402796,0.0,3.829206943511963,-1.6370681524276733,-0.0,1.892838478088379,5.339602279454031,0.0,0.2555728852748871,-1.5593703428851526,-0.0,0.0112094571813941,0.5217060446739197,-0.0,-0.005960209295153618,1.1335875988006592,-7.726855983491987e-05,0.006277550011873245
522.0,697.0,-1.3992,-0.3757,9.5504,-0.0312,0.0188,-0.1208,-2.0453812084593714,0.0,3.8886446952819824,-1.6371489763259888,-0.0,1.8927440643310547,5.3395941136176965,0.0,0.261961430311203,-1.5593984762774866,-0.0,-0.002976868534460664,0.521774411201477,-0.0,-0.013214336708188057,1.1335880756378174,-6.904677138663828e-05,0.0022833868861198425
522.0,697.0,-1.3992,-0.3757,9.5504,-0.0312,0.0188,-0.1208,-2.045413156548971,0.0,3.8492164611816406,-1.6371129751205444,-0.0,1.9095990657806396,5.339581775456228,0.0,0.24238857626914978,-1.5593903700457972,-0.0,-0.0010827366495504975,0.5217138528823853,-0.0,-0.0022473460994660854,1.1336126327514648,-6.412706716218963e-05,0.030114881694316864
522.0,697.0,-1.3992,-0.3757,9.5504,-0.0312,0.0188,-0.1208,-2.045356889764303,0.0,3.833199977874756,-1.6371568441390991,-0.0,1.9016284942626953,5.339589941292562,0.0,0.24896472692489624,-1.5593865553485315,-0.0,-0.0025654896162450314,0.5217580795288086,-0.0,2.885179128497839e-06,1.1335959434509277,-5.856342613697052e-05,0.02178105339407921
522.0,697.0,-1.3992,-0.3757,9.5504,-0.0312,0.0188,-0.1208,-2.045408865014547,0.0,3.841550827026367,-1.6371207237243652,-0.0,1.8816235065460205,5.339638042240896,0.0,0.24622954428195953,-1.559350315724508,-0.0,0.004457533359527588,0.5217785239219666,-0.0,0.009736541658639908,1.1336286067962646,-5.498547761817463e-05,-0.035088442265987396
522.0,697.0,-1.3992,-0.3757,9.5504,-0.0312,0.0188,-0.1208,-2.045361181298727,0.0,3.878770589828491,-1.637080430984497,-0.0,1.9183132648468018,5.339626061707296,0.0,0.25768977403640747,-1.5593660513507288,-0.0,0.0024371191393584013,0.5217297673225403,-0.0,0.009421744383871555,1.133535623550415,-5.181957021704875e-05,0.00203134142793715
522.0,697.0,-1.3992,-0.3757,9.5504,-0.0312,0.0188,-0.1208,-2.0453530750670375,0.0,3.8526740074157715,-1.637136697769165,-0.0,1.9056488275527954,5.339617895870962,0.0,0.24570542573928833,-1.5593703428851526,-0.0,0.0037198951467871666,0.5217785239219666,-0.0,-0.0015218736371025443,1.1336042881011963,-6.416376709239557e-05,0.01277549285441637
522.0,697.0,-1.3992,-0.3757,9.5504,-0.0312,0.0188,-0.1208,-2.0454288921751917,0.0,3.8867011070251465,-1.6371207237243652,-0.0,1.8829708099365234,5.339614200382986,0.0,0.2614554166793823,-1.5593422094928187,-0.0,0.0013437557499855757,0.5216896533966064,-0.0,0.003541511483490467,1.1336123943328857,-6.090979513828643e-05,-0.013099526055157185
522.0,697.0,-1.3992,-0.3757,9.5504,-0.0312,0.0188,-0.1208,-2.045344968835348,0.0,3.867856025695801,-1.6371568441390991,-0.0,1.9091085195541382,5.3396339295204065,0.0,0.2590228319168091,-1.5593541304217737,-0.0,0.01677718013525009,0.5216854810714722,-0.0,-0.00021021952852606773,1.1335557699203491,-5.7048902817768976e-05,-0.03514249995350838
522.0,697.0,-1.3992,-0.3757,9.5504,-0.0312,0.0188,-0.1208,-2.0453649959959925,0.0,3.807389259338379,-1.6371207237243652,-0.0,1.892116904258728,5.3396339295204065,0.0,0.2523052394390106,-1.5593541304217737,-0.0,0.008162480778992176,0.5217301845550537,-0.0,0.0045666778460145,1.1335843801498413,-1.5224058188323397e-05,0.004444750025868416
522.0,697.0,-1.3992,-0.3757,9.5504,-0.0312,0.0188,-0.1208,-2.0453649959959925,0.0,3.8261373043060303,-1.6370484828948975,-0.0,1.8996391296386719,5.3395739672477625,0.0,0.24341927468776703,-1.5593259970294397,-0.0,-0.006641004234552383,0.5216818451881409,-0.0,-0.004008469637483358,1.1335597038269043,-1.425286154699279e-05,0.01644793711602688
522.0,697.0,-1.3992,-0.3757,9.5504,-0.0312,0.0188,-0.1208,-2.045316358605856,0.0,3.840414524078369,-1.6371129751205444,-0.0,1.8792752027511597,5.339610087662496,0.0,0.2605571746826172,-1.559378449116842,-0.0,0.0052098724991083145,0.521705687046051,-0.0,-0.008999831974506378,1.1336041688919067,-1.3606436368718278e-05,0.04047918692231178
517.0,705.0,-1.2395,-0.2441,9.5342,-0.042,0.0223,-0.1194,-2.0453573666014613,0.0,3.8492980003356934,-1.6371129751205444,-0.0,1.924242615699768,5.3395617482955835,0.0,0.2539818286895752,-1.5593903700457972,-0.0,0.012093194760382175,0.5217421054840088,-0.0,0.008957281708717346,1.1335840225219727,-1.28305500766146e-05,0.025131674483418465
517.0,705.0,-1.2395,-0.2441,9.5342,-0.042,0.0223,-0.1194,-2.0453411541380824,0.0,3.8630802631378174,-1.6371006965637207,2.0304424808159638e-09,1.884962797164917,5.339626121311941,0.0,0.2522770166397095,-1.5593703428851526,-0.0,0.012384762987494469,0.5217421054840088,-0.0,-0.003538606921210885,1.1335439682006836,-1.2304316442168783e-05,0.01350458525121212
517.0,705.0,-1.2395,-0.2441,9.5342,-0.042,0.0223,-0.1194,-2.045333047906393,6.65713571379456e-07,3.854109764099121,-1.6371166706085205,6.578376167476607e-17,1.8735570907592773,5.339614200382986,0.0,0.26017457246780396,-1.5593660513507288,-0.0,0.010277215391397476,0.5217338800430298,-0.0,-0.0057435124181210995,1.1335963010787964,-2.3332708224188536e-05,-0.006797754671424627
517.0,705.0,-1.2395,-0.2441,9.5342,-0.042,0.0223,-0.1194,-2.0453244648375453,1.6076199616313347e-12,3.8650295734405518,-1.6370924711227417,1.5886003916516386e-22,1.8691767454147339,5.33959453085021,0.0,0.24854189157485962,-1.5593865553485315,-0.0,0.013982487842440605,0.5217621922492981,-0.0,0.016107426956295967,1.1335641145706177,-2.2459333195001818e-05,0.00519007071852684
517.0,705.0,-1.2395,-0.2441,9.5342,-0.042,0.0223,-0.1194,-2.0453244648375453,5.208483606138214e-20,3.8311843872070312,-1.637056589126587,5.146863458860679e-30,1.8821712732315063,5.339606034546652,0.0,0.25481560826301575,-1.5593865553485315,-0.0,0.008835410699248314,0.5217421054840088,-0.0,0.008289300836622715,1.1336003541946411,-2.139171010639984e-05,-0.03135870769619942
517.0,705.0,-1.2395,-0.2441,9.5342,-0.042,0.0223,-0.1194,-2.0453244648375453,1.257787437416064e-25,3.8217172622680664,-1.6371486186981201,1.242906770748912e-35,1.8668839931488037,5.3396662948425195,0.0,0.2458471953868866,-1.5593703428851526,-0.0,0.016547083854675293,0.5217497944831848,-0.0,-0.006090818904340267,1.1335599422454834,-2.065528678940609e-05,0.0038030920550227165
517.0,705.0,-1.2395,-0.2441,9.5342,-0.042,0.0223,-0.1194,-2.045401235620016,4.075071204974254e-33,3.8514633178710938,-1.6371489763259888,4.021726592612225e-43,1.8820805549621582,5.33963023403243,0.0,0.24628596007823944,-1.5593703428851526,-0.0,0.013511678203940392,0.5217944979667664,-0.0,-0.005456898827105761,1.1336122751235962,-2.30009641200013e-06,-0.015593589283525944
517.0,705.0,-1.2395,-0.2441,9.5342,-0.042,0.0223,-0.1194,-2.0453692875304164,9.840818851401426e-39,3.8333258628845215,-1.6370688676834106,-0.0,1.878199815750122,5.339565861016073,0.0,0.24570897221565247,-1.5593622366534632,-0.0,0.009810738265514374,0.5217540264129639,-0.0,-0.001690060831606388,1.1335681676864624,-5.554461838391811e-12,0.0007381027098745108
517.0,705.0,-1.2395,-0.2441,9.5342,-0.042,0.0223,-0.1194,-2.045377393762106,0.0,3.8339853286743164,-1.63712477684021,-0.0,1.9223579168319702,5.3396461484725855,0.0,0.2522965669631958,-1.559338394795553,-0.0,-0.007372659631073475,0.5218023657798767,-0.0,-0.0034276784863322973,1.1335680484771729,-1.7995748495912707e-19,-0.04663926362991333
517.0,705.0,-1.2395,-0.2441,9.5342,-0.042,0.0223,-0.1194,-2.0454169712462367,0.0,3.883237838745117,-1.637088656425476,-0.0,1.87152099609375,5.339610087662496,0.0,0.24772387742996216,-1.5593703428851526,-0.0,0.013589918613433838,0.5217621922492981,-0.0,0.00417446531355381,1.1335279941558838,-4.345762743304953e-25,-0.03557905927300453
517.0,705.0,-1.2395,-0.2441,9.5342,-0.042,0.0223,-0.1194,-2.045385023156637,0.0,3.8600144386291504,-1.6371289491653442,-0.0,1.8880976438522339,5.339586245804586,0.0,0.2623593211174011,-1.5593302885638636,-0.0,0.014322204515337944,0.5217540264129639,-0.0,-0.007484375033527613,1.1335119009017944,-1.4079718685844113e-32,-0.006375422235578299
517.0,705.0,-1.2395,-0.2441,9.5342,-0.042,0.0223,-0.1194,-2.0453244648375453,0.0,3.825915813446045,-1.6371610164642334,-0.0,1.8843940496444702,5.339614140778341,0.0,0.2418791949748993,-1.5593541304217737,-0.0,0.006591318175196648,0.5217625498771667,-0.0,-0.0037714610807597637,1.1335762739181519,-3.4000867717638426e-38,-0.017091576009988785
517.0,705.0,-1.2395,-0.2441,9.5342,-0.042,0.0223,-0.1194,-2.045328756371969,0.0,3.845890998840332,-1.6371166706085205,-0.0,1.8866368532180786,5.33960639217452,0.0,0.25604623556137085,-1.5593422094928187,-0.0,0.004303516820073128,0.5216534733772278,-0.0,-0.0029366309754550457,1.1335762739181519,-8.18430635263212e-05,0.006919283419847488
533.0,730.0,-1.3412,-0.1693,9.6497,-0.0295,0.0186,-0.1164,-2.0453812084593714,0.0,3.8903732299804688,-1.6371848583221436,-0.0,1.8642029762268066,5.339565801411428,0.0,0.24898821115493774,-1.5593422094928187,-0.0,0.014607774093747139,0.5217498540878296,-0.0,-0.008066489361226559,1.1335639953613281,-7.761894084978849e-05,0.015273423865437508
533.0,730.0,-1.3412,-0.1693,9.6497,-0.0295,0.0186,-0.1164,-2.0453649959959925,0.0,3.8674283027648926,-1.6371567249298096,-0.0,1.8874542713165283,5.33960639217452,0.0,0.24637773633003235,-1.559378449116842,-0.0,0.015355264768004417,0.5217827558517456,-0.0,-0.009297317825257778,1.1335681676864624,-8.713122952030972e-05,0.014890661463141441
533.0,730.0,-1.3412,-0.1693,9.6497,-0.0295,0.0186,-0.1164,-2.0453206501402796,0.0,3.8596205711364746,-1.63712477684021,-0.0,1.934387445449829,5.339606034546652,0.0,0.2538895308971405,-1.5593903700457972,-0.0,0.002473417203873396,0.5217097401618958,-0.0,-0.0021458868868649006,1.133548378944397,-9.695963672129437e-05,-0.051107436418533325
533.0,730.0,-1.3412,-0.1693,9.6497,-0.0295,0.0186,-0.1164,-2.0453206501402796,0.0,3.884578227996826,-1.637136697769165,-0.0,1.8576523065567017,5.3395821926887415,0.0,0.2319541573524475,-1.5593345800982874,-0.0,0.0035765510983765125,0.5217581391334534,-0.0,-0.00037332321517169476,1.1335361003875732,-0.00021857018873561174,0.05874166637659073
533.0,730.0,-1.3412,-0.1693,9.6497,-0.0295,0.0186,-0.1164,-2.045333047906393,0.0,3.8640875816345215,-1.6370762586593628,-0.0,1.891040325164795,5.339654016285696,0.0,0.24628454446792603,-1.559406582509176,-0.0,0.0031954017467796803,0.5217301845550537,-0.0,0.006928245536983013,1.1335160732269287,-0.00027706363471224904,-0.011526400223374367
533.0,730.0,-1.3412,-0.1693,9.6497,-0.0295,0.0186,-0.1164,-2.0453931293883265,0.0,3.901914596557617,-1.6370927095413208,-0.0,1.878467082977295,5.3395376084144495,0.0,0.24437738955020905,-1.5593622366534632,-0.0,0.007591921836137772,0.5217098593711853,-0.0,0.0031047933734953403,1.1335681676864624,-0.0002726143866311759,0.0001746168127283454
533.0,730.0,-1.3412,-0.1693,9.6497,-0.0295,0.0186,-0.1164,-2.045328756371969,0.0,3.8786540031433105,-1.6371774673461914,-0.0,1.9216862916946411,5.339634287148275,0.0,0.25492218136787415,-1.5593746344195765,-0.0,0.018683234229683876,0.5217581391334534,-0.0,-0.0033633308485150337,1.1335278749465942,-0.00024134035629685968,0.020066004246473312
533.0,730.0,-1.3412,-0.1693,9.6497,-0.0295,0.0186,-0.1164,-2.0453573666014613,0.0,3.8693792819976807,-1.6371650695800781,-0.0,1.8941932916641235,5.339610087662496,0.0,0.255267858505249,-1.5593584219561976,-0.0,0.013655951246619225,0.5217702984809875,-0.0,-0.005238974466919899,1.1335279941558838,-0.0002092719660140574,0.01790209487080574
533.0,730.0,-1.3412,-0.1693,9.6497,-0.0295,0.0186,-0.1164,-2.045340677300924,0.0,3.8982625007629395,-1.637153148651123,-0.0,1.8821396827697754,5.339626061707296,0.0,0.2497483491897583,-1.5593622366534632,-0.0,0.012221494689583778,0.5217621922492981,-0.0,0.0059614889323711395,1.1335397958755493,-0.00019030705152545124,0.005187805742025375
533.0,730.0,-1.3412,-0.1693,9.6497,-0.0295,0.0186,-0.1164,-2.0453812084593714,0.0,3.830625057220459,-1.6371486186981201,-0.0,1.8903701305389404,5.339606034546652,0.0,0.24337860941886902,-1.559406582509176,-0.0,0.013318756595253944,0.5217581391334534,-0.0,-0.005964634940028191,1.1335397958755493,-8.459413220407441e-05,-0.00017107673920691013
533.0,730.0,-1.3412,-0.1693,9.6497,-0.0295,0.0186,-0.1164,-2.0453769169249476,0.0,3.8488550186157227,-1.637072205543518,-0.0,1.8644027709960938,5.339602279454031,0.0,0.256645530462265,-1.559406582509176,-0.0,0.014004974626004696,0.5217785239219666,-0.0,0.0067003522999584675,1.1335557699203491,-3.857759293168783e-05,0.029571060091257095
533.0,730.0,-1.3412,-0.1693,9.6497,-0.0295,0.0186,-0.1164,-2.0453573666014613,0.0,3.831211566925049,-1.6371331214904785,-0.0,1.8820991516113281,5.339654493122854,0.0,0.25587671995162964,-1.5593741575824183,-0.0,0.009629935026168823,0.5217015743255615,-0.0,-0.0006305803544819355,1.1335721015930176,-3.18261663778685e-05,-0.020986957475543022
533.0,730.0,-1.3412,-0.1693,9.6497,-0.0295,0.0186,-0.1164,-2.045385023156637,0.0,3.821840286254883,-1.637136697769165,-0.0,1.8770687580108643,5.339658129006185,0.0,0.2511082589626312,-1.5593941847430628,-0.0,0.009804553352296352,0.5217580795288086,-0.0,-0.003917632158845663,1.1335680484771729,-1.1620115856203483e-06,0.006551258731633425
529.0,687.0,-1.3507,-0.4534,9.4863,-0.0452,0.0273,-0.1151,-2.0453044376769007,0.0,3.87105131149292,-1.637144923210144,-0.0,1.871826171875,5.339598166733541,0.0,0.25065457820892334,-1.5594189802752894,-0.0,0.017835387960076332,0.5217015743255615,-0.0,0.00400650966912508,1.1335721015930176,-3.7647697323983306e-14,0.04076911136507988
529.0,687.0,-1.3507,-0.4534,9.4863,-0.0452,0.0273,-0.1151,-2.0453044376769007,0.0,3.84865140914917,-1.6371047496795654,-0.0,1.8564354181289673,5.339569914131918,0.0,0.24409180879592896,-1.559350315724508,-0.0,0.0070517417043447495,0.5217380523681641,-0.0,-0.004732620902359486,1.1336207389831543,-9.091474904145557e-20,-0.0223345085978508
529.0,687.0,-1.3507,-0.4534,9.4863,-0.0452,0.0273,-0.1151,-2.0453411541380824,0.0,3.8480424880981445,-1.6371088027954102,-0.0,1.8688448667526245,5.339586245804586,0.0,0.2532036304473877,-1.559338394795553,-0.0,0.015158943831920624,0.5217380523681641,-0.0,0.0006855708779767156,1.1335557699203491,-2.945522264363694e-27,0.03334995359182358
529.0,687.0,-1.3507,-0.4534,9.4863,-0.0452,0.0273,-0.1151,-2.0453411541380824,0.0,3.8555192947387695,-1.637080430984497,-0.0,1.8767540454864502,5.339601921826162,0.0,0.2560669183731079,-1.5593865553485315,-0.0,0.012941109016537666,0.5217498540878296,-0.0,-0.0026248865760862827,1.1335517168045044,-7.113089702242408e-33,-0.016179082915186882
529.0,687.0,-1.3507,-0.4534,9.4863,-0.0452,0.0273,-0.1151,-2.0453649959959925,0.0,3.8723678588867188,-1.6371047496795654,-0.0,1.8944001197814941,5.339574026852407,0.0,0.2459184229373932,-1.559378449116842,-0.0,0.0018704114481806755,0.5217540264129639,-0.0,0.009306286461651325,1.133579969406128,-2.3045474284593077e-40,-0.013446240685880184
529.0,687.0,-1.3507,-0.4534,9.4863,-0.0452,0.0273,-0.1151,-2.0453206501402796,0.0,3.862367630004883,-1.6371326446533203,-0.0,1.9102662801742554,5.339569914131918,0.0,0.26011940836906433,-1.5593822638141077,-0.0,0.02587190456688404,0.5217421054840088,-0.0,-0.003986181225627661,1.1335762739181519,-0.0,-0.030004121363162994
529.0,687.0,-1.3507,-0.4534,9.4863,-0.0452,0.0273,-0.1151,-2.0453573666014613,0.0,3.8898587226867676,-1.6371610164642334,-0.0,1.8837461471557617,5.339626121311941,0.0,0.25030937790870667,-1.5593703428851526,-0.0,0.009565463289618492,0.5217260718345642,-0.0,-0.004462515003979206,1.133575677871704,0.0,0.006277835927903652
529.0,687.0,-1.3507,-0.4534,9.4863,-0.0452,0.0273,-0.1151,-2.0453654728331507,0.0,3.8668737411499023,-1.6371608972549438,-0.0,1.8721270561218262,5.339622008591451,0.0,0.24282768368721008,-1.5593822638141077,-0.0,0.013912873342633247,0.5217097401618958,-0.0,0.0016264524310827255,1.1335840225219727,0.0,-0.008514045737683773
529.0,687.0,-1.3507,-0.4534,9.4863,-0.0452,0.0273,-0.1151,-2.0452968082823695,0.0,3.877432107925415,-1.6371049880981445,-0.0,1.8909494876861572,5.339617895870962,0.0,0.25560635328292847,-1.5593746344195765,-0.0,0.007540084887295961,0.5217540264129639,-0.0,-0.008590188808739185,1.1335880756378174,0.0,-0.02562880888581276
529.0,687.0,-1.3507,-0.4534,9.4863,-0.0452,0.0273,-0.1151,-2.045333047906393,0.0,3.8451852798461914,-1.637133002281189,-0.0,1.886320948600769,5.339614140778341,0.0,0.25810155272483826,-1.5593746344195765,-0.0,0.008474843576550484,0.5217987298965454,-0.0,0.0017405400285497308,1.1335475444793701,0.0,0.02743041329085827
529.0,687.0,-1.3507,-0.4534,9.4863,-0.0452,0.0273,-0.1151,-2.0453573666014613,0.0,3.900634288787842,-1.6371166706085205,-0.0,1.8985753059387207,5.339590000897207,0.0,0.25269657373428345,-1.5593660513507288,-0.0,0.004975948482751846,0.5217297673225403,-0.0,-0.003333444707095623,1.1335599422454834,0.0,-0.00826083030551672
529.0,687.0,-1.3507,-0.4534,9.4863,-0.0452,0.0273,-0.1151,-2.045333047906393,0.0,3.873131275177002,-1.637136697769165,-0.0,1.916141390800476,5.339662241726675,0.0,0.2567269802093506,-1.5593703428851526,-0.0,-0.0012616435997188091,0.5217581391334534,-0.0,0.0005624726181849837,1.1335680484771729,0.0,-0.010761354118585587
529.0,687.0,-1.3507,-0.4534,9.4863,-0.0452,0.0273,-0.1151,-2.0453411541380824,0.0,3.8587794303894043,-1.6371526718139648,-0.0,1.8321270942687988,5.3396180150802515,0.0,0.25704482197761536,-1.5593622366534632,-0.0,0.010642792098224163,0.5217945575714111,-0.0,-0.004166092723608017,1.1336249113082886,0.0,0.006703036837279797
545.0,677.0,-1.331,-0.3129,9.5611,-0.044,0.0243,-0.1156,-2.0453692875304164,0.0,3.865751266479492,-1.6371326446533203,-0.0,1.8820165395736694,5.33960639217452,0.0,0.24594010412693024,-1.5593822638141077,-0.0,0.012003611773252487,0.5216778516769409,-0.0,0.0076334415934979916,1.1335721015930176,0.0,-0.02155202627182007
545.0,677.0,-1.331,-0.3129,9.5611,-0.044,0.0243,-0.1156,-2.045328756371969,0.0,3.864151954650879,-1.637136697769165,-0.0,1.8911759853363037,5.339622008591451,0.0,0.24254965782165527,-1.5593622366534632,-0.0,0.004772040992975235,0.521766185760498,-0.0,0.0018747043795883656,1.1335844993591309,0.0,0.001683550886809826
545.0,677.0,-1.331,-0.3129,9.5611,-0.044,0.0243,-0.1156,-2.0452805958189906,0.0,3.837205410003662,-1.637144923210144,-0.0,1.8670846223831177,5.33960639217452,0.0,0.24815258383750916,-1.5593822638141077,-0.0,0.014869121834635735,0.5218104720115662,-0.0,0.008197243325412273,1.1335597038269043,0.0,-0.0010742684826254845
545.0,677.0,-1.331,-0.3129,9.5611,-0.044,0.0243,-0.1156,-2.045349260369772,0.0,3.8581366539001465,-1.63712477684021,3.580596441565831e-08,1.8920135498046875,5.339565861016073,0.0,0.24911384284496307,-1.5593627134906214,-0.0,0.004212587606161833,0.5217421054840088,-0.0,0.0018184693763032556,1.1335439682006836,0.0,-0.010028690099716187
545.0,677.0,-1.331,-0.3129,9.5611,-0.044,0.0243,-0.1156,-2.045373102227682,0.0,3.8603034019470215,-1.6370844841003418,1.16006773719752e-15,1.8983534574508667,5.339610087662496,0.0,0.24818116426467896,-1.5593746344195765,-0.0,0.016626838594675064,0.5217821598052979,-0.0,0.0056453971192240715,1.13352370262146,0.0,-0.03992675617337227
545.0,677.0,-1.331,-0.3129,9.5611,-0.044,0.0243,-0.1156,-2.045377393762106,0.0,3.834789276123047,-1.6371166706085205,2.8014270804278655e-21,1.9201610088348389,5.339650261193075,0.0,0.25964584946632385,-1.5593703428851526,-0.0,-0.003076964756473899,0.5217421054840088,-0.0,0.005996668711304665,1.1335278749465942,0.0,0.007239968981593847
545.0,677.0,-1.331,-0.3129,9.5611,-0.044,0.0243,-0.1156,-2.0453649959959925,0.0,3.8236031532287598,-1.6370680332183838,9.076266854337426e-29,1.8947222232818604,5.339626061707296,0.0,0.2422192096710205,-1.5593627134906214,-0.0,0.019224926829338074,0.5217178463935852,-0.0,0.0013231788761913776,1.1335439682006836,-3.244844629080035e-05,0.002176536712795496
545.0,677.0,-1.331,-0.3129,9.5611,-0.044,0.0243,-0.1156,-2.045373102227682,0.0,3.8734843730926514,-1.6371408700942993,2.191811384097631e-34,1.877436876296997,5.339553642063894,0.0,0.24863559007644653,-1.559378449116842,-0.0,0.001665260992012918,0.5217301845550537,-0.0,0.009904064238071442,1.1335844993591309,-3.078369263675995e-05,0.03261824697256088
545.0,677.0,-1.331,-0.3129,9.5611,-0.044,0.0243,-0.1156,-2.0453530750670375,0.0,3.9016571044921875,-1.637088656425476,7.101780617198173e-42,1.8742382526397705,5.339637982636251,0.0,0.2529832720756531,-1.5593579451190394,-0.0,0.01611013151705265,0.5217416882514954,-0.0,-0.0021567572839558125,1.133552074432373,-4.321905362303369e-05,0.012138662859797478
545.0,677.0,-1.331,-0.3129,9.5611,-0.044,0.0243,-0.1156,-2.045340677300924,0.0,3.873918056488037,-1.6370846033096313,0.0,1.866919994354248,5.3395617482955835,0.0,0.2460811734199524,-1.5593746344195765,-0.0,0.006345946341753006,0.5217904448509216,-0.0,-0.008047661744058132,1.133552074432373,-4.123874532524496e-05,-0.021194875240325928
545.0,677.0,-1.331,-0.3129,9.5611,-0.044,0.0243,-0.1156,-2.0453649959959925,0.0,3.8684873580932617,-1.637096881866455,-0.0,1.9015564918518066,5.339598166733541,0.0,0.24520012736320496,-1.5593822638141077,-0.0,0.006137405056506395,0.5217379927635193,-0.0,0.01577761210501194,1.1335397958755493,-3.886440390488133e-05,-0.029041269794106483
545.0,677.0,-1.331,-0.3129,9.5611,-0.044,0.0243,-0.1156,-2.045373102227682,0.0,3.8513221740722656,-1.6371170282363892,-0.0,1.890427827835083,5.339630174427786,0.0,0.24525459110736847,-1.5593779722796839,-0.0,-0.0022860716562718153,0.5218101143836975,-0.0,0.0027049912605434656,1.1335599422454834,-4.9654467147774994e-05,-0.016952509060502052
545.0,677.0,-1.331,-0.3129,9.5611,-0.044,0.0243,-0.1156,-2.04531254390859,7.150152896429063e-07,3.8367791175842285,-1.6371009349822998,-0.0,1.892632007598877,5.339574086457052,0.0,0.24404317140579224,-1.5593579451190394,-0.0,0.001880626892670989,0.5217621922492981,-0.0,-0.0024758516810834408,1.1335480213165283,-4.707594416686334e-05,-0.012764967978000641
543.0,691.0,-1.3466,-0.2847,9.5157,-0.04,0.0263,-0.1148,-2.045361181298727,1.7266780453356612e-12,3.861560821533203,-1.6370844841003418,-0.0,1.866737723350525,5.339642095356741,0.0,0.2536503076553345,-1.5593627134906214,-0.0,0.010435201227664948,0.5217498540878296,-0.0,-0.00037696887739002705,1.1335480213165283,-5.662151670549065e-05,0.023559415712952614
543.0,691.0,-1.3466,-0.2847,9.5157,-0.04,0.0263,-0.1148,-2.0453044376769007,5.594217312817298e-20,3.828932285308838,-1.637096881866455,-0.0,1.895294427871704,5.339642095356741,0.0,0.25644171237945557,-1.5593622366534632,-0.0,-0.0053488751873373985,0.5217421054840088,-0.0,-0.0008029336459003389,1.1335361003875732,-0.00014169930364005268,0.0420171320438385
543.0,691.0,-1.3466,-0.2847,9.5157,-0.04,0.0263,-0.1148,-2.0453044376769007,1.3509377354782748e-25,3.8353686332702637,-1.6371088027954102,-0.0,1.9250388145446777,5.339637982636251,0.0,0.24171611666679382,-1.559378449116842,-0.0,-0.0054589384235441685,0.521766185760498,-0.0,0.0069405934773385525,1.1335160732269287,-0.00018095664563588798,-0.011537655256688595
543.0,691.0,-1.3466,-0.2847,9.5157,-0.04,0.0263,-0.1148,-2.045345445672506,4.376865787894445e-33,3.8695311546325684,-1.6371129751205444,-0.0,1.9124410152435303,5.339642095356741,0.0,0.25205203890800476,-1.5594189802752894,-0.0,0.013686188496649265,0.5217987298965454,-0.0,0.007194485981017351,1.1335078477859497,-0.0001858229807112366,-0.04218876361846924
543.0,691.0,-1.3466,-0.2847,9.5157,-0.04,0.0263,-0.1148,-2.045361181298727,1.0569615965816727e-38,3.890969753265381,-1.63712477684021,-0.0,1.9154245853424072,5.339637982636251,0.0,0.26727867126464844,-1.559338394795553,-0.0,0.0015563304768875241,0.521733820438385,-0.0,0.010904286988079548,1.1335078477859497,-0.000454426248325035,0.05148330703377724
543.0,691.0,-1.3466,-0.2847,9.5157,-0.04,0.0263,-0.1148,-2.0453530750670375,0.0,3.8476576805114746,-1.6371009349822998,-0.0,1.8254748582839966,5.339622008591451,0.0,0.24892938137054443,-1.5593779722796839,-0.0,-0.0004974361509084702,0.5217621326446533,-0.0,-0.004555955529212952,1.1335763931274414,-0.00045402016257867217,-0.029440097510814667
543.0,691.0,-1.3466,-0.2847,9.5157,-0.04,0.0263,-0.1148,-2.045344968835348,0.0,3.9157047271728516,-1.6371088027954102,-0.0,1.8829667568206787,5.339569914131918,0.0,0.2466699182987213,-1.5593422094928187,-0.0,-0.00401943689212203,0.5218104124069214,-0.0,-0.0030042938888072968,1.133512020111084,-0.0005732291028834879,0.026785051450133324
543.0,691.0,-1.3466,-0.2847,9.5157,-0.04,0.0263,-0.1148,-2.0453654728331507,0.0,3.886479139328003,-1.637096881866455,-0.0,1.895702600479126,5.339626061707296,0.0,0.2558783292770386,-1.559338394795553,-0.0,0.0022101025097072124,0.5218064188957214,-0.0,-0.002959101228043437,1.133548378944397,-0.0005345763638615608,0.03146309033036232
543.0,691.0,-1.3466,-0.2847,9.5157,-0.04,0.0263,-0.1148,-2.04528870205068,0.0,3.8920693397521973,-1.6371088027954102,-0.0,1.8945481777191162,5.339626061707296,0.0,0.2525237798690796,-1.5593822638141077,-0.0,0.005136123858392239,0.5217498540878296,-0.0,0.00487580057233572,1.1335365772247314,-0.0004564650298561901,0.011462033726274967
543.0,691.0,-1.3466,-0.2847,9.5157,-0.04,0.0263,-0.1148,-2.0453044376769007,0.0,3.8784308433532715,-1.6370846033096313,-0.0,1.878909707069397,5.339605974942007,0.0,0.24923600256443024,-1.5593584219561976,-0.0,0.006978501565754414,0.5217498540878296,-0.0,-0.003689767327159643,1.1334960460662842,-0.0004544607363641262,0.017082566395401955
543.0,691.0,-1.3466,-0.2847,9.5157,-0.04,0.0263,-0.1148,-2.0453530750670375,0.0,3.8383641242980957,-1.637080430984497,-0.0,1.9066996574401855,5.339645850449362,0.0,0.25260263681411743,-1.5593584219561976,-0.0,-0.0004528359859250486,0.5217662453651428,-0.0,0.004906529560685158,1.1334881782531738,-0.00042945629684254527,-0.03790586441755295
543.0,691.0,-1.3466,-0.2847,9.5157,-0.04,0.0263,-0.1148,-2.045385023156637,0.0,3.827953815460205,-1.6370689868927002,-0.0,1.9008009433746338,5.339622068196096,0.0,0.2503310441970825,-1.5594270865069788,-0.0,0.012145373038947582,0.521782636642456,-0.0,0.0032158461399376392,1.1335324048995972,-0.00042188784573227167,-0.019868792966008186
543.0,691.0,-1.3466,-0.2847,9.5157,-0.04,0.0263,-0.1148,-2.0453607044615687,0.0,3.8828635215759277,-1.6371009349822998,-0.0,1.9123868942260742,5.339585947781362,0.0,0.25425833463668823,-1.559394661580221,-0.0,-0.007390074897557497,0.5217822194099426,-0.0,-0.0008986208122223616,1.1335041522979736,-0.00039873752393759787,-0.0029205046594142914
533.0,695.0,-1.3352,-0.2776,9.5737,-0.0347,0.0267,-0.1176,-2.045316358605856,0.0,3.8562231063842773,-1.637080430984497,-0.0,1.941388487815857,5.3396339295204065,0.0,0.2599519193172455,-1.5593822638141077,-0.0,0.0064719682559370995,0.5217781662940979,-0.0,-0.00699202623218298,1.133512020111084,-0.00036362934042699635,-0.03446139767765999
533.0,695.0,-1.3352,-0.2776,9.5737,-0.0347,0.0267,-0.1176,-2.045361181298727,0.0,3.8500890731811523,-1.6370762586593628,-0.0,1.8927321434020996,5.33965032079772,0.0,0.24845632910728455,-1.5593541304217737,-0.0,-0.005624000448733568,0.5217097997665405,-0.0,0.003641220275312662,1.1334757804870605,-0.0003157801693305373,0.007521296851336956
533.0,695.0,-1.3352,-0.2776,9.5737,-0.0347,0.0267,-0.1176,-2.045373102227682,0.0,3.8935341835021973,-1.6371170282363892,-0.0,1.8797388076782227,5.339630174427786,0.0,0.25883492827415466,-1.5593741575824183,-0.0,-0.010498179122805595,0.5217421054840088,-0.0,0.005076457280665636,1.1335443258285522,-0.0002518346009310335,0.004551197402179241
533.0,695.0,-1.3352,-0.2776,9.5737,-0.0347,0.0267,-0.1176,-2.0453812084593714,0.0,3.8720245361328125,-1.6370762586593628,-0.0,1.9287688732147217,5.339626121311941,0.0,0.25376150012016296,-1.5593660513507288,-0.0,-0.010994886048138142,0.5217703580856323,-0.0,0.00944715365767479,1.1334762573242188,-0.0002141370641766116,-0.0031200041994452477
533.0,695.0,-1.3352,-0.2776,9.5737,-0.0347,0.0267,-0.1176,-2.0453769169249476,0.0,3.8409481048583984,-1.6371009349822998,-0.0,1.9164965152740479,5.339642095356741,0.0,0.25061121582984924,-1.5594189802752894,-0.0,0.0011974619701504707,0.5217215418815613,-0.0,0.0122425127774477,1.133512020111084,-0.0001798929733922705,0.005956768058240414
533.0,695.0,-1.3352,-0.2776,9.5737,-0.0347,0.0267,-0.1176,-2.045344968835348,0.0,3.8526575565338135,-1.6371091604232788,-0.0,1.8615919351577759,5.339605974942007,0.0,0.2540322542190552,-1.5593541304217737,-0.0,-0.0041738953441381454,0.5216974020004272,-0.0,-0.0030696820467710495,1.1335283517837524,-0.00016062805661931634,0.014121809974312782
533.0,695.0,-1.3352,-0.2776,9.5737,-0.0347,0.0267,-0.1176,-2.045385023156637,0.0,3.8751425743103027,-1.6371289491653442,-0.0,1.8978639841079712,5.339629876404562,0.0,0.2601947784423828,-1.5593660513507288,-0.0,0.005492670461535454,0.5217503905296326,-0.0,-0.004462100565433502,1.1334518194198608,-0.00014055870997253805,-0.04700054973363876
533.0,695.0,-1.3352,-0.2776,9.5737,-0.0347,0.0267,-0.1176,-2.0453692875304164,0.0,3.8493289947509766,-1.6370606422424316,-0.0,1.881746768951416,5.339622008591451,0.0,0.26281654834747314,-1.5593703428851526,-0.0,0.009857973083853722,0.5217057466506958,-0.0,0.0008446798892691731,1.13349187374115,-0.00015409702609758824,0.012926955707371235
533.0,695.0,-1.3352,-0.2776,9.5737,-0.0347,0.0267,-0.1176,-2.0453931293883265,0.0,3.820329427719116,-1.637096881866455,1.9679180507381488e-10,1.8968324661254883,5.339642095356741,0.0,0.2490522563457489,-1.5593822638141077,-0.0,-0.011119344271719456,0.5217462182044983,-0.0,0.00030486626201309264,1.1334800720214844,-0.00011533968790899962,0.032778482884168625
533.0,695.0,-1.3352,-0.2776,9.5737,-0.0347,0.0267,-0.1176,-2.045385023156637,0.0,3.8867344856262207,-1.6371171474456787,4.752290526668869e-16,1.887770414352417,5.339629876404562,0.0,0.25775980949401855,-1.5593703428851526,-0.0,0.00795533787459135,0.5216932892799377,-0.0,0.004121791571378708,1.1334922313690186,-0.00010710410424508154,-0.014285314828157425
533.0,695.0,-1.3352,-0.2776,9.5737,-0.0347,0.0267,-0.1176,-2.045300622979635,0.0,3.8587093353271484,-1.6370649337768555,0.0005672543775290251,1.8900179862976074,5.339617895870962,1.285876072287806e-09,0.26522383093833923,-1.5593541304217737,-0.0,-0.00700408685952425,0.5217302441596985,-0.0,0.014539406634867191,1.1335525512695312,-9.779378160601482e-05,0.0010972172021865845
533.0,695.0,-1.3352,-0.2776,9.5737,-0.0347,0.0267,-0.1176,-2.0453573666014613,0.0,3.915682792663574,-1.6370770931243896,0.0011843832908198237,1.8677862882614136,5.339601921826162,3.579283408289974e-13,0.25033193826675415,-1.5593703428851526,-0.0,0.0028102935757488012,0.5217338800430298,-0.0,-0.0021840559784322977,1.1334922313690186,-9.18083605938591e-05,-0.04520396888256073
547.0,707.0,-1.3131,-0.3308,9.5749,-0.0444,0.0163,-0.1106,-2.0453206501402796,0.0,3.879199504852295,-1.6370893716812134,0.0026168017648160458,1.916330099105835,5.339649903565206,6.505170021521174e-18,0.25299742817878723,-1.559378449116842,-0.0,0.009024766273796558,0.5217540264129639,-0.0,0.0020810216665267944,1.133528470993042,-8.48814015625976e-05,-0.01247166097164154
547.0,707.0,-1.3131,-0.3308,9.5749,-0.0444,0.0163,-0.1106,-2.045377393762106,0.0,3.8898563385009766,-1.6370532512664795,0.007960369810461998,1.8872206211090088,5.339622008591451,1.810737942763358e-21,0.24819646775722504,-1.559350315724508,-0.0,-0.009991053491830826,0.5217220187187195,-0.0,-0.005615445785224438,1.1335078477859497,-8.033546328078955e-05,-0.017132993787527084
547.0,707.0,-1.3131,-0.3308,9.5749,-0.0444,0.0163,-0.1106,-2.0453487835326136,0.0,3.855769157409668,-1.6368526220321655,0.014527454972267151,1.9242587089538574,5.33966218212203,3.290927091719054e-26,0.25472956895828247,-1.5593903700457972,-0.0,0.002872166456654668,0.5217421054840088,-0.0,-0.008093870244920254,1.1335283517837524,-7.498117338400334e-05,-0.009062454104423523
547.0,707.0,-1.3131,-0.3308,9.5749,-0.0444,0.0163,-0.1106,-2.0453607044615687,0.0,3.816375494003296,-1.6368327140808105,0.013449941761791706,1.9278883934020996,5.339622008591451,4.3823205487569794e-05,0.24723106622695923,-1.5593660513507288,-0.0,-0.01035297755151987,0.5217904448509216,-0.0,0.0019828854128718376,1.1335725784301758,-7.141153037082404e-05,0.06266423314809799
547.0,707.0,-1.3131,-0.3308,9.5749,-0.0444,0.0163,-0.1106,-2.0453368626036585,0.0,3.876650810241699,-1.6366928815841675,0.014038046821951866,1.9072619676589966,5.33966218212203,3.745163485291414e-05,0.25473082065582275,-1.5593746344195765,-0.0,-0.012291273102164268,0.5217180252075195,-0.0,0.002408441621810198,1.1335078477859497,-6.714919436490163e-05,-0.03802549093961716
547.0,707.0,-1.3131,-0.3308,9.5749,-0.0444,0.0163,-0.1106,-2.0453530750670375,5.20958554073303e-10,3.84920072555542,-1.636636734008789,0.012642729096114635,1.9223206043243408,5.339658129006185,3.329455284983851e-05,0.2567439675331116,-1.5593865553485315,-0.0,-0.008110945113003254,0.5217298269271851,-0.0,0.009784476831555367,1.133508324623108,-6.427203334169462e-05,-0.0051175435073673725
547.0,707.0,-1.3131,-0.3308,9.5749,-0.0444,0.0163,-0.1106,-2.04531254390859,1.6878395406017915e-17,3.851707935333252,-1.6364887952804565,0.012272023595869541,1.9368575811386108,5.339641797333517,5.797023914055899e-05,0.24944795668125153,-1.559382740651266,-0.0,0.005272363778203726,0.5217503905296326,-0.0,0.0012119589373469353,1.1334960460662842,-6.880599539726973e-05,0.023141270503401756
547.0,707.0,-1.3131,-0.3308,9.5749,-0.0444,0.0163,-0.1106,-2.0452925167479457,0.0006740840035490692,3.9082608222961426,-1.6364492177963257,0.012453148141503334,1.9268808364868164,5.339661884098806,5.2890860388288274e-05,0.25820544362068176,-1.559378449116842,-0.0,-0.015114255249500275,0.5217220187187195,-0.0,-0.0016179393278434873,1.1335443258285522,-7.011645357124507e-05,0.04327034577727318
547.0,707.0,-1.3131,-0.3308,9.5749,-0.0444,0.0163,-0.1106,-2.045333047906393,0.0007467425311915576,3.8755908012390137,-1.6362801790237427,0.0120138730853796,1.910701870918274,5.339649963169851,6.48643690510653e-05,0.25798946619033813,-1.559378449116842,-0.0,0.0012718569487333298,0.5218024253845215,-0.0,0.012094489298760891,1.1334881782531738,-6.665456021437421e-05,-0.0414433628320694
547.0,707.0,-1.3131,-0.3308,9.5749,-0.0444,0.0163,-0.1106,-2.0453692875304164,0.0004001713532488793,3.8469581604003906,-1.6362608671188354,0.009457988664507866,1.9387288093566895,5.3396498439605615,7.333350367844105e-05,0.2631900906562805,-1.5593422094928187,-0.0,0.00486344937235117,0.5217220187187195,-0.0,-0.005249714944511652,1.1335283517837524,-6.427455082302913e-05,0.04355017840862274
547.0,707.0,-1.3131,-0.3308,9.5749,-0.0444,0.0163,-0.1106,-2.045333047906393,0.00020873069297522306,3.896134376525879,-1.636193037033081,0.0058569274842739105,1.9431748390197754,5.3395941136176965,6.894118996569887e-05,0.26411888003349304,-1.5593465010272425,-0.0,-0.01006411388516426,0.521705687046051,-0.0,-0.0015258841449394822,1.1335283517837524,-6.135350849945098e-05,0.039180025458335876
547.0,707.0,-1.3131,-0.3308,9.5749,-0.0444,0.0163,-0.1106,-2.0452925167479457,0.00016876425070222467,3.927356243133545,-1.6361809968948364,0.0034311101771891117,1.8766014575958252,5.339626061707296,6.183534424053505e-05,0.26643094420433044,-1.5593541304217737,-0.0,-0.004886507987976074,0.5217021107673645,-0.0,0.019473914057016373,1.1334680318832397,-2.0247420252417214e-05,-0.017438381910324097
547.0,707.0,-1.3131,-0.3308,9.5749,-0.0444,0.0163,-0.1106,-2.0453573666014613,0.0001350053062196821,3.840054512023926,-1.6361687183380127,0.0013612918555736542,1.8432912826538086,5.3396421549613855,5.4364183597499505e-05,0.26360884308815,-1.5593422094928187,-0.0,-0.004187148995697498,0.5216896533966064,-0.0,0.0019572200253605843,1.1334558725357056,-6.559907239807317e-13,0.02104853093624115
530.0,697.0,-1.2754,-0.1962,9.216,-0.0417,0.0483,-0.1155,-2.0452963314452113,0.00015633624570909888,3.8336634635925293,-1.6361687183380127,0.0007596861105412245,1.9207854270935059,5.339610087662496,7.391902909148484e-05,0.26783156394958496,-1.5593703428851526,-0.0,-0.017923660576343536,0.5217981934547424,-0.0,-0.0028569744899868965,1.1334640979766846,-1.5841403119427803e-18,-0.004038811195641756
530.0,697.0,-1.2754,-0.1962,9.216,-0.0417,0.0483,-0.1155,-2.045333047906393,0.00013333499373402447,3.877558708190918,-1.6361768245697021,0.00040900084422901273,1.8669922351837158,5.339669990330496,6.73140530125238e-05,0.253501832485199,-1.559326473866598,-0.0,-0.007106226868927479,0.5217380523681641,-0.0,-0.0012911140220239758,1.1334881782531738,-5.326707832864486e-05,-0.02085515856742859
530.0,697.0,-1.2754,-0.1962,9.216,-0.0417,0.0483,-0.1155,-2.0452925167479457,0.00012000084097962826,3.8644533157348633,-1.6361809968948364,0.00044491561129689217,1.9140264987945557,5.3396984217460535,6.262951501412317e-05,0.2657439410686493,-1.5593465010272425,-0.0,0.0008421377278864384,0.5217703580856323,-0.0,-0.0030153170228004456,1.133520245552063,-6.132081762189046e-05,0.01876208931207657
530.0,697.0,-1.2754,-0.1962,9.216,-0.0417,0.0483,-0.1155,-2.0452805958189906,3.214063326595351e-05,3.8879995346069336,-1.6361727714538574,0.0004246181051712483,1.8959498405456543,5.339657771378317,7.55103537812829e-05,0.26379334926605225,-1.5593746344195765,-0.0,0.0020556452218443155,0.5216934084892273,-0.0,0.003948367200791836,1.133528470993042,-6.9614608946722e-05,0.030564211308956146
530.0,697.0,-1.2754,-0.1962,9.216,-0.0417,0.0483,-0.1155,-2.045321126977438,2.8121861760155298e-05,3.8628969192504883,-1.6361809968948364,0.0006456245318986475,1.89956796169281,5.339649903565206,7.184071000665426e-05,0.2508586049079895,-1.5593746344195765,-0.0,0.003976446110755205,0.5217703580856323,-0.0,0.011136294342577457,1.1334922313690186,-0.00045128134661354125,-0.010107080452144146
530.0,697.0,-1.2754,-0.1962,9.216,-0.0417,0.0483,-0.1155,-2.04531254390859,2.571164623077493e-05,3.861920118331909,-1.6361241340637207,0.0007640189724043012,1.8551421165466309,5.3396339295204065,6.778264651075006e-05,0.24935361742973328,-1.5593627134906214,-0.0,-0.014636330306529999,0.5217380523681641,-0.0,0.003829576075077057,1.1334279775619507,-0.00097653828561306,-0.0272312480956316
530.0,697.0,-1.2754,-0.1962,9.216,-0.0417,0.0483,-0.1155,-2.0453092060484828,2.3074764612829313e-05,3.8418827056884766,-1.6361209154129028,0.0006919144652783871,1.9289430379867554,5.339653718262472,6.303524423856288e-05,0.2671612501144409,-1.5593465010272425,-0.0,-0.001196076162159443,0.5217580795288086,-0.0,-0.0013437678571790457,1.1334562301635742,-0.0014216561103239655,0.02460407093167305
530.0,697.0,-1.2754,-0.1962,9.216,-0.0417,0.0483,-0.1155,-2.0452972851195277,4.285203613108024e-05,3.910090923309326,-1.6361809968948364,0.0007653615321032703,1.8965365886688232,5.33963023403243,5.988926568534225e-05,0.2688230574131012,-1.5593345800982874,-0.0,-0.01573343761265278,0.521774411201477,-0.0,-0.010252478532493114,1.1334805488586426,-0.0022402359172701836,-0.003378028515726328
530.0,697.0,-1.2754,-0.1962,9.216,-0.0417,0.0483,-0.1155,-2.04528870205068,0.00017152373038697988,3.8438262939453125,-1.636108636856079,0.001010225503705442,1.859480381011963,5.339645850449362,5.615263944491744e-05,0.2610790729522705,-1.5593541304217737,-0.0,-0.014616492204368114,0.5217380523681641,-0.0,0.003996314946562052,1.133396029472351,-0.0029129728209227324,-0.040310848504304886
530.0,697.0,-1.2754,-0.1962,9.216,-0.0417,0.0483,-0.1155,-2.0452972851195277,0.00030321988742798567,3.8572161197662354,-1.6361414194107056,0.001379731111228466,1.91357421875,5.339677858143606,3.985217699664645e-05,0.26348352432250977,-1.5593345800982874,-0.0,-0.009552370756864548,0.5216897130012512,-0.0,0.0035868945997208357,1.133412480354309,-0.003442328190430999,-0.04580966383218765
530.0,697.0,-1.2754,-0.1962,9.216,-0.0417,0.0483,-0.1155,-2.0452729664244593,0.001896462868899107,3.8489480018615723,-1.6360965967178345,0.0014872833853587508,1.8861312866210938,5.3396737454231165,3.660356014734134e-05,0.26466262340545654,-1.559394661580221,-0.0,-0.016367660835385323,0.5217338800430298,-0.0,-0.0009274553740397096,1.1333560943603516,-0.004317667335271835,-0.01663665845990181
530.0,697.0,-1.2754,-0.1962,9.216,-0.0417,0.0483,-0.1155,-2.045220514337057,0.0035347570665180683,3.888990879058838,-1.6360965967178345,0.0015704870456829667,1.9325792789459229,5.339654016285696,5.116512693348341e-05,0.26219817996025085,-1.5593221823321741,-0.0,-0.01647033914923668,0.5217421054840088,-0.0,0.0050245835445821285,1.1333725452423096,-0.004163003992289305,0.009005127474665642
530.0,697.0,-1.2754,-0.1962,9.216,-0.0417,0.0483,-0.1155,-2.045192380944723,0.005657203495502472,3.903512954711914,-1.636056900024414,0.0017691112589091063,1.9089833498001099,5.339637684613027,4.806360448128544e-05,0.2637481093406677,-1.5593746344195765,-0.0,-0.005844771396368742,0.5217781662940979,-0.0,-0.0056963833048939705,1.1333200931549072,-0.0033060950227081776,-0.0033770911395549774
517.0,682.0,-1.1557,-0.3511,9.5186,-0.0444,0.0215,-0.1217,-2.045169015923971,0.0051842182874679565,3.9120633602142334,-1.6360929012298584,0.0014827363193035126,1.9015448093414307,5.3396819708640955,4.562692265608348e-05,0.268125981092453,-1.5593703428851526,-0.0,-0.011443527415394783,0.5217416882514954,-0.0,0.0038573862984776497,1.1333004236221313,-0.0030565308406949043,-0.01734929531812668
517.0,682.0,-1.1557,-0.3511,9.5186,-0.0444,0.0215,-0.1217,-2.045145174066061,0.003537003882229328,3.877610206604004,-1.636101245880127,0.0017534445505589247,1.8785059452056885,5.339625763684072,4.2737960029626265e-05,0.2602921724319458,-1.5593908468829554,-0.0,-0.0138480756431818,0.5217944383621216,-0.0,0.00846234429627657,1.1332921981811523,-0.0025001324247568846,0.008288602344691753
517.0,682.0,-1.1557,-0.3511,9.5186,-0.0444,0.0215,-0.1217,-2.0451089344420375,0.0034838817082345486,3.8950448036193848,-1.6360526084899902,0.00372705003246665,1.894394874572754,5.339653658657827,4.080053258803673e-05,0.2637872099876404,-1.5593627134906214,-0.0,-0.013309633359313011,0.5218063592910767,-0.0,0.0022496525198221207,1.1332602500915527,-0.0020202540326863527,-0.04176407679915428
517.0,682.0,-1.1557,-0.3511,9.5186,-0.0444,0.0215,-0.1217,-2.045117517510885,0.004662239458411932,3.8919408321380615,-1.6359562873840332,0.0053122639656066895,1.961329460144043,5.339653658657827,5.0450387789169326e-05,0.25425606966018677,-1.5593465010272425,-0.0,-0.012460052035748959,0.5217458009719849,-0.0,0.004652813076972961,1.1332483291625977,-0.001599565614014864,-0.02430400438606739
517.0,682.0,-1.1557,-0.3511,9.5186,-0.0444,0.0215,-0.1217,-2.0450531444945277,0.005164645612239838,3.9149374961853027,-1.635916829109192,0.006875691004097462,1.8660790920257568,5.3396655199821375,4.919649654766545e-05,0.26069527864456177,-1.559378449116842,-0.0,0.005770319607108831,0.5217375755310059,-0.0,-0.00039030707557685673,1.1332643032073975,-0.001598766422830522,0.031812045723199844
517.0,682.0,-1.1557,-0.3511,9.5186,-0.0444,0.0215,-0.1217,-2.044997354547018,0.005124438088387251,3.8974368572235107,-1.635888934135437,0.008251771330833435,1.8665709495544434,5.3396819708640955,4.664686639443971e-05,0.26735642552375793,-1.5593097845660608,-0.0,-0.01200883649289608,0.521766185760498,-0.0,0.01245026383548975,1.133260726928711,-0.0018558148294687271,-0.05788755416870117
517.0,682.0,-1.1557,-0.3511,9.5186,-0.0444,0.0215,-0.1217,-2.0449773273863734,0.0041352626867592335,3.88059663772583,-1.6358890533447266,0.008677881211042404,1.9345331192016602,5.339690077095785,4.490148785407655e-05,0.26006990671157837,-1.559366528187887,-0.0,-0.008938567712903023,0.521774411201477,-0.0,-0.005883468315005302,1.1332361698150635,-0.002097521908581257,-0.0017974809743463993
517.0,682.0,-1.1557,-0.3511,9.5186,-0.0444,0.0215,-0.1217,-2.0449091396727503,0.0035553250927478075,3.856527805328369,-1.6357449293136597,0.009398183785378933,1.9511127471923828,5.339681851654806,4.276779873180203e-05,0.2725394070148468,-1.5593426863299769,-0.0,-0.012262380681931973,0.5217621326446533,-0.0,-0.004722374491393566,1.1332526206970215,-0.0024420334957540035,-0.024935031309723854
517.0,682.0,-1.1557,-0.3511,9.5186,-0.0444,0.0215,-0.1217,-2.0449053249754847,0.0051138815470039845,3.9044299125671387,-1.6357489824295044,0.010073489509522915,1.9093437194824219,5.339669692307272,5.153117672307417e-05,0.27425891160964966,-1.5593345800982874,-0.0,-0.02315720170736313,0.5217138528823853,-0.0,-0.005276588257402182,1.1331801414489746,-0.0028606210835278034,-0.004983808379620314
517.0,682.0,-1.1557,-0.3511,9.5186,-0.0444,0.0215,-0.1217,-2.04488529781484,0.00633468059822917,3.885009765625,-1.635612964630127,0.010511530563235283,1.9741296768188477,5.339645373612203,6.42777149550966e-06,0.26362982392311096,-1.559326473866598,-0.0,-0.024631280452013016,0.5217301845550537,-0.0,0.0005429321900010109,1.1331560611724854,-0.00309473043307662,0.016306106001138687
517.0,682.0,-1.1557,-0.3511,9.5186,-0.0444,0.0215,-0.1217,-2.0448419056334437,0.007387945428490639,3.887207508087158,-1.6355290412902832,0.01024780422449112,1.8954172134399414,5.339702057629385,1.7891939041447813e-09,0.26132115721702576,-1.5593541304217737,-2.7604387469182257e-06,-0.003330166917294264,0.5217702984809875,-0.0,-0.005687752738595009,1.1331560611724854,-0.003019933123141527,-0.024511370807886124
517.0,682.0,-1.1557,-0.3511,9.5186,-0.0444,0.0215,-0.1217,-2.0447575054564417,0.007499903906136751,3.8867640495300293,-1.6354848146438599,0.008688872680068016,1.9218051433563232,5.339629399567404,8.104262087726966e-05,0.24728739261627197,-1.5593388716327112,-5.0169611520711754e-11,-0.020587433129549026,0.521766185760498,-0.0,-0.0046984548680484295,1.1331162452697754,-0.0029714470729231834,-0.008422359824180603
517.0,682.0,-1.1557,-0.3511,9.5186,-0.0444,0.0215,-0.1217,-2.044737478295797,0.007471151649951935,3.811048984527588,-1.6353803873062134,0.0070062922313809395,1.9331207275390625,5.339681851654806,7.689051562920213e-05,0.24184595048427582,-1.5593465010272425,-1.3964897523143036e-14,-0.01150501985102892,0.5217138528823853,-0.0,0.003954174928367138,1.1331285238265991,-0.0029413942247629166,0.002935885451734066
488.0,696.0,-1.3681,-0.1687,9.7872,-0.04,0.0409,-0.1173,-2.0446979008116664,0.007037160452455282,3.8558104038238525,-1.6354050636291504,0.004180975258350372,1.9109582901000977,5.33969013670043,7.197140803327784e-05,0.2645791172981262,-1.5593627134906214,-2.5380509396995845e-19,-0.010415631346404552,0.521782636642456,-0.0,-0.0018343175761401653,1.1331123113632202,-0.002597281476482749,-0.06215281039476395
488.0,696.0,-1.3681,-0.1687,9.7872,-0.04,0.0409,-0.1173,-2.0446540317931117,0.006257875822484493,3.9238200187683105,-1.6354050636291504,0.002631900832056999,1.9095606803894043,5.339649545937338,6.867632328066975e-05,0.2534128427505493,-1.5593422094928187,-7.064759325943296e-23,0.0008578565320931375,0.5217621326446533,-0.0,0.0024976138956844807,1.1330437660217285,-0.0019545643590390682,0.013619516976177692
488.0,696.0,-1.3681,-0.1687,9.7872,-0.04,0.0409,-0.1173,-2.0445696316161097,0.005699987057596445,3.873295307159424,-1.6353368759155273,0.0011188817443326116,1.88518226146698,5.3396737454231165,6.472512905020267e-05,0.2537705898284912,-1.5593221823321741,-1.2839852345964017e-27,0.0012501045130193233,0.5218104124069214,-0.0,0.002092215232551098,1.1330881118774414,-0.0012870978098362684,0.04448951408267021
488.0,696.0,-1.3681,-0.1687,9.7872,-0.04,0.0409,-0.1173,-2.0445338688292445,0.005344839300960302,3.9034624099731445,-1.6354132890701294,0.000729671330191195,1.9065096378326416,5.3397061107452295,6.204775854712352e-05,0.2539263069629669,-1.5593627134906214,-3.5740198089152457e-31,-0.0050323293544352055,0.5217421650886536,-0.0,-0.003436972387135029,1.1330318450927734,-0.0009312008041888475,-0.04790213704109192
488.0,696.0,-1.3681,-0.1687,9.7872,-0.04,0.0409,-0.1173,-2.044542451898092,0.0035339181777089834,3.8413796424865723,-1.6354174613952637,0.0004985790583305061,1.8936257362365723,5.339669692307272,5.8804504078580067e-05,0.24807323515415192,-1.5593984762774866,-6.495604999313857e-36,-0.013352572917938232,0.5217781066894531,-0.0,0.0016554722096771002,1.1330642700195312,-0.0004083866369910538,-0.009504342451691628
488.0,696.0,-1.3681,-0.1687,9.7872,-0.04,0.0409,-0.1173,-2.0444938145079554,0.00226885755546391,3.849076747894287,-1.6354495286941528,0.00012892199447378516,1.8645436763763428,5.339661407261648,5.658619193127379e-05,0.2653915286064148,-1.559326473866598,-1.808075790339811e-39,0.008857185952365398,0.5216696262359619,-0.0,-0.010608076117932796,1.1330881118774414,-0.0002547095064073801,-0.034992143511772156
488.0,696.0,-1.3681,-0.1687,9.7872,-0.04,0.0409,-0.1173,-2.044509550134176,0.000960793811827898,3.8833084106445312,-1.6354330778121948,0.00010019638284575194,1.897404432296753,5.339722144394674,5.3876319725532085e-05,0.23711995780467987,-1.5593584219561976,-3.2229864679470793e-44,-0.00019862409681081772,0.52171391248703,-0.0,0.01515086367726326,1.1331404447555542,0.00022750893549527973,-0.006901869550347328
488.0,696.0,-1.3681,-0.1687,9.7872,-0.04,0.0409,-0.1173,-2.044473787347311,0.0006263169925659895,3.9014763832092285,-1.6354050636291504,8.5857005615253e-05,1.9080569744110107,5.339694249420919,5.2008297643624246e-05,0.26441216468811035,-1.5593422094928187,-0.0,-0.01369701512157917,0.5217220187187195,-0.0,-0.004108036868274212,1.133063793182373,0.001037910464219749,0.025873567909002304
488.0,696.0,-1.3681,-0.1687,9.7872,-0.04,0.0409,-0.1173,-2.044525762597555,0.00042776638292707503,3.8347713947296143,-1.6354132890701294,3.60503836418502e-05,1.9257134199142456,5.3396978853042505,4.97102846566122e-05,0.24772003293037415,-1.5594103972064417,-0.0,0.011524014174938202,0.521766185760498,-0.0,0.0015613955911248922,1.1331204175949097,0.0009512329706922174,0.04132220894098282
488.0,696.0,-1.3681,-0.1687,9.7872,-0.04,0.0409,-0.1173,-2.044509550134176,0.00040321043343283236,3.7972240447998047,-1.6353812217712402,3.218260462745093e-05,1.9481201171875,5.339697825699606,1.3837039070097035e-08,0.24509334564208984,-1.559366528187887,-0.0,-0.0024116458371281624,0.5216938853263855,-0.0,-0.013653550297021866,1.1331642866134644,0.0006987487431615591,0.012617195956408978
488.0,696.0,-1.3681,-0.1687,9.7872,-0.04,0.0409,-0.1173,-2.044525762597555,0.00032101990655064583,3.8950881958007812,-1.6354132890701294,1.8551913338882287e-09,1.8321430683135986,5.3396737454231165,2.5148137153437056e-13,0.2720275819301605,-1.5593865553485315,-0.0,0.0016549862921237946,0.5217020511627197,-0.0,-0.0010201423428952694,1.1331360340118408,0.0006105590728111565,-0.009963025338947773
488.0,696.0,-1.3681,-0.1687,9.7872,-0.04,0.0409,-0.1173,-2.044530054131979,0.0002784502867143601,3.857452869415283,-1.6354050636291504,4.480069489893506e-15,1.905618667602539,5.339669692307272,7.00007681422308e-17,0.258260041475296,-1.5593703428851526,-0.0,-0.007037641480565071,0.52171391248703,-6.705707100707059e-09,0.010197342373430729,1.1331360340118408,0.0004887573304586112,0.0015050247311592102
488.0,696.0,-1.3681,-0.1687,9.7872,-0.04,0.0409,-0.1173,-2.0445505581297816,0.000270418036961928,3.8736534118652344,-1.6354411840438843,1.451485385380426e-22,1.9260494709014893,5.339653718262472,1.2722291266297195e-21,0.2659497857093811,-1.5593746344195765,-0.0,0.00679894769564271,0.5217384099960327,-1.2187294359464196e-13,0.011983879841864109,1.133116364479065,0.0002949869376607239,-0.019683003425598145
485.0,683.0,-1.5296,-0.3595,9.6849,-0.0351,0.0266,-0.1037,-2.0444776020445765,0.00017597698024474084,3.840786933898926,-1.6353689432144165,3.50516649873052e-28,1.8995870351791382,5.3396655199821375,3.541296197226406e-25,0.26258695125579834,-1.5593703428851526,-0.0,-0.0025975315365940332,0.5217180252075195,-3.3923782034098036e-17,-0.0037011252716183662,1.1331843137741089,0.0002957313263323158,-0.02153363823890686
485.0,683.0,-1.5296,-0.3595,9.6849,-0.0351,0.0266,-0.1037,-2.044558664361471,0.00014534643560182303,3.8216848373413086,-1.6354411840438843,1.1356292076584359e-35,1.8492473363876343,5.339693712979116,6.436130616514873e-30,0.2502197325229645,-1.559406582509176,-0.0,0.007167038507759571,0.521726131439209,-6.1654798558789435e-22,0.007026024162769318,1.1331560611724854,0.00024260477221105248,0.012886331416666508
485.0,683.0,-1.5296,-0.3595,9.6849,-0.0351,0.0266,-0.1037,-2.0445624790587367,0.00013250659685581923,3.8665127754211426,-1.6354568004608154,2.742341094683667e-41,1.9142799377441406,5.339681851654806,1.7915204305653615e-33,0.2521791458129883,-1.5593703428851526,-0.0,0.011266026645898819,0.5217301845550537,-1.7161842789001293e-25,-0.003911359701305628,1.1331843137741089,0.000249413336860016,-0.036389388144016266
485.0,683.0,-1.5296,-0.3595,9.6849,-0.0351,0.0266,-0.1037,-2.044521471063131,0.00011854395415866747,3.8506717681884766,-1.635388731956482,-0.0007313137757591903,1.8521850109100342,5.339681851654806,3.2560002189874934e-38,0.25218355655670166,-1.5593746344195765,-0.0,0.013557598926126957,0.5216978788375854,-0.00025976161123253405,-0.007281121332198381,1.1332085132598877,0.00024606313672848046,-0.026025153696537018
485.0,683.0,-1.5296,-0.3595,9.6849,-0.0351,0.0266,-0.1037,-2.044558187524313,8.789349521975964e-05,3.850088119506836,-1.6354773044586182,-0.0009368294267915189,1.855424404144287,5.339681851654806,9.063598467252917e-42,0.25036120414733887,-1.5593746344195765,-0.0,0.014172930270433426,0.5216782093048096,-0.00023611470533069223,-0.015261730179190636,1.13316011428833,0.00022319494746625423,-0.041740939021110535
485.0,683.0,-1.5296,-0.3595,9.6849,-0.0351,0.0266,-0.1037,-2.044554372827047,-0.00013952939480077475,3.876309394836426,-1.6354166269302368,-0.0004741132725030184,1.920637607574463,5.339725780278005,0.0,0.24970997869968414,-1.5593703428851526,-0.0,0.019868381321430206,0.5217543840408325,-0.00020096257503610104,-0.00016095535829663277,1.13316011428833,0.0001977326173800975,-0.009441955015063286
485.0,683.0,-1.5296,-0.3595,9.6849,-0.0351,0.0266,-0.1037,-2.044525762597555,-0.00020840689830947667,3.8913450241088867,-1.6354289054870605,-0.00035365080111660063,1.851058006286621,5.339702057629385,0.0,0.25701165199279785,-1.5593541304217737,-0.0,0.007069144397974014,0.5217621326446533,-0.00018077627464663237,-0.002664499683305621,1.133188009262085,0.00020508399757090956,-0.0052743698470294476
485.0,683.0,-1.5296,-0.3595,9.6849,-0.0351,0.0266,-0.1037,-2.044565816918844,-0.0006258785724639893,3.854956865310669,-1.6354527473449707,-0.00032286508940160275,1.9117668867111206,5.33968602397994,0.0,0.25860297679901123,-1.5593822638141077,-0.0,0.011632246896624565,0.5217061042785645,-0.00018508601351641119,-0.005113091319799423,1.1332004070281982,0.0008104134467430413,0.013067848049104214
485.0,683.0,-1.5296,-0.3595,9.6849,-0.0351,0.0266,-0.1037,-2.0445739231505335,-0.0004643774882424623,3.842851161956787,-1.6354526281356812,-0.00027375618810765445,1.9070243835449219,5.3396978853042505,0.0,0.26252323389053345,-1.5593741575824183,-0.0,-0.0011822478845715523,0.521734356880188,-0.00017086176376324147,-0.010732114315032959,1.1332483291625977,0.002739239949733019,0.027999501675367355
485.0,683.0,-1.5296,-0.3595,9.6849,-0.0351,0.0266,-0.1037,-2.0445782146849574,-0.00028795062098652124,3.856180429458618,-1.6354128122329712,-0.00015327769506257027,1.884476661682129,5.339669692307272,0.0,0.2543390095233917,-1.5593984762774866,-0.0,0.02547697350382805,0.5217663645744324,-0.00015413925575558096,-0.01524187158793211,1.133284091949463,0.007855908013880253,-0.03825591504573822
485.0,683.0,-1.5296,-0.3595,9.6849,-0.0351,0.0266,-0.1037,-2.044593950311178,-0.0002415467897662893,3.858600616455078,-1.6354495286941528,-0.00010104393732035533,1.9173874855041504,5.339661824494161,0.0,0.24196971952915192,-1.559389893208639,-0.0,0.01729400083422661,0.521710216999054,-0.00014359827036969364,-0.004129879642277956,1.1333601474761963,0.012547392398118973,0.005668247118592262
485.0,683.0,-1.5296,-0.3595,9.6849,-0.0351,0.0266,-0.1037,-2.0445662937560023,-0.00015907861234154552,3.817493438720703,-1.6354128122329712,0.0001309850049437955,1.9012367725372314,5.339673685818472,0.0,0.26331087946891785,-1.5593741575824183,-0.0,0.010783398523926735,0.5216860175132751,-0.0001315994595643133,0.0013220934197306633,1.1334964036941528,0.014449374750256538,-0.02449134923517704
477.0,679.0,-1.3902,-0.9003,9.8608,-0.0478,0.031,-0.1124,-2.0445662937560023,-0.00014045783609617501,3.8812477588653564,-1.6353973150253296,0.0023720290046185255,1.932974934577942,5.339677738934316,0.0,0.2613024115562439,-1.5594022909747522,-0.0,0.014936446212232113,0.5216577649116516,-0.00012383857392705977,-0.006644151173532009,1.1335880756378174,0.015781959518790245,-0.02724919281899929
477.0,679.0,-1.3902,-0.9003,9.8608,-0.0478,0.031,-0.1124,-2.0445133648314417,-0.00012573963613249362,3.856130838394165,-1.6354055404663086,0.003349585924297571,1.8908443450927734,5.33969013670043,0.0,0.2514735162258148,-1.5594189802752894,-0.0,0.01757621020078659,0.5216896533966064,-0.00011694226850522682,-0.004476829431951046,1.1336838006973267,0.017738433554768562,0.03536570444703102
477.0,679.0,-1.3902,-0.9003,9.8608,-0.0478,0.031,-0.1124,-2.0445500812926234,-0.00011032557813450694,3.8345913887023926,-1.6353093385696411,0.0034957427997142076,1.8334705829620361,5.339690077095785,0.0,0.257607102394104,-1.55943471590151,-0.0,0.006744573824107647,0.5216782093048096,-0.00010885947267524898,-0.00258858734741807,1.1338117122650146,0.019587429240345955,0.032369956374168396
477.0,679.0,-1.3902,-0.9003,9.8608,-0.0478,0.031,-0.1124,-2.044570108453268,-0.00010103631211677566,3.8364486694335938,-1.6353129148483276,0.003410942852497101,1.8904216289520264,5.339702057629385,0.0,0.2610495686531067,-1.559406582509176,-0.0,0.01431366428732872,0.5216740965843201,-0.00010349442163715139,-0.011336954310536385,1.1340161561965942,0.022936450317502022,0.03402385115623474
477.0,679.0,-1.3902,-0.9003,9.8608,-0.0478,0.031,-0.1124,-2.0445739231505335,-9.094068082049489e-05,3.8879411220550537,-1.6352449655532837,0.0035682953894138336,1.9176055192947388,5.3396978853042505,0.0,0.2565103769302368,-1.5593822638141077,-0.0,0.020784245803952217,0.521701991558075,-0.00011086606536991894,-0.022013895213603973,1.1341843605041504,0.023210931569337845,0.08225421607494354
477.0,679.0,-1.3902,-0.9003,9.8608,-0.0478,0.031,-0.1124,-2.044549604455465,-2.3814072847017087e-05,3.7970223426818848,-1.6353013515472412,0.003703777212649584,1.9112756252288818,5.339657771378317,0.0,0.2413773238658905,-1.5593779722796839,-0.0,0.011764856055378914,0.5217261910438538,-0.00010608055163174868,-0.006261392962187529,1.1342840194702148,0.022166723385453224,0.041463106870651245
477.0,679.0,-1.3902,-0.9003,9.8608,-0.0478,0.031,-0.1124,-2.044525762597555,-4.296801853342913e-05,3.8481059074401855,-1.6352851390838623,0.0026256802957504988,1.9205601215362549,5.339681851654806,0.0,0.24808448553085327,-1.5594022909747522,-0.0,0.014661319553852081,0.5217384099960327,-8.468541636830196e-05,-0.015535884536802769,1.134443998336792,0.019193977117538452,0.021144740283489227
477.0,679.0,-1.3902,-0.9003,9.8608,-0.0478,0.031,-0.1124,-2.0445977650084437,-4.018481558887288e-05,3.83081316947937,-1.635249137878418,0.0019654149655252695,1.9012417793273926,5.339702057629385,0.0,0.2307967096567154,-1.5593460241900843,-0.0,0.022394513711333275,0.521701991558075,-7.80959744588472e-05,-0.007092769723385572,1.1344959735870361,0.01494024321436882,-0.023111049085855484
477.0,679.0,-1.3902,-0.9003,9.8608,-0.0478,0.031,-0.1124,-2.0445696316161097,-5.533574221772142e-05,3.87573504447937,-1.6352248191833496,0.0014097171369940042,1.8911857604980469,5.339637684613027,0.0,0.24772581458091736,-1.5593584219561976,-0.0,0.016099492087960243,0.5217101573944092,-7.302587619051337e-05,-0.009464265778660774,1.1346399784088135,0.008175923489034176,-0.05016356334090233
477.0,679.0,-1.3902,-0.9003,9.8608,-0.0478,0.031,-0.1124,-2.044541975060934,-5.213058466324583e-05,3.8505444526672363,-1.6351850032806396,0.001585835823789239,1.8615739345550537,5.339613842755117,0.0,0.23990628123283386,-1.5593822638141077,-0.0,0.002695963252335787,0.5216941833496094,-8.354698366019875e-05,-0.007666788529604673,1.1346076726913452,0.003616971429437399,0.002794954925775528
477.0,679.0,-1.3902,-0.9003,9.8608,-0.0478,0.031,-0.1124,-2.044570108453268,-8.596980478614569e-05,3.830981731414795,-1.6351284980773926,0.003628815757110715,1.8986797332763672,5.339645433216848,0.0,0.24978984892368317,-1.5593903700457972,-0.0,0.007173113524913788,0.5216941833496094,-7.869188266340643e-05,-0.010136628523468971,1.1346240043640137,0.0005297798779793084,0.05193191394209862
477.0,679.0,-1.3902,-0.9003,9.8608,-0.0478,0.031,-0.1124,-2.0445906124510707,-3.761894549825229e-05,3.894987106323242,-1.6351693868637085,0.005905650090426207,1.9151455163955688,5.339681911259451,0.0,0.2373943030834198,-1.5593622366534632,-0.0,0.011399985291063786,0.5217142701148987,-8.794750465312973e-05,-0.011049564927816391,1.1345957517623901,-0.00041822786442935467,-0.026267804205417633
477.0,679.0,-1.3902,-0.9003,9.8608,-0.0478,0.031,-0.1124,-2.0445338688292445,-2.995867443011946e-11,3.8894336223602295,-1.6350007057189941,0.010880264453589916,1.930246114730835,5.339726197510519,0.0,0.25281742215156555,-1.5594022909747522,-0.0,0.009891624562442303,0.5216618180274963,-9.442276495974511e-05,-0.023707374930381775,1.1346039772033691,-0.001127595896832645,0.012916574254631996
489.0,672.0,-1.4638,0.2782,9.7962,-0.0206,0.0226,-0.097,-2.044554372827047,-7.23466788292108e-17,3.8914194107055664,-1.6350017786026,0.01500624231994152,1.8511016368865967,5.339653718262472,0.0,0.24415728449821472,-1.559406582509176,-0.0,0.03173011168837547,0.5216901302337646,-9.157712338492274e-05,-0.021053625270724297,1.13461172580719,-0.0010358969448134303,0.004921816289424896
489.0,672.0,-1.4638,0.2782,9.7962,-0.0206,0.0226,-0.097,-2.044525762597555,-2.3439404355309293e-24,3.923100709915161,-1.634808897972107,0.021374961361289024,1.959773302078247,5.339661824494161,0.0,0.2564208209514618,-1.5594108740436,-0.0,0.011380041018128395,0.5216295123100281,-0.0001570988242747262,-0.012802246026694775,1.1346280574798584,-0.0005858559161424637,-0.0010608043521642685
489.0,672.0,-1.4638,0.2782,9.7962,-0.0206,0.0226,-0.097,-2.0445577106871546,-5.660340832316813e-30,3.87263822555542,-1.6346644163131714,0.024394426494836807,1.9400514364242554,5.339677858143606,0.0,0.23972921073436737,-1.5594108740436,-0.0,0.013497058302164078,0.5216982960700989,-0.00016688463801983744,-0.015986090525984764,1.1346163749694824,-0.0004419478646013886,-0.02445586398243904
489.0,672.0,-1.4638,0.2782,9.7962,-0.0206,0.0226,-0.097,-2.0445219479002894,-1.8338787397425024e-37,3.8665127754211426,-1.6344612836837769,0.029506130144000053,1.9841372966766357,5.339645850449362,0.0,0.2619481086730957,-1.5594108740436,-0.0,0.006924949586391449,0.5216781497001648,-0.00015149543469306082,-0.019637444987893105,1.1345956325531006,-0.0003329305909574032,0.018853118643164635
489.0,672.0,-1.4638,0.2782,9.7962,-0.0206,0.0226,-0.097,-2.044598241845602,-4.428103147266422e-43,3.861701250076294,-1.6343090534210205,0.03251975402235985,1.999927043914795,5.339661884098806,0.0,0.2758549749851227,-1.5593822638141077,-0.0,0.003934906795620918,0.5216860175132751,-0.00013973396562505513,-0.020885303616523743,1.1345633268356323,-0.0003690312150865793,0.01610235683619976
489.0,672.0,-1.4638,0.2782,9.7962,-0.0206,0.0226,-0.097,-2.044553895989889,0.0,3.8580312728881836,-1.6340292692184448,0.03838125616312027,2.012120246887207,5.339698242932119,0.0,0.2835778295993805,-1.559406582509176,-0.0,0.0020869371946901083,0.5217220783233643,-0.00012662647350225598,-0.009338518604636192,1.134507656097412,-0.001663926406763494,0.07754750549793243
489.0,672.0,-1.4638,0.2782,9.7962,-0.0206,0.0226,-0.097,-2.0445176563658656,0.0,3.839426040649414,-1.633760929107666,0.046216681599617004,2.0227627754211426,5.339661824494161,0.0,0.26871997117996216,-1.5593941847430628,-0.0,0.0030547829810529947,0.5216782093048096,-0.00011830356379505247,-0.018593652173876762,1.1344996690750122,-0.0028365235775709152,0.0291530080139637
489.0,672.0,-1.4638,0.2782,9.7962,-0.0206,0.0226,-0.097,-2.0445577106871546,0.0,3.8606066703796387,-1.633248209953308,0.0579732283949852,2.0304596424102783,5.339661884098806,0.0,0.2677299976348877,-1.5594466368304651,-0.0,-0.0037713213823735714,0.5217065215110779,-0.00010877149907173589,-0.022184807807207108,1.1345242261886597,-0.0026845200918614864,0.06845981627702713
489.0,672.0,-1.4638,0.2782,9.7962,-0.0206,0.0226,-0.097,-2.044650217095846,0.0,3.8354554176330566,-1.6329569816589355,0.0689036026597023,2.0648980140686035,5.339642095356741,0.0,0.2651333808898926,-1.5594146887408655,-0.0,0.00013483177463058382,0.5216777324676514,-0.00010257295798510313,-0.013980708085000515,1.1345161199569702,-0.0013599859084933996,0.01984979771077633
489.0,672.0,-1.4638,0.2782,9.7962,-0.0206,0.0226,-0.097,-2.044610162774557,0.0,3.815765380859375,-1.6323251724243164,0.08447746187448502,2.091885805130005,5.339629876404562,0.0,0.26210108399391174,-1.5594108740436,-0.0,-0.003497249446809292,0.5217061042785645,-9.532956028124318e-05,-0.0015018379781395197,1.134447693824768,-0.00029927087598480284,0.09640128910541534
489.0,672.0,-1.4638,0.2782,9.7962,-0.0206,0.0226,-0.097,-2.0446020565428675,0.0,3.8120784759521484,-1.6317931413650513,0.09900335967540741,2.0745272636413574,5.339557575970449,0.0,0.2653874158859253,-1.5594189802752894,-0.0,-0.006516449619084597,0.5217101573944092,-9.053462417796254e-05,-0.01886320859193802,1.1345000267028809,-6.567768906506899e-08,0.13880014419555664
489.0,672.0,-1.4638,0.2782,9.7962,-0.0206,0.0226,-0.097,-2.0446139774718226,0.0,3.8466134071350098,-1.6308362483978271,0.11787258088588715,2.1259536743164062,5.339610087662496,8.151349595308943e-10,0.25324225425720215,-1.5593860785113733,-0.0,0.0002007486909860745,0.5216537714004517,-8.484465070068836e-05,-0.0027571602258831263,1.1345242261886597,-2.1278736066866538e-15,0.14723937213420868
