ramyac6/ROB537/final_project/csv/all/good_68.csv
tof_0,tof_1,accelx,accely,accelz,gyrox,gyroy,gyroz,shoulder_lift_joint_position,shoulder_lift_joint_velocity,shoulder_lift_joint_effort,elbow_joint_position,elbow_joint_velocity,elbow_joint_effort,wrist_1_joint_position,wrist_1_joint_velocity,wrist_1_joint_effort,wrist_2_joint_position,wrist_2_joint_velocity,wrist_2_joint_effort,wrist_3_joint_position,wrist_3_joint_velocity,wrist_3_joint_effort,shoulder_pan_joint_position,shoulder_pan_joint_velocity,shoulder_pan_joint_effort
243.0,254.0,-4.5494,0.2177,8.7123,-0.0347,0.0215,-0.1194,-2.1992627582945765,0.0,4.363381385803223,-1.5156828165054321,-0.0,1.84366774559021,5.63389544466094,0.0,0.20814260840415955,-1.624653164540426,0.0,0.0016713321674615145,0.7013559937477112,0.0,-0.0022331788204610348,0.8961324691772461,0.0,-0.0018859817646443844
243.0,254.0,-4.5494,0.2177,8.7123,-0.0347,0.0215,-0.1194,-2.19924320797109,0.0,4.360625743865967,-1.5156912803649902,-0.0,1.7753913402557373,5.6338631985481165,0.0,0.22159165143966675,-1.624653164540426,0.0,0.0056900568306446075,0.7012712955474854,0.0,0.00034574326127767563,0.8961525559425354,0.0,-0.019384464249014854
243.0,254.0,-4.5494,0.2177,8.7123,-0.0347,0.0215,-0.1194,-2.1993147335448207,0.0,4.325242042541504,-1.5156912803649902,-0.0,1.8262892961502075,5.633830714016714,0.0,0.22221821546554565,-1.6246894041644495,0.0,-0.007777347229421139,0.7012588977813721,0.0,0.0024193073622882366,0.8961644768714905,0.0,-0.0048516071401536465
243.0,254.0,-4.5494,0.2177,8.7123,-0.0347,0.0215,-0.1194,-2.199294706384176,0.0,4.376798629760742,-1.5156351327896118,-0.0,1.8389450311660767,5.633847164898672,0.0,0.22001111507415771,-1.6246774832354944,0.0,-0.0013654730282723904,0.7012789845466614,0.0,0.01382063515484333,0.8961890339851379,0.0,0.045796412974596024
243.0,254.0,-4.5494,0.2177,8.7123,-0.0347,0.0215,-0.1194,-2.1992985210814417,0.0,4.428168773651123,-1.515687346458435,-0.0,1.8059773445129395,5.633899497776785,0.0,0.22843396663665771,-1.62468129793276,0.0,-0.004066625144332647,0.7012588977813721,0.0,7.963157258927822e-05,0.8961204886436462,0.0,0.014072897844016552
243.0,254.0,-4.5494,0.2177,8.7123,-0.0347,0.0215,-0.1194,-2.1992551289000453,0.0,4.373882293701172,-1.515687346458435,-0.0,1.8370695114135742,5.633899199753561,0.0,0.20794925093650818,-1.6247137228595179,0.0,-0.0008223247714340687,0.7012552618980408,0.0,0.009846996515989304,0.8961041569709778,0.0,-0.024213939905166626
243.0,254.0,-4.5494,0.2177,8.7123,-0.0347,0.0215,-0.1194,-2.1992389164366664,0.0,4.346606254577637,-1.515702724456787,-0.0,1.8598253726959229,5.633867192059316,0.0,0.22128427028656006,-1.6247056166278284,0.0,-0.003375743515789509,0.7012794017791748,0.0,-0.002865099348127842,0.8961727023124695,0.0,-0.04882727935910225
243.0,254.0,-4.5494,0.2177,8.7123,-0.0347,0.0215,-0.1194,-2.1993147335448207,0.0,4.362076759338379,-1.5156549215316772,-0.0,1.864013433456421,5.633899199753561,0.0,0.21509043872356415,-1.6246736685382288,0.0,-3.4516153391450644e-05,0.7012954354286194,0.0,-0.004240415059030056,0.8961324691772461,0.0,-0.014203215017914772
240.0,254.0,-4.5093,0.2034,8.7553,-0.0342,0.0228,-0.1148,-2.199306627313131,0.0,4.358297348022461,-1.5156627893447876,-0.0,1.829541563987732,5.633871304779806,0.0,0.218501478433609,-1.6246450583087366,0.0,-0.01966855302453041,0.7012952566146851,0.0,0.008825613185763359,0.8961365222930908,0.0,-0.0047905296087265015
240.0,254.0,-4.5093,0.2034,8.7553,-0.0342,0.0228,-0.1148,-2.199242731133932,0.0,4.368717670440674,-1.5156868696212769,-0.0,1.8106715679168701,5.633891391545095,0.0,0.2340623140335083,-1.6246774832354944,0.0,0.009229481220245361,0.7012789845466614,0.0,-0.005552220158278942,0.8961644768714905,0.0,-0.020342618227005005
240.0,254.0,-4.5093,0.2034,8.7553,-0.0342,0.0228,-0.1148,-2.1993147335448207,0.0,4.390114784240723,-1.5156832933425903,-0.0,1.7769219875335693,5.6338873384292505,0.0,0.2134631872177124,-1.6246851126300257,0.0,-0.003251671092584729,0.7012192606925964,0.0,0.008355628699064255,0.8961243629455566,0.0,0.00977636594325304
240.0,254.0,-4.5093,0.2034,8.7553,-0.0342,0.0228,-0.1148,-2.1992508373656214,0.0,4.3451690673828125,-1.5156627893447876,-0.0,1.79691743850708,5.63390331247405,0.0,0.22266030311584473,-1.6246493498431605,0.0,-0.002896561287343502,0.7012024521827698,0.0,0.00934904906898737,0.8961041569709778,0.0,-0.006061465945094824
240.0,254.0,-4.5093,0.2034,8.7553,-0.0342,0.0228,-0.1148,-2.199258943597311,0.0,4.365754127502441,-1.515678882598877,-0.0,1.7614896297454834,5.633863436966696,0.0,0.20770946145057678,-1.6246894041644495,0.0,0.008011579513549805,0.7012589573860168,0.0,0.006624673493206501,0.8961480855941772,0.0,-0.01103147678077221
240.0,254.0,-4.5093,0.2034,8.7553,-0.0342,0.0228,-0.1148,-2.199230810204977,0.0,4.3674187660217285,-1.5157147645950317,-0.0,1.8411970138549805,5.633855271130361,0.0,0.2165234088897705,-1.6246374289142054,0.0,-0.013063265942037106,0.7012995481491089,0.0,0.008597290143370628,0.8961164355278015,0.0,0.009413882158696651
240.0,254.0,-4.5093,0.2034,8.7553,-0.0342,0.0228,-0.1148,-2.199334760705465,0.0,4.298861980438232,-1.515738606452942,-0.0,1.8049838542938232,5.633855271130361,0.0,0.21042391657829285,-1.624669377003805,0.0,-0.011470969766378403,0.7013198733329773,0.0,0.0011712424457073212,0.89616858959198,0.0,0.0028027519583702087
240.0,254.0,-4.5093,0.2034,8.7553,-0.0342,0.0228,-0.1148,-2.19932283977651,0.0,4.382809638977051,-1.515650987625122,-0.0,1.8427164554595947,5.633883225708761,0.0,0.23083904385566711,-1.6246450583087366,0.0,-0.008522182703018188,0.7012872695922852,0.0,0.010058666579425335,0.8961604237556458,0.0,-0.005327129736542702
240.0,254.0,-4.5093,0.2034,8.7553,-0.0342,0.0228,-0.1148,-2.1992746792235316,0.0,4.377164363861084,-1.5156631469726562,-0.0,1.804891586303711,5.63389544466094,0.0,0.22206240892410278,-1.6246894041644495,0.0,0.002128185937181115,0.7013198733329773,0.0,0.00044832739513367414,0.8961848616600037,0.0,-0.022006798535585403
240.0,254.0,-4.5093,0.2034,8.7553,-0.0342,0.0228,-0.1148,-2.199270864526266,0.0,4.33754301071167,-1.5156986713409424,-0.0,1.8685332536697388,5.633867192059316,0.0,0.22107037901878357,-1.624653164540426,0.0,-0.008494827896356583,0.7012872695922852,0.0,0.010082343593239784,0.8961525559425354,0.0,-0.0006534410640597343
240.0,254.0,-4.5093,0.2034,8.7553,-0.0342,0.0228,-0.1148,-2.199247022668356,0.0,4.345106601715088,-1.515702724456787,-0.0,1.8200757503509521,5.633871245175161,0.0,0.22398614883422852,-1.6246450583087366,0.0,-0.011791486293077469,0.7013239860534668,0.0,0.0008290507830679417,0.8961365222930908,0.0,0.013203535228967667
240.0,254.0,-4.5093,0.2034,8.7553,-0.0342,0.0228,-0.1148,-2.199258943597311,0.0,4.390873908996582,-1.5157114267349243,-0.0,1.8730528354644775,5.633960175305166,0.0,0.22569842636585236,-1.624653164540426,0.0,-0.0018932531820610166,0.7013117671012878,0.0,0.01538736280053854,0.8961123824119568,0.0,-0.007154534570872784
240.0,254.0,-4.5093,0.2034,8.7553,-0.0342,0.0228,-0.1148,-2.199247022668356,0.0,4.355892658233643,-1.5156986713409424,-0.0,1.8125598430633545,5.633879411011495,0.0,0.23002003133296967,-1.6246655623065394,0.0,-0.0038736804854124784,0.7012830972671509,0.0,-0.001333765685558319,0.8961283564567566,0.0,0.019455939531326294
240.0,254.0,-4.5093,0.2034,8.7553,-0.0342,0.0228,-0.1148,-2.1992908916869105,0.0,4.403110980987549,-1.5156912803649902,-0.0,1.786489486694336,5.63389544466094,0.0,0.215143084526062,-1.624641243611471,0.0,-0.016435133293271065,0.7012753486633301,0.0,-0.011436885222792625,0.8961644768714905,0.0,0.011187274008989334
243.0,241.0,-4.5595,0.2046,8.8002,-0.0441,0.0183,-0.11,-2.199266572991842,0.0,4.396542549133301,-1.5157147645950317,-0.0,1.841022253036499,5.633863138943472,0.0,0.2211403250694275,-1.6247056166278284,0.0,0.0005310005508363247,0.7013359069824219,0.0,0.011767582967877388,0.8961164951324463,0.0,0.019772358238697052
243.0,241.0,-4.5595,0.2046,8.8002,-0.0441,0.0183,-0.11,-2.199310918847555,0.0,4.345884799957275,-1.515678882598877,-0.0,1.8405439853668213,5.633855271130361,0.0,0.21249482035636902,-1.6246650854693812,0.0,0.001740925945341587,0.7013477683067322,0.0,0.02018868364393711,0.8961001634597778,0.0,-0.022184329107403755
243.0,241.0,-4.5595,0.2046,8.8002,-0.0441,0.0183,-0.11,-2.1993028126158656,0.0,4.364492416381836,-1.5156389474868774,-0.0,1.8246574401855469,5.633863436966696,0.0,0.21790963411331177,-1.6246698538409632,0.0,-0.009651402942836285,0.7012830972671509,0.0,-0.0009501883760094643,0.8961083889007568,0.0,-0.0015744008123874664
243.0,241.0,-4.5595,0.2046,8.8002,-0.0441,0.0183,-0.11,-2.1992670498290003,0.0,4.339487552642822,-1.5156912803649902,-0.0,1.8591265678405762,5.633875357895651,0.0,0.20780780911445618,-1.6246655623065394,0.0,0.002285722177475691,0.7012712955474854,0.0,-0.010769246146082878,0.8961525559425354,0.0,-0.029133683070540428
243.0,241.0,-4.5595,0.2046,8.8002,-0.0441,0.0183,-0.11,-2.199310442010397,0.0,4.364951133728027,-1.5157151222229004,-0.0,1.8288836479187012,5.633867192059316,0.0,0.21318313479423523,-1.6246855894671839,0.0,-0.010903163813054562,0.7012872695922852,0.0,0.0015978221781551838,0.8961443901062012,0.0,0.0075392164289951324
243.0,241.0,-4.5595,0.2046,8.8002,-0.0441,0.0183,-0.11,-2.1992866001524867,0.0,4.338563919067383,-1.515695333480835,-0.0,1.8556923866271973,5.633859383850851,0.0,0.22181767225265503,-1.6246774832354944,0.0,-0.01571003906428814,0.7013075351715088,0.0,0.010038145817816257,0.8961365222930908,0.0,0.0014168303459882736
243.0,241.0,-4.5595,0.2046,8.8002,-0.0441,0.0183,-0.11,-2.199270864526266,0.0,4.330892086029053,-1.5156872272491455,-0.0,1.9276611804962158,5.633859383850851,0.0,0.21232497692108154,-1.62465745607485,0.0,-0.007475933991372585,0.7012912034988403,0.0,0.008988488465547562,0.8961443901062012,0.0,0.023217232897877693
243.0,241.0,-4.5595,0.2046,8.8002,-0.0441,0.0183,-0.11,-2.199230810204977,0.0,4.367618083953857,-1.5156508684158325,-0.0,1.8199002742767334,5.633899199753561,0.0,0.2063811719417572,-1.624641243611471,0.0,-0.014268617145717144,0.701267659664154,0.0,-0.001816225703805685,0.8960960507392883,0.0,0.009691150858998299
243.0,241.0,-4.5595,0.2046,8.8002,-0.0441,0.0183,-0.11,-2.199270864526266,0.0,4.375072956085205,-1.5157426595687866,-0.0,1.849959135055542,5.63389133194045,0.0,0.20515218377113342,-1.6246455351458948,0.0,0.009928344748914242,0.7012872695922852,0.0,0.0015060959849506617,0.8961243033409119,0.0,0.018416395410895348
243.0,241.0,-4.5595,0.2046,8.8002,-0.0441,0.0183,-0.11,-2.199294706384176,0.0,4.342029571533203,-1.5156986713409424,-0.0,1.8254687786102295,5.63389133194045,0.0,0.22151339054107666,-1.624669377003805,0.0,-0.005594693124294281,0.7013275623321533,0.0,-0.0012324193958193064,0.896160364151001,0.0,0.005887296982109547
243.0,241.0,-4.5595,0.2046,8.8002,-0.0441,0.0183,-0.11,-2.1992985210814417,0.0,4.352577209472656,-1.5157147645950317,-0.0,1.8411865234375,5.6339032528694055,0.0,0.21612778306007385,-1.6246374289142054,0.0,-0.014133954420685768,0.7012629508972168,0.0,-0.0019102933583781123,0.8961403369903564,0.0,-0.018988583236932755
243.0,241.0,-4.5595,0.2046,8.8002,-0.0441,0.0183,-0.11,-2.1992746792235316,0.0,4.385023593902588,-1.5156872272491455,-0.0,1.8191087245941162,5.633895504265585,0.0,0.21799057722091675,-1.62468129793276,0.0,0.004480073694139719,0.7012913823127747,0.0,0.0031810617074370384,0.8961361646652222,0.0,-0.007844722829759121
243.0,241.0,-4.5595,0.2046,8.8002,-0.0441,0.0183,-0.11,-2.1992746792235316,0.0,4.3486504554748535,-1.5156749486923218,-0.0,1.851628303527832,5.633903729706564,0.0,0.19238075613975525,-1.6246650854693812,0.0,-0.002721821190789342,0.7012712955474854,0.0,0.004770536907017231,0.8961123824119568,0.0,-0.001438383013010025
243.0,241.0,-4.5595,0.2046,8.8002,-0.0441,0.0183,-0.11,-2.1993185482420863,0.0,4.342722415924072,-1.5157147645950317,-0.0,1.8112361431121826,5.633939373284139,0.0,0.2095857858657837,-1.6247261206256312,0.0,-0.011894562281668186,0.7013358473777771,0.0,0.0042738402262330055,0.8961001634597778,0.0,-0.022178249433636665
243.0,241.0,-4.5595,0.2046,8.8002,-0.0441,0.0183,-0.11,-2.199242731133932,0.0,4.354596138000488,-1.5157191753387451,-0.0,1.8150031566619873,5.633943426399984,0.0,0.23122166097164154,-1.6246774832354944,0.0,-0.010241225361824036,0.7012830972671509,0.0,0.0007525500259362161,0.8961160778999329,0.0,-0.0223380234092474
242.0,245.0,-4.5864,0.2237,8.7075,-0.0322,0.0214,-0.1156,-2.199270864526266,0.0,4.354330062866211,-1.5157108306884766,-0.0,1.8346529006958008,5.6338791129882715,0.0,0.22389435768127441,-1.624669377003805,0.0,-0.006471311207860708,0.7012588977813721,0.0,0.011833051219582558,0.8961243033409119,0.0,-0.02686086669564247
242.0,245.0,-4.5864,0.2237,8.7075,-0.0322,0.0214,-0.1156,-2.1992627582945765,0.0,4.346164226531982,-1.5157191753387451,-0.0,1.8295021057128906,5.63391141870574,0.0,0.21508091688156128,-1.6247056166278284,0.0,-0.003045187797397375,0.7013322114944458,0.0,0.0039597200229763985,0.8961324691772461,0.0,0.003983024042099714
242.0,245.0,-4.5864,0.2237,8.7075,-0.0322,0.0214,-0.1156,-2.1992985210814417,0.0,4.372649192810059,-1.5156912803649902,-0.0,1.8242580890655518,5.633899199753561,0.0,0.21886679530143738,-1.624669377003805,0.0,-0.014019821770489216,0.7012552618980408,0.0,-0.007053709588944912,0.8961365222930908,0.0,-0.004183721728622913
242.0,245.0,-4.5864,0.2237,8.7075,-0.0322,0.0214,-0.1156,-2.199282785455221,0.0,4.36362361907959,-1.515702724456787,-0.0,1.808570384979248,5.633887278824606,0.0,0.21778786182403564,-1.6246774832354944,0.0,-0.005172358360141516,0.7013275623321533,0.0,-0.008815600536763668,0.896160364151001,0.0,0.026002580299973488
242.0,245.0,-4.5864,0.2237,8.7075,-0.0322,0.0214,-0.1156,-2.1992670498290003,0.0,4.3767876625061035,-1.5156707763671875,-0.0,1.8523454666137695,5.633899497776785,0.0,0.22007441520690918,-1.6246932188617151,0.0,-0.0046530961990356445,0.7012794017791748,0.0,-0.0045563532039523125,0.8961443901062012,0.0,0.04270037263631821
242.0,245.0,-4.5864,0.2237,8.7075,-0.0322,0.0214,-0.1156,-2.199306627313131,0.0,4.358870506286621,-1.5156993865966797,-0.0,1.8061654567718506,5.633895385056295,0.0,0.22355812788009644,-1.6246455351458948,0.0,-0.0072960215620696545,0.7012593746185303,0.0,0.013073202222585678,0.8961484432220459,0.0,-0.02558012492954731
242.0,245.0,-4.5864,0.2237,8.7075,-0.0322,0.0214,-0.1156,-2.1992670498290003,0.0,4.332849979400635,-1.5156469345092773,-0.0,1.8386530876159668,5.633847462921896,0.0,0.23264095187187195,-1.62465745607485,0.0,-0.0044478680938482285,0.7012830972671509,0.0,0.00981142371892929,0.896160364151001,0.0,0.015191919170320034
242.0,245.0,-4.5864,0.2237,8.7075,-0.0322,0.0214,-0.1156,-2.199306627313131,0.0,4.396685600280762,-1.5156629085540771,-0.0,1.8151792287826538,5.633851158409872,0.0,0.2146306186914444,-1.6246698538409632,0.0,-0.006370625924319029,0.701214611530304,0.0,0.001388247823342681,0.8961243033409119,0.0,0.05047622323036194
242.0,245.0,-4.5864,0.2237,8.7075,-0.0322,0.0214,-0.1156,-2.199258943597311,0.0,4.348506450653076,-1.5156749486923218,-0.0,1.8639540672302246,5.633875357895651,0.0,0.2185288965702057,-1.6247056166278284,0.0,-0.007275728043168783,0.7012233734130859,0.0,0.00835485477000475,0.8961443901062012,0.0,-0.019942399114370346
242.0,245.0,-4.5864,0.2237,8.7075,-0.0322,0.0214,-0.1156,-2.199270864526266,0.0,4.387966156005859,-1.5157312154769897,-0.0,1.8069243431091309,5.633887278824606,0.0,0.22779861092567444,-1.6246932188617151,0.0,-0.005802111700177193,0.7013359069824219,0.0,0.003354024840518832,0.8961727023124695,0.0,0.009705965407192707
242.0,245.0,-4.5864,0.2237,8.7075,-0.0322,0.0214,-0.1156,-2.1992670498290003,0.0,4.38022518157959,-1.5156668424606323,-0.0,1.808846354484558,5.633859443455496,0.0,0.2271232306957245,-1.6246855894671839,0.0,-0.0010402328334748745,0.7013359069824219,0.0,-0.00026267534121870995,0.8961041569709778,0.0,0.05791391059756279
242.0,245.0,-4.5864,0.2237,8.7075,-0.0322,0.0214,-0.1156,-2.199270864526266,0.0,4.3736066818237305,-1.5156748294830322,-0.0,1.8433928489685059,5.63389544466094,0.0,0.22772304713726044,-1.6247056166278284,0.0,0.001050239079631865,0.7012670636177063,0.0,0.010817878879606724,0.8961644768714905,0.0,0.005493507254868746
242.0,245.0,-4.5864,0.2237,8.7075,-0.0322,0.0214,-0.1156,-2.1993028126158656,0.0,4.381599426269531,-1.5156993865966797,-0.0,1.8192025423049927,5.63389544466094,0.0,0.22971484065055847,-1.6246851126300257,0.0,-0.009409962221980095,0.7013035416603088,0.0,-0.003076442051678896,0.8961243033409119,0.0,0.05821409821510315
242.0,245.0,-4.5864,0.2237,8.7075,-0.0322,0.0214,-0.1156,-2.199306627313131,0.0,4.3751397132873535,-1.5156832933425903,-0.0,1.818751335144043,5.633931207447805,0.0,0.22291572391986847,-1.624641243611471,0.0,0.003734943689778447,0.7012953758239746,0.0,-0.004595748148858547,0.8961164951324463,0.0,-0.025518670678138733
246.0,250.0,-4.584,0.2118,8.9067,-0.036,0.0278,-0.1122,-2.1992670498290003,0.0,4.380578994750977,-1.515630841255188,-0.0,1.8825268745422363,5.633891391545095,0.0,0.2235797643661499,-1.62465745607485,0.0,-0.01891799084842205,0.7013076543807983,0.0,0.0015391216147691011,0.8961443901062012,0.0,-0.006259762682020664
246.0,250.0,-4.584,0.2118,8.9067,-0.036,0.0278,-0.1122,-2.1992789707579554,0.0,4.380214691162109,-1.5156790018081665,-0.0,1.810304045677185,5.63390742519454,0.0,0.2189522087574005,-1.6246255079852503,0.0,-0.0021495081018656492,0.701323926448822,0.0,0.0046133496798574924,0.8961648344993591,0.0,-0.01813363842666149
246.0,250.0,-4.584,0.2118,8.9067,-0.036,0.0278,-0.1122,-2.1992746792235316,0.0,4.365991115570068,-1.5157231092453003,-0.0,1.8336944580078125,5.6339154718215845,0.0,0.22203519940376282,-1.6247261206256312,0.0,-0.0005604356992989779,0.7013036012649536,0.0,-0.0021837842650711536,0.8961083292961121,0.0,0.026354558765888214
246.0,250.0,-4.584,0.2118,8.9067,-0.036,0.0278,-0.1122,-2.1992627582945765,0.0,4.3125319480896,-1.5156748294830322,-0.0,1.8403000831604004,5.63392339923934,0.0,0.21134766936302185,-1.62465745607485,0.0,-0.0019024268258363008,0.7013036012649536,0.0,0.0014519455144181848,0.8961365222930908,0.0,0.025329867377877235
246.0,250.0,-4.584,0.2118,8.9067,-0.036,0.0278,-0.1122,-2.1992627582945765,0.0,4.399448871612549,-1.5156748294830322,-0.0,1.85691499710083,5.633871245175161,0.0,0.20852777361869812,-1.624653164540426,0.0,-0.007431331090629101,0.701246976852417,0.0,-0.0006809808546677232,0.896120548248291,0.0,-0.020634911954402924
246.0,250.0,-4.584,0.2118,8.9067,-0.036,0.0278,-0.1122,-2.1993266544737757,0.0,4.336963653564453,-1.5156986713409424,-0.0,1.79194974899292,5.633919346123495,0.0,0.21153703331947327,-1.6246493498431605,0.0,-0.004945685621351004,0.701267659664154,0.0,0.007533361203968525,0.8961201310157776,0.0,-0.02826889045536518
246.0,250.0,-4.584,0.2118,8.9067,-0.036,0.0278,-0.1122,-2.1992670498290003,0.0,4.364058494567871,-1.5156707763671875,-0.0,1.7912752628326416,5.633907365589895,0.0,0.21038421988487244,-1.624653164540426,0.0,-0.0019149864092469215,0.7012229561805725,0.0,-0.0034900219179689884,0.8961283564567566,0.0,-0.013843069784343243
246.0,250.0,-4.584,0.2118,8.9067,-0.036,0.0278,-0.1122,-2.1992551289000453,0.0,4.323877334594727,-1.5156831741333008,-0.0,1.8202741146087646,5.633895385056295,0.0,0.22040356695652008,-1.6246736685382288,0.0,-0.0039062448777258396,0.701263427734375,0.0,0.0006609102711081505,0.8961485028266907,0.0,-0.020356670022010803
246.0,250.0,-4.584,0.2118,8.9067,-0.036,0.0278,-0.1122,-2.199294706384176,0.0,4.33591890335083,-1.5157108306884766,-0.0,1.8289034366607666,5.633911180287161,0.0,0.20924633741378784,-1.6246374289142054,0.0,-0.005059313960373402,0.7012913227081299,0.0,0.010116501711308956,0.8961243033409119,0.0,-0.006657378748059273
246.0,250.0,-4.584,0.2118,8.9067,-0.036,0.0278,-0.1122,-2.1993185482420863,0.0,4.369449615478516,-1.5157191753387451,-0.0,1.8594470024108887,5.633887278824606,0.0,0.2263684868812561,-1.6246894041644495,0.0,0.003505261382088065,0.7012913227081299,0.0,-0.005274132825434208,0.8961123824119568,0.0,0.0027932412922382355
246.0,250.0,-4.584,0.2118,8.9067,-0.036,0.0278,-0.1122,-2.1993266544737757,0.0,4.33552360534668,-1.5156993865966797,-0.0,1.844322919845581,5.633875357895651,0.0,0.21781650185585022,-1.6246736685382288,0.0,-0.005268671549856663,0.7012954354286194,0.0,-0.004162699915468693,0.896112322807312,0.0,0.0005302401259541512
246.0,250.0,-4.584,0.2118,8.9067,-0.036,0.0278,-0.1122,-2.1992670498290003,0.0,4.33539342880249,-1.5157148838043213,-0.0,1.8128924369812012,5.633851218014517,0.0,0.22894302010536194,-1.62468129793276,0.0,0.004883944522589445,0.7012954354286194,0.0,-0.008096572943031788,0.8961484432220459,0.0,-0.05004551261663437
246.0,250.0,-4.584,0.2118,8.9067,-0.036,0.0278,-0.1122,-2.1993028126158656,0.0,4.368929862976074,-1.5157108306884766,-0.0,1.853395700454712,5.633851158409872,0.0,0.2229469269514084,-1.6246255079852503,0.0,0.001373558770865202,0.7012872695922852,0.0,-0.0018103180918842554,0.8961243033409119,0.0,0.02496740221977234
246.0,250.0,-4.584,0.2118,8.9067,-0.036,0.0278,-0.1122,-2.199258943597311,0.0,4.368871688842773,-1.5156667232513428,-0.0,1.8138506412506104,5.633843350201406,0.0,0.22969269752502441,-1.6246736685382288,0.0,-0.012842915952205658,0.7012789249420166,0.0,0.002993995789438486,0.8961443901062012,0.0,0.031215565279126167
246.0,250.0,-4.584,0.2118,8.9067,-0.036,0.0278,-0.1122,-2.199282785455221,0.0,4.371826648712158,-1.5156707763671875,-0.0,1.8546206951141357,5.63389544466094,0.0,0.20495188236236572,-1.624669377003805,0.0,0.0008735521696507931,0.7013559937477112,0.0,-0.004125103820115328,0.8961001038551331,0.0,-0.013013962656259537
240.0,264.0,-4.5673,0.2261,8.7996,-0.0512,0.0232,-0.1119,-2.199247022668356,0.0,4.330285549163818,-1.5156669616699219,-0.0,1.8176603317260742,5.63389133194045,0.0,0.2191947102546692,-1.6246493498431605,0.0,-0.00379311665892601,0.701246976852417,0.0,-0.00610003899782896,0.896152138710022,0.0,-0.0011968640610575676
240.0,264.0,-4.5673,0.2261,8.7996,-0.0512,0.0232,-0.1119,-2.1993147335448207,0.0,4.381359100341797,-1.515702724456787,-0.0,1.8403031826019287,5.633883225708761,0.0,0.21041035652160645,-1.6246336142169397,0.0,-0.01896863803267479,0.7013440728187561,0.0,-0.0016368299257010221,0.8961243033409119,0.0,0.0027916189283132553
240.0,264.0,-4.5673,0.2261,8.7996,-0.0512,0.0232,-0.1119,-2.199258943597311,0.0,4.346820831298828,-1.5156748294830322,-0.0,1.8765981197357178,5.63393526056365,0.0,0.22828856110572815,-1.6246855894671839,0.0,-0.0033860988914966583,0.7012708187103271,0.0,0.007378986105322838,0.8961849212646484,0.0,-0.03101687878370285
240.0,264.0,-4.5673,0.2261,8.7996,-0.0512,0.0232,-0.1119,-2.1992508373656214,0.0,4.373324394226074,-1.5156629085540771,-0.0,1.8524411916732788,5.633883225708761,0.0,0.21389040350914001,-1.6246698538409632,0.0,-0.0021569591481238604,0.7013198733329773,0.0,0.020891692489385605,0.8961324691772461,0.0,-0.02489802986383438
240.0,264.0,-4.5673,0.2261,8.7996,-0.0512,0.0232,-0.1119,-2.1992670498290003,0.0,4.340803146362305,-1.515678882598877,-0.0,1.8144044876098633,5.633863436966696,0.0,0.22235992550849915,-1.624669377003805,0.0,0.004741191864013672,0.7012511491775513,0.0,0.008119586855173111,0.8961484432220459,0.0,0.06145162135362625
240.0,264.0,-4.5673,0.2261,8.7996,-0.0512,0.0232,-0.1119,-2.1992866001524867,0.0,4.388775825500488,-1.5156832933425903,-0.0,1.8307745456695557,5.63389133194045,0.0,0.22013159096240997,-1.6246894041644495,0.0,-0.0067595080472528934,0.7013276219367981,0.0,0.012035009451210499,0.8961727023124695,0.0,0.01663886569440365
240.0,264.0,-4.5673,0.2261,8.7996,-0.0512,0.0232,-0.1119,-2.199258943597311,0.0,4.415234565734863,-1.5156909227371216,-0.0,1.8319517374038696,5.633851277619161,0.0,0.21681393682956696,-1.624653164540426,0.0,0.006035818252712488,0.7012872695922852,0.0,0.012542118318378925,0.8961443901062012,0.0,-0.03619473800063133
240.0,264.0,-4.5673,0.2261,8.7996,-0.0512,0.0232,-0.1119,-2.1993185482420863,0.0,4.341550827026367,-1.5157067775726318,-0.0,1.8841354846954346,5.633915173798361,0.0,0.21250000596046448,-1.6246736685382288,0.0,0.008625705726444721,0.7013158798217773,0.0,0.0075932941399514675,0.8961485028266907,0.0,-0.028030727058649063
240.0,264.0,-4.5673,0.2261,8.7996,-0.0512,0.0232,-0.1119,-2.1992866001524867,0.0,4.35538387298584,-1.5157470703125,-0.0,1.860079050064087,5.633871304779806,0.0,0.21289300918579102,-1.624653164540426,0.0,0.008537468500435352,0.7012306451797485,0.0,0.012548349797725677,0.8961243033409119,0.0,-0.018381288275122643
240.0,264.0,-4.5673,0.2261,8.7996,-0.0512,0.0232,-0.1119,-2.1992351017394007,0.0,4.3637847900390625,-1.5156428813934326,-0.0,1.8470003604888916,5.633847105294027,0.0,0.21473395824432373,-1.62465745607485,0.0,-0.001128344563767314,0.7013117671012878,0.0,-0.001361875794827938,0.8961324095726013,0.0,0.028341740369796753
240.0,264.0,-4.5673,0.2261,8.7996,-0.0512,0.0232,-0.1119,-2.1992627582945765,0.0,4.3837571144104,-1.5156629085540771,-0.0,1.816286325454712,5.633871304779806,0.0,0.2208927422761917,-1.624629322682516,0.0,0.005283942446112633,0.7012712955474854,0.0,0.010653499513864517,0.8961124420166016,0.0,0.04686611518263817
240.0,264.0,-4.5673,0.2261,8.7996,-0.0512,0.0232,-0.1119,-2.1992627582945765,0.0,4.3547468185424805,-1.5156829357147217,-0.0,1.8753407001495361,5.63389133194045,0.0,0.22157204151153564,-1.6246617476092737,0.0,-0.003281748853623867,0.7013199329376221,0.0,0.0062101841904222965,0.8961480855941772,0.0,-0.026572609320282936
240.0,264.0,-4.5673,0.2261,8.7996,-0.0512,0.0232,-0.1119,-2.199270864526266,0.0,4.36567497253418,-1.5157148838043213,-0.0,1.8395428657531738,5.633870827942648,0.0,0.22479504346847534,-1.6246612707721155,0.0,-0.004230604972690344,0.7012994289398193,0.0,0.002408650703728199,0.8961727023124695,0.0,0.0042756590992212296
240.0,264.0,-4.5673,0.2261,8.7996,-0.0512,0.0232,-0.1119,-2.1993028126158656,0.0,4.363746166229248,-1.5157108306884766,-0.0,1.8681011199951172,5.6339032528694055,0.0,0.2143194079399109,-1.62465745607485,0.0,0.0023576081730425358,0.7013280391693115,0.0,0.0067823296412825584,0.8961361050605774,0.0,-0.04046959429979324
239.0,253.0,-4.535,0.2351,8.7021,-0.0383,0.029,-0.1095,-2.1992551289000453,0.0,4.378703594207764,-1.5157191753387451,-0.0,1.8509502410888672,5.63389544466094,0.0,0.2180252969264984,-1.6246817747699183,0.0,-0.007981459610164165,0.7013036012649536,0.0,0.011862440034747124,0.8961324691772461,0.0,-0.04119841381907463
239.0,253.0,-4.535,0.2351,8.7021,-0.0383,0.029,-0.1095,-2.1992985210814417,0.0,4.403057098388672,-1.5156548023223877,-0.0,1.8323390483856201,5.633915173798361,0.0,0.22090288996696472,-1.6246212164508265,0.0,0.00048720301128923893,0.7012872695922852,0.0,0.004162495490163565,0.8961402773857117,0.0,-0.013875804841518402
239.0,253.0,-4.535,0.2351,8.7021,-0.0383,0.029,-0.1095,-2.199258943597311,0.0,4.310681343078613,-1.5156947374343872,-0.0,1.7933050394058228,5.63389544466094,0.0,0.22412249445915222,-1.6246374289142054,0.0,-0.0012131272815167904,0.7012753486633301,0.0,0.008276584558188915,0.8961443901062012,0.0,-0.02027507685124874
239.0,253.0,-4.535,0.2351,8.7021,-0.0383,0.029,-0.1095,-2.199294706384176,0.0,4.390610694885254,-1.5156389474868774,-0.0,1.853692650794983,5.633951890259542,0.0,0.21283979713916779,-1.6246894041644495,0.0,-5.48964599147439e-05,0.701263427734375,0.0,-0.0004232667852193117,0.8961324691772461,0.0,-0.003208023961633444
239.0,253.0,-4.535,0.2351,8.7021,-0.0383,0.029,-0.1095,-2.1992746792235316,0.0,4.343818664550781,-1.5156351327896118,-0.0,1.8274729251861572,5.633871245175161,0.0,0.21577250957489014,-1.6246650854693812,0.0,-0.010177897289395332,0.7013280391693115,0.0,0.009458156302571297,0.8961243033409119,0.0,0.03397273272275925
239.0,253.0,-4.535,0.2351,8.7021,-0.0383,0.029,-0.1095,-2.199247022668356,0.0,4.3453240394592285,-1.5157108306884766,-0.0,1.8457584381103516,5.633907365589895,0.0,0.21179628372192383,-1.624709431325094,0.0,-0.0012186402454972267,0.7013036012649536,0.0,0.0075385719537734985,0.8961563110351562,0.0,-0.0038551168981939554
239.0,253.0,-4.535,0.2351,8.7021,-0.0383,0.029,-0.1095,-2.199230810204977,0.0,4.346094131469727,-1.515702724456787,-0.0,1.7999835014343262,5.633863436966696,0.0,0.22105205059051514,-1.6247056166278284,0.0,-0.0009135191794484854,0.7013317346572876,0.0,0.006020417436957359,0.8961403369903564,0.0,0.004022277891635895
239.0,253.0,-4.535,0.2351,8.7021,-0.0383,0.029,-0.1095,-2.1992746792235316,0.0,4.398994445800781,-1.5156872272491455,-0.0,1.8474576473236084,5.63392339923934,0.0,0.21289388835430145,-1.6246612707721155,0.0,-0.0040116216987371445,0.7012794613838196,0.0,-0.0019535040482878685,0.8960961103439331,0.0,-0.00046519190073013306
239.0,253.0,-4.535,0.2351,8.7021,-0.0383,0.029,-0.1095,-2.1992551289000453,0.0,4.3348894119262695,-1.515610933303833,-0.0,1.7717664241790771,5.633883166104116,0.0,0.22698429226875305,-1.6246331373797815,0.0,-0.005684455391019583,0.7013235092163086,0.0,0.005326652899384499,0.896192729473114,0.0,0.004584801383316517
239.0,253.0,-4.535,0.2351,8.7021,-0.0383,0.029,-0.1095,-2.1992908916869105,0.0,4.344812393188477,-1.5157426595687866,-0.0,1.8784990310668945,5.633871304779806,0.0,0.21747243404388428,-1.6246650854693812,0.0,0.0009248042479157448,0.7013075351715088,0.0,-0.004412506241351366,0.8961525559425354,0.0,-0.02508213184773922
239.0,253.0,-4.535,0.2351,8.7021,-0.0383,0.029,-0.1095,-2.1992670498290003,0.0,4.351626396179199,-1.5156707763671875,-0.0,1.8172571659088135,5.63389544466094,0.0,0.20601357519626617,-1.6246255079852503,0.0,0.0003363594878464937,0.7013036012649536,0.0,0.011626182124018669,0.896192729473114,0.0,0.04322264343500137
239.0,253.0,-4.535,0.2351,8.7021,-0.0383,0.029,-0.1095,-2.1992508373656214,0.0,4.360147476196289,-1.5156667232513428,-0.0,1.8603317737579346,5.6339273927505396,0.0,0.22919386625289917,-1.6246894041644495,0.0,0.0013535877224057913,0.7013158798217773,0.0,-0.01218581385910511,0.8961726427078247,0.0,-0.012343212962150574
239.0,253.0,-4.535,0.2351,8.7021,-0.0383,0.029,-0.1095,-2.199282785455221,0.0,4.379960060119629,-1.5156428813934326,-0.0,1.8121578693389893,5.63392339923934,0.0,0.2242783159017563,-1.6246569792376917,0.0,-0.0013774801045656204,0.7013199329376221,0.0,-0.0005490437615662813,0.8961480855941772,0.0,-0.007802213542163372
239.0,253.0,-4.535,0.2351,8.7021,-0.0383,0.029,-0.1095,-2.1993185482420863,0.0,4.365106582641602,-1.5157108306884766,-0.0,1.8681986331939697,5.633851218014517,0.0,0.21974661946296692,-1.6246536413775843,0.0,-0.001230420544743538,0.7012789249420166,0.0,0.007052384316921234,0.8961648941040039,0.0,0.04083952307701111
239.0,253.0,-4.535,0.2351,8.7021,-0.0383,0.029,-0.1095,-2.1993028126158656,0.0,4.3869805335998535,-1.5156993865966797,-0.0,1.8512568473815918,5.63389133194045,0.0,0.21467933058738708,-1.6246770063983362,0.0,-0.0014045331627130508,0.7012830972671509,0.0,-0.0029043599497526884,0.8961563110351562,0.0,0.013354343362152576
249.0,254.0,-4.5583,0.2315,8.6967,-0.0417,0.0278,-0.1155,-2.1992746792235316,0.0,4.376007080078125,-1.5157067775726318,-0.0,1.8468883037567139,5.633879411011495,0.0,0.2149176150560379,-1.6246612707721155,0.0,-0.013094203546643257,0.7013359069824219,0.0,0.004166281782090664,0.8961563110351562,0.0,-0.006313785910606384
249.0,254.0,-4.5583,0.2315,8.6967,-0.0417,0.0278,-0.1155,-2.199258943597311,0.0,4.33760929107666,-1.5156550407409668,-0.0,1.8224937915802002,5.63391928651885,0.0,0.20998205244541168,-1.62468129793276,0.0,-0.008764567784965038,0.7012789249420166,0.0,0.002853943733498454,0.8961403369903564,0.0,-0.02431434765458107
249.0,254.0,-4.5583,0.2315,8.6967,-0.0417,0.0278,-0.1155,-2.1993028126158656,0.0,4.334896087646484,-1.5156428813934326,-0.0,1.810342788696289,5.63393526056365,0.0,0.2192792296409607,-1.62468129793276,0.0,-0.002006490947678685,0.7013235092163086,0.0,-0.0010424121282994747,0.8961685299873352,0.0,0.013609953224658966
249.0,254.0,-4.5583,0.2315,8.6967,-0.0417,0.0278,-0.1155,-2.199270864526266,0.0,4.31964111328125,-1.5157191753387451,-0.0,1.8128000497817993,5.63389133194045,0.0,0.21236258745193481,-1.6246855894671839,0.0,-0.006872986909002066,0.7012593746185303,0.0,0.01378466747701168,0.8961324691772461,0.0,0.0021696388721466064
249.0,254.0,-4.5583,0.2315,8.6967,-0.0417,0.0278,-0.1155,-2.199306627313131,0.0,4.400364875793457,-1.515678882598877,-0.0,1.855697512626648,5.633847105294027,0.0,0.21972760558128357,-1.6246212164508265,0.0,-0.006531556602567434,0.7013399600982666,0.0,0.0074768392369151115,0.8961644768714905,0.0,0.010878237895667553
249.0,254.0,-4.5583,0.2315,8.6967,-0.0417,0.0278,-0.1155,-2.199338575402731,0.0,4.3909912109375,-1.515650987625122,-0.0,1.8593785762786865,5.6338791129882715,0.0,0.2209903597831726,-1.62465745607485,0.0,-0.006946633569896221,0.7013199329376221,0.0,0.0010146403219550848,0.8961164951324463,0.0,0.010088521987199783
249.0,254.0,-4.5583,0.2315,8.6967,-0.0417,0.0278,-0.1155,-2.1993185482420863,0.0,4.392480850219727,-1.515631079673767,-0.0,1.849060297012329,5.633887278824606,0.0,0.20156267285346985,-1.6246092955218714,0.0,-0.0001404806098435074,0.7012676000595093,0.0,-0.005725773982703686,0.8961726427078247,0.0,-0.012799517251551151
249.0,254.0,-4.5583,0.2315,8.6967,-0.0417,0.0278,-0.1155,-2.1992670498290003,0.0,4.364459991455078,-1.515695333480835,-0.0,1.8351285457611084,5.633883225708761,0.0,0.2199622392654419,-1.62468129793276,0.0,-0.01012936420738697,0.7012870907783508,0.0,0.013742506504058838,0.896160364151001,0.0,0.019512994214892387
249.0,254.0,-4.5583,0.2315,8.6967,-0.0417,0.0278,-0.1155,-2.1992627582945765,0.0,4.3755340576171875,-1.5156828165054321,-0.0,1.8080503940582275,5.6338873384292505,0.0,0.2095518410205841,-1.6246736685382288,0.0,0.0018061716109514236,0.7013076543807983,0.0,0.005446732975542545,0.8961567282676697,0.0,-0.0027709738351404667
249.0,254.0,-4.5583,0.2315,8.6967,-0.0417,0.0278,-0.1155,-2.199282785455221,0.0,4.3667731285095215,-1.5156710147857666,-0.0,1.8561041355133057,5.63389133194045,0.0,0.22412362694740295,-1.6246536413775843,0.0,-0.0020223772153258324,0.7012952566146851,0.0,0.0006574268918484449,0.8961365222930908,0.0,0.017486512660980225
249.0,254.0,-4.5583,0.2315,8.6967,-0.0417,0.0278,-0.1155,-2.199258943597311,0.0,4.368138313293457,-1.5156872272491455,-0.0,1.8138718605041504,5.633883285313406,0.0,0.22781339287757874,-1.6246894041644495,0.0,-0.0018913587555289268,0.7012952566146851,0.0,-0.0047593191266059875,0.8961041569709778,0.0,-0.027310814708471298
249.0,254.0,-4.5583,0.2315,8.6967,-0.0417,0.0278,-0.1155,-2.1992789707579554,0.0,4.342820167541504,-1.5156747102737427,-0.0,1.821790099143982,5.633871245175161,0.0,0.2184523344039917,-1.6246650854693812,0.0,-0.004319230560213327,0.7012994289398193,0.0,0.0016209485474973917,0.8960841298103333,0.0,-0.014714808203279972
249.0,254.0,-4.5583,0.2315,8.6967,-0.0417,0.0278,-0.1155,-2.1993028126158656,0.0,4.415322303771973,-1.5157067775726318,-0.0,1.8142638206481934,5.633883166104116,0.0,0.22313937544822693,-1.6246774832354944,0.0,-0.008273874409496784,0.7012147307395935,0.0,0.006270272191613913,0.8961644172668457,0.0,0.0005212697433307767
249.0,254.0,-4.5583,0.2315,8.6967,-0.0417,0.0278,-0.1155,-2.1992627582945765,0.0,4.359060764312744,-1.5156829357147217,-0.0,1.8410091400146484,5.63390730598525,0.0,0.22451356053352356,-1.624641243611471,0.0,-0.006414681673049927,0.7013157606124878,0.0,-0.0008964610751718283,0.8961123824119568,0.0,-0.029591571539640427
247.0,249.0,-4.5302,0.2213,8.7966,-0.0441,0.0234,-0.1188,-2.19932283977651,0.0,4.330146789550781,-1.5157508850097656,-0.0,1.8378896713256836,5.633859324246206,0.0,0.2241450548171997,-1.6247218290912073,0.0,-0.012560082599520683,0.7012789845466614,0.0,0.012123501859605312,0.8961284160614014,0.0,-0.011990267783403397
247.0,249.0,-4.5302,0.2213,8.7966,-0.0441,0.0234,-0.1188,-2.199258943597311,0.0,4.332145690917969,-1.515678882598877,-0.0,1.8459432125091553,5.633875357895651,0.0,0.21500200033187866,-1.6247056166278284,0.0,-0.012504972517490387,0.7013198733329773,0.0,-0.00020435794431250542,0.896160364151001,0.0,0.003308845916762948
247.0,249.0,-4.5302,0.2213,8.7966,-0.0441,0.0234,-0.1188,-2.199242731133932,0.0,4.3691253662109375,-1.515650987625122,-0.0,1.8817317485809326,5.633887278824606,0.0,0.21299564838409424,-1.6246612707721155,0.0,0.0014310660772025585,0.7012872695922852,0.0,-0.002755810273811221,0.8961443901062012,0.0,0.020165205001831055
247.0,249.0,-4.5302,0.2213,8.7966,-0.0441,0.0234,-0.1188,-2.199270864526266,0.0,4.387140274047852,-1.5157148838043213,-0.0,1.8348114490509033,5.633899259358206,0.0,0.22156396508216858,-1.6247056166278284,0.0,-0.0018390176119282842,0.7013362050056458,0.0,0.005611082538962364,0.8961284160614014,0.0,-0.02420431561768055
247.0,249.0,-4.5302,0.2213,8.7966,-0.0441,0.0234,-0.1188,-2.1992627582945765,0.0,4.347572326660156,-1.5156947374343872,-0.0,1.853731632232666,5.633887278824606,0.0,0.21240949630737305,-1.6246774832354944,0.0,0.0010445830412209034,0.7013358473777771,0.0,-0.0016652924241498113,0.8961361646652222,0.0,-0.06310132890939713
247.0,249.0,-4.5302,0.2213,8.7966,-0.0441,0.0234,-0.1188,-2.1992789707579554,0.0,4.349998474121094,-1.5157232284545898,-0.0,1.8349454402923584,5.633935737400808,0.0,0.22228145599365234,-1.624653164540426,0.0,-0.0007808023365214467,0.7012912034988403,0.0,0.008266446180641651,0.8961284160614014,0.0,0.010276698507368565
247.0,249.0,-4.5302,0.2213,8.7966,-0.0441,0.0234,-0.1188,-2.1992627582945765,0.0,4.3568196296691895,-1.5156912803649902,-0.0,1.8296167850494385,5.633891391545095,0.0,0.21714964509010315,-1.62468129793276,0.0,0.00432162219658494,0.7012913227081299,0.0,0.01276493351906538,0.8961563110351562,0.0,-0.019840732216835022
247.0,249.0,-4.5302,0.2213,8.7966,-0.0441,0.0234,-0.1188,-2.199270864526266,0.0,4.31931209564209,-1.515658974647522,-0.0,1.814415693283081,5.633923339634695,0.0,0.22004564106464386,-1.62468129793276,0.0,-0.014700740575790405,0.7012307047843933,0.0,0.005786288529634476,0.8961726427078247,0.0,-0.001014204230159521
247.0,249.0,-4.5302,0.2213,8.7966,-0.0441,0.0234,-0.1188,-2.199310918847555,0.0,4.369246006011963,-1.5156629085540771,-0.0,1.8238377571105957,5.63389133194045,0.0,0.19891387224197388,-1.62468129793276,0.0,-0.0011833948083221912,0.7012671232223511,0.0,-0.0005644502816721797,0.8961484432220459,0.0,0.0363626554608345
247.0,249.0,-4.5302,0.2213,8.7966,-0.0441,0.0234,-0.1188,-2.1993028126158656,0.0,4.297753810882568,-1.5156428813934326,-0.0,1.818061113357544,5.633899497776785,0.0,0.2120283544063568,-1.6247056166278284,0.0,-0.0055196452885866165,0.7012913227081299,0.0,0.000367326894775033,0.8961767554283142,0.0,-0.009655776433646679
247.0,249.0,-4.5302,0.2213,8.7966,-0.0441,0.0234,-0.1188,-2.1992627582945765,0.0,4.370638847351074,-1.5157191753387451,-0.0,1.870030403137207,5.633879411011495,0.0,0.2193557769060135,-1.6247013250934046,0.0,0.005680443719029427,0.7012830972671509,0.0,0.004905097186565399,0.8961766958236694,0.0,0.005078555084764957
247.0,249.0,-4.5302,0.2213,8.7966,-0.0441,0.0234,-0.1188,-2.1993028126158656,0.0,4.402182579040527,-1.5157067775726318,-0.0,1.7830421924591064,5.633847462921896,0.0,0.2218865007162094,-1.624669377003805,0.0,-0.005831943824887276,0.7012147307395935,0.0,0.006725789047777653,0.8961164951324463,0.0,-0.0403401181101799
247.0,249.0,-4.5302,0.2213,8.7966,-0.0441,0.0234,-0.1188,-2.199254652062887,0.0,4.370647430419922,-1.5157067775726318,-0.0,1.842668056488037,5.633887278824606,0.0,0.2194410115480423,-1.6246450583087366,0.0,-0.0033624412026256323,0.7013199329376221,0.0,0.01027395948767662,0.896136462688446,0.0,-0.015060551464557648
247.0,249.0,-4.5302,0.2213,8.7966,-0.0441,0.0234,-0.1188,-2.1992746792235316,0.0,4.344411373138428,-1.5156748294830322,-0.0,1.7983684539794922,5.633879411011495,0.0,0.21313640475273132,-1.624653164540426,0.0,0.0011413677129894495,0.7013279795646667,0.0,0.003996357787400484,0.8961284160614014,0.0,-0.0007062982767820358
247.0,249.0,-4.5302,0.2213,8.7966,-0.0441,0.0234,-0.1188,-2.1992789707579554,0.0,4.356678485870361,-1.5157313346862793,-0.0,1.8544782400131226,5.633883225708761,0.0,0.20121414959430695,-1.6246855894671839,0.0,-0.0012649265117943287,0.7012671828269958,0.0,0.005075697787106037,0.8961284160614014,0.0,-0.02154649794101715
246.0,246.0,-4.4572,0.0933,8.7769,-0.0429,0.0279,-0.1034,-2.1993185482420863,0.0,4.3296895027160645,-1.5156872272491455,-0.0,1.7928104400634766,5.633871245175161,0.0,0.225923091173172,-1.6246617476092737,0.0,0.00011169910430908203,0.7013399004936218,0.0,-0.0031602634117007256,0.8961041569709778,0.0,-0.02850891649723053
246.0,246.0,-4.4572,0.0933,8.7769,-0.0429,0.0279,-0.1034,-2.1992985210814417,0.0,4.335590362548828,-1.5156747102737427,1.7811545376389404e-06,1.8101218938827515,5.63389133194045,0.0,0.2155173122882843,-1.6246493498431605,0.0,-0.0007354404078796506,0.7012872695922852,0.0,-0.003929678350687027,0.8961443901062012,0.0,-0.03370288386940956
246.0,246.0,-4.4572,0.0933,8.7769,-0.0429,0.0279,-0.1034,-2.199282785455221,0.0,4.336314678192139,-1.5156750679016113,1.927864559547743e-06,1.82346773147583,5.63389544466094,0.0,0.22754362225532532,-1.6247013250934046,0.0,-0.011881737038493156,0.701246976852417,0.0,0.00382883264683187,0.896160364151001,0.0,-0.017593294382095337
246.0,246.0,-4.4572,0.0933,8.7769,-0.0429,0.0279,-0.1034,-2.1992346249022425,0.0,4.337418079376221,-1.5156147480010986,0.003744048997759819,1.80791175365448,5.633887278824606,0.0,0.22099068760871887,-1.6246612707721155,0.0,-0.014205008745193481,0.7012753486633301,0.0,0.0024226182140409946,0.8961361050605774,0.0,0.012867899611592293
246.0,246.0,-4.4572,0.0933,8.7769,-0.0429,0.0279,-0.1034,-2.1992789707579554,-4.0613894192187416e-11,4.350741386413574,-1.515599250793457,0.005752940196543932,1.8333823680877686,5.63391928651885,0.0,0.21932481229305267,-1.624669377003805,0.0,-0.0018374256324023008,0.7013316750526428,0.0,-0.0028764288872480392,0.8961726427078247,6.774727125957725e-07,0.008040254935622215
246.0,246.0,-4.4572,0.0933,8.7769,-0.0429,0.0279,-0.1034,-2.199258943597311,-1.3158385933944945e-18,4.374355792999268,-1.5155225992202759,0.005221622996032238,1.8520524501800537,5.63389133194045,0.0,0.21803146600723267,-1.6247056166278284,0.0,0.0050511774607002735,0.7012712955474854,0.0,-0.005196683574467897,0.8961643576622009,2.1949254547693094e-14,-0.010160963982343674
246.0,246.0,-4.4572,0.0933,8.7769,-0.0429,0.0279,-0.1034,-2.1992551289000453,-3.177595229533106e-24,4.412007808685303,-1.5155112743377686,0.004205688368529081,1.773425579071045,5.633895146637716,0.0,0.2217036932706833,-1.6246493498431605,0.0,-0.0039672041311860085,0.7012831568717957,0.0,-0.007283630780875683,0.8961881995201111,0.0009810659103095531,0.010277057997882366
246.0,246.0,-4.4572,0.0933,8.7769,-0.0429,0.0279,-0.1034,-2.1992866001524867,-7.673517283975752e-30,4.347408294677734,-1.5154869556427002,0.003236989490687847,1.8354554176330566,5.633911120682516,0.0,0.21063445508480072,-1.6246569792376917,0.0,-0.01514214277267456,0.7013316750526428,0.0,0.004577198065817356,0.8961963653564453,0.0024114917032420635,-0.02000407502055168
246.0,246.0,-4.4572,0.0933,8.7769,-0.0429,0.0279,-0.1034,-2.1991826496519984,-1.8530642466029723e-35,4.387206077575684,-1.5154633522033691,0.002178510883823037,1.8122286796569824,5.633851158409872,0.0,0.20950835943222046,-1.6246774832354944,0.0,4.345155321061611e-05,0.7013320922851562,0.0,0.0024424572475254536,0.8961960077285767,0.003861956764012575,-0.04674776270985603
246.0,246.0,-4.4572,0.0933,8.7769,-0.0429,0.0279,-0.1034,-2.199258943597311,-4.474906515974871e-41,4.36379337310791,-1.515519142150879,0.0013357049319893122,1.8705660104751587,5.633875357895651,0.0,0.217115581035614,-1.6246736685382288,0.0,-0.004949504509568214,0.7012872695922852,0.0,0.008201289921998978,0.8962278962135315,0.006949452683329582,0.012753947637975216
246.0,246.0,-4.4572,0.0933,8.7769,-0.0429,0.0279,-0.1034,-2.1993185482420863,-0.0,4.360487461090088,-1.5154187679290771,0.0007936024921946228,1.801188588142395,5.63389544466094,0.0,0.23320263624191284,-1.6246493498431605,0.0,-0.013148962520062923,0.7012831568717957,0.0,0.0030393428169190884,0.8962922096252441,0.00855861883610487,0.02198268473148346
246.0,246.0,-4.4572,0.0933,8.7769,-0.0429,0.0279,-0.1034,-2.199258943597311,0.0,4.354743003845215,-1.5154950618743896,0.0005506331217475235,1.8260538578033447,5.63387947061614,0.0,0.20805741846561432,-1.6246736685382288,0.0,0.0006504738703370094,0.7012507915496826,0.0,-0.01184895820915699,0.8963601589202881,0.00936686061322689,-0.0046430970542132854
246.0,246.0,-4.4572,0.0933,8.7769,-0.0429,0.0279,-0.1034,-2.1992904148497523,-6.597940227948129e-05,4.34466552734375,-1.5154712200164795,0.000421610166085884,1.8106122016906738,5.633883166104116,0.0,0.22690759599208832,-1.6246450583087366,0.0,0.003611866384744644,0.7012675404548645,0.0,0.0074073257856070995,0.8963921070098877,0.008484270423650742,0.0021648225374519825
246.0,246.0,-4.4572,0.0933,8.7769,-0.0429,0.0279,-0.1034,-2.1992746792235316,-2.8909635148011148e-05,4.342633247375488,-1.5154027938842773,0.00032125841244123876,1.824742078781128,5.633887278824606,0.0,0.21315455436706543,-1.6246894041644495,0.0,-0.015504797920584679,0.7013399004936218,0.0,-0.002346079796552658,0.8964642882347107,0.006616440135985613,0.057649970054626465
246.0,259.0,-4.6869,0.0431,8.4867,-0.0353,0.0298,-0.1176,-2.1992866001524867,-2.6254689146298915e-05,4.385526180267334,-1.515511155128479,0.0002725991071201861,1.8131625652313232,5.633826660900869,0.0,0.21738842129707336,-1.6247056166278284,0.0,-0.01828930526971817,0.7012671828269958,0.0,0.003847950603812933,0.8964601159095764,0.005198320373892784,0.01189179066568613
246.0,259.0,-4.6869,0.0431,8.4867,-0.0353,0.0298,-0.1176,-2.199270864526266,-2.4141872927430086e-05,4.4004621505737305,-1.5154509544372559,0.00023674282419960946,1.8306881189346313,5.633875357895651,0.0,0.22014755010604858,-1.6247175375567835,0.0,0.004247157368808985,0.7013075351715088,0.0,0.005325637757778168,0.8965362310409546,0.003973765764385462,0.014259116724133492
246.0,259.0,-4.6869,0.0431,8.4867,-0.0353,0.0298,-0.1176,-2.1992627582945765,-1.4497255618195481e-09,4.3403167724609375,-1.5154469013214111,0.0002748253755271435,1.8321906328201294,5.633847462921896,0.0,0.2029363512992859,-1.6247013250934046,0.0,0.0025126596447080374,0.7012913227081299,0.0,0.011090870946645737,0.8965116739273071,0.003246641019359231,0.00566224567592144
246.0,259.0,-4.6869,0.0431,8.4867,-0.0353,0.0298,-0.1176,-2.19924320797109,-3.50091697880119e-15,4.374934196472168,-1.5154027938842773,0.0002719216572586447,1.8456708192825317,5.633887278824606,0.0,0.23589736223220825,-1.6246889273272913,0.0,-0.011584009043872356,0.7013358473777771,0.0,0.007258760277181864,0.8965595960617065,0.004109746776521206,0.028905227780342102
246.0,259.0,-4.6869,0.0431,8.4867,-0.0353,0.0298,-0.1176,-2.199282785455221,-8.454302040381222e-21,4.428672790527344,-1.5154718160629272,0.0020756174344569445,1.8079395294189453,5.633863436966696,0.0,0.21445541083812714,-1.6247294584857386,0.0,-0.016266318038105965,0.7012831568717957,0.0,0.020591402426362038,0.8965836763381958,0.004387758672237396,0.04092610627412796
246.0,259.0,-4.6869,0.0431,8.4867,-0.0353,0.0298,-0.1176,-2.199230810204977,-2.0416142390963595e-26,4.351607799530029,-1.5154590606689453,0.0026548306923359632,1.8028252124786377,5.633871781616964,0.0,0.20776879787445068,-1.6246894041644495,0.0,-0.007563712541013956,0.7012794017791748,0.0,-0.006373528391122818,0.896575927734375,0.00371473073028028,0.00453397911041975
246.0,259.0,-4.6869,0.0431,8.4867,-0.0353,0.0298,-0.1176,-2.1992789707579554,-6.61456961939188e-34,4.379900932312012,-1.5154151916503906,0.0030158115550875664,1.8475213050842285,5.6338392970855615,0.0,0.21289700269699097,-1.6247218290912073,0.0,-0.0031382511369884014,0.7012831568717957,0.0,0.018330853432416916,0.8965835571289062,0.001877233269624412,0.004395145457237959
246.0,259.0,-4.6869,0.0431,8.4867,-0.0353,0.0298,-0.1176,-2.1992551289000453,-1.597340119483859e-39,4.331204414367676,-1.5154074430465698,0.002773483982309699,1.7948193550109863,5.633859860688009,0.0,0.21841223537921906,-1.6247013250934046,0.0,-0.010515685193240643,0.7012872099876404,0.0,0.012271076440811157,0.8965995907783508,0.0010449595283716917,-0.0022287042811512947
246.0,259.0,-4.6869,0.0431,8.4867,-0.0353,0.0298,-0.1176,-2.19924320797109,-4.203895392974451e-45,4.3887248039245605,-1.5153875350952148,0.0027868770994246006,1.8667333126068115,5.633839177876272,0.0,0.2245764434337616,-1.624697510396139,0.0,-0.008344128727912903,0.7012831568717957,0.0,-0.000839351792819798,0.8966160416603088,0.0006110293325036764,-0.01562169473618269
246.0,259.0,-4.6869,0.0431,8.4867,-0.0353,0.0298,-0.1176,-2.1992670498290003,0.0,4.359403610229492,-1.5153990983963013,0.0029715222772210836,1.7987561225891113,5.633823144226827,0.0,0.21451370418071747,-1.624725643788473,0.0,-0.011528998613357544,0.7012271285057068,0.0,-0.009500143118202686,0.8966483473777771,0.000520449539180845,-0.0411883182823658
246.0,259.0,-4.6869,0.0431,8.4867,-0.0353,0.0298,-0.1176,-2.1992627582945765,0.0,4.353553771972656,-1.5153069496154785,0.0032055687624961138,1.8272532224655151,5.633823144226827,7.881453711888753e-09,0.21520012617111206,-1.6247218290912073,0.0,-0.003140235785394907,0.7013116478919983,0.0,0.009788074530661106,0.8966282606124878,0.0004039562772959471,0.0011179517023265362
246.0,259.0,-4.6869,0.0431,8.4867,-0.0353,0.0298,-0.1176,-2.199294706384176,0.0,4.371382713317871,-1.5152298212051392,0.0035268981009721756,1.8427633047103882,5.633827197342672,2.193831921681877e-12,0.22216494381427765,-1.624697510396139,0.0,0.0008883881382644176,0.7012994289398193,0.0,0.002507803961634636,0.8965795636177063,0.0003299045783933252,-0.0009529371745884418
246.0,259.0,-4.6869,0.0431,8.4867,-0.0353,0.0298,-0.1176,-2.1992985210814417,0.0,4.3786468505859375,-1.5152515172958374,0.003887537168338895,1.8156319856643677,5.633847224503317,6.106612564824954e-16,0.21534301340579987,-1.6246851126300257,6.051588457012258e-07,-0.007029554806649685,0.7012749910354614,0.0,0.0024019561242312193,0.8965836763381958,0.00027879938716068864,0.005707539152354002
246.0,259.0,-4.6869,0.0431,8.4867,-0.0353,0.0298,-0.1176,-2.1992908916869105,0.0,4.384686470031738,-1.5152392387390137,0.003575094509869814,1.8635673522949219,5.633823084622183,1.699797868412681e-19,0.21781952679157257,-1.6246488730060022,1.6844818595540545e-10,-0.009107830934226513,0.7012675404548645,0.0,-0.0008910432225093246,0.8966242671012878,0.00024140493769664317,0.0351792611181736
246.0,259.0,-4.6869,0.0431,8.4867,-0.0353,0.0298,-0.1176,-2.1992627582945765,0.0,4.354014873504639,-1.5152392387390137,0.0024799173697829247,1.8304722309112549,5.633795189648428,3.0892988172726232e-24,0.21768730878829956,-1.6246936956988733,3.0614633685132134e-15,0.004145254381000996,0.7012912631034851,0.0,0.004004961811006069,0.8966041803359985,0.00020478347141761333,-0.007647563703358173
249.0,257.0,-4.5769,0.2895,8.7697,-0.0339,0.0237,-0.1281,-2.199306627313131,0.0,4.351452827453613,-1.5151829719543457,0.001233491813763976,1.8216681480407715,5.633847284107961,8.599176090366928e-28,0.22174452245235443,-1.6246932188617151,8.521695837618898e-19,-0.005157732404768467,0.7012553215026855,0.0,0.0016355069819837809,0.8966243267059326,0.00018386472947895527,-0.019470008090138435
249.0,257.0,-4.5769,0.2895,8.7697,-0.0339,0.0237,-0.1281,-2.1992789707579554,0.0,4.361234188079834,-1.5152595043182373,0.0007314385729841888,1.821563482284546,5.633839416294851,2.3936123619042613e-31,0.22286492586135864,-1.6246932188617151,2.37204541965951e-22,-0.011470219120383263,0.7012953162193298,0.0,0.016647690907120705,0.8966000080108643,0.00016682379646226764,-0.006607681978493929
249.0,257.0,-4.5769,0.2895,8.7697,-0.0339,0.0237,-0.1281,-2.1992866001524867,0.0,4.404717922210693,-1.5152395963668823,0.0005199908628128469,1.7774345874786377,5.6338233826454065,-0.00023023899120744318,0.22294774651527405,-1.624697510396139,6.602675180955285e-26,0.0018720231018960476,0.7012470960617065,0.0,-0.0067518651485443115,0.8965635895729065,0.00015267389244399965,-0.027777567505836487
249.0,257.0,-4.5769,0.2895,8.7697,-0.0339,0.0237,-0.1281,-2.1992789707579554,0.0,4.378208637237549,-1.5152395963668823,0.0004696700780186802,1.8314487934112549,5.633811223297872,-0.00023727110237814486,0.21888314187526703,-1.6246612707721155,1.8378791356688357e-29,-0.0021318623330444098,0.7012953162193298,0.0,0.004294120706617832,0.896575927734375,0.00014073665079195052,-0.02267495170235634
249.0,257.0,-4.5769,0.2895,8.7697,-0.0339,0.0237,-0.1281,-2.199294706384176,0.0,4.37679386138916,-1.5152149200439453,0.00038446209509857,1.8385276794433594,5.633811223297872,-0.00024170399410650134,0.20417596399784088,-1.624653164540426,5.1158039446823976e-33,-0.0018805235158652067,0.701327919960022,0.0,0.011158591136336327,0.8965430855751038,0.00013053070870228112,0.02923775091767311
249.0,257.0,-4.5769,0.2895,8.7697,-0.0339,0.0237,-0.1281,-2.1993304691710414,0.0,4.338480472564697,-1.5152075290679932,0.0003707280266098678,1.8289334774017334,5.633722591191091,-0.0003700623637996614,0.21298573911190033,-1.6246894041644495,1.424002997087846e-36,-0.002839677268639207,0.7012835144996643,0.0,-0.003154368605464697,0.8965836763381958,0.0001217049575643614,-0.04021355137228966
249.0,257.0,-4.5769,0.2895,8.7697,-0.0339,0.0237,-0.1281,-2.1992866001524867,0.0,4.353074073791504,-1.5151910781860352,0.00032177980756387115,1.814997911453247,5.6337594268615625,-0.000433253007940948,0.23055094480514526,-1.6246655623065394,3.9637688881277506e-40,-0.012453862465918064,0.7012753486633301,0.0,-0.009542152285575867,0.8966202139854431,0.00011399720096960664,0.005740571767091751
249.0,257.0,-4.5769,0.2895,8.7697,-0.0339,0.0237,-0.1281,-2.199334760705465,0.0,4.354551315307617,-1.5151865482330322,0.00028156492044217885,1.8388733863830566,5.633787679463186,-0.0009164382354356349,0.2241477370262146,-1.62465745607485,7.006492321624085e-45,-0.00033852329943329096,0.7012913227081299,0.0,0.008540191687643528,0.8966000080108643,0.00010512067819945514,0.003920864313840866
249.0,257.0,-4.5769,0.2895,8.7697,-0.0339,0.0237,-0.1281,-2.1993185482420863,0.0,4.339973449707031,-1.5151631832122803,0.0007825737702660263,1.824731469154358,5.633767592697897,-0.0010529159335419536,0.22081276774406433,-1.6246455351458948,0.0,0.005621455144137144,0.7012872695922852,0.0,0.009747852571308613,0.896575927734375,9.932038665283471e-05,0.006304444279521704
249.0,257.0,-4.5769,0.2895,8.7697,-0.0339,0.0237,-0.1281,-2.1992866001524867,-0.00020826877153012902,4.407367706298828,-1.5151910781860352,0.0010218434035778046,1.8314146995544434,5.633702921658315,-0.0011075491784140468,0.22782772779464722,-1.6246212164508265,0.0,0.00074864859925583,0.7012512683868408,0.0,0.008383288979530334,0.8965836763381958,9.41267135203816e-05,0.031970251351594925
249.0,257.0,-4.5769,0.2895,8.7697,-0.0339,0.0237,-0.1281,-2.1993304691710414,-0.0002504333679098636,4.361519813537598,-1.5152270793914795,0.0012878936249762774,1.858771800994873,5.633771586209097,-0.0011435194173827767,0.2289028763771057,-1.624641243611471,0.0,-0.004078714642673731,0.7012831568717957,0.0,0.0011221510358154774,0.8965958952903748,8.944925502873957e-05,-0.008272415027022362
249.0,257.0,-4.5769,0.2895,8.7697,-0.0339,0.0237,-0.1281,-2.199339052239889,-0.0007885163649916649,4.321593761444092,-1.5151951313018799,0.001608264516107738,1.8331587314605713,5.6337389824684045,-0.0009670456638559699,0.2212182879447937,-1.624641243611471,0.0,-0.008832722902297974,0.7012790441513062,0.0,0.0061789914034307,0.8966077566146851,8.52146404213272e-05,0.01158006489276886
249.0,257.0,-4.5769,0.2895,8.7697,-0.0339,0.0237,-0.1281,-2.199294706384176,-0.0007541552768088877,4.4027557373046875,-1.5151268243789673,0.002218841342255473,1.8368455171585083,5.633707511215963,-0.0010072320001199841,0.23446780443191528,-1.6246698538409632,0.0,-0.005956684704869986,0.7012391090393066,0.0,0.002176591195166111,0.8966119289398193,8.136283577186987e-05,0.0220201313495636
249.0,257.0,-4.5769,0.2895,8.7697,-0.0339,0.0237,-0.1281,-2.1993023357787074,-0.000676633499097079,4.365066051483154,-1.5151793956756592,0.003077498869970441,1.82304048538208,5.633691477566519,-0.001978617161512375,0.21664634346961975,-1.6246174017535608,0.0,-0.004896547645330429,0.7012872695922852,0.0,0.02186425030231476,0.8966077566146851,7.78442554292269e-05,-0.0071665202267467976
243.0,251.0,-4.7037,0.1669,8.9641,-0.0402,0.0362,-0.1162,-2.1993586025633753,-0.0005604706238955259,4.366658687591553,-1.5150829553604126,0.0030513862147927284,1.8854427337646484,5.633646952896871,-0.00380144314840436,0.21090298891067505,-1.62465745607485,0.0,0.0015093330293893814,0.701315701007843,0.0,-0.0015380801633000374,0.8965917229652405,8.537847315892577e-05,-0.04021125286817551
243.0,251.0,-4.7037,0.1669,8.9641,-0.0402,0.0362,-0.1162,-2.199339052239889,-0.00042757613118737936,4.389956474304199,-1.5151638984680176,0.0032846801914274693,1.8211455345153809,5.633607077389517,-0.00585032906383276,0.2292865514755249,-1.6246336142169397,0.0,-0.002121669240295887,0.7012912631034851,0.0,0.011130115017294884,0.8966240882873535,8.24940434540622e-05,0.015700168907642365
243.0,251.0,-4.7037,0.1669,8.9641,-0.0402,0.0362,-0.1162,-2.1993586025633753,-0.000332705385517329,4.3750128746032715,-1.5151193141937256,0.004229839891195297,1.8600660562515259,5.633580136090078,-0.00734088895842433,0.20646895468235016,-1.6246617476092737,0.0,-0.00524543784558773,0.7012709975242615,0.0,-0.002349059097468853,0.8966240882873535,7.034761074464768e-05,-0.02769942581653595
243.0,251.0,-4.7037,0.1669,8.9641,-0.0402,0.0362,-0.1162,-2.199338575402731,-0.00027229671832174063,4.379020690917969,-1.5150635242462158,0.0040658013895154,1.7933156490325928,5.633527207165518,-0.006148898974061012,0.21598365902900696,-1.624641243611471,0.0,0.0017188889905810356,0.7013278603553772,0.0,0.013971402309834957,0.8966159224510193,9.19271624297835e-05,-0.038395605981349945
243.0,251.0,-4.7037,0.1669,8.9641,-0.0402,0.0362,-0.1162,-2.199334760705465,-0.00027654413133859634,4.391360282897949,-1.5150748491287231,0.004702550824731588,1.802555799484253,5.63345895984725,-0.003650117665529251,0.20945340394973755,-1.6246374289142054,0.0,0.002925589680671692,0.7013075947761536,0.0,0.009334225207567215,0.8966478705406189,0.0012715724296867847,0.051881641149520874
243.0,251.0,-4.7037,0.1669,8.9641,-0.0402,0.0362,-0.1162,-2.199362894097799,-0.00023971486371010542,4.41197395324707,-1.515027642250061,0.0053892130963504314,1.8243131637573242,5.633475351124563,-0.002003113040700555,0.22086992859840393,-1.6246174017535608,0.0,-0.012922465801239014,0.7012350559234619,0.0,0.005446682218462229,0.8966520428657532,0.0017705149948596954,-0.0017905402928590775
243.0,251.0,-4.7037,0.1669,8.9641,-0.0402,0.0362,-0.1162,-2.1993547878661097,-0.000277889019344002,4.413753032684326,-1.514931082725525,0.006451374385505915,1.787703037261963,5.633443343430319,-0.0016568414866924286,0.20914144814014435,-1.6246255079852503,0.0,-0.003812585026025772,0.7012994885444641,0.0,-0.00020903395488858223,0.8966678977012634,0.0020177834667265415,0.02097809687256813
243.0,251.0,-4.7037,0.1669,8.9641,-0.0402,0.0362,-0.1162,-2.1993190250792445,-0.00026031117886304855,4.398669719696045,-1.514987587928772,0.006549312733113766,1.8441113233566284,5.633491802006521,-0.0017609779024496675,0.2194235473871231,-1.6246855894671839,0.0,-0.0009031393565237522,0.7012350559234619,0.0,0.0019545527175068855,0.8966798186302185,0.0022373616229742765,0.015921575948596
243.0,251.0,-4.7037,0.1669,8.9641,-0.0402,0.0362,-0.1162,-2.199334760705465,-0.0007779165753163397,4.3443450927734375,-1.5148512125015259,0.007487772032618523,1.8352385759353638,5.633491802006521,-0.0022448066156357527,0.21717004477977753,-1.6246498266803187,0.0,-0.008427610620856285,0.7013437747955322,0.0,0.0026835077442228794,0.896716296672821,0.0024585954379290342,-0.0344480536878109
243.0,251.0,-4.7037,0.1669,8.9641,-0.0402,0.0362,-0.1162,-2.199362894097799,-0.000731419597286731,4.327066421508789,-1.5148073434829712,0.008188767358660698,1.880385398864746,5.633524882584371,-0.0022954412270337343,0.21629676222801208,-1.6247180143939417,0.0,-0.0023942498955875635,0.7013556957244873,0.0,0.005906084086745977,0.8967400193214417,0.0019819075241684914,0.013689897023141384
243.0,251.0,-4.7037,0.1669,8.9641,-0.0402,0.0362,-0.1162,-2.199339052239889,-0.0006566065130755305,4.362295150756836,-1.5147271156311035,0.009410278871655464,1.8549988269805908,5.633404004364767,-0.0021828676108270884,0.21862879395484924,-1.624657932912008,5.287639214657247e-05,-0.0025509546976536512,0.7013195157051086,0.0,-0.005438517779111862,0.896699845790863,0.0017613854724913836,0.006500748451799154
243.0,251.0,-4.7037,0.1669,8.9641,-0.0402,0.0362,-0.1162,-2.199327131310934,-0.0005521159619092941,4.371786594390869,-1.5147433280944824,0.011412642896175385,1.8930262327194214,5.633428144245901,-0.0024751380551606417,0.2170458436012268,-1.6246855894671839,5.118409535498358e-05,-0.0260915569961071,0.701331615447998,0.0,0.000193439656868577,0.8967038989067078,0.001333305612206459,0.0032393839210271835
243.0,251.0,-4.7037,0.1669,8.9641,-0.0402,0.0362,-0.1162,-2.1993466816344203,-0.0004919041530229151,4.3814287185668945,-1.5146229267120361,0.013111061416566372,1.8479089736938477,5.633387851506033,-0.0028886941727250814,0.21589350700378418,-1.6246936956988733,1.271718429052271e-05,-0.008762307465076447,0.7012831568717957,0.0,0.015728699043393135,0.8967560529708862,0.0012535956921055913,-0.005172743462026119
243.0,251.0,-4.7037,0.1669,8.9641,-0.0402,0.0362,-0.1162,-2.1993824444212855,-0.0003992051933892071,4.334871292114258,-1.5145878791809082,0.01549773383885622,1.8379483222961426,5.633384096413412,-0.0029366323724389076,0.22750259935855865,-1.624653164540426,3.5398746156545258e-09,0.005802331957966089,0.7012913227081299,0.0,0.00971132330596447,0.8967195153236389,0.001053484040312469,-0.02705300599336624
243.0,251.0,-4.7037,0.1669,8.9641,-0.0402,0.0362,-0.1162,-2.1993748150267542,-0.00033543026074767113,4.352218151092529,-1.5144554376602173,0.018600493669509888,1.878450632095337,5.633388149529257,-0.0029269212391227484,0.21338871121406555,-1.6246336142169397,9.85337137403286e-13,-0.0018096447456628084,0.7013397216796875,0.0,-0.006075152661651373,0.8967761397361755,0.0008686977671459317,-0.06694024056196213
244.0,246.0,-4.5589,0.1675,8.7954,-0.0362,0.0843,-0.1257,-2.1994148693480433,-0.0003144257061649114,4.341773986816406,-1.5143762826919556,0.023182382807135582,1.881498098373413,5.633320021420278,-0.0021300080697983503,0.2204471379518509,-1.6246336142169397,1.7908018547325946e-17,0.005785707850009203,0.7012831568717957,0.0,0.0011685841018334031,0.8967602252960205,0.0006398395053111017,0.042323578149080276
244.0,246.0,-4.5589,0.1675,8.7954,-0.0362,0.0843,-0.1257,-2.199390550652975,-0.00027926036273129284,4.415167331695557,-1.5141197443008423,0.026478508487343788,1.8814375400543213,5.633348333626547,-0.001608020393177867,0.21547189354896545,-1.6246255079852503,4.984762431274304e-21,-0.015290504321455956,0.701359748840332,0.0,-0.010939542204141617,0.8967519402503967,0.0004186089208815247,-0.04545365273952484
244.0,246.0,-4.5589,0.1675,8.7954,-0.0362,0.0843,-0.1257,-2.19940247158193,-0.00020064963609911501,4.378399848937988,-1.5139639377593994,0.030209768563508987,1.8539891242980957,5.63334475734786,-0.0011727262753993273,0.217866450548172,-1.624641243611471,1.3875267559399456e-24,-0.001460520550608635,0.7013319134712219,0.0,0.0030133980326354504,0.8967354893684387,0.00032722559990361333,0.01883622258901596
244.0,246.0,-4.5589,0.1675,8.7954,-0.0362,0.0843,-0.1257,-2.199366708795065,-0.0001764461921993643,4.356337547302246,-1.5137951374053955,0.03401213884353638,1.8634393215179443,5.633292007237234,-0.0009909904329106212,0.20930591225624084,-1.624629322682516,3.862231984489969e-28,-0.002449111081659794,0.7012994289398193,0.0,-0.00897254329174757,0.8967117667198181,0.0002686158986762166,0.00686993170529604
244.0,246.0,-4.5589,0.1675,8.7954,-0.0362,0.0843,-0.1257,-2.1993705234923304,-0.0001894493034342304,4.34107780456543,-1.5135635137557983,0.03791916370391846,1.8714752197265625,5.633296060353079,-0.0008618750725872815,0.21619048714637756,-1.6246536413775843,1.0750664611575257e-31,0.0018501022132113576,0.701315701007843,0.0,-0.00046053528785705566,0.8967154026031494,0.0002278140018461272,0.018399110063910484
244.0,246.0,-4.5589,0.1675,8.7954,-0.0362,0.0843,-0.1257,-2.1993748150267542,-0.0001714083191473037,4.344632625579834,-1.51335608959198,0.04331103339791298,1.8813506364822388,5.633308636933126,-0.0007570146699436009,0.2103702276945114,-1.6246698538409632,2.9924869059710655e-35,0.0034908009693026543,0.7012672424316406,0.0,0.006009865552186966,0.896760106086731,0.00023732168483547866,-0.007059302646666765
244.0,246.0,-4.5589,0.1675,8.7954,-0.0362,0.0843,-0.1257,-2.199390550652975,-0.00018258854106534272,4.396626949310303,-1.513067603111267,0.04794583469629288,1.927309513092041,5.6333162663276575,-0.0005788422422483563,0.21810555458068848,-1.6245973745929163,8.329697823830545e-39,0.0031095894519239664,0.7013354301452637,0.0,0.0008037262596189976,0.8967437744140625,0.00020968115131836385,-0.023676903918385506
244.0,246.0,-4.5589,0.1675,8.7954,-0.0362,0.0843,-0.1257,-2.1994387112059535,-0.00019197909568902105,4.393695831298828,-1.5127558708190918,0.05331877991557121,1.89004385471344,5.633312749653616,-0.0005832971655763686,0.21231074631214142,-1.6246455351458948,2.3191489584575723e-42,0.007524597924202681,0.7013197541236877,0.0,0.008511519059538841,0.8967158794403076,0.0001878033799584955,-0.027665354311466217
244.0,246.0,-4.5589,0.1675,8.7954,-0.0362,0.0843,-0.1257,-2.199390550652975,-0.00026829817215912044,4.366676330566406,-1.5123118162155151,0.060524534434080124,1.9389485120773315,5.633268165379324,-0.000723449164070189,0.22626173496246338,-1.6246536413775843,0.0,-0.00772224273532629,0.7013195157051086,0.0,0.004406128544360399,0.8967240452766418,0.000164867436978966,-0.032521504908800125
244.0,246.0,-4.5589,0.1675,8.7954,-0.0362,0.0843,-0.1257,-2.1994105778136195,-0.0002997059200424701,4.398701190948486,-1.5119165182113647,0.06524810940027237,1.9110666513442993,5.6332718608673,-0.0009511479292996228,0.22589609026908875,-1.6246379057513636,0.0,-0.014922643080353737,0.7013115882873535,0.0,0.0014170259237289429,0.8967559933662415,0.00015103370242286474,-0.04953848570585251
244.0,246.0,-4.5589,0.1675,8.7954,-0.0362,0.0843,-0.1257,-2.199418684045309,-0.0005212955875322223,4.402175426483154,-1.5114595890045166,0.0689283236861229,1.9604418277740479,5.6332399127777,-0.0010908799013122916,0.22068695724010468,-1.624641243611471,0.0,0.003738824976608157,0.7013596892356873,0.0,0.0050439853221178055,0.896760106086731,0.00016224556020461023,-0.04683449864387512
244.0,246.0,-4.5589,0.1675,8.7954,-0.0362,0.0843,-0.1257,-2.1993943653502406,-0.00046512080007232726,4.343149185180664,-1.5111255645751953,0.07038518041372299,1.9698452949523926,5.633236098080435,-0.0011126990430057049,0.21886394917964935,-1.624629322682516,0.0,0.0021018395200371742,0.7013275027275085,0.0,-0.00047558313235640526,0.8967359662055969,0.00015088509826455265,-0.022200264036655426
244.0,246.0,-4.5589,0.1675,8.7954,-0.0362,0.0843,-0.1257,-2.1993705234923304,-0.0004311911470722407,4.367267608642578,-1.510656714439392,0.0698692798614502,1.9793806076049805,5.633236098080435,-0.0009392692008987069,0.2082434445619583,-1.6246336142169397,0.0,0.0003106790245510638,0.7013718485832214,0.0,0.0007956590270623565,0.8967437744140625,0.00016086974937934428,-0.06915222108364105
244.0,246.0,-4.5589,0.1675,8.7954,-0.0362,0.0843,-0.1257,-2.1993943653502406,-0.0001826694788178429,4.400762557983398,-1.5102490186691284,0.06867416203022003,1.950221061706543,5.6332324025924585,-0.0008273674175143242,0.219396710395813,-1.6246493498431605,0.0,0.006724745500832796,0.7013837695121765,0.0,-0.005522502586245537,0.896731436252594,0.00013915036106482148,-0.041479166597127914
243.0,244.0,-4.4177,0.0855,8.6453,-0.0541,0.1038,-0.1237,-2.199339052239889,-0.00013564640539698303,4.376425266265869,-1.5097895860671997,0.06918631494045258,1.9288456439971924,5.63320409038619,-0.0012416343670338392,0.2186708152294159,-1.624641243611471,0.0,7.849240500945598e-05,0.7013115882873535,0.0,0.004316804930567741,0.8967678546905518,0.00017295798170380294,-0.04337479919195175
243.0,244.0,-4.4177,0.0855,8.6453,-0.0541,0.1038,-0.1237,-2.1994105778136195,-5.2122330089332536e-05,4.339418888092041,-1.5091804265975952,0.07455306500196457,1.924044132232666,5.633248376637258,-0.001292962348088622,0.21317043900489807,-1.6246336142169397,0.0,0.002465661149471998,0.7012913227081299,0.0,0.006826040334999561,0.8968362212181091,0.0006733490154147148,0.0037939902395009995
243.0,244.0,-4.4177,0.0855,8.6453,-0.0541,0.1038,-0.1237,-2.1993824444212855,-8.872243779478595e-05,4.3945183753967285,-1.50874924659729,0.08084151893854141,1.937974214553833,5.633164155274191,-0.0013993163593113422,0.22794076800346375,-1.6246698538409632,0.0,0.012503577396273613,0.701331615447998,0.0,-0.00434396555647254,0.8967879414558411,0.0007532398449257016,-0.04035767540335655
243.0,244.0,-4.4177,0.0855,8.6453,-0.0541,0.1038,-0.1237,-2.19940247158193,-0.00011595899559324607,4.337621212005615,-1.5082783699035645,0.08654043078422546,1.9619396924972534,5.63320808389739,-0.00245305267162621,0.209385946393013,-1.6246216932879847,0.0,0.00648463424295187,0.7013396620750427,0.0,0.0028285193257033825,0.8967834115028381,0.0007149396697059274,-0.034440185874700546
243.0,244.0,-4.4177,0.0855,8.6453,-0.0541,0.1038,-0.1237,-2.1994344196715296,-0.00019369083747733384,4.351577281951904,-1.5078235864639282,0.09362295269966125,1.9411522150039673,5.633124279766836,-0.003444825066253543,0.2036856710910797,-1.624646011983053,0.0,0.0009877284755930305,0.7013354301452637,0.0,9.239092469215393e-05,0.8967719078063965,0.0007316768169403076,-0.06599143892526627
243.0,244.0,-4.4177,0.0855,8.6453,-0.0541,0.1038,-0.1237,-2.1994668445982875,-0.0032635903917253017,4.380762577056885,-1.5071581602096558,0.10219574719667435,1.9608036279678345,5.633112239628591,-0.005617234855890274,0.19491350650787354,-1.6246498266803187,0.0,0.0018643296789377928,0.7013354301452637,0.0,0.001800221623852849,0.8968440890312195,0.0006934903212822974,-0.006028137169778347
243.0,244.0,-4.4177,0.0855,8.6453,-0.0541,0.1038,-0.1237,-2.1994945011534632,-0.007414666004478931,4.373531341552734,-1.506598949432373,0.10865604877471924,1.974766492843628,5.633052277355947,-0.00832866970449686,0.20830029249191284,-1.6246216932879847,0.0,-0.0045152343809604645,0.701275110244751,0.0,0.010177329182624817,0.8967719078063965,0.000560109328944236,-0.016213731840252876
243.0,244.0,-4.4177,0.0855,8.6453,-0.0541,0.1038,-0.1237,-2.199550767938131,-0.010537195950746536,4.333221912384033,-1.5058823823928833,0.11455316841602325,1.9913890361785889,5.633028316288748,-0.009286841377615929,0.20942342281341553,-1.6246455351458948,0.0,0.0050102584064006805,0.701315701007843,0.0,0.007345693185925484,0.8968198299407959,0.00040873116813600063,-0.025841761380434036
243.0,244.0,-4.4177,0.0855,8.6453,-0.0541,0.1038,-0.1237,-2.1996308765807093,-0.0091902706772089,4.3302435874938965,-1.5051037073135376,0.11386314034461975,1.990105152130127,5.632949042111196,-0.008833005093038082,0.20979180932044983,-1.6246336142169397,0.0,0.00953684188425541,0.7013394236564636,0.0,0.018423408269882202,0.8967797756195068,0.00038531009340658784,-0.03681015595793724
243.0,244.0,-4.4177,0.0855,8.6453,-0.0541,0.1038,-0.1237,-2.199634691277975,-0.004302430897951126,4.332647800445557,-1.504259705543518,0.11456727236509323,2.0008389949798584,5.632872986584463,-0.00859107356518507,0.19684778153896332,-1.6246092955218714,0.0,0.026033606380224228,0.7013195157051086,0.0,-0.000136492308229208,0.8967756628990173,0.0003477237478364259,-0.07826466858386993
243.0,244.0,-4.4177,0.0855,8.6453,-0.0541,0.1038,-0.1237,-2.199634691277975,-0.0014524342259392142,4.373081207275391,-1.503580093383789,0.11623240262269974,2.029228925704956,5.632840680866995,-0.009044944308698177,0.21504437923431396,-1.624657932912008,0.0,0.0016184196574613452,0.7013115286827087,0.0,0.00623627845197916,0.8967875242233276,0.0003424594469834119,-0.09417101740837097
243.0,244.0,-4.4177,0.0855,8.6453,-0.0541,0.1038,-0.1237,-2.1996828518309535,-0.0011236958671361208,4.363854885101318,-1.5028475522994995,0.11668024212121964,2.013197183609009,5.632753240853109,-0.009935936890542507,0.20999637246131897,-1.6245854536639612,0.0,-0.00602362584322691,0.7013718485832214,0.0,0.007288002874702215,0.8967956900596619,0.0002698781026992947,-0.07820134609937668
243.0,244.0,-4.4177,0.0855,8.6453,-0.0541,0.1038,-0.1237,-2.19973148922109,-0.002534271217882633,4.364078521728516,-1.502130150794983,0.12049678713083267,2.034834146499634,5.632628547936239,-0.010406140238046646,0.20628249645233154,-1.6246336142169397,0.0,0.00160891842097044,0.7013354897499084,0.0,0.008015895262360573,0.8968116641044617,0.0009987475350499153,-0.08607463538646698
243.0,244.0,-4.4177,0.0855,8.6453,-0.0541,0.1038,-0.1237,-2.199702878991598,-0.003685428062453866,4.3789777755737305,-1.5014042854309082,0.12655600905418396,2.0231564044952393,5.632653224259176,-0.010131110437214375,0.1971496045589447,-1.6246097723590296,8.291704034490976e-08,0.0032797676976770163,0.7012590169906616,-3.5235638851105477e-09,0.006446534767746925,0.8967956900596619,0.001247377716936171,-0.05382026731967926
243.0,244.0,-4.4177,0.0855,8.6453,-0.0541,0.1038,-0.1237,-2.1997462711729945,-0.004161418881267309,4.365996360778809,-1.5006306171417236,0.12876072525978088,2.030620813369751,5.6326215741928,-0.00817906390875578,0.1999112069606781,-1.6246140638934534,2.308026166020216e-11,0.010105611756443977,0.701363742351532,-9.807968239655684e-13,-0.006075418554246426,0.896864116191864,0.0012430245988070965,-0.021532325074076653
242.0,230.0,-4.7713,0.2339,8.7691,-0.051,0.1585,-0.1261,-2.199794431725973,-0.005035572685301304,4.354743003845215,-1.4998630285263062,0.12539547681808472,2.0129685401916504,5.632561492710867,-0.006614397279918194,0.19652746617794037,-1.624589745198385,6.424475548446641e-15,0.013150076381862164,0.7012873888015747,-2.730084068393952e-16,-0.0001275866525247693,0.8968517780303955,0.0019137049093842506,-0.003178713843226433
242.0,230.0,-4.7713,0.2339,8.7691,-0.051,0.1585,-0.1261,-2.1998030147948207,-0.004750396125018597,4.3974199295043945,-1.4991260766983032,0.12303552776575089,2.0166819095611572,5.6324734566505334,-0.005542653612792492,0.20688043534755707,-1.6245811621295374,1.788276389604409e-18,0.01621246710419655,0.7012953758239746,-7.599287608009351e-20,-0.002488567028194666,0.8968797326087952,0.00254106055945158,-0.022967036813497543
242.0,230.0,-4.7713,0.2339,8.7691,-0.051,0.1585,-0.1261,-2.199806352654928,-0.0027704108506441116,4.384652614593506,-1.4980539083480835,0.12314930558204651,2.038717269897461,5.6324336407478235,-0.005538140889257193,0.19943690299987793,-1.6246054808246058,3.25010408961131e-23,0.0014033382758498192,0.7013115882873535,-1.3811330383031293e-24,0.0015152934938669205,0.8968836665153503,0.0024547488428652287,-0.08478289842605591
242.0,230.0,-4.7713,0.2339,8.7691,-0.051,0.1585,-0.1261,-2.1998425922789515,-0.0016302090371027589,4.370975494384766,-1.4973595142364502,0.12412343174219131,2.041348934173584,5.632393765240469,-0.005253403447568417,0.2047785222530365,-1.624589745198385,9.046785513194848e-27,0.025386732071638107,0.701275110244751,-3.844434947356373e-28,0.000952158123254776,0.8968673348426819,0.002722866367548704,-0.10998430103063583
242.0,230.0,-4.7713,0.2339,8.7691,-0.051,0.1585,-0.1261,-2.199862619439596,-0.0014598164707422256,4.388998985290527,-1.4965792894363403,0.1259738802909851,2.0238006114959717,5.6323656914527795,-0.004885528236627579,0.19278459250926971,-1.6246259848224085,2.518206252512324e-30,-0.0055593582801520824,0.7012791037559509,-1.0701125753148553e-31,0.016251131892204285,0.8969398736953735,0.0027495159301906824,-0.10533440113067627
242.0,230.0,-4.7713,0.2339,8.7691,-0.051,0.1585,-0.1261,-2.1998540363707484,-0.002843699185177684,4.355319499969482,-1.4958325624465942,0.12816280126571655,2.043612480163574,5.632341909199514,-0.005056863185018301,0.1950216293334961,-1.6245978514300745,7.009520109233822e-34,0.021905949339270592,0.7013154625892639,-2.978697806222943e-35,0.020595815032720566,0.8969315886497498,0.003058252390474081,-0.12855210900306702
242.0,230.0,-4.7713,0.2339,8.7691,-0.051,0.1585,-0.1261,-2.1999265156187953,-0.003784767584875226,4.375913619995117,-1.4950206279754639,0.1298443228006363,2.0526230335235596,5.632285344391622,-0.005667080171406269,0.18294528126716614,-1.624617878590719,1.951125606460314e-37,0.01336890272796154,0.7013996243476868,-8.291313456295759e-39,0.005810021422803402,0.8969435095787048,0.003225156804546714,-0.08855782449245453
242.0,230.0,-4.7713,0.2339,8.7691,-0.051,0.1585,-0.1261,-2.1999060116209925,-0.005021012853831053,4.376769542694092,-1.4942452907562256,0.1299290508031845,2.0436410903930664,5.632265794068136,-0.0057230303063988686,0.1901683360338211,-1.6245740095721644,5.431012458183694e-41,0.023917941376566887,0.7013475298881531,-2.3079385707429737e-42,0.0013997473288327456,0.8969554305076599,0.002938066143542528,-0.06387326121330261
242.0,230.0,-4.7713,0.2339,8.7691,-0.051,0.1585,-0.1261,-2.1999503574767054,-0.005644782446324825,4.332036018371582,-1.4934911727905273,0.12927713990211487,2.032474994659424,5.6321892020996,-0.004769415128976107,0.1936458945274353,-1.6245697180377405,1.5414283107572988e-44,0.03034783899784088,0.7012913823127747,-0.0,-0.008087565191090107,0.8969550132751465,0.0024552419781684875,-0.13031935691833496
242.0,230.0,-4.7713,0.2339,8.7691,-0.051,0.1585,-0.1261,-2.1999904117979945,-0.004930128809064627,4.385401725769043,-1.492435097694397,0.1322752833366394,2.0515737533569336,5.63222216346816,-0.0037134557496756315,0.19559207558631897,-1.6246021429644983,7.310107321245596e-05,0.02368985489010811,0.7013434171676636,-0.0,-0.0031182842794805765,0.8970279693603516,0.0015471468213945627,-0.10919257253408432
242.0,230.0,-4.7713,0.2339,8.7691,-0.051,0.1585,-0.1261,-2.2000228367247523,-0.004263709764927626,4.424584865570068,-1.4916104078292847,0.1316334754228592,2.0966148376464844,5.632282542973318,-0.0023859806824475527,0.19523794949054718,-1.6245783011065882,0.00011289913527434692,0.02388269267976284,0.7013677954673767,-0.0,0.0032166210003197193,0.8970033526420593,0.0012965548085048795,-0.1335430145263672
242.0,230.0,-4.7713,0.2339,8.7691,-0.051,0.1585,-0.1261,-2.2000466785826625,-0.00345251546241343,4.424499988555908,-1.4908229112625122,0.13411034643650055,2.0734856128692627,5.632197844773092,-0.0014691618271172047,0.19617147743701935,-1.6246102491961878,0.00010500797361601144,0.028374210000038147,0.701275110244751,-0.0,0.010776372626423836,0.8970357179641724,0.0008486529695801437,-0.16049206256866455
242.0,230.0,-4.7713,0.2339,8.7691,-0.051,0.1585,-0.1261,-2.2000743351378382,-0.002620900981128216,4.406334400177002,-1.4899455308914185,0.1319045126438141,2.043401002883911,5.632162081986227,-0.001500390935689211,0.19385120272636414,-1.6246140638934534,9.813751967158169e-05,0.04105670377612114,0.7012592554092407,-0.0,0.0053110490553081036,0.8970275521278381,0.00057656952412799,-0.15124426782131195
242.0,230.0,-4.7713,0.2339,8.7691,-0.051,0.1585,-0.1261,-2.2000824413695277,-0.002876725746318698,4.410574913024902,-1.489256739616394,0.1293795108795166,2.070608615875244,5.632169890194692,-0.0018311457242816687,0.18105927109718323,-1.6245811621295374,0.00011052240733988583,0.010343993082642555,0.7013715505599976,-0.0,-0.000687657855451107,0.8969836235046387,0.000509413774125278,-0.1314145028591156
244.0,231.0,-5.1392,0.3703,8.7852,-0.0331,0.1491,-0.1206,-2.200066228906149,-0.0022720491979271173,4.398663520812988,-1.488427758216858,0.13090980052947998,2.0822417736053467,5.632166194706716,-0.0019074194133281708,0.18939459323883057,-1.6245783011065882,0.00010413824929855764,0.021934036165475845,0.7013474702835083,-0.0,-0.0029626202303916216,0.8970074653625488,0.0004099472425878048,-0.1703566312789917
244.0,231.0,-5.1392,0.3703,8.7852,-0.0331,0.1491,-0.1206,-2.2000867329039515,-0.001284102094359696,4.444023132324219,-1.4876806735992432,0.1355232149362564,2.0613951683044434,5.63216261842803,-0.0019965136889368296,0.19350972771644592,-1.624561611806051,9.844276792136952e-05,0.023814458400011063,0.7013875842094421,-0.0,0.0017850013682618737,0.8970198035240173,0.00034298276295885444,-0.1711648404598236
244.0,231.0,-5.1392,0.3703,8.7852,-0.0331,0.1491,-0.1206,-2.200118680993551,-0.0010850576218217611,4.391837120056152,-1.4868583679199219,0.13810458779335022,2.0986287593841553,5.632134008198538,-0.0024425233714282513,0.1857890486717224,-1.624605957661764,9.333784691989422e-05,0.022354625165462494,0.701335608959198,-0.0,0.012372972443699837,0.8970398306846619,0.0002948255860246718,-0.1675882190465927
244.0,231.0,-5.1392,0.3703,8.7852,-0.0331,0.1491,-0.1206,-2.2001754246153773,-0.0025626961141824722,4.401454925537109,-1.4856985807418823,0.14038394391536713,2.0698704719543457,5.632102000504293,-0.003316084388643503,0.19483742117881775,-1.6245935598956507,8.730187983019277e-05,0.0348232164978981,0.7013675570487976,-0.0,0.004688788205385208,0.8970033526420593,0.00028381304582580924,-0.16992726922035217
244.0,231.0,-5.1392,0.3703,8.7852,-0.0331,0.1491,-0.1206,-2.2001668415465296,-0.0032758046872913837,4.427704811096191,-1.4848588705062866,0.13954056799411774,2.0712907314300537,5.6320621249969385,-0.003984375391155481,0.1979922652244568,-1.6246102491961878,8.326350507559255e-05,0.023184344172477722,0.701271116733551,-0.0,9.300909005105495e-05,0.8970274329185486,0.0002537987020332366,-0.13790977001190186
244.0,231.0,-5.1392,0.3703,8.7852,-0.0331,0.1491,-0.1206,-2.200230737725729,-0.003712380537763238,4.37572717666626,-1.4841240644454956,0.13809780776500702,2.0845694541931152,5.6320299980934045,-0.004814070649445057,0.17654116451740265,-1.6245740095721644,9.278760990127921e-05,0.004865155555307865,0.7013315558433533,-0.0,-0.003965627867728472,0.8969873785972595,0.0002295259473612532,-0.17461882531642914
244.0,231.0,-5.1392,0.3703,8.7852,-0.0331,0.1491,-0.1206,-2.200162550012106,-0.00346184428781271,4.3902130126953125,-1.4833046197891235,0.13511022925376892,2.1326746940612793,5.63199012258605,-0.006704795639961958,0.18366843461990356,-1.624589745198385,8.891461766324937e-05,0.025602558627724648,0.7013434171676636,-0.0,0.01740136928856373,0.8969754576683044,0.00020949052122887224,-0.15972208976745605
244.0,231.0,-5.1392,0.3703,8.7852,-0.0331,0.1491,-0.1206,-2.200174470941061,-0.0023855145554989576,4.377135276794434,-1.4825407266616821,0.13735321164131165,2.1137707233428955,5.631954359799185,-0.008704631589353085,0.18014994263648987,-1.6245783011065882,8.530294871889055e-05,0.02800319343805313,0.7013075947761536,-0.0,0.007402726914733648,0.8970398306846619,0.0001926722761709243,-0.20741167664527893
244.0,231.0,-5.1392,0.3703,8.7852,-0.0331,0.1491,-0.1206,-2.200242658654684,-0.0020256421994417906,4.3972907066345215,-1.4816762208938599,0.14108224213123322,2.0757954120635986,5.631870436459341,-0.012057208456099033,0.1795477420091629,-1.6245535055743616,8.19732085801661e-05,0.009444870054721832,0.70128333568573,-0.0,-0.003508749883621931,0.8970357179641724,0.00012055446859449148,-0.2123306393623352
244.0,231.0,-5.1392,0.3703,8.7852,-0.0331,0.1491,-0.1206,-2.2002626858153285,-0.003842996433377266,4.356741428375244,-1.4807851314544678,0.14198869466781616,2.085749626159668,5.631806659489431,-0.0156590323895216,0.17864227294921875,-1.6245740095721644,7.88936231401749e-05,0.023091968148946762,0.701351523399353,-0.0,-0.0018676588078960776,0.8970475792884827,0.0001115588893298991,-0.18200361728668213
244.0,231.0,-5.1392,0.3703,8.7852,-0.0331,0.1491,-0.1206,-2.2003308735289515,-0.007884065620601177,4.3121337890625,-1.479674220085144,0.13791289925575256,2.0395395755767822,5.631618845253744,-0.02629992924630642,0.1792280226945877,-1.624533478413717,8.581628208048642e-05,0.03068806231021881,0.7013434171676636,-0.0,0.007778245955705643,0.8970315456390381,0.0001217895041918382,-0.2108229398727417
244.0,231.0,-5.1392,0.3703,8.7852,-0.0331,0.1491,-0.1206,-2.2003704510130824,-0.008771657012403011,4.357901096343994,-1.4788792133331299,0.13088108599185944,2.0469908714294434,5.631422865181722,-0.04084813594818115,0.17235319316387177,-1.6245783011065882,8.289739344036207e-05,0.020052261650562286,0.7013115882873535,-0.0,-0.004543500952422619,0.8970398306846619,0.00013086135732010007,-0.2029862105846405
244.0,231.0,-5.1392,0.3703,8.7852,-0.0331,0.1491,-0.1206,-2.200418611566061,-0.008068116381764412,4.36770486831665,-1.4780534505844116,0.12846457958221436,2.109762191772461,5.63113551118926,-0.0690179169178009,0.16218721866607666,-1.6245539824115198,8.012971375137568e-05,0.03252632915973663,0.7013394236564636,-0.0,0.007117035798728466,0.8970152139663696,0.00012515547859948128,-0.168066143989563
244.0,231.0,-5.1392,0.3703,8.7852,-0.0331,0.1491,-0.1206,-2.200386186639303,-0.005920907482504845,4.344178199768066,-1.4773753881454468,0.1306179016828537,2.0990891456604004,5.630607592850485,-0.11362235993146896,0.1328125298023224,-1.6245697180377405,8.011177851585671e-05,0.037953268736600876,0.7013195157051086,-0.0,0.000820579007267952,0.8970275521278381,0.00011811612057499588,-0.20603030920028687
244.0,231.0,-5.1392,0.3703,8.7852,-0.0331,0.1491,-0.1206,-2.200453897515768,-0.00429555494338274,4.353597640991211,-1.4765681028366089,0.13343599438667297,2.0876095294952393,5.629780936032095,-0.15143877267837524,0.11981377750635147,-1.6246016661273401,7.605776045238599e-05,0.023509424179792404,0.701335608959198,-0.0,0.008425386622548103,0.8970435261726379,0.00012777607480529696,-0.17166930437088013
251.0,216.0,-6.5856,0.3888,8.5956,-0.0078,-0.2289,-0.1136,-2.200510641137594,-0.0046378569677472115,4.347535133361816,-1.4757169485092163,0.1395127922296524,2.101289749145508,5.628713714867391,-0.1710897982120514,0.10849222540855408,-1.6245697180377405,7.238733087433502e-05,0.03557509183883667,0.7013315558433533,-0.0,-0.0034666149877011776,0.8970029354095459,0.0002611577801872045,-0.2114359736442566
251.0,216.0,-6.5856,0.3888,8.5956,-0.0078,-0.2289,-0.1136,-2.2005869350829066,-0.00753402104601264,4.3215107917785645,-1.4748995304107666,0.1386433094739914,2.078937530517578,5.62768845537261,-0.18935507535934448,0.0842275619506836,-1.624561611806051,6.90548331476748e-05,0.015485457144677639,0.7013235092163086,-0.0,0.0008686307701282203,0.897075891494751,0.00137325341347605,-0.14655092358589172
251.0,216.0,-6.5856,0.3888,8.5956,-0.0078,-0.2289,-0.1136,-2.2006432018675746,-0.011639776639640331,4.343963623046875,-1.4740452766418457,0.1319279670715332,2.132164239883423,5.626389729767599,-0.22728599607944489,0.07429826259613037,-1.6245535055743616,6.6015672928188e-05,0.04206158220767975,0.7012833952903748,-0.0,-0.0061644441448152065,0.8970675468444824,0.0018986820941790938,-0.21414300799369812
251.0,216.0,-6.5856,0.3888,8.5956,-0.0078,-0.2289,-0.1136,-2.20072664837026,-0.012540261261165142,4.315873622894287,-1.4730284214019775,0.12512555718421936,2.1058244705200195,5.624340700894155,-0.25541457533836365,0.04551050812005997,-1.6245253721820276,6.235652108443901e-05,0.031305037438869476,0.7012954354286194,-0.0,0.010880574584007263,0.8970758318901062,0.00138314557261765,-0.17250609397888184
251.0,216.0,-6.5856,0.3888,8.5956,-0.0078,-0.2289,-0.1136,-2.2007576427855433,-0.009935442358255386,4.3205413818359375,-1.4723552465438843,0.12363768368959427,2.1333367824554443,5.622722792416372,-0.29741090536117554,0.03158637136220932,-1.624549690877096,5.98677943344228e-05,0.030696554109454155,0.7012954354286194,-0.0,0.004290723241865635,0.8970675468444824,0.0010822853073477745,-0.22884546220302582
251.0,216.0,-6.5856,0.3888,8.5956,-0.0078,-0.2289,-0.1136,-2.200778146783346,-0.0058489004150033,4.342414855957031,-1.4715547561645508,0.1228504404425621,2.060551166534424,5.620806026249685,-0.3143201768398285,0.042436495423316956,-1.624561611806051,5.757007238571532e-05,0.020698830485343933,0.7013154625892639,-0.0,0.0038237713743001223,0.897083580493927,0.000904518470633775,-0.1529102325439453
251.0,216.0,-6.5856,0.3888,8.5956,-0.0078,-0.2289,-0.1136,-2.200834413568014,-0.003907123580574989,4.3792266845703125,-1.4708874225616455,0.1218496635556221,2.0861361026763916,5.61882911899642,-0.3540075719356537,0.0114007368683815,-1.6245783011065882,5.544216401176527e-05,0.0352398119866848,0.7013514637947083,-0.0,0.0031006268691271544,0.8970794677734375,0.0008277355809696019,-0.18900053203105927
251.0,216.0,-6.5856,0.3888,8.5956,-0.0078,-0.2289,-0.1136,-2.200829645196432,-0.004697095602750778,4.346776962280273,-1.470166802406311,0.12199348956346512,2.069705009460449,5.616601633816519,-0.38768306374549866,0.012952204793691635,-1.6245902220355433,5.3465999371837825e-05,0.031270451843738556,0.7012633085250854,-0.0,0.0009954042034223676,0.8970872759819031,0.0010966468835249543,-0.18169352412223816
251.0,216.0,-6.5856,0.3888,8.5956,-0.0078,-0.2289,-0.1136,-2.2008735142149867,-0.008491268381476402,4.35637092590332,-1.4693113565444946,0.12271280586719513,2.047750234603882,5.614108788758077,-0.4246007204055786,-0.004013571422547102,-1.6245854536639612,5.162582965567708e-05,0.03407347574830055,0.7013874053955078,-0.0,0.001037344802170992,0.8970873355865479,0.0014871564926579595,-0.17704562842845917
251.0,216.0,-6.5856,0.3888,8.5956,-0.0078,-0.2289,-0.1136,-2.2009903393187464,-0.010646406561136246,4.375348091125488,-1.4686713218688965,0.11254335194826126,2.043792963027954,5.611380564957418,-0.4615781307220459,-0.02620202675461769,-1.624561611806051,4.990817615180276e-05,0.03065940923988819,0.7013195157051086,-0.0,-0.0032245172187685966,0.8971232771873474,0.0013967223931103945,-0.18267646431922913
251.0,216.0,-6.5856,0.3888,8.5956,-0.0078,-0.2289,-0.1136,-2.201038499871725,-0.010850134305655956,4.296145915985107,-1.4679884910583496,0.10764189809560776,2.073101043701172,5.608481931477346,-0.5014231204986572,-0.03514198213815689,-1.6245492140399378,2.7405668845403852e-08,0.022616567090153694,0.7013115882873535,-0.0,0.0024309984873980284,0.8971033096313477,0.0008144998573698103,-0.1694323867559433
251.0,216.0,-6.5856,0.3888,8.5956,-0.0078,-0.2289,-0.1136,-2.201118608514303,-0.006528426893055439,4.330073356628418,-1.4670730829238892,0.10302866250276566,2.042630910873413,5.60422437170104,-0.5441052913665771,-0.0631689503788948,-1.6245372931109827,4.980844838138598e-13,0.028402628377079964,0.7013034820556641,-0.0,-0.0004669046029448509,0.8971315026283264,0.0006281209643930197,-0.1695861667394638
251.0,216.0,-6.5856,0.3888,8.5956,-0.0078,-0.2289,-0.1136,-2.20110621074819,-0.0034329332411289215,4.361234664916992,-1.4665085077285767,0.09988611936569214,2.035914182662964,5.600938546448507,-0.5711624026298523,-0.04892028495669365,-1.6245864073382776,1.3864366306067416e-16,0.02134557254612446,0.7012555003166199,-0.0,0.008592414669692516,0.8971516489982605,0.0005742376088164747,-0.21770140528678894
251.0,216.0,-6.5856,0.3888,8.5956,-0.0078,-0.2289,-0.1136,-2.201141973535055,-0.0019972475711256266,4.382324695587158,-1.4659576416015625,0.09841656684875488,2.095567226409912,5.597524750023641,-0.593762218952179,-0.04568004608154297,-1.624509636555807,3.859197576934226e-20,0.02803177945315838,0.701319694519043,-0.0,0.013013949617743492,0.897139310836792,0.000603462802246213,-0.13634085655212402
221.0,214.0,-3.5025,0.1561,8.5436,0.0177,-0.5932,-0.0983,-2.201141973535055,-0.0022686109878122807,4.474830627441406,-1.4653618335723877,0.09537290781736374,2.061959981918335,5.593834090023794,-0.621550440788269,-0.04588157683610916,-1.6245415846454065,1.0742219502399407e-23,0.01623147539794445,0.7013156414031982,-0.0,0.00545878941193223,0.8971433639526367,0.0013504214584827423,-0.1163717657327652
221.0,214.0,-3.5025,0.1561,8.5436,0.0177,-0.5932,-0.0983,-2.201170106927389,-0.0043554892763495445,4.447399616241455,-1.4647568464279175,0.09397640079259872,2.0735440254211426,5.5900171277816675,-0.6365723609924316,-0.0539347305893898,-1.6245535055743616,2.9901360463394354e-27,0.0050704460591077805,0.7013474106788635,-0.0,0.009027864784002304,0.8971434235572815,0.0014490921748802066,-0.12297959625720978
221.0,214.0,-3.5025,0.1561,8.5436,0.0177,-0.5932,-0.0983,-2.201165815392965,-0.005977524444460869,4.379368782043457,-1.4642382860183716,0.09015824645757675,2.013279438018799,5.586215483933248,-0.6564248204231262,-0.026668637990951538,-1.6246021429644983,8.323154519076333e-31,0.020414210855960846,0.7012913823127747,-0.0,0.008750016801059246,0.8971192240715027,0.0011721221962943673,-0.15500646829605103
221.0,214.0,-3.5025,0.1561,8.5436,0.0177,-0.5932,-0.0983,-2.201250215569967,-0.00622513284906745,4.347238540649414,-1.463666558265686,0.08576053380966187,2.0887019634246826,5.582206117897787,-0.6687400937080383,-0.04026851803064346,-1.6246016661273401,2.316780438503204e-34,0.02172287181019783,0.7013075947761536,-0.0,0.014668595045804977,0.8971393704414368,0.0007957430207170546,-0.17687153816223145
221.0,214.0,-3.5025,0.1561,8.5436,0.0177,-0.5932,-0.0983,-2.201278348962301,-0.00451660668477416,4.402433395385742,-1.4629586935043335,0.07932379096746445,1.9946744441986084,5.576787817269125,-0.6783507466316223,-0.03651248663663864,-1.624561611806051,4.210634237289389e-39,0.011723959818482399,0.7012911438941956,-0.0,0.006685443222522736,0.8971154689788818,0.0005517299869097769,-0.14284485578536987
221.0,214.0,-3.5025,0.1561,8.5436,0.0177,-0.5932,-0.0983,-2.201265951196188,-0.002475564368069172,4.403956890106201,-1.4625314474105835,0.07837200164794922,2.0221896171569824,5.572706448822775,-0.6813165545463562,-0.02224644646048546,-1.6245697180377405,1.171485516175547e-42,0.023175759240984917,0.7013275027275085,-0.0,0.009789184667170048,0.8971273899078369,0.0004485828976612538,-0.17985805869102478
221.0,214.0,-3.5025,0.1561,8.5436,0.0177,-0.5932,-0.0983,-2.201294084588522,-0.0015850181225687265,4.438541889190674,-1.4620507955551147,0.07703340798616409,2.025050163269043,5.568677055626669,-0.6722174882888794,-0.02916431427001953,-1.6245783011065882,0.0,0.00521604111418128,0.7013195753097534,-0.0,0.005189576186239719,0.8971474766731262,0.000274457415798679,-0.1181006208062172
221.0,214.0,-3.5025,0.1561,8.5436,0.0177,-0.5932,-0.0983,-2.20131840328359,-0.001605188474059105,4.413393974304199,-1.4616191387176514,0.0750676617026329,2.0390381813049316,5.564663576870718,-0.6703055500984192,-0.036511801183223724,-1.6245697180377405,0.0,0.017471453174948692,0.7012354731559753,-0.0,-0.0014505516737699509,0.8971352577209473,0.00023195997346192598,-0.20679989457130432
221.0,214.0,-3.5025,0.1561,8.5436,0.0177,-0.5932,-0.0983,-2.20131840328359,-0.0025415592826902866,4.3958353996276855,-1.4611475467681885,0.07134512811899185,2.0729615688323975,5.560609686165609,-0.6652496457099915,-0.020655829459428787,-1.6245492140399378,0.0,0.01645749807357788,0.7013314962387085,-0.0,0.0007826005457900465,0.8971149325370789,0.0002008920710068196,-0.1111847534775734
221.0,214.0,-3.5025,0.1561,8.5436,0.0177,-0.5932,-0.0983,-2.201369901696676,-0.0025568483397364616,4.403191566467285,-1.460699439048767,0.07024440169334412,2.0330777168273926,5.556699442654409,-0.6517206430435181,-0.032153479754924774,-1.624565903340475,0.0,0.0043450016528368,0.7012672424316406,-0.0,0.006005487870424986,0.8971315026283264,0.00017716300499159843,-0.17588064074516296
221.0,214.0,-3.5025,0.1561,8.5436,0.0177,-0.5932,-0.0983,-2.2013455830016078,-0.0021706221159547567,4.4467597007751465,-1.4602916240692139,0.0696096196770668,2.017763376235962,5.552891599922933,-0.6440813541412354,-0.018506471067667007,-1.6245577971087855,0.0,0.019873477518558502,0.7013434171676636,-0.0,-0.006599999964237213,0.8971314430236816,0.00015844817971810699,-0.12662579119205475
221.0,214.0,-3.5025,0.1561,8.5436,0.0177,-0.5932,-0.0983,-2.201346059838766,-0.0017607371555641294,4.43111515045166,-1.45993173122406,0.06906250864267349,2.0512232780456543,5.549093353539266,-0.621695339679718,-0.011351225897669792,-1.624533478413717,0.0,-0.002760636154562235,0.7012994289398193,-0.0,0.0008782821241766214,0.8971517086029053,0.0001433097495464608,-0.10809244215488434
221.0,214.0,-3.5025,0.1561,8.5436,0.0177,-0.5932,-0.0983,-2.2013780079283656,-0.0014708067756146193,4.444063186645508,-1.4593125581741333,0.0675077885389328,2.012205123901367,5.544182467251577,-0.601075291633606,-0.009003909304738045,-1.6246221701251429,0.0,0.0050757937133312225,0.7012953758239746,-0.0,0.006761754397302866,0.8971883654594421,0.00015253965102601796,-0.09523718804121017
221.0,214.0,-3.5025,0.1561,8.5436,0.0177,-0.5932,-0.0983,-2.2014104328551234,-0.0017648290377110243,4.47696590423584,-1.4589530229568481,0.0639340728521347,2.026960849761963,5.5406943438346765,-0.5810452699661255,-0.027709802612662315,-1.624605957661764,0.0,-0.003963438794016838,0.7012872695922852,-0.0,0.009642742574214935,0.8971755504608154,0.00018655453459359705,-0.06939487904310226
221.0,214.0,-3.5025,0.1561,8.5436,0.0177,-0.5932,-0.0983,-2.201402326623434,-0.0020532708149403334,4.451530933380127,-1.4585487842559814,0.05893903970718384,2.0328867435455322,5.537377285748281,-0.5513345003128052,-0.004980312194675207,-1.624634091054098,0.0,-0.0016799208242446184,0.7013314962387085,-0.0,0.005500444211065769,0.8971512317657471,0.00020068910089321434,-0.10267965495586395
202.0,234.0,-2.8187,0.1741,8.9623,-0.0185,-0.2465,-0.0929,-2.201357980767721,-0.0015629434492439032,4.432390213012695,-1.4582741260528564,0.05431870371103287,1.9987754821777344,5.534115361958303,-0.5272364616394043,-0.0016217357479035854,-1.624634091054098,0.0,-0.007567637134343386,0.7012994289398193,-0.0,0.00641840323805809,0.8971594572067261,0.0001816617586882785,-0.06229700893163681
202.0,234.0,-2.8187,0.1741,8.9623,-0.0185,-0.2465,-0.0929,-2.201426168481344,-0.0011195318074896932,4.477880001068115,-1.4578601121902466,0.05257546901702881,1.9704253673553467,5.531010496407308,-0.502484142780304,0.0012994434218853712,-1.624617878590719,7.284501890580941e-08,-0.013513104058802128,0.7012553811073303,-0.0,-0.008160024881362915,0.8971191644668579,0.00021057389676570892,-0.0398998036980629
202.0,234.0,-2.8187,0.1741,8.9623,-0.0185,-0.2465,-0.0929,-2.201390405694479,-0.0007633336936123669,4.4256591796875,-1.4575930833816528,0.053516410291194916,1.9980348348617554,5.528122353344717,-0.47215086221694946,0.005916210822761059,-1.6246216932879847,2.0276679640884865e-11,-0.009604338556528091,0.7012673616409302,-0.0,-0.002835921011865139,0.8971554636955261,0.0006386524182744324,-0.08046641945838928
202.0,234.0,-2.8187,0.1741,8.9623,-0.0185,-0.2465,-0.0929,-2.201409956017965,-0.0005232561379671097,4.453198432922363,-1.4572768211364746,0.054636791348457336,1.994493007659912,5.525323974877157,-0.454812228679657,0.02631501853466034,-1.624573055897848,5.6440880005152565e-15,-0.003907550126314163,0.7013114094734192,-0.0,-6.792240310460329e-05,0.8971268534660339,0.0013802130706608295,-0.030362006276845932
202.0,234.0,-2.8187,0.1741,8.9623,-0.0185,-0.2465,-0.0929,-2.2014457188048304,-0.0018470864742994308,4.420565605163574,-1.4567773342132568,0.057984210550785065,1.9576786756515503,5.5219201920326135,-0.4227917492389679,0.032791007310152054,-1.6246097723590296,1.0257851266633611e-19,-0.005588235333561897,0.7013474106788635,-0.0,0.005890126805752516,0.8971993923187256,0.004425595514476299,-0.033547088503837585
202.0,234.0,-2.8187,0.1741,8.9623,-0.0185,-0.2465,-0.0929,-2.2014981708922328,-0.004023651592433453,4.426649570465088,-1.4564251899719238,0.05938068404793739,1.994441032409668,5.519514369755544,-0.3979615271091461,0.043895743787288666,-1.624589745198385,2.855310760984402e-23,-0.007414558902382851,0.7012872695922852,-0.0,-0.0007762900204397738,0.8972234725952148,0.007357211317867041,-0.025987233966588974
202.0,234.0,-2.8187,0.1741,8.9623,-0.0185,-0.2465,-0.0929,-2.2015019855894984,-0.0070558455772697926,4.419299125671387,-1.456146478652954,0.061766982078552246,1.9900120496749878,5.5172422406967065,-0.3584296405315399,0.06973808258771896,-1.6246054808246058,7.947862212879136e-27,-0.006710313260555267,0.7012792229652405,-0.0,-0.004326768219470978,0.8973037600517273,0.008968349546194077,-0.004715089686214924
