ramyac6/ROB537/final_project/csv/all/good_100.csv
tof_0,tof_1,accelx,accely,accelz,gyrox,gyroy,gyroz,shoulder_lift_joint_position,shoulder_lift_joint_velocity,shoulder_lift_joint_effort,elbow_joint_position,elbow_joint_velocity,elbow_joint_effort,wrist_1_joint_position,wrist_1_joint_velocity,wrist_1_joint_effort,wrist_2_joint_position,wrist_2_joint_velocity,wrist_2_joint_effort,wrist_3_joint_position,wrist_3_joint_velocity,wrist_3_joint_effort,shoulder_pan_joint_position,shoulder_pan_joint_velocity,shoulder_pan_joint_effort
129.0,178.0,-5.007,1.4506,8.5178,-0.0414,0.0173,-0.119,-2.393182416955465,0.0,5.1644439697265625,-1.0913926362991333,-0.0,2.0216193199157715,5.46733974197463,0.0,0.22121816873550415,-1.49998647371401,0.0,-0.0163295678794384,1.316003680229187,-0.0,-0.007928362116217613,0.9219576120376587,0.0,-0.04711749404668808
129.0,178.0,-5.007,1.4506,8.5178,-0.0414,0.0173,-0.119,-2.3931828937926234,0.0,5.1963067054748535,-1.091457486152649,-0.0,2.0333919525146484,5.46733175495223,0.0,0.2101493626832962,-1.4999826590167444,0.0,-0.02155291475355625,1.3160516023635864,-0.0,0.0050501227378845215,0.9218810200691223,0.0,-0.04859643056988716
129.0,178.0,-5.007,1.4506,8.5178,-0.0414,0.0173,-0.119,-2.3932234249510707,0.0,5.163026809692383,-1.0913605690002441,-0.0,2.010404586791992,5.46732388713912,0.0,0.21267026662826538,-1.499958340321676,0.0,-0.010281767696142197,1.3159995079040527,-0.0,0.007396337576210499,0.9219334125518799,0.0,-0.012764292769134045
129.0,178.0,-5.007,1.4506,8.5178,-0.0414,0.0173,-0.119,-2.3931786022581996,0.0,5.195594787597656,-1.0913567543029785,-0.0,2.04449200630188,5.467367756157675,0.0,0.20110175013542175,-1.500014607106344,0.0,-0.00697499280795455,1.316044569015503,-0.0,0.00786641612648964,0.9219133257865906,0.0,0.021072231233119965
129.0,178.0,-5.007,1.4506,8.5178,-0.0414,0.0173,-0.119,-2.39317049602651,0.0,5.1921586990356445,-1.0913448333740234,-0.0,2.041358232498169,5.467303979187765,0.0,0.19994504749774933,-1.5000103155719202,0.0,-0.001467063557356596,1.3160284757614136,-0.0,0.013984357938170433,0.9219054579734802,0.0,-0.013016732409596443
129.0,178.0,-5.007,1.4506,8.5178,-0.0414,0.0173,-0.119,-2.3932272396483363,0.0,5.133157730102539,-1.0913686752319336,-0.0,2.00028133392334,5.467347967415609,0.0,0.2079264521598816,-1.499997917805807,0.0,-0.012002944946289062,1.3159996271133423,-0.0,0.014757590368390083,0.9218973517417908,0.0,-0.027689315378665924
128.0,182.0,-4.9071,1.4554,8.4682,-0.0374,0.0267,-0.1136,-2.393191000024313,0.0,5.212204456329346,-1.0913646221160889,-0.0,2.010313034057617,5.467343675881185,0.0,0.21568042039871216,-1.5000389258014124,0.0,-0.004188959952443838,1.3159716129302979,-0.0,0.0017761477502062917,0.9219292998313904,0.0,0.030844321474432945
128.0,182.0,-4.9071,1.4554,8.4682,-0.0374,0.0267,-0.1136,-2.3932515583434046,0.0,5.1728997230529785,-1.0913687944412231,-0.0,2.0430169105529785,5.467371809273519,0.0,0.21705150604248047,-1.4999702612506312,0.0,-0.004602454137057066,1.315995693206787,-0.0,0.004324741195887327,0.9219375252723694,0.0,0.01650433987379074
128.0,182.0,-4.9071,1.4554,8.4682,-0.0374,0.0267,-0.1136,-2.393158575097555,0.0,5.217715263366699,-1.0914011001586914,-0.0,2.0395946502685547,5.467319834023275,0.0,0.203860804438591,-1.5000065008746546,0.0,-0.009967240504920483,1.3160436153411865,-0.0,-0.0025575170293450356,0.9219338297843933,0.0,0.02703574299812317
128.0,182.0,-4.9071,1.4554,8.4682,-0.0374,0.0267,-0.1136,-2.393162866631979,0.0,5.178605079650879,-1.0913325548171997,-0.0,1.9802345037460327,5.467327821045675,0.0,0.20761597156524658,-1.500014607106344,0.0,-0.02359035611152649,1.3160436153411865,-0.0,0.004274800419807434,0.9219375252723694,0.0,0.005345914978533983
128.0,182.0,-4.9071,1.4554,8.4682,-0.0374,0.0267,-0.1136,-2.393202920953268,0.0,5.1821699142456055,-1.0914287567138672,-0.0,2.0216681957244873,5.467351901322164,0.0,0.21658246219158173,-1.4999702612506312,0.0,-0.011988228186964989,1.315999984741211,-0.0,0.01081605814397335,0.9219297170639038,0.0,0.0490993931889534
128.0,182.0,-4.9071,1.4554,8.4682,-0.0374,0.0267,-0.1136,-2.3931786022581996,0.0,5.2023725509643555,-1.0913448333740234,-0.0,2.058713436126709,5.46733974197463,0.0,0.21376526355743408,-1.49998647371401,0.0,-0.017627259716391563,1.3160403966903687,-0.0,-0.002809831639751792,0.9219297170639038,0.0,-0.02384445257484913
128.0,182.0,-4.9071,1.4554,8.4682,-0.0374,0.0267,-0.1136,-2.393219133416647,0.0,5.206826210021973,-1.091428518295288,-0.0,2.0223002433776855,5.467355954438009,0.0,0.21597112715244293,-1.4999907652484339,0.0,-0.013475253246724606,1.3160244226455688,-0.0,0.007094186265021563,0.9219214916229248,0.0,-0.036611296236515045
128.0,182.0,-4.9071,1.4554,8.4682,-0.0374,0.0267,-0.1136,-2.393202920953268,0.0,5.180598735809326,-1.0913805961608887,-0.0,2.0294289588928223,5.467391598015585,0.0,0.20535610616207123,-1.5000227133380335,0.0,-0.007944652810692787,1.3160078525543213,-0.0,0.012265889905393124,0.9219255447387695,0.0,-0.014384369365870953
128.0,182.0,-4.9071,1.4554,8.4682,-0.0374,0.0267,-0.1136,-2.393243452111715,0.0,5.17972469329834,-1.0913970470428467,-0.0,1.9697903394699097,5.4673876641090295,0.0,0.20777767896652222,-1.5000022093402308,0.0,-0.016782857477664948,1.3160321712493896,-0.0,-0.002621340798214078,0.9219575524330139,0.0,-0.014790946617722511
128.0,182.0,-4.9071,1.4554,8.4682,-0.0374,0.0267,-0.1136,-2.393158575097555,0.0,5.18088436126709,-1.0913447141647339,-0.0,2.042208194732666,5.46733175495223,0.0,0.20519310235977173,-1.4999907652484339,0.0,-0.018640834838151932,1.3160244226455688,-0.0,0.003611302003264427,0.9219014048576355,0.0,0.043230798095464706
126.0,177.0,-4.8646,1.5188,8.4443,-0.0425,0.0194,-0.1197,-2.3931547604002894,0.0,5.169352054595947,-1.0913567543029785,-0.0,2.018089532852173,5.4673476097877405,0.0,0.19321909546852112,-1.4999907652484339,0.0,-0.010657085105776787,1.3160362243652344,-0.0,0.008483505807816982,0.921905517578125,0.0,0.04092204198241234
126.0,177.0,-4.8646,1.5188,8.4443,-0.0425,0.0194,-0.1197,-2.3931428394713343,0.0,5.228775978088379,-1.091348648071289,-0.0,2.0081536769866943,5.467327821045675,0.0,0.2107134461402893,-1.5000065008746546,0.0,-0.02368912287056446,1.3160475492477417,-0.0,-0.011727774515748024,0.9219173789024353,0.0,0.02779943309724331
126.0,177.0,-4.8646,1.5188,8.4443,-0.0425,0.0194,-0.1197,-2.393191000024313,0.0,5.12866735458374,-1.0913084745407104,-0.0,2.0042059421539307,5.467351901322164,0.0,0.20002055168151855,-1.49998647371401,0.0,-0.002570725977420807,1.3160159587860107,-0.0,0.009629618376493454,0.9219293594360352,0.0,-0.006794576998800039
126.0,177.0,-4.8646,1.5188,8.4443,-0.0425,0.0194,-0.1197,-2.3932067356505335,0.0,5.168807029724121,-1.0913407802581787,-0.0,2.0176069736480713,5.46732388713912,0.0,0.21652744710445404,-1.4999907652484339,0.0,-0.01790369674563408,1.315963864326477,-0.0,0.00043079606257379055,0.9219293594360352,0.0,-0.016055507585406303
126.0,177.0,-4.8646,1.5188,8.4443,-0.0425,0.0194,-0.1197,-2.3932067356505335,0.0,5.1678924560546875,-1.0913846492767334,-0.0,1.9950257539749146,5.467319834023275,0.0,0.22298237681388855,-1.5000065008746546,0.0,-0.01946929469704628,1.3160161972045898,-0.0,0.001659201574511826,0.9219338297843933,0.0,-0.019741348922252655
126.0,177.0,-4.8646,1.5188,8.4443,-0.0425,0.0194,-0.1197,-2.3931547604002894,0.0,5.2137298583984375,-1.0913567543029785,-0.0,2.0140292644500732,5.46731590011672,0.0,0.20989304780960083,-1.4999941031085413,0.0,-0.026161640882492065,1.3159918785095215,-0.0,-0.006530765909701586,0.9219534993171692,0.0,-0.005295230075716972
126.0,177.0,-4.8646,1.5188,8.4443,-0.0425,0.0194,-0.1197,-2.393174787560934,0.0,5.203729629516602,-1.0913846492767334,-0.0,1.9920721054077148,5.467351901322164,0.0,0.2136002779006958,-1.49998647371401,0.0,-0.013055217452347279,1.3160362243652344,-0.0,0.0038444162346422672,0.9219977259635925,0.0,0.02064639702439308
126.0,177.0,-4.8646,1.5188,8.4443,-0.0425,0.0194,-0.1197,-2.3932067356505335,0.0,5.170169830322266,-1.0913567543029785,-0.0,2.0026609897613525,5.467335688858785,0.0,0.22667935490608215,-1.4999783674823206,0.0,-0.0264152679592371,1.315963864326477,-0.0,0.013284767046570778,0.921905517578125,0.0,0.015036197379231453
126.0,177.0,-4.8646,1.5188,8.4443,-0.0425,0.0194,-0.1197,-2.3931666813292445,0.0,5.199570655822754,-1.0914124250411987,-0.0,2.0149526596069336,5.467367756157675,0.0,0.21462517976760864,-1.49998647371401,0.0,-0.010691470466554165,1.3160161972045898,-0.0,0.0011357482289895415,0.9219174385070801,0.0,-0.028712479397654533
126.0,177.0,-4.8646,1.5188,8.4443,-0.0425,0.0194,-0.1197,-2.3932234249510707,0.0,5.176844596862793,-1.091348648071289,-0.0,2.0428318977355957,5.467363822251119,0.0,0.22390925884246826,-1.4999540487872522,0.0,-0.011353429406881332,1.3159799575805664,-0.0,0.008957719430327415,0.9219493865966797,0.0,0.011705508455634117
128.0,182.0,-4.9633,1.4788,8.4616,-0.0406,0.035,-0.122,-2.393198629418844,0.0,5.181633472442627,-1.0913686752319336,-0.0,2.0055480003356934,5.467363822251119,0.0,0.21385207772254944,-1.4999950567828577,0.0,-0.01628536358475685,1.3159840106964111,-0.0,0.01571228727698326,0.9219174385070801,0.0,0.0017735911533236504
128.0,182.0,-4.9633,1.4788,8.4616,-0.0406,0.035,-0.122,-2.393182416955465,0.0,5.176443099975586,-1.0913528203964233,-0.0,1.9944965839385986,5.46732388713912,0.0,0.2036639153957367,-1.5000103155719202,0.0,-0.01594339683651924,1.3160444498062134,-0.0,0.0018346240976825356,0.9218809604644775,0.0,-0.005495982710272074
128.0,182.0,-4.9633,1.4788,8.4616,-0.0406,0.035,-0.122,-2.393186708489889,0.0,5.169042587280273,-1.0913606882095337,-0.0,2.0170626640319824,5.46733175495223,0.0,0.21899577975273132,-1.49998647371401,0.0,-0.016524838283658028,1.3160877227783203,-0.0,0.004750430583953857,0.9219133257865906,0.0,0.004173340275883675
128.0,182.0,-4.9633,1.4788,8.4616,-0.0406,0.035,-0.122,-2.3932110271849574,0.0,5.206438064575195,-1.0913887023925781,-0.0,2.0558035373687744,5.4673558352287195,0.0,0.20702680945396423,-1.5000270048724573,0.0,-0.004228636622428894,1.3160566091537476,-0.0,0.014043986797332764,0.9219780564308167,0.0,0.0020602529402822256
128.0,182.0,-4.9633,1.4788,8.4616,-0.0406,0.035,-0.122,-2.393198629418844,0.0,5.143466472625732,-1.0913329124450684,-0.0,2.0296945571899414,5.467303979187765,0.0,0.20658573508262634,-1.4999907652484339,0.0,-0.03011380136013031,1.3160244226455688,-0.0,0.014196012169122696,0.9218931794166565,0.0,-0.023695645853877068
128.0,182.0,-4.9633,1.4788,8.4616,-0.0406,0.035,-0.122,-2.393202920953268,0.0,5.170357704162598,-1.0913606882095337,-0.0,2.007657051086426,5.46737169006423,0.0,0.2117568850517273,-1.5000227133380335,0.0,-0.002826277632266283,1.3160202503204346,-0.0,0.006082028150558472,0.9219457507133484,0.0,0.020932666957378387
128.0,182.0,-4.9633,1.4788,8.4616,-0.0406,0.035,-0.122,-2.3931504688658656,0.0,5.1485795974731445,-1.0914011001586914,-0.0,2.0116310119628906,5.467319834023275,0.0,0.20527993142604828,-1.499997917805807,0.0,-0.012919747270643711,1.3159836530685425,-0.0,0.004616654943674803,0.9219739437103271,0.0,0.013601220212876797
128.0,182.0,-4.9633,1.4788,8.4616,-0.0406,0.035,-0.122,-2.3931623897948207,0.0,5.155698299407959,-1.0913766622543335,-0.0,1.9781477451324463,5.467335688858785,0.0,0.20080973207950592,-1.49998647371401,0.0,-0.011778922751545906,1.3160637617111206,-0.0,0.0031997247133404016,0.9219494462013245,0.0,-0.023342562839388847
128.0,182.0,-4.9633,1.4788,8.4616,-0.0406,0.035,-0.122,-2.393191000024313,0.0,5.170529365539551,-1.0913164615631104,-0.0,2.000242233276367,5.467343675881185,0.0,0.22352448105812073,-1.5000065008746546,0.0,-0.021466277539730072,1.3159959316253662,-0.0,-0.0028330790810287,0.9219174385070801,0.0,-0.01593930460512638
128.0,182.0,-4.9633,1.4788,8.4616,-0.0406,0.035,-0.122,-2.39317049602651,0.0,5.204392433166504,-1.0913608074188232,-0.0,1.9747836589813232,5.467343675881185,0.0,0.20630672574043274,-1.5000022093402308,0.0,-0.003942647948861122,1.3160514831542969,-0.0,-0.002528133802115917,0.9219334125518799,0.0,-0.030717847868800163
131.0,186.0,-4.9711,1.4566,8.5448,-0.0362,0.0244,-0.1147,-2.393202920953268,0.0,5.172854423522949,-1.0914205312728882,-0.0,2.038553476333618,5.467351901322164,0.0,0.21366074681282043,-1.4999702612506312,0.0,-0.007848675362765789,1.3160202503204346,-0.0,0.005095613654702902,0.9219214916229248,0.0,-0.013245753012597561
131.0,186.0,-4.9711,1.4566,8.5448,-0.0362,0.0244,-0.1147,-2.393191000024313,0.0,5.1883344650268555,-1.091392993927002,-0.0,1.9931018352508545,5.467363822251119,0.0,0.206425279378891,-1.5000188986407679,0.0,-0.011653161607682705,1.3159958124160767,-0.0,0.004483112599700689,0.9219858646392822,0.0,-0.01706514321267605
131.0,186.0,-4.9711,1.4566,8.5448,-0.0362,0.0244,-0.1147,-2.3931666813292445,0.0,5.184396743774414,-1.0913406610488892,-0.0,1.9832055568695068,5.46733974197463,0.0,0.20465099811553955,-1.5000065008746546,0.0,-0.011470181867480278,1.3159676790237427,-0.0,0.0015211206628009677,0.921893298625946,0.0,0.007272684946656227
131.0,186.0,-4.9711,1.4566,8.5448,-0.0362,0.0244,-0.1147,-2.393162866631979,0.0,5.154529571533203,-1.0913528203964233,-0.0,2.0289089679718018,5.467343675881185,0.0,0.22191250324249268,-1.4999783674823206,0.0,-0.017475789412856102,1.3160202503204346,-0.0,-0.012977264821529388,0.9219334125518799,0.0,0.004889221861958504
131.0,186.0,-4.9711,1.4566,8.5448,-0.0362,0.0244,-0.1147,-2.393186708489889,0.0,5.186902046203613,-1.0913448333740234,-0.0,2.0415596961975098,5.46732388713912,0.0,0.19968950748443604,-1.49998647371401,0.0,0.00032412796281278133,1.3160078525543213,-0.0,0.001130854245275259,0.921905517578125,0.0,-0.002638906706124544
131.0,186.0,-4.9711,1.4566,8.5448,-0.0362,0.0244,-0.1147,-2.393202920953268,0.0,5.213082313537598,-1.0914089679718018,-0.0,2.033935785293579,5.467355954438009,0.0,0.21579182147979736,-1.5000103155719202,0.0,-0.01326004695147276,1.3159757852554321,-0.0,-0.0014312751591205597,0.9219898581504822,0.0,-0.032386716455221176
131.0,186.0,-4.9711,1.4566,8.5448,-0.0362,0.0244,-0.1147,-2.3932067356505335,0.0,5.172491073608398,-1.0913805961608887,-0.0,2.0042219161987305,5.46737967708663,0.0,0.20946326851844788,-1.4999907652484339,0.0,-0.003702352521941066,1.3160078525543213,-0.0,-0.001752197276800871,0.9219091534614563,0.0,-0.012008223682641983
131.0,186.0,-4.9711,1.4566,8.5448,-0.0362,0.0244,-0.1147,-2.393158575097555,0.0,5.163557052612305,-1.0913448333740234,-0.0,1.999816656112671,5.467371809273519,0.0,0.20335343480110168,-1.49998647371401,0.0,-0.014497377909719944,1.316011905670166,-0.0,0.0016339181456714869,0.9218810200691223,0.0,-0.04405074566602707
131.0,186.0,-4.9711,1.4566,8.5448,-0.0362,0.0244,-0.1147,-2.393174787560934,0.0,5.198184490203857,-1.0913329124450684,-0.0,2.022200107574463,5.46733974197463,0.0,0.21748130023479462,-1.49998647371401,0.0,-0.011398517526686192,1.3159599304199219,-0.0,0.003038989845663309,0.9219091534614563,0.0,-0.013761864975094795
131.0,186.0,-4.9711,1.4566,8.5448,-0.0362,0.0244,-0.1147,-2.393174787560934,0.0,5.167803764343262,-1.0913527011871338,-0.0,2.010890007019043,5.46730791309432,0.0,0.202785924077034,-1.4999378363238733,0.0,-0.011544132605195045,1.3160796165466309,-0.0,0.004518875386565924,0.9219374656677246,0.0,-0.017494335770606995
128.0,186.0,-4.925,1.4889,8.4066,-0.0312,0.0191,-0.1161,-2.3931547604002894,0.0,5.190681457519531,-1.0913528203964233,-0.0,2.0145657062530518,5.46733974197463,0.0,0.2118612825870514,-1.4999907652484339,0.0,-0.00690448097884655,1.316036581993103,-0.0,-0.006644164212048054,0.9218891263008118,0.0,0.010301591828465462
128.0,186.0,-4.925,1.4889,8.4066,-0.0312,0.0191,-0.1161,-2.393198629418844,0.0,5.179113388061523,-1.0913209915161133,-0.0,1.992964267730713,5.467319834023275,0.0,0.19993117451667786,-1.5000022093402308,0.0,-0.018926486372947693,1.3160403966903687,-0.0,0.0007670334307476878,0.9219415783882141,0.0,-0.05628877878189087
128.0,186.0,-4.925,1.4889,8.4066,-0.0312,0.0191,-0.1161,-2.3931786022581996,0.0,5.195828437805176,-1.0913407802581787,-0.0,2.0292606353759766,5.467335688858785,0.0,0.19286984205245972,-1.4999578634845179,0.0,-0.0027977488934993744,1.3160436153411865,-0.0,-0.0028280233964323997,0.9219657778739929,0.0,-0.0074628135189414024
128.0,186.0,-4.925,1.4889,8.4066,-0.0312,0.0191,-0.1161,-2.3932234249510707,0.0,5.189971923828125,-1.091396689414978,-0.0,2.0185604095458984,5.467303979187765,0.0,0.19595693051815033,-1.5000065008746546,0.0,-0.010000714100897312,1.3160514831542969,-0.0,0.0017907426226884127,0.9219415783882141,0.0,0.009034344926476479
128.0,186.0,-4.925,1.4889,8.4066,-0.0312,0.0191,-0.1161,-2.393186708489889,0.0,5.129861354827881,-1.0913408994674683,-0.0,2.0370888710021973,5.467351960926809,0.0,0.21718883514404297,-1.499997917805807,0.0,-0.015193827450275421,1.3160003423690796,-0.0,0.00238362536765635,0.9219014048576355,0.0,-0.015359651297330856
128.0,186.0,-4.925,1.4889,8.4066,-0.0312,0.0191,-0.1161,-2.3931790790953578,0.0,5.171098709106445,-1.091316819190979,-0.0,1.9840455055236816,5.467343675881185,0.0,0.21386149525642395,-1.49998647371401,0.0,-0.018744666129350662,1.315971851348877,-0.0,-0.0011030937312170863,0.9219293594360352,0.0,-0.0378611795604229
128.0,186.0,-4.925,1.4889,8.4066,-0.0312,0.0191,-0.1161,-2.393158575097555,0.0,5.158685684204102,-1.091356635093689,-0.0,2.0404903888702393,5.467367756157675,0.0,0.21660616993904114,-1.500030819569723,0.0,-0.017301460728049278,1.3160992860794067,-0.0,0.0023122013080865145,0.921905517578125,0.0,-0.03803900629281998
128.0,186.0,-4.925,1.4889,8.4066,-0.0312,0.0191,-0.1161,-2.393202920953268,0.0,5.185317516326904,-1.0913605690002441,-0.0,1.9975543022155762,5.467363881855764,0.0,0.20697495341300964,-1.4999826590167444,0.0,-0.012618406675755978,1.3160514831542969,-0.0,0.0004867491952609271,0.9219817519187927,0.0,-0.001771040610037744
128.0,186.0,-4.925,1.4889,8.4066,-0.0312,0.0191,-0.1161,-2.3931504688658656,0.0,5.192529678344727,-1.0913726091384888,-0.0,2.0160582065582275,5.467351901322164,0.0,0.2082831859588623,-1.4999950567828577,0.0,-0.011215396225452423,1.3160514831542969,-0.0,0.004921880085021257,0.9219494462013245,0.0,-0.03151170536875725
128.0,186.0,-4.925,1.4889,8.4066,-0.0312,0.0191,-0.1161,-2.3931786022581996,0.0,5.1926140785217285,-1.0913646221160889,-0.0,2.017982006072998,5.467359828739919,0.0,0.20654049515724182,-1.49998647371401,0.0,-0.0093974769115448,1.3160243034362793,-0.0,0.0070539480075240135,0.9218891263008118,0.0,0.03316744044423103
131.0,184.0,-4.8855,1.4937,8.3121,-0.0394,0.026,-0.1159,-2.3931666813292445,0.0,5.186481475830078,-1.0913567543029785,-0.0,2.034878969192505,5.4673916576202295,0.0,0.21279366314411163,-1.5000227133380335,0.0,-0.02313302271068096,1.3160436153411865,-0.0,0.0022097392939031124,0.9219133257865906,0.0,-0.039899006485939026
131.0,184.0,-4.8855,1.4937,8.3121,-0.0394,0.026,-0.1159,-2.393191000024313,0.0,5.187687873840332,-1.0913288593292236,-0.0,2.020989418029785,5.46732776144103,0.0,0.21582549810409546,-1.4999988714801233,0.0,-0.002729941625148058,1.3160362243652344,-0.0,-0.0022826597560197115,0.9219494462013245,0.0,0.01061936654150486
131.0,184.0,-4.8855,1.4937,8.3121,-0.0394,0.026,-0.1159,-2.393186708489889,0.0,5.198751449584961,-1.0914204120635986,-0.0,2.0527868270874023,5.467323827534475,0.0,0.22004829347133636,-1.4999907652484339,0.0,-0.009265298955142498,1.315971851348877,-0.0,-0.0041323257610201836,0.9219576120376587,0.0,0.0028522443026304245
131.0,184.0,-4.8855,1.4937,8.3121,-0.0394,0.026,-0.1159,-2.3931943378844203,0.0,5.190289497375488,-1.0913249254226685,-0.0,1.995654582977295,5.46733574846343,0.0,0.20218083262443542,-1.500014607106344,0.0,-0.014321090653538704,1.3160475492477417,-0.0,-0.003010566346347332,0.9219251275062561,0.0,-0.012833877466619015
131.0,184.0,-4.8855,1.4937,8.3121,-0.0394,0.026,-0.1159,-2.3931504688658656,0.0,5.242625713348389,-1.0913447141647339,-0.0,1.9681501388549805,5.467367756157675,0.0,0.20926639437675476,-1.4999950567828577,0.0,-0.015857478603720665,1.316028356552124,-0.0,0.010770832188427448,0.9219293594360352,0.0,-0.06079647317528725
131.0,184.0,-4.8855,1.4937,8.3121,-0.0394,0.026,-0.1159,-2.393215318719381,0.0,5.190810680389404,-1.0913885831832886,-0.0,2.0486197471618652,5.467311966210165,0.0,0.20578095316886902,-1.499997917805807,0.0,-0.023247113451361656,1.3160321712493896,-0.0,-0.0015164557844400406,0.9219133257865906,0.0,0.018763698637485504
131.0,184.0,-4.8855,1.4937,8.3121,-0.0394,0.026,-0.1159,-2.3931504688658656,0.0,5.167624473571777,-1.091408371925354,-0.0,2.0487682819366455,5.467363822251119,0.0,0.22002649307250977,-1.5000065008746546,0.0,-0.018188968300819397,1.3160403966903687,-0.0,-0.0019674235954880714,0.9219657778739929,0.0,0.004621507134288549
131.0,184.0,-4.8855,1.4937,8.3121,-0.0394,0.026,-0.1159,-2.3931623897948207,0.0,5.198551177978516,-1.0913846492767334,-0.0,2.003692626953125,5.46733974197463,0.0,0.20874616503715515,-1.49998647371401,0.0,-0.0007478754851035774,1.3160436153411865,-0.0,0.016361849382519722,0.9219735264778137,0.0,-0.03685108572244644
131.0,184.0,-4.8855,1.4937,8.3121,-0.0394,0.026,-0.1159,-2.393186708489889,0.0,5.195980072021484,-1.0913766622543335,-0.0,2.016761302947998,5.467311966210165,0.0,0.1980564296245575,-1.4999783674823206,0.0,-0.012577623128890991,1.3160715103149414,-0.0,0.0058720712549984455,0.9219739437103271,0.0,-0.020036747679114342
131.0,184.0,-4.8855,1.4937,8.3121,-0.0394,0.026,-0.1159,-2.393174787560934,0.0,5.148265838623047,-1.0914124250411987,-0.0,2.064044713973999,5.467379736691274,0.0,0.2120404839515686,-1.5000103155719202,0.0,-0.02148193120956421,1.3160403966903687,-0.0,0.007762715686112642,0.9219534993171692,0.0,0.03627984970808029
124.0,179.0,-5.0088,1.4387,8.5155,-0.0426,0.0266,-0.118,-2.393174787560934,0.0,5.152878761291504,-1.0913249254226685,-0.0,2.0103402137756348,5.4673876641090295,0.0,0.2182644009590149,-1.499997917805807,0.0,-0.005381696857511997,1.315999984741211,-0.0,-0.0028315959498286247,0.9219214916229248,0.0,-0.03457770496606827
124.0,179.0,-5.0088,1.4387,8.5155,-0.0426,0.0266,-0.118,-2.393191000024313,0.0,5.175559997558594,-1.0913327932357788,-0.0,2.0253875255584717,5.467371868878164,0.0,0.22143495082855225,-1.4999950567828577,0.0,-0.02409004420042038,1.3159760236740112,-0.0,0.007589987013489008,0.9219334125518799,0.0,-0.010726429522037506
124.0,179.0,-5.0088,1.4387,8.5155,-0.0426,0.0266,-0.118,-2.39317049602651,0.0,5.1850056648254395,-1.0913249254226685,-0.0,2.0408971309661865,5.46732776144103,0.0,0.2136324942111969,-1.5000432173358362,0.0,-0.009401774033904076,1.3160158395767212,-0.0,-0.00961241964250803,0.9219174385070801,0.0,-0.033706214278936386
124.0,179.0,-5.0088,1.4387,8.5155,-0.0426,0.0266,-0.118,-2.393202920953268,0.0,5.1640777587890625,-1.0913766622543335,-0.0,2.0509612560272217,5.467367756157675,0.0,0.20757561922073364,-1.5000188986407679,0.0,-0.009402567520737648,1.3160161972045898,-0.0,0.0019392425892874599,0.9219534993171692,0.0,-0.006123446859419346
124.0,179.0,-5.0088,1.4387,8.5155,-0.0426,0.0266,-0.118,-2.39317049602651,0.0,5.189288139343262,-1.0913766622543335,-0.0,2.0350236892700195,5.467363822251119,0.0,0.2147059142589569,-1.4999740759478968,0.0,-0.0044037410989403725,1.316040277481079,-0.0,0.005329243838787079,0.9219493865966797,0.0,0.0166481863707304
124.0,179.0,-5.0088,1.4387,8.5155,-0.0426,0.0266,-0.118,-2.3932272396483363,0.0,5.160609245300293,-1.0914050340652466,-0.0,2.0460758209228516,5.467359888344564,0.0,0.21576440334320068,-1.4999702612506312,0.0,-0.003129167016595602,1.3160158395767212,-0.0,0.008070814423263073,0.921897292137146,0.0,-0.015666259452700615
124.0,179.0,-5.0088,1.4387,8.5155,-0.0426,0.0266,-0.118,-2.393191000024313,0.0,5.171140670776367,-1.0913727283477783,-0.0,2.001140594482422,5.467351901322164,0.0,0.21533802151679993,-1.4999826590167444,0.0,-0.01969306915998459,1.316028356552124,-0.0,0.004622037056833506,0.9219817519187927,0.0,-0.04162827134132385
124.0,179.0,-5.0088,1.4387,8.5155,-0.0426,0.0266,-0.118,-2.3931466541686,0.0,5.169737815856934,-1.0913805961608887,-0.0,2.0509519577026367,5.467367756157675,0.0,0.2184593677520752,-1.4999826590167444,0.0,-0.0197713915258646,1.3160361051559448,-0.0,-0.002407209947705269,0.921897292137146,0.0,1.7805956304073334e-05
124.0,179.0,-5.0088,1.4387,8.5155,-0.0426,0.0266,-0.118,-2.3931828937926234,0.0,5.1764020919799805,-1.0913567543029785,-0.0,2.0329294204711914,5.467319834023275,0.0,0.20346565544605255,-1.5000022093402308,0.0,-0.01308572106063366,1.315980076789856,-0.0,-0.0020543241407722235,0.921897292137146,0.0,0.027294866740703583
124.0,179.0,-5.0088,1.4387,8.5155,-0.0426,0.0266,-0.118,-2.39317049602651,0.0,5.1884446144104,-1.0913567543029785,-0.0,2.0350170135498047,5.467367756157675,0.0,0.2233063280582428,-1.500014607106344,0.0,-0.02239919640123844,1.316003680229187,-0.0,0.0021290206350386143,0.9219292998313904,0.0,0.05894456058740616
129.0,182.0,-4.9621,1.4824,8.4844,-0.0338,0.0258,-0.1119,-2.393134733239645,0.0,5.145876407623291,-1.0913368463516235,-0.0,2.0426530838012695,5.467335688858785,0.0,0.20900902152061462,-1.5000103155719202,0.0,0.002141636097803712,1.316040277481079,-0.0,0.0026957476511597633,0.9219096302986145,0.0,0.039385903626680374
129.0,182.0,-4.9621,1.4824,8.4844,-0.0338,0.0258,-0.1119,-2.393130441705221,0.0,5.219408988952637,-1.0913726091384888,-0.0,2.0054080486297607,5.467351901322164,0.0,0.20462405681610107,-1.500014607106344,0.0,-0.013760274276137352,1.3160595893859863,-0.0,0.008019557222723961,0.9219292998313904,0.0,0.004566234536468983
129.0,182.0,-4.9621,1.4824,8.4844,-0.0338,0.0258,-0.1119,-2.393219133416647,0.0,5.166145324707031,-1.0913487672805786,-0.0,2.0126991271972656,5.467371809273519,0.0,0.20751813054084778,-1.5000346342669886,0.0,-0.014908239245414734,1.3160514831542969,-0.0,0.0002618606959003955,0.9219739437103271,0.0,0.058872416615486145
129.0,182.0,-4.9621,1.4824,8.4844,-0.0338,0.0258,-0.1119,-2.3932110271849574,0.0,5.195725440979004,-1.0913527011871338,-0.0,2.004210948944092,5.46732776144103,0.0,0.20596474409103394,-1.4999421278582972,0.0,-0.01998489536345005,1.3159959316253662,-0.0,0.00103829987347126,0.9219334125518799,0.0,-0.021458236500620842
129.0,182.0,-4.9621,1.4824,8.4844,-0.0338,0.0258,-0.1119,-2.3931790790953578,0.0,5.151006698608398,-1.0913726091384888,-0.0,2.011924982070923,5.467359888344564,0.0,0.20918822288513184,-1.4999907652484339,0.0,-0.017676904797554016,1.3159998655319214,-0.0,0.0064814090728759766,0.9219014644622803,0.0,0.03262997418642044
129.0,182.0,-4.9621,1.4824,8.4844,-0.0338,0.0258,-0.1119,-2.393202920953268,0.0,5.220639705657959,-1.0913208723068237,-0.0,2.0074119567871094,5.467379736691274,0.0,0.2187463790178299,-1.4999941031085413,0.0,-0.024808000773191452,1.3160163164138794,-0.0,0.0027752236928790808,0.9219133257865906,0.0,0.007015867158770561
129.0,182.0,-4.9621,1.4824,8.4844,-0.0338,0.0258,-0.1119,-2.3932067356505335,0.0,5.201620101928711,-1.0913686752319336,-0.0,1.9917181730270386,5.467359828739919,0.0,0.21357208490371704,-1.5000065008746546,0.0,-0.001980049069970846,1.3159760236740112,-0.0,0.003420962253585458,0.9219214916229248,0.0,-0.0300813727080822
129.0,182.0,-4.9621,1.4824,8.4844,-0.0338,0.0258,-0.1119,-2.393174787560934,0.0,5.1277875900268555,-1.0913766622543335,-0.0,2.0077004432678223,5.467355954438009,0.0,0.20233161747455597,-1.5000060240374964,0.0,-0.019299818202853203,1.3160635232925415,-0.0,-0.005798638332635164,0.9218447804450989,0.0,0.04888898879289627
129.0,182.0,-4.9621,1.4824,8.4844,-0.0338,0.0258,-0.1119,-2.3931786022581996,0.0,5.196173667907715,-1.0913726091384888,-0.0,2.068248748779297,5.46733974197463,0.0,0.20387879014015198,-1.5000188986407679,0.0,-0.016972023993730545,1.316040277481079,-0.0,0.005953766871243715,0.9219256043434143,0.0,0.052317213267087936
129.0,182.0,-4.9621,1.4824,8.4844,-0.0338,0.0258,-0.1119,-2.393214841882223,0.0,5.153086185455322,-1.0913487672805786,-0.0,1.9808346033096313,5.467335986882009,0.0,0.20910902321338654,-1.4999826590167444,0.0,-0.019249990582466125,1.3159641027450562,-0.0,0.005854811519384384,0.9219370484352112,0.0,0.012473495677113533
124.0,181.0,-4.9173,1.4477,8.4191,-0.0402,0.0238,-0.1185,-2.3932553730406703,0.0,5.147441387176514,-1.0914050340652466,-0.0,2.0200858116149902,5.467347967415609,0.0,0.2044660449028015,-1.4999702612506312,0.0,-0.01555822603404522,1.3160078525543213,-0.0,0.009354705922305584,0.9219255447387695,0.0,0.0270701814442873
124.0,181.0,-4.9173,1.4477,8.4191,-0.0402,0.0238,-0.1185,-2.3931786022581996,0.0,5.186115264892578,-1.0913567543029785,-0.0,2.0230607986450195,5.467355954438009,0.0,0.20947439968585968,-1.4999950567828577,0.0,-0.014501331374049187,1.3160125017166138,-0.0,-0.004248025361448526,0.9219534993171692,0.0,-0.04060167819261551
124.0,181.0,-4.9173,1.4477,8.4191,-0.0402,0.0238,-0.1185,-2.393215318719381,0.0,5.193042755126953,-1.0913528203964233,-0.0,2.0457468032836914,5.467299985676565,0.0,0.21784523129463196,-1.5000065008746546,0.0,-0.021266352385282516,1.3160244226455688,-0.0,0.011991819366812706,0.9219297170639038,0.0,0.02081001177430153
124.0,181.0,-4.9173,1.4477,8.4191,-0.0402,0.0238,-0.1185,-2.393182416955465,0.0,5.1966729164123535,-1.091356635093689,-0.0,2.0005316734313965,5.467359888344564,0.0,0.20784331858158112,-1.4999907652484339,0.0,-0.014004549942910671,1.3160163164138794,-0.0,0.00045587343629449606,0.9218650460243225,0.0,0.003278051968663931
124.0,181.0,-4.9173,1.4477,8.4191,-0.0402,0.0238,-0.1185,-2.393174787560934,0.0,5.156770706176758,-1.0914283990859985,-0.0,2.0428082942962646,5.46730391958312,0.0,0.21165210008621216,-1.49998647371401,0.0,-0.016614330932497978,1.315991997718811,-0.0,-0.006793904583901167,0.9219173789024353,0.0,0.012959583662450314
124.0,181.0,-4.9173,1.4477,8.4191,-0.0402,0.0238,-0.1185,-2.393186708489889,0.0,5.183509826660156,-1.0913368463516235,-0.0,1.9956161975860596,5.467335688858785,0.0,0.22537513077259064,-1.5000065008746546,0.0,-0.008823361247777939,1.3160244226455688,-0.0,0.003952230792492628,0.9219014048576355,0.0,-0.05261452496051788
124.0,181.0,-4.9173,1.4477,8.4191,-0.0402,0.0238,-0.1185,-2.393202920953268,0.0,5.156136512756348,-1.0913289785385132,-0.0,2.0070295333862305,5.467347967415609,0.0,0.21430671215057373,-1.49998647371401,0.0,-0.012126782909035683,1.3160123825073242,-0.0,0.005933671724051237,0.9219415783882141,0.0,-0.003882160410284996
124.0,181.0,-4.9173,1.4477,8.4191,-0.0402,0.0238,-0.1185,-2.3931790790953578,0.0,5.1906609535217285,-1.0913647413253784,-0.0,2.0381662845611572,5.467363881855764,0.0,0.21491673588752747,-1.5000022093402308,0.0,-0.01558926235884428,1.3160513639450073,-0.0,0.004091255366802216,0.9219174385070801,0.0,-0.025400478392839432
124.0,181.0,-4.9173,1.4477,8.4191,-0.0402,0.0238,-0.1185,-2.3931790790953578,0.0,5.193133354187012,-1.0913606882095337,-0.0,2.0032877922058105,5.46738367059783,0.0,0.20505636930465698,-1.4999740759478968,0.0,-0.013260461390018463,1.3160474300384521,-0.0,0.006733490154147148,0.9219534993171692,0.0,0.02548573538661003
124.0,181.0,-4.9173,1.4477,8.4191,-0.0402,0.0238,-0.1185,-2.39317049602651,0.0,5.211058139801025,-1.0914050340652466,-0.0,2.0388739109039307,5.46732388713912,0.0,0.21868285536766052,-1.4999578634845179,0.0,-0.018392954021692276,1.3160357475280762,-0.0,0.0006274767220020294,0.9219334125518799,0.0,-0.006246612872928381
129.0,184.0,-4.9639,1.4692,8.4443,-0.0319,0.0246,-0.1214,-2.393162866631979,0.0,5.152029514312744,-1.0913805961608887,-0.0,2.028867721557617,5.46733175495223,0.0,0.19448453187942505,-1.5000632444964808,0.0,-0.013971105217933655,1.3160831928253174,-0.0,-0.0056031858548521996,0.9219214916229248,0.0,-0.028581172227859497
129.0,184.0,-4.9639,1.4692,8.4443,-0.0319,0.0246,-0.1214,-2.393247266808981,0.0,5.210541725158691,-1.0913726091384888,-0.0,2.0232512950897217,5.46733974197463,0.0,0.20161178708076477,-1.49998647371401,0.0,-0.00450739124789834,1.3160117864608765,-0.0,0.0016562179662287235,0.9219251275062561,0.0,-0.017261631786823273
129.0,184.0,-4.9639,1.4692,8.4443,-0.0319,0.0246,-0.1214,-2.393174787560934,0.0,5.164043426513672,-1.0914244651794434,-0.0,2.0028467178344727,5.467371809273519,0.0,0.2150765061378479,-1.4999950567828577,0.0,-0.008696243166923523,1.3160163164138794,-0.0,-0.005903246346861124,0.921897292137146,0.0,0.018247615545988083
129.0,184.0,-4.9639,1.4692,8.4443,-0.0319,0.0246,-0.1214,-2.393215318719381,0.0,5.171473979949951,-1.0913044214248657,-0.0,1.982480525970459,5.467351901322164,0.0,0.21178200840950012,-1.5000270048724573,0.0,-0.002760369796305895,1.3160163164138794,-0.0,-0.014880506321787834,0.9219375252723694,0.0,0.008332512341439724
129.0,184.0,-4.9639,1.4692,8.4443,-0.0319,0.0246,-0.1214,-2.3931786022581996,0.0,5.226103782653809,-1.0914009809494019,-0.0,2.0211181640625,5.467359888344564,0.0,0.2138858139514923,-1.4999783674823206,0.0,-0.010098559781908989,1.3160202503204346,-0.0,-0.008944415487349033,0.921897292137146,0.0,0.001074247877113521
129.0,184.0,-4.9639,1.4692,8.4443,-0.0319,0.0246,-0.1214,-2.3931547604002894,0.0,5.24949836730957,-1.0913926362991333,-0.0,2.0365195274353027,5.46733175495223,0.0,0.20081155002117157,-1.4999907652484339,0.0,-0.02622544765472412,1.3160513639450073,-0.0,0.00619160570204258,0.9219858646392822,0.0,-0.020585693418979645
129.0,184.0,-4.9639,1.4692,8.4443,-0.0319,0.0246,-0.1214,-2.393219133416647,0.0,5.1906843185424805,-1.0913846492767334,-0.0,2.066004514694214,5.467367756157675,0.0,0.21977563202381134,-1.500014607106344,0.0,-0.021334974095225334,1.3160474300384521,-0.0,0.0009243960957974195,0.9219494462013245,0.0,0.015977615490555763
129.0,184.0,-4.9639,1.4692,8.4443,-0.0319,0.0246,-0.1214,-2.3931666813292445,0.0,5.183861255645752,-1.0913528203964233,-0.0,2.0010218620300293,5.467284130841055,0.0,0.22054338455200195,-1.500014607106344,0.0,-0.021952519193291664,1.3160513639450073,-0.0,-0.0036378679797053337,0.9219014048576355,0.0,0.013303827494382858
129.0,184.0,-4.9639,1.4692,8.4443,-0.0319,0.0246,-0.1214,-2.393191000024313,0.0,5.222681999206543,-1.0913288593292236,-0.0,2.0122616291046143,5.467363822251119,0.0,0.22683501243591309,-1.5000022093402308,0.0,-0.015507914125919342,1.3160125017166138,-0.0,0.005108870565891266,0.9218690395355225,0.0,-0.02339891530573368
129.0,184.0,-4.9639,1.4692,8.4443,-0.0319,0.0246,-0.1214,-2.3931790790953578,0.0,5.166576385498047,-1.0914448499679565,-0.0,2.014242649078369,5.467347967415609,0.0,0.20028749108314514,-1.4999907652484339,0.0,-0.009119071066379547,1.3159959316253662,-0.0,-0.006854435428977013,0.9219576120376587,0.0,0.0010827765800058842
129.0,184.0,-4.9639,1.4692,8.4443,-0.0319,0.0246,-0.1214,-2.393191000024313,0.0,5.186521530151367,-1.0913606882095337,-0.0,2.076808452606201,5.46733974197463,0.0,0.20910388231277466,-1.49998647371401,0.0,-0.00665589002892375,1.3160322904586792,-0.0,0.013441093266010284,0.9219415783882141,0.0,-0.010637979954481125
127.0,183.0,-5.0076,1.4477,8.5657,-0.0319,0.0218,-0.1145,-2.393182416955465,0.0,5.227017879486084,-1.0913969278335571,-0.0,2.0190422534942627,5.467363822251119,0.0,0.21074026823043823,-1.4999702612506312,0.0,-0.0076516843400895596,1.3160158395767212,-0.0,-0.0055450196377933025,0.9219415783882141,0.0,0.034736268222332
127.0,183.0,-5.0076,1.4477,8.5657,-0.0319,0.0218,-0.1145,-2.39317049602651,0.0,5.180876731872559,-1.0913209915161133,-0.0,2.0045385360717773,5.467359888344564,0.0,0.19848471879959106,-1.5000188986407679,0.0,-0.01464146375656128,1.3160672187805176,-0.0,0.006053257267922163,0.921905517578125,0.0,-0.055522795766592026
127.0,183.0,-5.0076,1.4477,8.5657,-0.0319,0.0218,-0.1145,-2.3931828937926234,0.0,5.217489719390869,-1.0913567543029785,-0.0,2.0189342498779297,5.467371809273519,0.0,0.20088818669319153,-1.5000065008746546,0.0,-0.01152162253856659,1.3160401582717896,-0.0,-0.0039010578766465187,0.9219415783882141,0.0,0.04582547768950462
127.0,183.0,-5.0076,1.4477,8.5657,-0.0319,0.0218,-0.1145,-2.3931428394713343,0.0,5.163786888122559,-1.0913846492767334,-0.0,2.012537717819214,5.46732388713912,0.0,0.21232455968856812,-1.4999826590167444,0.0,-0.011020834557712078,1.316040277481079,-0.0,-0.005199229344725609,0.9219014048576355,0.0,0.0038817194290459156
127.0,183.0,-5.0076,1.4477,8.5657,-0.0319,0.0218,-0.1145,-2.3931671581664027,9.076766438074688e-14,5.1760573387146,-1.0913846492767334,-0.0,2.0362162590026855,5.46733175495223,0.0,0.2120138704776764,-1.4999659697162073,0.0,-0.01680871471762657,1.3160202503204346,-0.0,0.008422797545790672,0.9219133257865906,0.0,-0.010799727402627468
127.0,183.0,-5.0076,1.4477,8.5657,-0.0319,0.0218,-0.1145,-2.393198629418844,2.9407563245967248e-21,5.18510103225708,-1.0913487672805786,-0.0,2.0576770305633545,5.46732776144103,0.0,0.20779016613960266,-1.4999907652484339,0.0,-0.01319767627865076,1.316028356552124,-0.0,0.00017634907271713018,0.921945333480835,0.0,-0.009428122080862522
127.0,183.0,-5.0076,1.4477,8.5657,-0.0319,0.0218,-0.1145,-2.3932110271849574,1.2782594523949023e-30,5.204578399658203,-1.0913646221160889,-0.0,1.9777196645736694,5.467335688858785,0.0,0.20443592965602875,-1.4999950567828577,0.0,-0.02462872676551342,1.316003680229187,-0.0,0.0036721155047416687,0.9219014048576355,0.0,-0.0042470949701964855
127.0,183.0,-5.0076,1.4477,8.5657,-0.0319,0.0218,-0.1145,-2.3931786022581996,4.141398602504336e-38,5.177490234375,-1.0913004875183105,-0.0,2.029862403869629,5.467347669392385,0.0,0.21345189213752747,-1.5000065008746546,0.0,-0.0059615084901452065,1.316063404083252,-0.0,-0.0013801844324916601,0.9219014048576355,0.0,0.01031083706766367
127.0,183.0,-5.0076,1.4477,8.5657,-0.0319,0.0218,-0.1145,-2.3932234249510707,0.0,5.148834705352783,-1.0913686752319336,-0.0,2.029542922973633,5.467375802784719,0.0,0.20782625675201416,-1.5000022093402308,0.0,-0.013220676220953465,1.3160244226455688,-0.0,0.008318137377500534,0.9219214916229248,0.0,-0.021269988268613815
127.0,183.0,-5.0076,1.4477,8.5657,-0.0319,0.0218,-0.1145,-2.3931666813292445,0.0,5.168056488037109,-1.0913926362991333,-0.0,1.9921305179595947,5.467347967415609,0.0,0.19826465845108032,-1.500014607106344,0.0,-0.009524260647594929,1.316028356552124,-0.0,-0.005667031276971102,0.9219091534614563,0.0,0.03717842325568199
125.0,191.0,-4.9615,1.5021,8.5196,-0.0434,0.0321,-0.1151,-2.393202920953268,0.0,5.163458824157715,-1.0913846492767334,-0.0,2.0645596981048584,5.46733175495223,0.0,0.20849910378456116,-1.5000022093402308,0.0,-0.005955111235380173,1.3160244226455688,-0.0,-0.0025064286310225725,0.9219493865966797,0.0,0.002096927724778652
125.0,191.0,-4.9615,1.5021,8.5196,-0.0434,0.0321,-0.1151,-2.3932510815062464,0.0,5.169098854064941,-1.0913606882095337,-0.0,1.9905610084533691,5.46733175495223,0.0,0.20860514044761658,-1.5000022093402308,0.0,-0.01158659253269434,1.3160791397094727,-0.0,-0.0004182591801509261,0.9219334125518799,0.0,0.016206594184041023
125.0,191.0,-4.9615,1.5021,8.5196,-0.0434,0.0321,-0.1151,-2.3931504688658656,0.0,5.158129692077637,-1.091408371925354,-0.0,2.032458543777466,5.467355954438009,0.0,0.22230620682239532,-1.4999540487872522,0.0,-0.02182290516793728,1.3160361051559448,-0.0,0.008193659596145153,0.9219334125518799,0.0,0.02497999183833599
125.0,191.0,-4.9615,1.5021,8.5196,-0.0434,0.0321,-0.1151,-2.3931948147215785,0.0,5.165904998779297,-1.0913125276565552,-0.0,2.0509066581726074,5.467315840512075,0.0,0.22381296753883362,-1.4999783674823206,0.0,-0.026888074353337288,1.3159838914871216,-0.0,1.814449205994606e-06,0.9219095706939697,0.0,0.033052705228328705
125.0,191.0,-4.9615,1.5021,8.5196,-0.0434,0.0321,-0.1151,-2.393182416955465,0.0,5.158545970916748,-1.0913528203964233,-0.0,2.0209336280822754,5.46733175495223,0.0,0.21254681050777435,-1.5000022093402308,0.0,-0.0019029401009902358,1.316003680229187,-0.0,0.0032656025141477585,0.9219173789024353,0.0,0.010960022918879986
125.0,191.0,-4.9615,1.5021,8.5196,-0.0434,0.0321,-0.1151,-2.393186708489889,0.0,5.164524078369141,-1.0913646221160889,-0.0,2.0390214920043945,5.467367756157675,0.0,0.20398786664009094,-1.5000270048724573,0.0,-0.013105195946991444,1.3159719705581665,-0.0,0.021911531686782837,0.9218810200691223,0.0,-0.021056152880191803
125.0,191.0,-4.9615,1.5021,8.5196,-0.0434,0.0321,-0.1151,-2.3932067356505335,0.0,5.232548713684082,-1.0913926362991333,-0.0,2.0388035774230957,5.467347967415609,0.0,0.21215415000915527,-1.5000188986407679,0.0,-0.014063311740756035,1.3160321712493896,-0.0,-0.010508664883673191,0.9219174385070801,0.0,0.024564841762185097
125.0,191.0,-4.9615,1.5021,8.5196,-0.0434,0.0321,-0.1151,-2.393219133416647,0.0,5.133885383605957,-1.0913965702056885,-0.0,2.0294151306152344,5.467371809273519,0.0,0.21096089482307434,-1.499997917805807,0.0,-0.025336623191833496,1.3159719705581665,-0.0,0.008503522723913193,0.9219251275062561,0.0,-0.055723123252391815
125.0,191.0,-4.9615,1.5021,8.5196,-0.0434,0.0321,-0.1151,-2.393174787560934,0.0,5.18562126159668,-1.0913329124450684,1.1561071211474427e-08,2.0044422149658203,5.467355954438009,0.0,0.21975396573543549,-1.5000188986407679,0.0,-0.01603451557457447,1.3160085678100586,-0.0,-0.0006288933218456805,0.9219817519187927,0.0,-0.0012909108772873878
125.0,191.0,-4.9615,1.5021,8.5196,-0.0434,0.0321,-0.1151,-2.3931466541686,0.0,5.1728434562683105,-1.0913209915161133,3.745639779158212e-16,2.027797222137451,5.46733974197463,0.0,0.21793198585510254,-1.5000389258014124,-3.391204188574193e-07,-0.01410774514079094,1.316040277481079,-0.0,0.007498527877032757,0.921945333480835,0.0,-0.033127982169389725
125.0,186.0,-4.9914,1.5535,8.5424,-0.0338,0.0272,-0.1226,-2.393187185327047,0.0,5.168522834777832,-1.091356873512268,1.6281183126315844e-25,1.9966177940368652,5.467355954438009,0.0,0.20844689011573792,-1.5000227133380335,-4.024224258946524e-13,-0.007416793145239353,1.3160157203674316,-0.0,-0.00517011433839798,0.9219411611557007,0.0,-0.021381925791502
125.0,186.0,-4.9914,1.5535,8.5424,-0.0338,0.0272,-0.1226,-2.39312281231069,0.0,5.153193473815918,-1.0913647413253784,0.0003128220560029149,2.0324535369873047,5.467363822251119,0.0,0.20863625407218933,-1.4999907652484339,-7.313829232978527e-18,-0.016194961965084076,1.3160085678100586,-0.0,-0.0022670968901365995,0.9219574928283691,4.299106348693016e-10,-0.037265244871377945
125.0,186.0,-4.9914,1.5535,8.5424,-0.0338,0.0272,-0.1226,-2.393162866631979,0.0,5.211316108703613,-1.0913567543029785,0.00032843605731613934,2.0301361083984375,5.467347967415609,0.0,0.20672796666622162,-1.5000389258014124,-8.679067400764202e-24,-0.008782624267041683,1.315980076789856,-0.0,0.003221126738935709,0.9219735264778137,1.868693932329231e-19,-0.05703084170818329
125.0,186.0,-4.9914,1.5535,8.5424,-0.0338,0.0272,-0.1226,-2.3931108913817347,0.0,5.2068772315979,-1.0913165807724,0.0002717798051889986,2.0284221172332764,5.467315840512075,0.0,0.21907472610473633,-1.5000188986407679,-1.577377670835086e-28,-0.009880744852125645,1.3160243034362793,-0.0,-0.0027526533231139183,0.9219334125518799,6.054330647202371e-27,0.016540516167879105
125.0,186.0,-4.9914,1.5535,8.5424,-0.0338,0.0272,-0.1226,-2.3932353458800257,0.0,5.1426849365234375,-1.0913687944412231,0.00012049041106365621,2.021188974380493,5.467387723713674,0.0,0.20563536882400513,-1.5000346342669886,-1.871819666490356e-34,-0.003110319608822465,1.3159997463226318,-0.0,-0.0016740309074521065,0.9219977855682373,2.6316381572695996e-36,-0.02530759945511818
125.0,186.0,-4.9914,1.5535,8.5424,-0.0338,0.0272,-0.1226,-2.3931790790953578,0.0,5.152397632598877,-1.0913410186767578,9.500550368102267e-05,2.03517484664917,5.467379736691274,0.0,0.21971997618675232,-1.5000188986407679,-3.4019406896321444e-39,-0.013158611953258514,1.3160243034362793,-0.0,0.0048505086451768875,0.9219411611557007,8.547920632381384e-44,-0.03877243027091026
125.0,186.0,-4.9914,1.5535,8.5424,-0.0338,0.0272,-0.1226,-2.393191000024313,0.0,5.161458492279053,-1.0913329124450684,7.516708865296096e-05,2.035562038421631,5.467375802784719,0.0,0.2028428018093109,-1.4999783674823206,-4.203895392974451e-45,-0.004406988620758057,1.3160595893859863,-0.0,-0.012275682762265205,0.9219616651535034,0.0,0.03058600425720215
125.0,186.0,-4.9914,1.5535,8.5424,-0.0338,0.0272,-0.1226,-2.3931828937926234,0.0,5.177713871002197,-1.0912805795669556,6.440789729822427e-05,2.0318095684051514,5.467371809273519,0.0,0.20755748450756073,-1.5000222365008753,-0.0,-0.00888665672391653,1.3159960508346558,-0.0,-0.004341045394539833,0.9219411611557007,0.0,-0.02407040446996689
125.0,186.0,-4.9914,1.5535,8.5424,-0.0338,0.0272,-0.1226,-2.3931948147215785,0.0,5.176630020141602,-1.0913448333740234,5.463323395815678e-05,2.033381223678589,5.467359888344564,0.0,0.21202632784843445,-1.5000508467303675,-0.0,-0.014866888523101807,1.3160037994384766,-0.0,0.004139571916311979,0.9219657778739929,0.0,0.015168040990829468
125.0,186.0,-4.9914,1.5535,8.5424,-0.0338,0.0272,-0.1226,-2.393158575097555,4.11154104540401e-07,5.166828632354736,-1.0913686752319336,4.87183133373037e-05,2.0337061882019043,5.467343675881185,0.0,0.20953500270843506,-1.5000465551959437,-0.0,-0.020240986719727516,1.316063404083252,-0.0,0.007069322280585766,0.9219533801078796,0.0,0.019303305074572563
127.0,186.0,-5.1978,1.4656,8.2403,-0.0466,0.0313,-0.0959,-2.393158575097555,1.787164741579199e-16,5.123142242431641,-1.0913209915161133,6.436686817323789e-05,1.96832275390625,5.467319834023275,0.0,0.20756374299526215,-1.5000341574298304,-0.0,-0.019662007689476013,1.3160037994384766,-0.0,-0.001155058154836297,0.9219735264778137,0.0,0.03720162808895111
127.0,186.0,-5.1978,1.4656,8.2403,-0.0466,0.0313,-0.0959,-2.393162866631979,5.790186190641577e-24,5.128072738647461,-1.0913647413253784,7.83505747676827e-05,2.013674259185791,5.467335688858785,4.1995679112005746e-07,0.21481429040431976,-1.5000422636615198,-0.0,-0.01504582166671753,1.3159998655319214,-0.0,0.005249590612947941,0.9219933152198792,0.00014618942805100232,-0.042043790221214294
127.0,186.0,-5.1978,1.4656,8.2403,-0.0466,0.0313,-0.0959,-2.3931547604002894,1.8759467490959214e-31,5.225332260131836,-1.091305136680603,4.909411654807627e-05,2.028428077697754,5.467351901322164,7.632508340627009e-12,0.21930842101573944,-1.50006610551943,-8.839755901135504e-05,-0.020277561619877815,1.3160321712493896,-0.0,0.005118390079587698,0.9219813346862793,0.002198914997279644,-0.021176258102059364
127.0,186.0,-5.1978,1.4656,8.2403,-0.0466,0.0313,-0.0959,-2.3931671581664027,8.154155763906111e-41,5.217312335968018,-1.091341257095337,0.00010798203584272414,1.9820588827133179,5.46738367059783,9.057233969484078e-18,0.2090548425912857,-1.5001466909991663,-0.0007902266224846244,-0.01640840247273445,1.3160037994384766,-0.0,-0.005932185798883438,0.922065258026123,0.005853737238794565,0.06377434730529785
127.0,186.0,-5.1978,1.4656,8.2403,-0.0466,0.0313,-0.0959,-2.3931309185423792,0.0,5.185957908630371,-1.0913246870040894,0.0006839021225459874,2.033806562423706,5.46734373548583,1.6461073419002917e-22,0.2106626331806183,-1.5001066366778772,-0.0009695998160168529,-0.019415341317653656,1.3160321712493896,-0.0,-0.0075521040707826614,0.922141432762146,0.010562008246779442,0.08128297328948975
127.0,186.0,-5.1978,1.4656,8.2403,-0.0466,0.0313,-0.0959,-2.3931666813292445,0.0,5.187836647033691,-1.0913090705871582,0.0011920867254957557,1.9976425170898438,5.467323827534475,1.9533784183252643e-28,0.21460936963558197,-1.5000742117511194,-0.000687803840264678,-0.040322646498680115,1.315972089767456,-0.0,0.00471110362559557,0.9222608208656311,0.014576323330402374,0.07285290211439133
127.0,186.0,-5.1978,1.4656,8.2403,-0.0466,0.0313,-0.0959,-2.3932110271849574,0.0,5.179450511932373,-1.0912604331970215,0.0035568871535360813,2.0220067501068115,5.467371809273519,3.5501685289519624e-33,0.20417708158493042,-1.5000622908221644,-0.0005038632079958916,-0.03736709803342819,1.3159881830215454,-0.0,0.008336878381669521,0.9224094748497009,0.018124328926205635,0.13160862028598785
127.0,186.0,-5.1978,1.4656,8.2403,-0.0466,0.0313,-0.0959,-2.3932110271849574,0.0,5.221404075622559,-1.0912045240402222,0.0065919808112084866,2.034653902053833,5.467347669392385,4.2128609005492014e-39,0.21211689710617065,-1.5000866095172327,-0.0003732101176865399,-0.022459594532847404,1.3160079717636108,-0.0,0.00036428647581487894,0.9226047992706299,0.020723475143313408,0.07611721009016037
127.0,186.0,-5.1978,1.4656,8.2403,-0.0466,0.0313,-0.0959,-2.3931905231871546,4.479328708839603e-05,5.169770240783691,-1.0911765098571777,0.004408938344568014,2.0229029655456543,5.467379736691274,7.707141553786494e-44,0.20851777493953705,-1.5000742117511194,-0.0003091030812356621,-0.021746670827269554,1.3159997463226318,-0.0,0.010980039834976196,0.9228246808052063,0.023410817608237267,0.07466869056224823
127.0,186.0,-5.1978,1.4656,8.2403,-0.0466,0.0313,-0.0959,-2.393198629418844,1.991829958569724e-05,5.161913871765137,-1.0911444425582886,0.001825484330765903,2.031055450439453,5.46733974197463,0.0,0.20442256331443787,-1.5000460783587855,-0.0002544699818827212,-0.006448274478316307,1.3160321712493896,-0.0,0.009144985117018223,0.923092782497406,0.025850683450698853,0.11529798060655594
127.0,185.0,-4.9543,1.4913,8.796,-0.0302,0.0473,-0.1295,-2.3932072124876917,1.829842949518934e-05,5.177579879760742,-1.0911248922348022,0.000811125966720283,2.04702091217041,5.467371868878164,0.0,0.2184610664844513,-1.5000465551959437,-0.00019511189020704478,-0.023381387814879417,1.3160401582717896,-0.0,0.003505066502839327,0.923320472240448,0.026423832401633263,0.06942878663539886
127.0,185.0,-4.9543,1.4913,8.796,-0.0302,0.0473,-0.1295,-2.393186708489889,1.6609916201559827e-05,5.193121910095215,-1.0911084413528442,0.0005637465510517359,2.036482810974121,5.46731977441863,0.0,0.21710728108882904,-1.5000460783587855,-0.00016892347775865346,-0.008269475772976875,1.3160078525543213,-0.0,0.0024623428471386433,0.9235561490058899,0.025212902575731277,0.04655744880437851
127.0,185.0,-4.9543,1.4913,8.796,-0.0302,0.0473,-0.1295,-2.393198629418844,1.5468041965505108e-05,5.204996109008789,-1.0911282300949097,0.00042927233153022826,2.034360885620117,5.4673518417175195,0.0,0.20336049795150757,-1.5000746885882776,-0.00015255980542860925,-0.004104361869394779,1.3160163164138794,-0.0,0.00046664196997880936,0.9237558841705322,0.02224104292690754,0.06461285054683685
127.0,185.0,-4.9543,1.4913,8.796,-0.0302,0.0473,-0.1295,-2.3931943378844203,1.4244025805965066e-05,5.171761512756348,-1.0911402702331543,0.0003035764384549111,2.0196595191955566,5.46731977441863,0.0,0.21075156331062317,-1.5000622908221644,-0.0001360824826406315,-0.011624941602349281,1.3159875869750977,-0.0,0.01747072860598564,0.9239033460617065,0.0168438833206892,-0.004986398853361607
127.0,185.0,-4.9543,1.4913,8.796,-0.0302,0.0473,-0.1295,-2.393226762811178,2.4852118141183155e-09,5.204367637634277,-1.0911526679992676,4.401377282192698e-06,2.0588889122009277,5.467335688858785,0.0,0.22337943315505981,-1.5000503698932093,-0.0001252593647222966,-0.02076113224029541,1.3160035610198975,-0.0,-0.0008351108990609646,0.9240396022796631,0.012842384167015553,0.023616569116711617
127.0,185.0,-4.9543,1.4913,8.796,-0.0302,0.0473,-0.1295,-2.3932072124876917,1.080247525374465e-18,5.173625946044922,-1.0911365747451782,1.913148213458847e-15,2.0518546104431152,5.467379796295919,0.0,0.20927694439888,-1.50006610551943,-0.0001139328014687635,-0.003805555636063218,1.3159995079040527,-0.0,-0.0028630420565605164,0.9241312742233276,0.006880800239741802,0.03255134075880051
127.0,185.0,-4.9543,1.4913,8.796,-0.0302,0.0473,-0.1295,-2.393266817132467,3.4998646061866164e-26,5.176326751708984,-1.091188907623291,6.198357811360128e-23,2.022433280944824,5.467363822251119,0.0,0.21510422229766846,-1.5000699202166956,-0.00010624701099004596,-0.004970412701368332,1.3159714937210083,-0.0,0.00606903899461031,0.924159586429596,0.0027385561261326075,0.004957288503646851
127.0,185.0,-4.9543,1.4913,8.796,-0.0302,0.0473,-0.1295,-2.39328732113027,1.521286992787817e-35,5.173460006713867,-1.0912128686904907,-0.0004034081066492945,2.0049853324890137,5.467367815762319,2.33205319091212e-05,0.20049545168876648,-1.5000503698932093,-9.798457904253155e-05,-0.011140097863972187,1.3160078525543213,-0.0,0.00684276781976223,0.9241718649864197,0.0007301838486455381,0.020988604053854942
127.0,185.0,-4.9543,1.4913,8.796,-0.0302,0.0473,-0.1295,-2.393242975274557,4.932570594423356e-43,5.195479393005371,-1.091164469718933,-0.0002969150082208216,2.0612175464630127,5.46736769655303,2.3581558707519434e-05,0.20506808161735535,-1.5000823179828089,-9.224569657817483e-05,-0.004145539365708828,1.3160326480865479,-0.0,-0.001983324531465769,0.9241554141044617,0.00044264053576625884,0.0266762413084507
127.0,185.0,-4.9543,1.4913,8.796,-0.0302,0.0473,-0.1295,-2.3932391605772914,0.0,5.177186965942383,-1.091124176979065,-0.00017860246589407325,2.0370821952819824,5.46731190660552,1.1114299923065118e-05,0.19988766312599182,-1.5000742117511194,-8.595299732405692e-05,-0.013105678372085094,1.3160325288772583,-0.0,-0.004903722088783979,0.9241030216217041,0.00023734748538117856,0.012216114439070225
128.0,174.0,-5.147,0.9781,8.3833,-0.0502,0.0292,-0.1042,-2.393214841882223,0.0,5.188486099243164,-1.0911765098571777,-2.0272531401133165e-05,2.064401626586914,5.46735160329894,1.5436909528432352e-09,0.22124621272087097,-1.5000742117511194,-8.150496432790533e-05,-0.009911714121699333,1.315999984741211,-0.0,0.0048332056030631065,0.9241353869438171,0.00014085639850236475,0.006568810902535915
128.0,174.0,-5.147,0.9781,8.3833,-0.0502,0.0292,-0.1042,-2.393266817132467,-6.305814895313233e-05,5.15518856048584,-1.0912009477615356,-8.811865862370146e-15,2.003638505935669,5.467291819840231,1.831844485467222e-15,0.20712938904762268,-1.500054184590475,-7.655307126697153e-05,-0.008268360048532486,1.3160202503204346,-0.0,0.007895056158304214,0.9241637587547302,0.00011171386722708121,0.05644350126385689
128.0,174.0,-5.147,0.9781,8.3833,-0.0502,0.0292,-0.1042,-2.393242975274557,-5.530766065930948e-05,5.137362957000732,-1.0911321640014648,-2.854931792205534e-22,2.0437989234924316,5.46730803230361,-0.0005112926592119038,0.2179661989212036,-1.500094238911764,-8.342798537341878e-05,-0.01762205921113491,1.3160035610198975,-0.0,0.005814863834530115,0.9241312146186829,9.584977669874206e-05,0.07277922332286835
128.0,174.0,-5.147,0.9781,8.3833,-0.0502,0.0292,-0.1042,-2.393231054345602,-4.794215419678949e-05,5.185218811035156,-1.0911844968795776,0.0005790919531136751,2.047067880630493,5.467264044075765,-0.0005965544260106981,0.21832408010959625,-1.5000699202166956,-4.9218753702007234e-05,-0.031529709696769714,1.3159840106964111,-0.0,-0.0016153883188962936,0.9241554141044617,3.217305857106112e-05,0.1708351969718933
128.0,174.0,-5.147,0.9781,8.3833,-0.0502,0.0292,-0.1042,-2.3932587109007777,-4.332616663305089e-05,5.214743137359619,-1.0911164283752441,0.0005488043534569442,2.0944433212280273,5.467303740769186,-0.0010653239442035556,0.21189382672309875,-1.5000861326800745,-7.660021765332203e-06,-0.031043943017721176,1.3160285949707031,-0.0,0.010233229957520962,0.9241152405738831,0.0022063038777559996,0.20952807366847992
128.0,174.0,-5.147,0.9781,8.3833,-0.0502,0.0292,-0.1042,-2.393231054345602,-3.867199848173186e-05,5.184116363525391,-1.0911049842834473,0.0006275828345678747,2.067770481109619,5.467220055847921,-0.0012350374599918723,0.19796523451805115,-1.500094238911764,-0.0011945581063628197,-0.04194246977567673,1.3159918785095215,-0.0,-0.0075019053183496,0.9242193102836609,0.010725414380431175,0.35311394929885864
128.0,174.0,-5.147,0.9781,8.3833,-0.0502,0.0292,-0.1042,-2.393271108666891,-3.561164703569375e-05,5.199680328369141,-1.091160774230957,0.0007578529184684157,2.05496883392334,5.467140066414633,-0.0010364657500758767,0.20299044251441956,-1.5001466909991663,-0.0009546848013997078,-0.06062410771846771,1.3159759044647217,-0.0,-0.009606239385902882,0.9243914484977722,0.02034025825560093,0.4548569917678833
128.0,174.0,-5.147,0.9781,8.3833,-0.0502,0.0292,-0.1042,-2.3932067356505335,-3.240602381993085e-05,5.226515769958496,-1.0911482572555542,0.0006119468016549945,2.1148173809051514,5.467140066414633,-0.0009736439096741378,0.19340413808822632,-1.5001466909991663,-0.0004746953782159835,-0.06109722703695297,1.316011905670166,-0.0,-0.017987962812185287,0.9246636629104614,0.03247912600636482,0.526481568813324
128.0,174.0,-5.147,0.9781,8.3833,-0.0502,0.0292,-0.1042,-2.3932186565794886,-4.5137512643123046e-05,5.2172393798828125,-1.0910485982894897,0.0005603392492048442,2.1392908096313477,5.467184054642477,-0.0011439203517511487,0.18504959344863892,-1.5000861326800745,-0.00040045578498393297,-0.0626576766371727,1.316011905670166,-0.00021715248294640332,-0.026186887174844742,0.9249232411384583,0.03866824135184288,0.5469436645507812
128.0,174.0,-5.147,0.9781,8.3833,-0.0502,0.0292,-0.1042,-2.3932792148985804,-4.183123019174673e-05,5.23746919631958,-1.0911402702331543,0.00035822970676235855,2.1501848697662354,5.4671440599258325,-0.0017436625203117728,0.16044282913208008,-1.500094238911764,-0.0002920943370554596,-0.053339987993240356,1.3159759044647217,-0.0002099347475450486,-0.016220781952142715,0.9253345727920532,0.04514435678720474,0.6076359152793884
126.0,179.0,-5.1045,1.6875,8.3515,-0.0305,0.0231,-0.0214,-2.393242975274557,-5.249936293694191e-05,5.243751525878906,-1.091140866279602,0.0003260327212046832,2.1277952194213867,5.4670877931411646,-0.0027171471156179905,0.1606730967760086,-1.5000904242144983,-0.00024012358335312456,-0.06937991827726364,1.315960168838501,-0.0002119397686328739,-0.016975246369838715,0.925722599029541,0.05162825435400009,0.570634663105011
126.0,179.0,-5.1045,1.6875,8.3515,-0.0305,0.0231,-0.0214,-2.3931991062560023,-4.962441380484961e-05,5.226619720458984,-1.0911327600479126,0.00034992655855603516,2.1588797569274902,5.467051851540365,-0.005212236661463976,0.16333575546741486,-1.5001142660724085,-0.00020385610696393996,-0.06073535978794098,1.3160326480865479,-0.0002133807574864477,-0.025199005380272865,0.926114022731781,0.058294519782066345,0.5877562761306763
126.0,179.0,-5.1045,1.6875,8.3515,-0.0305,0.0231,-0.0214,-2.3932792148985804,-3.481857493170537e-05,5.246493339538574,-1.0910885334014893,0.0013567545684054494,2.1238460540771484,5.4669921276863,-0.012040844187140465,0.15225154161453247,-1.5000742117511194,-0.00017148333427030593,-0.06210838258266449,1.3159840106964111,-0.00018593222193885595,-0.02124003693461418,0.926753580570221,0.07033336162567139,0.6574599742889404
126.0,179.0,-5.1045,1.6875,8.3515,-0.0305,0.0231,-0.0214,-2.3932229481139125,1.55128218466416e-05,5.287548065185547,-1.091080665588379,0.003492075717076659,2.182980537414551,5.466879951744833,-0.01388945709913969,0.14539408683776855,-1.5000985304461878,-0.00015215401072055101,-0.06883441656827927,1.3159438371658325,-0.00016852350381668657,-0.025454198941588402,0.9273657202720642,0.08493839204311371,0.6573490500450134
126.0,179.0,-5.1045,1.6875,8.3515,-0.0305,0.0231,-0.0214,-2.3932272396483363,1.4347517208079807e-05,5.269067287445068,-1.0910284519195557,0.007113417610526085,2.176480293273926,5.466760504036703,-0.011563870124518871,0.1411903202533722,-1.5001304785357874,-0.00013336417032405734,-0.053752340376377106,1.3159561157226562,-0.00014823884703218937,-0.014398060739040375,0.9282569289207458,0.09450937062501907,0.6672494411468506
126.0,179.0,-5.1045,1.6875,8.3515,-0.0305,0.0231,-0.0214,-2.393214841882223,1.3487488104146905e-05,5.268424034118652,-1.090940237045288,0.008900146000087261,2.2104039192199707,5.466696429043569,-0.00812672171741724,0.1432574838399887,-1.500078026448385,-0.00012137320300098509,-0.0597478523850441,1.3159840106964111,-0.0001309809449594468,-0.02383819967508316,0.9290286898612976,0.0975532978773117,0.649326503276825
126.0,179.0,-5.1045,1.6875,8.3515,-0.0305,0.0231,-0.0214,-2.3932110271849574,1.25473279695143e-05,5.247086524963379,-1.090836763381958,0.008012115024030209,2.230107307434082,5.46658073642806,-0.00835239514708519,0.12172051519155502,-1.5000818411456507,-0.00010911075514741242,-0.04778248816728592,1.3160001039505005,-9.225105895893648e-05,-0.011044695042073727,0.9301034808158875,0.10243476927280426,0.6648731231689453
126.0,179.0,-5.1045,1.6875,8.3515,-0.0305,0.0231,-0.0214,-2.393242498437399,1.1884585546795279e-05,5.274205207824707,-1.090800404548645,0.006207912229001522,2.2337684631347656,5.466452348023214,-0.008866112679243088,0.13001807034015656,-1.500094238911764,-0.00010095129982801154,-0.06204371154308319,1.3159881830215454,-8.30320714158006e-05,-0.023088334128260612,0.9309266805648804,0.10575159639120102,0.6918056011199951
126.0,179.0,-5.1045,1.6875,8.3515,-0.0305,0.0231,-0.0214,-2.393202920953268,1.1148514204251114e-05,5.2724289894104,-1.0907206535339355,0.0063773165456950665,2.2469582557678223,5.466388749867239,-0.01147464755922556,0.11593683063983917,-1.5000904242144983,-9.232152660842985e-05,-0.04884425550699234,1.316036343574524,-7.444627408403903e-05,-0.017824707552790642,0.9320260882377625,0.11771368235349655,0.6922459006309509
126.0,179.0,-5.1045,1.6875,8.3515,-0.0305,0.0231,-0.0214,-2.3931948147215785,1.7618582205614075e-05,5.260466575622559,-1.0907009840011597,0.007608417421579361,2.208958387374878,5.466257023602285,-0.014502971433103085,0.11974459886550903,-1.5000904242144983,-8.641215390525758e-05,-0.050465960055589676,1.316011905670166,-6.87585852574557e-05,-0.011427212506532669,0.9329489469528198,0.1292380392551422,0.7106689810752869
129.0,172.0,-5.1458,1.7444,8.6548,-0.1862,-0.1573,0.0095,-2.3931623897948207,3.0090275686234236e-05,5.294020652770996,-1.090556025505066,0.011946487240493298,2.2003254890441895,5.466100859432974,-0.01839822344481945,0.11265519261360168,-1.500094238911764,-9.334147034678608e-05,-0.05917094647884369,1.3159840106964111,-6.276451313169673e-05,-0.007894367910921574,0.9343047142028809,0.1353750377893448,0.7020272016525269
129.0,172.0,-5.1458,1.7444,8.6548,-0.1862,-0.1573,0.0095,-2.393186708489889,7.18651110842572e-11,5.24096155166626,-1.0904440879821777,0.014483945444226265,2.2576823234558105,5.465925204544821,-0.028265072032809258,0.09443496912717819,-1.5001304785357874,-8.812263695290312e-05,-0.08123192191123962,1.3159759044647217,-5.867275103810243e-05,-0.0003464861074462533,0.9353547692298889,0.13632355630397797,0.6735393404960632
129.0,172.0,-5.1458,1.7444,8.6548,-0.1862,-0.1573,0.0095,-2.3932072124876917,3.123762926540693e-20,5.251411437988281,-1.0902643203735352,0.016443630680441856,2.316589832305908,5.465465235501089,-0.06271611899137497,0.07723860442638397,-1.5001142660724085,-8.236229768954217e-05,-0.07060346007347107,1.316036343574524,-4.068882844876498e-05,-0.0050565386191010475,0.9367497563362122,0.1321113258600235,0.7013130187988281
129.0,172.0,-5.1458,1.7444,8.6548,-0.1862,-0.1573,0.0095,-2.3932110271849574,1.0120596227779707e-27,5.278476715087891,-1.0901644229888916,0.017494386062026024,2.2557241916656494,5.464750456600942,-0.11542285978794098,0.0586567260324955,-1.5001385847674769,-7.826934597687796e-05,-0.060784537345170975,1.315999984741211,-3.8375492295017466e-05,-0.0022909247782081366,0.9377966523170471,0.1443023383617401,0.6175744533538818
129.0,172.0,-5.1458,1.7444,8.6548,-0.1862,-0.1573,0.0095,-2.393202920953268,4.39912250136215e-37,5.30003547668457,-1.0899882316589355,0.018664151430130005,2.230452299118042,5.4632723210151575,-0.159807488322258,0.04300486296415329,-1.5000737349139612,-7.36918009351939e-05,-0.05965364724397659,1.316011905670166,-3.582926728995517e-05,-0.006984801031649113,0.9391996264457703,0.14492425322532654,0.6255786418914795
129.0,172.0,-5.1458,1.7444,8.6548,-0.1862,-0.1573,0.0095,-2.3932353458800257,9.72381021711044e-05,5.271999359130859,-1.0897997617721558,0.022863222286105156,2.259528636932373,5.4618974206741235,-0.17425298690795898,0.030691932886838913,-1.5000904242144983,-7.03979458194226e-05,-0.06328566372394562,1.3159838914871216,-3.402328002266586e-05,-0.001832028734497726,0.940290629863739,0.13743087649345398,0.6183992624282837
129.0,172.0,-5.1458,1.7444,8.6548,-0.1862,-0.1573,0.0095,-2.3931905231871546,0.00010407726949779317,5.2675933837890625,-1.0895520448684692,0.02850830927491188,2.302906036376953,5.459887552052297,-0.21733474731445312,0.02103559672832489,-1.5000456015216272,-2.035757279372774e-05,-0.06579835712909698,1.3160526752471924,-3.200667197233997e-05,-0.0034093577414751053,0.941657543182373,0.12154226005077362,0.5194486379623413
129.0,172.0,-5.1458,1.7444,8.6548,-0.1862,-0.1573,0.0095,-2.393275400201315,0.00014339174958877265,5.231781959533691,-1.0892143249511719,0.03299586474895477,2.264148712158203,5.458083081036367,-0.2351095974445343,0.022955184802412987,-1.5000699202166956,-8.486746594371652e-08,-0.04238778352737427,1.3160321712493896,-3.0557712307199836e-05,0.013888661749660969,0.9426727294921875,0.11702286452054977,0.4807015061378479
129.0,172.0,-5.1458,1.7444,8.6548,-0.1862,-0.1573,0.0095,-2.3931948147215785,0.0001025428282446228,5.289138317108154,-1.0889191627502441,0.037192557007074356,2.3109498023986816,5.455428349762716,-0.273139625787735,-0.014630291610956192,-1.500122372304098,-1.0070924942508913e-13,-0.04982738941907883,1.3160035610198975,-1.640886893028437e-08,0.007594789378345013,0.9438034296035767,0.1159561350941658,0.5070710778236389
129.0,172.0,-5.1458,1.7444,8.6548,-0.1862,-0.1573,0.0095,-2.3931466541686,8.351086580660194e-05,5.266653060913086,-1.0885792970657349,0.039167068898677826,2.2855987548828125,5.453070807247915,-0.3105098307132721,-0.026260020211338997,-1.50006610551943,-1.830340798499415e-18,-0.05627065896987915,1.3159840106964111,-2.9822308901875094e-13,-0.004489703103899956,0.9447066783905029,0.11095534265041351,0.46987131237983704
120.0,167.0,-4.8772,2.3288,8.409,-0.3083,-0.4672,-0.1271,-2.3932024441161097,0.00010120550723513588,5.224981307983398,-1.0881505012512207,0.04301400110125542,2.314910888671875,5.449698555260458,-0.3641504645347595,-0.04958675801753998,-1.5000904242144983,-2.172001890350768e-24,-0.04389818757772446,1.3160161972045898,-3.5389102710733672e-19,0.007954314351081848,0.9457088112831116,0.10260302573442459,0.33774369955062866
120.0,167.0,-4.8772,2.3288,8.409,-0.3083,-0.4672,-0.1271,-2.393162866631979,8.836667257128283e-05,5.246108055114746,-1.0878065824508667,0.0468929223716259,2.284769058227539,5.446738111763754,-0.3900890648365021,-0.05209909752011299,-1.5001066366778772,-3.947506083711049e-29,-0.038215260952711105,1.315995693206787,-6.431793980559056e-24,-0.0009917754214257002,0.946560800075531,0.09303214401006699,0.3660053014755249
120.0,167.0,-4.8772,2.3288,8.409,-0.3083,-0.4672,-0.1271,-2.3931786022581996,7.593943882966414e-05,5.229119300842285,-1.0873143672943115,0.05250005051493645,2.218963623046875,5.442605602532186,-0.4332931935787201,-0.0858142152428627,-1.500054184590475,-4.684369094844557e-35,-0.03971463441848755,1.315987467765808,-7.632386642600932e-30,0.004075982607901096,0.9474840760231018,0.0858190581202507,0.32633310556411743
120.0,167.0,-4.8772,2.3288,8.409,-0.3083,-0.4672,-0.1271,-2.393174787560934,6.825992750236765e-05,5.259578704833984,-1.0869148969650269,0.057435810565948486,2.274228572845459,5.438964593201437,-0.4706204831600189,-0.08933542668819427,-1.5000818411456507,-8.51360283299007e-40,-0.04490453004837036,1.3160035610198975,-1.387148307583831e-34,0.0014225947670638561,0.9481033682823181,0.08012104779481888,0.29639554023742676
120.0,167.0,-4.8772,2.3288,8.409,-0.3083,-0.4672,-0.1271,-2.393219133416647,-2.63038255070569e-05,5.259122848510742,-1.086322546005249,0.05951232835650444,2.2324256896972656,5.433952736645498,-0.5192036628723145,-0.09431466460227966,-1.5000947157489222,-1.401298464324817e-45,-0.039090320467948914,1.315983533859253,-1.6460772800730761e-40,0.009500036016106606,0.9488542675971985,0.06415331363677979,0.2674390971660614
120.0,167.0,-4.8772,2.3288,8.409,-0.3083,-0.4672,-0.1271,-2.393174787560934,-4.677770994021557e-05,5.223148822784424,-1.0858049392700195,0.05785934627056122,2.2488980293273926,5.429496335774221,-0.5746784210205078,-0.11371205747127533,-1.5001028219806116,-0.0,-0.04763417690992355,1.3159995079040527,-2.802596928649634e-45,-0.007587430998682976,0.9493018984794617,0.047961026430130005,0.2695918083190918
120.0,167.0,-4.8772,2.3288,8.409,-0.3083,-0.4672,-0.1271,-2.393226762811178,-2.795523323584348e-05,5.202702522277832,-1.085221767425537,0.05349266901612282,2.2725183963775635,5.423475134163656,-0.6180344223976135,-0.09596147388219833,-1.500078026448385,-0.0,-0.041326284408569336,1.315983533859253,-0.0,0.007195318583399057,0.9497523903846741,0.03783230856060982,0.23407477140426636
120.0,167.0,-4.8772,2.3288,8.409,-0.3083,-0.4672,-0.1271,-2.3931948147215785,-1.9061837519984692e-05,5.202497482299805,-1.0847327709197998,0.05296480655670166,2.264876365661621,5.418318259506979,-0.665818989276886,-0.10330194234848022,-1.500049893056051,-0.0,-0.02819114923477173,1.3159759044647217,-0.0,0.01563919708132744,0.9500927329063416,0.03717119246721268,0.2233598232269287
120.0,167.0,-4.8772,2.3288,8.409,-0.3083,-0.4672,-0.1271,-2.3931666813292445,-1.7573065633769147e-05,5.219969749450684,-1.0843535661697388,0.05824952572584152,2.2641184329986572,5.412858295231619,-0.6929371953010559,-0.09733320772647858,-1.5001190344439905,-0.0,-0.028035473078489304,1.3159759044647217,-0.0,-0.0009539194870740175,0.9502708315849304,0.03581765294075012,0.2589883804321289
120.0,167.0,-4.8772,2.3288,8.409,-0.3083,-0.4672,-0.1271,-2.393174787560934,-1.6010044419090264e-05,5.213592529296875,-1.0836604833602905,0.06752945482730865,2.2803447246551514,5.405670988350668,-0.7291431427001953,-0.1065024808049202,-1.5000861326800745,-0.0,-0.030840765684843063,1.3160436153411865,-1.0392893656785418e-08,-0.007104364689439535,0.9506266117095947,0.027484843507409096,0.21539272367954254
122.0,182.0,-2.7254,0.2417,8.7422,-0.3438,-0.5536,-0.1759,-2.393214841882223,-5.4669813835062087e-05,5.236516952514648,-1.0830804109573364,0.07251676917076111,2.2773709297180176,5.399653184204855,-0.7556248903274536,-0.07748077809810638,-1.500054184590475,-0.0,-0.035233207046985626,1.3160486221313477,-1.8888570449491354e-13,0.002064693719148636,0.9508377909660339,0.02083321288228035,0.17636628448963165
122.0,182.0,-2.7254,0.2417,8.7422,-0.3438,-0.5536,-0.1759,-2.393226762811178,-0.00018495485710445791,5.236532211303711,-1.0823323726654053,0.07650090008974075,2.2856717109680176,5.392044174462118,-0.7741053104400635,-0.09336309134960175,-1.500054184590475,-0.0,-0.032657280564308167,1.315963625907898,-2.2414410326382027e-19,0.00026660377625375986,0.9509692192077637,0.012714830227196217,0.16187715530395508
122.0,182.0,-2.7254,0.2417,8.7422,-0.3438,-0.5536,-0.1759,-2.393283029595846,-0.00019014421559404582,5.194734573364258,-1.0817315578460693,0.07822207361459732,2.3589138984680176,5.385771143227377,-0.7898972034454346,-0.0694272518157959,-1.5000785032855433,-0.0,-0.022065777331590652,1.3159959316253662,-4.073708874567061e-24,0.008834173902869225,0.9510045051574707,0.005442897789180279,0.15850992500782013
122.0,182.0,-2.7254,0.2417,8.7422,-0.3438,-0.5536,-0.1759,-2.3932706318297328,-0.00014725825167261064,5.205877780914307,-1.080867886543274,0.07875637710094452,2.2862560749053955,5.378035354405203,-0.789039134979248,-0.06324322521686554,-1.5001028219806116,-0.0,-0.02455863542854786,1.3159759044647217,-4.834128547078649e-30,0.002585488837212324,0.9510127305984497,1.9971989217992814e-07,0.0892266035079956
122.0,182.0,-2.7254,0.2417,8.7422,-0.3438,-0.5536,-0.1759,-2.393226762811178,-0.0001094145918614231,5.212386131286621,-1.080267310142517,0.07663273811340332,2.2466886043548584,5.371714043408193,-0.7773356437683105,-0.05728742107748985,-1.5000465551959437,-0.0,-0.01547657698392868,1.3160161972045898,-8.785788844980375e-35,0.0021297098137438297,0.9509932994842529,-0.0015836034435778856,0.09188927710056305
122.0,182.0,-2.7254,0.2417,8.7422,-0.3438,-0.5536,-0.1759,-2.3931828937926234,-8.31006730095396e-09,5.195943832397461,-1.0795270204544067,0.0737093836069107,2.2766668796539307,5.364023136883535,-0.7585509419441223,-0.06552450358867645,-1.5000622908221644,-0.0,-0.011038742959499359,1.315983533859253,-1.0425800704423071e-40,0.003040661569684744,0.9509651064872742,-0.0029468804132193327,0.016073396429419518
122.0,182.0,-2.7254,0.2417,8.7422,-0.3438,-0.5536,-0.1759,-2.393214841882223,-2.6923564268298576e-16,5.173775672912598,-1.078930377960205,0.07878474146127701,2.2609615325927734,5.358076560288229,-0.7299923300743103,-0.043319568037986755,-1.500054661427633,-0.0,-0.01661578379571438,1.3160516023635864,-1.401298464324817e-45,-0.003746194299310446,0.950908899307251,-0.0021394137293100357,-0.007710644043982029
122.0,182.0,-2.7254,0.2417,8.7422,-0.3438,-0.5536,-0.1759,-2.3932072124876917,-1.1702873555874987e-25,5.256086826324463,-1.0780739784240723,0.08983395248651505,2.309328317642212,5.351060318737783,-0.6842131614685059,-0.019963134080171585,-1.5000622908221644,-0.0,-0.01264895312488079,1.3160326480865479,-0.0,0.0033586379140615463,0.9509294629096985,-0.001052685547620058,0.03070390224456787
122.0,182.0,-2.7254,0.2417,8.7422,-0.3438,-0.5536,-0.1759,-2.3932110271849574,-3.7915827425162126e-33,5.226373672485352,-1.077329158782959,0.09287852793931961,2.285703182220459,5.345890748291769,-0.6537094712257385,-0.03002585843205452,-1.5000823179828089,-0.0,-0.008913456462323666,1.3159795999526978,-0.0,-0.0013870128896087408,0.9509536623954773,-0.0013292889343574643,0.011925524100661278
122.0,182.0,-2.7254,0.2417,8.7422,-0.3438,-0.5536,-0.1759,-2.393242498437399,-1.647926994045985e-42,5.210417747497559,-1.0764813423156738,0.09673407673835754,2.2416627407073975,5.339742111950674,-0.5977786183357239,-0.03419877588748932,-1.5000222365008753,-0.0,-0.021394886076450348,1.315955638885498,-0.0,0.007338476832956076,0.9509217739105225,-0.0033781619276851416,-0.06042605638504028
122.0,182.0,-2.7254,0.2417,8.7422,-0.3438,-0.5536,-0.1759,-2.3932625255980433,0.0,5.218801498413086,-1.075656533241272,0.0922088623046875,2.21108078956604,5.3352702734764,-0.547732412815094,-0.01762157306075096,-1.5000265280352991,-0.0,-0.016306927427649498,1.3160078525543213,-0.0,0.0009542049374431372,0.9508332014083862,-0.00428535183891654,-0.021264133974909782
132.0,187.0,-2.7793,-0.6449,9.2243,-0.0434,0.1104,-0.1063,-2.393202920953268,0.0,5.240329742431641,-1.0747966766357422,0.0827140137553215,2.273200035095215,5.330188917904653,-0.46954694390296936,0.009171805344522,-1.5000746885882776,-0.0,-0.0026507475413382053,1.3160558938980103,-0.0,0.007448374293744564,0.9507933855056763,-0.0038569888565689325,0.003929338417947292
132.0,187.0,-2.7793,-0.6449,9.2243,-0.0434,0.1104,-0.1063,-2.393219133416647,0.00021829923207405955,5.230399131774902,-1.074152946472168,0.07815098762512207,2.2382290363311768,5.326737332135,-0.4123675525188446,0.026619601994752884,-1.5000460783587855,-0.0,-0.010415722616016865,1.315999984741211,-0.0,-0.008620492182672024,0.9507700204849243,-0.00391582353040576,-0.04247503727674484
132.0,187.0,-2.7793,-0.6449,9.2243,-0.0434,0.1104,-0.1063,-2.39317049602651,0.000761196541134268,5.169923782348633,-1.0733486413955688,0.08141859620809555,2.249312162399292,5.323093342572012,-0.3194834589958191,0.08029896765947342,-1.5000265280352991,-0.0,-0.014376368373632431,1.3160078525543213,-0.0,0.008162018842995167,0.9507015943527222,-0.0036802112590521574,0.0094091035425663
132.0,187.0,-2.7793,-0.6449,9.2243,-0.0434,0.1104,-0.1063,-2.393182416955465,0.00040795610402710736,5.212810516357422,-1.0727113485336304,0.08625635504722595,2.216644287109375,5.320982146054067,-0.22324669361114502,0.1321878433227539,-1.5000022093402308,-0.0,-0.02636818401515484,1.3160362243652344,-0.0,0.0063368515111505985,0.9507339000701904,-0.0019132239976897836,0.009991627186536789
132.0,187.0,-2.7793,-0.6449,9.2243,-0.0434,0.1104,-0.1063,-2.393210550347799,0.0001692861842457205,5.216456890106201,-1.0718355178833008,0.09347321838140488,2.2949323654174805,5.319265651493826,-0.14136764407157898,0.17501342296600342,-1.5000303427325647,-0.0,-0.020343532785773277,1.3160284757614136,-0.0,-0.006183077581226826,0.9506934285163879,-0.0007335966220125556,-0.037555500864982605
132.0,187.0,-2.7793,-0.6449,9.2243,-0.0434,0.1104,-0.1063,-2.3932906589903773,-0.0008249977836385369,5.229996681213379,-1.0710946321487427,0.0940132811665535,2.232494831085205,5.3185762641723535,-0.05687447264790535,0.23398233950138092,-1.5000503698932093,-0.0,-0.01560046523809433,1.3160161972045898,-0.0,0.0034891548566520214,0.9507298469543457,-0.0004752060049213469,0.057664018124341965
132.0,187.0,-2.7793,-0.6449,9.2243,-0.0434,0.1104,-0.1063,-2.393242498437399,-0.0008488825405947864,5.25709867477417,-1.070114254951477,0.08627647906541824,2.189626693725586,5.318577396660604,0.038688674569129944,0.26440533995628357,-1.500099007283346,-0.0,-0.015892263501882553,1.3159959316253662,-0.0,-0.0021186755038797855,0.9507057070732117,-0.0003299776872154325,-0.022743085399270058
132.0,187.0,-2.7793,-0.6449,9.2243,-0.0434,0.1104,-0.1063,-2.3932467899718226,-0.000302144733723253,5.239066123962402,-1.0695184469223022,0.07594037801027298,2.2517356872558594,5.318907546788015,0.06969987601041794,0.28960925340652466,-1.5000222365008753,-0.0,-0.014280563220381737,1.316100001335144,-0.0,0.0024284422397613525,0.9507261514663696,-0.000265157432295382,-0.0012743344996124506
132.0,187.0,-2.7793,-0.6449,9.2243,-0.0434,0.1104,-0.1063,-2.3931781254210414,0.0017771236598491669,5.226162910461426,-1.0687943696975708,0.07072139531373978,2.2249910831451416,5.319652843266287,0.07011813670396805,0.2961994409561157,-1.5000184218036097,-0.0,-0.021666068583726883,1.3159716129302979,-0.0,-0.00022133905440568924,0.9507138729095459,-0.00021288663265295327,0.000306873582303524
132.0,187.0,-2.7793,-0.6449,9.2243,-0.0434,0.1104,-0.1063,-2.393134733239645,0.004495485685765743,5.215846538543701,-1.0681899785995483,0.07736380398273468,2.207712173461914,5.320142376213827,0.052211761474609375,0.2976357638835907,-1.5000584761248987,-0.0,-0.019842270761728287,1.3160078525543213,-0.0,-0.01994549296796322,0.9507618546485901,-0.00018388791067991406,0.0070737930946052074
114.0,168.0,-4.8251,1.2945,8.4437,0.0689,0.2349,-0.1023,-2.393062730828756,0.013807788491249084,5.287045001983643,-1.0673534870147705,0.0879954993724823,2.195401668548584,5.320592093258657,0.046676333993673325,0.2838618755340576,-1.5000303427325647,-0.0,-0.012353422120213509,1.3160078525543213,-0.0,-0.004113045521080494,0.9507217407226562,-0.00015713270113337785,-0.02351873368024826
114.0,168.0,-4.8251,1.2945,8.4437,0.0689,0.2349,-0.1023,-2.3930307827391566,0.006909176707267761,5.251685619354248,-1.0666285753250122,0.0945684015750885,2.2467570304870605,5.321030545025625,0.06496410816907883,0.28503721952438354,-1.5000384489642542,-0.0,-0.031062185764312744,1.3159880638122559,-0.0,0.00527183897793293,0.9507458209991455,-0.0001407498784828931,-0.001522587612271309
114.0,168.0,-4.8251,1.2945,8.4437,0.0689,0.2349,-0.1023,-2.3930264912047328,-0.0025648728478699923,5.251880645751953,-1.0657175779342651,0.09638255834579468,2.2043375968933105,5.321902739792623,0.10656037926673889,0.3117527663707733,-1.5000141302691858,-0.0,-0.02894669771194458,1.3159799575805664,-0.0,0.013537976890802383,0.9506976008415222,-0.0001245218445546925,0.013616153039038181
114.0,168.0,-4.8251,1.2945,8.4437,0.0689,0.2349,-0.1023,-2.3930427036681117,-0.000983887235634029,5.215507984161377,-1.0649642944335938,0.09433972090482712,2.209876298904419,5.322799074440756,0.11480642855167389,0.3217442035675049,-1.5000465551959437,-0.0,-0.02906511351466179,1.3159799575805664,-0.0,-0.0011159161804243922,0.9506815671920776,-0.0001140060558100231,-0.03703712671995163
114.0,168.0,-4.8251,1.2945,8.4437,0.0689,0.2349,-0.1023,-2.3930350742735804,-0.0005522723076865077,5.288887977600098,-1.064059853553772,0.08186234533786774,2.2093942165374756,5.32385795095519,0.10410171002149582,0.30546867847442627,-1.5000703970538538,-0.0,-0.020201075822114944,1.3159759044647217,-0.0,0.0002032711636275053,0.9507057070732117,-0.00012030732614221051,-0.034861527383327484
114.0,168.0,-4.8251,1.2945,8.4437,0.0689,0.2349,-0.1023,-2.393015047112936,-9.294367373513523e-07,5.207757949829102,-1.0634114742279053,0.07725485414266586,2.222482681274414,5.324742483883657,0.1125485897064209,0.3089878559112549,-1.5000866095172327,-0.0,-0.02341725304722786,1.315999984741211,-0.0,-0.014224057085812092,0.9506856203079224,-0.00011176991392858326,-0.011575463227927685
114.0,168.0,-4.8251,1.2945,8.4437,0.0689,0.2349,-0.1023,-2.392946859399313,0.001823487225919962,5.266176223754883,-1.0628193616867065,0.0753093883395195,2.1984262466430664,5.325670349388876,0.1205189973115921,0.3143913149833679,-1.5000584761248987,-0.0,-0.020234277471899986,1.316003680229187,-0.0,-0.0003351647173985839,0.9507261514663696,-7.88293982623145e-05,0.025749918073415756
114.0,168.0,-4.8251,1.2945,8.4437,0.0689,0.2349,-0.1023,-2.3929554424681605,0.002868164796382189,5.267451286315918,-1.0619785785675049,0.0780421793460846,2.216634511947632,5.326826560288229,0.09287472814321518,0.3210400938987732,-1.5000703970538538,-0.0,-0.010752454400062561,1.3159675598144531,-0.0,-0.0036886536981910467,0.9506577849388123,-0.0009358105016872287,-0.03886818885803223
114.0,168.0,-4.8251,1.2945,8.4437,0.0689,0.2349,-0.1023,-2.3929387531676234,0.0024939298164099455,5.275750160217285,-1.061326026916504,0.08284642547369003,2.24419903755188,5.327327060490408,0.05349382385611534,0.30114543437957764,-1.4999941031085413,-0.0,-0.029240291565656662,1.3159799575805664,-0.0,0.007364022545516491,0.9506213665008545,-0.0013536018086597323,-0.020256254822015762
114.0,168.0,-4.8251,1.2945,8.4437,0.0689,0.2349,-0.1023,-2.392958780328268,0.00036798338987864554,5.239779472351074,-1.0605061054229736,0.08482056111097336,2.278693675994873,5.327761459141531,0.03460191562771797,0.28062039613723755,-1.5000866095172327,-0.0,-0.015433970838785172,1.3160244226455688,-0.0,-0.00892072357237339,0.9506659507751465,-0.0011315164156258106,-0.056992992758750916
100.0,162.0,-4.6379,0.7047,8.9845,-0.0302,0.0918,-0.102,-2.392946859399313,1.2412779142323416e-05,5.256054878234863,-1.0598582029342651,0.08273661136627197,2.214982032775879,5.328016149788656,0.038531649857759476,0.2794026732444763,-1.5000785032855433,-0.0,-0.026305947452783585,1.3159799575805664,-0.0,-0.008856749162077904,0.9506618976593018,-0.0008210061932913959,-0.0019859978929162025
100.0,162.0,-4.6379,0.7047,8.9845,-0.0302,0.0918,-0.102,-2.392946859399313,5.395465619287753e-15,5.2222795486450195,-1.0590940713882446,0.07128319889307022,2.173414945602417,5.32845019081191,0.05233041197061539,0.3053341805934906,-1.5000866095172327,-0.0,-0.029483936727046967,1.316011905670166,-0.0,0.0003177609760314226,0.9506536722183228,-0.0005897426744922996,-0.0259836558252573
100.0,162.0,-4.6379,0.7047,8.9845,-0.0302,0.0918,-0.102,-2.3929625950255335,1.7480621234282071e-22,5.249786376953125,-1.0585460662841797,0.06637469679117203,2.2020716667175293,5.328932273178854,0.050155527889728546,0.2937077283859253,-1.5000579992877405,-0.0,-0.01964884251356125,1.315999984741211,-0.0,0.004071840085089207,0.9506659507751465,-0.0007910967688076198,-0.015499652363359928
100.0,162.0,-4.6379,0.7047,8.9845,-0.0302,0.0918,-0.102,-2.3929506740965785,7.598307321638955e-32,5.290879249572754,-1.0578850507736206,0.062375400215387344,2.2446627616882324,5.329370248108663,0.035947058349847794,0.2870008945465088,-1.50006610551943,-0.0,-0.02769184112548828,1.3160245418548584,-0.0,0.00029479130171239376,0.9506019949913025,-0.0011411189334467053,-0.060257188975811005
100.0,162.0,-4.6379,0.7047,8.9845,-0.0302,0.0918,-0.102,-2.392902990380758,2.461754899276516e-39,5.254438400268555,-1.0573246479034424,0.060065463185310364,2.2044496536254883,5.329609501152792,0.022568611428141594,0.27263522148132324,-1.5000346342669886,-0.0,-0.03283713757991791,1.3159918785095215,-0.0,-0.010168821550905704,0.9506101608276367,-0.002569638192653656,-0.06814031302928925
100.0,162.0,-4.6379,0.7047,8.9845,-0.0302,0.0918,-0.102,-2.392931123773092,0.0,5.246379852294922,-1.0567326545715332,0.05882704257965088,2.2263340950012207,5.329744744091787,0.005898408591747284,0.2752871811389923,-1.5000141302691858,-0.0,-0.008960876613855362,1.3160159587860107,-0.0,-0.0037743868306279182,0.9506064653396606,-0.0035035740584135056,0.001608395716175437
100.0,162.0,-4.6379,0.7047,8.9845,-0.0302,0.0918,-0.102,-2.3929349384703578,0.0,5.1971893310546875,-1.0562963485717773,0.05937867984175682,2.1646218299865723,5.329665231495657,-0.0007335135014727712,0.26046299934387207,-1.5000065008746546,-0.0,-0.014865697361528873,1.3160078525543213,-0.0,0.001761476043611765,0.9505704641342163,-0.0036259458865970373,-0.05598004162311554
100.0,162.0,-4.6379,0.7047,8.9845,-0.0302,0.0918,-0.102,-2.3929149113097132,0.0,5.279451370239258,-1.0556846857070923,0.058861467987298965,2.2208456993103027,5.329732882767477,-0.00021303466928657144,0.2716200351715088,-1.5000503698932093,-0.0,-0.034364327788352966,1.3159875869750977,-0.0,0.010335522703826427,0.9505906105041504,-0.0024594049900770187,-0.025929369032382965
100.0,162.0,-4.6379,0.7047,8.9845,-0.0302,0.0918,-0.102,-2.3929230175414027,0.0,5.243405342102051,-1.055228352546692,0.05573293939232826,2.2168617248535156,5.329704749375143,-0.0002167615166399628,0.26306259632110596,-1.5000303427325647,-0.0,-0.032632388174533844,1.3160122632980347,-0.0,0.015147383324801922,0.9504823684692383,-0.0011917445808649063,-0.05448915809392929
100.0,162.0,-4.6379,0.7047,8.9845,-0.0302,0.0918,-0.102,-2.3929625950255335,0.0,5.236566543579102,-1.054715633392334,0.04905868321657181,2.1982970237731934,5.329736876278677,-0.00011666250065900385,0.26650404930114746,-1.50006610551943,-0.0,-0.018312616273760796,1.316044569015503,-0.0,0.0013249129988253117,0.950526237487793,-0.0007165863644331694,-0.02539130672812462
93.0,159.0,-3.9254,0.8764,9.1238,-0.0438,0.0279,-0.1113,-2.3929745159544886,0.0,5.271967887878418,-1.0543595552444458,0.04098353534936905,2.2356808185577393,5.329740750580587,-8.387761045014486e-05,0.2644670307636261,-1.5000341574298304,-0.0,-0.0168977752327919,1.316011905670166,-0.0,0.0005556037649512291,0.9505220651626587,-0.0004924474633298814,-0.010545049794018269
93.0,159.0,-3.9254,0.8764,9.1238,-0.0438,0.0279,-0.1113,-2.392946859399313,0.0,5.242995262145996,-1.0540648698806763,0.030174298211932182,2.1499242782592773,5.329740750580587,-6.802473944844678e-05,0.2565005123615265,-1.5000503698932093,-0.0,-0.024045325815677643,1.316091775894165,-0.0,0.009414474479854107,0.9505342841148376,-0.00020233148825354874,-0.011133434250950813
93.0,159.0,-3.9254,0.8764,9.1238,-0.0438,0.0279,-0.1113,-2.392902990380758,0.0,5.25579833984375,-1.0537759065628052,0.024222832173109055,2.1474571228027344,5.329716908722677,-5.909096944378689e-05,0.2729918360710144,-1.500054661427633,-0.0,-0.0254029780626297,1.3159995079040527,-0.0,-0.008604594506323338,0.9505220651626587,-9.622888319427148e-05,-0.008425058797001839
93.0,159.0,-3.9254,0.8764,9.1238,-0.0438,0.0279,-0.1113,-2.392902990380758,0.0,5.235961437225342,-1.0535355806350708,0.020381465554237366,2.1864256858825684,5.329724657326498,-7.613383058924228e-05,0.26938119530677795,-1.50006610551943,-0.0,-0.027102980762720108,1.3160362243652344,-0.0,0.003515031887218356,0.9505540132522583,-3.7965448427712545e-05,0.008570203557610512
93.0,159.0,-3.9254,0.8764,9.1238,-0.0438,0.0279,-0.1113,-2.392943044702047,0.0,5.253520965576172,-1.053427815437317,0.018769484013319016,2.1635568141937256,5.329688834934988,-9.117417357629165e-05,0.26513880491256714,-1.500094238911764,-0.0,-0.02618218958377838,1.3160516023635864,-0.0,0.00577986054122448,0.950602650642395,-3.0242159471116636e-11,-0.04700372368097305
93.0,159.0,-3.9254,0.8764,9.1238,-0.0438,0.0279,-0.1113,-2.3929387531676234,0.0,5.243966102600098,-1.0532641410827637,0.017368614673614502,2.1586086750030518,5.329700815468588,-0.0001247691980097443,0.249104842543602,-1.5000303427325647,-0.0,-0.011887612752616405,1.3160161972045898,-0.0,0.010363648645579815,0.9505741596221924,-1.3145366078791617e-20,-0.04311274737119675
93.0,159.0,-3.9254,0.8764,9.1238,-0.0438,0.0279,-0.1113,-2.392946859399313,0.0,5.189547061920166,-1.0530869960784912,0.014144530519843102,2.1342854499816895,5.329697239189901,-0.0006907611968927085,0.237394317984581,-1.5000184218036097,-0.0,-0.034826360642910004,1.3160244226455688,-0.0,0.01128558162599802,0.9505540132522583,0.00021459166600834578,-0.03701215237379074
93.0,159.0,-3.9254,0.8764,9.1238,-0.0438,0.0279,-0.1113,-2.392943044702047,0.0,5.251779556274414,-1.0529714822769165,0.012696233578026295,2.1115291118621826,5.329696702748098,-0.00048610600060783327,0.252616286277771,-1.5000341574298304,-0.0,-0.014117537066340446,1.3160321712493896,-0.0,-0.001150050200521946,0.9505982398986816,0.0006260301452130079,-0.03948478400707245
93.0,159.0,-3.9254,0.8764,9.1238,-0.0438,0.0279,-0.1113,-2.392943044702047,0.0,5.219415664672852,-1.0529357194900513,0.01268928311765194,2.170152187347412,5.329629230290212,-0.00035733007825911045,0.23441800475120544,-1.5000622908221644,-0.0,-0.02415982261300087,1.3160558938980103,-0.0,-0.01139933243393898,0.9505741596221924,0.0005000169039703906,-0.010722263716161251
93.0,159.0,-3.9254,0.8764,9.1238,-0.0438,0.0279,-0.1113,-2.3929668865599574,0.0,5.191558837890625,-1.0527595281600952,0.014761300757527351,2.182616949081421,5.329681145935812,-0.00026846618857234716,0.25068598985671997,-1.5000622908221644,-0.0,-0.020844224840402603,1.3160241842269897,-0.0,0.005120365880429745,0.9506020545959473,0.0004919490893371403,-0.03318057954311371
89.0,158.0,-4.2951,0.9966,8.9438,-0.0092,0.0739,-0.1243,-2.392919202844137,0.0,5.218405723571777,-1.0526435375213623,0.01780424639582634,2.185147285461426,5.329704749375143,-0.0002239241439383477,0.24988526105880737,-1.5000823179828089,-0.0,-0.0283503420650959,1.3160035610198975,-0.0,-0.005216802470386028,0.9506217241287231,0.00047356943832710385,-0.0578291192650795
89.0,158.0,-4.2951,0.9966,8.9438,-0.0092,0.0739,-0.1243,-2.392902990380758,0.0,5.238337993621826,-1.0524073839187622,0.02056817337870598,2.1989917755126953,5.329700755863943,-0.0001854642468970269,0.24619042873382568,-1.5000985304461878,-0.0,-0.021696295589208603,1.3160159587860107,-0.0,0.012861109338700771,0.9506179690361023,0.0008961196872405708,-0.017106076702475548
89.0,158.0,-4.2951,0.9966,8.9438,-0.0092,0.0739,-0.1243,-2.392943044702047,0.0,5.308101654052734,-1.0522313117980957,0.022952014580368996,2.170553684234619,5.329696762352743,-0.00016306023462675512,0.2492556869983673,-1.5000742117511194,-0.0,-0.01601797342300415,1.3160516023635864,-0.0,0.0028052690904587507,0.950666069984436,0.0009126164368353784,-0.01624523475766182
89.0,158.0,-4.2951,0.9966,8.9438,-0.0092,0.0739,-0.1243,-2.392958780328268,0.0,5.283037185668945,-1.052079439163208,0.025134701281785965,2.1638832092285156,5.329712617188253,-0.00014548619219567627,0.24908939003944397,-1.5000742117511194,-0.0,-0.00638823676854372,1.3160475492477417,-0.0,0.012073289602994919,0.9506818652153015,0.0006808557664044201,-0.032282765954732895
89.0,158.0,-4.2951,0.9966,8.9438,-0.0092,0.0739,-0.1243,-2.392931123773092,0.0,5.27065372467041,-1.0518076419830322,0.028302432969212532,2.1884148120880127,5.329708742886343,-0.00012821360724046826,0.2474871575832367,-1.5000785032855433,-0.0,-0.013730788603425026,1.316020131111145,-0.0,0.0037357190158218145,0.9506782293319702,0.0004628194437827915,-0.04805094003677368
89.0,158.0,-4.2951,0.9966,8.9438,-0.0092,0.0739,-0.1243,-2.392974992791647,0.0,5.24661922454834,-1.0515227317810059,0.0321086049079895,2.172217845916748,5.329677271633901,-0.00011709256796166301,0.23644544184207916,-1.5000699202166956,-0.0,-0.022993842139840126,1.315995693206787,-0.0,-0.005823058076202869,0.950718343257904,0.00036814779741689563,-0.046796493232250214
89.0,158.0,-4.2951,0.9966,8.9438,-0.0092,0.0739,-0.1243,-2.392931123773092,0.0,5.25477409362793,-1.0512068271636963,0.038448162376880646,2.235206127166748,5.329720723419943,-0.0001056389810401015,0.24120557308197021,-1.5000699202166956,-0.0,-0.019136888906359673,1.3160595893859863,-0.0,-0.0005469442694447935,0.9506258964538574,0.0002931858762167394,-0.004297373350709677
89.0,158.0,-4.2951,0.9966,8.9438,-0.0092,0.0739,-0.1243,-2.392946859399313,0.0,5.247072219848633,-1.05083429813385,0.041380301117897034,2.183627128601074,5.329673278122701,-9.797233360586688e-05,0.2363186627626419,-1.5000818411456507,-0.0,-0.012647569179534912,1.3160282373428345,-0.0,-0.00290298112668097,0.9506134390830994,0.00025211842148564756,0.02155367098748684
89.0,158.0,-4.2951,0.9966,8.9438,-0.0092,0.0739,-0.1243,-2.3929549656310023,1.2406452697177883e-05,5.272303581237793,-1.0503945350646973,0.04446058347821236,2.2010245323181152,5.329704749375143,-8.982390136225149e-05,0.24348270893096924,-1.5000303427325647,-0.0,-0.01655345968902111,1.3160755634307861,-0.0,0.0029468354769051075,0.9506176114082336,0.0002145532052963972,-0.023566313087940216
89.0,158.0,-4.2951,0.9966,8.9438,-0.0092,0.0739,-0.1243,-2.3929549656310023,1.1758121218008455e-05,5.236698150634766,-1.050061821937561,0.04553867131471634,2.2030792236328125,5.329696702748098,-8.422012615483254e-05,0.2432861030101776,-1.5000579992877405,-0.0,-0.020081225782632828,1.3160475492477417,-0.0,0.0031934198923408985,0.9506455063819885,0.00019170288578607142,-0.09274645149707794
89.0,154.0,-4.2329,1.0349,9.4588,-0.0139,0.0838,-0.1158,-2.3929549656310023,1.103715203498723e-05,5.239295959472656,-1.049606204032898,0.04629497230052948,2.211686134338379,5.329665112286367,-9.11450624698773e-05,0.24233785271644592,-1.5000622908221644,-0.0,-0.014888593927025795,1.3160755634307861,-0.0,0.0035112439654767513,0.9506299495697021,0.00016917992616072297,-0.009923780336976051
89.0,154.0,-4.2329,1.0349,9.4588,-0.0139,0.0838,-0.1158,-2.392906805078024,1.052107381838141e-05,5.25463342666626,-1.049198031425476,0.0454769991338253,2.2535600662231445,5.329645144730367,-9.686499834060669e-05,0.25618496537208557,-1.500094238911764,-0.0,-0.02412816509604454,1.3160717487335205,-0.0,-0.0045588938519358635,0.950685977935791,0.00010646770533639938,-0.027453605085611343
89.0,154.0,-4.2329,1.0349,9.4588,-0.0139,0.0838,-0.1158,-2.3929349384703578,1.9880126274074428e-05,5.272791385650635,-1.0487903356552124,0.043978966772556305,2.207746982574463,5.329641032009878,-0.0009327128063887358,0.24394261837005615,-1.5000622908221644,-0.0,-0.030289430171251297,1.3160161972045898,-0.0,0.0036775062326341867,0.9506700038909912,0.00013277240213938057,-0.013856638222932816
89.0,154.0,-4.2329,1.0349,9.4588,-0.0139,0.0838,-0.1158,-2.392946859399313,6.440909546163998e-13,5.206201553344727,-1.0483970642089844,0.04517253115773201,2.2252769470214844,5.329625177174368,-0.0016405089991167188,0.22706905007362366,-1.500037972127096,-0.0,-0.029826996847987175,1.3160321712493896,-0.0,0.010082283057272434,0.9506938457489014,0.0006920960731804371,-0.015189500525593758
89.0,154.0,-4.2329,1.0349,9.4588,-0.0139,0.0838,-0.1158,-2.392907281915182,2.7996716440326953e-22,5.236672878265381,-1.0479408502578735,0.050149668008089066,2.211289167404175,5.329597461014547,-0.001994263380765915,0.23589064180850983,-1.5000622908221644,-0.0,-0.013213406316936016,1.3160321712493896,-0.0,-0.008242068812251091,0.9507541060447693,0.005822245497256517,0.0235661119222641
89.0,154.0,-4.2329,1.0349,9.4588,-0.0139,0.0838,-0.1158,-2.3929230175414027,9.070581599419561e-30,5.220389366149902,-1.0475332736968994,0.058028899133205414,2.285783290863037,5.329557347088613,-0.0021760875824838877,0.2284601777791977,-1.5000622908221644,-0.0,-0.013933556154370308,1.3160595893859863,-0.0,0.00322754867374897,0.9507973790168762,0.009438619017601013,0.03159944340586662
89.0,154.0,-4.2329,1.0349,9.4588,-0.0139,0.0838,-0.1158,-2.392986913720602,3.942712977402806e-39,5.216753005981445,-1.0469175577163696,0.06946916878223419,2.277524948120117,5.329545545368948,-0.0022626344580203295,0.22382467985153198,-1.500094238911764,-0.0,-0.01534469984471798,1.316048502922058,-0.0,0.0004493986489251256,0.9508454203605652,0.0052522956393659115,0.052296318113803864
89.0,154.0,-4.2329,1.0349,9.4588,-0.0139,0.0838,-0.1158,-2.3929745159544886,0.0,5.242650032043457,-1.0463730096817017,0.07529318332672119,2.2345023155212402,5.3295296905334375,-0.0023647770285606384,0.21662241220474243,-1.50006610551943,-0.0,-0.02802998200058937,1.3160078525543213,-0.0,-0.0012902074959129095,0.9509134292602539,0.0025790694635361433,0.04554629698395729
89.0,154.0,-4.2329,1.0349,9.4588,-0.0139,0.0838,-0.1158,-2.3929745159544886,-0.000539076398126781,5.256467819213867,-1.0455048084259033,0.08459614217281342,2.306849479675293,5.329521822720327,-0.001485853805206716,0.2102275788784027,-1.5000823179828089,-0.0,-0.010782758705317974,1.3160321712493896,-0.0,-0.001496882876381278,0.9508894085884094,0.0014015872729942203,-0.02590162865817547
89.0,154.0,-4.2329,1.0349,9.4588,-0.0139,0.0838,-0.1158,-2.392998834649557,-0.0003678060893435031,5.228297710418701,-1.0448472499847412,0.08968602865934372,2.257314443588257,5.329517769604482,-0.0012011498911306262,0.22091612219810486,-1.5000866095172327,-0.0,-0.024952363222837448,1.3160244226455688,-0.0,0.009155296720564365,0.9509052634239197,0.0007622443954460323,-0.011979224160313606
85.0,152.0,-4.4925,0.4175,9.192,-0.0026,0.1387,-0.1016,-2.3929387531676234,-0.00020886730635538697,5.233766555786133,-1.0439105033874512,0.08788076788187027,2.243936061859131,5.3294697282607935,-0.0016045599477365613,0.20419511198997498,-1.500094238911764,-0.0,-0.006696953438222408,1.3160874843597412,-0.0,0.002976455958560109,0.9509134888648987,0.0004748453793581575,-0.018064144998788834
85.0,152.0,-4.4925,0.4175,9.192,-0.0026,0.1387,-0.1016,-2.392958780328268,4.035361416754313e-05,5.221702575683594,-1.0432114601135254,0.08764263987541199,2.270443916320801,5.329465853958883,-0.001579067436978221,0.21077117323875427,-1.5000622908221644,-0.0,-0.0025946348905563354,1.3160595893859863,-0.0,0.0021480948198586702,0.9509171843528748,0.0003648316487669945,-0.004331707954406738
85.0,152.0,-4.4925,0.4175,9.192,-0.0026,0.1387,-0.1016,-2.392931123773092,0.0001877246395451948,5.230573654174805,-1.042237401008606,0.09706760942935944,2.283670663833618,5.329401957779684,-0.001426159986294806,0.21235141158103943,-1.50006610551943,-0.0,-0.011705553159117699,1.3161036968231201,-0.0,-0.0015665001701563597,0.9509052634239197,0.00032483594259247184,-0.027341175824403763
85.0,152.0,-4.4925,0.4175,9.192,-0.0026,0.1387,-0.1016,-2.392946859399313,0.00019539617642294616,5.231027603149414,-1.041490077972412,0.10961680859327316,2.3367385864257812,5.329401898175039,-0.00338376103900373,0.20060357451438904,-1.50006610551943,-0.0,-0.006890659220516682,1.3160241842269897,-0.0,0.00909398589283228,0.9509655833244324,0.0002592958917375654,-0.03269036114215851
85.0,152.0,-4.4925,0.4175,9.192,-0.0026,0.1387,-0.1016,-2.39298739055776,1.1104680197604466e-07,5.208725929260254,-1.040320873260498,0.12742429971694946,2.317697286605835,5.329314517765798,-0.00718679977580905,0.19509217143058777,-1.5000503698932093,-0.0,-0.0006380912382155657,1.3160755634307861,-0.0,0.010652795433998108,0.9509655833244324,0.0005940041155554354,-0.02222396433353424
85.0,152.0,-4.4925,0.4175,9.192,-0.0026,0.1387,-0.1016,-2.3929950199522914,3.597774561045009e-15,5.260632514953613,-1.0393047332763672,0.12929077446460724,2.3341054916381836,5.329258727818289,-0.010694173164665699,0.19822293519973755,-1.5000503698932093,-0.0,-0.005991986487060785,1.3160314559936523,-0.0,0.011578526347875595,0.950957715511322,0.0005287204985506833,-0.04028693586587906
85.0,152.0,-4.4925,0.4175,9.192,-0.0026,0.1387,-0.1016,-2.393003126183981,-0.0009131541009992361,5.2176008224487305,-1.038051962852478,0.12399841845035553,2.3889636993408203,5.329187321453848,-0.00974203459918499,0.18856649100780487,-1.5000866095172327,-0.0,-0.00210333289578557,1.3160755634307861,-0.0,0.004131259396672249,0.950941264629364,0.0004813868727069348,-0.02677527815103531
85.0,152.0,-4.4925,0.4175,9.192,-0.0026,0.1387,-0.1016,-2.3929950199522914,-0.0005300025804899633,5.205119609832764,-1.0370858907699585,0.12338024377822876,2.3347864151000977,5.329107510834493,-0.005879607517272234,0.17716237902641296,-1.5000703970538538,-0.0,-0.009684012271463871,1.3160474300384521,-0.0,0.00131332129240036,0.9509975910186768,0.00041467894334346056,-0.03603505715727806
