ramyac6/ROB537/final_project/csv/all/good_129.csv
tof_0,tof_1,accelx,accely,accelz,gyrox,gyroy,gyroz,shoulder_lift_joint_position,shoulder_lift_joint_velocity,shoulder_lift_joint_effort,elbow_joint_position,elbow_joint_velocity,elbow_joint_effort,wrist_1_joint_position,wrist_1_joint_velocity,wrist_1_joint_effort,wrist_2_joint_position,wrist_2_joint_velocity,wrist_2_joint_effort,wrist_3_joint_position,wrist_3_joint_velocity,wrist_3_joint_effort,shoulder_pan_joint_position,shoulder_pan_joint_velocity,shoulder_pan_joint_effort
846.0,914.0,-1.0702,0.2949,9.5635,-0.0472,0.0228,-0.117,-1.8890024624266566,0.0,3.091723918914795,-1.9101914167404175,-0.0,1.7954169511795044,5.3852648613746545,-0.0,0.2701016068458557,-1.6039093176471155,-0.0,-0.01851392351090908,0.7149431109428406,0.0,0.002333346987143159,0.8153514266014099,0.0,0.00964708998799324
846.0,914.0,-1.0702,0.2949,9.5635,-0.0472,0.0228,-0.117,-1.8890229664244593,0.0,3.1332085132598877,-1.91017484664917,-0.0,1.760465383529663,5.385256933956899,-0.0,0.27721455693244934,-1.6039260069476526,-0.0,-0.0010134895564988256,0.7149431109428406,0.0,0.006757886148989201,0.8153594136238098,0.0,-0.00799277238547802
846.0,914.0,-1.0702,0.2949,9.5635,-0.0472,0.0228,-0.117,-1.8889943561949671,0.0,3.1047282218933105,-1.910206913948059,-0.0,1.7854540348052979,5.3852810738380334,-0.0,0.2595253586769104,-1.6039302984820765,-0.0,-0.004587553907185793,0.7149550318717957,0.0,0.008765462785959244,0.8153673410415649,0.0,0.012041106820106506
846.0,914.0,-1.0702,0.2949,9.5635,-0.0472,0.0228,-0.117,-1.8890510998167933,0.0,3.1102919578552246,-1.9101871252059937,-0.0,1.7581108808517456,5.3852810738380334,-0.0,0.2684798836708069,-1.6039302984820765,-0.0,-0.008242161944508553,0.7148743867874146,0.0,0.0005814400501549244,0.8153190016746521,0.0,-0.045396991074085236
846.0,914.0,-1.0702,0.2949,9.5635,-0.0472,0.0228,-0.117,-1.8890472851195277,0.0,3.1342952251434326,-1.9101914167404175,-0.0,1.792251467704773,5.385285007744589,-0.0,0.2655996084213257,-1.6039136091815394,-0.0,-0.022466741502285004,0.7149512767791748,0.0,0.001625178148970008,0.8153554201126099,0.0,0.0418582521378994
840.0,935.0,-1.0828,0.2674,9.4977,-0.038,0.0275,-0.1216,-1.8890429935851039,0.0,3.1094136238098145,-1.910231590270996,-0.0,1.8151297569274902,5.3852489469344995,-0.0,0.26886218786239624,-1.6039260069476526,-0.0,-0.002124848309904337,0.7149267792701721,0.0,0.0020774530712515116,0.8152869343757629,0.0,-0.0068847923539578915
840.0,935.0,-1.0828,0.2674,9.4977,-0.038,0.0275,-0.1216,-1.8890510998167933,0.0,3.116391181945801,-1.9101788997650146,-0.0,1.737526535987854,5.385249006539144,-0.0,0.26406916975975037,-1.6038935820208948,-0.0,-0.0063307881355285645,0.7149472236633301,0.0,0.0036686270032078028,0.8153351545333862,0.0,0.008945407345890999
840.0,935.0,-1.0828,0.2674,9.4977,-0.038,0.0275,-0.1216,-1.8890310726561488,0.0,3.1309266090393066,-1.9101954698562622,-0.0,1.7542842626571655,5.385260987072744,-0.0,0.26608848571777344,-1.6039665381061,-0.0,-0.006881303619593382,0.7149186134338379,0.0,0.003858222160488367,0.8153149485588074,0.0,-0.004737962502986193
840.0,935.0,-1.0828,0.2674,9.4977,-0.038,0.0275,-0.1216,-1.8890353641905726,0.0,3.0906693935394287,-1.9102193117141724,-0.0,1.7997238636016846,5.385268914490499,-0.0,0.259983628988266,-1.6038973967181605,-0.0,-0.0014312532730400562,0.7149350643157959,0.0,0.0022030514664947987,0.815326988697052,0.0,-0.026598624885082245
840.0,935.0,-1.0828,0.2674,9.4977,-0.038,0.0275,-0.1216,-1.8890024624266566,0.0,3.114198684692383,-1.910150170326233,-0.0,1.7877588272094727,5.3852409599121,-0.0,0.2727828919887543,-1.6039374510394495,-0.0,0.00017955037765204906,0.7149792313575745,0.0,-0.002943198662251234,0.8153071403503418,0.0,-0.0018158282618969679
840.0,935.0,-1.0828,0.2674,9.4977,-0.038,0.0275,-0.1216,-1.888986726800436,0.0,3.13291597366333,-1.9101872444152832,-0.0,1.78696608543396,5.385212945729055,-0.0,0.26717880368232727,-1.6039093176471155,-0.0,-0.00876893661916256,0.7149067521095276,0.0,0.0029516175854951143,0.8153594732284546,0.0,0.04153028503060341
840.0,935.0,-1.0828,0.2674,9.4977,-0.038,0.0275,-0.1216,-1.889010568658346,0.0,3.144120454788208,-1.91017484664917,-0.0,1.7912392616271973,5.38527678230361,-0.0,0.2778867483139038,-1.6039093176471155,-0.0,-0.01442304253578186,0.7149308919906616,0.0,0.003995552659034729,0.8153714537620544,0.0,-0.010915419086813927
840.0,935.0,-1.0828,0.2674,9.4977,-0.038,0.0275,-0.1216,-1.8890429935851039,0.0,3.1364002227783203,-1.9102150201797485,-0.0,1.7778527736663818,5.385229098587789,-0.0,0.2848512530326843,-1.603962246571676,-0.0,-0.006987900007516146,0.7149672508239746,0.0,0.008539690636098385,0.8153432607650757,0.0,0.003038079710677266
840.0,935.0,-1.0828,0.2674,9.4977,-0.038,0.0275,-0.1216,-1.8890353641905726,0.0,3.1262001991271973,-1.9102109670639038,-0.0,1.752290964126587,5.385260867863455,-0.0,0.27637606859207153,-1.603901211415426,-0.0,0.0020729335956275463,0.714999258518219,0.0,-0.004886999726295471,0.8153432607650757,0.0,-0.00357144046574831
840.0,935.0,-1.0828,0.2674,9.4977,-0.038,0.0275,-0.1216,-1.8889781437315882,0.0,3.0955305099487305,-1.910166621208191,-0.0,1.7552287578582764,5.3852449534233,-0.0,0.27883002161979675,-1.6039302984820765,-0.0,0.00040008651558309793,0.7149227261543274,0.0,-0.0016029904363676906,0.815258800983429,0.0,0.003806476481258869
830.0,926.0,-1.0475,0.2967,9.6443,-0.04,0.0302,-0.121,-1.8890186748900355,0.0,3.1161105632781982,-1.910150170326233,-0.0,1.7504702806472778,5.385277020722189,-0.0,0.27115631103515625,-1.603901211415426,-0.0,-0.013113662600517273,0.7149832844734192,0.0,0.004327141214162111,0.815339207649231,0.0,-0.009240364655852318
830.0,926.0,-1.0475,0.2967,9.6443,-0.04,0.0302,-0.121,-1.889054914514059,0.0,3.124455451965332,-1.9101542234420776,-0.0,1.7669514417648315,5.385285007744589,-0.0,0.28285008668899536,-1.6038854757892054,-0.0,0.0030765135306864977,0.7149508595466614,0.0,0.008207479491829872,0.8153310418128967,0.0,-0.0030958433635532856
830.0,926.0,-1.0475,0.2967,9.6443,-0.04,0.0302,-0.121,-1.8890186748900355,0.0,3.0805182456970215,-1.9101542234420776,-0.0,1.822769045829773,5.3852529404456995,-0.0,0.26723048090934753,-1.603962246571676,-0.0,2.2771051590098068e-05,0.7149591445922852,0.0,0.00416696397587657,0.8153190016746521,0.0,0.014008203521370888
830.0,926.0,-1.0475,0.2967,9.6443,-0.04,0.0302,-0.121,-1.8890229664244593,0.0,3.132941246032715,-1.9101914167404175,-0.0,1.756766676902771,5.385256933956899,-0.0,0.2822760343551636,-1.6039302984820765,-0.0,-0.007870705798268318,0.7149673104286194,0.0,-0.009906735271215439,0.8153393268585205,0.0,0.029588129371404648
830.0,926.0,-1.0475,0.2967,9.6443,-0.04,0.0302,-0.121,-1.8890472851195277,0.0,3.1035208702087402,-1.91017484664917,-0.0,1.8108139038085938,5.3852648613746545,-0.0,0.26788145303726196,-1.6039093176471155,-0.0,-0.012963971123099327,0.7149391174316406,0.0,-0.002362939529120922,0.8153231143951416,0.0,-0.030015351250767708
830.0,926.0,-1.0475,0.2967,9.6443,-0.04,0.0302,-0.121,-1.8890472851195277,0.0,3.115603446960449,-1.9101624488830566,-0.0,1.7999367713928223,5.385277020722189,-0.0,0.2643365263938904,-1.6039136091815394,-0.0,-0.004955073818564415,0.7149832844734192,0.0,0.005965627264231443,0.8153071403503418,0.0,0.00496989581733942
830.0,926.0,-1.0475,0.2967,9.6443,-0.04,0.0302,-0.121,-1.8890553913512171,0.0,3.0951762199401855,-1.9101831912994385,-0.0,1.801416277885437,5.385288941651144,-0.0,0.27460312843322754,-1.6039016882525843,-0.0,-0.0048878672532737255,0.714975118637085,0.0,-0.01458336878567934,0.8153512477874756,0.0,-0.022005105391144753
830.0,926.0,-1.0475,0.2967,9.6443,-0.04,0.0302,-0.121,-1.8890024624266566,0.0,3.1380715370178223,-1.9101272821426392,-0.0,1.7763960361480713,5.385292875557699,-0.0,0.2602243423461914,-1.6039302984820765,-0.0,0.00022894120775163174,0.714975118637085,0.0,0.0019107023254036903,0.8153512477874756,0.0,-0.009260096587240696
830.0,926.0,-1.0475,0.2967,9.6443,-0.04,0.0302,-0.121,-1.8890186748900355,0.0,3.126176357269287,-1.9101864099502563,-0.0,1.7711036205291748,5.385225105076589,-0.0,0.2731778919696808,-1.603934113179342,-0.0,0.0007061042706482112,0.7148866653442383,0.0,0.004490368999540806,0.8153634071350098,0.0,-0.009787243790924549
803.0,931.0,-1.1336,0.2429,9.5964,-0.0313,0.0202,-0.1176,-1.8890229664244593,0.0,3.1069259643554688,-1.910166621208191,-0.0,1.7891523838043213,5.3852969882781885,-0.0,0.2753336429595947,-1.6039217154132288,-0.0,0.00032111204927787185,0.7149828672409058,0.0,0.005181503482162952,0.8153310418128967,0.0,0.0016720741987228394
803.0,931.0,-1.1336,0.2429,9.5964,-0.0313,0.0202,-0.1176,-1.8889943561949671,0.0,3.123419761657715,-1.9102028608322144,-0.0,1.751643419265747,5.3852529404456995,-0.0,0.27208325266838074,-1.6039541403399866,-0.0,-0.019084786996245384,0.7149191498756409,0.0,-0.008183710277080536,0.8153108954429626,0.0,0.0024084560573101044
803.0,931.0,-1.1336,0.2429,9.5964,-0.0313,0.0202,-0.1176,-1.8890143833556117,0.0,3.1258883476257324,-1.9102070331573486,-0.0,1.7540788650512695,5.3852648613746545,-0.0,0.2710389792919159,-1.603889290486471,-0.0,-0.0029000628273934126,0.7149022817611694,0.0,0.012294985353946686,0.815318763256073,0.0,0.004142943769693375
803.0,931.0,-1.1336,0.2429,9.5964,-0.0313,0.0202,-0.1176,-1.8890143833556117,0.0,3.0776968002319336,-1.910166621208191,-0.0,1.7701096534729004,5.385300862580099,-0.0,0.2770262360572815,-1.6039136091815394,-0.0,-0.0009253309108316898,0.7149631977081299,0.0,0.003133710939437151,0.8153351545333862,0.0,-0.005449557211250067
803.0,931.0,-1.1336,0.2429,9.5964,-0.0313,0.0202,-0.1176,-1.8890143833556117,0.0,3.1187825202941895,-1.9101706743240356,-0.0,1.7919771671295166,5.3852529404456995,-0.0,0.27097243070602417,-1.603945557271139,-0.0,-0.0074997954070568085,0.7149432897567749,0.0,-0.015238694846630096,0.8153873682022095,0.0,-0.005358859430998564
803.0,931.0,-1.1336,0.2429,9.5964,-0.0313,0.0202,-0.1176,-1.8890310726561488,0.0,3.1081905364990234,-1.910226583480835,-0.0,1.8064496517181396,5.385237026005544,-0.0,0.26148703694343567,-1.6038935820208948,-0.0,-0.00787243340164423,0.7149108648300171,0.0,0.005148002877831459,0.8153995275497437,0.0,0.03938337042927742
803.0,931.0,-1.1336,0.2429,9.5964,-0.0313,0.0202,-0.1176,-1.8889943561949671,0.0,3.1116139888763428,-1.9102109670639038,-0.0,1.7835540771484375,5.3852529404456995,-0.0,0.26787129044532776,-1.6038816610919397,-0.0,-0.015084046870470047,0.7149186134338379,0.0,-0.00901362020522356,0.8153068423271179,0.0,-0.011231454089283943
803.0,931.0,-1.1336,0.2429,9.5964,-0.0313,0.0202,-0.1176,-1.8890472851195277,0.0,3.1402392387390137,-1.910166621208191,-0.0,1.7672889232635498,5.38526879528121,-0.0,0.28427746891975403,-1.603945557271139,-0.0,-0.01094626821577549,0.714991569519043,0.0,-0.0025973208248615265,0.8153271675109863,0.0,0.04915589466691017
803.0,931.0,-1.1336,0.2429,9.5964,-0.0313,0.0202,-0.1176,-1.8890472851195277,0.0,3.1167140007019043,-1.910215139389038,-0.0,1.7370917797088623,5.3852489469344995,-0.0,0.27071768045425415,-1.6038935820208948,-0.0,-0.01571340672671795,0.7149472236633301,0.0,-0.008206261321902275,0.8153833150863647,0.0,-0.008767466060817242
867.0,909.0,-1.0397,0.2877,9.5372,-0.0373,0.0286,-0.1216,-1.8890630207457484,0.0,3.1250243186950684,-1.910146951675415,-0.0,1.742124080657959,5.3852648613746545,-0.0,0.2828775644302368,-1.6039498488055628,-0.0,-0.002437029965221882,0.7149792313575745,0.0,0.001569799380376935,0.8153231143951416,0.0,-0.027682457119226456
867.0,909.0,-1.0397,0.2877,9.5372,-0.0373,0.0286,-0.1216,-1.8890630207457484,0.0,3.1333866119384766,-1.9101313352584839,-0.0,1.7253055572509766,5.385289001255789,-0.0,0.2706782817840576,-1.603945557271139,-0.0,-0.011132700368762016,0.7149512767791748,0.0,0.00717245414853096,0.8153231143951416,0.0,0.03518714755773544
867.0,909.0,-1.0397,0.2877,9.5372,-0.0373,0.0286,-0.1216,-1.8889943561949671,0.0,3.1281633377075195,-1.9101510047912598,-0.0,1.785559058189392,5.385237026005544,-0.0,0.26569026708602905,-1.6038816610919397,-0.0,-0.0023175175301730633,0.7149791717529297,0.0,-0.001240120967850089,0.8153152465820312,0.0,0.04594120383262634
867.0,909.0,-1.0397,0.2877,9.5372,-0.0373,0.0286,-0.1216,-1.8890353641905726,0.0,3.124187469482422,-1.9101914167404175,-0.0,1.7557874917984009,5.3852810738380334,-0.0,0.28152692317962646,-1.6039260069476526,-0.0,-0.0072739203460514545,0.7149145603179932,0.0,-0.0033225114457309246,0.8153152465820312,0.0,-0.0013909721747040749
867.0,909.0,-1.0397,0.2877,9.5372,-0.0373,0.0286,-0.1216,-1.8890353641905726,0.0,3.115673065185547,-1.910206913948059,-0.0,1.7250691652297974,5.385241079121389,-0.0,0.27102988958358765,-1.6039093176471155,-0.0,-0.0022396473214030266,0.7149512767791748,0.0,0.00782808754593134,0.815339207649231,0.0,0.023328304290771484
867.0,909.0,-1.0397,0.2877,9.5372,-0.0373,0.0286,-0.1216,-1.8890429935851039,0.0,3.124344825744629,-1.910206913948059,-0.0,1.7974724769592285,5.3852648613746545,-0.0,0.27398982644081116,-1.6039498488055628,-0.0,-0.009269151836633682,0.7149714231491089,0.0,0.00042280147317796946,0.8153351545333862,0.0,0.0043715680949389935
867.0,909.0,-1.0397,0.2877,9.5372,-0.0373,0.0286,-0.1216,-1.889026781121725,0.0,3.170584201812744,-1.9102234840393066,-0.0,1.7453193664550781,5.3852810738380334,-0.0,0.26523035764694214,-1.6039217154132288,-0.0,-0.006536977831274271,0.7148824334144592,0.0,-0.009067179635167122,0.8153714537620544,0.0,-0.006028493866324425
867.0,909.0,-1.0397,0.2877,9.5372,-0.0373,0.0286,-0.1216,-1.889026781121725,0.0,3.156848430633545,-1.91017484664917,-0.0,1.7459293603897095,5.3852208135421655,-0.0,0.2685354948043823,-1.603934113179342,-0.0,-0.007051669526845217,0.7149672508239746,0.0,-0.010031177662312984,0.815339207649231,0.0,-0.020244551822543144
867.0,909.0,-1.0397,0.2877,9.5372,-0.0373,0.0286,-0.1216,-1.8890472851195277,0.0,3.1206445693969727,-1.9102225303649902,-0.0,1.8295578956604004,5.3852489469344995,-0.0,0.28666380047798157,-1.6039179007159632,-0.0,-0.01172593329101801,0.7149554491043091,0.0,0.0012849229387938976,0.8153513669967651,0.0,0.017044194042682648
867.0,909.0,-1.0397,0.2877,9.5372,-0.0373,0.0286,-0.1216,-1.8890310726561488,0.0,3.107621669769287,-1.910206913948059,-0.0,1.7557380199432373,5.3852810738380334,-0.0,0.26625746488571167,-1.6038897673236292,-0.0,-0.0004396612639538944,0.7149874567985535,0.0,-0.010079116560518742,0.8153030872344971,0.0,0.013568186201155186
844.0,925.0,-1.0522,0.2841,9.6251,-0.0399,0.0249,-0.1222,-1.8889862499632777,0.0,3.1962785720825195,-1.9101427793502808,-0.0,1.7630407810211182,5.3852648613746545,-0.0,0.2749329209327698,-1.6038973967181605,-0.0,-0.011515181511640549,0.7149186134338379,0.0,0.003823161358013749,0.8153231143951416,0.0,0.030410926789045334
844.0,925.0,-1.0522,0.2841,9.6251,-0.0399,0.0249,-0.1222,-1.8890391788878382,0.0,3.0714592933654785,-1.9102234840393066,-0.0,1.7777438163757324,5.385304856091299,-0.0,0.2778652310371399,-1.6039217154132288,-0.0,-0.0002283034846186638,0.7149550318717957,0.0,0.00027009262703359127,0.815339207649231,0.0,-0.0031312983483076096
844.0,925.0,-1.0522,0.2841,9.6251,-0.0399,0.0249,-0.1222,-1.8890353641905726,0.0,3.1394612789154053,-1.9101706743240356,-0.0,1.758354663848877,5.385256933956899,-0.0,0.26825442910194397,-1.6039374510394495,-0.0,-0.015285717323422432,0.7149146199226379,0.0,-0.0017216033302247524,0.8153553009033203,0.0,0.037243448197841644
844.0,925.0,-1.0522,0.2841,9.6251,-0.0399,0.0249,-0.1222,-1.8890186748900355,0.0,3.1801939010620117,-1.9101582765579224,-0.0,1.789924144744873,5.3852290389831445,-0.0,0.26563549041748047,-1.6039093176471155,-0.0,-0.00949249416589737,0.7149952054023743,0.0,0.0012661735527217388,0.8153032064437866,0.0,-0.01380562037229538
844.0,925.0,-1.0522,0.2841,9.6251,-0.0399,0.0249,-0.1222,-1.8890143833556117,0.0,3.1315245628356934,-1.9101914167404175,-0.0,1.7130920886993408,5.385289001255789,-0.0,0.2681182026863098,-1.6039302984820765,-0.0,-0.015274284407496452,0.7149956822395325,0.0,0.0005502501735463738,0.8153512477874756,0.0,-0.040334831923246384
844.0,925.0,-1.0522,0.2841,9.6251,-0.0399,0.0249,-0.1222,-1.8890229664244593,0.0,3.082549571990967,-1.9101905822753906,-0.0,1.7727885246276855,5.385277020722189,-0.0,0.273254930973053,-1.6039093176471155,-0.0,-0.00751855643466115,0.7149873971939087,0.0,0.0028154277242720127,0.8153351545333862,0.0,0.010386431589722633
844.0,925.0,-1.0522,0.2841,9.6251,-0.0399,0.0249,-0.1222,-1.8889943561949671,0.0,3.1326682567596436,-1.9101428985595703,-0.0,1.7407606840133667,5.3852810738380334,-0.0,0.2674102783203125,-1.603962246571676,-0.0,0.0015453711384907365,0.7149228453636169,0.0,0.0015745168784633279,0.8153271675109863,0.0,0.036070507019758224
844.0,925.0,-1.0522,0.2841,9.6251,-0.0399,0.0249,-0.1222,-1.8890429935851039,0.0,3.1164870262145996,-1.9101914167404175,-0.0,1.8221137523651123,5.385237026005544,-0.0,0.26796090602874756,-1.6039016882525843,-0.0,-0.012631453573703766,0.7149673104286194,0.0,0.004374662414193153,0.8153632879257202,0.0,-0.006277573760598898
844.0,925.0,-1.0522,0.2841,9.6251,-0.0399,0.0249,-0.1222,-1.8890429935851039,0.0,3.165989398956299,-1.9101872444152832,-0.0,1.7828669548034668,5.3852529404456995,-0.0,0.25909507274627686,-1.6038854757892054,-0.0,-0.011802096851170063,0.7149554491043091,0.0,-0.013484563678503036,0.8153512477874756,0.0,0.0014513563364744186
840.0,910.0,-1.0349,0.2584,9.5563,-0.0312,0.02,-0.119,-1.889026781121725,0.0,3.1350231170654297,-1.9101905822753906,-0.0,1.7835302352905273,5.3852810738380334,-0.0,0.2703775465488434,-1.6039417425738733,-0.0,-0.011962109245359898,0.7149791717529297,0.0,0.0025837020948529243,0.8153795003890991,0.0,-0.03398584946990013
840.0,910.0,-1.0349,0.2584,9.5563,-0.0312,0.02,-0.119,-1.8890592060484828,0.0,3.095460891723633,-1.910223364830017,-0.0,1.8204622268676758,5.3852290389831445,-0.0,0.2804942727088928,-1.6039136091815394,-0.0,0.001251337816938758,0.7149227857589722,0.0,0.01028433907777071,0.8152750134468079,0.0,0.0024306161794811487
840.0,910.0,-1.0349,0.2584,9.5563,-0.0312,0.02,-0.119,-1.8890429935851039,0.0,3.095907688140869,-1.9102473258972168,-0.0,1.7939691543579102,5.3852810738380334,-0.0,0.2716006934642792,-1.6039093176471155,-0.0,-0.004814801272004843,0.7149349451065063,0.0,0.0074818311259150505,0.8154075741767883,0.0,0.0064827678725123405
840.0,910.0,-1.0349,0.2584,9.5563,-0.0312,0.02,-0.119,-1.8890143833556117,0.0,3.1297693252563477,-1.91019868850708,-0.0,1.7818100452423096,5.385308730393209,-0.0,0.28736454248428345,-1.60390550294985,-0.0,-0.008175959810614586,0.7149554491043091,0.0,0.011400554329156876,0.8153351545333862,0.0,0.014101922512054443
840.0,910.0,-1.0349,0.2584,9.5563,-0.0312,0.02,-0.119,-1.8890310726561488,0.0,3.145435333251953,-1.9101831912994385,-0.0,1.7772754430770874,5.3852688548858545,-0.0,0.2716071903705597,-1.6039746443377894,-0.0,-0.001301994314417243,0.7149755954742432,0.0,-0.01148497685790062,0.8153673410415649,0.0,-0.044269051402807236
840.0,910.0,-1.0349,0.2584,9.5563,-0.0312,0.02,-0.119,-1.8890353641905726,0.0,3.170924663543701,-1.9101706743240356,-0.0,1.7985084056854248,5.385292875557699,-0.0,0.28570735454559326,-1.603938404713766,-0.0,-0.0034114508889615536,0.7149267792701721,0.0,0.0025398661382496357,0.8153231143951416,0.0,0.028927933424711227
840.0,910.0,-1.0349,0.2584,9.5563,-0.0312,0.02,-0.119,-1.889010568658346,0.0,3.124556541442871,-1.910223364830017,-0.0,1.7710342407226562,5.3852289793785,-0.0,0.2773098051548004,-1.6039260069476526,-0.0,-0.0006514847045764327,0.7149026393890381,0.0,-0.015704423189163208,0.8153271675109863,0.0,0.013658138923346996
840.0,910.0,-1.0349,0.2584,9.5563,-0.0312,0.02,-0.119,-1.889026781121725,0.0,3.142587184906006,-1.9101377725601196,-0.0,1.817575454711914,5.385293054371633,-0.0,0.27465659379959106,-1.6039579550372522,-0.0,-0.009485390968620777,0.7149109840393066,0.0,-0.007700870744884014,0.8153071999549866,0.0,0.0111998300999403
840.0,910.0,-1.0349,0.2584,9.5563,-0.0312,0.02,-0.119,-1.8889943561949671,0.0,3.14412784576416,-1.9102274179458618,-0.0,1.7948224544525146,5.385252880841055,-0.0,0.28186705708503723,-1.6039093176471155,-0.0,-0.009168978780508041,0.7149308919906616,0.0,0.012869905680418015,0.815339207649231,0.0,-0.00018015201203525066
837.0,913.0,-1.066,0.2901,9.5862,-0.0331,0.0263,-0.113,-1.8890510998167933,0.0,3.140559673309326,-1.9101542234420776,-0.0,1.7933610677719116,5.3852529404456995,-0.0,0.2748187780380249,-1.6039498488055628,-0.0,-0.0018893162487074733,0.715003490447998,0.0,-0.0014839963987469673,0.8153271675109863,0.0,0.023829907178878784
837.0,913.0,-1.066,0.2901,9.5862,-0.0331,0.0263,-0.113,-1.8890429935851039,0.0,3.084846019744873,-1.910191297531128,-0.0,1.7562460899353027,5.385244893818655,-0.0,0.28579768538475037,-1.603934113179342,-0.0,-0.004299729131162167,0.7149791717529297,0.0,-0.003890018677338958,0.815359354019165,0.0,-0.008873073384165764
837.0,913.0,-1.066,0.2901,9.5862,-0.0331,0.0263,-0.113,-1.888982435266012,0.0,3.155749797821045,-1.9101428985595703,-0.0,1.7752163410186768,5.3852688548858545,-0.0,0.26564109325408936,-1.603938404713766,-0.0,-0.012041706591844559,0.7149554491043091,0.0,0.007886441424489021,0.8153553605079651,0.0,-0.04989989101886749
837.0,913.0,-1.066,0.2901,9.5862,-0.0331,0.0263,-0.113,-1.8890310726561488,0.0,3.117307662963867,-1.910166621208191,-0.0,1.7844018936157227,5.3852529404456995,-0.0,0.2723497450351715,-1.6038935820208948,-0.0,0.0023280689492821693,0.7149677276611328,0.0,-0.008599799126386642,0.8153432607650757,0.0,-0.005500796250998974
837.0,913.0,-1.066,0.2901,9.5862,-0.0331,0.0263,-0.113,-1.8890310726561488,0.0,3.137704849243164,-1.9101542234420776,-0.0,1.7873609066009521,5.3852648613746545,-0.0,0.2667231559753418,-1.603945557271139,-0.0,-0.0035853059962391853,0.7149391174316406,0.0,0.0001113644102588296,0.8153190612792969,0.0,0.051222071051597595
837.0,913.0,-1.066,0.2901,9.5862,-0.0331,0.0263,-0.113,-1.889010568658346,0.0,3.1304593086242676,-1.9102027416229248,-0.0,1.7484536170959473,5.385229098587789,-0.0,0.27094051241874695,-1.603873078023092,-0.0,-0.01922372728586197,0.714975118637085,0.0,0.008005764335393906,0.8153754472732544,0.0,-0.01822671666741371
837.0,913.0,-1.066,0.2901,9.5862,-0.0331,0.0263,-0.113,-1.889010568658346,0.0,3.133024215698242,-1.9101831912994385,-0.0,1.7584893703460693,5.385277020722189,-0.0,0.2803387939929962,-1.603889290486471,-0.0,0.0023463182151317596,0.7149145603179932,0.0,-0.0018844548612833023,0.8152910470962524,0.0,0.03541925549507141
837.0,913.0,-1.066,0.2901,9.5862,-0.0331,0.0263,-0.113,-1.8889905414977015,0.0,3.1124467849731445,-1.9102470874786377,-0.0,1.7762426137924194,5.385277020722189,-0.0,0.26608145236968994,-1.6039179007159632,-0.0,-0.018633153289556503,0.7149431109428406,0.0,0.009280938655138016,0.815339207649231,0.0,-0.029453786090016365
837.0,913.0,-1.066,0.2901,9.5862,-0.0331,0.0263,-0.113,-1.8890019855894984,0.0,3.127103328704834,-1.9101345539093018,-0.0,1.7762569189071655,5.385260867863455,-0.0,0.2769660949707031,-1.6039498488055628,-0.0,-0.0062146675772964954,0.7148866653442383,0.0,0.010944558307528496,0.8153351545333862,0.0,0.004650102462619543
837.0,913.0,-1.066,0.2901,9.5862,-0.0331,0.0263,-0.113,-1.8890110454955042,0.0,3.1104941368103027,-1.9102027416229248,-0.0,1.7207661867141724,5.385300922184744,-0.0,0.2771415710449219,-1.6039260069476526,-0.0,-0.0026883187238126993,0.714975118637085,0.0,0.010598587803542614,0.8153311014175415,0.0,0.012884937226772308
848.0,912.0,-1.0385,-0.2231,9.5198,-0.0421,0.0238,-0.1151,-1.8890024624266566,0.0,3.1550564765930176,-1.9101791381835938,-0.0,1.7956032752990723,5.385308968811788,-0.0,0.27553948760032654,-1.6039217154132288,-0.0,-0.009572871960699558,0.7149554491043091,0.0,0.0026895387563854456,0.8153190612792969,0.0,-0.024186549708247185
848.0,912.0,-1.0385,-0.2231,9.5198,-0.0421,0.0238,-0.1151,-1.88903870205068,0.0,3.0879993438720703,-1.910234808921814,-0.0,1.7448937892913818,5.385245072632589,-0.0,0.2779539227485657,-1.60390550294985,-0.0,-0.0005059341783635318,0.7149227857589722,0.0,0.008080876432359219,0.8153513669967651,0.0,0.016126364469528198
848.0,912.0,-1.0385,-0.2231,9.5198,-0.0421,0.0238,-0.1151,-1.8890472851195277,0.0,3.1002330780029297,-1.910206913948059,-0.0,1.767817497253418,5.385252880841055,-0.0,0.27280718088150024,-1.6039093176471155,-0.0,-0.0055612362921237946,0.71498703956604,0.0,-0.009629021398723125,0.8153190612792969,0.0,0.015201756730675697
848.0,912.0,-1.0385,-0.2231,9.5198,-0.0421,0.0238,-0.1151,-1.889026781121725,0.0,3.108407974243164,-1.910166621208191,-0.0,1.7918806076049805,5.3852529404456995,-0.0,0.2808530926704407,-1.6039417425738733,-0.0,-0.005810072645545006,0.7149227857589722,0.0,-0.002145799109712243,0.8153030872344971,0.0,-0.02977577969431877
848.0,912.0,-1.0385,-0.2231,9.5198,-0.0421,0.0238,-0.1151,-1.8890673122801722,0.0,3.132160186767578,-1.9101706743240356,-0.0,1.7743563652038574,5.3852289793785,-0.0,0.2835859954357147,-1.6038935820208948,-0.0,-0.0006151597481220961,0.7148862481117249,0.0,0.0028905044309794903,0.8153471946716309,0.0,0.036640312522649765
848.0,912.0,-1.0385,-0.2231,9.5198,-0.0421,0.0238,-0.1151,-1.8890353641905726,0.0,3.1149027347564697,-1.910223364830017,-0.0,1.7741544246673584,5.385249006539144,-0.0,0.2604268491268158,-1.6039260069476526,-0.0,0.0055312830954790115,0.7149310111999512,0.0,0.001343191135674715,0.815339207649231,0.0,-0.033979132771492004
848.0,912.0,-1.0385,-0.2231,9.5198,-0.0421,0.0238,-0.1151,-1.8890110454955042,0.0,3.1164002418518066,-1.91017484664917,-0.0,1.7759124040603638,5.38527278879241,-0.0,0.28918740153312683,-1.6039746443377894,-0.0,-0.01733657717704773,0.7149874567985535,0.0,-0.00028655468486249447,0.815359354019165,0.0,-0.023107044398784637
848.0,912.0,-1.0385,-0.2231,9.5198,-0.0421,0.0238,-0.1151,-1.889026781121725,0.0,3.108323812484741,-1.9101428985595703,-0.0,1.7844951152801514,5.385253000050344,-0.0,0.2765224874019623,-1.6039260069476526,-0.0,-0.0031927702948451042,0.714991569519043,0.0,0.004155712202191353,0.8153713941574097,0.0,0.025352079421281815
848.0,912.0,-1.0385,-0.2231,9.5198,-0.0421,0.0238,-0.1151,-1.8890353641905726,0.0,3.137044906616211,-1.91017484664917,-0.0,1.7660903930664062,5.3852529404456995,-0.0,0.2726360857486725,-1.603901211415426,-0.0,-0.0005849601584486663,0.7149431109428406,0.0,0.012320596724748611,0.8153471946716309,0.0,-0.04371695965528488
836.0,917.0,-1.145,0.6658,9.4768,-0.0249,0.0246,-0.1257,-1.8890472851195277,0.0,3.094712018966675,-1.9101625680923462,-0.0,1.7567994594573975,5.385269033699789,-0.0,0.2822178602218628,-1.6039302984820765,-0.0,-0.015849709510803223,0.7149873971939087,0.0,-0.0009959994349628687,0.8153634071350098,0.0,-0.004410815425217152
836.0,917.0,-1.145,0.6658,9.4768,-0.0249,0.0246,-0.1257,-1.8890143833556117,0.0,3.1129350662231445,-1.9101346731185913,-0.0,1.7680200338363647,5.385292935162344,-0.0,0.2676621675491333,-1.6039217154132288,-0.0,-0.004331373609602451,0.7149186134338379,0.0,0.011857781559228897,0.8153150081634521,0.0,0.0163533054292202
836.0,917.0,-1.145,0.6658,9.4768,-0.0249,0.0246,-0.1257,-1.8890024624266566,0.0,3.132749080657959,-1.9101914167404175,-0.0,1.7515064477920532,5.3852688548858545,-0.0,0.2647297978401184,-1.603945557271139,-0.0,-0.003968796692788601,0.7148866653442383,0.0,0.0008158527198247612,0.8153311014175415,0.0,0.015454126521945
836.0,917.0,-1.145,0.6658,9.4768,-0.0249,0.0246,-0.1257,-1.8889461956419886,0.0,3.1334662437438965,-1.910243034362793,-0.0,1.7971233129501343,5.385308789997854,-0.0,0.2731062173843384,-1.6039374510394495,-0.0,-0.007413486018776894,0.7149351239204407,0.0,-0.0018243006197735667,0.8153471946716309,0.0,-0.029903296381235123
836.0,917.0,-1.145,0.6658,9.4768,-0.0249,0.0246,-0.1257,-1.8890229664244593,0.0,3.114013433456421,-1.91017484664917,-0.0,1.7497460842132568,5.385273027210989,-0.0,0.27985575795173645,-1.603945557271139,-0.0,-0.0010385107016190886,0.7149472236633301,0.0,0.005914623849093914,0.8154112696647644,0.0003303838020656258,-0.057317424565553665
836.0,917.0,-1.145,0.6658,9.4768,-0.0249,0.0246,-0.1257,-1.8889624081053675,0.0,3.0699493885040283,-1.91017484664917,-0.0,1.78726065158844,5.385252880841055,-0.0,0.26823166012763977,-1.6040223280536097,-0.0,0.0023503778502345085,0.7149672508239746,0.0,-0.002397726057097316,0.8153913021087646,0.0007241481798700988,-0.0008479026146233082
836.0,917.0,-1.145,0.6658,9.4768,-0.0249,0.0246,-0.1257,-1.8889905414977015,0.0,3.138551950454712,-1.910215139389038,-0.0,1.7747454643249512,5.385316777020254,-0.0,0.2711561322212219,-1.6039741675006312,-0.0,-0.00918413233011961,0.714999258518219,0.0,-0.007773383054882288,0.8154433369636536,0.0008842381648719311,0.0027791578322649
836.0,917.0,-1.145,0.6658,9.4768,-0.0249,0.0246,-0.1257,-1.8890391788878382,0.0,3.1305389404296875,-1.910158395767212,-0.0,1.7669602632522583,5.385304796486654,-0.0,0.27436503767967224,-1.60392934480776,-0.0,-0.006171337328851223,0.7149104475975037,0.0,0.002603457309305668,0.8154599070549011,0.0014558429829776287,-0.05324687063694
836.0,917.0,-1.145,0.6658,9.4768,-0.0249,0.0246,-0.1257,-1.8890472851195277,0.0,3.114687919616699,-1.9101872444152832,-0.0,1.7864418029785156,5.385320830136099,-0.0,0.2760198712348938,-1.6039617697345179,-0.0,0.0013800505548715591,0.7149186730384827,0.0,0.0011859179940074682,0.8154072761535645,0.0010022110072895885,-0.019077366217970848
840.0,914.0,-1.1079,0.1627,9.545,-0.0376,0.0283,-0.1122,-1.8890229664244593,3.886200250491356e-09,3.160719871520996,-1.9101946353912354,-0.0,1.8096661567687988,5.385220753937521,-2.4453169316984713e-05,0.271373987197876,-1.6039617697345179,-0.0,-0.0017905469285324216,0.7149508595466614,0.0,-0.002814288018271327,0.8154594302177429,0.0004856309969909489,0.005402904935181141
840.0,914.0,-1.1079,0.1627,9.545,-0.0376,0.0283,-0.1122,-1.889026781121725,1.6892156175893194e-18,3.091529369354248,-1.9101831912994385,-0.0,1.7503855228424072,5.3852728483970544,-2.152844717784319e-05,0.27465376257896423,-1.603945557271139,-0.0,-0.007316796109080315,0.7150155305862427,0.0,-0.004630248993635178,0.8154401779174805,0.00027415607473813,-0.0011581089347600937
840.0,914.0,-1.1079,0.1627,9.545,-0.0376,0.0283,-0.1122,-1.8890472851195277,7.342518838716409e-28,3.1305761337280273,-1.9102150201797485,-0.0,1.7677700519561768,5.3852330324943445,-3.8451435102615505e-05,0.2717406153678894,-1.6039217154132288,-0.0,-0.011514708399772644,0.7149509191513062,0.0,-0.007673074956983328,0.8153913021087646,0.0001407819800078869,0.03817824274301529
840.0,914.0,-1.1079,0.1627,9.545,-0.0376,0.0283,-0.1122,-1.8890229664244593,3.19157473736302e-37,3.119576930999756,-1.91019868850708,-0.0,1.7614545822143555,5.385224747448721,-3.4745393350021914e-05,0.2797470986843109,-1.603877369557516,-0.0,0.003048655344173312,0.7149105072021484,0.0,-0.002507115015760064,0.8154194951057434,-0.00013933681475464255,-0.025854844599962234
840.0,914.0,-1.1079,0.1627,9.545,-0.0376,0.0283,-0.1122,-1.8890310726561488,9.80908925027372e-45,3.1231870651245117,-1.9101624488830566,-0.0,1.8084192276000977,5.38527278879241,-4.422402707859874e-05,0.2636027932167053,-1.6039260069476526,-0.0,0.000424304511398077,0.7149710059165955,0.0,-0.0017749762628227472,0.815399169921875,-0.0007476350292563438,0.026272442191839218
840.0,914.0,-1.1079,0.1627,9.545,-0.0376,0.0283,-0.1122,-1.8890310726561488,0.0,3.1282176971435547,-1.910231590270996,-0.0,1.7644672393798828,5.385232794075765,-4.440380507730879e-05,0.27006036043167114,-1.6038935820208948,-0.0,-0.0055048298090696335,0.7149068117141724,0.0,0.007926885038614273,0.81537926197052,-0.0005970707861706614,-0.005991231184452772
840.0,914.0,-1.1079,0.1627,9.545,-0.0376,0.0283,-0.1122,-1.889010568658346,0.0,3.0927674770355225,-1.910215139389038,-0.0,1.7232260704040527,5.385237085610189,-5.1185019401600584e-05,0.2801949977874756,-1.6039179007159632,-0.0,-0.006644829176366329,0.7149828672409058,0.0,0.002494106302037835,0.8153553009033203,-0.00039827413274906576,-0.010485606268048286
840.0,914.0,-1.1079,0.1627,9.545,-0.0376,0.0283,-0.1122,-1.88903870205068,0.0,3.0645010471343994,-1.91019868850708,-0.0,1.761077880859375,5.3852009055908105,-5.084341682959348e-05,0.2689739763736725,-1.6038854757892054,-0.0,-0.006439858116209507,0.7149508595466614,0.0,0.005963111761957407,0.8154112696647644,-0.0002760727657005191,-0.027065042406320572
840.0,914.0,-1.1079,0.1627,9.545,-0.0376,0.0283,-0.1122,-1.8890310726561488,0.0,3.127537727355957,-1.91019868850708,-0.0,1.7750601768493652,5.385249006539144,-4.74899097753223e-05,0.28071027994155884,-1.603905979787008,-0.0,-0.006490724626928568,0.7150034308433533,0.0,-0.004601134918630123,0.815403401851654,-0.00021126099454704672,-0.01767841912806034
840.0,914.0,-1.1079,0.1627,9.545,-0.0376,0.0283,-0.1122,-1.8890429935851039,0.0,3.1335058212280273,-1.910146951675415,-0.0,1.8029694557189941,5.385245013027944,-4.455137241166085e-05,0.26284465193748474,-1.6039136091815394,-0.0,-0.010188648477196693,0.7149631977081299,0.0,0.007370294071733952,0.8153991103172302,-0.00013689645857084543,-0.057722993195056915
811.0,913.0,-1.0834,0.3553,9.6251,-0.0347,0.0209,-0.1168,-1.8890186748900355,0.0,3.11403751373291,-1.9101625680923462,-0.0,1.8026416301727295,5.385304975300588,-4.245004674885422e-05,0.2758103013038635,-1.6038935820208948,-0.0,-0.0065688928589224815,0.7149146199226379,0.0,-0.0023695214185863733,0.8153752088546753,-9.929783118423074e-05,-0.021734682843089104
811.0,913.0,-1.0834,0.3553,9.6251,-0.0347,0.0209,-0.1168,-1.8890553913512171,0.0,3.1148529052734375,-1.9102109670639038,-0.0,1.8062233924865723,5.385233092098989,-4.0086626540869474e-05,0.27884355187416077,-1.603945557271139,-0.0,-0.006671513896435499,0.7149591445922852,0.0,0.007074965629726648,0.8154154419898987,6.614344601985067e-05,-0.014228757470846176
811.0,913.0,-1.0834,0.3553,9.6251,-0.0347,0.0209,-0.1168,-1.889026781121725,0.0,3.1657919883728027,-1.9101914167404175,-0.0,1.7967498302459717,5.385260987072744,-3.652289304323375e-10,0.2628317177295685,-1.6039016882525843,-0.0,0.005250582937151194,0.7149951457977295,0.0,0.013262122869491577,0.8153630495071411,0.00014209651271812618,0.04834447428584099
811.0,913.0,-1.0834,0.3553,9.6251,-0.0347,0.0209,-0.1168,-1.8890310726561488,0.0,3.1346774101257324,-1.9101945161819458,-0.0,1.7936985492706299,5.385192918568411,-4.3340455096493966e-16,0.26927539706230164,-1.603889290486471,-0.0,-0.008002609945833683,0.7150512933731079,0.0,0.0026337080635130405,0.8153870105743408,0.000491595477797091,0.008660117164254189
811.0,913.0,-1.0834,0.3553,9.6251,-0.0347,0.0209,-0.1168,-1.8890186748900355,0.0,3.1331262588500977,-1.9101437330245972,-0.0,1.7561277151107788,5.38522886016921,-5.143062606388702e-22,0.26795732975006104,-1.6039260069476526,-0.0,-0.0080033577978611,0.714975118637085,0.0,0.009262140840291977,0.8154395818710327,0.00039409525925293565,-0.01361837051808834
811.0,913.0,-1.0834,0.3553,9.6251,-0.0347,0.0209,-0.1168,-1.889010568658346,0.0,3.154510021209717,-1.9101542234420776,-0.0,1.7526973485946655,5.385204958706655,-6.103093845243295e-28,0.28070658445358276,-1.6039093176471155,-0.0,0.00571941863745451,0.7150030136108398,0.0,0.021124934777617455,0.8154072165489197,0.00032077747164294124,0.027571771293878555
811.0,913.0,-1.0834,0.3553,9.6251,-0.0347,0.0209,-0.1168,-1.889083047906393,0.0,3.1662821769714355,-1.9101314544677734,0.00013429272803477943,1.7734013795852661,5.3852529404456995,-7.242328142946618e-34,0.2756127715110779,-1.6039136091815394,-0.0,-0.015897300094366074,0.7150390148162842,0.0,0.03499383479356766,0.815399169921875,0.0002819517394527793,0.039424698799848557
811.0,913.0,-1.0834,0.3553,9.6251,-0.0347,0.0209,-0.1168,-1.8890348873534144,0.0,3.11799693107605,-1.9101747274398804,0.00014391135482583195,1.73141348361969,5.38523285368041,-1.3162573039009512e-38,0.28063103556632996,-1.6039179007159632,-0.0,0.0025611654855310917,0.7150189876556396,0.0,0.021926824003458023,0.8154635429382324,0.0002720882766880095,0.0357053242623806
811.0,913.0,-1.0834,0.3553,9.6251,-0.0347,0.0209,-0.1168,-1.8890348873534144,0.0,3.130673885345459,-1.9101632833480835,0.00012707803398370743,1.7848657369613647,5.3852208135421655,-1.5414283107572988e-44,0.2856564521789551,-1.6039093176471155,-0.0,-0.017322324216365814,0.7149991393089294,0.00020138347463216633,0.02367495745420456,0.8154233694076538,0.00022378037101589143,0.04049752652645111
852.0,934.0,-1.1258,0.1298,9.5354,-0.0438,0.0257,-0.1115,-1.889054914514059,0.0,3.114344358444214,-1.910146951675415,0.0001326494966633618,1.787538766860962,5.385260987072744,-0.0,0.2734106779098511,-1.6039179007159632,-0.0,0.008830275386571884,0.7150230407714844,0.0002260361798107624,0.03727731853723526,0.8154395222663879,0.00019002966291736811,0.04729354754090309
852.0,934.0,-1.1258,0.1298,9.5354,-0.0438,0.0257,-0.1115,-1.8890868626036585,0.0,3.1749110221862793,-1.9101271629333496,0.00025495438603684306,1.847581148147583,5.385276901512899,-0.0,0.29186177253723145,-1.603934113179342,-0.0,-0.003371763974428177,0.7150552868843079,0.00022259443358052522,0.047742895781993866,0.815435528755188,0.000188715013791807,0.026911858469247818
852.0,934.0,-1.1258,0.1298,9.5354,-0.0438,0.0257,-0.1115,-1.889010568658346,0.0,3.1606180667877197,-1.91017484664917,0.0007389606325887144,1.8189679384231567,5.3852529404456995,-0.0,0.28844690322875977,-1.6038654486285608,-0.0,-0.027413999661803246,0.7150148153305054,0.0002953590883407742,0.04706443473696709,0.8153987526893616,0.00023293480626307428,0.03370405733585358
852.0,934.0,-1.1258,0.1298,9.5354,-0.0438,0.0257,-0.1115,-1.889054914514059,0.0,3.0949456691741943,-1.9101033210754395,0.0008872098987922072,1.849868655204773,5.385264980583944,-0.0,0.28689590096473694,-1.6039260069476526,-0.0,-0.011019833385944366,0.7150793671607971,0.00031134841265156865,0.059943221509456635,0.8154351711273193,0.0010294344974681735,0.06317003816366196
852.0,934.0,-1.1258,0.1298,9.5354,-0.0438,0.0257,-0.1115,-1.8890186748900355,0.0,3.0904531478881836,-1.91009521484375,0.0007920637144707143,1.8176813125610352,5.38523285368041,-0.0,0.291915625333786,-1.6039217154132288,-0.0,-0.027802124619483948,0.715054988861084,0.00046433854731731117,0.06340640783309937,0.8154275417327881,0.0017433034954592586,0.13161367177963257
852.0,934.0,-1.1258,0.1298,9.5354,-0.0438,0.0257,-0.1115,-1.8890186748900355,0.0,3.099332332611084,-1.9101229906082153,0.0006659812643192708,1.8221909999847412,5.385249006539144,-0.0,0.28562313318252563,-1.6039097944842737,-0.0,-0.036573778837919235,0.715079128742218,0.0006941854953765869,0.07345841825008392,0.8154634237289429,0.003782763844355941,0.1335827112197876
852.0,934.0,-1.1258,0.1298,9.5354,-0.0438,0.0257,-0.1115,-1.889026781121725,0.0,3.111935615539551,-1.9101642370224,0.0004197900416329503,1.80202317237854,5.385256933956899,-0.0,0.28680676221847534,-1.603938404713766,-0.0,-0.02799757942557335,0.7151113152503967,0.0006105761276558042,0.08392328023910522,0.8155481219291687,0.0045115151442587376,0.1779663860797882
852.0,934.0,-1.1258,0.1298,9.5354,-0.0438,0.0257,-0.1115,-1.8890429935851039,0.0,3.1032867431640625,-1.9101228713989258,0.0004556007916107774,1.8100271224975586,5.385220753937521,-0.0,0.2868577837944031,-1.6039374510394495,-0.0,-0.01567467302083969,0.7151110172271729,0.0005090041668154299,0.06642821431159973,0.8155475854873657,0.005907123442739248,0.23702839016914368
852.0,934.0,-1.1258,0.1298,9.5354,-0.0438,0.0257,-0.1115,-1.8890263042845667,0.0,3.083148956298828,-1.9100826978683472,0.0013349504442885518,1.8074078559875488,5.385276901512899,-0.0,0.2807275950908661,-1.6039217154132288,-0.0,-0.029186241328716278,0.7150953412055969,0.0004146666615270078,0.08473071455955505,0.8156436681747437,0.00836985744535923,0.1799364537000656
812.0,892.0,-0.9852,0.4816,9.5384,-0.0316,0.0318,-0.1075,-1.8890592060484828,0.0,3.0638134479522705,-1.9100794792175293,0.0024044958408921957,1.8285694122314453,5.385260987072744,-0.0,0.2782701253890991,-1.6039217154132288,-0.0,-0.036011070013046265,0.7151032090187073,0.00027293176390230656,0.08557460457086563,0.815727710723877,0.009994993917644024,0.1750776171684265
812.0,892.0,-0.9852,0.4816,9.5384,-0.0316,0.0318,-0.1075,-1.88903870205068,0.0,3.040674924850464,-1.9100340604782104,0.002862286753952503,1.840222954750061,5.3852529404456995,-0.0,0.28439560532569885,-1.6039579550372522,-0.0,-0.030936390161514282,0.7151351571083069,0.0002512694918550551,0.09428194165229797,0.8158802390098572,0.012976663187146187,0.23938560485839844
812.0,892.0,-0.9852,0.4816,9.5384,-0.0316,0.0318,-0.1075,-1.889083047906393,0.0,3.1216392517089844,-1.9099947214126587,0.0038805794902145863,1.8033314943313599,5.3852330324943445,-0.0,0.2921690344810486,-1.603934113179342,-0.0,-0.030522558838129044,0.7151188850402832,0.0002118428237736225,0.10148406028747559,0.8159798383712769,0.01609225384891033,0.19191989302635193
812.0,892.0,-0.9852,0.4816,9.5384,-0.0316,0.0318,-0.1075,-1.8891149959959925,-0.00037134953890927136,3.027863025665283,-1.9100028276443481,0.0031891860999166965,1.8471771478652954,5.38523684719161,-0.0,0.2967655658721924,-1.6039417425738733,-0.0,-0.042527198791503906,0.7151150703430176,0.0002066164161078632,0.10076466202735901,0.8161726593971252,0.01918233558535576,0.19805005192756653
812.0,892.0,-0.9852,0.4816,9.5384,-0.0316,0.0318,-0.1075,-1.8890744648375453,-0.0002763434895314276,3.0050668716430664,-1.9099591970443726,0.0034150048159062862,1.8285129070281982,5.3852688548858545,-0.0,0.2851598858833313,-1.6039302984820765,-0.0,-0.04441291093826294,0.7150909900665283,0.00020242179743945599,0.08680063486099243,0.8163719177246094,0.021845828741788864,0.2553268373012543
812.0,892.0,-0.9852,0.4816,9.5384,-0.0316,0.0318,-0.1075,-1.889050622979635,-0.0002918919490184635,3.0762410163879395,-1.909867286682129,0.002728845225647092,1.8714007139205933,5.385192978173055,-9.97281102144143e-09,0.2721218764781952,-1.6039016882525843,-0.0,-0.037690408527851105,0.7151473164558411,0.0001778123842086643,0.09782661497592926,0.8166085481643677,0.022228717803955078,0.2615489661693573
812.0,892.0,-0.9852,0.4816,9.5384,-0.0316,0.0318,-0.1075,-1.8890825710692347,-0.000279985717497766,3.0593650341033936,-1.9098507165908813,0.003273796522989869,1.9305832386016846,5.385177421360769,-1.183439112629808e-14,0.28525310754776,-1.6039179007159632,-0.0,-0.03758528456091881,0.7150869369506836,0.00013900046178605407,0.10855831205844879,0.8168367147445679,0.021390508860349655,0.2507054805755615
812.0,892.0,-0.9852,0.4816,9.5384,-0.0316,0.0318,-0.1075,-1.889073988000387,-0.0002964765881188214,3.0659170150756836,-1.909847378730774,0.003385081421583891,1.8980681896209717,5.385189461499014,-1.404346046520616e-20,0.28080275654792786,-1.6039417425738733,-0.0,-0.04340863972902298,0.715151309967041,0.0001428599061910063,0.10149835050106049,0.8170732855796814,0.020340360701084137,0.2604209780693054
812.0,892.0,-0.9852,0.4816,9.5384,-0.0316,0.0318,-0.1075,-1.8891107044615687,-0.00033477283432148397,3.101304054260254,-1.909855604171753,0.003423774614930153,1.861417531967163,5.3851970312889,-1.6664888460252046e-26,0.26053810119628906,-1.6039417425738733,-0.0,-0.042617104947566986,0.715082585811615,0.00012742786202579737,0.10784818232059479,0.8172330260276794,0.01986214704811573,0.28681933879852295
812.0,892.0,-0.9852,0.4816,9.5384,-0.0316,0.0318,-0.1075,-1.8890744648375453,-0.00030958381830714643,3.077504873275757,-1.9097634553909302,0.0034013520926237106,1.8630837202072144,5.385181474476614,-0.0002099472185363993,0.2870604395866394,-1.6039698759662073,-0.0,-0.04450960457324982,0.7151029109954834,0.00011643684410955757,0.0999663770198822,0.8173652291297913,0.018005888909101486,0.26557445526123047
837.0,906.0,-1.1892,0.1029,9.682,-0.038,0.0283,-0.1113,-1.8891149959959925,-0.00024060717259999365,3.0699143409729004,-1.909759283065796,0.003727504750713706,1.8735090494155884,5.3852169988449,-0.00020380613568704575,0.26586025953292847,-1.6039260069476526,-0.0,-0.03702092543244362,0.715106725692749,0.00012262232485227287,0.10794037580490112,0.8175254464149475,0.01582319475710392,0.25717103481292725
837.0,906.0,-1.1892,0.1029,9.682,-0.038,0.0283,-0.1113,-1.8890825710692347,-0.0002295083540957421,3.096400022506714,-1.9096827507019043,0.003166522365063429,1.894925832748413,5.385220932751455,-0.00020074262283742428,0.2844153046607971,-1.60390550294985,-0.0,-0.03087211586534977,0.7151389122009277,0.00011174716200912371,0.11203749477863312,0.8176736831665039,0.013845288194715977,0.34892845153808594
837.0,906.0,-1.1892,0.1029,9.682,-0.038,0.0283,-0.1113,-1.8890859089293421,-0.0002186592319048941,3.0638787746429443,-1.9097270965576172,0.001974154729396105,1.850008487701416,5.38515334108428,-0.00019788826466538012,0.2799210250377655,-1.6039016882525843,-0.0,-0.037370841950178146,0.7151391506195068,0.00010264377488056198,0.11498574912548065,0.8177729845046997,0.011646125465631485,0.3214874565601349
837.0,906.0,-1.1892,0.1029,9.682,-0.038,0.0283,-0.1113,-1.889106889764303,-0.00019228860037401319,3.0507044792175293,-1.9096910953521729,0.00112184789031744,1.871971845626831,5.3852050183113,-0.00020485743880271912,0.27265143394470215,-1.60390550294985,-0.0,-0.033408161252737045,0.7151229381561279,9.49119494180195e-05,0.10098417103290558,0.8178366422653198,0.008611008524894714,0.34733664989471436
837.0,906.0,-1.1892,0.1029,9.682,-0.038,0.0283,-0.1113,-1.8890587292113246,-0.00016963627422228456,3.077810287475586,-1.9096548557281494,0.0007846702937968075,1.8078320026397705,5.385197388916769,-0.00016698673425707966,0.26401829719543457,-1.6039331595050257,-0.0,-0.02374904975295067,0.7151830196380615,8.826331031741574e-05,0.1058771163225174,0.8179697394371033,0.007983487099409103,0.31066441535949707
837.0,906.0,-1.1892,0.1029,9.682,-0.038,0.0283,-0.1113,-1.8890744648375453,-0.00013564825349021703,3.0555520057678223,-1.9096434116363525,0.0008129756315611303,1.7795127630233765,5.385185467987814,-0.0001669288903940469,0.2826541066169739,-1.6039331595050257,-0.0,-0.03436312451958656,0.7151351571083069,8.357947081094608e-05,0.10341379791498184,0.818025529384613,0.007146746851503849,0.2978127896785736
837.0,906.0,-1.1892,0.1029,9.682,-0.038,0.0283,-0.1113,-1.8891312084593714,-0.0001399587345076725,3.12359619140625,-1.9096474647521973,0.001080336282029748,1.8931605815887451,5.385153281479635,-0.00015021175204310566,0.2636256814002991,-1.6039374510394495,-0.0,-0.031824562698602676,0.7150825262069702,8.95711564226076e-05,0.12102780491113663,0.8181097507476807,0.007190583273768425,0.34342241287231445
837.0,906.0,-1.1892,0.1029,9.682,-0.038,0.0283,-0.1113,-1.8891226253905238,-9.710347512736917e-05,3.105313301086426,-1.9096671342849731,0.0012803399004042149,1.8075754642486572,5.385197388916769,-0.00017014029435813427,0.27499502897262573,-1.6039217154132288,-0.0,-0.03427745774388313,0.7151026725769043,8.07626056484878e-05,0.10219042748212814,0.8180768489837646,0.006973931100219488,0.35566842555999756
837.0,906.0,-1.1892,0.1029,9.682,-0.038,0.0283,-0.1113,-1.8891107044615687,-0.00012195014278404415,3.0150375366210938,-1.909643292427063,0.0012629589764401317,1.8709723949432373,5.38515733459548,-0.0001715207617962733,0.2685430347919464,-1.6039217154132288,-0.0,-0.01939266175031662,0.7151709198951721,8.890174649422988e-05,0.10980087518692017,0.8182293772697449,0.009197957813739777,0.3396521210670471
829.0,931.0,-1.0905,0.2812,9.9206,-0.0391,0.0241,-0.1029,-1.889151235620016,-0.0002998369454871863,3.0694479942321777,-1.9096276760101318,0.001246318919584155,1.900457501411438,5.385181236058035,-0.00014585262397304177,0.2719469666481018,-1.6039179007159632,-0.0,-0.03516857326030731,0.7150948643684387,0.00010949945135507733,0.12649057805538177,0.81837397813797,0.010069645009934902,0.3522913455963135
829.0,931.0,-1.0905,0.2812,9.9206,-0.0391,0.0241,-0.1029,-1.889135023156637,-0.00037619308568537235,3.025040626525879,-1.9095791578292847,0.0018993365811184049,1.8952242136001587,5.38518916347579,-0.0001506089756730944,0.2556106448173523,-1.6038969198810022,-0.0,-0.029387105256319046,0.7151147723197937,0.0002699592732824385,0.11700768768787384,0.8184580206871033,0.010712536051869392,0.39751458168029785
829.0,931.0,-1.0905,0.2812,9.9206,-0.0391,0.0241,-0.1029,-1.8891550503172816,-0.0005151444929651916,3.0408191680908203,-1.909599781036377,0.0020807944238185883,1.849010705947876,5.385129201203146,-0.00015420150884892792,0.2669793963432312,-1.60390550294985,-0.0,-0.017122073099017143,0.7151389718055725,0.00020772127027157694,0.13127069175243378,0.8185781240463257,0.011383083648979664,0.399494469165802
829.0,931.0,-1.0905,0.2812,9.9206,-0.0391,0.0241,-0.1029,-1.8891264400877894,-0.0009154106955975294,3.0627942085266113,-1.9095830917358398,0.0017844190588220954,1.8922278881072998,5.38516132810668,-0.00016066597891040146,0.2555254101753235,-1.6039302984820765,-0.0,-0.04044153541326523,0.7151586413383484,0.0002104019367834553,0.11945013701915741,0.8186015486717224,0.012463061138987541,0.38174968957901
829.0,931.0,-1.0905,0.2812,9.9206,-0.0391,0.0241,-0.1029,-1.8891750774779261,-0.002087192377075553,3.0642318725585938,-1.9095675945281982,0.001266601262614131,1.9547793865203857,5.3851173398788355,-0.00021910559735260904,0.26236864924430847,-1.6038935820208948,-0.0,-0.028696786612272263,0.7151107788085938,0.00017609511269256473,0.11938577145338058,0.8187462091445923,0.012170260772109032,0.409241646528244
829.0,931.0,-1.0905,0.2812,9.9206,-0.0391,0.0241,-0.1029,-1.889186521569723,-0.006292854901403189,3.04318904876709,-1.9094829559326172,0.0013337526470422745,1.9110691547393799,5.38513724783019,-0.00021249988640192896,0.26344794034957886,-1.6038969198810022,-0.0,-0.02792481705546379,0.7151349782943726,0.00015140579489525408,0.11752860248088837,0.8188824653625488,0.011617417447268963,0.43338829278945923
829.0,931.0,-1.0905,0.2812,9.9206,-0.0391,0.0241,-0.1029,-1.8892585239806117,-0.005838389508426189,3.0542984008789062,-1.909551978111267,0.0030451305210590363,1.8823031187057495,5.3851332543189905,-0.00018183788051828742,0.26469340920448303,-1.6039093176471155,-0.0,-0.024008356034755707,0.7151787877082825,0.00013278887490741909,0.10914511978626251,0.8189780712127686,0.01134987361729145,0.37773922085762024
829.0,931.0,-1.0905,0.2812,9.9206,-0.0391,0.0241,-0.1029,-1.8893066845335902,-0.0015012611402198672,3.0311999320983887,-1.9094910621643066,0.003801671089604497,1.894827961921692,5.38510541894988,-0.00018155261932406574,0.2575485110282898,-1.6039579550372522,-0.0,-0.039169423282146454,0.7151027917861938,0.0001182492560474202,0.11387716978788376,0.8191142678260803,0.011904675513505936,0.3856358528137207
829.0,931.0,-1.0905,0.2812,9.9206,-0.0391,0.0241,-0.1029,-1.889355321923727,-0.003253576811403036,2.9712977409362793,-1.9094351530075073,0.002066511893644929,1.862372875213623,5.385073292046346,-0.000769261212553829,0.24534215033054352,-1.6039541403399866,-0.0,-0.03634686768054962,0.7151869535446167,0.00012418760161381215,0.1415923535823822,0.8192102909088135,0.012152173556387424,0.4815015494823456
829.0,886.0,-0.9021,0.1944,9.4672,-0.0399,0.0121,-0.1121,-1.8893667660155238,-0.0027867171447724104,3.015075206756592,-1.9094351530075073,0.001259015640243888,1.9131758213043213,5.385133194714346,-0.000949992099776864,0.24493077397346497,-1.6039665381061,-0.0,-0.0200413279235363,0.7151668071746826,0.00011524425644893199,0.11601224541664124,0.8193544745445251,0.011822285130620003,0.4826350510120392
829.0,886.0,-0.9021,0.1944,9.4672,-0.0399,0.0121,-0.1121,-1.8893667660155238,-0.0011259136954322457,3.0045175552368164,-1.9094029664993286,0.0019560225773602724,1.9012036323547363,5.385121273785391,-0.0006664727116003633,0.26076841354370117,-1.6039302984820765,-0.0,-0.03728977590799332,0.7151508331298828,0.00012065342889400199,0.13579490780830383,0.8194304704666138,0.010736632160842419,0.41868913173675537
829.0,886.0,-0.9021,0.1944,9.4672,-0.0399,0.0121,-0.1121,-1.8893867931761683,-0.0006316612707450986,3.0070395469665527,-1.909407138824463,0.0036073282826691866,1.935374140739441,5.38510541894988,-0.0004985331906937063,0.25986722111701965,-1.6038973967181605,-0.0,-0.022252647206187248,0.7151027917861938,0.00011134034866699949,0.13480375707149506,0.8195508122444153,0.010861899703741074,0.4499192237854004
829.0,886.0,-0.9021,0.1944,9.4672,-0.0399,0.0121,-0.1121,-1.8893667660155238,-0.00043903084588237107,2.990402936935425,-1.909360408782959,0.004479014780372381,1.9166980981826782,5.38513724783019,-0.00046095752622932196,0.26466599106788635,-1.6039417425738733,-0.0,-0.026043318212032318,0.7151788473129272,0.00010334944090573117,0.12558713555335999,0.8195984363555908,0.00993167981505394,0.41886597871780396
829.0,886.0,-0.9021,0.1944,9.4672,-0.0399,0.0121,-0.1121,-1.8893867931761683,-0.00033644287032075226,3.0173234939575195,-1.9093117713928223,0.005381663329899311,1.896824598312378,5.38508956411437,-0.0005719223991036415,0.24918124079704285,-1.6038973967181605,-0.0,-0.021052252501249313,0.7151792049407959,9.642869554227218e-05,0.12424908578395844,0.8197307586669922,0.008096178993582726,0.4393051862716675
829.0,886.0,-0.9021,0.1944,9.4672,-0.0399,0.0121,-0.1121,-1.8893505535521449,-0.00018065546464640647,3.0659608840942383,-1.9092516899108887,0.005926467478275299,1.895545244216919,5.385089385300436,-0.005761720240116119,0.262534499168396,-1.603889290486471,-0.0,-0.023918388411402702,0.7151351571083069,9.037674317369238e-05,0.11599738895893097,0.8197906017303467,0.006274722050875425,0.37852156162261963
829.0,886.0,-0.9021,0.1944,9.4672,-0.0399,0.0121,-0.1121,-1.8893910847105921,-0.0001504536485299468,3.034071207046509,-1.9092040061950684,0.006923040375113487,1.8942623138427734,5.384926068573751,-0.014283081516623497,0.2700601816177368,-1.6039217154132288,-0.0,-0.03173646330833435,0.7151429653167725,8.503958088112995e-05,0.1098700761795044,0.8198427557945251,0.0051865288987755775,0.42722147703170776
829.0,886.0,-0.9021,0.1944,9.4672,-0.0399,0.0121,-0.1121,-1.8893910847105921,-0.00013270569615997374,3.014939069747925,-1.9091159105300903,0.007807489484548569,1.9032642841339111,5.3848821995551965,-0.004515394568443298,0.2535404562950134,-1.6039302984820765,-0.0,-0.02227448672056198,0.7151668071746826,6.093802221585065e-05,0.11670233309268951,0.819850504398346,0.004196588881313801,0.4590485692024231
829.0,886.0,-0.9021,0.1944,9.4672,-0.0399,0.0121,-0.1121,-1.8893829784789027,-0.0001387829688610509,2.969160556793213,-1.9089958667755127,0.00872721429914236,1.89690363407135,5.384890186577596,-0.0009945851052179933,0.2667686343193054,-1.6039374510394495,-0.0,-0.025537235662341118,0.7152231931686401,5.646127465297468e-05,0.10688824206590652,0.819922924041748,0.005352314095944166,0.4354191720485687
829.0,886.0,-0.9021,0.1944,9.4672,-0.0399,0.0121,-0.1121,-1.889418741265768,-0.00016315103857778013,3.0010337829589844,-1.908919334411621,0.009649236686527729,1.851789116859436,5.384902047901907,-0.0005552787333726883,0.25950300693511963,-1.6038935820208948,-0.0,-0.02416113391518593,0.7151108384132385,8.359704224858433e-05,0.12055086344480515,0.819990873336792,0.00721673434600234,0.4211728572845459
824.0,910.0,-1.2664,0.3141,9.7627,-0.0365,0.0822,-0.1135,-1.889390607873434,-0.00014721020124852657,3.0351595878601074,-1.9088683128356934,0.011282519437372684,1.907775640487671,5.384878206043997,-0.0003853323869407177,0.2664026618003845,-1.6039541403399866,-0.0,-0.0282367542386055,0.7151668667793274,0.0016873168060556054,0.11666402220726013,0.8200629353523254,0.008203921839594841,0.40260303020477295
824.0,910.0,-1.2664,0.3141,9.7627,-0.0365,0.0822,-0.1135,-1.8893705807127894,-0.0001335568813374266,3.0420596599578857,-1.9087326526641846,0.01456333976238966,1.9028658866882324,5.384846138745107,-0.00029506292776204646,0.2616666853427887,-1.6039093176471155,-0.0,-0.028363868594169617,0.7152750492095947,0.01595834456384182,0.13578519225120544,0.8201308846473694,0.01040416769683361,0.4644436836242676
824.0,910.0,-1.2664,0.3141,9.7627,-0.0365,0.0822,-0.1135,-1.8894311390318812,-0.000118655436381232,3.048424482345581,-1.9085638523101807,0.018712196499109268,1.8986608982086182,5.384894180088796,-0.00025578864733688533,0.2730913460254669,-1.603901211415426,-0.0,-0.02452000230550766,0.7155160307884216,0.016592133790254593,0.12771213054656982,0.820279061794281,0.01221824437379837,0.49798181653022766
824.0,910.0,-1.2664,0.3141,9.7627,-0.0365,0.0822,-0.1135,-1.8894392452635707,-0.00010723842569859698,3.0201778411865234,-1.908380389213562,0.021811064332723618,1.9261956214904785,5.3848381517227075,-0.0002372080780332908,0.26574409008026123,-1.6038973967181605,-0.0,-0.028364963829517365,0.7155788540840149,0.008660851046442986,0.14733844995498657,0.8203670978546143,0.013063120655715466,0.42455336451530457
824.0,910.0,-1.2664,0.3141,9.7627,-0.0365,0.0822,-0.1135,-1.8893710575499476,-0.0001467549882363528,3.041339874267578,-1.9081721305847168,0.026205265894532204,1.933815836906433,5.3848381517227075,-0.00015562318731099367,0.2523433268070221,-1.6039541403399866,-0.0,-0.01037805899977684,0.7155467867851257,0.00139251456130296,0.15275393426418304,0.8204872012138367,0.012825753539800644,0.4188844561576843
824.0,910.0,-1.2664,0.3141,9.7627,-0.0365,0.0822,-0.1135,-1.8893467388548792,-0.0003062554751522839,3.036137342453003,-1.9078407287597656,0.03130045533180237,1.9053435325622559,5.384870099812307,-0.00048230186803266406,0.2539306879043579,-1.603889290486471,-0.0,-0.013173404149711132,0.7155588269233704,0.0006064347107894719,0.13360664248466492,0.8205872774124146,0.011311428621411324,0.47749000787734985
824.0,910.0,-1.2664,0.3141,9.7627,-0.0365,0.0822,-0.1135,-1.8893867931761683,-0.0002742153301369399,2.9868083000183105,-1.9074678421020508,0.03679673373699188,1.9520759582519531,5.384834277420797,-0.0008642956963740289,0.26398003101348877,-1.6039302984820765,-0.0,-0.01388881728053093,0.7155787348747253,0.0004528497811406851,0.1469319760799408,0.8206954002380371,0.010171277448534966,0.45212042331695557
824.0,910.0,-1.2664,0.3141,9.7627,-0.0365,0.0822,-0.1135,-1.8893987141051234,-0.00021868670592084527,3.021199941635132,-1.9070160388946533,0.04290638864040375,1.955430030822754,5.3848507879074,-0.0006167379324324429,0.24900895357131958,-1.6039374510394495,-0.0,-0.009469699114561081,0.7155869603157043,0.0002987376938108355,0.14604498445987701,0.8208441734313965,0.009845659136772156,0.44289520382881165
824.0,910.0,-1.2664,0.3141,9.7627,-0.0365,0.0822,-0.1135,-1.8893786869444789,-0.00015155013534240425,3.0134005546569824,-1.9065479040145874,0.05285380780696869,2.002286911010742,5.384790587216177,-0.0005143175949342549,0.25641578435897827,-1.6039260069476526,-0.0,-0.0016129142604768276,0.7156026363372803,0.001749209826812148,0.1519574373960495,0.8208713531494141,0.01019559521228075,0.4583868980407715
772.0,881.0,-1.4937,0.4307,10.2808,-0.0475,0.153,-0.1219,-1.8893825016417445,-0.00017854255565907806,3.0583324432373047,-1.9059646129608154,0.0660148486495018,1.9898712635040283,5.384766387730398,-0.0019400380551815033,0.264903724193573,-1.6039579550372522,-0.0,-0.0007769442163407803,0.7156669497489929,0.003223027568310499,0.14282575249671936,0.8210157155990601,0.009815703146159649,0.5010493993759155
772.0,881.0,-1.4937,0.4307,10.2808,-0.0475,0.153,-0.1219,-1.8893538914122523,-0.00023759961186442524,3.035562515258789,-1.9053688049316406,0.07603690028190613,2.0483081340789795,5.38472210147933,-0.007108389865607023,0.2594395875930786,-1.6039498488055628,-0.0,-0.016307376325130463,0.7156589031219482,0.003469931660220027,0.1568039357662201,0.8210594058036804,0.009814736433327198,0.47872164845466614
772.0,881.0,-1.4937,0.4307,10.2808,-0.0475,0.153,-0.1219,-1.889446874658102,-0.0029064409900456667,3.012424945831299,-1.9045360088348389,0.0848621129989624,1.999386191368103,5.384678828507223,-0.010399209335446358,0.2525750398635864,-1.60390550294985,-0.0,-0.0070004817098379135,0.7157109379768372,0.003624098841100931,0.1525871753692627,0.8211677670478821,0.010687189176678658,0.44063371419906616
772.0,881.0,-1.4937,0.4307,10.2808,-0.0475,0.153,-0.1219,-1.889430662194723,-0.0017659604782238603,3.0365028381347656,-1.9036169052124023,0.09094046801328659,2.00005841255188,5.384598898678579,-0.003967954311519861,0.25724083185195923,-1.6039417425738733,-0.0,-0.01840585097670555,0.7157747149467468,0.002752903616055846,0.17373105883598328,0.8212800621986389,0.01017784234136343,0.4519369304180145
772.0,881.0,-1.4937,0.4307,10.2808,-0.0475,0.153,-0.1219,-1.889475008050436,-0.0007878498872742057,3.0586953163146973,-1.9026401042938232,0.10040109604597092,2.062368631362915,5.384555506497183,-0.0008472104091197252,0.2517707943916321,-1.6039217154132288,-0.0,-0.005643859971314669,0.7157348990440369,0.0012740518432110548,0.15727810561656952,0.8213998675346375,0.01007586345076561,0.519882321357727
772.0,881.0,-1.4937,0.4307,10.2808,-0.0475,0.153,-0.1219,-1.8894545040526332,-0.0005565767060033977,3.0165109634399414,-1.9015884399414062,0.10571638494729996,2.0528218746185303,5.384543168335714,-0.0005228992085903883,0.2546975016593933,-1.6039179007159632,-0.0,-0.012967514805495739,0.715726912021637,0.0007240688428282738,0.14305788278579712,0.8214359879493713,0.008100418373942375,0.49362680315971375
772.0,881.0,-1.4937,0.4307,10.2808,-0.0475,0.153,-0.1219,-1.8894907436766566,-0.0010565893026068807,3.009934902191162,-1.9004734754562378,0.12103893607854843,2.0983567237854004,5.384527313500204,-0.0003649090649560094,0.256314754486084,-1.6039260069476526,-0.0,-0.019370660185813904,0.715742826461792,0.00048165066982619464,0.14705641567707062,0.8215360641479492,0.00709565682336688,0.49819058179855347
772.0,881.0,-1.4937,0.4307,10.2808,-0.0475,0.153,-0.1219,-1.889538904229635,-0.001400010078214109,2.995011806488037,-1.8991974592208862,0.12515150010585785,2.0639781951904297,5.384539234429159,-0.002024970017373562,0.2585552930831909,-1.6039260069476526,-0.0,-0.016899054870009422,0.7157270312309265,0.00036088621709495783,0.13687025010585785,0.8215716481208801,0.004609257448464632,0.4253346920013428
772.0,881.0,-1.4937,0.4307,10.2808,-0.0475,0.153,-0.1219,-1.8894902668394984,-0.0014284467324614525,3.029716968536377,-1.898133397102356,0.13075830042362213,2.0429205894470215,5.384531307011404,-0.0017785262316465378,0.25582000613212585,-1.6039179007159632,-0.0,-0.008945755660533905,0.7157750129699707,0.00030060228891670704,0.14368468523025513,0.8216201066970825,0.0027391796465963125,0.4478183686733246
572.0,678.0,-1.2814,0.1789,9.8213,-0.0444,0.2498,-0.1303,-1.8895107708373011,-0.0006705440464429557,3.0410451889038086,-1.896749496459961,0.14207306504249573,2.066895008087158,5.384527373104849,-0.0010624479036778212,0.2570631206035614,-1.60390550294985,-0.0,-0.015105992555618286,0.7157506942749023,0.00024868090986274183,0.14563414454460144,0.8216321468353271,0.001278222305700183,0.4394018054008484
572.0,678.0,-1.2814,0.1789,9.8213,-0.0444,0.2498,-0.1303,-1.8895307979979457,-0.00053456611931324,3.0469460487365723,-1.8952656984329224,0.15649306774139404,2.1196441650390625,5.384487378388204,-0.0010851274710148573,0.2551300525665283,-1.6038854757892054,-0.0,-0.024043001234531403,0.7157467007637024,0.0001830587862059474,0.14039017260074615,0.8216761946678162,0.0008437603828497231,0.484704852104187
572.0,678.0,-1.2814,0.1789,9.8213,-0.0444,0.2498,-0.1303,-1.8895184002318324,-0.000556544226128608,3.0227856636047363,-1.893654704093933,0.16642479598522186,2.1172099113464355,5.384491371899404,-0.002497828798368573,0.2545051872730255,-1.6039093176471155,-0.0,-0.009186331182718277,0.7157267928123474,0.0006558597669936717,0.1530819535255432,0.8216482400894165,0.0005992444348521531,0.5140405297279358
572.0,678.0,-1.2814,0.1789,9.8213,-0.0444,0.2498,-0.1303,-1.8895508251585902,-0.0023849911522120237,3.0073904991149902,-1.8919028043746948,0.18250919878482819,2.206223964691162,5.384371149330892,-0.0028576678596436977,0.2522600591182709,-1.6039260069476526,-0.0,-0.012859689071774483,0.7158027291297913,0.0009719095542095602,0.14502328634262085,0.8216160535812378,0.0004598902305588126,0.4897124767303467
572.0,678.0,-1.2814,0.1789,9.8213,-0.0444,0.2498,-0.1303,-1.8896428547301234,-0.0035187616012990475,3.0651326179504395,-1.8900150060653687,0.1940426528453827,2.187007188796997,5.384367692261495,-0.004197337664663792,0.23959514498710632,-1.603905979787008,-0.0,-0.022201763466000557,0.7157828211784363,0.000728829822037369,0.1469915360212326,0.8216561079025269,0.00036519471905194223,0.48030099272727966
572.0,678.0,-1.2814,0.1789,9.8213,-0.0444,0.2498,-0.1303,-1.8896423778929652,-0.005011394619941711,3.0315470695495605,-1.8884146213531494,0.19838333129882812,2.1261956691741943,5.384391891747274,-0.003365058684721589,0.25105178356170654,-1.603861157094137,-0.0,-0.008829060941934586,0.7157629132270813,0.0005692779086530209,0.15412971377372742,0.8216241598129272,0.0002874292840715498,0.5156748294830322
572.0,678.0,-1.2814,0.1789,9.8213,-0.0444,0.2498,-0.1303,-1.889646669427389,-0.004242433235049248,3.039423942565918,-1.8865000009536743,0.206719309091568,2.165475845336914,5.384335863381185,-0.001435624435544014,0.26166659593582153,-1.603934113179342,-0.0,-0.007977336645126343,0.7157946228981018,0.0004079172504134476,0.15896379947662354,0.8216481804847717,0.0002270080876769498,0.5084539651870728
572.0,678.0,-1.2814,0.1789,9.8213,-0.0444,0.2498,-0.1303,-1.8897105656065882,-0.003457024460658431,3.0280966758728027,-1.8844248056411743,0.21954727172851562,2.2324635982513428,5.38430421331481,-0.0011624455219134688,0.24484598636627197,-1.6039093176471155,-0.0,-0.018178781494498253,0.7157867550849915,0.00031784974271431565,0.1592775583267212,0.8216241598129272,0.00018757877114694566,0.5165016055107117
572.0,678.0,-1.2814,0.1789,9.8213,-0.0444,0.2498,-0.1303,-1.8897911510863246,-0.005796576384454966,3.0289387702941895,-1.8821930885314941,0.22185242176055908,2.186340570449829,5.384335684567251,-0.0020695652347058058,0.2688225209712982,-1.6039217154132288,-0.0,-0.01382890809327364,0.7157307863235474,0.000260368047747761,0.14735500514507294,0.8216280937194824,0.0001598200324224308,0.4727342128753662
572.0,678.0,-1.2814,0.1789,9.8213,-0.0444,0.2498,-0.1303,-1.8897859058775843,-0.00601538410410285,3.0865373611450195,-1.8799574375152588,0.23821194469928741,2.2291030883789062,5.384272086411276,-0.0014638849534094334,0.25986748933792114,-1.6039260069476526,-0.0,-0.015387693420052528,0.7157429456710815,0.00015705804980825633,0.156020849943161,0.8216521143913269,0.00018562343029771,0.4662376046180725
404.0,407.0,-1.6642,0.25,9.5354,-0.0673,0.2824,-0.1254,-1.889874120751852,-0.009024257771670818,3.069822311401367,-1.8775135278701782,0.2372204214334488,2.193356513977051,5.384227740555563,-0.00550411781296134,0.2565506398677826,-1.6039260069476526,-0.0,-0.015153796412050724,0.7158148288726807,0.0002120897697750479,0.15846922993659973,0.8216761350631714,0.00012312298349570483,0.46034151315689087
404.0,407.0,-1.6642,0.25,9.5354,-0.0673,0.2824,-0.1254,-1.8900066814818324,-0.011159094050526619,3.0111210346221924,-1.875062108039856,0.25133639574050903,2.2582411766052246,5.384192335396566,-0.0017995998496189713,0.26379626989364624,-1.6039016882525843,-0.0,-0.006004482973366976,0.7158744931221008,0.0011567131150513887,0.15953077375888824,0.8216561079025269,0.0001296698465012014,0.47270262241363525
404.0,407.0,-1.6642,0.25,9.5354,-0.0673,0.2824,-0.1254,-1.8900906048216761,-0.010747987776994705,3.0557217597961426,-1.8730987310409546,0.2575125992298126,2.2549259662628174,5.3841726062591455,-0.001314367982558906,0.24494627118110657,-1.6038935820208948,-0.0,-0.014009535312652588,0.7158066630363464,0.001322721946053207,0.15105833113193512,0.8216962814331055,0.0004444113001227379,0.49609383940696716
404.0,407.0,-1.6642,0.25,9.5354,-0.0673,0.2824,-0.1254,-1.8901940784850062,-0.012852141633629799,3.033628463745117,-1.870407223701477,0.26154768466949463,2.259812593460083,5.384192037373342,-0.002274991711601615,0.2587442696094513,-1.6038973967181605,-0.0,-0.005005354527384043,0.7158505916595459,0.0010217527160421014,0.16234812140464783,0.8217202425003052,0.002142222598195076,0.536270022392273
404.0,407.0,-1.6642,0.25,9.5354,-0.0673,0.2824,-0.1254,-1.890390535394186,-0.01615828648209572,2.994035243988037,-1.8676681518554688,0.2697943150997162,2.2636265754699707,5.384168553143301,-0.0013205076102167368,0.2503105103969574,-1.6039179007159632,-0.0,-0.010194815695285797,0.7158346772193909,0.0006017363048158586,0.14565391838550568,0.8216797709465027,0.0026299236342310905,0.4948895573616028
404.0,407.0,-1.6642,0.25,9.5354,-0.0673,0.2824,-0.1254,-1.8905378780760707,-0.019050264731049538,3.020181894302368,-1.864892601966858,0.2737874984741211,2.2986936569213867,5.384136545449056,-0.002217791508883238,0.255192369222641,-1.603934113179342,-0.0,0.0035312767140567303,0.7157989144325256,0.0004981125239282846,0.1600457727909088,0.8217200636863708,0.002690548077225685,0.491926908493042
404.0,407.0,-1.6642,0.25,9.5354,-0.0673,0.2824,-0.1254,-1.890698095361227,-0.02111128345131874,3.0032906532287598,-1.8620808124542236,0.2818209230899811,2.332855701446533,5.384100723057546,-0.001318093272857368,0.2566643953323364,-1.603849236165182,-0.0,-0.010428600013256073,0.7158228158950806,0.0003793829819187522,0.15193235874176025,0.8217521905899048,0.0023215122055262327,0.4909113645553589
404.0,407.0,-1.6642,0.25,9.5354,-0.0673,0.2824,-0.1254,-1.8909498653807582,-0.024505440145730972,3.0529818534851074,-1.8593218326568604,0.28843769431114197,2.329054355621338,5.384068715363302,-0.002731668995693326,0.2454618364572525,-1.603934113179342,-0.0,-0.0034056566655635834,0.7158786058425903,0.00027604529168456793,0.15159748494625092,0.8218002915382385,0.0018387814052402973,0.45205163955688477
404.0,407.0,-1.6642,0.25,9.5354,-0.0673,0.2824,-0.1254,-1.8911496601500453,-0.0275589432567358,2.98799729347229,-1.857014536857605,0.2859680950641632,2.321110248565674,5.384048568993368,-0.004496460314840078,0.2513139843940735,-1.6039016882525843,-0.0,-0.003297695890069008,0.7157946228981018,0.00026975825312547386,0.16840162873268127,0.8218042254447937,0.002456127665936947,0.49331969022750854
352.0,330.0,-1.8054,0.2614,9.0461,-0.0559,0.2914,-0.1203,-1.8913971386351527,-0.03009018488228321,3.0527443885803223,-1.854118824005127,0.29873916506767273,2.3063714504241943,5.384033071785726,-0.0038866454269737005,0.24192669987678528,-1.6039260069476526,-0.0,-0.011899076402187347,0.71587073802948,0.00045080974814482033,0.15728384256362915,0.8217841982841492,0.001878008828498423,0.4529836177825928
352.0,330.0,-1.8054,0.2614,9.0461,-0.0559,0.2914,-0.1203,-1.8917538128294886,-0.029789792373776436,3.06058406829834,-1.8511362075805664,0.2995944619178772,2.3345837593078613,5.383997070580282,-0.003481804160401225,0.2532309889793396,-1.6039016882525843,-0.0,-0.005092008039355278,0.7158627510070801,0.0017233685357496142,0.15992853045463562,0.8218404054641724,0.0009180352208204567,0.5051134824752808
352.0,330.0,-1.8054,0.2614,9.0461,-0.0559,0.2914,-0.1203,-1.8919807873167933,-0.03038257174193859,2.969435214996338,-1.8481804132461548,0.31147289276123047,2.3824639320373535,5.383989619999685,-0.0016325023025274277,0.24878384172916412,-1.6038535276996058,-0.0,0.0006759664975106716,0.7159192562103271,0.0034175750333815813,0.16815069317817688,0.8218323588371277,0.0006709449808113277,0.4699682295322418
352.0,330.0,-1.8054,0.2614,9.0461,-0.0559,0.2914,-0.1203,-1.892381330529684,-0.03414784371852875,2.9949252605438232,-1.8450835943222046,0.30230051279067993,2.3895809650421143,5.383860575943746,-0.0052207354456186295,0.2506004273891449,-1.6039097944842737,-0.0,-0.00626659020781517,0.7159148454666138,0.005299165844917297,0.17163187265396118,0.821872353553772,0.0037865550257265568,0.5395064353942871
352.0,330.0,-1.8054,0.2614,9.0461,-0.0559,0.2914,-0.1203,-1.8927175007262171,-0.035817500203847885,3.0131425857543945,-1.841933012008667,0.3083365559577942,2.2970683574676514,5.383893596916952,-0.0037332195788621902,0.2564237713813782,-1.603938404713766,-0.0,0.007450662087649107,0.7159866094589233,0.005760308355093002,0.16925203800201416,0.8219122290611267,0.004758381750434637,0.5175417065620422
352.0,330.0,-1.8054,0.2614,9.0461,-0.0559,0.2914,-0.1203,-1.8930565319456996,-0.0337153896689415,2.981663942337036,-1.8388707637786865,0.3050304353237152,2.327918529510498,5.383837389736929,-0.0023403684608638287,0.2510826289653778,-1.6038168112384241,-0.0,0.001577598974108696,0.7160106897354126,0.0032329463865607977,0.16672758758068085,0.8219520449638367,0.0060751852579414845,0.47926396131515503
352.0,330.0,-1.8054,0.2614,9.0461,-0.0559,0.2914,-0.1203,-1.8932963810362757,-0.035819754004478455,3.029642105102539,-1.836362361907959,0.304473876953125,2.334909677505493,5.383821296482839,-0.0016866459045559168,0.24121572077274323,-1.603905979787008,-0.0,-0.004520397167652845,0.7160140872001648,0.0019238231470808387,0.18844321370124817,0.8220121264457703,0.0073933107778429985,0.5295233726501465
352.0,330.0,-1.8054,0.2614,9.0461,-0.0559,0.2914,-0.1203,-1.8937121830382289,-0.04313303157687187,3.054442882537842,-1.8333086967468262,0.306365966796875,2.3097360134124756,5.383805382042684,-0.0009322406840510666,0.24159303307533264,-1.6039097944842737,-0.0,-0.014040026813745499,0.716090738773346,0.0015923385508358479,0.1848433017730713,0.8220926523208618,0.008918199688196182,0.5375443696975708
352.0,330.0,-1.8054,0.2614,9.0461,-0.0559,0.2914,-0.1203,-1.8941642246642054,-0.04626861959695816,3.020756244659424,-1.830277919769287,0.30707764625549316,2.339315891265869,5.383829343109884,-0.0006770684849470854,0.24679014086723328,-1.6039541403399866,-0.0,-0.0013742585433647037,0.7161349654197693,0.0031668171286582947,0.18242883682250977,0.8221444487571716,0.009084497578442097,0.5191828608512878
311.0,310.0,-2.071,1.4877,9.2225,-0.0318,0.2531,-0.0383,-1.8946153126158656,-0.04750478267669678,3.0259878635406494,-1.8272117376327515,0.31101030111312866,2.361119508743286,5.383781957417288,-0.0005522577557712793,0.255506306886673,-1.603877369557516,-0.0,-0.009593626484274864,0.7161508202552795,0.006101578939706087,0.18236127495765686,0.8222886919975281,0.010778503492474556,0.5528216361999512
311.0,310.0,-2.071,1.4877,9.2225,-0.0318,0.2531,-0.0383,-1.895139833489889,-0.050093065947294235,3.048041582107544,-1.8241305351257324,0.30730828642845154,2.346921920776367,5.383805501251974,-0.0006522877956740558,0.230403333902359,-1.6039217154132288,-0.0,-0.005750928074121475,0.7162667512893677,0.007345415651798248,0.17936550080776215,0.8224127888679504,0.013170885853469372,0.4756690561771393
311.0,310.0,-2.071,1.4877,9.2225,-0.0318,0.2531,-0.0383,-1.895679613152975,-0.05433649569749832,3.021895408630371,-1.8210828304290771,0.30575382709503174,2.3502135276794434,5.383793818741598,-0.00213284557685256,0.23441007733345032,-1.6038973967181605,-0.0,-0.018324270844459534,0.7163108587265015,0.00844800565391779,0.20353689789772034,0.8225693106651306,0.016247237101197243,0.5791804790496826
311.0,310.0,-2.071,1.4877,9.2225,-0.0318,0.2531,-0.0383,-1.89611878017568,-0.05959201231598854,3.0454392433166504,-1.8186312913894653,0.3032824397087097,2.3219194412231445,5.383781659394064,-0.002024603309109807,0.24318352341651917,-1.6039093176471155,-0.0,-0.0037574663292616606,0.7164146900177002,0.008855677209794521,0.19007959961891174,0.8226935267448425,0.01848619244992733,0.5329756140708923
311.0,310.0,-2.071,1.4877,9.2225,-0.0318,0.2531,-0.0383,-1.8967143497862757,-0.0680161714553833,3.0513691902160645,-1.8156449794769287,0.30213868618011475,2.372448444366455,5.38372169712142,-0.0008663127082400024,0.24088382720947266,-1.6039093176471155,-0.0,0.012403761968016624,0.7164826989173889,0.0109866913408041,0.19814586639404297,0.822869062423706,0.02084408327937126,0.5351032614707947
311.0,310.0,-2.071,1.4877,9.2225,-0.0318,0.2531,-0.0383,-1.897447248498434,-0.07450161129236221,3.0173139572143555,-1.812610149383545,0.299664169549942,2.3594424724578857,5.383821415692129,-0.0005870966124348342,0.23591966927051544,-1.603873078023092,-0.0,0.005743356421589851,0.71657794713974,0.01794300600886345,0.2080165445804596,0.8231493234634399,0.02297203801572323,0.5743048787117004
311.0,310.0,-2.071,1.4877,9.2225,-0.0318,0.2531,-0.0383,-1.8981934986510218,-0.07927311211824417,3.0160512924194336,-1.809506893157959,0.2970104515552521,2.3253297805786133,5.383709776192465,-0.0004003854119218886,0.23637734353542328,-1.603934113179342,-0.0,0.0005470738396979868,0.7169072031974792,0.03428323194384575,0.22092989087104797,0.8233578205108643,0.024378156289458275,0.5642678141593933
311.0,310.0,-2.071,1.4877,9.2225,-0.0318,0.2531,-0.0383,-1.8990937672057093,-0.08233264833688736,3.0183277130126953,-1.8066333532333374,0.2954792082309723,2.3170173168182373,5.383757817536154,-0.00033584260381758213,0.24925607442855835,-1.6038897673236292,7.16653005383705e-07,-0.008264124393463135,0.7174468040466309,0.08079522103071213,0.22700881958007812,0.8236256837844849,0.022994516417384148,0.5304815173149109
311.0,310.0,-2.071,1.4877,9.2225,-0.0318,0.2531,-0.0383,-1.8999010525145472,-0.07853598892688751,3.0479378700256348,-1.8036344051361084,0.2904401421546936,2.3861823081970215,5.38372569063262,-0.0002865833230316639,0.24467961490154266,-1.6039498488055628,8.504272047855921e-13,-1.0068528354167938e-05,0.7188519239425659,0.19489048421382904,0.2777656316757202,0.8238542675971985,0.02275344915688038,0.5488028526306152
311.0,310.0,-2.071,1.4877,9.2225,-0.0318,0.2531,-0.0383,-1.9007650814452113,-0.08247657120227814,3.023191452026367,-1.8008195161819458,0.28622084856033325,2.3594000339508057,5.383733737259664,-0.001913836575113237,0.23282285034656525,-1.603945557271139,1.009172548228729e-18,-0.009684208780527115,0.7212755680084229,0.26310762763023376,0.28803229331970215,0.8240981101989746,0.02068374492228031,0.5455173254013062
310.0,290.0,-2.7733,0.3458,8.3713,-0.0849,0.1599,0.6431,-1.901407857934469,-0.09472913295030594,3.001337766647339,-1.7986164093017578,0.2792677879333496,2.3604984283447266,5.383709895401754,-0.0030947409104555845,0.22509808838367462,-1.6039217154132288,1.834121010617121e-23,-0.0008016242645680904,0.7236396670341492,0.30641910433769226,0.31065553426742554,0.8241819739341736,0.01787460222840309,0.5958879590034485
310.0,290.0,-2.7733,0.3458,8.3713,-0.0849,0.1599,0.6431,-1.9023672542967738,-0.10525750368833542,2.9997482299804688,-1.7957608699798584,0.28044232726097107,2.3441808223724365,5.383689987450399,-0.0013936642790213227,0.23756639659404755,-1.6039741675006312,2.1764883144006005e-29,-0.006857344415038824,0.7271789312362671,0.3911602795124054,0.32519930601119995,0.8244103193283081,0.012637653388082981,0.536758303642273
310.0,290.0,-2.7733,0.3458,8.3713,-0.0849,0.1599,0.6431,-1.9034868679442347,-0.11247517168521881,3.04756498336792,-1.7929177284240723,0.28437358140945435,2.333624839782715,5.383713888912954,-0.00022325926693156362,0.2415727972984314,-1.6039260069476526,2.582763126848113e-35,-0.012982582673430443,0.7315599918365479,0.45139873027801514,0.35173994302749634,0.8244503140449524,0.0053892857395112514,0.5409694910049438
310.0,290.0,-2.7733,0.3458,8.3713,-0.0849,0.1599,0.6431,-1.9046861133971156,-0.1134411096572876,3.040470600128174,-1.7901477813720703,0.2908862233161926,2.337228298187256,5.383729743748464,-0.0001670921774348244,0.24586576223373413,-1.60392934480776,3.06492000117124e-41,-0.0018539840821176767,0.7365453243255615,0.545936644077301,0.3710755407810211,0.8245142698287964,0.0031855085399001837,0.5477721691131592
310.0,290.0,-2.7733,0.3458,8.3713,-0.0849,0.1599,0.6431,-1.905912538568014,-0.11458757519721985,3.068474769592285,-1.7872684001922607,0.28670328855514526,2.3542771339416504,5.38367377498702,-0.00030205107759684324,0.23220294713974,-1.6039417425738733,0.0,-0.013482438400387764,0.7423965334892273,0.6135462522506714,0.36378490924835205,0.824502170085907,0.0035316443536430597,0.5098745226860046
310.0,290.0,-2.7733,0.3458,8.3713,-0.0849,0.1599,0.6431,-1.9072042904295863,-0.1363823562860489,3.006063938140869,-1.784481167793274,0.2763364315032959,2.344231128692627,5.383629786759176,-0.004834887571632862,0.22027023136615753,-1.6039093176471155,0.0,-0.01401167269796133,0.7488217949867249,0.6695599555969238,0.3471129536628723,0.8245384693145752,0.0011961619602516294,0.5256080031394958
310.0,290.0,-2.7733,0.3458,8.3713,-0.0849,0.1599,0.6431,-1.9085833034911097,-0.1562238186597824,3.0776803493499756,-1.781805396080017,0.27146396040916443,2.299682140350342,5.3836500523384,-0.00164426164701581,0.23922407627105713,-1.6039260069476526,0.0,-0.011471744626760483,0.7559035420417786,0.7178977727890015,0.34388792514801025,0.8245143294334412,5.331093575478008e-07,0.4664763808250427
310.0,290.0,-2.7733,0.3458,8.3713,-0.0849,0.1599,0.6431,-1.9098230801024378,-0.15111730992794037,3.067812204360962,-1.77949059009552,0.27787765860557556,2.315138816833496,5.383666145592489,0.000551740697119385,0.23080657422542572,-1.6038935820208948,0.0,-0.015064663253724575,0.761715829372406,0.7553173303604126,0.3373413383960724,0.8244824409484863,-0.0029503065161406994,0.46169742941856384
310.0,290.0,-2.7733,0.3458,8.3713,-0.0849,0.1599,0.6431,-1.9113737545409144,-0.1363728642463684,3.047118663787842,-1.7766969203948975,0.2787410318851471,2.342101573944092,5.383666264801779,0.0002526232856325805,0.23032572865486145,-1.603938404713766,0.0,-0.016815975308418274,0.7693990468978882,0.7888794541358948,0.3137759864330292,0.8244864344596863,-0.0018848280888050795,0.40014636516571045
300.0,296.0,-1.8849,0.198,10.0134,-0.049,0.0906,0.5808,-1.9129444561400355,-0.15376144647598267,3.1235599517822266,-1.7739851474761963,0.2648986577987671,2.281064033508301,5.3836262104804895,8.467484491347932e-09,0.2391168475151062,-1.6039217154132288,0.0,-0.022660735994577408,0.7774129509925842,0.8124110102653503,0.30823200941085815,0.8244463205337524,0.00030469620833173394,0.3782937228679657
300.0,296.0,-1.8849,0.198,10.0134,-0.049,0.0906,0.5808,-1.9145800075926722,-0.17764319479465485,3.0914175510406494,-1.7713756561279297,0.2553425133228302,2.2849106788635254,5.383634018688955,-0.0005870669265277684,0.24222037196159363,-1.603905979787008,0.0,-0.009540775790810585,0.785466194152832,0.820529580116272,0.2731548845767975,0.8244622945785522,-0.0019713856745511293,0.35939261317253113
300.0,296.0,-1.8849,0.198,10.0134,-0.049,0.0906,0.5808,-1.9162422619261683,-0.17378699779510498,3.0857815742492676,-1.7687779664993286,0.25321441888809204,2.235291004180908,5.38368176200942,0.0004588130977936089,0.2567780613899231,-1.6038897673236292,0.0,-0.01334034837782383,0.7936975359916687,0.8074893951416016,0.24536137282848358,0.8244146108627319,-0.005281201563775539,0.3510516881942749
300.0,296.0,-1.8849,0.198,10.0134,-0.049,0.0906,0.5808,-1.9179617367186488,-0.15142002701759338,3.1401805877685547,-1.7662689685821533,0.2598206102848053,2.2433087825775146,5.383717942028799,0.0012803811114281416,0.24315890669822693,-1.6038935820208948,0.0,0.0027316445484757423,0.801704466342926,0.796869695186615,0.2521262466907501,0.8243342638015747,-0.005177952814847231,0.2728734016418457
300.0,296.0,-1.8849,0.198,10.0134,-0.049,0.0906,0.5808,-1.9192444286742152,-0.15931272506713867,3.091449737548828,-1.7642537355422974,0.2517346739768982,2.271627426147461,5.38359026887969,0.00044523211545310915,0.25820279121398926,-1.6039016882525843,0.0,0.0016257001552730799,0.8079169988632202,0.7754773497581482,0.23391032218933105,0.8243582248687744,-0.002704756800085306,0.1686575710773468
300.0,296.0,-1.8849,0.198,10.0134,-0.049,0.0906,0.5808,-1.9210030041136683,-0.18641532957553864,3.1793551445007324,-1.7618050575256348,0.24343517422676086,2.2607388496398926,5.3836978552635095,0.0002733078727032989,0.2639283835887909,-1.603905979787008,0.0,0.00779367983341217,0.815729022026062,0.7561872005462646,0.24521884322166443,0.8243622183799744,-0.0008236566209234297,0.20543134212493896
300.0,296.0,-1.8849,0.198,10.0134,-0.049,0.0906,0.5808,-1.9227057896056117,-0.18015047907829285,3.1356446743011475,-1.759350299835205,0.24354605376720428,2.20786714553833,5.383721875935354,5.788461567135528e-05,0.27566438913345337,-1.6038854757892054,2.055265213130042e-05,0.019323080778121948,0.8230711221694946,0.7301217913627625,0.2335679680109024,0.8242501020431519,-0.003835969837382436,0.19819718599319458
300.0,296.0,-1.8849,0.198,10.0134,-0.049,0.0906,0.5808,-1.924391885797018,-0.16356082260608673,3.212846279144287,-1.756948709487915,0.24296709895133972,2.2371628284454346,5.383717942028799,0.0005496187368407845,0.26401326060295105,-1.6038578192340296,8.475060297996606e-08,0.017569921910762787,0.8300961852073669,0.6978223323822021,0.21403750777244568,0.8241932988166809,-0.0052475943230092525,0.14690203964710236
300.0,296.0,-1.8849,0.198,10.0134,-0.049,0.0906,0.5808,-1.9260512791075648,-0.15963831543922424,3.2055716514587402,-1.7546271085739136,0.2434094101190567,2.217978000640869,5.3836380718048,0.00029210152570158243,0.272950679063797,-1.6038859526263636,1.0057059351975539e-13,0.023937713354825974,0.836816668510437,0.6596860885620117,0.20647218823432922,0.8242546916007996,-0.00349840777926147,0.044479478150606155
291.0,284.0,-2.1111,-0.125,9.0144,-0.0215,0.0461,0.0971,-1.9276939831175746,-0.17422959208488464,3.2278175354003906,-1.7522486448287964,0.22457905113697052,2.2145586013793945,5.383706021099844,0.00015580010949634016,0.27659839391708374,-1.6038249174701136,1.1934364130049895e-19,0.024449657648801804,0.843080461025238,0.6054283976554871,0.18791097402572632,0.8242062330245972,-0.0024202298372983932,0.0691010057926178
291.0,284.0,-2.1111,-0.125,9.0144,-0.0215,0.0461,0.0971,-1.9293610058226527,-0.18273571133613586,3.1936843395233154,-1.7500392198562622,0.22025200724601746,2.207780599594116,5.383650290756979,0.00015581965271849185,0.2779116928577423,-1.6038859526263636,1.4162094426309421e-25,0.0127114187926054,0.8488321304321289,0.5473626852035522,0.15406951308250427,0.8241623044013977,-0.0051868632435798645,0.01232901681214571
291.0,284.0,-2.1111,-0.125,9.0144,-0.0215,0.0461,0.0971,-1.9307605228819789,-0.16545216739177704,3.2139878273010254,-1.748215675354004,0.2158864140510559,2.217427968978882,5.383690047055044,4.772549800691195e-05,0.260174423456192,-1.6038172880755823,2.5738904543458043e-30,0.014806683175265789,0.8530764579772949,0.5217165350914001,0.1654505878686905,0.8241220712661743,-0.008316021412611008,0.0013848207890987396
291.0,284.0,-2.1111,-0.125,9.0144,-0.0215,0.0461,0.0971,-1.9323107204832972,-0.14852052927017212,3.2175698280334473,-1.746073603630066,0.21262241899967194,2.229043483734131,5.383730101376333,0.00011003216786775738,0.27109938859939575,-1.603882137929098,3.0543467222112374e-36,0.026563551276922226,0.8579500317573547,0.47691580653190613,0.14671660959720612,0.8240096569061279,-0.006026345770806074,0.020369358360767365
291.0,284.0,-2.1111,-0.125,9.0144,-0.0215,0.0461,0.0971,-1.933974405328268,-0.16723845899105072,3.2401270866394043,-1.7439464330673218,0.20097123086452484,2.162080764770508,5.383674132614889,2.1116642528795637e-05,0.2740558385848999,-1.603865925465719,3.625159127208302e-42,0.02700614556670189,0.8622762560844421,0.39586353302001953,0.09800554811954498,0.8240261077880859,-0.0022760990541428328,-0.014379081316292286
291.0,284.0,-2.1111,-0.125,9.0144,-0.0215,0.0461,0.0971,-1.9356733761229457,-0.18118330836296082,3.234281063079834,-1.7419806718826294,0.191013902425766,2.15155029296875,5.383685993939199,2.505838592181675e-11,0.2746671438217163,-1.6038826147662562,0.0001080441870726645,0.03367636352777481,0.8659881949424744,0.34983137249946594,0.08793683350086212,0.8239578008651733,-0.0029689494986087084,-0.016969764605164528
291.0,284.0,-2.1111,-0.125,9.0144,-0.0215,0.0461,0.0971,-1.9373723469176234,-0.15463517606258392,3.264848232269287,-1.7400532960891724,0.19442135095596313,2.1290693283081055,5.383693980961599,2.9735922102697217e-17,0.27411729097366333,-1.6038458983050745,0.00011595215619308874,0.026870768517255783,0.8690574765205383,0.25606292486190796,0.02012966386973858,0.8239099383354187,-0.005057877860963345,-0.05499570444226265
291.0,284.0,-2.1111,-0.125,9.0144,-0.0215,0.0461,0.0971,-1.9389664135374964,-0.16107133030891418,3.229921817779541,-1.7381703853607178,0.18624484539031982,2.1878011226654053,5.383670317917623,3.5286590793982634e-23,0.27191296219825745,-1.603849236165182,0.00010471228597452864,0.02999657392501831,0.8713610172271729,0.21067138016223907,0.01877775974571705,0.8238937258720398,-0.0046369051560759544,-0.08031049370765686
291.0,284.0,-2.1111,-0.125,9.0144,-0.0215,0.0461,0.0971,-1.9403816662230433,-0.18301478028297424,3.1843416690826416,-1.7367533445358276,0.17989088594913483,2.144319534301758,5.383674132614889,6.413163751464779e-28,0.27305254340171814,-1.6039140860186976,0.000109194363176357,0.027428973466157913,0.872532844543457,0.12287019193172455,-0.03497299179434776,0.8238939046859741,-0.0021151399705559015,-0.028139565140008926
291.0,284.0,-2.1111,-0.125,9.0144,-0.0215,0.0461,0.0971,-1.9422484836974085,-0.18249283730983734,3.2563133239746094,-1.7348989248275757,0.18488334119319916,2.1229827404022217,5.383678126126089,7.6102789969181105e-34,0.2594717741012573,-1.6038458983050745,0.00011504205758683383,0.03497614711523056,0.8733789920806885,0.060185328125953674,-0.050392426550388336,0.8237655758857727,-0.005083291791379452,-0.07022558152675629
265.0,284.0,-2.1176,0.463,9.393,-0.0243,0.0067,-0.1323,-1.9440270862975062,-0.17294281721115112,3.2499547004699707,-1.7330108880996704,0.17899173498153687,2.136249542236328,5.383666264801779,9.030850122141646e-40,0.26598960161209106,-1.6038416067706507,0.00010980602382915094,0.04112955927848816,0.8736018538475037,-0.003476445097476244,-0.06444340944290161,0.8237578272819519,-0.007447562646120787,-0.06921748071908951
265.0,284.0,-2.1176,0.463,9.393,-0.0243,0.0067,-0.1323,-1.9458371601500453,-0.18470646440982819,3.2053723335266113,-1.7312958240509033,0.1788533627986908,2.1428864002227783,5.383617329388418,-9.923058678396046e-05,0.27027201652526855,-1.603797737752096,0.0001418506435584277,0.02313528209924698,0.873462438583374,-0.024081742390990257,-0.08287787437438965,0.8237376809120178,-0.004615315701812506,-0.058433786034584045
265.0,284.0,-2.1176,0.463,9.393,-0.0243,0.0067,-0.1323,-1.947756906548971,-0.1921895444393158,3.275704860687256,-1.7295973300933838,0.17860417068004608,2.1559531688690186,5.3836861727531335,-0.0006539398455061018,0.2599243223667145,-1.603809658681051,0.00012477573181968182,0.040192730724811554,0.8733381628990173,-0.007829833775758743,-0.0863647609949112,0.8236736059188843,-0.00443017715588212,-0.15012118220329285
265.0,284.0,-2.1176,0.463,9.393,-0.0243,0.0067,-0.1323,-1.949611326257223,-0.18747267127037048,3.177095413208008,-1.727761149406433,0.17854928970336914,2.136672258377075,5.383662211685934,-0.00040730464388616383,0.25938504934310913,-1.6038015524493616,0.00013149823644198477,0.035266391932964325,0.873306155204773,0.002116153948009014,-0.08427443355321884,0.8235772848129272,-0.006097028031945229,-0.09124577790498734
265.0,284.0,-2.1176,0.463,9.393,-0.0243,0.0067,-0.1323,-1.9515053234496058,-0.19054700434207916,3.2142889499664307,-1.7260862588882446,0.17795635759830475,2.1331043243408203,5.383670317917623,-0.0002957174147013575,0.2509082853794098,-1.6038578192340296,0.00013675673108082265,0.02870720997452736,0.8733583092689514,0.0006359175313264132,-0.06214524805545807,0.8236055374145508,-0.004679728299379349,-0.12994305789470673
265.0,284.0,-2.1176,0.463,9.393,-0.0243,0.0067,-0.1323,-1.9530250034727992,-0.1888359934091568,3.1980340480804443,-1.7246335744857788,0.18276448547840118,2.140374183654785,5.3836540458496,-0.000282944121863693,0.24405592679977417,-1.6038339773761194,0.00012583543139044195,0.03143753483891487,0.8733303546905518,0.00040596307371743023,-0.06387577205896378,0.8235576152801514,-0.003359355730935931,-0.13342392444610596
265.0,284.0,-2.1176,0.463,9.393,-0.0243,0.0067,-0.1323,-1.9548784695067347,-0.19503182172775269,3.2600045204162598,-1.722730278968811,0.18235833942890167,2.1740336418151855,5.383645999222555,-0.00026394298765808344,0.2559756934642792,-1.6038296858416956,0.00011440915841376409,0.04643966630101204,0.8733225464820862,0.0003351070045027882,-0.060942843556404114,0.823541522026062,-0.0017832587473094463,-0.10219691693782806
265.0,284.0,-2.1176,0.463,9.393,-0.0243,0.0067,-0.1323,-1.9567944012083949,-0.19627974927425385,3.2312164306640625,-1.720947027206421,0.17690232396125793,2.1335740089416504,5.383638191014089,-0.00016810577653814107,0.24328172206878662,-1.603797737752096,0.0001198689205921255,0.031722407788038254,0.8733102679252625,0.0002560354769229889,-0.052506785839796066,0.8235455751419067,-0.0014751736307516694,-0.1693388819694519
265.0,284.0,-2.1176,0.463,9.393,-0.0243,0.0067,-0.1323,-1.9586602650084437,-0.19362692534923553,3.2921383380889893,-1.719143271446228,0.17916741967201233,2.164762496948242,5.383650171547689,-0.00018380257824901491,0.24130074679851532,-1.603837792073385,0.00011065747821703553,0.03295128047466278,0.8733265995979309,0.00020695975399576128,-0.06219768524169922,0.8234653472900391,-0.0030071502551436424,-0.1195627897977829
257.0,268.0,-2.3007,0.3039,9.7843,-0.0438,-0.0026,-0.1294,-1.9606553516783656,-0.19958066940307617,3.2852492332458496,-1.7173562049865723,0.18078677356243134,2.131281614303589,5.383574056416311,-0.00017133502115029842,0.24611160159111023,-1.6038296858416956,0.00011290975817246363,0.041684068739414215,0.8733184337615967,0.00017367411055602133,-0.05978432297706604,0.823461651802063,-0.003497466677799821,-0.14978834986686707
257.0,268.0,-2.3007,0.3039,9.7843,-0.0438,-0.0026,-0.1294,-1.9626532993712367,-0.19221800565719604,3.3228516578674316,-1.7155070304870605,0.18142098188400269,2.155449390411377,5.383638131409445,-0.0001508246350567788,0.2514994740486145,-1.6038253943072718,0.00010032918362412602,0.04976744204759598,0.8733583092689514,0.00014961278066039085,-0.05257830768823624,0.8234135508537292,-0.004661646671593189,-0.13914936780929565
257.0,268.0,-2.3007,0.3039,9.7843,-0.0438,-0.0026,-0.1294,-1.9641500912108363,-0.19427484273910522,3.27335262298584,-1.714043140411377,0.18223898112773895,2.1295862197875977,5.3836500523384,-0.00015663921658415347,0.21903300285339355,-1.6038339773761194,0.0001099127548513934,0.04176657646894455,0.8733665347099304,0.00013468501856550574,-0.04891308397054672,0.8233534693717957,-0.006465091370046139,-0.1431228667497635
257.0,268.0,-2.3007,0.3039,9.7843,-0.0438,-0.0026,-0.1294,-1.9662109814085902,-0.21429258584976196,3.274721145629883,-1.7122710943222046,0.17641913890838623,2.1430227756500244,5.383642065316,-0.0002244272327516228,0.23422354459762573,-1.6038177649127405,0.00010027366079157218,0.04752219468355179,0.8733466863632202,0.0001197502133436501,-0.06353160738945007,0.8232493996620178,-0.008386416360735893,-0.13761426508426666
257.0,268.0,-2.3007,0.3039,9.7843,-0.0438,-0.0026,-0.1294,-1.9683200321593226,-0.20059160888195038,3.315288782119751,-1.710435152053833,0.1871681660413742,2.192082405090332,5.3836421249206445,-0.0001991725730476901,0.23148322105407715,-1.6037653128253382,0.00010704673331929371,0.03658979758620262,0.8733303546905518,0.00010779727745102718,-0.0457235649228096,0.8231933116912842,-0.009037992917001247,-0.19679059088230133
257.0,268.0,-2.3007,0.3039,9.7843,-0.0438,-0.0026,-0.1294,-1.9704495869078578,-0.2021246999502182,3.3091306686401367,-1.7085627317428589,0.1868905872106552,2.188620090484619,5.38359825590209,-0.0001922464871313423,0.23444724082946777,-1.6037934462176722,0.00011275122233200818,0.03979078680276871,0.8733344674110413,9.80139448074624e-05,-0.06215416640043259,0.8231092691421509,-0.008686420507729053,-0.11329695582389832
257.0,268.0,-2.3007,0.3039,9.7843,-0.0438,-0.0026,-0.1294,-1.9725858173766078,-0.22094428539276123,3.2369813919067383,-1.7066988945007324,0.1868801712989807,2.164130449295044,5.383618283062734,-0.00018901852308772504,0.24210697412490845,-1.6038344542132776,0.00010457089229021221,0.04351373761892319,0.8733665943145752,8.98587386473082e-05,-0.05426342040300369,0.8229971528053284,-0.007697370834648609,-0.15664875507354736
257.0,268.0,-2.3007,0.3039,9.7843,-0.0438,-0.0026,-0.1294,-1.974774023095602,-0.21002142131328583,3.3208916187286377,-1.7047946453094482,0.19663579761981964,2.153393507003784,5.383674311428823,-0.0001497084303991869,0.2294287383556366,-1.6037614981280726,9.749118908075616e-05,0.043178003281354904,0.873306155204773,9.321942343376577e-05,-0.04863481968641281,0.822917103767395,-0.009320810437202454,-0.14793826639652252
257.0,268.0,-2.3007,0.3039,9.7843,-0.0438,-0.0026,-0.1294,-1.9769469700255335,-0.21837185323238373,3.2937092781066895,-1.7028634548187256,0.20280256867408752,2.200529098510742,5.383657979756155,-8.900118700694293e-05,0.22710923850536346,-1.6038215796100062,9.130937542067841e-05,0.0474618524312973,0.8733504414558411,8.9876280981116e-05,-0.03310484439134598,0.8227928876876831,-0.009879031218588352,-0.17596948146820068
257.0,268.0,-2.3007,0.3039,9.7843,-0.0438,-0.0026,-0.1294,-1.9786683521666468,-0.2245495468378067,3.28955340385437,-1.7011867761611938,0.20001237094402313,2.2229855060577393,5.383682238846578,-6.561054033227265e-05,0.22120565176010132,-1.6037934462176722,8.690113463671878e-05,0.044732604175806046,0.8733463883399963,8.502434502588585e-05,-0.03982158005237579,0.8227649331092834,-0.008175629191100597,-0.16151636838912964
256.0,261.0,-2.0441,0.5838,9.7167,-0.009,0.0854,-0.1396,-1.980868478814596,-0.21644359827041626,3.2918286323547363,-1.6991267204284668,0.2129998356103897,2.1962668895721436,5.3836262104804895,-5.549499474000186e-05,0.23146295547485352,-1.6037853399859827,8.195529517251998e-05,0.03806310147047043,0.8733950257301331,7.96495660324581e-05,-0.060621704906225204,0.8226930499076843,-0.007795561570674181,-0.13370326161384583
256.0,261.0,-2.0441,0.5838,9.7167,-0.009,0.0854,-0.1396,-1.9830495319762171,-0.21910887956619263,3.3355369567871094,-1.696982741355896,0.2178175002336502,2.1930460929870605,5.383642184525289,-7.21226679161191e-05,0.22322554886341095,-1.603797737752096,1.712489847705001e-07,0.02537750080227852,0.8733624219894409,7.491395808756351e-05,-0.05590108782052994,0.8226778507232666,-0.00788846518844366,-0.1154932975769043
256.0,261.0,-2.0441,0.5838,9.7167,-0.009,0.0854,-0.1396,-1.9852143726744593,-0.2116103172302246,3.372467041015625,-1.69473397731781,0.22849231958389282,2.219419479370117,5.383614170342245,-6.362520798575133e-05,0.22960227727890015,-1.6038101355182093,2.0321522513789408e-13,0.023467205464839935,0.8733262419700623,8.07672695373185e-05,-0.04786352068185806,0.8225368857383728,-0.008426330983638763,-0.15230964124202728
256.0,261.0,-2.0441,0.5838,9.7167,-0.009,0.0854,-0.1396,-1.9873434505858363,-0.20855927467346191,3.346735954284668,-1.6924304962158203,0.23972584307193756,2.205965518951416,5.3835622546966455,-0.00020642725576180965,0.21725529432296753,-1.6038339773761194,2.41148480965467e-19,0.02375156804919243,0.8733188509941101,5.652586843041263e-09,-0.04865042865276337,0.8225133419036865,-0.009436880238354206,-0.12264649569988251
256.0,261.0,-2.0441,0.5838,9.7167,-0.009,0.0854,-0.1396,-1.9892999134459437,-0.20373152196407318,3.375033140182495,-1.6900346279144287,0.23717285692691803,2.1900570392608643,5.383590209275045,-0.0009766905568540096,0.22983083128929138,-1.6037853399859827,2.8616254742015607e-25,0.02668040618300438,0.8733623623847961,6.707728024689689e-15,-0.04836901277303696,0.8223281502723694,-0.00951378419995308,-0.18213115632534027
256.0,261.0,-2.0441,0.5838,9.7167,-0.009,0.0854,-0.1396,-1.9913250408568324,-0.20784075558185577,3.3455071449279785,-1.6875381469726562,0.2484343945980072,2.2482950687408447,5.3835821626480005,-0.0005741611239500344,0.22507914900779724,-1.603753391896383,3.395792060740181e-31,0.0384163074195385,0.8733422756195068,7.95982817203994e-21,-0.04638984799385071,0.8222165107727051,-0.01142154447734356,-0.12488657236099243
256.0,261.0,-2.0441,0.5838,9.7167,-0.009,0.0854,-0.1396,-1.9929028950133265,-0.19708913564682007,3.360847234725952,-1.685554027557373,0.2481071501970291,2.208486318588257,5.383594023972311,-0.00042067209142260253,0.21995370090007782,-1.6038182417498987,5.634696935885586e-05,0.046665504574775696,0.8733382225036621,1.4466593503129567e-25,-0.03291966766119003,0.8221485614776611,-0.014069066382944584,-0.1837119311094284
