ramyac6/ROB537/final_project/csv/all/good_191.csv
tof_0,tof_1,accelx,accely,accelz,gyrox,gyroy,gyroz,shoulder_lift_joint_position,shoulder_lift_joint_velocity,shoulder_lift_joint_effort,elbow_joint_position,elbow_joint_velocity,elbow_joint_effort,wrist_1_joint_position,wrist_1_joint_velocity,wrist_1_joint_effort,wrist_2_joint_position,wrist_2_joint_velocity,wrist_2_joint_effort,wrist_3_joint_position,wrist_3_joint_velocity,wrist_3_joint_effort,shoulder_pan_joint_position,shoulder_pan_joint_velocity,shoulder_pan_joint_effort
903.0,8190.0,1.9358,-0.3464,9.1436,-0.0264,0.0249,-0.1246,-1.5445218135467549,0.0,1.9646213054656982,-1.9483160972595215,-0.0,2.0942630767822266,4.755715119629659,0.0,0.28008052706718445,-1.5969136396991175,0.0,-0.011399243026971817,0.967921793460846,-0.0,-0.00936422310769558,0.7731865048408508,0.0,0.01759740151464939
903.0,8190.0,1.9358,-0.3464,9.1436,-0.0264,0.0249,-0.1246,-1.5444814146361132,0.0,1.9667930603027344,-1.9483201503753662,-0.0,2.075019121170044,4.755739158927955,0.0,0.29693669080734253,-1.5969179312335413,0.0,-0.00928078219294548,0.9679259657859802,-0.0,-0.0007347998907789588,0.7732143998146057,0.0,0.0030734653118997812
903.0,8190.0,1.9358,-0.3464,9.1436,-0.0264,0.0249,-0.1246,-1.5444855720600863,0.0,1.9811018705368042,-1.9483481645584106,-0.0,2.040727376937866,4.755719843297758,0.0,0.28459179401397705,-1.5968812147723597,0.0,-0.007359972223639488,0.967897355556488,-0.0,-0.005482448264956474,0.773166298866272,0.0,-0.0015163552016019821
903.0,8190.0,1.9358,-0.3464,9.1436,-0.0264,0.0249,-0.1246,-1.5445099373212834,0.0,1.956613302230835,-1.9482511281967163,-0.0,2.051520824432373,4.755695207953014,0.0,0.28392669558525085,-1.596961800252096,0.0,-0.013112470507621765,0.9678939580917358,-0.0,0.0008963288855738938,0.7731986045837402,0.0,0.02931435965001583
903.0,8190.0,1.9358,-0.3464,9.1436,-0.0264,0.0249,-0.1246,-1.544461579327919,0.0,1.9410240650177002,-1.9482955932617188,-0.0,2.0916531085968018,4.755715082376756,0.0,0.29813456535339355,-1.5969060103045862,0.0,-0.00511469691991806,0.9678536057472229,-0.0,-0.007852546870708466,0.7731822729110718,0.0,-0.020292941480875015
903.0,8190.0,1.9358,-0.3464,9.1436,-0.0264,0.0249,-0.1246,-1.5445139848491927,0.0,2.001316547393799,-1.9482831954956055,-0.0,2.0831055641174316,4.7557109137769125,0.0,0.2977678179740906,-1.5969417730914515,0.0,-0.008424896746873856,0.9679456949234009,-0.0,-0.0039041023701429367,0.7732143402099609,0.0,0.025685306638479233
903.0,8190.0,1.9358,-0.3464,9.1436,-0.0264,0.0249,-0.1246,-1.5445099093816061,0.0,1.996180772781372,-1.948339819908142,-0.0,2.0867273807525635,4.7556953122611425,0.0,0.29967835545539856,-1.596921745930807,0.0,-0.005702979862689972,0.9679538011550903,-0.0,0.001245201681740582,0.7731863856315613,0.0,0.00812285952270031
854.0,867.0,2.0297,-0.3535,9.2806,-0.0371,0.015,-0.1199,-1.5445135210505505,0.0,1.97894287109375,-1.9482511281967163,-0.0,2.088235378265381,4.755731410324135,0.0,0.3015635907649994,-1.5969060103045862,0.0,0.004889958538115025,0.9679138660430908,-0.0,-0.00793630164116621,0.7731622457504272,0.0,-0.0013937747571617365
854.0,867.0,2.0297,-0.3535,9.2806,-0.0371,0.015,-0.1199,-1.5444698066315432,0.0,1.9439780712127686,-1.9482914209365845,-0.0,2.0824105739593506,4.755683063506641,0.0,0.30312639474868774,-1.596961800252096,0.0,-0.003585511352866888,0.9679378867149353,-0.0,0.00597217446193099,0.7732307314872742,0.0,0.01996859908103943
854.0,867.0,2.0297,-0.3535,9.2806,-0.0371,0.015,-0.1199,-1.5444813941470166,0.0,1.9661586284637451,-1.9483275413513184,-0.0,2.0643932819366455,4.755663390248575,0.0,0.2986762523651123,-1.5969222227679651,0.0,-0.006035081576555967,0.9679257869720459,-0.0,-0.018160942941904068,0.773166298866272,0.0,-0.0033637182787060738
854.0,867.0,2.0297,-0.3535,9.2806,-0.0371,0.015,-0.1199,-1.5445098926177998,0.0,1.9525022506713867,-1.9483160972595215,-0.0,2.067413091659546,4.755715097277918,0.0,0.29684174060821533,-1.5968812147723597,0.0,-0.009949127212166786,0.9679138660430908,-0.0,-0.0009726330172270536,0.7732068300247192,0.0,-0.0013958007330074906
854.0,867.0,2.0297,-0.3535,9.2806,-0.0371,0.015,-0.1199,-1.5444895972362538,0.0,1.970692753791809,-1.9483038187026978,-0.0,2.0651917457580566,4.755731436401167,0.0,0.29573896527290344,-1.5969255606280726,0.0,0.0009627658873796463,0.9679616689682007,-0.0,-0.003795771161094308,0.7732188105583191,0.0,0.016658585518598557
854.0,867.0,2.0297,-0.3535,9.2806,-0.0371,0.015,-0.1199,-1.544485918512084,0.0,1.9662370681762695,-1.9482996463775635,-0.0,2.0924012660980225,4.755683409958639,0.0,0.29909151792526245,-1.596961800252096,0.0,-0.010652268305420876,0.9679816365242004,-0.0,-0.0034571110736578703,0.773190438747406,0.0,-0.020979516208171844
854.0,867.0,2.0297,-0.3535,9.2806,-0.0371,0.015,-0.1199,-1.544485557158925,0.0,1.935308575630188,-1.948344111442566,-0.0,2.088542938232422,4.755723169981994,0.0,0.30438295006752014,-1.5969255606280726,0.0,-0.01107429526746273,0.9679058790206909,-0.0,-0.0025208035949617624,0.7732027769088745,0.0,0.01596687361598015
854.0,867.0,2.0297,-0.3535,9.2806,-0.0371,0.015,-0.1199,-1.5445099615356703,0.0,1.968658208847046,-1.9483120441436768,-0.0,2.101595640182495,4.7557273274059675,0.0,0.2769012749195099,-1.5969341436969202,0.0,-0.006487755104899406,0.9678575396537781,-0.0,0.004861144348978996,0.7732349038124084,0.0,-0.03593279421329498
854.0,867.0,2.0297,-0.3535,9.2806,-0.0371,0.015,-0.1199,-1.5445259393057604,0.0,1.9585013389587402,-1.948331594467163,-0.0,2.0389575958251953,4.755739166378536,0.0,0.30364903807640076,-1.5969379583941858,0.0,-0.0073758820071816444,0.9679496884346008,-0.0,-0.003519556252285838,0.773186445236206,0.0,0.02346198260784149
854.0,867.0,2.0297,-0.3535,9.2806,-0.0371,0.015,-0.1199,-1.544465671559312,0.0,1.9618644714355469,-1.9483120441436768,-0.0,2.1021475791931152,4.755707490235128,0.0,0.3006533086299896,-1.5969379583941858,0.0,-0.0068397074937820435,0.967949628829956,-0.0,-0.006006797309964895,0.7731986045837402,0.0,0.050730347633361816
854.0,867.0,2.0297,-0.3535,9.2806,-0.0371,0.015,-0.1199,-1.544489673604705,0.0,1.9474596977233887,-1.9483036994934082,-0.0,2.0993423461914062,4.755687176227131,0.0,0.29899725317955017,-1.5969660917865198,0.0,-0.016118552535772324,0.9679537415504456,-0.0,-0.004721598234027624,0.7732185125350952,0.0,0.022162219509482384
854.0,867.0,2.0297,-0.3535,9.2806,-0.0371,0.015,-0.1199,-1.5444859762540837,0.0,1.9579038619995117,-1.9483275413513184,-0.0,2.0686469078063965,4.755735169142046,0.0,0.2972467839717865,-1.5969460646258753,0.0,-0.005349968560039997,0.9679098725318909,-0.0,0.0016483061481267214,0.7732105255126953,0.0,0.046105511486530304
854.0,867.0,2.0297,-0.3535,9.2806,-0.0371,0.015,-0.1199,-1.5445057575455685,0.0,1.9773882627487183,-1.9482355117797852,-0.0,2.083397626876831,4.755691173463621,0.0,0.3002520501613617,-1.5969260374652308,0.0,-0.000878356397151947,0.9678496718406677,-0.0,-0.00042567960917949677,0.7732068300247192,0.0,0.009731179103255272
888.0,931.0,2.0046,-0.3936,9.2776,-0.0385,0.0188,-0.1243,-1.544461603542306,0.0,1.975599765777588,-1.9482841491699219,-0.0,2.1192126274108887,4.755739173829117,0.0,0.292192667722702,-1.596893612538473,0.0,-0.006905674934387207,0.9679014682769775,-0.0,0.005583637394011021,0.7731704115867615,0.0,0.046276286244392395
888.0,931.0,2.0046,-0.3936,9.2776,-0.0385,0.0188,-0.1243,-1.5444736269167443,0.0,1.991858959197998,-1.9483078718185425,-0.0,2.1099355220794678,4.755719165294924,0.0,0.28893202543258667,-1.5969341436969202,0.0,-0.008620425127446651,0.967921793460846,-0.0,-0.009766336530447006,0.7731822729110718,0.0,-0.009782013483345509
888.0,931.0,2.0046,-0.3936,9.2776,-0.0385,0.0188,-0.1243,-1.544501968925335,0.0,1.9533488750457764,-1.9482759237289429,-0.0,2.099838972091675,4.755667022406616,0.0,0.2897922396659851,-1.5969379583941858,0.0,-0.006283038295805454,0.967897355556488,-0.0,0.012317530810832977,0.773186445236206,0.0,-0.0119259562343359
888.0,931.0,2.0046,-0.3936,9.2776,-0.0385,0.0188,-0.1243,-1.5444777694395562,0.0,2.0081863403320312,-1.9483563899993896,-0.0,2.0824875831604004,4.755731402873554,0.0,0.2970770597457886,-1.5969341436969202,0.0,-0.02141563966870308,0.9679014682769775,-0.0,0.00931622739881277,0.773166298866272,0.0,-0.0371091403067112
888.0,931.0,2.0046,-0.3936,9.2776,-0.0385,0.0188,-0.1243,-1.5445379217020054,0.0,1.9712066650390625,-1.9483119249343872,-0.0,2.0943894386291504,4.755703485548057,0.0,0.2944452464580536,-1.5969098250018519,0.0,-0.012818101793527603,0.9679456353187561,-0.0,0.002876667305827141,0.7732389569282532,0.0,0.006939557380974293
888.0,931.0,2.0046,-0.3936,9.2776,-0.0385,0.0188,-0.1243,-1.5445181031576176,0.0,2.002326011657715,-1.948323369026184,-0.0,2.1056652069091797,4.755719180196085,0.0,0.2920823097229004,-1.596877400075094,0.0,-0.0035556023940443993,0.967881441116333,-0.0,0.003964719362556934,0.7732027769088745,0.0,-0.035831011831760406
888.0,931.0,2.0046,-0.3936,9.2776,-0.0385,0.0188,-0.1243,-1.5445217930576582,0.0,1.9904999732971191,-1.9482955932617188,-0.0,2.078841209411621,4.7557352250214,0.0,0.29798370599746704,-1.596917454396383,0.0,-0.0032025089021772146,0.967937707901001,-0.0,0.007360479328781366,0.7732467651367188,0.0,-0.00023088138550519943
888.0,931.0,2.0046,-0.3936,9.2776,-0.0385,0.0188,-0.1243,-1.5445177120021363,0.0,1.9656689167022705,-1.9482593536376953,-0.0,2.0738439559936523,4.755743323802509,0.0,0.3013605773448944,-1.5969298521624964,0.0,-0.0046463883481919765,0.9679417610168457,-0.0,-0.006093632895499468,0.7731625437736511,0.0,-0.021006576716899872
888.0,931.0,2.0046,-0.3936,9.2776,-0.0385,0.0188,-0.1243,-1.544461627756693,0.0,1.994869589805603,-1.9483160972595215,-0.0,2.106367349624634,4.755711647659101,0.0,0.2911469638347626,-1.596961800252096,0.0,-0.004700288642197847,0.9679257869720459,-0.0,-0.010017774067819118,0.773178219795227,0.0,0.031812697649002075
888.0,931.0,2.0046,-0.3936,9.2776,-0.0385,0.0188,-0.1243,-1.5444855161807318,0.0,1.989427089691162,-1.9483120441436768,-0.0,2.069680690765381,4.75569116601304,0.0,0.29973679780960083,-1.5969017187701624,0.0,-0.008434067480266094,0.9679178595542908,-0.0,-0.0061224219389259815,0.7732068300247192,0.0,-0.07289008796215057
888.0,931.0,2.0046,-0.3936,9.2776,-0.0385,0.0188,-0.1243,-1.5445016858032723,0.0,1.978804111480713,-1.9483201503753662,-0.0,2.0498287677764893,4.755719172745504,0.0,0.29068559408187866,-1.5969460646258753,0.0,-0.002503231866285205,0.9679496884346008,-0.0,-0.006999047473073006,0.7732027173042297,0.0,0.03649096190929413
888.0,931.0,2.0046,-0.3936,9.2776,-0.0385,0.0188,-0.1243,-1.5445181813887139,0.0,1.9596933126449585,-1.9483036994934082,-0.0,2.0833208560943604,4.755699417531051,0.0,0.30176693201065063,-1.5969098250018519,0.0,0.0002492739586159587,0.9679456353187561,-0.0,-0.006833890452980995,0.7731986045837402,0.0,-0.0020623563323169947
888.0,931.0,2.0046,-0.3936,9.2776,-0.0385,0.0188,-0.1243,-1.5445259057781477,0.0,1.9931309223175049,-1.9483160972595215,-0.0,2.096282720565796,4.755710936128654,0.0,0.296040415763855,-1.5968979040728968,0.0,-0.00864754430949688,0.9679059386253357,-0.0,0.0017157546244561672,0.7732185125350952,0.0,-0.02212759107351303
8190.0,872.0,2.1278,-0.2967,9.1789,-0.0391,0.0185,-0.1179,-1.5445057575455685,0.0,1.9811980724334717,-1.9483201503753662,-0.0,2.0534112453460693,4.7557074567075155,0.0,0.29411664605140686,-1.5969460646258753,0.0,-0.01173072587698698,0.9678815007209778,-0.0,-0.0020465757697820663,0.773198664188385,0.0,-0.02881045453250408
8190.0,872.0,2.1278,-0.2967,9.1789,-0.0391,0.0185,-0.1179,-1.544514001612999,0.0,1.9709525108337402,-1.948291301727295,-0.0,2.103107213973999,4.75569115856246,0.0,0.30497074127197266,-1.5969417730914515,0.0,0.003007211722433567,0.9679059386253357,-0.0,0.004716793540865183,0.7731823325157166,0.0,0.010943189263343811
8190.0,872.0,2.1278,-0.2967,9.1789,-0.0391,0.0185,-0.1179,-1.544453739454486,0.0,1.9666492938995361,-1.948323369026184,-0.0,2.120856761932373,4.755731119751491,0.0,0.29281264543533325,-1.5969255606280726,0.0,-0.01000206172466278,0.9679257869720459,-0.0,0.016796501353383064,0.7731707096099854,0.0,-0.046416424214839935
8190.0,872.0,2.1278,-0.2967,9.1789,-0.0391,0.0185,-0.1179,-1.544477741499879,0.0,2.0007572174072266,-1.9483036994934082,-0.0,2.096489906311035,4.75569528245882,0.0,0.30120155215263367,-1.5969379583941858,0.0,-0.003361236536875367,0.9679417014122009,-0.0,0.0017886145506054163,0.7731781601905823,0.0,-0.04401084780693054
8190.0,872.0,2.1278,-0.2967,9.1789,-0.0391,0.0185,-0.1179,-1.5444855720600863,0.0,1.9706071615219116,-1.9483078718185425,-0.0,2.080430746078491,4.755755483150043,0.0,0.2992018163204193,-1.5969222227679651,0.0,0.0031283895950764418,0.9679338335990906,-0.0,0.010447430424392223,0.773222804069519,0.0,0.02108718268573284
8190.0,872.0,2.1278,-0.2967,9.1789,-0.0391,0.0185,-0.1179,-1.5444533352604886,0.0,1.9753048419952393,-1.948331594467163,-0.0,2.106086492538452,4.755723151355543,0.0,0.3033720552921295,-1.5968855063067835,0.0,-0.0019071681890636683,0.9678980112075806,-0.0,-0.0001978347427211702,0.7731945514678955,0.0,0.021847130730748177
8190.0,872.0,2.1278,-0.2967,9.1789,-0.0391,0.0185,-0.1179,-1.544493743484356,0.0,1.980497121810913,-1.9483078718185425,-0.0,2.088165521621704,4.755675240397014,0.0,0.29376980662345886,-1.5969460646258753,0.0,-0.0070859394036233425,0.9679219126701355,-0.0,0.011956356465816498,0.7731986045837402,0.0,0.02393491379916668
8190.0,872.0,2.1278,-0.2967,9.1789,-0.0391,0.0185,-0.1179,-1.5444937509349366,0.0,1.9414973258972168,-1.9483275413513184,-0.0,2.081451892852783,4.755695260107078,0.0,0.29754382371902466,-1.5969422499286097,0.0,-0.008401072584092617,0.967853844165802,-0.0,-0.003899029456079006,0.7731700539588928,0.0,0.029424749314785004
8190.0,872.0,2.1278,-0.2967,9.1789,-0.0391,0.0185,-0.1179,-1.5445057836226006,0.0,1.9353841543197632,-1.948367714881897,-0.0,2.1062958240509033,4.755723177432575,0.0,0.29367032647132874,-1.5968893210040491,0.0,-3.316998481750488e-05,0.9679416418075562,-0.0,-0.0057621849700808525,0.7731986045837402,0.0,0.0023017465136945248
8190.0,872.0,2.1278,-0.2967,9.1789,-0.0391,0.0185,-0.1179,-1.5444855236313124,0.0,1.965829849243164,-1.948339819908142,-0.0,2.1422908306121826,4.755743323802509,0.0,0.2916995882987976,-1.5969422499286097,0.0,-0.0080341137945652,0.9679218530654907,-0.0,-0.006997755263000727,0.773190438747406,0.0,0.015545593574643135
8190.0,872.0,2.1278,-0.2967,9.1789,-0.0391,0.0185,-0.1179,-1.5445218098214646,0.0,1.9888272285461426,-1.9483004808425903,-0.0,2.091635227203369,4.755747402995386,0.0,0.28372183442115784,-1.5969460646258753,0.0,-0.003091364400461316,0.9679656028747559,-0.0,-0.01296402607113123,0.7731986045837402,0.0,0.015681015327572823
8190.0,872.0,2.1278,-0.2967,9.1789,-0.0391,0.0185,-0.1179,-1.544509920557477,0.0,1.9641163349151611,-1.9482955932617188,-0.0,2.060260057449341,4.755699424981632,0.0,0.30737578868865967,-1.5969098250018519,0.0,-0.0014439367223531008,0.9679536819458008,-0.0,-0.0028821078594774008,0.7732307314872742,0.0,-0.01994447037577629
8190.0,872.0,2.1278,-0.2967,9.1789,-0.0391,0.0185,-0.1179,-1.5444895972362538,0.0,1.9855616092681885,-1.9483036994934082,-0.0,2.094489097595215,4.755679330765762,0.0,0.2958250045776367,-1.5969179312335413,0.0,-0.004715947899967432,0.9679059386253357,-0.0,0.004027451388537884,0.7732307314872742,0.0,-0.02025703154504299
873.0,911.0,2.0919,-0.35,9.2106,-0.0341,0.0318,-0.126,-1.5444818300059815,0.0,1.9904626607894897,-1.9483201503753662,-0.0,2.051419734954834,4.755695241480627,0.0,0.29162219166755676,-1.5969417730914515,0.0,-0.011902865953743458,0.9678815007209778,-0.0,-0.007801818661391735,0.7731501460075378,0.0,-0.01647098921239376
873.0,911.0,2.0919,-0.35,9.2106,-0.0341,0.0318,-0.126,-1.544477717285492,0.0,1.9626209735870361,-1.9483760595321655,-0.0,2.080305814743042,4.755711670010843,0.0,0.29227879643440247,-1.5969541708575647,0.0,-0.009895388036966324,0.967897355556488,-0.0,-0.0028702430427074432,0.7732426524162292,0.0,-0.016431046649813652
873.0,911.0,2.0919,-0.35,9.2106,-0.0341,0.0318,-0.126,-1.5444615458003064,0.0,1.9486021995544434,-1.948352336883545,-0.0,2.0727996826171875,4.7556911809142015,0.0,0.2981228232383728,-1.5969379583941858,0.0,-0.013144973665475845,0.9679020047187805,-0.0,-0.010598558932542801,0.7731945514678955,0.0,-0.01806161366403103
873.0,911.0,2.0919,-0.35,9.2106,-0.0341,0.0318,-0.126,-1.5445057910731812,0.0,1.9810025691986084,-1.9483201503753662,-0.0,2.0613913536071777,4.7556871613259695,0.0,0.2986609935760498,-1.5969341436969202,0.0,-0.014283369295299053,0.9679455757141113,-0.0,-0.002404907951131463,0.7732225656509399,0.0,-0.003375471569597721
873.0,911.0,2.0919,-0.35,9.2106,-0.0341,0.0318,-0.126,-1.544534108867385,0.0,1.989253282546997,-1.9483160972595215,-0.0,2.062030553817749,4.755727286427774,0.0,0.2935977280139923,-1.5969017187701624,0.0,0.004286712966859341,0.9679058790206909,-0.0,-0.005490841809660196,0.7732349038124084,0.0,-0.014799682423472404
873.0,911.0,2.0919,-0.35,9.2106,-0.0341,0.0318,-0.126,-1.544473585938551,0.0,1.9633162021636963,-1.9482840299606323,-0.0,2.0390923023223877,4.755727334856548,0.0,0.2920694649219513,-1.5969255606280726,0.0,-0.018625378608703613,0.9679378271102905,-0.0,0.01162357535213232,0.7731986045837402,0.0,-0.029009103775024414
873.0,911.0,2.0919,-0.35,9.2106,-0.0341,0.0318,-0.126,-1.5444937341711302,0.0,1.9740315675735474,-1.948323369026184,-0.0,2.0999841690063477,4.755667126714744,0.0,0.3103874921798706,-1.5969417730914515,0.0,-0.01606937311589718,0.9678941369056702,-0.0,-0.003706681542098522,0.7731986045837402,0.0,0.022413352504372597
873.0,911.0,2.0919,-0.35,9.2106,-0.0341,0.0318,-0.126,-1.544457483371236,0.0,1.9702088832855225,-1.9483160972595215,-0.0,2.046231746673584,4.755707490235128,0.0,0.29739320278167725,-1.596893612538473,0.0,-0.0019281806889921427,0.9679059982299805,-0.0,-0.005075645633041859,0.773190438747406,0.0,0.02402484603226185
873.0,911.0,2.0919,-0.35,9.2106,-0.0341,0.0318,-0.126,-1.5444896214506407,0.0,1.930924654006958,-1.9483160972595215,-0.0,2.1015024185180664,4.7556712729628465,0.0,0.29685890674591064,-1.5969298521624964,0.0,-0.0017708421219140291,0.9678776264190674,-0.0,-0.005560851190239191,0.773178219795227,0.0,0.004484105855226517
873.0,911.0,2.0919,-0.35,9.2106,-0.0341,0.0318,-0.126,-1.544473660444357,0.0,2.007700204849243,-1.9483562707901,-0.0,2.056871175765991,4.7556793233151815,0.0,0.29817232489585876,-1.5969298521624964,0.0,-0.006095387041568756,0.9679416418075562,-0.0,0.0055645001120865345,0.7732027769088745,0.0,0.06139815226197243
873.0,911.0,2.0919,-0.35,9.2106,-0.0341,0.0318,-0.126,-1.5444777452251692,0.0,1.9658958911895752,-1.948344111442566,-0.0,2.1004385948181152,4.755707505136289,0.0,0.29404914379119873,-1.596949879323141,0.0,-0.009081284515559673,0.9678457975387573,-0.0,-0.0012076173443347216,0.7731986045837402,0.0,-0.000829748809337616
873.0,911.0,2.0919,-0.35,9.2106,-0.0341,0.0318,-0.126,-1.5444818300059815,0.0,1.983634352684021,-1.9483438730239868,-0.0,2.0603365898132324,4.755679375469246,0.0,0.3117922246456146,-1.596921745930807,0.0,-0.010105864144861698,0.967937707901001,-0.0,-0.0029563307762145996,0.7732307314872742,0.0,-0.0014645359478890896
873.0,911.0,2.0919,-0.35,9.2106,-0.0341,0.0318,-0.126,-1.5444533352604886,0.0,1.989119052886963,-1.9482955932617188,-0.0,2.1005501747131348,4.755719172745504,0.0,0.30356448888778687,-1.5969298521624964,0.0,-0.00963071919977665,0.9678980708122253,-0.0,-0.006042404565960169,0.7732143402099609,0.0,-0.03095022588968277
891.0,944.0,2.0249,-0.3697,9.2357,-0.0315,0.0316,-0.1217,-1.5444574330798169,0.0,2.0088696479797363,-1.9482882022857666,-0.0,2.103473663330078,4.755683145463028,0.0,0.2959062159061432,-1.5969060103045862,0.0,-0.0006768885068595409,0.9679014682769775,-0.0,0.00386529928073287,0.773190438747406,0.0,0.022831261157989502
891.0,944.0,2.0249,-0.3697,9.2357,-0.0315,0.0316,-0.1217,-1.5444900088808318,0.0,1.9627655744552612,-1.9483513832092285,-0.0,2.063007116317749,4.755711643933811,0.0,0.3109481930732727,-1.5969541708575647,0.0,-0.007399413734674454,0.9678815603256226,-0.0,-0.006941677536815405,0.7731945514678955,0.0,-0.008106304332613945
891.0,944.0,2.0249,-0.3697,9.2357,-0.0315,0.0316,-0.1217,-1.5445057910731812,0.0,1.9381780624389648,-1.9483160972595215,-0.0,2.0996005535125732,4.755739166378536,0.0,0.28378570079803467,-1.596893612538473,0.0,-0.009132824838161469,0.9678815603256226,-0.0,0.007159500382840633,0.7732150554656982,0.0,-0.00647148909047246
891.0,944.0,2.0249,-0.3697,9.2357,-0.0315,0.0316,-0.1217,-1.5444895972362538,0.0,1.9951889514923096,-1.948344111442566,-0.0,2.0940351486206055,4.755683100759544,0.0,0.29342198371887207,-1.596949879323141,0.0,-8.487468585371971e-05,0.9679574966430664,-0.0,-0.009833411313593388,0.773174524307251,0.0,0.01907404325902462
891.0,944.0,2.0249,-0.3697,9.2357,-0.0315,0.0316,-0.1217,-1.544514001612999,0.0,1.972266674041748,-1.9482841491699219,-0.0,2.074923515319824,4.7556871613259695,0.0,0.29730215668678284,-1.5969298521624964,0.0,0.0014198716962710023,0.9678577184677124,-0.0,-0.004371108021587133,0.7731986045837402,0.0,0.02973015420138836
891.0,944.0,2.0249,-0.3697,9.2357,-0.0315,0.0316,-0.1217,-1.5444656641087313,0.0,1.9539248943328857,-1.948331594467163,-0.0,2.0838303565979004,4.755703492998638,0.0,0.2968718111515045,-1.5969298521624964,0.0,-0.005298969801515341,0.9679297208786011,-0.0,-0.008859359659254551,0.7732064127922058,0.0,-0.019046876579523087
891.0,944.0,2.0249,-0.3697,9.2357,-0.0315,0.0316,-0.1217,-1.5445060592940827,0.0,1.962289571762085,-1.9483078718185425,-0.0,2.09330677986145,4.755763652711668,0.0,0.28943532705307007,-1.5969017187701624,0.0,-0.002518403809517622,0.9679179191589355,-0.0,-0.006021854933351278,0.773162305355072,0.0,0.009965277276933193
891.0,944.0,2.0249,-0.3697,9.2357,-0.0315,0.0316,-0.1217,-1.5445016858032723,0.0,1.9324910640716553,-1.9482355117797852,-0.0,2.0940170288085938,4.755711647659101,0.0,0.296492338180542,-1.5969179312335413,0.0,-0.004570588003844023,0.9678974151611328,-0.0,0.0043520680628716946,0.7731823325157166,0.0,0.0011641780147328973
891.0,944.0,2.0249,-0.3697,9.2357,-0.0315,0.0316,-0.1217,-1.5445058078369875,0.0,1.9387620687484741,-1.9482872486114502,-0.0,2.0906693935394287,4.755687176227131,0.0,0.30113333463668823,-1.5969575087176722,0.0,-0.006260324269533157,0.967897355556488,-0.0,-0.018002629280090332,0.7731581330299377,0.0,0.007259488105773926
891.0,944.0,2.0249,-0.3697,9.2357,-0.0315,0.0316,-0.1217,-1.544501968925335,0.0,1.9489340782165527,-1.9483604431152344,-0.0,2.0802104473114014,4.755699417531051,0.0,0.28952139616012573,-1.596893612538473,0.0,-0.025405321270227432,0.9679059982299805,-0.0,-0.002022240776568651,0.773178219795227,0.0,0.03056725300848484
891.0,944.0,2.0249,-0.3697,9.2357,-0.0315,0.0316,-0.1217,-1.5444937509349366,0.0,1.9825143814086914,-1.9483160972595215,-0.0,2.0662355422973633,4.755707490235128,0.0,0.3022964298725128,-1.5969579855548304,0.0,-0.007432444021105766,0.9679179191589355,-0.0,-0.011792005971074104,0.7731460928916931,0.0,0.04097488522529602
891.0,944.0,2.0249,-0.3697,9.2357,-0.0315,0.0316,-0.1217,-1.5444896214506407,0.0,1.9633164405822754,-1.948307752609253,-0.0,2.1030006408691406,4.7557273274059675,0.0,0.29295778274536133,-1.5969222227679651,0.0,-0.0031689696479588747,0.9679615497589111,-0.0,-0.011622021906077862,0.7731945514678955,0.0,0.04247551038861275
891.0,944.0,2.0249,-0.3697,9.2357,-0.0315,0.0316,-0.1217,-1.5444896456650277,0.0,1.9588199853897095,-1.9483160972595215,-0.0,2.0858731269836426,4.755683100759544,0.0,0.29979050159454346,-1.5969222227679651,0.0,0.0026887678541243076,0.9678894281387329,-0.0,0.00844402052462101,0.7731822729110718,0.0,0.041618626564741135
876.0,921.0,2.0518,-0.3571,9.2082,-0.0289,0.027,-0.1229,-1.5445217558047553,0.0,1.9938452243804932,-1.9483036994934082,-0.0,2.116180419921875,4.755687064468422,0.0,0.2952551245689392,-1.5969298521624964,0.0,-0.0052490998059511185,0.9679179191589355,-0.0,-0.008274329826235771,0.7732027769088745,0.0,0.01640733703970909
876.0,921.0,2.0518,-0.3571,9.2082,-0.0289,0.027,-0.1229,-1.5444777619889756,0.0,1.9285955429077148,-1.9483036994934082,-0.0,2.0951921939849854,4.755723169981994,0.0,0.3008815050125122,-1.5968979040728968,0.0,-0.00884789414703846,0.9679219126701355,-0.0,-0.0220760777592659,0.7732027769088745,0.0,0.011661875061690807
876.0,921.0,2.0518,-0.3571,9.2082,-0.0289,0.027,-0.1229,-1.544525970970728,0.0,1.9962444305419922,-1.9483201503753662,-0.0,2.1032819747924805,4.755699417531051,0.0,0.2999246120452881,-1.5969460646258753,0.0,-0.004227625671774149,0.9679257869720459,-0.0,0.000661174301058054,0.773222804069519,0.0,-0.029743868857622147
876.0,921.0,2.0518,-0.3571,9.2082,-0.0289,0.027,-0.1229,-1.544493767698743,0.0,1.9608794450759888,-1.9482996463775635,-0.0,2.0479397773742676,4.7557474104459665,0.0,0.29638034105300903,-1.5969260374652308,0.0,-0.0005709750112146139,0.967913806438446,-0.0,-0.007797863334417343,0.773190438747406,0.0,-0.01552813220769167
876.0,921.0,2.0518,-0.3571,9.2082,-0.0289,0.027,-0.1229,-1.5444533445737143,0.0,1.9723052978515625,-1.9482914209365845,-0.0,2.062600612640381,4.755699410080471,0.0,0.29373079538345337,-1.5969017187701624,0.0,-0.0021387599408626556,0.9679138660430908,-0.0,-4.467647522687912e-05,0.7732105255126953,0.0,0.00020540878176689148
876.0,921.0,2.0518,-0.3571,9.2082,-0.0289,0.027,-0.1229,-1.5444978319904585,0.0,1.9874796867370605,-1.9482799768447876,-0.0,2.1443121433258057,4.755703492998638,0.0,0.30180883407592773,-1.5969298521624964,0.0,-0.006537870038300753,0.967937707901001,-0.0,-0.0029729516245424747,0.7731823325157166,0.0,-0.03132767230272293
876.0,921.0,2.0518,-0.3571,9.2082,-0.0289,0.027,-0.1229,-1.5445060741952439,0.0,2.0097179412841797,-1.9483636617660522,-0.0,2.0893394947052,4.755735157966175,0.0,0.29964736104011536,-1.5969222227679651,0.0,-0.0024187432136386633,0.9679456353187561,-0.0,0.0028236559592187405,0.7731986045837402,0.0,-0.0019735139794647694
876.0,921.0,2.0518,-0.3571,9.2082,-0.0289,0.027,-0.1229,-1.5445057426444073,0.0,2.0025384426116943,-1.9483636617660522,-0.0,2.0999484062194824,4.755723184883156,0.0,0.30270758271217346,-1.5969060103045862,0.0,-0.010309376753866673,0.9679574966430664,-0.0,-0.0009608224499970675,0.7732027173042297,0.0,-0.024828843772411346
876.0,921.0,2.0518,-0.3571,9.2082,-0.0289,0.027,-0.1229,-1.5445503194681187,0.0,1.9773056507110596,-1.9483275413513184,-0.0,2.0896310806274414,4.755715097277918,0.0,0.2976548969745636,-1.5969341436969202,0.0,0.0013559181243181229,0.9679416418075562,-0.0,0.0026478860527276993,0.7731986045837402,0.0,0.013901937752962112
876.0,921.0,2.0518,-0.3571,9.2082,-0.0289,0.027,-0.1229,-1.5444937509349366,0.0,1.9688585996627808,-1.9483399391174316,-0.0,2.049832820892334,4.7557035004492185,0.0,0.30948197841644287,-1.5969536940204065,0.0,-0.001399393193423748,0.9679020643234253,-0.0,-0.015332601964473724,0.7731945514678955,0.0,0.022505920380353928
876.0,921.0,2.0518,-0.3571,9.2082,-0.0289,0.027,-0.1229,-1.5444656771472474,0.0,1.9546210765838623,-1.948331594467163,-0.0,2.056199789047241,4.755687120347776,0.0,0.28932899236679077,-1.5968897978412073,0.0,-0.005942460615187883,0.9679455161094666,-0.0,-0.01293858326971531,0.773166298866272,0.0,0.027971845120191574
876.0,921.0,2.0518,-0.3571,9.2082,-0.0289,0.027,-0.1229,-1.5445135825178404,0.0,1.9965732097625732,-1.9483636617660522,-0.0,2.1573235988616943,4.7556751174624345,0.0,0.29409193992614746,-1.5969098250018519,0.0,-0.00014850078150629997,0.9679138660430908,-0.0,-0.0031386041082441807,0.7732149958610535,0.0,-0.011019565165042877
876.0,921.0,2.0518,-0.3571,9.2082,-0.0289,0.027,-0.1229,-1.5444496658495446,0.0,1.9848551750183105,-1.948323369026184,-0.0,2.12119197845459,4.7557392222578905,0.0,0.30267754197120667,-1.5969222227679651,0.0,-0.00253126909956336,0.9679734706878662,-0.0,-0.009561638347804546,0.7731500864028931,0.0,0.021198250353336334
886.0,894.0,2.132,-0.3129,9.1496,-0.035,0.0228,-0.126,-1.5444777321866532,0.0,2.006610870361328,-1.9482955932617188,-0.0,2.0650668144226074,4.755719165294924,0.0,0.29261210560798645,-1.5968979040728968,0.0,-0.009634180925786495,0.9679614305496216,-0.0,0.001752368058077991,0.7732385396957397,0.0,0.023947762325406075
886.0,894.0,2.132,-0.3129,9.1496,-0.035,0.0228,-0.126,-1.5445218172720452,0.0,1.990896463394165,-1.948331594467163,-0.0,2.0700206756591797,4.755731369345941,0.0,0.3013335168361664,-1.596893612538473,0.0,-0.013254621997475624,0.9679378271102905,-0.0,0.003458229824900627,0.7732546925544739,0.0,-0.05931778624653816
886.0,894.0,2.132,-0.3129,9.1496,-0.035,0.0228,-0.126,-1.5445177045515557,0.0,2.009369373321533,-1.9483522176742554,-0.0,2.1138854026794434,4.755707490235128,0.0,0.29695701599121094,-1.5969823042498987,0.0,-0.0037087751552462578,0.967953622341156,-0.0,0.010269517078995705,0.7731704711914062,0.0,-0.014488760381937027
886.0,894.0,2.132,-0.3129,9.1496,-0.035,0.0228,-0.126,-1.5444777694395562,0.0,1.9533734321594238,-1.9483160972595215,-0.0,2.076033115386963,4.755731402873554,0.0,0.2898542582988739,-1.5969379583941858,0.0,-0.01621936447918415,0.9679179787635803,-0.0,0.002072834176942706,0.7732064127922058,0.0,-0.008228275924921036
886.0,894.0,2.132,-0.3129,9.1496,-0.035,0.0228,-0.126,-1.5445057910731812,0.0,1.9943697452545166,-1.948324203491211,-0.0,2.073655128479004,4.755735169142046,0.0,0.28556951880455017,-1.5969460646258753,0.0,-0.028914477676153183,0.9678812026977539,-0.0,-0.0029160669073462486,0.773166298866272,0.0,0.03186039999127388
886.0,894.0,2.132,-0.3129,9.1496,-0.035,0.0228,-0.126,-1.544521776293852,0.0,1.989155888557434,-1.9483522176742554,-0.0,2.103105068206787,4.755719180196085,0.0,0.29742008447647095,-1.596949879323141,0.0,0.004757605493068695,0.9678890109062195,-0.0,0.012329681776463985,0.7732027173042297,0.0,-0.05466919764876366
886.0,894.0,2.132,-0.3129,9.1496,-0.035,0.0228,-0.126,-1.5444855236313124,0.0,1.9571599960327148,-1.9482955932617188,-0.0,2.0692343711853027,4.755678883730926,0.0,0.30404388904571533,-1.596893612538473,0.0,-0.00046478898730129004,0.9678934216499329,-0.0,-0.009619882330298424,0.7731786370277405,0.0,0.03361526131629944
886.0,894.0,2.132,-0.3129,9.1496,-0.035,0.0228,-0.126,-1.5444937509349366,0.0,1.971874475479126,-1.948344111442566,-0.0,2.0817956924438477,4.755695330887594,0.0,0.29370275139808655,-1.5969298521624964,0.0,-0.00773128867149353,0.9679892063140869,-0.0,0.007891615852713585,0.7732266187667847,0.0,-0.02437727153301239
886.0,894.0,2.132,-0.3129,9.1496,-0.035,0.0228,-0.126,-1.544509920557477,0.0,1.9504811763763428,-1.9483152627944946,-0.0,2.1180918216705322,4.755739166378536,0.0,0.2892840504646301,-1.5968979040728968,0.0,0.0016460404731333256,0.9679418206214905,-0.0,-0.015792647376656532,0.7731581330299377,0.0,0.05406986176967621
886.0,894.0,2.132,-0.3129,9.1496,-0.035,0.0228,-0.126,-1.544509920557477,0.0,1.9996880292892456,-1.9483275413513184,-0.0,2.0774571895599365,4.75573110857562,0.0,0.2936280369758606,-1.5969579855548304,0.0,-0.01989930309355259,0.9678931832313538,-0.0,0.0065321908332407475,0.77321457862854,0.0,-0.027273379266262054
886.0,894.0,2.132,-0.3129,9.1496,-0.035,0.0228,-0.126,-1.544489612137415,0.0,2.0124049186706543,-1.9483201503753662,-0.0,2.062653064727783,4.755719165294924,0.0,0.2933427691459656,-1.5969417730914515,0.0,-0.017558695748448372,0.9679135680198669,-0.0,0.002727129962295294,0.7732307314872742,0.0,0.0002136584371328354
886.0,894.0,2.132,-0.3129,9.1496,-0.035,0.0228,-0.126,-1.5444937509349366,0.0,1.912050724029541,-1.9483160972595215,-0.0,2.066528081893921,4.755699424981632,0.0,0.29101288318634033,-1.5969379583941858,0.0,0.0013556774938479066,0.9678972363471985,-0.0,-0.008877348154783249,0.7731822729110718,0.0,-0.08772831410169601
886.0,894.0,2.132,-0.3129,9.1496,-0.035,0.0228,-0.126,-1.5445139848491927,0.0,1.9619386196136475,-1.9483160972595215,-0.0,2.093202829360962,4.755703489273348,0.0,0.31242045760154724,-1.5969136396991175,0.0,0.005155866965651512,0.9679619073867798,-0.0,-0.0032455548644065857,0.773166298866272,0.0,0.014790963381528854
8190.0,870.0,2.1099,-0.3703,9.1412,-0.0367,0.0272,-0.1122,-1.5444937341711302,0.0,1.9377678632736206,-1.9483078718185425,-0.0,2.131730556488037,4.755703481822767,0.0,0.29590651392936707,-1.5969098250018519,0.0,-0.009827665984630585,0.9679057002067566,-0.0,-0.010348162613809109,0.773246705532074,0.0,0.0014369599521160126
8190.0,870.0,2.1099,-0.3703,9.1412,-0.0367,0.0272,-0.1122,-1.5444615960917254,0.0,1.9856736660003662,-1.94826340675354,-0.0,2.0709939002990723,4.7556994063551805,0.0,0.30291104316711426,-1.5969422499286097,0.0,-0.009401978924870491,0.9678730368614197,-0.0,-0.021631313487887383,0.7732064127922058,0.0,-0.006105302833020687
8190.0,870.0,2.1099,-0.3703,9.1412,-0.0367,0.0272,-0.1122,-1.5445057910731812,0.0,1.9837646484375,-1.9482922554016113,-0.0,2.116353750228882,4.755751418858328,0.0,0.30873486399650574,-1.5968769232379358,0.0,-0.004986301064491272,0.9679138660430908,-0.0,-0.00032261235173791647,0.7732185125350952,0.0,0.007899328134953976
8190.0,870.0,2.1099,-0.3703,9.1412,-0.0367,0.0272,-0.1122,-1.5444859520396967,0.0,2.029627799987793,-1.9483120441436768,-0.0,2.0496151447296143,4.755719172745504,0.0,0.292877733707428,-1.596921745930807,0.0,-0.008024103939533234,0.9679221510887146,-0.0,-0.0007752968231216073,0.7732027769088745,0.0,0.02733503468334675
8190.0,870.0,2.1099,-0.3703,9.1412,-0.0367,0.0272,-0.1122,-1.5444896326265116,0.0,1.9654388427734375,-1.9483160972595215,-0.0,2.067593574523926,4.75571163648323,0.0,0.2952415347099304,-1.5969179312335413,0.0,0.006551581900566816,0.9679775238037109,-0.0,-0.015114253386855125,0.7732027173042297,0.0,0.0199801754206419
8190.0,870.0,2.1099,-0.3703,9.1412,-0.0367,0.0272,-0.1122,-1.5444736436805506,0.0,1.9509556293487549,-1.9484245777130127,-0.0,2.10966420173645,4.755743349879541,0.0,0.31100985407829285,-1.5969222227679651,0.0,-0.008462248370051384,0.9679262638092041,-0.0,0.0039519257843494415,0.7732225656509399,0.0,-0.0018956493586301804
8190.0,870.0,2.1099,-0.3703,9.1412,-0.0367,0.0272,-0.1122,-1.5445099131068964,0.0,1.9516068696975708,-1.9482840299606323,-0.0,2.0804998874664307,4.755715086102047,0.0,0.29564768075942993,-1.5969179312335413,0.0,0.0008196444250643253,0.9679296016693115,-0.0,-0.002187285805121064,0.7732105255126953,0.0,-0.006163350306451321
8190.0,870.0,2.1099,-0.3703,9.1412,-0.0367,0.0272,-0.1122,-1.544445189913251,0.0,1.9607726335525513,-1.9483473300933838,-0.0,2.102356433868408,4.755687217205324,0.0,0.2965388298034668,-1.5969699064837855,0.0,-0.023018376901745796,0.9679057598114014,-0.0,0.007908622734248638,0.7731741070747375,0.0,0.026129454374313354
8190.0,870.0,2.1099,-0.3703,9.1412,-0.0367,0.0272,-0.1122,-1.5445057575455685,0.0,1.9644989967346191,-1.9482799768447876,-0.0,2.0503039360046387,4.755727342307129,0.0,0.2914195954799652,-1.5969136396991175,0.0,-0.005106146447360516,0.9679421782493591,-0.0,-0.0041870358400046825,0.7731823325157166,0.0,-0.009104394353926182
8190.0,870.0,2.1099,-0.3703,9.1412,-0.0367,0.0272,-0.1122,-1.5444859483144064,0.0,1.9568769931793213,-1.948331594467163,-0.0,2.075860023498535,4.755659150868215,0.0,0.29946261644363403,-1.5969179312335413,0.0,-0.0018904638709500432,0.9679217338562012,-0.0,0.014082850888371468,0.7731379270553589,0.0,0.01951269991695881
8190.0,870.0,2.1099,-0.3703,9.1412,-0.0367,0.0272,-0.1122,-1.5444975730827828,0.0,2.009314775466919,-1.948323369026184,-0.0,2.0978479385375977,4.755723155080833,0.0,0.2994110584259033,-1.5969460646258753,0.0,-0.013455299660563469,0.9679257869720459,-0.0,0.0006263009854592383,0.7731945514678955,0.0,0.04191810265183449
8190.0,870.0,2.1099,-0.3703,9.1412,-0.0367,0.0272,-0.1122,-1.544481822555401,0.0,1.9798998832702637,-1.948299527168274,-0.0,2.079617500305176,4.755723169981994,0.0,0.299851655960083,-1.5969379583941858,0.0,-0.011722941882908344,0.9678890109062195,-0.0,-0.0028514117002487183,0.7732027769088745,0.0,-0.00716751255095005
8190.0,870.0,2.1099,-0.3703,9.1412,-0.0367,0.0272,-0.1122,-1.5444414143315335,0.0,1.9564859867095947,-1.9483275413513184,-0.0,2.0788207054138184,4.755687176227131,0.0,0.28875431418418884,-1.5969417730914515,0.0,0.005853191949427128,0.9678571224212646,-0.0,-0.005581370089203119,0.7731823325157166,0.0,-0.015655674040317535
857.0,931.0,2.0506,0.6197,9.2237,-0.0363,0.0342,-0.1017,-1.544441544716694,0.0,1.9057517051696777,-1.9483275413513184,-0.0,2.0855751037597656,4.755699417531051,0.0,0.29395049810409546,-1.5969136396991175,0.0,-0.015097945928573608,0.96788090467453,-0.0,-0.008640562184154987,0.773186445236206,0.0,-0.021858740597963333
857.0,931.0,2.0506,0.6197,9.2237,-0.0363,0.0342,-0.1017,-1.5444978282651682,0.0,2.0021092891693115,-1.9483078718185425,-0.0,2.0811691284179688,4.755667149066486,0.0,0.29914069175720215,-1.5969222227679651,0.0,-0.007959526963531971,0.9678730368614197,-0.0,-0.004879761952906847,0.7732266187667847,0.0,-0.004414358641952276
857.0,931.0,2.0506,0.6197,9.2237,-0.0363,0.0342,-0.1017,-1.5444773279926558,0.0,1.993129014968872,-1.9483966827392578,-0.0,2.048936605453491,4.755719172745504,0.0,0.29903945326805115,-1.5969460646258753,0.0,-0.002019528765231371,0.9679180979728699,-0.0,-0.012136850506067276,0.7731945514678955,0.0,0.026279617100954056
857.0,931.0,2.0506,0.6197,9.2237,-0.0363,0.0342,-0.1017,-1.5445017137429495,0.0,1.962117075920105,-1.9482955932617188,-0.0,2.051798105239868,4.755743323802509,0.0,0.2975301742553711,-1.5969098250018519,0.0,-0.004916028585284948,0.9679298400878906,-0.0,-0.004400832112878561,0.773186445236206,0.0,0.021237939596176147
857.0,931.0,2.0506,0.6197,9.2237,-0.0363,0.0342,-0.1017,-1.544445638810732,0.0,1.9804778099060059,-1.948323369026184,-0.0,2.068051815032959,4.755715097277918,0.0,0.29599887132644653,-1.5969179312335413,0.0,0.008460902608931065,0.9679135680198669,-0.0,-0.005705324001610279,0.7731420397758484,0.0,0.004034855403006077
857.0,931.0,2.0506,0.6197,9.2237,-0.0363,0.0342,-0.1017,-1.5444937174073239,0.0,1.9550154209136963,-1.9483120441436768,-0.0,2.1142144203186035,4.755707490235128,0.0,0.3001905381679535,-1.5969179312335413,0.0,-0.014996206387877464,0.9679542183876038,-0.0,-0.003816658165305853,0.7732266187667847,0.0,-0.009043779224157333
857.0,931.0,2.0506,0.6197,9.2237,-0.0363,0.0342,-0.1017,-1.54447363622997,0.0,1.9642438888549805,-1.948344111442566,-0.0,2.1087584495544434,4.755735169142046,0.0,0.30289435386657715,-1.5969060103045862,0.0,-0.009229781106114388,0.9679458737373352,-0.0,-0.0051784818060696125,0.7731945514678955,0.0,-0.005865807179361582
857.0,931.0,2.0506,0.6197,9.2237,-0.0363,0.0342,-0.1017,-1.5445099168321867,0.0,1.9510173797607422,-1.9483201503753662,-0.0,2.1064088344573975,4.755731093674459,0.0,0.28321582078933716,-1.5969374815570276,0.0,-0.012393645942211151,0.9679057002067566,-0.0,0.004791904240846634,0.7732023596763611,0.0,-0.03876497596502304
857.0,931.0,2.0506,0.6197,9.2237,-0.0363,0.0342,-0.1017,-1.5444896326265116,0.0,1.948870301246643,-1.9483275413513184,-0.0,2.0424938201904297,4.755739166378536,0.0,0.2911373972892761,-1.5969098250018519,0.0,-0.012788631953299046,0.9679098129272461,-0.0,-0.010151704773306847,0.7732629179954529,0.0,0.014500362798571587
857.0,931.0,2.0506,0.6197,9.2237,-0.0363,0.0342,-0.1017,-1.544485557158925,0.0,1.921994924545288,-1.9483481645584106,-0.0,2.0895607471466064,4.755695330887594,0.0,0.30131131410598755,-1.5969341436969202,0.0,-0.016207437962293625,0.9679138660430908,-0.0,-0.005198773927986622,0.7731863856315613,0.0,-0.021813560277223587
857.0,931.0,2.0506,0.6197,9.2237,-0.0363,0.0342,-0.1017,-1.5444978282651682,0.0,1.9621026515960693,-1.948271632194519,-0.0,2.1350924968719482,4.7557273274059675,0.0,0.3080942928791046,-1.5968979040728968,0.0,-0.004225953482091427,0.9679098129272461,-0.0,-0.002055606571957469,0.7732027769088745,0.0,0.06959208101034164
857.0,931.0,2.0506,0.6197,9.2237,-0.0363,0.0342,-0.1017,-1.5445259057781477,0.0,1.9911682605743408,-1.9483596086502075,-0.0,2.125370740890503,4.755707490235128,0.0,0.285483717918396,-1.596893612538473,0.0,-0.002423287834972143,0.9679417610168457,-0.0,-0.007069921121001244,0.7731781601905823,0.0,-0.001465843990445137
857.0,931.0,2.0506,0.6197,9.2237,-0.0363,0.0342,-0.1017,-1.544485557158925,0.0,1.9979678392410278,-1.948288083076477,-0.0,2.108917713165283,4.755739177554407,0.0,0.2962813973426819,-1.5969136396991175,0.0,0.010143749415874481,0.9679138660430908,-0.0,-0.014348017051815987,0.7732064127922058,0.0,0.029030004516243935
883.0,884.0,2.0094,-0.3607,9.2913,-0.0388,0.0177,-0.122,-1.5444978189519425,0.0,1.949047565460205,-1.9483160972595215,-0.0,2.0625998973846436,4.755703492998638,0.0,0.2991618514060974,-1.5968812147723597,0.0,-0.01467544212937355,0.9678615927696228,-0.0,-0.00888950563967228,0.77321457862854,0.0,0.0153376255184412
883.0,884.0,2.0094,-0.3607,9.2913,-0.0388,0.0177,-0.122,-1.5444937509349366,0.0,2.016352653503418,-1.948331594467163,-0.0,2.047466993331909,4.75570751631216,0.0,0.2959216237068176,-1.5969255606280726,0.0,-0.013097969815135002,0.967889130115509,-0.0,-0.00242989556863904,0.7732064127922058,0.0,-0.004009252414107323
883.0,884.0,2.0094,-0.3607,9.2913,-0.0388,0.0177,-0.122,-1.5444975972971697,0.0,1.9762656688690186,-1.9483275413513184,-0.0,2.1022701263427734,4.755747354566612,0.0,0.30012139678001404,-1.5969460646258753,0.0,-0.000521369744092226,0.967937707901001,-0.0,-0.0072021749801933765,0.7731823325157166,0.0,0.021205099299550056
883.0,884.0,2.0094,-0.3607,9.2913,-0.0388,0.0177,-0.122,-1.5445263397744675,0.0,1.9931352138519287,-1.9483801126480103,-0.0,2.0538504123687744,4.7556633343692205,0.0,0.2981724739074707,-1.596949879323141,0.0,-0.013781407848000526,0.9679615497589111,-0.0,0.004643188789486885,0.7732023596763611,0.0,0.028026649728417397
883.0,884.0,2.0094,-0.3607,9.2913,-0.0388,0.0177,-0.122,-1.544490023781993,0.0,1.9759665727615356,-1.9483562707901,-0.0,2.103316307067871,4.755691173463621,0.0,0.2954378128051758,-1.5969098250018519,0.0,0.00602869363501668,0.9678694605827332,-0.0,-0.0004018440668005496,0.7732064127922058,0.0,0.030783826485276222
883.0,884.0,2.0094,-0.3607,9.2913,-0.0388,0.0177,-0.122,-1.5444452066770573,0.0,1.998164176940918,-1.9483481645584106,-0.0,2.122934341430664,4.755755483150043,0.0,0.29528892040252686,-1.5969460646258753,0.0,0.001844504615291953,0.9678895473480225,-0.0,-0.0009334530332125723,0.773222804069519,0.0,-0.06618236750364304
883.0,884.0,2.0094,-0.3607,9.2913,-0.0388,0.0177,-0.122,-1.5444777526757498,0.0,2.014244556427002,-1.9483120441436768,-0.0,2.038743019104004,4.7557433163519285,0.0,0.303430438041687,-1.5969374815570276,0.0,0.008354052901268005,0.9679180979728699,-0.0,-0.013065296225249767,0.773190438747406,0.0,0.01778697967529297
883.0,884.0,2.0094,-0.3607,9.2913,-0.0388,0.0177,-0.122,-1.544501944710948,0.0,2.0022544860839844,-1.9483120441436768,-0.0,2.051250457763672,4.755735169142046,0.0,0.29520532488822937,-1.5969460646258753,0.0,0.004363383166491985,0.9679098129272461,-0.0,-0.008373151533305645,0.7731945514678955,0.0,0.016544757410883904
883.0,884.0,2.0094,-0.3607,9.2913,-0.0388,0.0177,-0.122,-1.5444818300059815,0.0,1.939436912536621,-1.948271632194519,-0.0,2.117081642150879,4.755719165294924,0.0,0.29615405201911926,-1.596949879323141,0.0,-0.010451165959239006,0.9679138660430908,-0.0,-0.0023000575602054596,0.7731822729110718,0.0,0.015343566425144672
883.0,884.0,2.0094,-0.3607,9.2913,-0.0388,0.0177,-0.122,-1.5444414795241137,0.0,1.9416651725769043,-1.94826340675354,-0.0,2.0826990604400635,4.755691195815363,0.0,0.30011236667633057,-1.596877400075094,0.0,0.0005736579187214375,0.9679257869720459,-0.0,-0.0029308106750249863,0.7732186913490295,0.0,0.006731884554028511
883.0,884.0,2.0094,-0.3607,9.2913,-0.0388,0.0177,-0.122,-1.5445099093816061,0.0,1.997009038925171,-1.948331594467163,-0.0,2.068081855773926,4.755739166378536,0.0,0.3040463328361511,-1.5969417730914515,0.0,0.014484341256320477,0.9678776264190674,-0.0,-0.006745580583810806,0.7732546925544739,0.0,-0.012684263288974762
883.0,884.0,2.0094,-0.3607,9.2913,-0.0388,0.0177,-0.122,-1.544485557158925,0.0,1.9428677558898926,-1.9483275413513184,-0.0,2.0796709060668945,4.755707505136289,0.0,0.2915210425853729,-1.5969017187701624,0.0,-0.01132818404585123,0.9679135084152222,-0.0,-0.0007181488908827305,0.7732307314872742,0.0,0.005620735697448254
883.0,884.0,2.0094,-0.3607,9.2913,-0.0388,0.0177,-0.122,-1.5445099093816061,0.0,1.9852277040481567,-1.9483036994934082,-0.0,2.125734806060791,4.755707490235128,0.0,0.3046532869338989,-1.5969136396991175,0.0,-0.009417028166353703,0.9678934812545776,-0.0,-0.0028681072872132063,0.7731704711914062,0.0,0.012421825900673866
864.0,906.0,1.9256,-0.5264,9.4469,-0.0367,0.0481,-0.1461,-1.5445259057781477,0.0,1.9879188537597656,-1.948344111442566,-0.0,2.0823073387145996,4.7556789321597,0.0,0.3017534017562866,-1.5969222227679651,0.0,-0.003289297688752413,0.9679135680198669,-0.0,0.00200137821957469,0.7731986045837402,0.0,-0.0027893483638763428
864.0,906.0,1.9256,-0.5264,9.4469,-0.0367,0.0481,-0.1461,-1.5445299831083794,0.0,1.9458627700805664,-1.9483678340911865,-0.0,2.1154987812042236,4.755675173341789,0.0,0.2900587320327759,-1.5969660917865198,0.0,-0.01337006501853466,0.9679098129272461,-0.0,-0.006308570504188538,0.7731823325157166,0.0,0.020699048414826393
864.0,906.0,1.9256,-0.5264,9.4469,-0.0367,0.0481,-0.1461,-1.5444937509349366,0.0,1.9583749771118164,-1.948323369026184,-0.0,2.126361846923828,4.755719172745504,0.0,0.3034968078136444,-1.5969541708575647,0.0,-0.00230031693354249,0.9678776264190674,-0.0,-0.017380012199282646,0.7731986045837402,0.0,0.03171679005026817
864.0,906.0,1.9256,-0.5264,9.4469,-0.0367,0.0481,-0.1461,-1.544521789332368,0.0,1.9611930847167969,-1.9483120441436768,-0.0,2.0687544345855713,4.755651037185945,0.0,0.2862650752067566,-1.5969341436969202,0.0,-0.014691762626171112,0.9679341316223145,-0.0,-0.0009508052025921643,0.7732508182525635,0.0,-0.016898518428206444
864.0,906.0,1.9256,-0.5264,9.4469,-0.0367,0.0481,-0.1461,-1.544521789332368,0.0,1.9729604721069336,-1.9482756853103638,-0.0,2.0947177410125732,4.755643180548706,0.0,0.3035603165626526,-1.5969379583941858,0.0,-0.02297099307179451,0.9679138660430908,-0.0,-0.0018982971087098122,0.773246705532074,0.0,-0.00853815395385027
864.0,906.0,1.9256,-0.5264,9.4469,-0.0367,0.0481,-0.1461,-1.5445057910731812,0.0,1.9692771434783936,-1.948344111442566,-0.0,2.0593762397766113,4.7556994063551805,0.0,0.289405882358551,-1.5969298521624964,0.0,0.009425783529877663,0.9678812026977539,-0.0,-0.017606625333428383,0.7732185125350952,0.0,-0.0247353482991457
864.0,906.0,1.9256,-0.5264,9.4469,-0.0367,0.0481,-0.1461,-1.5445217800191422,0.0,1.9421658515930176,-1.948299765586853,-0.0,2.1421163082122803,4.755719802319565,0.0,0.2969004511833191,-1.5969856421100062,0.0,-0.0035390814300626516,0.9679340720176697,-0.0,0.000522542221006006,0.7732466459274292,0.0,0.007887223735451698
864.0,906.0,1.9256,-0.5264,9.4469,-0.0367,0.0481,-0.1461,-1.5444455978325387,0.0,1.957813024520874,-1.9483399391174316,-0.0,2.0689263343811035,4.7556633343692205,0.0,0.29108625650405884,-1.5969341436969202,0.0,-0.013974488712847233,0.9679577350616455,-0.0,-0.004596852697432041,0.7732023596763611,0.0,0.011346974410116673
864.0,906.0,1.9256,-0.5264,9.4469,-0.0367,0.0481,-0.1461,-1.5444937509349366,0.0,1.990771770477295,-1.9483038187026978,-0.0,2.0764882564544678,4.755679334491052,0.0,0.29389438033103943,-1.5969417730914515,0.0,-0.012370334938168526,0.967909574508667,-0.0,0.0006413803203031421,0.7732465267181396,3.746437382545764e-09,0.000573872122913599
864.0,906.0,1.9256,-0.5264,9.4469,-0.0367,0.0481,-0.1461,-1.5445057910731812,0.0,1.9921581745147705,-1.9482996463775635,-0.0,2.0434155464172363,4.755747417896547,0.0,0.2939128577709198,-1.5969255606280726,0.0,-0.0035673892125487328,0.9679138660430908,-0.0,-0.002842589281499386,0.7731985449790955,1.2137979487176164e-16,0.0013377806171774864
864.0,906.0,1.9256,-0.5264,9.4469,-0.0367,0.0481,-0.1461,-1.5444613632610817,0.0,1.9628381729125977,-1.9483717679977417,-0.0,2.05785870552063,4.755735560297527,0.0,0.3007729947566986,-1.5969222227679651,0.0,0.0036072232760488987,0.9679340720176697,-0.0,-0.002266290597617626,0.7732143998146057,2.931178669683128e-22,0.045600228011608124
864.0,906.0,1.9256,-0.5264,9.4469,-0.0367,0.0481,-0.1461,-1.544521789332368,0.0,1.9696316719055176,-1.9483318328857422,-0.0,2.06758451461792,4.755687176227131,0.0,0.30238160490989685,-1.596893612538473,0.0,-0.010745781473815441,0.9679901599884033,-0.0,-0.017167197540402412,0.773234486579895,9.496646955999397e-30,0.05361485481262207
864.0,906.0,1.9256,-0.5264,9.4469,-0.0367,0.0481,-0.1461,-1.5445099093816061,0.0,2.0203800201416016,-1.9483201503753662,-0.0,2.1067187786102295,4.755715767830171,0.0,0.2928203344345093,-1.5969660917865198,0.0,-0.007878956384956837,0.9679057598114014,-0.0,-0.010039589367806911,0.7732343077659607,2.2933284939451155e-35,0.032558463513851166
876.0,882.0,1.9047,-0.402,9.2967,-0.0348,0.0365,-0.1298,-1.5445181031576176,0.0,1.9457406997680664,-1.9483356475830078,-0.0,2.07444429397583,4.755679345666923,0.0,0.2969663441181183,-1.5969255606280726,0.0,-0.0010146850254386663,0.9679298996925354,-0.0,-0.006216493435204029,0.7732465267181396,7.42688186092153e-43,-0.034674786031246185
876.0,882.0,1.9047,-0.402,9.2967,-0.0348,0.0365,-0.1298,-1.5445057910731812,0.0,1.9605519771575928,-1.948299765586853,-0.0,2.07505202293396,4.755683395057478,0.0,0.2967197895050049,-1.5969660917865198,0.0,-0.013305528089404106,0.9679217338562012,-0.0,0.001981759909540415,0.7732388377189636,0.0,-0.01217945758253336
876.0,882.0,1.9047,-0.402,9.2967,-0.0348,0.0365,-0.1298,-1.5444695588997384,0.0,1.9782558679580688,-1.9482840299606323,-0.0,2.031446933746338,4.755731462478199,0.0,0.3017025291919708,-1.5969098250018519,0.0,0.0010109978029504418,0.9679098129272461,-0.0,-0.0004002834903076291,0.7732225656509399,0.0,-0.013015754520893097
876.0,882.0,1.9047,-0.402,9.2967,-0.0348,0.0365,-0.1298,-1.5445420642248173,0.0,2.0221023559570312,-1.9483356475830078,-0.0,2.0959463119506836,4.755711670010843,0.0,0.2960124611854553,-1.5969298521624964,0.0,-0.010935252532362938,0.9678410291671753,-0.0,0.00364958168938756,0.7732023596763611,0.0,0.0029866169206798077
876.0,882.0,1.9047,-0.402,9.2967,-0.0348,0.0365,-0.1298,-1.544553968389966,0.0,2.0165834426879883,-1.9483318328857422,-0.0,2.149822473526001,4.755699421256342,0.0,0.29577773809432983,-1.596905533467428,0.0,0.0025744810700416565,0.9679217338562012,-0.0,0.001006704056635499,0.7732669115066528,0.0,-0.01705951988697052
876.0,882.0,1.9047,-0.402,9.2967,-0.0348,0.0365,-0.1298,-1.5445259057781477,0.0,1.9665303230285645,-1.9483481645584106,-0.0,2.095649242401123,4.755691136210718,0.0,0.2941429615020752,-1.5969417730914515,0.0,-0.005998113192617893,0.9679098129272461,-0.0,-0.016526445746421814,0.7732465267181396,0.0,0.03291743993759155
876.0,882.0,1.9047,-0.402,9.2967,-0.0348,0.0365,-0.1298,-1.5444410883686324,0.0,1.9616609811782837,-1.9483120441436768,-0.0,2.0843331813812256,4.755703541427412,0.0,0.296731561422348,-1.5969098250018519,0.0,-0.01147938147187233,0.9679417610168457,-0.0,0.006352967582643032,0.7731742262840271,0.0,-0.006115668918937445
876.0,882.0,1.9047,-0.402,9.2967,-0.0348,0.0365,-0.1298,-1.5445139848491927,0.0,1.9904000759124756,-1.9483636617660522,-0.0,2.080904006958008,4.755735195219078,0.0,0.29627525806427,-1.5969460646258753,0.0,-5.7723140344023705e-05,0.9679262638092041,-0.0,-0.013650408945977688,0.7732225656509399,0.0,-0.021001510322093964
876.0,882.0,1.9047,-0.402,9.2967,-0.0348,0.0365,-0.1298,-1.5444773279926558,0.0,1.9709099531173706,-1.948331594467163,-0.0,2.124335289001465,4.75568716877655,0.0,0.2986806035041809,-1.5969136396991175,0.0,0.000854085898026824,0.9678854942321777,-0.0,-0.003745695576071739,0.7732105255126953,3.8036960177123547e-05,-0.014647113159298897
876.0,882.0,1.9047,-0.402,9.2967,-0.0348,0.0365,-0.1298,-1.5444896326265116,0.0,1.969902753829956,-1.9483120441436768,-0.0,2.080282211303711,4.755751471012392,0.0,0.2928452491760254,-1.5969417730914515,0.0,-0.006232519168406725,0.9679138660430908,-0.0,-0.006264861673116684,0.7731782793998718,3.577144889277406e-05,-0.033433947712183
876.0,882.0,1.9047,-0.402,9.2967,-0.0348,0.0365,-0.1298,-1.5445177120021363,0.0,1.950803279876709,-1.9483636617660522,-0.0,2.1109795570373535,4.755743323802509,0.0,0.30786368250846863,-1.596949879323141,0.0,-0.005143611691892147,0.9679980278015137,-0.0,-0.005019516684114933,0.773190438747406,3.313735578558408e-05,-0.046056006103754044
876.0,882.0,1.9047,-0.402,9.2967,-0.0348,0.0365,-0.1298,-1.5444777526757498,0.0,1.9449379444122314,-1.9483275413513184,-0.0,2.0970373153686523,4.755719187646665,0.0,0.29688760638237,-1.5969660917865198,0.0,-0.0049322969280183315,0.9678612351417542,-0.0,-0.004761775489896536,0.7732225656509399,4.710348730441183e-05,-0.016311824321746826
876.0,882.0,1.9047,-0.402,9.2967,-0.0348,0.0365,-0.1298,-1.5445338704488059,0.0,1.947580099105835,-1.9483160972595215,-0.0,2.0859854221343994,4.755695330887594,0.0,0.3120466470718384,-1.5969179312335413,0.0,-0.008262356743216515,0.9679422378540039,-0.0,-0.018730904906988144,0.7732064127922058,4.403183265822008e-05,0.024394772946834564
870.0,870.0,1.6427,-0.3996,9.3577,-0.022,0.0377,-0.1358,-1.5445420642248173,0.0,1.9698429107666016,-1.9483481645584106,-0.0,2.0955677032470703,4.755719254701891,0.0,0.30598756670951843,-1.5969136396991175,0.0,0.0006128445384092629,0.9679138660430908,-0.0,-0.008022738620638847,0.773234486579895,4.1978088120231405e-05,-0.012387770228087902
870.0,870.0,1.6427,-0.3996,9.3577,-0.022,0.0377,-0.1358,-1.5445057985237618,0.0,2.0095338821411133,-1.9483562707901,-0.0,2.129781484603882,4.755707490235128,0.0,0.28623300790786743,-1.5969222227679651,0.0,-0.009927868843078613,0.9679298400878906,-0.0,0.005332023836672306,0.7732546925544739,5.269138273433782e-05,0.01115013100206852
870.0,870.0,1.6427,-0.3996,9.3577,-0.022,0.0377,-0.1358,-1.5445139848491927,0.0,1.932194471359253,-1.948307752609253,-0.0,2.082113265991211,4.755699428706922,0.0,0.29597556591033936,-1.5969417730914515,0.0,-0.002606441732496023,0.9679098129272461,-0.0,-0.0049506304785609245,0.7732345461845398,5.0477334298193455e-05,0.0030990149825811386
870.0,870.0,1.6427,-0.3996,9.3577,-0.022,0.0377,-0.1358,-1.544493519966938,0.0,1.9824872016906738,-1.9482841491699219,-0.0,2.1029868125915527,4.755678991764345,0.0,0.2959122955799103,-1.596905533467428,0.0,-0.0005758777260780334,0.9679418206214905,-0.0,-0.0005339360795915127,0.7732144594192505,0.00011836715566460043,-0.006387483328580856
870.0,870.0,1.6427,-0.3996,9.3577,-0.022,0.0377,-0.1358,-1.5445578315160056,-1.0318297327671644e-09,1.9717888832092285,-1.948335886001587,-0.0,2.0794568061828613,4.755727334856548,0.0,0.2999640107154846,-1.5969541708575647,0.0,-0.009095348417758942,0.9679422378540039,-0.0,-0.0031883474439382553,0.7732544541358948,0.0009170903358608484,0.011533159762620926
870.0,870.0,1.6427,-0.3996,9.3577,-0.022,0.0377,-0.1358,-1.544589714413025,-0.0008039295789785683,1.9489610195159912,-1.9483596086502075,-0.0,2.0531787872314453,4.755711647659101,0.0,0.2966940701007843,-1.5969136396991175,0.0,-0.012671694159507751,0.9679138660430908,-0.0,-0.0036875237710773945,0.7732585668563843,0.0012092135148122907,-0.012534833513200283
870.0,870.0,1.6427,-0.3996,9.3577,-0.022,0.0377,-0.1358,-1.5445333638093253,-0.0012803515419363976,1.9655070304870605,-1.948323369026184,-0.0,2.074018716812134,4.755695260107078,0.0,0.2997177243232727,-1.596917454396383,0.0,0.001624210737645626,0.9679097533226013,-0.0,-0.013394013978540897,0.7732625007629395,0.0019644382409751415,0.03612042963504791
870.0,870.0,1.6427,-0.3996,9.3577,-0.022,0.0377,-0.1358,-1.5446296737394114,-0.0021091115195304155,1.9155242443084717,-1.948291301727295,-0.0,2.1192891597747803,4.755731410324135,0.0,0.2993759512901306,-1.5969460646258753,0.0,-0.006159328855574131,0.9679257869720459,-0.0,0.0009765573777258396,0.7732744216918945,0.003452411387115717,-0.00430676806718111
870.0,870.0,1.6427,-0.3996,9.3577,-0.022,0.0377,-0.1358,-1.5446379047683259,-0.003237534547224641,1.991593360900879,-1.9483439922332764,-0.0,2.072345733642578,4.755671179830589,0.0,0.3006938099861145,-1.596949879323141,0.0,-0.010669434443116188,0.9679176211357117,-0.0,-0.012603165581822395,0.7733186483383179,0.005201615393161774,-0.011273357085883617
870.0,870.0,1.6427,-0.3996,9.3577,-0.022,0.0377,-0.1358,-1.5446776070496817,-0.0040763127617537975,2.024961471557617,-1.9483399391174316,-0.0,2.074723243713379,4.755739151477375,0.0,0.2952646017074585,-1.596949879323141,0.0,-0.006581272464245558,0.9679778814315796,-0.0,-0.005960778333246708,0.773362398147583,0.00665353424847126,0.012525039725005627
870.0,870.0,1.6427,-0.3996,9.3577,-0.022,0.0377,-0.1358,-1.5447095197490235,-0.006107712630182505,1.9781700372695923,-1.9483481645584106,-0.0,2.0866646766662598,4.755719802319565,0.0,0.2890847325325012,-1.5969422499286097,0.0,-0.0067282430827617645,0.9679336547851562,-0.0,-0.01988144777715206,0.7734390497207642,0.0058451443910598755,0.0776711255311966
870.0,870.0,1.6427,-0.3996,9.3577,-0.022,0.0377,-0.1358,-1.5447172702154894,-0.0072300550527870655,1.968019962310791,-1.9483120441436768,-0.0,2.0799107551574707,4.755699432432213,0.0,0.2864997386932373,-1.5969136396991175,0.0,-0.013006331399083138,0.9678570628166199,-0.0,-0.011303668841719627,0.7734186053276062,0.005088188219815493,-0.010074632242321968
870.0,870.0,1.6427,-0.3996,9.3577,-0.022,0.0377,-0.1358,-1.54483766228471,-0.008270162157714367,1.9241151809692383,-1.948331594467163,-0.0,2.074497938156128,4.755723169981994,0.0,0.2858332693576813,-1.5969298521624964,0.0,-0.005055222660303116,0.9679298996925354,-0.0,-0.0018102251924574375,0.7735270857810974,0.0048729549162089825,-0.016757521778345108
898.0,8190.0,1.9783,-0.4696,9.0682,-0.0524,0.006,-0.1144,-1.5448613569936533,-0.009299281053245068,1.9572858810424805,-1.9483554363250732,-0.0,2.084076404571533,4.755675173341789,0.0,0.2836838364601135,-1.5969541708575647,0.0,-0.0015423530712723732,0.9678895473480225,-0.0,-0.0016347011551260948,0.7735186219215393,0.004284178372472525,-0.01835046522319317
898.0,8190.0,1.9783,-0.4696,9.0682,-0.0524,0.006,-0.1144,-1.5449934688261528,-0.011559980921447277,1.9686397314071655,-1.9483596086502075,-0.0,2.0688180923461914,4.755715726851978,0.0,0.29178816080093384,-1.5969060103045862,0.0,-0.003893246641382575,0.9679217338562012,-0.0,-0.007582246325910091,0.7735386490821838,0.0033096615225076675,0.009529494680464268
898.0,8190.0,1.9783,-0.4696,9.0682,-0.0524,0.006,-0.1144,-1.5450213712504883,-0.011884406208992004,1.9692931175231934,-1.9483482837677002,-0.0,2.088831663131714,4.755683100759544,0.0,0.30330008268356323,-1.5969379583941858,0.0,0.003164022695273161,0.9679417610168457,-0.0,-0.008365116082131863,0.7735427021980286,0.002552684862166643,0.08357039093971252
898.0,8190.0,1.9783,-0.4696,9.0682,-0.0524,0.006,-0.1144,-1.5452014070800324,-0.012380755506455898,1.9471451044082642,-1.9483160972595215,-0.0,2.050997018814087,4.755763410567798,0.0,0.2995326519012451,-1.5968731085406702,0.0,-0.001350638922303915,0.9678735733032227,-0.0,0.007069077808409929,0.7735950350761414,0.0024512808304280043,0.023030729964375496
898.0,8190.0,1.9783,-0.4696,9.0682,-0.0524,0.006,-0.1144,-1.5451929208687325,-0.012601151131093502,1.936633586883545,-1.9483802318572998,-0.0,2.051590919494629,4.755747402995386,0.0,0.2985158860683441,-1.5969222227679651,0.0,-0.005697667133063078,0.9678972363471985,-0.0,-0.010782919824123383,0.7736310362815857,0.002068730304017663,0.033265188336372375
898.0,8190.0,1.9783,-0.4696,9.0682,-0.0524,0.006,-0.1144,-1.5453812938979645,-0.014154267497360706,1.977004885673523,-1.9483801126480103,-0.0,2.0566279888153076,4.755726943701067,0.0,0.3030707836151123,-1.5969341436969202,0.0,0.0030960808508098125,0.9679217338562012,-0.0,-0.007044748868793249,0.7736028432846069,0.002648163354024291,-0.005850231274962425
898.0,8190.0,1.9783,-0.4696,9.0682,-0.0524,0.006,-0.1144,-1.5454611268690606,-0.016777904704213142,1.9547698497772217,-1.9483275413513184,-0.0,2.038760185241699,4.755763410567798,0.0,0.2943583130836487,-1.5968812147723597,0.0,-0.0036458217073231936,0.9679458141326904,-0.0,-0.011928783729672432,0.7735947370529175,0.0035214729141443968,0.054498717188835144
898.0,8190.0,1.9783,-0.4696,9.0682,-0.0524,0.006,-0.1144,-1.54559679449115,-0.020454760640859604,1.9700524806976318,-1.9483678340911865,-0.0,2.1028480529785156,4.755759264319696,0.0,0.30626803636550903,-1.596949879323141,0.0,-0.0007456569001078606,0.9679582715034485,-0.0,0.0036788280121982098,0.773715078830719,0.005914626643061638,0.0608295276761055
898.0,8190.0,1.9783,-0.4696,9.0682,-0.0524,0.006,-0.1144,-1.5457530294409771,-0.023166391998529434,1.9558978080749512,-1.9483036994934082,-0.0,2.0837085247039795,4.755731022893944,0.0,0.28737354278564453,-1.5968979040728968,0.0,0.002046092413365841,0.9679098129272461,-0.0,0.003990343771874905,0.7737471461296082,0.00682483147829771,-0.002911948598921299
898.0,8190.0,1.9783,-0.4696,9.0682,-0.0524,0.006,-0.1144,-1.5459085267833252,-0.02608869969844818,2.0263404846191406,-1.9482882022857666,-0.0,2.0631721019744873,4.755751098483362,0.0,0.29127267003059387,-1.5969303289996546,0.0,-0.00917125679552555,0.9678735733032227,-0.0,0.0033342307433485985,0.773798942565918,0.008719266392290592,-0.014820154756307602
898.0,8190.0,1.9783,-0.4696,9.0682,-0.0524,0.006,-0.1144,-1.546068462809064,-0.0279807448387146,1.9329893589019775,-1.9483720064163208,-0.0,2.070115089416504,4.75577117034749,0.0,0.2949921488761902,-1.5969179312335413,0.0,-0.007605021353811026,0.9679298400878906,-0.0,-0.006495711859315634,0.773810625076294,0.010082717053592205,-0.005123879760503769
898.0,8190.0,1.9783,-0.4696,9.0682,-0.0524,0.006,-0.1144,-1.5462918740561982,-0.030125580728054047,1.9299949407577515,-1.94826340675354,-0.0,2.040195941925049,4.755783106177606,0.0004134901682846248,0.2947086989879608,-1.5969060103045862,0.0,-0.00153465592302382,0.9679217338562012,-0.0,-0.0029253042303025723,0.7739231586456299,0.011798402294516563,-0.008356139063835144
898.0,8190.0,1.9783,-0.4696,9.0682,-0.0524,0.006,-0.1144,-1.5465361208519717,-0.03202353045344353,1.9737515449523926,-1.9483160972595215,-0.0,2.1144232749938965,4.755758828460731,0.0004114590410608798,0.2853910028934479,-1.5969460646258753,0.0,-0.005402679555118084,0.9679057002067566,-0.0,-0.012268089689314365,0.7740393280982971,0.013229713775217533,-0.011965101584792137
911.0,899.0,2.1685,-0.2871,9.1244,-0.0319,-0.0191,-0.1165,-1.5468522508493443,-0.03479435294866562,1.9116634130477905,-1.9482511281967163,-0.0,2.123096227645874,4.755811332702198,0.0003540844772942364,0.2962910532951355,-1.59691030183901,0.0,-0.011085902340710163,0.9678890705108643,-0.0,0.0023253594990819693,0.7741232514381409,0.013968727551400661,0.019803177565336227
911.0,899.0,2.1685,-0.2871,9.1244,-0.0319,-0.0191,-0.1165,-1.5470156998238345,-0.036462582647800446,1.9446070194244385,-1.948315978050232,0.000166973564773798,2.093087673187256,4.7557912086840055,0.0003569643304217607,0.29745230078697205,-1.5969222227679651,0.0,0.005255330353975296,0.9679458737373352,-0.0,-0.01582160033285618,0.7742112874984741,0.014130287803709507,0.0033828862942755222
911.0,899.0,2.1685,-0.2871,9.1244,-0.0319,-0.0191,-0.1165,-1.5473158203861495,-0.0378388985991478,1.9260287284851074,-1.9483119249343872,0.0002611415693536401,2.132817506790161,4.7558031035359285,0.0003531762631610036,0.30267244577407837,-1.5969379583941858,0.0,-0.0037589401472359896,0.9679417610168457,-0.0,-0.01048380695283413,0.7743157148361206,0.013665410690009594,0.0052258325740695
911.0,899.0,2.1685,-0.2871,9.1244,-0.0319,-0.0191,-0.1165,-1.5475395426950236,-0.03783377632498741,1.9652049541473389,-1.9483119249343872,0.0007080680807121098,2.0863189697265625,4.755807186454096,0.00030092414817772806,0.30204856395721436,-1.5968979040728968,0.0,-0.007463136687874794,0.9678812026977539,-0.0,-0.008682578802108765,0.7743873596191406,0.011743323877453804,0.024600783362984657
911.0,899.0,2.1685,-0.2871,9.1244,-0.0319,-0.0191,-0.1165,-1.5478474099985142,-0.040542442351579666,1.9765725135803223,-1.9482674598693848,0.0009589241235516965,2.106476068496704,4.755831005960264,0.0002869721211027354,0.29968106746673584,-1.5969260374652308,0.0,-0.0019466688390821218,0.9679381251335144,-0.0,0.006139251869171858,0.7744515538215637,0.00976451113820076,0.02774878591299057
911.0,899.0,2.1685,-0.2871,9.1244,-0.0319,-0.0191,-0.1165,-1.5480708212456484,-0.04478052258491516,1.9068903923034668,-1.9482405185699463,0.0012547767255455256,2.0796239376068115,4.755826937943258,0.00028857396682724357,0.3004054129123688,-1.5969222227679651,0.0,-0.0051050735637545586,0.9679536819458008,-0.0,0.002455274574458599,0.7745075225830078,0.008411761373281479,0.03482893481850624
911.0,899.0,2.1685,-0.2871,9.1244,-0.0319,-0.0191,-0.1165,-1.5484464534423132,-0.05151061341166496,1.9023511409759521,-1.9482519626617432,0.0025648940354585648,2.0852622985839844,4.755839205324211,0.00026236663688905537,0.2893611192703247,-1.5969141165362757,0.0,-0.004340230952948332,0.9679217338562012,-0.0,-0.000830631994176656,0.7745394110679626,0.004694044124335051,0.040876030921936035
911.0,899.0,2.1685,-0.2871,9.1244,-0.0319,-0.0191,-0.1165,-1.5487865761718531,-0.053305484354496,1.917043685913086,-1.9482486248016357,0.0051069860346615314,2.10137939453125,4.755826937943258,0.0002679314056877047,0.28945493698120117,-1.5969298521624964,0.0,0.0009101626928895712,0.9679336547851562,-0.0,-0.0070188818499445915,0.7746037840843201,0.0023896684870123863,-0.008745765313506126
911.0,899.0,2.1685,-0.2871,9.1244,-0.0319,-0.0191,-0.1165,-1.5492302731475611,-0.05738332122564316,1.9606976509094238,-1.9481688737869263,0.009509535506367683,2.0739216804504395,4.755819085031309,0.00022357171110343188,0.3015112280845642,-1.5969017187701624,0.0,-0.021361948922276497,0.9679221510887146,-0.0,0.006412059534341097,0.7745997309684753,0.0010711969807744026,0.02591981366276741
911.0,899.0,2.1685,-0.2871,9.1244,-0.0319,-0.0191,-0.1165,-1.549589491715171,-0.060422133654356,1.9166027307510376,-1.9481244087219238,0.010388880968093872,2.1018199920654297,4.755831028312006,0.0001988669828278944,0.2975446581840515,-1.5968855063067835,0.0,-0.003692169673740864,0.9679057002067566,-0.0,0.0038141689728945494,0.774547278881073,0.0007090977160260081,0.014211236499249935
911.0,899.0,2.1685,-0.2871,9.1244,-0.0319,-0.0191,-0.1165,-1.5501055971584101,-0.0656445175409317,1.9327032566070557,-1.9480125904083252,0.00924308504909277,2.094118118286133,4.755778952478924,0.000173330437974073,0.292463481426239,-1.5969222227679651,0.0,-0.003484994638711214,0.9679898619651794,-0.0,-0.0002716020680963993,0.774563729763031,0.0004888903931714594,0.028856340795755386
911.0,899.0,2.1685,-0.2871,9.1244,-0.0319,-0.0191,-0.1165,-1.5504647263190527,-0.06731241196393967,1.9267901182174683,-1.9479928016662598,0.008526740595698357,2.114525556564331,4.755826937943258,0.0001581043325131759,0.2921392619609833,-1.596893612538473,0.0,-0.01036735437810421,0.9679016470909119,-0.0,-0.006062130443751812,0.7745152115821838,0.00012888685159850866,0.03877045214176178
911.0,899.0,2.1685,-0.2871,9.1244,-0.0319,-0.0191,-0.1165,-1.551004234035947,-0.06822005659341812,1.9357388019561768,-1.947920322418213,0.006981641985476017,2.1425724029541016,4.755826911866226,0.00014152796939015388,0.2904398441314697,-1.5968735853778284,0.0,0.002340068109333515,0.9679458141326904,-0.0,-0.009862508624792099,0.7745717167854309,9.782805864233524e-05,0.009904289618134499
915.0,938.0,1.9083,-0.1113,9.3595,-0.0454,-0.035,-0.1243,-1.5514083349010725,-0.06959974020719528,1.9092239141464233,-1.9479038715362549,0.005480948835611343,2.0772476196289062,4.755835114955463,0.00013121085066813976,0.28889110684394836,-1.596877400075094,0.0,-0.01209384948015213,0.9679056406021118,-0.0,-0.0038115140050649643,0.7745837569236755,8.411254384554923e-05,-0.007162397261708975
915.0,938.0,1.9083,-0.1113,9.3595,-0.0454,-0.035,-0.1243,-1.5519636210850258,-0.06980583816766739,1.8934226036071777,-1.9478849172592163,0.00404538307338953,2.0894360542297363,4.755831028312006,0.00011958731192862615,0.30055978894233704,-1.5969017187701624,0.0,-0.005670261103659868,0.9679856896400452,-0.0,0.0025438545271754265,0.7744911909103394,3.543278216966428e-05,0.018512394279241562
915.0,938.0,1.9083,-0.1113,9.3595,-0.0454,-0.035,-0.1243,-1.5524075993201514,-0.06801237165927887,1.9238476753234863,-1.947839617729187,0.003504003630951047,2.0833888053894043,4.755855212896623,0.0001121369277825579,0.29571178555488586,-1.5968979040728968,0.0,-0.011122813448309898,0.9679737687110901,-0.0,-0.012225436978042126,0.774563729763031,1.7860299905692045e-08,0.029201190918684006
915.0,938.0,1.9083,-0.1113,9.3595,-0.0454,-0.035,-0.1243,-1.55294304274533,-0.06628665328025818,1.905552625656128,-1.947880744934082,0.0018874835222959518,2.1165568828582764,4.755787084787645,0.00010353665129514411,0.31230705976486206,-1.5968816916095179,0.0,-0.01861233077943325,0.967937707901001,-0.0,0.010879449546337128,0.774563729763031,5.786509814332489e-16,-0.012193931266665459
915.0,938.0,1.9083,-0.1113,9.3595,-0.0454,-0.035,-0.1243,-1.5533905264786263,-0.07059940695762634,1.888214111328125,-1.9478602409362793,0.0008266820223070681,2.1219794750213623,4.755803096085348,9.790506737772375e-05,0.2947377860546112,-1.596877400075094,0.0,0.0008356196340173483,0.967937707901001,-0.0,-0.013355889357626438,0.7745316028594971,1.3973740206339808e-21,0.008881060406565666
915.0,938.0,1.9083,-0.1113,9.3595,-0.0454,-0.035,-0.1243,-1.5539219205132504,-0.07630416005849838,1.932977557182312,-1.9478446245193481,0.00047630234621465206,2.1017136573791504,4.7557990057166,9.128476813202724e-05,0.3061966300010681,-1.596877400075094,0.0,-0.017028063535690308,0.9679821133613586,-0.0,0.00577990896999836,0.7745275497436523,4.527314515706118e-29,0.01632598415017128
915.0,938.0,1.9083,-0.1113,9.3595,-0.0454,-0.035,-0.1243,-1.5544137594154854,-0.08100605756044388,1.8849389553070068,-1.947812557220459,0.00043271438335068524,2.0814390182495117,4.75582284757451,0.00010087085684062913,0.2999836206436157,-1.596877400075094,0.0,-0.015744945034384727,0.9679697155952454,-0.0,-7.682229625061154e-05,0.7745357155799866,-0.0006694686599075794,0.04756277799606323
915.0,938.0,1.9083,-0.1113,9.3595,-0.0454,-0.035,-0.1243,-1.555025217389204,-0.08450829237699509,1.9467031955718994,-1.9477680921554565,0.0026505105197429657,2.074960708618164,4.755870877742328,8.79366125445813e-05,0.29330310225486755,-1.5968979040728968,0.0,-0.004888680763542652,0.967949628829956,-0.0,0.008061540313065052,0.7744913697242737,-0.0011013892944902182,0.013130557723343372
915.0,938.0,1.9083,-0.1113,9.3595,-0.0454,-0.035,-0.1243,-1.5555610631457348,-0.0847187340259552,1.9369767904281616,-1.9477556943893433,0.004385883919894695,2.1369199752807617,4.75580274963335,0.00013038887118455023,0.3031514286994934,-1.5969422499286097,0.0,-0.006394207943230867,0.9679375886917114,-0.0,0.006362058222293854,0.7745236754417419,-0.0009012697264552116,-0.013009278103709221
915.0,938.0,1.9083,-0.1113,9.3595,-0.0454,-0.035,-0.1243,-1.5562602815083046,-0.08525346219539642,1.9234068393707275,-1.9477607011795044,0.0051328809931874275,2.1171462535858154,4.75582659149126,0.0007916587055660784,0.3044550120830536,-1.596877400075094,0.0,-0.013810278847813606,0.9679336547851562,-0.0,-0.0055390531197190285,0.7745075225830078,-0.0006067065987735987,-0.01193755678832531
915.0,938.0,1.9083,-0.1113,9.3595,-0.0454,-0.035,-0.1243,-1.5568439693054934,-0.085295669734478,1.879231572151184,-1.9476841688156128,0.004850840661674738,2.100872755050659,4.755870877742328,0.0006611066637560725,0.30359235405921936,-1.5968454519854944,0.0,-0.010353706777095795,0.9679612517356873,-0.0,0.004172902088612318,0.7745195627212524,-0.00048425616114400327,-0.04632691666483879
915.0,938.0,1.9083,-0.1113,9.3595,-0.0454,-0.035,-0.1243,-1.5575231800651927,-0.08317014575004578,1.9976880550384521,-1.9476561546325684,0.0033450834453105927,2.0700769424438477,4.755870877742328,0.00041399453766644,0.3155100345611572,-1.5968893210040491,0.0,-0.010955904610455036,0.9679335951805115,-0.0,0.0016186779830604792,0.7745116353034973,-0.0003815826785285026,0.003301626071333885
915.0,938.0,1.9083,-0.1113,9.3595,-0.0454,-0.035,-0.1243,-1.5580388012206932,-0.08498004823923111,1.9386742115020752,-1.947721242904663,0.0018843556754291058,2.0964608192443848,4.755818760931053,0.00032437671325169504,0.30860960483551025,-1.5969303289996546,0.0,-0.0015388401225209236,0.9679660797119141,-0.0,0.008447556756436825,0.7745318412780762,-0.00032923257094807923,-0.004314012825489044
903.0,8190.0,1.4961,-0.1627,8.8409,-0.0319,-0.0173,-0.1329,-1.5587020183778186,-0.09112799167633057,1.9221997261047363,-1.9476571083068848,0.000927374348975718,2.0617623329162598,4.755862700730123,0.0002517487737350166,0.3107677400112152,-1.5968979040728968,0.0,0.0029541647527366877,0.9679257869720459,-0.0,0.008481391705572605,0.7745358943939209,-0.0001998496154556051,0.03527163341641426
903.0,8190.0,1.4961,-0.1627,8.8409,-0.0319,-0.0173,-0.1329,-1.559317910378315,-0.09445440024137497,1.922055721282959,-1.9476490020751953,0.0006605152739211917,2.078500270843506,4.75587463656024,0.00025789596838876605,0.31675875186920166,-1.5969060103045862,0.0,-0.011646570637822151,0.9679737687110901,-0.0,0.015608503483235836,0.7745075225830078,-0.0002114491508109495,0.011102915741503239
903.0,8190.0,1.4961,-0.1627,8.8409,-0.0319,-0.0173,-0.1329,-1.5600289425677438,-0.09808246791362762,1.8895118236541748,-1.9476208686828613,0.003941668197512627,2.0881705284118652,4.755926954537191,0.00035181015846319497,0.3018915355205536,-1.5969303289996546,0.0,-0.016315966844558716,0.9679697155952454,-0.0,0.00933679100126028,0.7745036482810974,-0.00018294030451215804,-0.0023214491084218025
903.0,8190.0,1.4961,-0.1627,8.8409,-0.0319,-0.0173,-0.1329,-1.5606970547563215,-0.10345814377069473,1.9656651020050049,-1.9476250410079956,0.00670288410037756,2.1272568702697754,4.755858610361376,0.0018155109137296677,0.3191545009613037,-1.596877400075094,0.0,-0.021578602492809296,0.9679255485534668,-0.0,0.0038240717258304358,0.7744874954223633,-0.00019372433598618954,0.008763316087424755
903.0,8190.0,1.4961,-0.1627,8.8409,-0.0319,-0.0173,-0.1329,-1.5615240710652252,-0.10963891446590424,1.948019027709961,-1.9475287199020386,0.00920798722654581,2.0876145362854004,4.755922782212057,0.0025527949910610914,0.30081069469451904,-1.5968893210040491,0.0,-0.01597273163497448,0.967969536781311,-0.0,0.004392539616674185,0.774479329586029,-0.0001102842070395127,0.06631201505661011
903.0,8190.0,1.4961,-0.1627,8.8409,-0.0319,-0.0173,-0.1329,-1.562223401186504,-0.11078651249408722,1.9356286525726318,-1.947424054145813,0.01047294121235609,2.136040687561035,4.755910622864523,0.0029869326390326023,0.3027324080467224,-1.5969341436969202,0.0,-0.01867634430527687,0.9679898023605347,-0.0,0.0012472569942474365,0.7744834423065186,-9.315871284343302e-05,0.022845346480607986
903.0,8190.0,1.4961,-0.1627,8.8409,-0.0319,-0.0173,-0.1329,-1.5631467963433643,-0.10837220400571823,1.9118692874908447,-1.9473888874053955,0.008869966492056847,2.1409878730773926,4.755862246244707,0.0023104604333639145,0.30880069732666016,-1.5969060103045862,0.0,0.000324473949149251,0.9679775238037109,-0.0,0.00566389923915267,0.7744913697242737,-3.859007847495377e-05,0.018585601821541786
903.0,8190.0,1.4961,-0.1627,8.8409,-0.0319,-0.0173,-0.1329,-1.5638617694242676,-0.11027245223522186,1.9337208271026611,-1.9473928213119507,0.0063790613785386086,2.0757429599761963,4.755906450539388,0.0011041118996217847,0.3054417073726654,-1.596893612538473,0.0,-0.02233259007334709,0.9679095149040222,-0.0,-0.0018187557579949498,0.7745399475097656,-1.6390011126077297e-07,0.04512561112642288
903.0,8190.0,1.4961,-0.1627,8.8409,-0.0319,-0.0173,-0.1329,-1.564752890062966,-0.12106941640377045,1.927323341369629,-1.9473007917404175,0.003036394016817212,2.0397233963012695,4.7558942688401125,0.0005556181422434747,0.3156663775444031,-1.5968979040728968,0.0,-0.011967812664806843,0.9680088758468628,-0.0,0.02469227835536003,0.7745277285575867,-5.310155001939142e-15,0.05928545445203781
903.0,8190.0,1.4961,-0.1627,8.8409,-0.0319,-0.0173,-0.1329,-1.5657925939052184,-0.13199779391288757,1.969402551651001,-1.9473254680633545,0.001957515487447381,2.0893630981445312,4.755918691843309,0.0005151271470822394,0.31459712982177734,-1.5969017187701624,0.0,-0.009323555044829845,0.9679734706878662,-0.0,0.021982870995998383,0.7745155096054077,-1.720422583010925e-22,0.042407259345054626
903.0,8190.0,1.4961,-0.1627,8.8409,-0.0319,-0.0173,-0.1329,-1.566596293622144,-0.13823191821575165,1.903587818145752,-1.9472531080245972,0.003921870142221451,2.1245250701904297,4.755994374841013,0.0005591848166659474,0.32226628065109253,-1.596877400075094,0.0,-0.008464198559522629,0.9679734706878662,-0.0,0.023294489830732346,0.7745195627212524,-4.154618483444576e-28,0.018808845430612564
903.0,8190.0,1.4961,-0.1627,8.8409,-0.0319,-0.0173,-0.1329,-1.5676790306209405,-0.13546115159988403,1.953798770904541,-1.9472250938415527,0.008377990685403347,2.159224033355713,4.755974209844627,0.0037214173935353756,0.3241947889328003,-1.5969060103045862,0.0,-0.008029897697269917,0.9679737687110901,-0.0,0.02783479541540146,0.7745236158370972,-1.3460434856669205e-35,0.03189641982316971
903.0,8190.0,1.4961,-0.1627,8.8409,-0.0319,-0.0173,-0.1329,-1.568465767926984,-0.1299007534980774,1.9657648801803589,-1.9471691846847534,0.008901174180209637,2.0756053924560547,4.756022560387411,0.0033504501916468143,0.3377513885498047,-1.5968893210040491,0.0,-0.001093894592486322,0.9679495096206665,-0.0,0.021846000105142593,0.7744954824447632,-3.250592047694278e-41,0.0264069102704525
911.0,886.0,2.7045,-0.8871,7.8036,-0.0924,-0.192,-0.1151,-1.5695967455725004,-0.137789785861969,1.9676570892333984,-1.947141170501709,0.005602676887065172,2.061872720718384,4.75598610469655,0.0009853626834228635,0.32358866930007935,-1.5968416372882288,0.0,-0.017082616686820984,0.9679734706878662,-0.0,0.026091771200299263,0.7745316028594971,0.0,0.04063127934932709
911.0,886.0,2.7045,-0.8871,7.8036,-0.0924,-0.192,-0.1151,-1.5704924451459483,-0.15088105201721191,1.9610552787780762,-1.9471089839935303,0.002297873143106699,2.0777132511138916,4.756026218622484,0.00046336959348991513,0.32407182455062866,-1.5969260374652308,0.0,-0.010219109244644642,0.9680129885673523,-0.0,0.012721538543701172,0.7745034694671631,0.0,0.02516089379787445
911.0,886.0,2.7045,-0.8871,7.8036,-0.0924,-0.192,-0.1151,-1.571667333642477,-0.1647704690694809,1.8984789848327637,-1.9470770359039307,0.0010051223216578364,2.0856246948242188,4.756062305509605,0.00022712357167620212,0.3192155957221985,-1.596877400075094,0.0,-0.007761738728731871,0.9679656028747559,-0.0,0.025465102866292,0.7744833827018738,9.776947263162583e-05,0.025074884295463562
911.0,886.0,2.7045,-0.8871,7.8036,-0.0924,-0.192,-0.1151,-1.572573801080221,-0.1640925258398056,1.947237253189087,-1.9470893144607544,0.004047492053359747,2.079960346221924,4.756090222835102,0.0012644479284062982,0.32247811555862427,-1.5968697706805628,0.0,-0.02019059658050537,0.9679775834083557,-0.0,0.024241231381893158,0.7744953036308289,6.598771142307669e-05,0.07165154814720154
911.0,886.0,2.7045,-0.8871,7.8036,-0.0924,-0.192,-0.1151,-1.5738331280150355,-0.15115158259868622,1.879677414894104,-1.9470219612121582,0.011560621671378613,2.1077089309692383,4.756073902338304,0.00568010238930583,0.3329068422317505,-1.59691030183901,0.0,-0.010980388149619102,0.9679816365242004,-0.0,0.032382458448410034,0.7745154500007629,4.233140227238863e-10,0.028703974559903145
911.0,886.0,2.7045,-0.8871,7.8036,-0.0924,-0.192,-0.1151,-1.5747963390746058,-0.14506885409355164,1.947477102279663,-1.946929693222046,0.014110543765127659,2.1219823360443115,4.756077564298668,0.006033862009644508,0.3360898494720459,-1.5969017187701624,0.0,-0.019861865788698196,0.967949628829956,-0.0,0.025639276951551437,0.7745034694671631,1.0222536767342323e-15,0.02185547724366188
911.0,886.0,2.7045,-0.8871,7.8036,-0.0924,-0.192,-0.1151,-1.5760671101012171,-0.1563906967639923,1.933760404586792,-1.9468415975570679,0.01038153562694788,2.1265103816986084,4.756105839252033,0.0022231689654290676,0.32851701974868774,-1.5968855063067835,0.0,-0.021547935903072357,0.9680129885673523,7.26090875105001e-05,0.031301349401474,0.7745394110679626,3.311971926052897e-23,0.035170648247003555
911.0,886.0,2.7045,-0.8871,7.8036,-0.0924,-0.192,-0.1151,-1.5770226917662562,-0.1696903556585312,1.9238395690917969,-1.9467889070510864,0.005540336482226849,2.0955252647399902,4.756125914841451,0.0009926672792062163,0.32246145606040955,-1.5968893210040491,0.0,-0.019699882715940475,0.9679654836654663,6.929422670509666e-05,0.009038211777806282,0.7745316624641418,7.998022336056972e-29,0.04277176782488823
911.0,886.0,2.7045,-0.8871,7.8036,-0.0924,-0.192,-0.1151,-1.5783053837218226,-0.17686845362186432,1.9052226543426514,-1.946770191192627,0.002126632956787944,2.128493309020996,4.756154167443075,0.0007477877661585808,0.32692065834999084,-1.5968979040728968,0.0,-0.023617776110768318,0.9678772687911987,6.52736853226088e-05,0.033504419028759,0.7745275497436523,2.591257623256802e-36,0.041111111640930176
911.0,886.0,2.7045,-0.8871,7.8036,-0.0924,-0.192,-0.1151,-1.5792609653868617,-0.16772200167179108,1.890573501586914,-1.9467339515686035,0.0036319575738161802,2.057661771774292,4.756157825678148,0.0020876172930002213,0.3268958330154419,-1.5969141165362757,0.0,-0.02317643165588379,0.9679808020591736,7.464186637662351e-05,0.0366603322327137,0.7745357155799866,6.258198941674633e-42,0.068157859146595
911.0,886.0,2.7045,-0.8871,7.8036,-0.0924,-0.192,-0.1151,-1.5805474720396937,-0.15838700532913208,1.9200303554534912,-1.946690320968628,0.0068282028660178185,2.0700173377990723,4.756181667536058,0.00540733989328146,0.32163602113723755,-1.5968697706805628,0.0,-0.014216081239283085,0.9679495096206665,7.110831938916817e-05,0.036379050463438034,0.7745034694671631,0.0,0.06580103933811188
911.0,886.0,2.7045,-0.8871,7.8036,-0.0924,-0.192,-0.1151,-1.581526895562643,-0.15361109375953674,1.9483795166015625,-1.9466944932937622,0.007853238843381405,2.122378349304199,4.756233441620626,0.0063460334204137325,0.338026225566864,-1.59691030183901,0.0,-0.027124697342514992,0.9679296016693115,6.840601417934522e-05,0.022972099483013153,0.7744953036308289,5.681056791217998e-05,0.007252531126141548
911.0,886.0,2.7045,-0.8871,7.8036,-0.0924,-0.192,-0.1151,-1.5827938518919886,-0.15727488696575165,1.9518167972564697,-1.946601390838623,0.006375626660883427,2.1034507751464844,4.756321880012312,0.004402701742947102,0.34284740686416626,-1.5969141165362757,0.0,-0.02952178195118904,0.9680129289627075,6.510699313366786e-05,0.028895143419504166,0.774587869644165,0.0006958268349990249,0.061036739498376846
907.0,832.0,2.668,-0.5468,8.2624,-0.0623,-0.1264,-0.117,-1.5837327442564906,-0.1634499579668045,1.982475757598877,-1.946601390838623,0.0035287949722260237,2.1447560787200928,4.756297680526533,0.002438223920762539,0.33922573924064636,-1.5969579855548304,0.0,-0.012654726393520832,0.9679612517356873,6.283422408159822e-05,0.03198746591806412,0.7745717167854309,0.0008376791956834495,0.06247109919786453
907.0,832.0,2.668,-0.5468,8.2624,-0.0623,-0.1264,-0.117,-1.5850359402098597,-0.16716636717319489,1.981512188911438,-1.946574330329895,0.0016932095168158412,2.123711347579956,4.756277150451698,0.001367894932627678,0.3381904363632202,-1.5969017187701624,0.0,-0.031309712678194046,0.9679844975471497,6.987667438806966e-05,0.03717196360230446,0.7745435237884521,0.0006251485901884735,0.06450643390417099
907.0,832.0,2.668,-0.5468,8.2624,-0.0623,-0.1264,-0.117,-1.5859586201109828,-0.17106880247592926,1.9417262077331543,-1.9465092420578003,0.0018786941654980183,2.0808353424072266,4.756301446795025,0.00200977292843163,0.3361939787864685,-1.5969260374652308,0.0,-0.024541646242141724,0.9679849147796631,7.58353877472473e-08,0.033604696393013,0.7744669914245605,0.00043483314220793545,0.06999580562114716
907.0,832.0,2.668,-0.5468,8.2624,-0.0623,-0.1264,-0.117,-1.5873056850829066,-0.16609837114810944,1.9239760637283325,-1.9464614391326904,0.005785302724689245,2.0829715728759766,4.756360772043028,0.006754511501640081,0.33533233404159546,-1.596893612538473,0.0,-0.029699739068746567,0.9680008888244629,1.378270869829834e-12,0.036185912787914276,0.7745234966278076,0.00034019543090835214,0.060360416769981384
907.0,832.0,2.668,-0.5468,8.2624,-0.0623,-0.1264,-0.117,-1.5882884464659632,-0.15878288447856903,1.9412329196929932,-1.9464656114578247,0.009076865389943123,2.074558734893799,4.756497046887436,0.010191626846790314,0.3351932168006897,-1.59691030183901,0.0,-0.021822195500135422,0.9679574966430664,3.8364673867900866e-16,0.03839269280433655,0.774543821811676,0.00029276340501382947,0.009609349071979523
907.0,832.0,2.668,-0.5468,8.2624,-0.0623,-0.1264,-0.117,-1.5896393261351527,-0.15236210823059082,2.010138988494873,-1.9463496208190918,0.00928502157330513,2.077300786972046,4.756540833949604,0.013144348748028278,0.3440183401107788,-1.5969260374652308,0.0,-0.028016407042741776,0.9679888486862183,6.972590534338602e-21,0.027219561859965324,0.774563729763031,0.0002821366360876709,0.06184687092900276
907.0,832.0,2.668,-0.5468,8.2624,-0.0623,-0.1264,-0.117,-1.5906669102110804,-0.16630686819553375,1.9553501605987549,-1.946381688117981,0.005643438547849655,2.085099935531616,4.7566085932548425,0.012664561159908772,0.35151857137680054,-1.5968979040728968,0.0,-0.028788268566131592,0.9679696559906006,1.9408461208136074e-24,0.030186261981725693,0.7745636701583862,0.0002840892702806741,0.12104258686304092
907.0,832.0,2.668,-0.5468,8.2624,-0.0623,-0.1264,-0.117,-1.5919891796507777,-0.18638135492801666,1.9587621688842773,-1.946378469467163,0.0014862914104014635,2.0517890453338623,4.756684041559257,0.010088411159813404,0.3406849205493927,-1.5968979040728968,0.0,-0.02869964763522148,0.9680048227310181,3.527392151585924e-29,0.02846338227391243,0.774587869644165,0.0009290003799833357,0.10076748579740524
907.0,832.0,2.668,-0.5468,8.2624,-0.0623,-0.1264,-0.117,-1.593161245385641,-0.19069631397724152,1.950310230255127,-1.9462698698043823,0.0010664690053090453,2.099803924560547,4.7568079000111005,0.0119525957852602,0.3313477039337158,-1.596893612538473,0.0,-0.028003564104437828,0.9679574966430664,9.818626601878186e-33,0.02971619740128517,0.7745194435119629,0.00029450663714669645,0.1074049174785614
907.0,832.0,2.668,-0.5468,8.2624,-0.0623,-0.1264,-0.117,-1.5946408710875453,-0.16725598275661469,2.0273430347442627,-1.9462254047393799,0.007598200812935829,2.1372573375701904,4.756923495769062,0.022511793300509453,0.33505502343177795,-1.5969179312335413,0.0,-0.02327505126595497,0.9680214524269104,1.7844868925107527e-37,0.02582680433988571,0.7745475769042969,6.954098186184865e-09,0.08035270124673843
907.0,832.0,2.668,-0.5468,8.2624,-0.0623,-0.1264,-0.117,-1.595748086968893,-0.1632293313741684,2.025447130203247,-1.946222186088562,0.008833623491227627,2.080267906188965,4.757062996714868,0.030342767015099525,0.34567970037460327,-1.59691030183901,0.0,-0.029209543019533157,0.9679968357086182,4.967182666492179e-41,0.022307492792606354,0.7745434641838074,1.6793329422372383e-14,0.09051315486431122
907.0,832.0,2.668,-0.5468,8.2624,-0.0623,-0.1264,-0.117,-1.597170969048971,-0.18252724409103394,1.9963493347167969,-1.9461580514907837,0.003631643485277891,2.073296070098877,4.757281984179773,0.04052644595503807,0.3502614498138428,-1.5968979040728968,0.0,-0.035003360360860825,0.9679968953132629,1.401298464324817e-45,0.0232426505535841,0.7745716571807861,5.440824402842742e-22,0.12380705773830414
907.0,832.0,2.668,-0.5468,8.2624,-0.0623,-0.1264,-0.117,-1.5982815227904261,-0.19939951598644257,1.9643211364746094,-1.9462376832962036,0.0005777333863079548,2.0800955295562744,4.757605909347095,0.052829205989837646,0.3458667993545532,-1.5968735853778284,0.0,-0.031827475875616074,0.9680175185203552,0.0,0.014917837455868721,0.7746318578720093,1.3138950229292326e-27,0.07391223311424255
876.0,866.0,3.1597,-0.8016,8.5771,-0.0637,-0.0655,-0.1367,-1.599844594995016,-0.19673581421375275,1.920320749282837,-1.9462426900863647,6.862136553431597e-11,2.0433146953582764,4.758076186269083,0.07503430545330048,0.3634715676307678,-1.5969260374652308,0.0,-0.04102173447608948,0.9679655432701111,0.0,0.02848753333091736,0.7745394110679626,4.256852762312845e-35,0.12431718409061432
876.0,866.0,3.1597,-0.8016,8.5771,-0.0637,-0.0655,-0.1367,-1.6009956798949183,-0.18977807462215424,2.0128283500671387,-1.9461464881896973,1.6571251994920645e-16,2.091334104537964,4.758630356728592,0.08799474686384201,0.3657468557357788,-1.5968979040728968,0.0,-0.039207231253385544,0.9679808616638184,0.0,0.028885945677757263,0.7745596170425415,-0.00017388979904353619,0.15512657165527344
876.0,866.0,3.1597,-0.8016,8.5771,-0.0637,-0.0655,-0.1367,-1.602513929406637,-0.1909395158290863,1.9841707944869995,-1.9461259841918945,0.0024852799251675606,2.062870740890503,4.759384023934164,0.09731602668762207,0.3697807788848877,-1.596893612538473,0.0,-0.04418232664465904,0.9679614901542664,0.0,0.03202112391591072,0.7745596766471863,-6.626445247093216e-05,0.09176161885261536
876.0,866.0,3.1597,-0.8016,8.5771,-0.0637,-0.0655,-0.1367,-1.6036411724486292,-0.19750921428203583,1.9511308670043945,-1.946082353591919,0.003287756582722068,2.1066341400146484,4.759990020632305,0.08709684759378433,0.3770897388458252,-1.5968735853778284,0.0,-0.05208272486925125,0.9679412841796875,0.0,0.03750884532928467,0.7745634913444519,-4.6115705698568377e-10,0.12731920182704926
876.0,866.0,3.1597,-0.8016,8.5771,-0.0637,-0.0655,-0.1367,-1.6052686176695765,-0.1962764412164688,1.9597423076629639,-1.9460617303848267,0.004081042483448982,2.0748682022094727,4.760583951115169,0.07218825817108154,0.36305806040763855,-1.5968812147723597,0.0,-0.03685154765844345,0.9679175615310669,0.0,0.05063638463616371,0.7745757699012756,-1.494090018340231e-17,0.13691112399101257
876.0,866.0,3.1597,-0.8016,8.5771,-0.0637,-0.0655,-0.1367,-1.6064473591246546,-0.19218184053897858,2.007671356201172,-1.9460419416427612,0.0054474156349897385,2.058380603790283,4.761078509479322,0.08437593281269073,0.35873866081237793,-1.596893612538473,0.0,-0.04880639538168907,0.9679968357086182,0.0,0.027422606945037842,0.7745838165283203,-3.6080519341658786e-23,0.14825662970542908
876.0,866.0,3.1597,-0.8016,8.5771,-0.0637,-0.0655,-0.1367,-1.607974191705221,-0.1945333033800125,1.939546823501587,-1.9460583925247192,0.00548816192895174,2.1058566570281982,4.761903568148174,0.1299523562192917,0.39723747968673706,-1.5968692938434046,0.0,-0.052041757851839066,0.9680134654045105,0.0,0.03445814549922943,0.774579644203186,-1.1689629280509266e-30,0.11611495912075043
876.0,866.0,3.1597,-0.8016,8.5771,-0.0637,-0.0655,-0.1367,-1.609145303765768,-0.20168006420135498,1.9812414646148682,-1.945977807044983,0.0030045926105231047,2.056708812713623,4.762829120248117,0.14922519028186798,0.38671332597732544,-1.5968812147723597,0.0,-0.04516292363405228,0.9680008888244629,0.0,0.024595245718955994,0.7745717167854309,-2.822907819427842e-36,0.19975543022155762
876.0,866.0,3.1597,-0.8016,8.5771,-0.0637,-0.0655,-0.1367,-1.6106559238829554,-0.19768524169921875,2.0056352615356445,-1.945994257926941,0.0034453165717422962,2.063683271408081,4.76412936949686,0.1659872978925705,0.4029102921485901,-1.5968855063067835,0.0,-0.047952041029930115,0.9679695963859558,0.0,0.03357464075088501,0.7745555639266968,-9.10844001811131e-44,0.13851800560951233
876.0,866.0,3.1597,-0.8016,8.5771,-0.0637,-0.0655,-0.1367,-1.6118394337096156,-0.1980402171611786,1.9849551916122437,-1.9459630250930786,0.006062692496925592,2.0620267391204834,4.765193901001968,0.19531697034835815,0.3972853422164917,-1.5969260374652308,0.0,-0.05442456528544426,0.9679734706878662,0.0,0.04765918850898743,0.7745354175567627,0.0,0.14082317054271698
876.0,866.0,3.1597,-0.8016,8.5771,-0.0637,-0.0655,-0.1367,-1.6134187183775843,-0.19516076147556305,2.0168116092681885,-1.945902943611145,0.007127422373741865,2.068453788757324,4.766956060170688,0.2197122871875763,0.4374322295188904,-1.5969222227679651,0.0,-0.043869227170944214,0.9679532647132874,0.0,0.046313729137182236,0.7745797634124756,0.0,0.12857235968112946
876.0,866.0,3.1597,-0.8016,8.5771,-0.0637,-0.0655,-0.1367,-1.6145011387267054,-0.19295743107795715,2.0164897441864014,-1.9458305835723877,0.007956977002322674,2.1113779544830322,4.768239348172703,0.22411951422691345,0.4238770604133606,-1.5969579855548304,0.0,-0.07165832817554474,0.9679656028747559,0.0,0.036727406084537506,0.7746078372001648,0.0,0.16813594102859497
876.0,866.0,3.1597,-0.8016,8.5771,-0.0637,-0.0655,-0.1367,-1.616007467309469,-0.1905464380979538,1.984684944152832,-1.9457218647003174,0.010655452497303486,2.0372390747070312,4.770289651095428,0.2582376003265381,0.44006747007369995,-1.5969136396991175,0.0,-0.06800445169210434,0.9679375886917114,0.0,0.046664535999298096,0.7745435237884521,0.0,0.26131170988082886
883.0,826.0,3.1609,-0.7819,9.0114,-0.0165,0.172,-0.1119,-1.6172591648497523,-0.19614607095718384,1.9570510387420654,-1.945698857307434,0.01016966626048088,2.037330150604248,4.771892323135891,0.2801238000392914,0.443541944026947,-1.596949879323141,0.0,-0.06345908343791962,0.9679849147796631,0.0,0.03458413481712341,0.7745798230171204,0.00012514303671196103,0.18182876706123352
883.0,826.0,3.1609,-0.7819,9.0114,-0.0165,0.172,-0.1119,-1.618770261804098,-0.1995181441307068,1.947237253189087,-1.9456108808517456,0.01176703255623579,2.0976457595825195,4.774364228337564,0.31723299622535706,0.4773547053337097,-1.5968855063067835,0.0,-0.06534502655267715,0.9680495262145996,0.0,0.027218665927648544,0.7745112180709839,0.00013515670434571803,0.18063822388648987
883.0,826.0,3.1609,-0.7819,9.0114,-0.0165,0.172,-0.1119,-1.619948526422018,-0.19249585270881653,2.002223491668701,-1.9455031156539917,0.01401621662080288,2.1001694202423096,4.776397447078981,0.35208189487457275,0.4850691556930542,-1.5969341436969202,0.0,-0.05991386994719505,0.9680088758468628,0.0,0.03578678518533707,0.7745556235313416,0.00012572770356200635,0.1675209403038025
883.0,826.0,3.1609,-0.7819,9.0114,-0.0165,0.172,-0.1119,-1.6215402088561,-0.19099360704421997,2.0159049034118652,-1.945366382598877,0.018717490136623383,2.107325792312622,4.77940014281825,0.38972237706184387,0.49780407547950745,-1.5969422499286097,0.0,-0.056112442165613174,0.9679849147796631,2.455466756146052e-06,0.0345928892493248,0.7746320962905884,0.00011501622066134587,0.2045847773551941
883.0,826.0,3.1609,-0.7819,9.0114,-0.0165,0.172,-0.1119,-1.6227714023985804,-0.2015838623046875,1.917556881904602,-1.945303201675415,0.019684435799717903,2.0846242904663086,4.781824770360746,0.4081447422504425,0.5039807558059692,-1.5968692938434046,0.0,-0.07144087553024292,0.9679888486862183,6.834881549622196e-10,0.05241294205188751,0.7745956182479858,0.00012612527643796057,0.19645023345947266
883.0,826.0,3.1609,-0.7819,9.0114,-0.0165,0.172,-0.1119,-1.6244336567320765,-0.2105344980955124,1.9908913373947144,-1.9451311826705933,0.02276594378054142,2.0768775939941406,4.7853016061480425,0.45731836557388306,0.5455139875411987,-1.5969541708575647,0.0,-0.059078145772218704,0.9679926037788391,1.2422061738070166e-14,0.047719553112983704,0.7745717167854309,0.0001334572589257732,0.20960678160190582
883.0,826.0,3.1609,-0.7819,9.0114,-0.0165,0.172,-0.1119,-1.6256848774352015,-0.20254342257976532,2.0227246284484863,-1.9449830055236816,0.02841349132359028,2.0869383811950684,4.788240420609274,0.4969833791255951,0.5379805564880371,-1.5968573729144495,0.0,-0.07075135409832001,0.9679094552993774,3.457726009468891e-18,0.03143712878227234,0.7745433449745178,0.00012642705405596644,0.23095190525054932
883.0,826.0,3.1609,-0.7819,9.0114,-0.0165,0.172,-0.1119,-1.6273557148375453,-0.20266146957874298,2.0120084285736084,-1.9447075128555298,0.03795168176293373,2.087293863296509,4.792294244259157,0.542930006980896,0.5714244842529297,-1.5969303289996546,0.0,-0.07972196489572525,0.9680129289627075,6.28424583127697e-23,0.02076951041817665,0.7745797634124756,0.00016217608936131,0.2427065521478653
883.0,826.0,3.1609,-0.7819,9.0114,-0.0165,0.172,-0.1119,-1.6285983524718226,-0.21319982409477234,2.015524387359619,-1.9445033073425293,0.04014349356293678,2.14017391204834,4.795735749393263,0.577953577041626,0.5537856221199036,-1.5969222227679651,0.0,-0.0814448744058609,0.9679577350616455,1.7492428201732176e-26,0.02132359705865383,0.7745878100395203,0.0001802973565645516,0.21016070246696472
883.0,826.0,3.1609,-0.7819,9.0114,-0.0165,0.172,-0.1119,-1.6303698025145472,-0.22031566500663757,2.006924629211426,-1.9441035985946655,0.04323701560497284,2.0960936546325684,4.800580034940996,0.622214674949646,0.5804345607757568,-1.5968893210040491,0.0,-0.05594899505376816,0.9679808616638184,3.179162087618103e-31,0.024492308497428894,0.7745836973190308,0.0002102058642776683,0.20775602757930756
883.0,826.0,3.1609,-0.7819,9.0114,-0.0165,0.172,-0.1119,-1.6316601238646449,-0.21322643756866455,1.9788286685943604,-1.9438486099243164,0.04873104766011238,2.126110553741455,4.804444941669264,0.6512575149536133,0.5612719058990479,-1.5968979040728968,0.0,-0.060685895383358,0.9679695963859558,8.849314901503963e-35,0.0329778715968132,0.7745514512062073,0.00019592522585298866,0.2336309254169464
883.0,826.0,3.1609,-0.7819,9.0114,-0.0165,0.172,-0.1119,-1.6333710155882777,-0.21974535286426544,1.967585563659668,-1.9434165954589844,0.058245059102773666,2.0936052799224854,4.809925380140104,0.6844390034675598,0.5460529923439026,-1.5968855063067835,0.0,-0.07541157305240631,0.9679612517356873,1.608319292951844e-39,0.02683565951883793,0.774587869644165,0.00029589293990284204,0.2432590126991272
883.0,826.0,3.1609,-0.7819,9.0114,-0.0165,0.172,-0.1119,-1.6351820431151332,-0.22936658561229706,2.0163486003875732,-1.9429254531860352,0.0670691505074501,2.1223628520965576,4.815595786064424,0.7186712622642517,0.5482012629508972,-1.5968979040728968,0.0,-0.06303852051496506,0.9679968357086182,2.942726775082116e-44,0.042521074414253235,0.7745434045791626,0.0002935744123533368,0.20316509902477264
880.0,840.0,2.8367,-0.4445,9.3631,0.0687,0.6936,-0.1297,-1.636512895623678,-0.22906771302223206,1.988634467124939,-1.942461371421814,0.0742979422211647,2.1326217651367188,4.819885614305296,0.7413813471794128,0.5475559830665588,-1.5969298521624964,0.0,-0.0668300986289978,0.9680210947990417,0.0,0.047010548412799835,0.7745875120162964,0.0002944503794424236,0.22699099779129028
880.0,840.0,2.8367,-0.4445,9.3631,0.0687,0.6936,-0.1297,-1.638332029382223,-0.22411346435546875,1.9993582963943481,-1.9417340755462646,0.08918245881795883,2.1680843830108643,4.825935716717996,0.7735263109207153,0.5331268310546875,-1.5969017187701624,0.0,-0.06306588649749756,0.967969536781311,0.0,0.02352793514728546,0.7745875120162964,0.0002480869006831199,0.18681353330612183
880.0,840.0,2.8367,-0.4445,9.3631,0.0687,0.6936,-0.1297,-1.6396948299803675,-0.23103147745132446,1.9947094917297363,-1.9412387609481812,0.09408872574567795,2.1292500495910645,4.830638828664579,0.7890481352806091,0.5294516086578369,-1.596893612538473,0.0,-0.05799456313252449,0.9679654836654663,0.0,0.03065255656838417,0.774579644203186,0.0002901825064327568,0.22427356243133545
880.0,840.0,2.8367,-0.4445,9.3631,0.0687,0.6936,-0.1297,-1.6415211162962855,-0.23721365630626678,1.9565329551696777,-1.940508246421814,0.09353567659854889,2.1246278285980225,4.8370676068361185,0.8116891980171204,0.5309446454048157,-1.5969255606280726,0.0,-0.06258663535118103,0.9680008888244629,0.0,0.030162228271365166,0.7746277451515198,0.00038994671194814146,0.18897853791713715
880.0,840.0,2.8367,-0.4445,9.3631,0.0687,0.6936,-0.1297,-1.6429006061949671,-0.24199680984020233,1.9478015899658203,-1.9398442506790161,0.08961178362369537,2.1804025173187256,4.842122661858358,0.8212833404541016,0.5411591529846191,-1.5969179312335413,0.0,-0.05969984084367752,0.9680129885673523,1.8091646779794246e-05,0.04002046212553978,0.7745915651321411,0.0007391475955955684,0.18814578652381897
880.0,840.0,2.8367,-0.4445,9.3631,0.0687,0.6936,-0.1297,-1.6447659931578578,-0.23985369503498077,1.9214104413986206,-1.9391850233078003,0.09668394923210144,2.1574244499206543,4.848702239781179,0.8334832787513733,0.5421961545944214,-1.5968650023089808,0.0,-0.05210234224796295,0.9680092334747314,1.6777114069554955e-05,0.03440433740615845,0.7745834589004517,0.00048401576350443065,0.2167632281780243
