ramyac6/ROB537/final_project/csv/all/good_150.csv
tof_0,tof_1,accelx,accely,accelz,gyrox,gyroy,gyroz,shoulder_lift_joint_position,shoulder_lift_joint_velocity,shoulder_lift_joint_effort,elbow_joint_position,elbow_joint_velocity,elbow_joint_effort,wrist_1_joint_position,wrist_1_joint_velocity,wrist_1_joint_effort,wrist_2_joint_position,wrist_2_joint_velocity,wrist_2_joint_effort,wrist_3_joint_position,wrist_3_joint_velocity,wrist_3_joint_effort,shoulder_pan_joint_position,shoulder_pan_joint_velocity,shoulder_pan_joint_effort
412.0,725.0,-2.4006,0.0114,9.524,-0.0321,0.0203,-0.1138,-2.0251833401122035,0.0,3.599553108215332,-1.8011223077774048,-0.0,1.707939863204956,5.52568535783843,0.0,0.24786436557769775,-1.5701459089862269,-0.0,-0.010946403257548809,0.8188942670822144,-0.0,0.0023748103994876146,0.7374202013015747,0.0,0.04289470613002777
412.0,725.0,-2.4006,0.0114,9.524,-0.0321,0.0203,-0.1138,-2.0251432857909144,0.0,3.5814032554626465,-1.8012142181396484,-0.0,1.7445446252822876,5.525673198490896,0.0,0.2637763023376465,-1.5701664129840296,-0.0,-0.010044822469353676,0.818882167339325,-0.0,0.0042944299057126045,0.7374160885810852,0.0,0.0064447312615811825
412.0,725.0,-2.4006,0.0114,9.524,-0.0321,0.0203,-0.1138,-2.0251270733275355,0.0,3.645756721496582,-1.8012267351150513,-0.0,1.7550641298294067,5.52571319320754,0.0,0.2513839602470398,-1.5701459089862269,-0.0,-0.020068269222974777,0.8189018368721008,-0.0,0.00151141791138798,0.7374160289764404,0.0,0.0011386042460799217
412.0,725.0,-2.4006,0.0114,9.524,-0.0321,0.0203,-0.1138,-2.0251594982542933,0.0,3.6012721061706543,-1.8012101650238037,-0.0,1.7164180278778076,5.52571730592803,0.0,0.2503725290298462,-1.5701263586627405,-0.0,-0.02374378591775894,0.8189218044281006,-0.0,0.002584146335721016,0.7374846935272217,0.0,-0.010609030723571777
412.0,725.0,-2.4006,0.0114,9.524,-0.0321,0.0203,-0.1138,-2.02512325863027,0.0,3.5999374389648438,-1.8011937141418457,-0.0,1.7378714084625244,5.52570133188323,0.0,0.2542276382446289,-1.570162598286764,-0.0,-0.025064654648303986,0.818958044052124,-0.0,-0.006940119434148073,0.7373999357223511,0.0,0.011202887631952763
412.0,725.0,-2.4006,0.0114,9.524,-0.0321,0.0203,-0.1138,-2.025203844110006,0.0,3.582387924194336,-1.8011863231658936,-0.0,1.7467560768127441,5.52570133188323,0.0,0.25978565216064453,-1.5701263586627405,-0.0,-0.027889829128980637,0.818949818611145,-0.0,-0.0023470628075301647,0.7374320030212402,0.0,0.0042154849506914616
420.0,689.0,-2.4084,-0.0239,9.4409,-0.036,0.0226,-0.1162,-2.025135179559225,0.0,3.5964040756225586,-1.801145076751709,-0.0,1.6944398880004883,5.525664913445272,0.0,0.25600746273994446,-1.5701459089862269,-0.0,-0.023949842900037766,0.8188902735710144,-0.0,-0.00016954541206359863,0.7374522686004639,0.0,-0.01510898768901825
420.0,689.0,-2.4084,-0.0239,9.4409,-0.036,0.0226,-0.1162,-2.025135179559225,0.0,3.619349956512451,-1.8012102842330933,-0.0,1.7407615184783936,5.5257454989250085,0.0,0.251379132270813,-1.5700939337359827,-0.0,-0.013305919244885445,0.8188779354095459,-0.0,-0.013112792745232582,0.7374482154846191,0.0,0.035705287009477615
420.0,689.0,-2.4084,-0.0239,9.4409,-0.036,0.0226,-0.1162,-2.025130888024801,0.0,3.6050467491149902,-1.8011977672576904,-0.0,1.726996660232544,5.525677132397451,0.0,0.2442988157272339,-1.570162598286764,-0.0,-0.019648469984531403,0.8189619779586792,-0.0,-0.0011506933951750398,0.7374443411827087,0.0,-0.0016706455498933792
420.0,689.0,-2.4084,-0.0239,9.4409,-0.036,0.0226,-0.1162,-2.0251270733275355,0.0,3.629956007003784,-1.8011822700500488,-0.0,1.6999125480651855,5.525709080487051,0.0,0.2407209575176239,-1.5701096693622034,-0.0,-0.01556598674505949,0.8189018368721008,-0.0,-0.006770703010261059,0.7374765276908875,0.0,-0.003935674671083689
420.0,689.0,-2.4084,-0.0239,9.4409,-0.036,0.0226,-0.1162,-2.025151392022604,0.0,3.6475605964660645,-1.8012309074401855,-0.0,1.7034802436828613,5.525673138886251,0.0,0.25692179799079895,-1.57013446489443,-0.0,-0.00948084332048893,0.8188902735710144,-0.0,-0.0065794941037893295,0.7374400496482849,0.0,0.03573927655816078
420.0,689.0,-2.4084,-0.0239,9.4409,-0.036,0.0226,-0.1162,-2.0251714191832484,0.0,3.649899959564209,-1.8011411428451538,-0.0,1.7061336040496826,5.525644826679983,0.0,0.25452548265457153,-1.5701301733600062,-0.0,-0.007183374837040901,0.8189457058906555,-0.0,-0.0011865331325680017,0.7374283671379089,0.0,-0.05139041692018509
420.0,689.0,-2.4084,-0.0239,9.4409,-0.036,0.0226,-0.1162,-2.0251552067198695,0.0,3.589602470397949,-1.8011577129364014,-0.0,1.7483116388320923,5.525668966561117,0.0,0.25826412439346313,-1.5701583067523401,-0.0,-0.018362216651439667,0.8189258575439453,-0.0,-0.007233007345348597,0.7374280095100403,0.0,-0.022271443158388138
420.0,689.0,-2.4084,-0.0239,9.4409,-0.036,0.0226,-0.1162,-2.025130888024801,0.0,3.6186773777008057,-1.8011937141418457,-0.0,1.7224855422973633,5.52568947055892,0.0,0.25151073932647705,-1.57013446489443,-0.0,-0.029142268002033234,0.8189179301261902,-0.0,-0.005532372742891312,0.7373916506767273,0.0,-0.012737765908241272
420.0,689.0,-2.4084,-0.0239,9.4409,-0.036,0.0226,-0.1162,-2.0251509151854457,0.0,3.591191530227661,-1.8012142181396484,-0.0,1.7242062091827393,5.525660800724783,0.0,0.25497713685035706,-1.5701502005206507,-0.0,-0.020853117108345032,0.8189097046852112,-0.0,-0.008145785890519619,0.7374119758605957,0.0,-0.003031250089406967
420.0,689.0,-2.4084,-0.0239,9.4409,-0.036,0.0226,-0.1162,-2.0251389942564906,0.0,3.6361050605773926,-1.8011937141418457,-0.0,1.7465018033981323,5.525672900467672,0.0,0.2602335214614868,-1.5701540152179163,-0.0,-0.016334377229213715,0.8188982009887695,-0.0,-8.800474461168051e-05,0.7374242544174194,0.0,0.004158578813076019
420.0,689.0,-2.4084,-0.0239,9.4409,-0.036,0.0226,-0.1162,-2.0251995525755824,0.0,3.632814884185791,-1.8011740446090698,-0.0,1.74064302444458,5.525693523674764,0.0,0.26304641366004944,-1.5701387564288538,-0.0,-0.009293804876506329,0.8189058899879456,-0.0,-0.009750833734869957,0.7374242544174194,0.0,0.029445316642522812
420.0,689.0,-2.4084,-0.0239,9.4409,-0.036,0.0226,-0.1162,-2.0251270733275355,0.0,3.6528735160827637,-1.8011658191680908,-0.0,1.7261805534362793,5.525697159558096,0.0,0.2520911395549774,-1.5701263586627405,-0.0,-0.010590052232146263,0.8189417719841003,-0.0,0.00033408147282898426,0.7374400496482849,0.0,0.022364743053913116
413.0,696.0,-2.3755,-0.0473,9.4941,-0.0415,0.0223,-0.118,-2.025095125237936,0.0,3.6117124557495117,-1.8011977672576904,-0.0,1.707320213317871,5.5256895301635645,0.0,0.25658947229385376,-1.5701583067523401,-0.0,-0.016816282644867897,0.8190059661865234,-0.0,0.0016249470645561814,0.7374482154846191,0.0,0.028194496408104897
413.0,696.0,-2.3755,-0.0473,9.4941,-0.0415,0.0223,-0.118,-2.0251556835570277,0.0,3.5821423530578613,-1.801178216934204,-0.0,1.7043747901916504,5.52570133188323,0.0,0.2518369257450104,-1.570141617451803,-0.0,-0.016392268240451813,0.818949818611145,-0.0,-0.012006291188299656,0.737432062625885,0.0,0.03965876251459122
413.0,696.0,-2.3755,-0.0473,9.4941,-0.0415,0.0223,-0.118,-2.0251151523985804,0.0,3.6324477195739746,-1.8011780977249146,-0.0,1.689551591873169,5.525669026165762,0.0,0.24907934665679932,-1.5701502005206507,-0.0,-0.013777950778603554,0.8188542127609253,-0.0,0.006331626791507006,0.7374482154846191,0.0,-0.01254662312567234
413.0,696.0,-2.3755,-0.0473,9.4941,-0.0415,0.0223,-0.118,-2.0251957378783167,0.0,3.6119699478149414,-1.8011741638183594,-0.0,1.703890323638916,5.525685298233785,0.0,0.26922738552093506,-1.5700977484332483,-0.0,-0.026443634182214737,0.8189257979393005,-0.0,-0.0034042096231132746,0.7374119758605957,0.0,0.018007703125476837
413.0,696.0,-2.3755,-0.0473,9.4941,-0.0415,0.0223,-0.118,-2.0251676044859828,0.0,3.6390151977539062,-1.8011937141418457,-0.0,1.7329572439193726,5.525672960072317,0.0,0.25114497542381287,-1.5701263586627405,-0.0,-0.018432477489113808,0.8188902139663696,-0.0,0.004834024701267481,0.7374361753463745,0.0,-0.024270150810480118
413.0,696.0,-2.3755,-0.0473,9.4941,-0.0415,0.0223,-0.118,-2.025175233880514,0.0,3.615586996078491,-1.8011977672576904,-0.0,1.747121810913086,5.52571730592803,0.0,0.24555933475494385,-1.5701220671283167,-0.0,-0.016574112698435783,0.8189456462860107,-0.0,0.004507501609623432,0.737440288066864,0.0,-0.017292536795139313
413.0,696.0,-2.3755,-0.0473,9.4941,-0.0415,0.0223,-0.118,-2.0251270733275355,0.0,3.609459400177002,-1.8011658191680908,-0.0,1.7419368028640747,5.525664913445272,0.0,0.25955891609191895,-1.5701583067523401,-0.0,-0.012571670114994049,0.8189257979393005,-0.0,-0.012147441506385803,0.7374160289764404,0.0,-0.03182120621204376
413.0,696.0,-2.3755,-0.0473,9.4941,-0.0415,0.0223,-0.118,-2.0251475773253382,0.0,3.636227607727051,-1.801178216934204,-0.0,1.7235450744628906,5.525693523674764,0.0,0.25032252073287964,-1.5701502005206507,-0.0,-0.014120877720415592,0.8189136981964111,-0.0,0.001512323273345828,0.7374523282051086,0.0,0.005901101045310497
413.0,696.0,-2.3755,-0.0473,9.4941,-0.0415,0.0223,-0.118,-2.025175233880514,0.0,3.629852771759033,-1.80119788646698,-0.0,1.7182999849319458,5.525709080487051,0.0,0.24656108021736145,-1.5701096693622034,-0.0,-0.013110939413309097,0.8189378380775452,-0.0,-0.0063033197075128555,0.7373880743980408,0.0,-0.021906130015850067
413.0,696.0,-2.3755,-0.0473,9.4941,-0.0415,0.0223,-0.118,-2.02514710048818,0.0,3.6152777671813965,-1.8011698722839355,-0.0,1.7591643333435059,5.5257054446037195,0.0,0.25172412395477295,-1.5701263586627405,-0.0,-0.017891254276037216,0.8189058899879456,-0.0,-0.010245632380247116,0.7374683618545532,0.0,0.03248124569654465
413.0,696.0,-2.3755,-0.0473,9.4941,-0.0415,0.0223,-0.118,-2.025151392022604,0.0,3.6337502002716064,-1.801161766052246,-0.0,1.7507214546203613,5.525673138886251,0.0,0.2366163730621338,-1.5701664129840296,-0.0,-0.01136475894600153,0.8188900351524353,-0.0,0.0037341939751058817,0.7374642491340637,0.0,0.01413529459387064
413.0,696.0,-2.3755,-0.0473,9.4941,-0.0415,0.0223,-0.118,-2.025175233880514,0.0,3.621401309967041,-1.801214337348938,-0.0,1.709622859954834,5.5256813047225855,0.0,0.24429944157600403,-1.5700972715960901,-0.0,-0.014887865632772446,0.8188819885253906,-0.0,0.004682366736233234,0.7374482154846191,0.0,0.0020404686219990253
419.0,664.0,-2.4168,0.0114,9.3535,-0.031,0.0189,-0.121,-2.0251432857909144,0.0,3.591707706451416,-1.8011904954910278,-0.0,1.7687594890594482,5.52568535783843,0.0,0.24847236275672913,-1.5701096693622034,-0.0,-0.02301255241036415,0.8188982009887695,-0.0,7.323781028389931e-05,0.737440288066864,0.0,0.024260619655251503
419.0,664.0,-2.4168,0.0114,9.3535,-0.031,0.0189,-0.121,-2.0251432857909144,0.0,3.5872836112976074,-1.8011904954910278,-0.0,1.7112348079681396,5.525745558529653,0.0,0.24609056115150452,-1.5701459089862269,-0.0,-0.015609069727361202,0.8189536929130554,-0.0,0.00581301748752594,0.7374160289764404,0.0,0.007426588796079159
419.0,664.0,-2.4168,0.0114,9.3535,-0.031,0.0189,-0.121,-2.0251838169493617,0.0,3.6185667514801025,-1.801178216934204,-0.0,1.7094531059265137,5.525721478253164,0.0,0.24710679054260254,-1.57013446489443,-0.0,-0.013895271345973015,0.8188582062721252,-0.0,-0.006557726766914129,0.7374802827835083,0.0,-0.01648298092186451
419.0,664.0,-2.4168,0.0114,9.3535,-0.031,0.0189,-0.121,-2.025135179559225,0.0,3.6097168922424316,-1.8011822700500488,-0.0,1.7508256435394287,5.525685298233785,0.0,0.25578901171684265,-1.5701544920550745,-0.0,-0.018326597288250923,0.8188700079917908,-0.0,-0.0058716339990496635,0.7374482154846191,0.0,0.009149596095085144
419.0,664.0,-2.4168,0.0114,9.3535,-0.031,0.0189,-0.121,-2.0251475773253382,0.0,3.6184580326080322,-1.8011658191680908,-0.0,1.6993391513824463,5.525733637600698,0.0,0.25221627950668335,-1.570162598286764,-0.0,-0.029318762943148613,0.8188862800598145,-0.0,0.00727373780682683,0.737407922744751,0.0,-0.023971064016222954
419.0,664.0,-2.4168,0.0114,9.3535,-0.031,0.0189,-0.121,-2.0251671276488246,0.0,3.6279797554016113,-1.8012268543243408,-0.0,1.7464978694915771,5.525660800724783,0.0,0.24540641903877258,-1.5701177755938929,-0.0,-0.016384456306695938,0.8189218044281006,-0.0,0.010683104395866394,0.7374402284622192,0.0,-0.008820700459182262
419.0,664.0,-2.4168,0.0114,9.3535,-0.031,0.0189,-0.121,-2.0251838169493617,0.0,3.606372594833374,-1.8011977672576904,-0.0,1.7192262411117554,5.525677192002096,0.0,0.261462926864624,-1.570174519215719,-0.0,-0.01493418961763382,0.8189257979393005,-0.0,0.006338654085993767,0.737432062625885,0.0,-0.029002124443650246
419.0,664.0,-2.4168,0.0114,9.3535,-0.031,0.0189,-0.121,-2.0251676044859828,0.0,3.607313632965088,-1.8011895418167114,-0.0,1.722480058670044,5.525693106442251,0.0,0.24743545055389404,-1.57013446489443,-0.0,-0.019272582605481148,0.818945586681366,-0.0,0.0016323360614478588,0.7374040484428406,0.0,-0.0313776396214962
419.0,664.0,-2.4168,0.0114,9.3535,-0.031,0.0189,-0.121,-2.0251313648619593,0.0,3.6091389656066895,-1.8011376857757568,-0.0,1.7370390892028809,5.525677132397451,0.0,0.2526298463344574,-1.5701502005206507,-0.0,-0.007552121765911579,0.8189018964767456,-0.0,0.0004130651359446347,0.7374443411827087,0.0,-0.033431630581617355
419.0,664.0,-2.4168,0.0114,9.3535,-0.031,0.0189,-0.121,-2.025191923181051,0.0,3.629912853240967,-1.8011575937271118,-0.0,1.7091532945632935,5.525632965355673,0.0,0.2625359892845154,-1.570162598286764,1.2618827440746827e-06,-0.025491032749414444,0.8189499378204346,-0.0,0.006912849377840757,0.7374482154846191,0.0,0.011437234468758106
419.0,664.0,-2.4168,0.0114,9.3535,-0.031,0.0189,-0.121,-2.0251876316466273,0.0,3.627396821975708,-1.8011295795440674,-0.0,1.7270898818969727,5.5256972191627405,0.0,0.25524550676345825,-1.5701263586627405,0.00010684587323339656,-0.007582054473459721,0.8189457654953003,-0.0,0.009467978030443192,0.7374560236930847,0.0,0.004709520377218723
419.0,664.0,-2.4168,0.0114,9.3535,-0.031,0.0189,-0.121,-2.025163312951559,0.0,3.654726505279541,-1.8011656999588013,-0.0,1.7192296981811523,5.5257054446037195,0.0,0.2661586403846741,-1.5701177755938929,2.9740938600752997e-08,-0.012930319644510746,0.8189137578010559,-0.0,-0.0017670155502855778,0.7374563813209534,0.0,-0.056837048381567
416.0,743.0,-2.4305,-0.0305,9.405,-0.0342,0.026,-0.1187,-2.0251432857909144,0.0,3.590097188949585,-1.8011977672576904,-0.0,1.7213966846466064,5.525664913445272,0.0,0.24816611409187317,-1.5701425711261194,5.405267704781946e-13,-0.016394877806305885,0.8188942670822144,-0.0,8.116231765598059e-05,0.737432062625885,0.0,-0.042846448719501495
416.0,743.0,-2.4305,-0.0305,9.405,-0.0342,0.026,-0.1187,-2.0251389942564906,0.0,3.633704900741577,-1.801161766052246,-0.0,1.7169092893600464,5.525673138886251,0.0,0.245298832654953,-1.5701502005206507,9.823806231374733e-18,-0.00456415256485343,0.8189296722412109,-0.0,0.007258190773427486,0.7374242544174194,0.0,0.02443624660372734
416.0,743.0,-2.4305,-0.0305,9.405,-0.0342,0.026,-0.1187,-2.025135656396383,0.0,3.624539375305176,-1.8011698722839355,-0.0,1.695817470550537,5.5257054446037195,0.0,0.26809585094451904,-1.5701664129840296,1.7854283819157367e-22,-0.013737986795604229,0.8189218044281006,-0.0,-0.0009836922399699688,0.737464189529419,0.0,0.02324303612112999
416.0,743.0,-2.4305,-0.0305,9.405,-0.0342,0.026,-0.1187,-2.0250994167723597,0.0,3.627070903778076,-1.8011658191680908,-0.0,1.7292516231536865,5.525693046837606,0.0,0.26965856552124023,-1.5701096693622034,3.2449277187041225e-27,-0.01546289399266243,0.8188822865486145,-0.0,-0.007127791177481413,0.7374279499053955,0.0,-0.009812749922275543
416.0,743.0,-2.4305,-0.0305,9.405,-0.0342,0.026,-0.1187,-2.0251594982542933,0.0,3.6153621673583984,-1.8012224435806274,-0.0,1.7240338325500488,5.5256972191627405,0.0,0.26469188928604126,-1.5701425711261194,9.03237445951501e-31,-0.006694490555673838,0.8188943266868591,-0.0,-0.00112264568451792,0.7374202013015747,0.0,-0.006562107242643833
416.0,743.0,-2.4305,-0.0305,9.405,-0.0342,0.026,-0.1187,-2.0251475773253382,0.0,3.6563405990600586,-1.801153302192688,-0.0,1.7702069282531738,5.5257537243659876,0.0,0.24015745520591736,-1.5701707045184534,1.6415893403603443e-35,-0.01447644829750061,0.8189098834991455,-0.0,-0.009248453192412853,0.7374119162559509,0.0,-0.026521090418100357
416.0,743.0,-2.4305,-0.0305,9.405,-0.0342,0.026,-0.1187,-2.0250989399352015,0.0,3.606910467147827,-1.8011904954910278,-0.0,1.6718995571136475,5.525640654354849,0.0,0.25266388058662415,-1.5701263586627405,2.983504560393968e-40,-0.014251379296183586,0.818945586681366,-0.0,0.007979999296367168,0.7374160885810852,0.0,-0.0011640219017863274
416.0,743.0,-2.4305,-0.0305,9.405,-0.0342,0.026,-0.1187,-2.0251671276488246,0.0,3.5971479415893555,-1.8011411428451538,-0.0,1.7154440879821777,5.525721478253164,0.0,0.25292930006980896,-1.570141617451803,5.605193857299268e-45,-0.008668310940265656,0.818909764289856,-0.0,-0.009191753342747688,0.737440288066864,0.0,-0.023103244602680206
416.0,743.0,-2.4305,-0.0305,9.405,-0.0342,0.026,-0.1187,-2.0251389942564906,0.0,3.626368284225464,-1.8012018203735352,-0.0,1.7623746395111084,5.525693106442251,0.0,0.24198539555072784,-1.5701502005206507,0.0,-0.013850223273038864,0.8189017176628113,-0.0,-0.009821225889027119,0.7374283671379089,0.0,-0.01594335213303566
416.0,743.0,-2.4305,-0.0305,9.405,-0.0342,0.026,-0.1187,-2.0251432857909144,0.0,3.6711273193359375,-1.8011945486068726,-0.0,1.6863731145858765,5.525652992516317,0.0,0.24909543991088867,-1.570162598286764,0.0,-0.03395712003111839,0.818945586681366,-0.0,-0.0011050269240513444,0.7374160885810852,0.0,-0.03400622680783272
416.0,743.0,-2.4305,-0.0305,9.405,-0.0342,0.026,-0.1187,-2.0251270733275355,0.0,3.5860984325408936,-1.8012224435806274,-0.0,1.7412902116775513,5.52570133188323,0.0,0.2578739821910858,-1.5701220671283167,0.0,-0.007606443949043751,0.8189059495925903,-0.0,0.003412277903407812,0.7374358773231506,0.0,-0.011076138354837894
424.0,704.0,-2.4126,-0.0233,9.4708,-0.0368,0.0249,-0.1211,-2.025130888024801,0.0,3.622681140899658,-1.8011223077774048,-0.0,1.699493169784546,5.525693106442251,0.0,0.2678581774234772,-1.5701263586627405,0.0,-0.007617717143148184,0.8189417123794556,-0.0,0.0011025168932974339,0.7373958230018616,0.0,0.014630753546953201
424.0,704.0,-2.4126,-0.0233,9.4708,-0.0368,0.0249,-0.1211,-2.025118967095846,0.0,3.6093909740448,-1.8011337518692017,-0.0,1.6965793371200562,5.525693106442251,0.0,0.24992725253105164,-1.570162598286764,0.0,-0.01711113378405571,0.8189257979393005,-0.0,-0.00618120888248086,0.7374683022499084,0.0,-0.07117261737585068
424.0,704.0,-2.4126,-0.0233,9.4708,-0.0368,0.0249,-0.1211,-2.0251432857909144,0.0,3.5907249450683594,-1.801206111907959,-0.0,1.743585228919983,5.5257054446037195,0.0,0.25490421056747437,-1.5701459089862269,0.0,-0.01249921228736639,0.8189417123794556,-0.0,-0.0025653622578829527,0.7374160289764404,0.0,-0.004374420270323753
424.0,704.0,-2.4126,-0.0233,9.4708,-0.0368,0.0249,-0.1211,-2.025179525414938,0.0,3.6520588397979736,-1.801178216934204,-0.0,1.726752758026123,5.525685298233785,0.0,0.2559671998023987,-1.5701301733600062,0.0,-0.012139403261244297,0.8188903331756592,-0.0,0.012045458890497684,0.7374443411827087,0.0,-0.02031588926911354
424.0,704.0,-2.4126,-0.0233,9.4708,-0.0368,0.0249,-0.1211,-2.025135656396383,0.0,3.6787490844726562,-1.8012101650238037,-0.0,1.7886128425598145,5.525648879795828,0.0,0.2417527139186859,-1.570141617451803,0.0,-0.02251439541578293,0.8188862800598145,-0.0,-0.013468113727867603,0.737415611743927,0.0,-0.01687895692884922
424.0,704.0,-2.4126,-0.0233,9.4708,-0.0368,0.0249,-0.1211,-2.0251552067198695,0.0,3.612764358520508,-1.8011492490768433,-0.0,1.7143573760986328,5.525737750321188,0.0,0.25408846139907837,-1.57013446489443,0.0,-0.0034145221579819918,0.8188741207122803,-0.0,0.0031232470646500587,0.7374481558799744,0.0,-0.020756741985678673
424.0,704.0,-2.4126,-0.0233,9.4708,-0.0368,0.0249,-0.1211,-2.025191923181051,0.0,3.6488161087036133,-1.801178216934204,-0.0,1.70977783203125,5.5256972191627405,0.0,0.2560373544692993,-1.5701459089862269,0.0,-0.014172185212373734,0.8189218044281006,-0.0,-0.0001552814501337707,0.7375125288963318,0.0,-0.004950693342834711
424.0,704.0,-2.4126,-0.0233,9.4708,-0.0368,0.0249,-0.1211,-2.0251032314696253,0.0,3.587348222732544,-1.8011937141418457,-0.0,1.7291367053985596,5.525677132397451,0.0,0.24757692217826843,-1.5701502005206507,0.0,-0.020892146974802017,0.8189178109169006,-0.0,-0.008879692293703556,0.7374283671379089,0.0,0.042606741189956665
424.0,704.0,-2.4126,-0.0233,9.4708,-0.0368,0.0249,-0.1211,-2.0251475773253382,0.0,3.6523427963256836,-1.8011822700500488,-0.0,1.7119742631912231,5.525684881001272,0.0,0.23823733627796173,-1.5701583067523401,0.0,-0.02454540506005287,0.8189022541046143,-0.0,0.0008026781142689288,0.7373839020729065,0.0,-0.030849091708660126
424.0,704.0,-2.4126,-0.0233,9.4708,-0.0368,0.0249,-0.1211,-2.0251265964903773,0.0,3.606654644012451,-1.8011822700500488,-0.0,1.7246575355529785,5.525681245117941,0.0,0.2500055432319641,-1.5701664129840296,0.0,-0.019038917496800423,0.8189218640327454,-0.0,-0.0037558625917881727,0.7374242544174194,0.0,-0.012324349954724312
424.0,704.0,-2.4126,-0.0233,9.4708,-0.0368,0.0249,-0.1211,-2.0251389942564906,0.0,3.6668860912323,-1.8011740446090698,-0.0,1.738854169845581,5.5257054446037195,0.0,0.260667622089386,-1.5701301733600062,0.0,-0.02547849714756012,0.8188741207122803,-0.0,0.010096876882016659,0.7374320030212402,0.0,-0.0058551449328660965
424.0,704.0,-2.4126,-0.0233,9.4708,-0.0368,0.0249,-0.1211,-2.0251509151854457,0.0,3.584970474243164,-1.8011863231658936,-0.0,1.7371585369110107,5.525644826679983,0.0,0.24978762865066528,-1.570141617451803,0.0,-0.015536261722445488,0.8188621401786804,-0.0,-0.0010159802623093128,0.7374482154846191,0.0,0.012923658825457096
408.0,711.0,-2.3593,0.0544,9.5964,-0.0409,0.0284,-0.12,-2.0251475773253382,0.0,3.624166488647461,-1.8011780977249146,-0.0,1.6937861442565918,5.525668966561117,0.0,0.23464533686637878,-1.5701263586627405,0.0,-0.0291469506919384,0.8189337849617004,-0.0,-0.004560927860438824,0.7374402284622192,0.0,0.026899345219135284
408.0,711.0,-2.3593,0.0544,9.5964,-0.0409,0.0284,-0.12,-2.0251594982542933,0.0,3.6193928718566895,-1.8011822700500488,-0.0,1.7729699611663818,5.525664913445272,0.0,0.2545548677444458,-1.5701459089862269,0.0,-0.00935712642967701,0.8189138174057007,-0.0,-0.00016927393153309822,0.7374683022499084,0.0,-0.016270646825432777
408.0,711.0,-2.3593,0.0544,9.5964,-0.0409,0.0284,-0.12,-2.0251432857909144,0.0,3.61807918548584,-1.8011863231658936,-0.0,1.727172613143921,5.525677132397451,0.0,0.2411460280418396,-1.5701139608966272,0.0,-0.0029888164717704058,0.8189296126365662,-0.0,-0.005062648560851812,0.7374361753463745,0.0,0.010002728551626205
408.0,711.0,-2.3593,0.0544,9.5964,-0.0409,0.0284,-0.12,-2.0251389942564906,0.0,3.6246261596679688,-1.8011658191680908,-0.0,1.7538132667541504,5.525673138886251,0.0,0.2528393864631653,-1.5701220671283167,0.0,-0.007568687200546265,0.818886399269104,-0.0,0.003313279477879405,0.7374441027641296,0.0,0.0326315276324749
408.0,711.0,-2.3593,0.0544,9.5964,-0.0409,0.0284,-0.12,-2.02512325863027,0.0,3.5855765342712402,-1.8011904954910278,-0.0,1.7482268810272217,5.525709140091696,0.0,0.2553483247756958,-1.5701502005206507,0.0,-0.0107631366699934,0.8189539313316345,-0.0,-0.013305249623954296,0.7374284267425537,0.0,-0.012013220228254795
408.0,711.0,-2.3593,0.0544,9.5964,-0.0409,0.0284,-0.12,-2.0251313648619593,0.0,3.616147518157959,-1.8012101650238037,-0.0,1.7039179801940918,5.525677251606741,0.0,0.24105265736579895,-1.5701740423785608,0.0,-0.005282064434140921,0.8188899755477905,-0.0,0.0023912794422358274,0.7374280095100403,0.0,0.0058903866447508335
408.0,711.0,-2.3593,0.0544,9.5964,-0.0409,0.0284,-0.12,-2.02517094234609,0.0,3.585231065750122,-1.8011937141418457,-0.0,1.737687587738037,5.525673138886251,0.0,0.2450614869594574,-1.5701220671283167,0.0,-0.01808801293373108,0.8188900351524353,-0.0,-0.001117032254114747,0.7374642491340637,0.0,0.003930031321942806
408.0,711.0,-2.3593,0.0544,9.5964,-0.0409,0.0284,-0.12,-2.0251957378783167,0.0,3.6213064193725586,-1.801206111907959,-0.0,1.7011590003967285,5.525648939400472,0.0,0.2551532983779907,-1.5701301733600062,0.0,-0.022020062431693077,0.8189499378204346,-0.0,-0.0015288455178961158,0.737464189529419,0.0,0.017542356625199318
408.0,711.0,-2.3593,0.0544,9.5964,-0.0409,0.0284,-0.12,-2.025175233880514,0.0,3.630073070526123,-1.8011822700500488,-0.0,1.7699809074401855,5.525693106442251,0.0,0.2582227885723114,-1.5701177755938929,0.0,-0.016224078834056854,0.81886225938797,-0.0,0.016983987763524055,0.7374646067619324,0.0,-0.05370325967669487
408.0,711.0,-2.3593,0.0544,9.5964,-0.0409,0.0284,-0.12,-2.02512325863027,0.0,3.6300487518310547,-1.801153302192688,-0.0,1.700630784034729,5.525721418648519,0.0,0.25662603974342346,-1.5700939337359827,0.0,-0.013667982071638107,0.8188542723655701,-0.0,-0.005201140884310007,0.7374600768089294,0.0,0.022905107587575912
408.0,711.0,-2.3593,0.0544,9.5964,-0.0409,0.0284,-0.12,-2.0251475773253382,0.0,3.6514368057250977,-1.8011698722839355,-0.0,1.6904594898223877,5.525669026165762,0.0,0.25259873270988464,-1.5701301733600062,0.0,-0.015532050281763077,0.8188903331756592,-0.0,0.0024366131983697414,0.7374802827835083,0.0,-0.01971476897597313
408.0,711.0,-2.3593,0.0544,9.5964,-0.0409,0.0284,-0.12,-2.025179525414938,0.0,3.623030662536621,-1.8011492490768433,-0.0,1.7693519592285156,5.525693583279409,0.0,0.2312822937965393,-1.5701301733600062,0.0,-0.008829313330352306,0.8188819289207458,-0.0,-0.009397168643772602,0.7373958230018616,0.0,0.05402166396379471
430.0,698.0,-2.4048,-0.0269,9.4822,-0.0305,0.0284,-0.1179,-2.025207658807272,0.0,3.6600217819213867,-1.8011658191680908,-0.0,1.7369083166122437,5.52571730592803,0.0,0.2512473464012146,-1.5701096693622034,0.0,-0.014128522016108036,0.8189416527748108,-0.0,0.0027153645642101765,0.7374202013015747,0.0,0.016326624900102615
430.0,698.0,-2.4048,-0.0269,9.4822,-0.0305,0.0284,-0.1179,-2.025179525414938,0.0,3.643301486968994,-1.8012059926986694,-0.0,1.7224955558776855,5.525721478253164,0.0,0.2476254403591156,-1.570162598286764,0.0,-0.013334344141185284,0.8189257979393005,-0.0,0.007611336652189493,0.7374683022499084,0.0,-0.05168461427092552
430.0,698.0,-2.4048,-0.0269,9.4822,-0.0305,0.0284,-0.1179,-2.025163312951559,0.0,3.617417335510254,-1.8012018203735352,-0.0,1.7411730289459229,5.5256972191627405,0.0,0.25295332074165344,-1.5701497236834925,0.0,-0.015855301171541214,0.8189296126365662,-0.0,-0.006554428022354841,0.7374482154846191,0.0,0.021232757717370987
430.0,698.0,-2.4048,-0.0269,9.4822,-0.0305,0.0284,-0.1179,-2.0251432857909144,0.0,3.622546672821045,-1.8011863231658936,-0.0,1.774335503578186,5.52568535783843,0.0,0.25593358278274536,-1.5701177755938929,0.0,-0.02482859045267105,0.8188981413841248,-0.0,0.00659949891269207,0.7374601364135742,0.0,0.012781018391251564
430.0,698.0,-2.4048,-0.0269,9.4822,-0.0305,0.0284,-0.1179,-2.025175233880514,0.0,3.5831665992736816,-1.8012019395828247,-0.0,1.7406243085861206,5.525652992516317,0.0,0.2572510540485382,-1.5701301733600062,0.0,-0.01609286107122898,0.818874180316925,-0.0,-0.003507061395794153,0.7374802827835083,0.0,0.026889503002166748
430.0,698.0,-2.4048,-0.0269,9.4822,-0.0305,0.0284,-0.1179,-2.0251594982542933,0.0,3.6037850379943848,-1.801230788230896,-0.0,1.7489938735961914,5.525681245117941,0.0,0.24936965107917786,-1.5701864401446741,0.0,-0.005259352270513773,0.8189296722412109,-0.0,-0.008224179036915302,0.7374280095100403,0.0,0.029916618019342422
430.0,698.0,-2.4048,-0.0269,9.4822,-0.0305,0.0284,-0.1179,-2.02512325863027,0.0,3.660783290863037,-1.8011937141418457,-0.0,1.7890055179595947,5.525648939400472,0.0,0.2585654556751251,-1.5700977484332483,0.0,-0.013753900304436684,0.8189296126365662,-0.0,0.005101067945361137,0.7374564409255981,0.0,-0.054695069789886475
430.0,698.0,-2.4048,-0.0269,9.4822,-0.0305,0.0284,-0.1179,-2.0251432857909144,0.0,3.6134796142578125,-1.8011904954910278,-0.0,1.712782621383667,5.525669026165762,0.0,0.25334346294403076,-1.5701220671283167,5.205088768889254e-07,-0.025434892624616623,0.8189337849617004,-0.0,-0.0009588366374373436,0.7374482154846191,0.0,-0.022006947547197342
430.0,698.0,-2.4048,-0.0269,9.4822,-0.0305,0.0284,-0.1179,-2.0251475773253382,0.0,3.634549617767334,-1.8011369705200195,-0.0,1.735776662826538,5.52571319320754,0.0,0.24610832333564758,-1.5701502005206507,-1.0922460205620155e-05,-0.01853000931441784,0.8189178109169006,-0.0,-0.005624231416732073,0.737464189529419,0.0,0.033333007246255875
430.0,698.0,-2.4048,-0.0269,9.4822,-0.0305,0.0284,-0.1179,-2.025095125237936,0.0,3.6077380180358887,-1.8012059926986694,-0.0,1.7049002647399902,5.525661277561941,0.0,0.24215693771839142,-1.57013446489443,-3.0403068951301293e-09,-0.004125345963984728,0.8189416527748108,-0.0,0.005980656482279301,0.7374481558799744,0.0,-0.023674413561820984
430.0,698.0,-2.4048,-0.0269,9.4822,-0.0305,0.0284,-0.1179,-2.0251270733275355,0.0,3.6035099029541016,-1.8012102842330933,-0.0,1.7474058866500854,5.525697278767385,0.0,0.2625559866428375,-1.5701664129840296,-5.525606895325809e-14,-0.01682165637612343,0.8188982009887695,-0.0,-0.003661512862890959,0.7374563813209534,0.0,-0.08929121494293213
430.0,698.0,-2.4048,-0.0269,9.4822,-0.0305,0.0284,-0.1179,-2.025151392022604,0.0,3.616867780685425,-1.8011451959609985,-0.0,1.8057386875152588,5.525693523674764,0.0,0.26241323351860046,-1.5701783339129847,-1.0042515473670744e-18,-0.009645224548876286,0.8188820481300354,-0.0,-0.0011202964233234525,0.7374160885810852,0.0,0.02486276812851429
432.0,715.0,-2.5747,-0.1202,9.5001,-0.0415,0.018,-0.1144,-2.0251552067198695,0.0,3.598710536956787,-1.8011937141418457,-0.0,1.7462058067321777,5.5256608603294275,0.0,0.244280606508255,-1.5701139608966272,-1.8251775367624492e-23,-0.01566292531788349,0.8189099431037903,-0.0,-0.0156821608543396,0.7374160885810852,0.0,-0.005482984706759453
432.0,715.0,-2.5747,-0.1202,9.5001,-0.0415,0.018,-0.1144,-2.0251594982542933,0.0,3.60945987701416,-1.801161527633667,-0.0,1.7269617319107056,5.525693523674764,0.0,0.2478451430797577,-1.5701387564288538,-3.317171180551535e-28,-0.01036806683987379,0.8189775943756104,-0.0,0.005468583665788174,0.737432062625885,0.0,-0.005667750723659992
432.0,715.0,-2.5747,-0.1202,9.5001,-0.0415,0.018,-0.1144,-2.0251313648619593,0.0,3.616250514984131,-1.8011451959609985,-0.0,1.732359528541565,5.52568947055892,0.0,0.25545525550842285,-1.5701387564288538,-9.233466395659614e-32,-0.00023417314514517784,0.8189019560813904,-0.0,0.014352122321724892,0.7374444007873535,0.0,-0.015100807882845402
432.0,715.0,-2.5747,-0.1202,9.5001,-0.0415,0.018,-0.1144,-2.0251594982542933,0.0,3.59769344329834,-1.8012059926986694,-0.0,1.6811299324035645,5.525697159558096,0.0,0.2598743140697479,-1.57013446489443,-1.6781369262254884e-36,-0.008611084893345833,0.8189296126365662,-0.0,-0.004347906913608313,0.7373957633972168,0.0,-0.0026481328532099724
432.0,715.0,-2.5747,-0.1202,9.5001,-0.0415,0.018,-0.1144,-2.025175233880514,0.0,3.5984346866607666,-1.801181435585022,-0.0,1.7530162334442139,5.52570133188323,0.0,0.23636969923973083,-1.5701139608966272,-3.0499261076029644e-41,-0.005383056588470936,0.8189377188682556,-0.0,0.007144162897020578,0.737432062625885,0.0,0.01464892365038395
432.0,715.0,-2.5747,-0.1202,9.5001,-0.0415,0.018,-0.1144,-2.0251432857909144,0.0,3.5983242988586426,-1.8012018203735352,-0.0,1.7196754217147827,5.525717246323385,0.0,0.24999934434890747,-1.5701096693622034,-0.0,-0.009151773527264595,0.8189137578010559,-0.0,-0.004799581132829189,0.7374482154846191,0.0,0.04976148158311844
432.0,715.0,-2.5747,-0.1202,9.5001,-0.0415,0.018,-0.1144,-2.0251475773253382,0.0,3.6365370750427246,-1.801153540611267,-0.0,1.730759620666504,5.525664913445272,0.0,0.24868355691432953,-1.5701220671283167,-0.0,-0.004634999204427004,0.8189138174057007,-0.0,-0.004168133717030287,0.7374201416969299,0.0,-0.043943941593170166
432.0,715.0,-2.5747,-0.1202,9.5001,-0.0415,0.018,-0.1144,-2.025107046166891,0.0,3.607973098754883,-1.8011904954910278,-0.0,1.7239627838134766,5.525705504208364,0.0,0.2564558982849121,-1.5701139608966272,-0.0,-0.01914961449801922,0.8189296126365662,-0.0,0.005759183317422867,0.7374523282051086,0.0,0.030933260917663574
432.0,715.0,-2.5747,-0.1202,9.5001,-0.0415,0.018,-0.1144,-2.0251432857909144,0.0,3.5651440620422363,-1.8011977672576904,-0.0,1.7574666738510132,5.525657224446096,0.0,0.2438272088766098,-1.5700934568988245,-0.0,-0.005428663454949856,0.81885826587677,-0.0,0.0058588688261806965,0.7374642491340637,0.0,-0.05368528887629509
432.0,715.0,-2.5747,-0.1202,9.5001,-0.0415,0.018,-0.1144,-2.0251594982542933,0.0,3.5934908390045166,-1.8011099100112915,1.8003158686052956e-10,1.709106683731079,5.52571319320754,0.0,0.2567429542541504,-1.57013446489443,-0.0,-0.022505808621644974,0.8189218044281006,-0.0,0.0008797398186288774,0.7374642491340637,0.0,-0.03183997422456741
432.0,715.0,-2.5747,-0.1202,9.5001,-0.0415,0.018,-0.1144,-2.0251389942564906,0.0,3.6188571453094482,-1.801153302192688,5.83279460624622e-18,1.731826663017273,5.525757837086477,0.0,0.26106885075569153,-1.5701387564288538,-0.0,-0.011797899380326271,0.8189257383346558,-0.0,0.002594421152025461,0.7374601364135742,0.0,-0.0045153675600886345
413.0,739.0,-2.3898,0.0532,9.3553,-0.026,0.0229,-0.12,-2.0251676044859828,0.0,3.5657436847686768,-1.8012224435806274,1.8897511809000865e-25,1.7187637090682983,5.525713252812185,0.0,0.24673277139663696,-1.5701459089862269,-0.0,-0.023196201771497726,0.818878173828125,-0.0,0.01203709002584219,0.7374160289764404,0.0,-0.020566394552588463
413.0,739.0,-2.3898,0.0532,9.3553,-0.026,0.0229,-0.12,-2.0251432857909144,0.0,3.604342460632324,-1.8011574745178223,4.56352673825382e-31,1.732838749885559,5.52571730592803,0.0,0.25715839862823486,-1.5701387564288538,-0.0,-0.009691406041383743,0.818886399269104,-0.0,-0.0025927668903023005,0.7374560236930847,0.0,-0.006819378584623337
413.0,739.0,-2.3898,0.0532,9.3553,-0.026,0.0229,-0.12,-2.0251594982542933,0.0,3.614640235900879,-1.8011945486068726,1.47852472334299e-38,1.73915696144104,5.525668966561117,0.0,0.25616884231567383,-1.5701177755938929,-0.0,-0.004375892225652933,0.8189218044281006,-0.0,0.0029577170498669147,0.7374399900436401,0.0,0.018737319856882095
413.0,739.0,-2.3898,0.0532,9.3553,-0.026,0.0229,-0.12,-2.025123735467428,0.0,3.6019694805145264,-1.8011904954910278,0.0,1.6969729661941528,5.525673138886251,0.0,0.251319944858551,-1.5701583067523401,-0.0,-0.015273017808794975,0.8189137578010559,-0.0,-0.00348379323258996,0.7374078035354614,0.0,-0.03579976037144661
413.0,739.0,-2.3898,0.0532,9.3553,-0.026,0.0229,-0.12,-2.0251432857909144,0.0,3.61033034324646,-1.8011740446090698,-0.0,1.7266995906829834,5.525656628399648,2.0011577817058424e-06,0.2507956027984619,-1.5701387564288538,-0.0,-0.011806391179561615,0.818886399269104,-0.0,0.010855224914848804,0.7374279499053955,0.0,0.05114448815584183
413.0,739.0,-2.3898,0.0532,9.3553,-0.026,0.0229,-0.12,-2.0251594982542933,0.0,3.5795907974243164,-1.801239013671875,-0.0,1.6993544101715088,5.5257454989250085,3.637005974166385e-11,0.25464195013046265,-1.5701335112201136,-0.0,-0.0196197722107172,0.8188543915748596,-0.0,-0.0018185597145929933,0.737432062625885,0.0,-0.03908121585845947
413.0,739.0,-2.3898,0.0532,9.3553,-0.026,0.0229,-0.12,-2.0251552067198695,0.0,3.6335983276367188,-1.8011780977249146,-0.0,1.7123618125915527,5.525725412159719,1.0123741173715187e-14,0.2501739263534546,-1.5701664129840296,-0.0,-0.025348244234919548,0.81886225938797,-0.0,-0.0022268719039857388,0.7374762892723083,0.0,-0.026150919497013092
413.0,739.0,-2.3898,0.0532,9.3553,-0.026,0.0229,-0.12,-2.0251313648619593,0.0,3.6165060997009277,-1.8012183904647827,-0.0,1.736371636390686,5.525684881001272,1.83993971252021e-19,0.25163504481315613,-1.5701583067523401,-0.0,-0.013847453519701958,0.8188701272010803,-0.0,0.0008359621278941631,0.7374441027641296,0.0,0.011588593944907188
413.0,739.0,-2.3898,0.0532,9.3553,-0.026,0.0229,-0.12,-2.0251475773253382,0.0,3.6393415927886963,-1.801153302192688,-0.0,1.697873830795288,5.525644826679983,3.343999915463142e-24,0.24673590064048767,-1.5701540152179163,-0.0,-0.009119311347603798,0.8189257383346558,-0.0,-0.012508400715887547,0.737423837184906,0.0,0.0021387417800724506
413.0,739.0,-2.3898,0.0532,9.3553,-0.026,0.0229,-0.12,-2.0251552067198695,0.0,3.6053662300109863,-1.8011223077774048,-0.0,1.7349953651428223,5.525701272278585,6.077554810474505e-29,0.25316131114959717,-1.570162598286764,-0.0,-0.025350842624902725,0.8189499378204346,-0.0,0.005468605551868677,0.7374317646026611,0.0,0.043975070118904114
413.0,739.0,-2.3898,0.0532,9.3553,-0.026,0.0229,-0.12,-2.0251270733275355,0.0,3.613691806793213,-1.8011904954910278,-0.0,1.7070417404174805,5.5257054446037195,1.1045654808711515e-33,0.2591286599636078,-1.5701945463763636,-0.0,0.0014084787108004093,0.8189178705215454,-0.0,-0.0016072990838438272,0.7374441027641296,0.00024366054276470095,-0.00014077010564506054
413.0,739.0,-2.3898,0.0532,9.3553,-0.026,0.0229,-0.12,-2.0251432857909144,0.0,3.638566017150879,-1.8011337518692017,-0.0,1.7043049335479736,5.525681185513296,3.074598153093007e-37,0.24290847778320312,-1.570174519215719,-0.0,-0.012085813097655773,0.8189257383346558,-0.0,0.0022995159961283207,0.7374681234359741,0.00028972525615245104,-0.021269159391522408
408.0,730.0,-2.3186,-0.1358,9.3105,-0.0382,0.0205,-0.1176,-2.0251432857909144,3.7259442819959077e-07,3.627821922302246,-1.8011419773101807,5.4732747230445966e-05,1.7486141920089722,5.525709140091696,5.5883782757273705e-42,0.26325416564941406,-1.5701659361468714,-0.0,-0.006062960252165794,0.8189021944999695,-0.0,0.00442377757281065,0.7375285029411316,0.0011155919637531042,0.01386965997517109
408.0,730.0,-2.3186,-0.1358,9.3105,-0.0382,0.0205,-0.1176,-2.025163312951559,1.2071585762517701e-14,3.5852766036987305,-1.8011500835418701,0.0016933551523834467,1.7476940155029297,5.5256608603294275,0.0,0.2654884457588196,-1.5701902548419397,-0.0,0.0003065012861043215,0.8189337253570557,-0.0,-0.003718594554811716,0.7375524044036865,0.0024429375771433115,-0.01145075261592865
408.0,730.0,-2.3186,-0.1358,9.3105,-0.0382,0.0205,-0.1176,-2.025175233880514,3.9110405967601684e-22,3.6445438861846924,-1.8011056184768677,0.001582456985488534,1.696395993232727,5.525677132397451,0.0,0.2588420510292053,-1.5701783339129847,-0.0,-0.01919168047606945,0.8189815878868103,-0.0,0.009206080809235573,0.7375603318214417,0.0032844762317836285,-0.022105097770690918
408.0,730.0,-2.3186,-0.1358,9.3105,-0.0382,0.0205,-0.1176,-2.02514710048818,1.267127238773971e-29,3.656064510345459,-1.801073670387268,0.001166540547274053,1.7109378576278687,5.525713252812185,0.0,0.2540743947029114,-1.5701378027545374,-0.0,-0.017426760867238045,0.818925678730011,-0.0,-0.004343143664300442,0.7375681400299072,0.003049153834581375,-0.009685135446488857
408.0,730.0,-2.3186,-0.1358,9.3105,-0.0382,0.0205,-0.1176,-2.025151392022604,3.0599630367731496e-35,3.6391618251800537,-1.801118016242981,0.0020320627372711897,1.7643768787384033,5.525664913445272,0.0,0.256009042263031,-1.5701821486102503,-0.0,-0.005605786107480526,0.818890392780304,-0.0,-0.0019171773456037045,0.7376283407211304,0.0028682462871074677,0.022179368883371353
408.0,730.0,-2.3186,-0.1358,9.3105,-0.0382,0.0205,-0.1176,-2.0251475773253382,9.907180142776457e-43,3.581080675125122,-1.8010538816452026,0.0052383653819561005,1.6753478050231934,5.52568535783843,0.0,0.2749708890914917,-1.5701583067523401,-0.0,-0.02231529727578163,0.8189098834991455,-0.0,-0.012096008285880089,0.73765629529953,0.0023688466753810644,-0.011715303175151348
408.0,730.0,-2.3186,-0.1358,9.3105,-0.0382,0.0205,-0.1176,-2.0251838169493617,0.0,3.619767189025879,-1.801021695137024,0.005481773521751165,1.7557566165924072,5.525729524880209,0.0,0.26380395889282227,-1.570118252431051,-0.0,0.0010202275589108467,0.8189022541046143,-0.0,0.0035188584588468075,0.7376199960708618,0.001964252209290862,-0.00852022971957922
408.0,730.0,-2.3186,-0.1358,9.3105,-0.0382,0.0205,-0.1176,-2.0252114735045375,0.0,3.6363515853881836,-1.8009098768234253,0.004350658040493727,1.747182846069336,5.525693106442251,0.0,0.25637874007225037,-1.5701540152179163,-0.0,-0.023527806624770164,0.8189137578010559,-0.0,0.0013354464899748564,0.7376843690872192,0.002550930017605424,-0.02541067823767662
408.0,730.0,-2.3186,-0.1358,9.3105,-0.0382,0.0205,-0.1176,-2.0251909695067347,-0.0015479669673368335,3.637882947921753,-1.8009181022644043,0.004984496161341667,1.7299604415893555,5.525664853840627,0.0,0.25658923387527466,-1.5701220671283167,-0.0,0.0001143026165664196,0.8189418911933899,-0.0,0.0022961897775530815,0.7377444505691528,0.005530955735594034,0.017992962151765823
408.0,730.0,-2.3186,-0.1358,9.3105,-0.0382,0.0205,-0.1176,-2.0252591572203578,-0.0022411090321838856,3.5880632400512695,-1.8009107112884521,0.003570739645510912,1.7152574062347412,5.525689053326406,0.0,0.2542687654495239,-1.5701664129840296,-0.0,-0.015204880386590958,0.818905770778656,-0.0,-0.00383751024492085,0.7377280592918396,0.007292922120541334,0.030548950657248497
408.0,730.0,-2.3186,-0.1358,9.3105,-0.0382,0.0205,-0.1176,-2.025299211541647,-0.001714886981062591,3.6102089881896973,-1.8008663654327393,0.0016420490574091673,1.7273907661437988,5.525668966561117,0.0,0.2591337263584137,-1.5701139608966272,-0.0,-0.013855144381523132,0.8189820051193237,-0.0,0.005711439996957779,0.7378726601600647,0.009083226323127747,0.024732068181037903
408.0,730.0,-2.3186,-0.1358,9.3105,-0.0382,0.0205,-0.1176,-2.0252872906126917,-0.0009513776167295873,3.651543140411377,-1.8008506298065186,0.0013233196223154664,1.7088954448699951,5.525652992516317,0.0,0.25846126675605774,-1.5701301733600062,-0.0,-0.015476716682314873,0.8189500570297241,-0.0,0.013047095388174057,0.7379285097122192,0.01059978548437357,0.03185759112238884
426.0,727.0,-2.4814,-0.0526,9.2859,-0.0403,0.027,-0.1153,-2.0252753696837367,-0.00021029346680734307,3.6488959789276123,-1.8008744716644287,0.005247326102107763,1.7655775547027588,5.525616633683004,0.0,0.26060551404953003,-1.570141617451803,-0.0,-0.008151283487677574,0.8189017176628113,-0.0,0.009450058452785015,0.737967848777771,0.012188254855573177,0.02109597995877266
426.0,727.0,-2.4814,-0.0526,9.2859,-0.0403,0.027,-0.1153,-2.0253035030760707,-0.0001423792855348438,3.637453556060791,-1.800722360610962,0.01079713087528944,1.7326006889343262,5.525632965355673,0.0,0.2672680914402008,-1.5701139608966272,-0.0,-0.013186097145080566,0.8189176917076111,-0.0,0.013589171692728996,0.7380964756011963,0.011995384469628334,0.008291150443255901
426.0,727.0,-2.4814,-0.0526,9.2859,-0.0403,0.027,-0.1153,-2.025267263452047,-0.00011506766895763576,3.6454110145568848,-1.8005939722061157,0.015538887120783329,1.7774810791015625,5.525624978333273,0.0,0.2640461325645447,-1.5701177755938929,-0.0,-0.020765051245689392,0.8189377784729004,-0.0,0.008974334225058556,0.7381360530853271,0.011244538240134716,-0.05079253017902374
426.0,727.0,-2.4814,-0.0526,9.2859,-0.0403,0.027,-0.1153,-2.0252872906126917,-9.163290815195069e-05,3.6632204055786133,-1.8004271984100342,0.021523041650652885,1.7870051860809326,5.525628852635183,-1.5215611711028032e-05,0.2526266276836395,-1.5701177755938929,-0.0,-0.022168884053826332,0.8189213871955872,-0.0,0.010129343718290329,0.7382359504699707,0.01037034671753645,-0.04255767539143562
426.0,727.0,-2.4814,-0.0526,9.2859,-0.0403,0.027,-0.1153,-2.025311132470602,-0.0001391670957673341,3.6422605514526367,-1.8002996444702148,0.025684913620352745,1.8127816915512085,5.525637137680807,-1.0051952813228127e-05,0.25127795338630676,-1.57013446489443,-0.0,-0.00575842522084713,0.8189337253570557,-0.0,0.0027849357575178146,0.7383202314376831,0.008523305878043175,-0.007541293278336525
426.0,727.0,-2.4814,-0.0526,9.2859,-0.0403,0.027,-0.1153,-2.025311132470602,-0.00021709433349315077,3.648104667663574,-1.8001160621643066,0.029659075662493706,1.7995479106903076,5.525673675328054,-1.8268926649245287e-10,0.2558444142341614,-1.5701707045184534,-0.0,-0.009149083867669106,0.8189738392829895,-0.0,0.013248667120933533,0.7384167313575745,0.008916948921978474,0.02615744061768055
426.0,727.0,-2.4814,-0.0526,9.2859,-0.0403,0.027,-0.1153,-2.0253030262389125,-0.0014569434570148587,3.6287033557891846,-1.7998199462890625,0.03533323109149933,1.8095351457595825,5.525609004288473,-3.320286779282737e-15,0.2576655149459839,-1.5701220671283167,-0.0,-0.025104347616434097,0.8189337253570557,-0.0,-0.008103678934276104,0.7384844422340393,0.008713407441973686,0.0008021057583391666
426.0,727.0,-2.4814,-0.0526,9.2859,-0.0403,0.027,-0.1153,-2.025334974328512,-0.001377956592477858,3.613607883453369,-1.7996166944503784,0.039880577474832535,1.8284155130386353,5.525641310005941,-9.242140682843263e-19,0.244366854429245,-1.5701826254474085,-0.0,-0.023366684094071388,0.8189377188682556,-0.0,-0.0120183564722538,0.7385040521621704,0.010191252455115318,-0.03301243484020233
426.0,727.0,-2.4814,-0.0526,9.2859,-0.0403,0.027,-0.1153,-2.0253755054869593,-0.001425504102371633,3.5982770919799805,-1.7992291450500488,0.04939449578523636,1.832688331604004,5.525629091053762,-1.6797134791058672e-23,0.25445419549942017,-1.5701387564288538,-0.0,-0.026530973613262177,0.8189053535461426,-0.0,0.00417474377900362,0.7386001944541931,0.010708327405154705,-0.01839950494468212
426.0,727.0,-2.4814,-0.0526,9.2859,-0.0403,0.027,-0.1153,-2.0253874264159144,-0.0031067081727087498,3.5503811836242676,-1.7988219261169434,0.05852174758911133,1.8375070095062256,5.525593387871542,-0.00026778734172694385,0.24028408527374268,-1.5701177755938929,-0.0,-0.03262891620397568,0.8189253807067871,-0.0,-0.00465957447886467,0.7386884093284607,0.010404383763670921,0.0070561738684773445
426.0,727.0,-2.4814,-0.0526,9.2859,-0.0403,0.027,-0.1153,-2.0254394016661585,-0.003473364980891347,3.5726771354675293,-1.7983027696609497,0.06839433312416077,1.9243333339691162,5.525593387871542,-0.0008385090623050928,0.23640120029449463,-1.5701263586627405,-0.0,-0.02181297168135643,0.8189939260482788,-0.0,-0.0011071835178881884,0.7386834025382996,0.010042674839496613,0.0028204512782394886
426.0,727.0,-2.4814,-0.0526,9.2859,-0.0403,0.027,-0.1153,-2.025459428826803,-0.003885753685608506,3.540440559387207,-1.7977155447006226,0.07868760079145432,1.964250087738037,5.5255610821540735,-0.0011439616791903973,0.23302942514419556,-1.5701387564288538,-0.0,-0.007928085513412952,0.8189733624458313,-0.0,0.017033381387591362,0.7387876510620117,0.010376493446528912,-0.017608407884836197
415.0,712.0,-2.193,-0.2578,9.7484,-0.0559,0.0367,-0.1037,-2.025442739526266,-0.0042945463210344315,3.519746780395508,-1.7972086668014526,0.0872194766998291,1.9516637325286865,5.525549161225118,-0.0012276170309633017,0.21503198146820068,-1.5701101461993616,6.918406870681792e-05,-0.008403148502111435,0.8189454674720764,-0.0,-0.002593215787783265,0.7388515472412109,0.010564187541604042,-0.025053590536117554
415.0,712.0,-2.193,-0.2578,9.7484,-0.0559,0.0367,-0.1037,-2.025454183618063,-0.004522058181464672,3.5888257026672363,-1.7964215278625488,0.09804048389196396,1.997581958770752,5.525517213135519,-0.0009079878218472004,0.22247198224067688,-1.5700982252704065,0.0007550049340352416,-0.0036318455822765827,0.8189294338226318,-0.0,0.0082566998898983,0.7389718294143677,0.010436702519655228,-0.05192236602306366
415.0,712.0,-2.193,-0.2578,9.7484,-0.0559,0.0367,-0.1037,-2.0255590877928675,-0.004218204412609339,3.5541701316833496,-1.7955987453460693,0.10803872346878052,1.9972715377807617,5.525549578457632,-0.0006669761496596038,0.2186058759689331,-1.5700905958758753,0.0009309647721238434,-0.0023972922936081886,0.8190061450004578,-0.0,0.0086447698995471,0.7391083836555481,0.011740314774215221,-0.05525356903672218
415.0,712.0,-2.193,-0.2578,9.7484,-0.0559,0.0367,-0.1037,-2.0255748234190882,-0.0047310721129179,3.5647945404052734,-1.7946683168411255,0.11746042221784592,2.051651954650879,5.525512683182516,-0.0006301075336523354,0.20054276287555695,-1.5700624624835413,0.001323841279372573,0.007601605262607336,0.8189413547515869,-0.0,-0.011340647004544735,0.739151656627655,0.013041050173342228,-0.08250057697296143
415.0,712.0,-2.193,-0.2578,9.7484,-0.0559,0.0367,-0.1037,-2.0256272755064906,-0.005089753307402134,3.5170764923095703,-1.7936902046203613,0.13434673845767975,2.0536890029907227,5.525492596417227,-0.0009789770701900125,0.20051097869873047,-1.5700786749469202,0.002477191388607025,0.01024483609944582,0.8189332485198975,-7.0767818272088334e-09,0.01389650534838438,0.7392958402633667,0.014985688962042332,-0.12453815340995789
415.0,712.0,-2.193,-0.2578,9.7484,-0.0559,0.0367,-0.1037,-2.025670667687887,-0.007083588745445013,3.5318751335144043,-1.7927511930465698,0.14732787013053894,2.0359373092651367,5.52548913934783,-0.003219995182007551,0.1932746022939682,-1.570038143788473,0.004107153043150902,0.010650482028722763,0.8190020322799683,-1.9698483295915725e-12,0.0032701261807233095,0.7394284605979919,0.015635179355740547,-0.1491856575012207
415.0,712.0,-2.193,-0.2578,9.7484,-0.0559,0.0367,-0.1037,-2.0257750950255335,-0.012578384950757027,3.517634868621826,-1.7914739847183228,0.17030787467956543,2.1083755493164062,5.5254613039787195,-0.006096372380852699,0.199844092130661,-1.5699904600726526,0.012280873954296112,0.03310156613588333,0.8189979791641235,-3.580102542089528e-17,0.02319268137216568,0.7395278811454773,0.017986247316002846,-0.1524617224931717
415.0,712.0,-2.193,-0.2578,9.7484,-0.0559,0.0367,-0.1037,-2.025954862634176,-0.019506394863128662,3.514045238494873,-1.7900606393814087,0.18653759360313416,2.1558005809783936,5.525356936245718,-0.012780251912772655,0.184613436460495,-1.569822136555807,0.017240893095731735,0.040641944855451584,0.8189496397972107,-6.506660556556348e-22,0.0265751164406538,0.7396676540374756,0.020520014688372612,-0.1566394865512848
415.0,712.0,-2.193,-0.2578,9.7484,-0.0559,0.0367,-0.1037,-2.026090761224264,-0.024321556091308594,3.4249229431152344,-1.7884865999221802,0.20525076985359192,2.145643472671509,5.525281297951498,-0.014098568819463253,0.1833793967962265,-1.5696657339679163,0.01681382954120636,0.04005206748843193,0.8190057277679443,0.00013280368875712156,0.01641004905104637,0.7398720383644104,0.022702835500240326,-0.15381042659282684
415.0,712.0,-2.193,-0.2578,9.7484,-0.0559,0.0367,-0.1037,-2.026278158227438,-0.03009794093668461,3.4562559127807617,-1.7868338823318481,0.22709538042545319,2.229909896850586,5.525128590851583,-0.010525104589760303,0.17998629808425903,-1.5695741812335413,0.01202420238405466,0.037807609885931015,0.8189938068389893,0.00025909225223585963,0.01858975738286972,0.7400076985359192,0.025458579882979393,-0.18399235606193542
415.0,712.0,-2.193,-0.2578,9.7484,-0.0559,0.0367,-0.1037,-2.026546140710348,-0.036528799682855606,3.424726963043213,-1.785344123840332,0.24268540740013123,2.270031452178955,5.5250762579734705,-0.008045212365686893,0.18313464522361755,-1.5695098082171839,0.007157894782721996,0.03991538658738136,0.8189693689346313,0.00022877228911966085,0.020023804157972336,0.7401880025863647,0.02694978378713131,-0.20388182997703552
415.0,712.0,-2.193,-0.2578,9.7484,-0.0559,0.0367,-0.1037,-2.026898046533102,-0.05154857039451599,3.440216541290283,-1.7833164930343628,0.2546332776546478,2.305853843688965,5.525016176491537,-0.006298141088336706,0.17506247758865356,-1.569498364125387,0.001694263773970306,0.0494120717048645,0.8190140128135681,0.00025233623455278575,0.019219880923628807,0.740423858165741,0.03206801787018776,-0.23458300530910492
414.0,597.0,-2.6764,-0.0999,9.7741,-0.0441,0.1281,-0.1074,-2.027341505090231,-0.06691880524158478,3.418295383453369,-1.781206488609314,0.27849724888801575,2.282562494277954,5.525036799698629,-0.003439960302785039,0.180739164352417,-1.569470230733053,0.0008683968335390091,0.04894939437508583,0.8189733624458313,0.0002884075220208615,0.02712276391685009,0.7406914830207825,0.03931683674454689,-0.2563154101371765
414.0,597.0,-2.6764,-0.0999,9.7741,-0.0441,0.1281,-0.1074,-2.02789368251943,-0.07675664871931076,3.3915512561798096,-1.7787882089614868,0.29639071226119995,2.319626569747925,5.525004792004385,-0.0017080174293369055,0.18455104529857635,-1.5695026556598108,0.0005499607650563121,0.041760921478271484,0.8190174102783203,0.000283154658973217,0.028140602633357048,0.7409592270851135,0.040208812803030014,-0.20851579308509827
414.0,597.0,-2.6764,-0.0999,9.7741,-0.0441,0.1281,-0.1074,-2.0285445652403773,-0.07995520532131195,3.403254508972168,-1.7762647867202759,0.32269376516342163,2.3772811889648438,5.525028991490164,-0.0008840279188007116,0.16902361810207367,-1.5695026556598108,0.0004479537601582706,0.05583835393190384,0.8190057277679443,0.0002731245767790824,0.03543569892644882,0.7413756251335144,0.04213646799325943,-0.25262606143951416
414.0,597.0,-2.6764,-0.0999,9.7741,-0.0441,0.1281,-0.1074,-2.0290800533690394,-0.08180466294288635,3.3959407806396484,-1.7743103504180908,0.3375985026359558,2.441615343093872,5.52501659372405,-0.00047069351421669126,0.17288987338542938,-1.5695107618915003,0.0006165056838653982,0.046642567962408066,0.8190132975578308,0.00027615242288447917,0.04481904208660126,0.7415916919708252,0.04312163591384888,-0.2420436143875122
414.0,597.0,-2.6764,-0.0999,9.7741,-0.0441,0.1281,-0.1074,-2.029839178124899,-0.09006810933351517,3.3727188110351562,-1.7715708017349243,0.3530474007129669,2.378452777862549,5.525028991490164,-0.0009271239396184683,0.1686115562915802,-1.5694497267352503,0.0008300038171000779,0.07373418658971786,0.8190174102783203,0.00034195921034552157,0.0333172008395195,0.7419636845588684,0.04397953301668167,-0.30636999011039734
414.0,597.0,-2.6764,-0.0999,9.7741,-0.0441,0.1281,-0.1074,-2.0306102238097132,-0.10392040759325027,3.4057774543762207,-1.7686375379562378,0.3708474040031433,2.464674949645996,5.524996924191274,-0.002266770228743553,0.17132705450057983,-1.5694220701800745,0.0013006749795749784,0.048397280275821686,0.8189733624458313,0.0003196040925104171,0.03663773089647293,0.7423194646835327,0.04436255991458893,-0.2905016839504242
414.0,597.0,-2.6764,-0.0999,9.7741,-0.0441,0.1281,-0.1074,-2.0315052471556605,-0.12120480835437775,3.353954792022705,-1.7656975984573364,0.3895938992500305,2.5159225463867188,5.524976956635275,-0.0025193903129547834,0.16673770546913147,-1.5694745222674769,0.0015223616501316428,0.0782148540019989,0.8190414905548096,0.00026582597638480365,0.04446681588888168,0.7426350712776184,0.042007673531770706,-0.24971328675746918
414.0,597.0,-2.6764,-0.0999,9.7741,-0.0441,0.1281,-0.1074,-2.0325523815550746,-0.1370294988155365,3.376680850982666,-1.7624934911727905,0.406877338886261,2.529696464538574,5.524997043400564,-0.0016661941772326827,0.17204716801643372,-1.5694220701800745,0.0017167539335787296,0.05557717755436897,0.8190210461616516,0.00025992238079197705,0.043530866503715515,0.7430354356765747,0.039264656603336334,-0.29494255781173706
414.0,597.0,-2.6764,-0.0999,9.7741,-0.0441,0.1281,-0.1074,-2.033419748345846,-0.14575554430484772,3.3318700790405273,-1.7599961757659912,0.4284159243106842,2.561086654663086,5.524980592518606,-0.0009852973744273186,0.16672660410404205,-1.5694382826434534,0.0015440686838701367,0.07571350783109665,0.8189852833747864,0.0002345217071706429,0.04400372877717018,0.7432717084884644,0.0382254384458065,-0.2558650076389313
414.0,597.0,-2.6764,-0.0999,9.7741,-0.0441,0.1281,-0.1074,-2.0346867046751917,-0.15732328593730927,3.375743865966797,-1.7564603090286255,0.4543699026107788,2.5252559185028076,5.524992990284719,-0.0006363257416523993,0.16639503836631775,-1.5694220701800745,0.000931860355194658,0.06662407517433167,0.8189489841461182,0.00019956220057792962,0.054417259991168976,0.7435113787651062,0.03311510756611824,-0.29431381821632385
414.0,597.0,-2.6764,-0.0999,9.7741,-0.0441,0.1281,-0.1074,-2.035956998864645,-0.15963533520698547,3.3432748317718506,-1.7527341842651367,0.4723871946334839,2.5535008907318115,5.524924206524648,-0.00041943963151425123,0.17377637326717377,-1.5694144407855433,0.0006686614942736924,0.056851811707019806,0.8190293312072754,0.00016949085693340749,0.027788417413830757,0.743815541267395,0.028186189010739326,-0.2793056070804596
387.0,460.0,-3.2291,-0.0497,9.8112,-0.0313,0.2764,-0.0648,-2.037532468835348,-0.18408048152923584,3.379070520401001,-1.7487801313400269,0.48164427280426025,2.6008009910583496,5.524928796082296,-0.0039504654705524445,0.1633674055337906,-1.5694549719439905,0.00048743467777967453,0.05767528712749481,0.8190292119979858,0.00017675122944638133,0.05031421780586243,0.7440187931060791,0.02741263248026371,-0.2235979586839676
387.0,460.0,-3.2291,-0.0497,9.8112,-0.0313,0.2764,-0.0648,-2.038614889184469,-0.21106138825416565,3.334015369415283,-1.7457984685897827,0.4905340075492859,2.6109261512756348,5.524921047478475,-0.005269939545542002,0.16908282041549683,-1.5694144407855433,0.00029419807833619416,0.0747123509645462,0.8190174102783203,0.00016094876627903432,0.04781019687652588,0.7441706657409668,0.02793210744857788,-0.22356709837913513
387.0,460.0,-3.2291,-0.0497,9.8112,-0.0313,0.2764,-0.0648,-2.040312429467672,-0.22714988887310028,3.252432107925415,-1.7417644262313843,0.5069335103034973,2.643347978591919,5.524884509831228,-0.002170531079173088,0.17651419341564178,-1.5694268385516565,0.0005258590681478381,0.06315538287162781,0.8190697431564331,0.00016776291886344552,0.05738022178411484,0.7444115281105042,0.026600461453199387,-0.20663577318191528
387.0,460.0,-3.2291,-0.0497,9.8112,-0.0313,0.2764,-0.0648,-2.0421391926207484,-0.22075378894805908,3.3286757469177246,-1.7376121282577515,0.5267496109008789,2.5725760459899902,5.524904715805807,-0.0005965189193375409,0.15612497925758362,-1.56940204301943,0.0011430103331804276,0.06565156579017639,0.8190898895263672,0.0001516186021035537,0.04805467650294304,0.7445386052131653,0.02281995303928852,-0.29627060890197754
387.0,460.0,-3.2291,-0.0497,9.8112,-0.0313,0.2764,-0.0648,-2.0439769230284632,-0.2245474010705948,3.317131280899048,-1.7333838939666748,0.55076664686203,2.6587154865264893,5.52495305517272,-0.00010699330596253276,0.17073127627372742,-1.5693782011615198,0.0008808433194644749,0.07078047841787338,0.8190129399299622,0.00015772086044307798,0.04958539828658104,0.7448112368583679,0.024510279297828674,-0.2698097825050354
387.0,460.0,-3.2291,-0.0497,9.8112,-0.0313,0.2764,-0.0648,-2.0459424457945765,-0.24910347163677216,3.380101442337036,-1.7289777994155884,0.5601879358291626,2.6707100868225098,5.524912881642141,-0.0010321303270757198,0.15662729740142822,-1.5693782011615198,0.000510112673509866,0.0640380010008812,0.8190373778343201,0.00014530186308547854,0.049417562782764435,0.7449384927749634,0.02804669365286827,-0.20929963886737823
387.0,460.0,-3.2291,-0.0497,9.8112,-0.0313,0.2764,-0.0648,-2.047493120233053,-0.2664714455604553,3.3433659076690674,-1.7256107330322266,0.5648725628852844,2.6718738079071045,5.5248727081115625,-0.003882054006680846,0.1626538634300232,-1.5693500677691858,0.00045516298268921673,0.06435418128967285,0.8190251588821411,0.00013700703857466578,0.046515729278326035,0.7451185584068298,0.03168230131268501,-0.2061094343662262
387.0,460.0,-3.2291,-0.0497,9.8112,-0.0313,0.2764,-0.0648,-2.049655099908346,-0.2834775149822235,3.313910722732544,-1.7209991216659546,0.5750932693481445,2.650726318359375,5.524868953018942,-0.0019607022404670715,0.15947729349136353,-1.569390122090475,0.00045377385686151683,0.07891005277633667,0.8190534114837646,0.00012731611786875874,0.06203904747962952,0.7453547120094299,0.03372687101364136,-0.22796446084976196
387.0,460.0,-3.2291,-0.0497,9.8112,-0.0313,0.2764,-0.0648,-2.051836153069967,-0.2829676568508148,3.374800682067871,-1.7162655591964722,0.5795121192932129,2.651279926300049,5.524892794876852,-0.0008774226880632341,0.16990451514720917,-1.5693662802325647,0.0005227548535913229,0.07369042187929153,0.8189893960952759,0.00011890554742421955,0.06627235561609268,0.7456227540969849,0.03262504190206528,-0.2415570318698883
387.0,460.0,-3.2291,-0.0497,9.8112,-0.0313,0.2764,-0.0648,-2.054093977014059,-0.29308342933654785,3.3210525512695312,-1.7116153240203857,0.5938869118690491,2.7101569175720215,5.524856674462118,-0.00023732199042569846,0.17692750692367554,-1.5694101492511194,0.0008179793949238956,0.08858828246593475,0.8189935088157654,0.00010041988571174443,0.05435427650809288,0.7458829879760742,0.03299636393785477,-0.18652544915676117
387.0,460.0,-3.2291,-0.0497,9.8112,-0.0313,0.2764,-0.0648,-2.0564595661559046,-0.29300156235694885,3.3685081005096436,-1.7068666219711304,0.6023440361022949,2.6772384643554688,5.5248727081115625,-0.000196464141481556,0.17066031694412231,-1.5694025198565882,0.0005523859872482717,0.07297356426715851,0.8190174102783203,9.219014464179054e-05,0.06711746752262115,0.7460783123970032,0.03431634232401848,-0.12014354765415192
387.0,460.0,-3.2291,-0.0497,9.8112,-0.0313,0.2764,-0.0648,-2.0582057438292445,-0.2992514967918396,3.309986114501953,-1.703302264213562,0.6113653779029846,2.7451047897338867,5.524860787182607,8.137335498759057e-06,0.17393207550048828,-1.5693705717669886,0.0004996530478820205,0.07558976858854294,0.8190214037895203,8.68521019583568e-05,0.0610513798892498,0.746346652507782,0.03471358120441437,-0.18119913339614868
345.0,350.0,-2.9396,0.6682,9.5474,-0.0108,0.3131,-0.0954,-2.060735364953512,-0.31548169255256653,3.363637685775757,-1.6983704566955566,0.6189368367195129,2.7007412910461426,5.524877238064565,1.4789205970977548e-10,0.1662692278623581,-1.5693824926959437,0.00039109785575419664,0.06277765333652496,0.8190050721168518,8.062728011282161e-05,0.05858597904443741,0.7465701699256897,0.034354690462350845,-0.14845336973667145
345.0,350.0,-2.9396,0.6682,9.5474,-0.0108,0.3131,-0.0954,-2.0632478199400843,-0.31845104694366455,3.3970398902893066,-1.6933903694152832,0.6302017569541931,2.708132028579712,5.524916994362631,2.687864875808364e-15,0.16423246264457703,-1.5694101492511194,0.0003212727897334844,0.06788578629493713,0.8190411329269409,7.523521344410256e-05,0.056230105459690094,0.7468382120132446,0.03509793058037758,-0.17612099647521973
345.0,350.0,-2.9396,0.6682,9.5474,-0.0108,0.3131,-0.0954,-2.0658771000304164,-0.3355046212673187,3.3745689392089844,-1.688334584236145,0.6346492767333984,2.670774221420288,5.524888682156362,4.8850618027436624e-20,0.17401255667209625,-1.569373909627096,0.00027260524802841246,0.0668591856956482,0.8190575242042542,7.051903958199546e-05,0.06332473456859589,0.7471661567687988,0.03396528959274292,-0.09279908239841461
345.0,350.0,-2.9396,0.6682,9.5474,-0.0108,0.3131,-0.0954,-2.0686828098692835,-0.33776164054870605,3.449772834777832,-1.6831234693527222,0.6305864453315735,2.64922833442688,5.524876820832052,8.878358317326318e-25,0.1846613734960556,-1.5693419615374964,0.00022694826475344598,0.07697229087352753,0.8190333247184753,6.635938916588202e-05,0.06768599152565002,0.7474382519721985,0.03530357778072357,-0.19418200850486755
345.0,350.0,-2.9396,0.6682,9.5474,-0.0108,0.3131,-0.0954,-2.0707560978331507,-0.34836214780807495,3.4024195671081543,-1.6793049573898315,0.6401908993721008,2.5992794036865234,5.524884986668386,2.471323452723563e-28,0.1767420470714569,-1.5693944136248987,2.9227239792817272e-06,0.054966218769550323,0.8190169930458069,6.354806828312576e-05,0.046313896775245667,0.7476743459701538,0.037641528993844986,-0.16867148876190186
345.0,350.0,-2.9396,0.6682,9.5474,-0.0108,0.3131,-0.0954,-2.073512693444723,-0.3488702178001404,3.394929885864258,-1.6743028163909912,0.6424623727798462,2.5995192527770996,5.524873125344076,4.4915080785102965e-33,0.17872735857963562,-1.5693662802325647,5.311907164129437e-11,0.05581231787800789,0.8190214037895203,6.0150301578687504e-05,0.052347030490636826,0.7479903101921082,0.039380356669425964,-0.09644573926925659
345.0,350.0,-2.9396,0.6682,9.5474,-0.0108,0.3131,-0.0954,-2.0762702427306117,-0.35436028242111206,3.4257850646972656,-1.6691144704818726,0.6419206261634827,2.6435885429382324,5.524836647301473,8.163094366550346e-38,0.18427953124046326,-1.5694025198565882,9.65412895534022e-16,0.06969344615936279,0.8191140294075012,5.709750621463172e-05,0.06249021738767624,0.7483342885971069,0.039384618401527405,-0.11722492426633835
345.0,350.0,-2.9396,0.6682,9.5474,-0.0108,0.3131,-0.0954,-2.0791264973082484,-0.3576503396034241,3.4429049491882324,-1.6639374494552612,0.6448301076889038,2.5612950325012207,5.524860787182607,1.4839750737199813e-42,0.17514432966709137,-1.5693824926959437,1.7545903121881936e-20,0.0741652250289917,0.8190456628799438,5.4339565394911915e-05,0.05278593301773071,0.7485820055007935,0.03865167498588562,-0.10637518763542175
345.0,350.0,-2.9396,0.6682,9.5474,-0.0108,0.3131,-0.0954,-2.082036157647604,-0.35759788751602173,3.4796218872070312,-1.6587580442428589,0.6504089832305908,2.6110427379608154,5.5248567936714075,0.0,0.19182038307189941,-1.5693581740008753,3.188880969466037e-25,0.06128321588039398,0.8191016912460327,5.183582106838003e-05,0.059697408229112625,0.7489302158355713,0.035946331918239594,-0.13926973938941956
345.0,350.0,-2.9396,0.6682,9.5474,-0.0108,0.3131,-0.0954,-2.0840970478453578,-0.36134278774261475,3.50685715675354,-1.654798984527588,0.6448884010314941,2.607116460800171,5.524864899903097,0.0,0.1715853065252304,-1.5693824926959437,8.876367965025291e-29,0.058101095259189606,0.819065272808075,5.0104365072911605e-05,0.06307365000247955,0.7491180300712585,0.032829247415065765,-0.11180729418992996
345.0,350.0,-2.9396,0.6682,9.5474,-0.0108,0.3131,-0.0954,-2.0870849094786585,-0.371145635843277,3.5216145515441895,-1.649544358253479,0.6428213119506836,2.6358728408813477,5.524852621346273,0.0,0.17061814665794373,-1.5694063345538538,1.61323595744103e-33,0.057678792625665665,0.8190213441848755,6.991578871407e-09,0.05224718153476715,0.7493935823440552,0.031909286975860596,-0.10323922336101532
345.0,350.0,-2.9396,0.6682,9.5474,-0.0108,0.3131,-0.0954,-2.0900336704649867,-0.3739735782146454,3.4253673553466797,-1.6443246603012085,0.6479532718658447,2.6562113761901855,5.524844455509939,0.0,0.1753731220960617,-1.5693581740008753,2.9319765737832016e-38,0.05809406191110611,0.8190537691116333,1.2706850816782828e-13,0.04561164230108261,0.7496214509010315,0.031127551570534706,-0.05930451303720474
311.0,301.0,-3.1364,0.0138,8.857,-0.0399,0.2981,-0.0759,-2.0930801830687464,-0.3693942129611969,3.5355634689331055,-1.6392573118209839,0.6523187756538391,2.647101879119873,5.524884569435873,0.0,0.1733921766281128,-1.5693543593036097,5.324934164434305e-43,0.0659014955163002,0.8190492987632751,2.30940699975287e-18,0.04350154474377632,0.749869704246521,0.028680866584181786,-0.15048229694366455
311.0,301.0,-3.1364,0.0138,8.857,-0.0399,0.2981,-0.0759,-2.096157213250631,-0.37518757581710815,3.5078394412994385,-1.6339516639709473,0.6556620597839355,2.636507511138916,5.524877238064565,0.0,0.19390186667442322,-1.5693863073932093,0.0,0.053093425929546356,0.8190534114837646,4.197233842702451e-23,0.06027432531118393,0.7500895857810974,0.028665486723184586,-0.11846525967121124
311.0,301.0,-3.1364,0.0138,8.857,-0.0399,0.2981,-0.0759,-2.098466535607809,-0.38101446628570557,3.505715847015381,-1.6300166845321655,0.66330885887146,2.663578987121582,5.5248849270637415,0.0,0.1802741289138794,-1.5693705717669886,0.0,0.06494332104921341,0.8189734816551208,1.1683153265839626e-26,0.05528126657009125,0.7503138184547424,0.030785543844103813,-0.1396734118461609
311.0,301.0,-3.1364,0.0138,8.857,-0.0399,0.2981,-0.0759,-2.101619859735006,-0.39695245027542114,3.500000476837158,-1.62477707862854,0.6546816825866699,2.6334292888641357,5.524877238064565,0.0,0.16593369841575623,-1.569361988698141,0.0,0.05796551704406738,0.8189969062805176,2.1233549259044495e-31,0.04577858746051788,0.7505619525909424,0.03323115408420563,-0.1460537165403366
311.0,301.0,-3.1364,0.0138,8.857,-0.0399,0.2981,-0.0759,-2.1048017940916957,-0.4076002836227417,3.5707807540893555,-1.6194336414337158,0.6415964961051941,2.655001163482666,5.524832951813497,0.0,0.17887675762176514,-1.569350544606344,0.0,0.07122009992599487,0.819021463394165,3.859092206733543e-36,0.0507233589887619,0.7508456707000732,0.036320190876722336,-0.11638660728931427
311.0,301.0,-3.1364,0.0138,8.857,-0.0399,0.2981,-0.0759,-2.108023305932516,-0.40952247381210327,3.538884401321411,-1.614400863647461,0.6461842656135559,2.6581029891967773,5.524873125344076,0.0,0.17995283007621765,-1.5693424383746546,0.0,0.07143565267324448,0.8190776109695435,7.013779073638574e-41,0.05106963962316513,0.7510935068130493,0.03787833824753761,-0.12858888506889343
311.0,301.0,-3.1364,0.0138,8.857,-0.0399,0.2981,-0.0759,-2.1112123928465785,-0.3990938663482666,3.5451884269714355,-1.6093803644180298,0.6433153748512268,2.621507167816162,5.524880873947897,0.0,0.1857895851135254,-1.5693424383746546,0.0,0.06593343615531921,0.8190894722938538,1.401298464324817e-45,0.053875476121902466,0.7512889504432678,0.03356201946735382,-0.07970505952835083
311.0,301.0,-3.1364,0.0138,8.857,-0.0399,0.2981,-0.0759,-2.1136423550047816,-0.38972046971321106,3.63706374168396,-1.6055409908294678,0.6428027153015137,2.5966262817382812,5.524925160198965,0.0,0.194536954164505,-1.56932241121401,0.0,0.0661817267537117,0.8190374970436096,0.0,0.051432009786367416,0.7515891194343567,0.034186750650405884,-0.21138793230056763
311.0,301.0,-3.1364,0.0138,8.857,-0.0399,0.2981,-0.0759,-2.1167074642577113,-0.3939472734928131,3.611524820327759,-1.6004655361175537,0.6381331086158752,2.6264090538024902,5.524820613652029,0.0,0.1866580694913864,-1.5693500677691858,0.0,0.05270908772945404,0.8190251588821411,0.0,0.056101154536008835,0.7518572807312012,0.03631407767534256,-0.16077245771884918
311.0,301.0,-3.1364,0.0138,8.857,-0.0399,0.2981,-0.0759,-2.119880815545553,-0.4009952247142792,3.6652474403381348,-1.5953508615493774,0.6306463479995728,2.590996503829956,5.524848508625784,0.0,0.18620866537094116,-1.5693743864642542,0.0,0.061681587249040604,0.8190737962722778,0.0,0.04644226282835007,0.7521529197692871,0.03850994631648064,-0.17397794127464294
311.0,301.0,-3.1364,0.0138,8.857,-0.0399,0.2981,-0.0759,-2.123115201989645,-0.40906986594200134,3.6214518547058105,-1.590295433998108,0.6157477498054504,2.616252899169922,5.524864840298452,0.0,0.18288195133209229,-1.569361988698141,0.0,0.05047263205051422,0.8190373778343201,0.0,0.055220767855644226,0.7524571418762207,0.03842148929834366,-0.1552923172712326
311.0,301.0,-3.1364,0.0138,8.857,-0.0399,0.2981,-0.0759,-2.126308580438131,-0.3995327949523926,3.63482666015625,-1.5852831602096558,0.6236064434051514,2.5573127269744873,5.524916875153341,0.0004421195189934224,0.18188786506652832,-1.5693662802325647,0.0,0.0503774955868721,0.8189897537231445,0.0,0.043317899107933044,0.7527694702148438,0.0384354367852211,-0.1657654494047165
287.0,272.0,-3.4205,-0.1992,9.1735,-0.0467,0.3082,-0.0857,-2.1287299595274867,-0.39294251799583435,3.649549961090088,-1.5816359519958496,0.6267200112342834,2.578518867492676,5.524868595391073,0.00040329404873773456,0.1781373769044876,-1.5693543593036097,0.0,0.08505798876285553,0.8190251588821411,0.0,0.03634259104728699,0.7529850006103516,0.04125618562102318,-0.16868332028388977
287.0,272.0,-3.4205,-0.1992,9.1735,-0.0467,0.3082,-0.0857,-2.1319152317442835,-0.3835853338241577,3.6859824657440186,-1.576596975326538,0.6263473629951477,2.5684921741485596,5.524832534580984,7.814915079507045e-07,0.19271312654018402,-1.5693743864642542,0.0,0.05663994699716568,0.8189853429794312,0.0,0.046771325170993805,0.7533771395683289,0.04434652626514435,-0.19395357370376587
287.0,272.0,-3.4205,-0.1992,9.1735,-0.0467,0.3082,-0.0857,-2.1350847683348597,-0.3893328607082367,3.6945137977600098,-1.5716500282287598,0.6218462586402893,2.5400657653808594,5.524893212109365,1.4203223666631182e-11,0.18220379948616028,-1.5693543593036097,0.0,0.07012108713388443,0.819057822227478,0.0,0.03382188081741333,0.7537167072296143,0.04882751777768135,-0.16754527390003204
287.0,272.0,-3.4205,-0.1992,9.1735,-0.0467,0.3082,-0.0857,-2.138221879998678,-0.40483713150024414,3.7444443702697754,-1.5667099952697754,0.6203798055648804,2.593717098236084,5.52480428197936,2.5813659939819824e-16,0.19314920902252197,-1.5693662802325647,0.0,0.06446591019630432,0.8190497159957886,0.0,0.03935740515589714,0.7541287541389465,0.04908804967999458,-0.1850654035806656
287.0,272.0,-3.4205,-0.1992,9.1735,-0.0467,0.3082,-0.0857,-2.141395708123678,-0.40858200192451477,3.709138870239258,-1.5617635250091553,0.6058289408683777,2.5559792518615723,5.5248854039009,-0.0005342987133190036,0.19393062591552734,-1.5693262259112757,0.0,0.0457950085401535,0.8190414905548096,0.0,0.03648965433239937,0.7544927000999451,0.042852453887462616,-0.22486504912376404
287.0,272.0,-3.4205,-0.1992,9.1735,-0.0467,0.3082,-0.0857,-2.143806119958395,-0.402178555727005,3.682854652404785,-1.558010220527649,0.5997689366340637,2.5886847972869873,5.524876761227407,-0.0003175597812514752,0.19748201966285706,-1.5693262259112757,0.0,0.07336661964654922,0.8190251588821411,0.0,0.03793014585971832,0.7547887563705444,0.03930389881134033,-0.23658442497253418
287.0,272.0,-3.4205,-0.1992,9.1735,-0.0467,0.3082,-0.0857,-2.146903177300924,-0.39030057191848755,3.7435214519500732,-1.5531423091888428,0.6078256964683533,2.60738468170166,5.524808454304495,-0.00023385524400509894,0.1866646558046341,-1.5693424383746546,0.0,0.06734363734722137,0.8190132975578308,0.0,0.03740128502249718,0.7550723552703857,0.03925709426403046,-0.27335333824157715
287.0,272.0,-3.4205,-0.1992,9.1735,-0.0467,0.3082,-0.0857,-2.150022645989889,-0.3809804618358612,3.83488130569458,-1.5483344793319702,0.603607177734375,2.5563066005706787,5.524848925858297,-2.5727745196491014e-06,0.1935957372188568,-1.5693782011615198,0.0,0.06354618817567825,0.8190091252326965,0.0,0.0432334840297699,0.7553960084915161,0.04094585031270981,-0.2681083083152771
287.0,272.0,-3.4205,-0.1992,9.1735,-0.0467,0.3082,-0.0857,-2.153030057946676,-0.3910229504108429,3.80338716506958,-1.5435715913772583,0.6013654470443726,2.575223684310913,5.524808454304495,-4.675890924454862e-11,0.19945402443408966,-1.569338623677389,0.0,0.05978265404701233,0.8190214037895203,0.0,0.041427068412303925,0.7557645440101624,0.04397263377904892,-0.22656375169754028
287.0,272.0,-3.4205,-0.1992,9.1735,-0.0467,0.3082,-0.0857,-2.156168600121969,-0.3905327022075653,3.7978625297546387,-1.5387879610061646,0.5999146699905396,2.5423436164855957,5.524917530804434,-8.49820215046359e-16,0.19667558372020721,-1.5693705717669886,0.0,0.04769286513328552,0.8190255165100098,0.0,0.026622015982866287,0.7560963034629822,0.043812185525894165,-0.23489324748516083
287.0,272.0,-3.4205,-0.1992,9.1735,-0.0467,0.3082,-0.0857,-2.158515592614645,-0.3962593972682953,3.7564985752105713,-1.535250186920166,0.6049887537956238,2.5236904621124268,5.524864899903097,-2.36550597530591e-19,0.1904585361480713,-1.5693462530719202,0.0,0.05730373412370682,0.8190174102783203,0.0,0.030108068138360977,0.756376326084137,0.044018492102622986,-0.24231688678264618
266.0,253.0,-3.7358,-0.9422,9.0969,-0.0428,0.2753,-0.0683,-2.161762853662008,-0.3832627236843109,3.8857293128967285,-1.530424952507019,0.601630687713623,2.568523645401001,5.524840760021963,-4.299189775967288e-24,0.20031976699829102,-1.56932241121401,0.0,0.04836009070277214,0.8190057277679443,0.0,0.023097218945622444,0.7567285299301147,0.04299185425043106,-0.2010398507118225
266.0,253.0,-3.7358,-0.9422,9.0969,-0.0428,0.2753,-0.0683,-2.164946218530172,-0.38673898577690125,3.8166189193725586,-1.5254782438278198,0.5982456803321838,2.5528504848480225,5.524868953018942,-7.813565793780177e-29,0.20557481050491333,-1.5693500677691858,2.3286501615871202e-08,0.036962561309337616,0.8190333843231201,5.009594961080666e-10,0.0037779202684760094,0.7570641040802002,0.04304417595267296,-0.19206354022026062
266.0,253.0,-3.7358,-0.9422,9.0969,-0.0428,0.2753,-0.0683,-2.167960306207174,-0.38169142603874207,3.8898801803588867,-1.5207462310791016,0.5963663458824158,2.553586483001709,5.524860906391897,-1.4200768890039884e-33,0.1951066553592682,-1.5693500677691858,4.232206490643875e-13,0.05429946631193161,0.8190214037895203,9.104691081466589e-15,0.021579116582870483,0.7574201822280884,0.041316740214824677,-0.2255735993385315
266.0,253.0,-3.7358,-0.9422,9.0969,-0.0428,0.2753,-0.0683,-2.1710239849486292,-0.38298389315605164,3.9051008224487305,-1.5161211490631104,0.5884672403335571,2.5953288078308105,5.524840760021963,-2.580919919384234e-38,0.19245922565460205,-1.5693586508380335,7.691825130316271e-18,0.05133248120546341,0.8189938068389893,1.6547325516529092e-19,0.027425605803728104,0.757732093334198,0.03801361098885536,-0.21110200881958008
266.0,253.0,-3.7358,-0.9422,9.0969,-0.0428,0.2753,-0.0683,-2.1732832394041957,-0.3789288103580475,3.931053638458252,-1.512627363204956,0.5863689184188843,2.5403380393981934,5.524860906391897,-6.0730031691491604e-05,0.1987588107585907,-1.5693662802325647,2.1410477615135826e-21,0.042672254145145416,0.8189534544944763,4.606008626469134e-23,0.03866658732295036,0.757911741733551,0.03592017665505409,-0.2117246389389038
266.0,253.0,-3.7358,-0.9422,9.0969,-0.0428,0.2753,-0.0683,-2.176206251183981,-0.36217665672302246,3.9056310653686523,-1.5079708099365234,0.5838470458984375,2.5512027740478516,5.52480028846816,-7.851883128751069e-05,0.189493328332901,-1.569378677998678,3.8912486998482884e-26,0.037202537059783936,0.8189898133277893,8.371191244305172e-28,0.014325568452477455,0.7581797242164612,0.03403669223189354,-0.18659377098083496
266.0,253.0,-3.7358,-0.9422,9.0969,-0.0428,0.2753,-0.0683,-2.179073473016256,-0.3558143675327301,3.9362711906433105,-1.503345251083374,0.58432537317276,2.5761337280273438,5.524853098183431,4.673127841670066e-05,0.1904759407043457,-1.569361988698141,7.072152523727846e-31,0.040290575474500656,0.8190057277679443,1.5214225018021166e-32,0.022010091692209244,0.7584875822067261,0.036209553480148315,-0.1908925473690033
266.0,253.0,-3.7358,-0.9422,9.0969,-0.0428,0.2753,-0.0683,-2.1818553409972132,-0.3472910225391388,3.9717206954956055,-1.4986913204193115,0.5737890601158142,2.520629405975342,5.524869131832876,8.493178382806832e-10,0.18777164816856384,-1.569394890462057,1.2853287432694685e-35,0.036827392876148224,0.8189979791641235,2.765110288963034e-37,0.022091856226325035,0.7587552070617676,0.039208631962537766,-0.20177039504051208
266.0,253.0,-3.7358,-0.9422,9.0969,-0.0428,0.2753,-0.0683,-2.1846310100951136,-0.3546656668186188,3.9225878715515137,-1.493997573852539,0.5697352290153503,2.564807176589966,5.524864840298452,1.5435932019343054e-14,0.2011430412530899,-1.5693581740008753,2.336020591968043e-40,0.04146585240960121,0.8189939260482788,-1.2460252037271857e-05,0.004412021487951279,0.7591795921325684,0.04070454463362694,-0.18313387036323547
266.0,253.0,-3.7358,-0.9422,9.0969,-0.0428,0.2753,-0.0683,-2.186726232568258,-0.3431178629398346,4.011012077331543,-1.4905517101287842,0.5710732936859131,2.5678586959838867,5.524816620140829,4.296648657612262e-18,0.19671159982681274,-1.5693982283221644,6.445972935894159e-44,0.032737478613853455,0.8190057277679443,-0.00013533026503864676,0.021909041330218315,0.7594116926193237,0.04059077426791191,-0.18193265795707703
266.0,253.0,-3.7358,-0.9422,9.0969,-0.0428,0.2753,-0.0683,-2.1893931827940882,-0.33423957228660583,3.984748363494873,-1.4860225915908813,0.5712923407554626,2.576680898666382,5.524853098183431,7.808946091468555e-23,0.19911646842956543,-1.5693419615374964,0.0,0.024892054498195648,0.8190098404884338,-0.00014457346696872264,0.011049450375139713,0.7597115635871887,0.03920576721429825,-0.14757418632507324
266.0,253.0,-3.7358,-0.9422,9.0969,-0.0428,0.2753,-0.0683,-2.1921407184996546,-0.3215413987636566,4.0126447677612305,-1.4814727306365967,0.5733078122138977,2.5340659618377686,5.524848508625784,1.4192374205043868e-27,0.18751519918441772,-1.5693581740008753,0.0,0.050182901322841644,0.8190098404884338,-0.00015270247240550816,0.004000058397650719,0.7599988579750061,0.04095541685819626,-0.149398073554039
250.0,249.0,-3.7023,-0.3087,9.2734,-0.0455,0.257,-0.0644,-2.194768091241354,-0.32318443059921265,4.029179573059082,-1.4769517183303833,0.5659867525100708,2.506115436553955,5.524841296463766,2.5793940131018627e-32,0.18368838727474213,-1.569373909627096,0.0,0.02377418428659439,0.8189774751663208,-0.00015781060210429132,0.0002320497005712241,0.7604156732559204,0.04325343668460846,-0.12256650626659393
250.0,249.0,-3.7023,-0.3087,9.2734,-0.0455,0.257,-0.0644,-2.19740690807485,-0.3267655670642853,4.038620471954346,-1.4724143743515015,0.5635359883308411,2.5355684757232666,5.524837124138632,4.687921370757078e-37,0.20279455184936523,-1.5693700949298304,0.0,0.01558372937142849,0.8189614415168762,-0.00023612416407559067,0.00319018866866827,0.7607713937759399,0.04589264094829559,-0.13080456852912903
250.0,249.0,-3.7023,-0.3087,9.2734,-0.0455,0.257,-0.0644,-2.199333807031149,-0.3263000547885895,4.018037796020508,-1.4690032005310059,0.5587928891181946,2.5534965991973877,5.524832951813497,1.304903142963913e-40,0.20088356733322144,-1.5693543593036097,0.0,0.021917343139648438,0.8189898133277893,-0.0002053351199720055,-0.004972300957888365,0.7610151767730713,0.047669220715761185,-0.13258123397827148
250.0,249.0,-3.7023,-0.3087,9.2734,-0.0455,0.257,-0.0644,-2.2019535503783167,-0.32651466131210327,4.047145843505859,-1.4645735025405884,0.5441098213195801,2.5777928829193115,5.524853157788076,2.802596928649634e-45,0.20438633859157562,-1.5693700949298304,0.0,0.009220819920301437,0.819014310836792,-0.00020835803297813982,-0.00419925432652235,0.7613946199417114,0.04957180097699165,-0.11529883742332458
250.0,249.0,-3.7023,-0.3087,9.2734,-0.0455,0.257,-0.0644,-2.204424043694967,-0.31140774488449097,4.048439025878906,-1.4601556062698364,0.544076144695282,2.5785470008850098,5.524828898697653,0.0,0.1994737833738327,-1.5693824926959437,0.0,0.025367483496665955,0.8189701437950134,-0.0001805004576453939,0.010408056899905205,0.7618347406387329,0.051740676164627075,-0.11327403038740158
250.0,249.0,-3.7023,-0.3087,9.2734,-0.0455,0.257,-0.0644,-2.206895490685934,-0.29831811785697937,4.146072864532471,-1.455817699432373,0.5363090634346008,2.5146772861480713,5.524832951813497,0.0,0.20518825948238373,-1.5693824926959437,0.0,0.02329271286725998,0.8189254999160767,-0.00018574389105197042,0.014514120295643806,0.7623112201690674,0.0522955060005188,-0.1027444377541542
250.0,249.0,-3.7023,-0.3087,9.2734,-0.0455,0.257,-0.0644,-2.209217687646383,-0.2963634431362152,4.101889610290527,-1.451623797416687,0.530517578125,2.4914019107818604,5.524784791260519,-0.0007191540789790452,0.2067301720380783,-1.5694063345538538,0.0,0.011545531451702118,0.8189619183540344,-0.000177805355633609,0.008269897662103176,0.7627226710319519,0.051946308463811874,-0.11386725306510925
250.0,249.0,-3.7023,-0.3087,9.2734,-0.0455,0.257,-0.0644,-2.2109815082945765,-0.30061760544776917,4.127267837524414,-1.4485167264938354,0.5257942080497742,2.5526845455169678,5.5247607109840295,-0.003324732882902026,0.21388384699821472,-1.5693462530719202,0.0,0.008304791525006294,0.8189656138420105,-0.00017595906683709472,0.007787673734128475,0.7630671262741089,0.051749181002378464,-0.08731433749198914
250.0,249.0,-3.7023,-0.3087,9.2734,-0.0455,0.257,-0.0644,-2.213402410546774,-0.29938673973083496,4.114896774291992,-1.4442291259765625,0.5154834985733032,2.526235580444336,5.524761128216543,-0.005814972333610058,0.19855234026908875,-1.5693538824664515,0.0,0.013146907091140747,0.8189537525177002,-0.0001602921256562695,-0.0006577030289918184,0.7634834051132202,0.053639452904462814,-0.084291011095047
250.0,249.0,-3.7023,-0.3087,9.2734,-0.0455,0.257,-0.0644,-2.2157136402525843,-0.30402708053588867,4.099958896636963,-1.4401684999465942,0.5139449238777161,2.51287841796875,5.524664091854849,-0.003949923440814018,0.1987655758857727,-1.5693944136248987,0.0,0.008031352423131466,0.8189582228660583,-0.0001431512355338782,0.0008766023674979806,0.763944149017334,0.057523079216480255,-0.07932432740926743
250.0,249.0,-3.7023,-0.3087,9.2734,-0.0455,0.257,-0.0644,-2.2181173763670863,-0.28443416953086853,4.197186470031738,-1.436123251914978,0.5069639682769775,2.471393585205078,5.524648594647207,-0.004197579808533192,0.2102649211883545,-1.5693824926959437,0.0,0.011109146289527416,0.8189176917076111,-0.00012698258797172457,0.002825664123520255,0.7644326686859131,0.05791822820901871,-0.08474546670913696
250.0,249.0,-3.7023,-0.3087,9.2734,-0.0455,0.257,-0.0644,-2.220445295373434,-0.2885039448738098,4.163894176483154,-1.4320248365402222,0.5051831603050232,2.5413100719451904,5.524640965252676,-0.0046718530356884,0.20446372032165527,-1.56940204301943,-0.0001706520124571398,0.01008051261305809,0.8189541697502136,-0.00013391763786785305,0.009538376703858376,0.7648321986198425,0.058258939534425735,-0.0685727447271347
232.0,227.0,-3.7884,0.2668,8.9964,-0.0272,0.2323,-0.0719,-2.2222615681090296,-0.2915147542953491,4.180098533630371,-1.4290306568145752,0.49792441725730896,2.507427215576172,5.5246013281639,-0.008560338988900185,0.20439691841602325,-1.5694101492511194,-0.0001608515449333936,0.0017094154609367251,0.8189095258712769,-0.00012724199041258544,0.009405090473592281,0.7652531862258911,0.060193128883838654,-0.011207489296793938
232.0,227.0,-3.7884,0.2668,8.9964,-0.0272,0.2323,-0.0719,-2.224589010278219,-0.2920946180820465,4.204655647277832,-1.4250481128692627,0.48611360788345337,2.48846435546875,5.524420189648428,-0.016430631279945374,0.21130144596099854,-1.56940204301943,-0.00016874798166099936,0.0015380106633529067,0.8189458847045898,-0.00011628220818238333,0.004639093764126301,0.7656689286231995,0.06466442346572876,-0.021294329315423965
232.0,227.0,-3.7884,0.2668,8.9964,-0.0272,0.2323,-0.0719,-2.2269727192320765,-0.2981354892253876,4.160117149353027,-1.4212737083435059,0.4806399643421173,2.464935302734375,5.524312841683187,-0.024535363540053368,0.20522573590278625,-1.569373909627096,-0.0001500982471043244,0.006822135299444199,0.8189296126365662,-0.00014040710811968893,0.0019057681784033775,0.766269862651825,0.07299946993589401,-0.06606396287679672
232.0,227.0,-3.7884,0.2668,8.9964,-0.0272,0.2323,-0.0719,-2.2293244800963343,-0.28145092725753784,4.228482246398926,-1.4175076484680176,0.477705180644989,2.5405948162078857,5.524016129761495,-0.036363422870635986,0.19730931520462036,-1.5694263617144983,-0.00015682409866712987,0.017193658277392387,0.8189541101455688,-0.0001821555633796379,-0.0051559521816670895,0.7667780518531799,0.0774640440940857,-0.03164197877049446
232.0,227.0,-3.7884,0.2668,8.9964,-0.0272,0.2323,-0.0719,-2.2315684757628382,-0.28079602122306824,4.216506004333496,-1.4137935638427734,0.46464961767196655,2.5452466011047363,5.523639905243673,-0.06260626018047333,0.1766902208328247,-1.5693782011615198,-0.00014325688243843615,0.010215255431830883,0.8188982605934143,-0.00018856058886740357,0.0017121582059189677,0.76746666431427,0.0757879987359047,-0.007584795821458101
232.0,227.0,-3.7884,0.2668,8.9964,-0.0272,0.2323,-0.0719,-2.2332002125182093,-0.27802231907844543,4.234097957611084,-1.4109827280044556,0.4605814516544342,2.4365060329437256,5.523159551411428,-0.09005425870418549,0.17537987232208252,-1.5694344679461878,-0.00013410796236712486,-0.008148455061018467,0.8189098834991455,-0.0001991172757698223,-0.0047820196487009525,0.7679470777511597,0.07529357820749283,-0.009003425016999245
232.0,227.0,-3.7884,0.2668,8.9964,-0.0272,0.2323,-0.0719,-2.2354403934874476,-0.27472618222236633,4.1942138671875,-1.4074515104293823,0.44804647564888,2.470856189727783,5.522290336876669,-0.1158810704946518,0.16570934653282166,-1.5694306532489222,-0.00014116120291873813,0.005018420983105898,0.8188861012458801,-0.0002764920354820788,-0.012386629357933998,0.7685354948043823,0.07104866951704025,0.03737255185842514
232.0,227.0,-3.7884,0.2668,8.9964,-0.0272,0.2323,-0.0719,-2.237584253350729,-0.2671528160572052,4.236914157867432,-1.4037744998931885,0.43365976214408875,2.4401938915252686,5.521390664368429,-0.11643420904874802,0.1641252189874649,-1.5694425741778772,-0.0001309632498305291,0.009278437122702599,0.8189221620559692,-0.00032224078313447535,-0.014623074792325497,0.7691400051116943,0.07254140824079514,0.020488420501351357
232.0,227.0,-3.7884,0.2668,8.9964,-0.0272,0.2323,-0.0719,-2.239659925500387,-0.2573316991329193,4.2403950691223145,-1.4003760814666748,0.42630866169929504,2.4570021629333496,5.520413565426626,-0.1240907832980156,0.17003285884857178,-1.5693977514850062,-0.00012942901230417192,-0.002933127572759986,0.8189418911933899,-0.0002948825713247061,-0.01509795617312193,0.7696927189826965,0.07434962689876556,0.05660445988178253
232.0,227.0,-3.7884,0.2668,8.9964,-0.0272,0.2323,-0.0719,-2.241667409936422,-0.25287896394729614,4.261470794677734,-1.3970085382461548,0.4146178662776947,2.4228971004486084,5.519224631577291,-0.16680455207824707,0.15522301197052002,-1.5694263617144983,-0.00011607490159804001,-0.0001644529984332621,0.818938136100769,-0.000256450759479776,-0.015831785276532173,0.770268976688385,0.07034938037395477,-0.029661642387509346
232.0,227.0,-3.7884,0.2668,8.9964,-0.0272,0.2323,-0.0719,-2.2430783710875453,-0.2415626049041748,4.325614929199219,-1.3945308923721313,0.4073238670825958,2.35461688041687,5.518156397133627,-0.17787396907806396,0.13496075570583344,-1.5694549719439905,-0.00010773729445645586,0.003871583379805088,0.8189741969108582,-0.00026117556262761354,-0.016180556267499924,0.7706694602966309,0.06848279386758804,-0.0019601983949542046
232.0,227.0,-3.7884,0.2668,8.9964,-0.0272,0.2323,-0.0719,-2.245014806787008,-0.23903822898864746,4.288389205932617,-1.3913427591323853,0.4016067087650299,2.448242425918579,5.516603159695425,-0.19238534569740295,0.1307213008403778,-1.569418732319967,-9.832109208218753e-05,0.0018725069239735603,0.8188982009887695,-0.00023147076717577875,-0.008977700024843216,0.7712457180023193,0.07208891957998276,0.02874951995909214
226.0,214.0,-5.071,-0.6861,9.4642,-0.0406,0.1817,-0.0296,-2.2469431362547816,-0.24847468733787537,4.278041362762451,-1.388198971748352,0.3893257677555084,2.434864044189453,5.5149385807807825,-0.23149654269218445,0.12070225924253464,-1.56940204301943,-9.041830344358459e-05,-0.0059118084609508514,0.8188737630844116,-0.0001948537101270631,-0.011360536329448223,0.7718465924263,0.07817944139242172,-0.05691651999950409
226.0,214.0,-5.071,-0.6861,9.4642,-0.0406,0.1817,-0.0296,-2.2489105663695277,-0.2380971610546112,4.315328121185303,-1.3851544857025146,0.3787901997566223,2.4085114002227783,5.513021576195516,-0.2597348690032959,0.11137530207633972,-1.5693977514850062,-8.369191345991567e-05,-0.012447351589798927,0.818938136100769,-0.00019929735572077334,-0.023338839411735535,0.7724148631095886,0.08141045272350311,-0.009754429571330547
226.0,214.0,-5.071,-0.6861,9.4642,-0.0406,0.1817,-0.0296,-2.250754495660299,-0.23579321801662445,4.292871952056885,-1.3821659088134766,0.3781919479370117,2.391583204269409,5.510723519116201,-0.2837671935558319,0.08995945006608963,-1.56940204301943,-7.789680967107415e-05,-0.0017371668945997953,0.8188377022743225,-0.00020260010205674917,-0.025229038670659065,0.7730227708816528,0.07712820917367935,0.00579932052642107
226.0,214.0,-5.071,-0.6861,9.4642,-0.0406,0.1817,-0.0296,-2.252254625360006,-0.24288037419319153,4.302341938018799,-1.3799866437911987,0.371763676404953,2.386439085006714,5.509051430016317,-0.29978466033935547,0.07616111636161804,-1.5693977514850062,-7.405052019748837e-05,-0.0027638101018965244,0.8188818693161011,-0.00021093450777698308,-0.024059217423200607,0.7735076546669006,0.07501687854528427,-0.02095872163772583
226.0,214.0,-5.071,-0.6861,9.4642,-0.0406,0.1817,-0.0296,-2.2541939220824183,-0.2328375279903412,4.374665260314941,-1.377025842666626,0.3620518743991852,2.356222629547119,5.506609546929159,-0.3044290244579315,0.08170168846845627,-1.5693977514850062,-6.947728979866952e-05,0.008593812584877014,0.8188658356666565,-0.00023461924865841866,-0.018158646300435066,0.7741281986236572,0.06910599768161774,-0.02614735998213291
226.0,214.0,-5.071,-0.6861,9.4642,-0.0406,0.1817,-0.0296,-2.2560740909972132,-0.2361808568239212,4.309909820556641,-1.374140739440918,0.3489265739917755,2.3741862773895264,5.504023778229513,-0.3372412323951721,0.07190311700105667,-1.56940204301943,-6.543614290421829e-05,0.0027912911027669907,0.818910539150238,-0.00023318461899179965,-0.04840666800737381,0.7746684551239014,0.06944958120584488,-0.045673854649066925
226.0,214.0,-5.071,-0.6861,9.4642,-0.0406,0.1817,-0.0296,-2.2579857311644496,-0.24055220186710358,4.336668014526367,-1.3713839054107666,0.3411681354045868,2.344052314758301,5.501206862717428,-0.36297371983528137,0.04097669571638107,-1.5693977514850062,-7.420680776704103e-05,-0.010739132761955261,0.818870484828949,-0.00023210595827549696,-0.025707298889756203,0.7752087712287903,0.06480495631694794,-0.029277071356773376
226.0,214.0,-5.071,-0.6861,9.4642,-0.0406,0.1817,-0.0296,-2.2598258457579554,-0.21937942504882812,4.310389041900635,-1.3687025308609009,0.3332885205745697,2.3723084926605225,5.498263406544485,-0.3835673928260803,0.050138670951128006,-1.5694306532489222,-8.053477358771488e-05,-0.021034913137555122,0.8188340067863464,-0.0002787054399959743,-0.0355987623333931,0.775713324546814,0.06081858649849892,-0.018913406878709793
226.0,214.0,-5.071,-0.6861,9.4642,-0.0406,0.1817,-0.0296,-2.26110901455068,-0.20735448598861694,4.396299839019775,-1.3666177988052368,0.32789868116378784,2.329796314239502,5.495865332871237,-0.3856917917728424,0.04261595755815506,-1.56940204301943,-7.897730392869562e-05,-0.0036281628999859095,0.8188499808311462,-0.00031835914705879986,-0.0440320149064064,0.7760815024375916,0.06529700011014938,0.056041717529296875
226.0,214.0,-5.071,-0.6861,9.4642,-0.0406,0.1817,-0.0296,-2.26278080562734,-0.20957979559898376,4.368398666381836,-1.3641314506530762,0.3144615888595581,2.3141582012176514,5.492712723999777,-0.41174137592315674,0.0407475046813488,-1.5694220701800745,-8.594994142185897e-05,-0.004592681769281626,0.8188180327415466,-0.00030311578302644193,-0.03483212739229202,0.776585578918457,0.07510041445493698,-0.0025053839199244976
226.0,214.0,-5.071,-0.6861,9.4642,-0.0406,0.1817,-0.0296,-2.264444967309469,-0.2032037079334259,4.385004997253418,-1.3616647720336914,0.3075726330280304,2.354212999343872,5.489268290787496,-0.43401360511779785,0.031737446784973145,-1.5694382826434534,-7.967466808622703e-05,-0.01364496722817421,0.8188221454620361,-0.00025629252195358276,-0.03291425108909607,0.7772586345672607,0.08692367374897003,0.03259783238172531
204.0,209.0,-4.145,0.1854,8.5711,-0.0502,-0.1933,-0.0451,-2.2659646473326625,-0.19084779918193817,4.413622856140137,-1.3592427968978882,0.2955860495567322,2.318671703338623,5.485708224564352,-0.4391740560531616,0.03561730682849884,-1.569491211568014,-7.440264744218439e-05,-0.01313667930662632,0.8188057541847229,-0.0002519065164960921,-0.04140676185488701,0.7779271006584167,0.09043527394533157,0.0430985651910305
204.0,209.0,-4.145,0.1854,8.5711,-0.0502,-0.1933,-0.0451,-2.2673684559264125,-0.17344148457050323,4.480219841003418,-1.3568917512893677,0.29646795988082886,2.32283878326416,5.482166874199667,-0.4582403898239136,0.013876557350158691,-1.569418732319967,-6.97871291777119e-05,-0.0026193452067673206,0.8187938332557678,-0.00022097780311014503,-0.03964110463857651,0.7786232829093933,0.09214714914560318,0.0452461875975132
204.0,209.0,-4.145,0.1854,8.5711,-0.0502,-0.1933,-0.0451,-2.268404623071188,-0.16400238871574402,4.4161224365234375,-1.3551827669143677,0.29272621870040894,2.32499098777771,5.47923361042098,-0.46245402097702026,0.013295397162437439,-1.5694668928729456,-6.668464629910886e-05,-0.012756967917084694,0.8188458681106567,-0.0002023454144364223,-0.035805895924568176,0.7792481184005737,0.09336688369512558,0.05197085440158844
204.0,209.0,-4.145,0.1854,8.5711,-0.0502,-0.1933,-0.0451,-2.2696644268431605,-0.15676414966583252,4.434182167053223,-1.352887749671936,0.27476468682289124,2.2185239791870117,5.475638139038839,-0.4703565835952759,0.01767011173069477,-1.5694425741778772,-6.295309867709875e-05,-0.003720836015418172,0.8188900947570801,-0.000172810468939133,-0.04159361869096756,0.7800289392471313,0.09500640630722046,0.03919953107833862
204.0,209.0,-4.145,0.1854,8.5711,-0.0502,-0.1933,-0.0451,-2.270827909509176,-0.15325117111206055,4.454334735870361,-1.3507198095321655,0.2738509476184845,2.3015191555023193,5.471809613495626,-0.4819333553314209,0.007884642109274864,-1.5694344679461878,-5.961705755908042e-05,-0.013908011838793755,0.8188540935516357,-0.00014976294187363237,-0.03172794356942177,0.7807289958000183,0.0910535380244255,0.040734436362981796
204.0,209.0,-4.145,0.1854,8.5711,-0.0502,-0.1933,-0.0451,-2.2719999752440394,-0.14020279049873352,4.465502738952637,-1.3485735654830933,0.2584177255630493,2.2517216205596924,5.467874753266134,-0.48584437370300293,0.005906133912503719,-1.5693977514850062,-5.6616769143147394e-05,-0.00147027219645679,0.8188381195068359,-0.00013216660590842366,-0.03837020322680473,0.781425416469574,0.08761309832334518,0.04240349307656288
204.0,209.0,-4.145,0.1854,8.5711,-0.0502,-0.1933,-0.0451,-2.272919317285055,-0.11874134838581085,4.497356414794922,-1.3465707302093506,0.255018949508667,2.2837471961975098,5.463989364891805,-0.48341667652130127,0.0032840589992702007,-1.5694063345538538,-5.390401929616928e-05,-0.005201220512390137,0.8188217282295227,-0.00011827090929728001,-0.03127346187829971,0.7821460366249084,0.09097424149513245,0.014810781925916672
204.0,209.0,-4.145,0.1854,8.5711,-0.0502,-0.1933,-0.0451,-2.2736717663206996,-0.09929908066987991,4.52980899810791,-1.345080018043518,0.25308096408843994,2.2535650730133057,5.461093413620748,-0.4798332452774048,0.005965534597635269,-1.5693820158587855,-3.483649925328791e-05,-0.004969397094100714,0.8188540935516357,-0.00010962667874991894,-0.029597438871860504,0.7826864719390869,0.0963900163769722,0.0998557060956955
204.0,209.0,-4.145,0.1854,8.5711,-0.0502,-0.1933,-0.0451,-2.274430891076559,-0.087882399559021,4.490665912628174,-1.3431167602539062,0.23082491755485535,2.215603828430176,5.457289922028341,-0.47939470410346985,0.022456832230091095,-1.569390122090475,-7.673309099232029e-09,-0.011382085271179676,0.8188983798027039,-0.00011985887249466032,-0.03239481523633003,0.783491313457489,0.10149501264095306,-0.010605843737721443
204.0,209.0,-4.145,0.1854,8.5711,-0.0502,-0.1933,-0.0451,-2.2751194439330042,-0.09074945747852325,4.545984268188477,-1.3412939310073853,0.21427682042121887,2.1988747119903564,5.4534339783485315,-0.47949016094207764,0.010083593428134918,-1.56940204301943,-1.3945858085961244e-13,-0.027028053998947144,0.8189100027084351,-0.00011009460286004469,-0.02986888214945793,0.7843483090400696,0.10987532883882523,0.06321877241134644
204.0,209.0,-4.145,0.1854,8.5711,-0.0502,-0.1933,-0.0451,-2.275778432885641,-0.08930761367082596,4.550241470336914,-1.3396514654159546,0.20076575875282288,2.2197210788726807,5.449594008713522,-0.48968076705932617,0.010849370621144772,-1.5693944136248987,-2.5345905847033338e-18,-0.020047765225172043,0.81886225938797,-0.00010179300443269312,-0.024645529687404633,0.785216748714447,0.11546631902456284,-0.005815768614411354
204.0,209.0,-4.145,0.1854,8.5711,-0.0502,-0.1933,-0.0451,-2.276346345941061,-0.07546858489513397,4.555022239685059,-1.338032841682434,0.19288812577724457,2.1614246368408203,5.445810484677114,-0.48072996735572815,0.012271031737327576,-1.5694225470172327,-4.606493618153664e-23,-0.006725937128067017,0.8188581466674805,-9.465571929467842e-05,-0.027400963008403778,0.7861219644546509,0.10548200458288193,0.04733913391828537
203.0,254.0,-3.8225,-0.1675,9.3206,-0.0741,-0.3091,-0.0237,-2.2767020664610804,-0.05964994058012962,4.538311004638672,-1.3368781805038452,0.1934342384338379,2.139946937561035,5.44298945644454,-0.4750285744667053,0.006645084358751774,-1.5693782011615198,-1.2822343139060609e-26,-0.008310943841934204,0.818841814994812,-8.992664515972137e-05,-0.034164607524871826,0.7866653203964233,0.10160627216100693,0.0464501827955246
203.0,254.0,-3.8225,-0.1675,9.3206,-0.0741,-0.3091,-0.0237,-2.2771855793394984,-0.046214859932661057,4.614680290222168,-1.335387945175171,0.1842947155237198,2.1605937480926514,5.4392050979431055,-0.4701489806175232,0.010237520560622215,-1.5693824926959437,-2.330397802200091e-31,-0.015254603698849678,0.8188021183013916,-8.431053720414639e-05,-0.03612322360277176,0.7875670194625854,0.09932093322277069,0.04034534841775894
