ramyac6/ROB537/final_project/csv/all/good_218.csv
tof_0,tof_1,accelx,accely,accelz,gyrox,gyroy,gyroz,shoulder_lift_joint_position,shoulder_lift_joint_velocity,shoulder_lift_joint_effort,elbow_joint_position,elbow_joint_velocity,elbow_joint_effort,wrist_1_joint_position,wrist_1_joint_velocity,wrist_1_joint_effort,wrist_2_joint_position,wrist_2_joint_velocity,wrist_2_joint_effort,wrist_3_joint_position,wrist_3_joint_velocity,wrist_3_joint_effort,shoulder_pan_joint_position,shoulder_pan_joint_velocity,shoulder_pan_joint_effort
313.0,423.0,4.191,0.2471,8.4215,-0.0402,0.0231,-0.1127,-1.6713129482665003,0.0,2.6103010177612305,-1.5834578275680542,-0.0,2.1955080032348633,4.302999659175537,0.0,0.2861134111881256,-1.6557443777667444,0.0,-0.01218812819570303,0.8982499241828918,0.0,-0.004608130548149347,0.7457945346832275,0.0,0.025074133649468422
313.0,423.0,4.191,0.2471,8.4215,-0.0402,0.0231,-0.1127,-1.6713534794249476,0.0,2.6493585109710693,-1.5834381580352783,-0.0,2.236016273498535,4.3029796320148925,0.0,0.2981446385383606,-1.6557768026935022,0.0,-0.000608088681474328,0.8982097506523132,0.0,0.009349768050014973,0.7457460761070251,0.0,0.01230187714099884
313.0,423.0,4.191,0.2471,8.4215,-0.0402,0.0231,-0.1127,-1.6713892422118128,0.0,2.5876588821411133,-1.5834378004074097,-0.0,2.21535587310791,4.3030125337788085,0.0,0.29968130588531494,-1.6557281653033655,0.0,0.0074370624497532845,0.8982539772987366,0.0,-0.007747461553663015,0.7457741498947144,0.0,-0.005033684428781271
313.0,423.0,4.191,0.2471,8.4215,-0.0402,0.0231,-0.1127,-1.6713172398009242,0.0,2.6710195541381836,-1.583506464958191,-0.0,2.182835817337036,4.303056402797363,0.0,0.29982492327690125,-1.655724827443258,0.0,-0.00036194955464452505,0.8982577323913574,0.0,0.004032214172184467,0.7457581758499146,0.0,0.0021210298873484135
313.0,423.0,4.191,0.2471,8.4215,-0.0402,0.0231,-0.1127,-1.6713572941222132,0.0,2.614285945892334,-1.5834578275680542,-0.0,2.1975300312042236,4.302935762996338,0.0,0.28423604369163513,-1.6557238737689417,0.0,-0.007096569985151291,0.8982298374176025,0.0,0.014652709476649761,0.7457782030105591,0.0,0.012852096930146217
313.0,423.0,4.191,0.2471,8.4215,-0.0402,0.0231,-0.1127,-1.6713329754271449,0.0,2.6350913047790527,-1.583417534828186,-0.0,2.2422447204589844,4.302972002620361,0.0,0.29409676790237427,-1.655736271535055,0.0,-0.001802985672838986,0.8982298374176025,0.0,-0.0016824719496071339,0.7457457780838013,0.0,0.036884356290102005
313.0,423.0,4.191,0.2471,8.4215,-0.0402,0.0231,-0.1127,-1.6713572941222132,0.0,2.6035656929016113,-1.5834619998931885,-0.0,2.196091413497925,4.303040190333984,0.0,0.29680198431015015,-1.6557648817645472,0.0,0.0036305016838014126,0.8982338905334473,0.0,-0.0007092126179486513,0.7458105683326721,0.0,0.028585508465766907
313.0,423.0,4.191,0.2471,8.4215,-0.0402,0.0231,-0.1127,-1.671293397943014,0.0,2.628084182739258,-1.5834623575210571,-0.0,2.1763176918029785,4.302983923549316,0.0,0.2863256633281708,-1.6557486693011683,0.0,-0.002885148860514164,0.8982257843017578,0.0,-0.0031405736226588488,0.7457658648490906,0.0,-0.019529297947883606
311.0,421.0,4.2191,0.3194,8.3432,-0.0376,0.0267,-0.1223,-1.6713329754271449,0.0,2.620415210723877,-1.5834860801696777,-0.0,2.2409114837646484,4.303024454707764,0.0,0.29382115602493286,-1.6557686964618128,0.0,0.01293480210006237,0.8982019424438477,0.0,0.0036337124183773994,0.7457581758499146,0.0,-0.01563098654150963
311.0,421.0,4.2191,0.3194,8.3432,-0.0376,0.0267,-0.1223,-1.6713248691954554,0.0,2.605712652206421,-1.5834578275680542,-0.0,2.181541919708252,4.3029443460651855,0.0,0.31027376651763916,-1.6557000319110315,0.0,-0.0009869320783764124,0.8982060551643372,0.0,-0.0023148776963353157,0.7457663416862488,0.0,0.031093433499336243
311.0,421.0,4.2191,0.3194,8.3432,-0.0376,0.0267,-0.1223,-1.6713172398009242,0.0,2.630465507507324,-1.5834578275680542,-0.0,2.1872129440307617,4.303024454707764,0.0,0.28550997376441956,-1.6557167212115687,0.0,0.004774644039571285,0.8981897234916687,0.0,-0.009165938012301922,0.7457460761070251,0.0,0.04359513893723488
311.0,421.0,4.2191,0.3194,8.3432,-0.0376,0.0267,-0.1223,-1.6713248691954554,0.0,2.6382203102111816,-1.5834619998931885,-0.0,2.2121098041534424,4.303027792567871,0.0,0.29545798897743225,-1.6557000319110315,0.0,-0.0042345356196165085,0.8982298374176025,0.0,-0.006735269911587238,0.7457741498947144,0.0,-0.04018933326005936
311.0,421.0,4.2191,0.3194,8.3432,-0.0376,0.0267,-0.1223,-1.6713210544981898,0.0,2.643077850341797,-1.5834697484970093,-0.0,2.1774039268493652,4.302983923549316,0.0,0.2896103858947754,-1.6557043234454554,0.0,0.02181115373969078,0.8982219696044922,0.0,-0.014146227389574051,0.7457823157310486,0.0,0.010919868014752865
311.0,421.0,4.2191,0.3194,8.3432,-0.0376,0.0267,-0.1223,-1.6713129482665003,0.0,2.6447935104370117,-1.5834656953811646,-0.0,2.184661388397217,4.303020640010498,0.0,0.29940682649612427,-1.6557157675372522,0.0,0.007311487570405006,0.898225724697113,0.0,-0.002845846116542816,0.7457460761070251,0.0,-0.041338082402944565
311.0,421.0,4.2191,0.3194,8.3432,-0.0376,0.0267,-0.1223,-1.6713367901244105,0.0,2.599588394165039,-1.5834619998931885,-0.0,2.186295509338379,4.303020640010498,0.0,0.29424285888671875,-1.6557043234454554,0.0,-0.015436206012964249,0.8982704281806946,0.0,0.0011789987329393625,0.7457540035247803,0.0,-0.00044293515384197235
311.0,421.0,4.2191,0.3194,8.3432,-0.0376,0.0267,-0.1223,-1.6713091335692347,0.0,2.6167781352996826,-1.5834619998931885,-0.0,2.1683406829833984,4.302968187923096,0.0,0.2954559922218323,-1.655708138142721,0.0,0.000729006074834615,0.8982377052307129,0.0,0.00020329479593783617,0.7457542419433594,0.0,0.015574896708130836
311.0,421.0,4.2191,0.3194,8.3432,-0.0376,0.0267,-0.1223,-1.6713367901244105,0.0,2.6282453536987305,-1.5834215879440308,-0.0,2.1656908988952637,4.302992029781006,0.0,0.2877430319786072,-1.6557167212115687,0.0,-0.0009919207077473402,0.898213803768158,0.0,0.0005891956388950348,0.7457741498947144,0.0,-0.012495345436036587
311.0,421.0,4.2191,0.3194,8.3432,-0.0376,0.0267,-0.1223,-1.6713372669615687,0.0,2.649933099746704,-1.5835105180740356,-0.0,2.1714906692504883,4.302983923549316,0.0,0.3022572100162506,-1.6557281653033655,0.0,0.009585595689713955,0.8982376456260681,0.0,-0.015745993703603745,0.7457741498947144,0.0,0.0013463664799928665
311.0,421.0,4.2191,0.3194,8.3432,-0.0376,0.0267,-0.1223,-1.6713572941222132,0.0,2.6240921020507812,-1.5834381580352783,-0.0,2.2289390563964844,4.303031607265137,0.0,0.2782951891422272,-1.6557405630694788,0.0,-0.003090773243457079,0.8982417583465576,0.0,-0.01437250804156065,0.7457581758499146,0.0,0.027685098350048065
311.0,421.0,4.2191,0.3194,8.3432,-0.0376,0.0267,-0.1223,-1.6713654003539027,0.0,2.632828950881958,-1.5834341049194336,-0.0,2.2854909896850586,4.302963896388672,0.0,0.30711206793785095,-1.6557443777667444,0.0,-0.0039798300713300705,0.8981937766075134,0.0,-0.014912363141775131,0.7457741498947144,0.0,-0.0016972303856164217
311.0,421.0,4.2191,0.3194,8.3432,-0.0376,0.0267,-0.1223,-1.6713248691954554,0.0,2.592426061630249,-1.583482027053833,-0.0,2.198453903198242,4.3029677110859375,0.0,0.2830199897289276,-1.6557281653033655,0.0,0.0013442377094179392,0.8982417583465576,0.0,0.0013802738394588232,0.7457581758499146,0.0,0.010797235183417797
311.0,421.0,4.2191,0.3194,8.3432,-0.0376,0.0267,-0.1223,-1.6712929211058558,0.0,2.65211820602417,-1.583502173423767,-0.0,2.1424386501312256,4.303052588100098,0.0,0.2940730154514313,-1.655736271535055,0.0,0.008095325902104378,0.8982744216918945,0.0,-0.010778006166219711,0.7457741498947144,0.0,-0.0047394754365086555
311.0,421.0,4.2191,0.3194,8.3432,-0.0376,0.0267,-0.1223,-1.6713091335692347,0.0,2.6259961128234863,-1.5835626125335693,-0.0,2.19981050491333,4.303016348476074,0.0,0.3077579140663147,-1.6557768026935022,0.0,0.0020243225153535604,0.8982499241828918,0.0,-0.009407112374901772,0.7457741498947144,0.0,0.010631352663040161
311.0,421.0,4.2191,0.3194,8.3432,-0.0376,0.0267,-0.1223,-1.6713291607298792,0.0,2.6051511764526367,-1.5834660530090332,-0.0,2.1950747966766357,4.302999659175537,0.0,0.288152813911438,-1.655736271535055,0.0,0.0033719115890562534,0.8981778621673584,0.0,0.001726086251437664,0.7457337379455566,0.0,-0.013437249697744846
294.0,428.0,4.1707,0.2656,8.4975,-0.0392,0.0327,-0.121,-1.6713534794249476,0.0,2.5817298889160156,-1.5834619998931885,-0.0,2.191746234893799,4.302951975459717,0.0,0.28540781140327454,-1.6557806173907679,0.0,0.005019731819629669,0.8982540369033813,0.0,-0.018456371501088142,0.7457944750785828,0.0,-0.010078879073262215
294.0,428.0,4.1707,0.2656,8.4975,-0.0392,0.0327,-0.121,-1.6713210544981898,0.0,2.584989070892334,-1.5834500789642334,-0.0,2.201770782470703,4.303020640010498,0.0,0.29888230562210083,-1.6557319800006312,0.0,0.0032254995312541723,0.8982985019683838,0.0,-0.006520088762044907,0.7457663416862488,0.0,-0.02877132222056389
294.0,428.0,4.1707,0.2656,8.4975,-0.0392,0.0327,-0.121,-1.6713091335692347,0.0,2.6177093982696533,-1.5834779739379883,-0.0,2.19281005859375,4.302999659175537,0.0,0.2966625392436981,-1.6557648817645472,0.0,0.01168135181069374,0.8982784748077393,0.0,-0.010269559919834137,0.7457741498947144,0.0,0.0019362929742783308
294.0,428.0,4.1707,0.2656,8.4975,-0.0392,0.0327,-0.121,-1.6713291607298792,0.0,2.621037006378174,-1.5834940671920776,-0.0,2.2290544509887695,4.302972002620361,0.0,0.28640294075012207,-1.6557567755328577,0.0,-0.0012287014396861196,0.8982539772987366,0.0,0.006209203973412514,0.7457542419433594,0.0,0.014569868333637714
294.0,428.0,4.1707,0.2656,8.4975,-0.0392,0.0327,-0.121,-1.6713372669615687,0.0,2.5764260292053223,-1.583470106124878,-0.0,2.2051491737365723,4.3030077654072265,0.0,0.2941661477088928,-1.655752960835592,0.0,-0.0035765483044087887,0.8982499241828918,0.0,0.008357303217053413,0.7457782030105591,0.0,0.028264446184039116
294.0,428.0,4.1707,0.2656,8.4975,-0.0392,0.0327,-0.121,-1.6712972126402796,0.0,2.602621555328369,-1.583490252494812,-0.0,2.184727430343628,4.302956266994141,0.0,0.30207791924476624,-1.6557000319110315,0.0,-0.008624372072517872,0.8981937766075134,0.0,-0.009278761222958565,0.7457663416862488,0.0,-0.030039887875318527
294.0,428.0,4.1707,0.2656,8.4975,-0.0392,0.0327,-0.121,-1.6713491878905238,0.0,2.6572227478027344,-1.583417534828186,-0.0,2.1354899406433105,4.302999659175537,0.0,0.30220597982406616,-1.6557729879962366,0.0,-0.0014479380333796144,0.8983026146888733,0.0,-0.016026370227336884,0.7457782626152039,0.0,-0.020954836159944534
294.0,428.0,4.1707,0.2656,8.4975,-0.0392,0.0327,-0.121,-1.6713367901244105,0.0,2.5834474563598633,-1.583401083946228,-0.0,2.1385531425476074,4.302983923549316,0.0,0.3048238754272461,-1.6557124296771448,0.0,0.00044580019311979413,0.8982138633728027,0.0,-0.017083246260881424,0.7457581758499146,0.0,0.002391075249761343
294.0,428.0,4.1707,0.2656,8.4975,-0.0392,0.0327,-0.121,-1.6713291607298792,0.0,2.644306182861328,-1.5834578275680542,-0.0,2.1432037353515625,4.302991552943848,0.0,0.29628074169158936,-1.6557486693011683,0.0,0.0021060206927359104,0.8982342481613159,0.0,0.002130345208570361,0.7457624673843384,0.0,-0.024838145822286606
294.0,428.0,4.1707,0.2656,8.4975,-0.0392,0.0327,-0.121,-1.6713735065855921,0.0,2.6036250591278076,-1.5834578275680542,-0.0,2.2135086059570312,4.303052588100098,0.0,0.2871398329734802,-1.6557562986956995,0.0,-0.014084656722843647,0.8982174396514893,0.0,-0.005387448705732822,0.7457699775695801,0.0,-0.0020471722818911076
294.0,428.0,4.1707,0.2656,8.4975,-0.0392,0.0327,-0.121,-1.6713735065855921,0.0,2.6749982833862305,-1.5834052562713623,-0.0,2.2209935188293457,4.3030358987995605,0.0,0.28441813588142395,-1.6557124296771448,0.0,0.0034653861075639725,0.8982179164886475,0.0,-0.009565776214003563,0.7457823157310486,0.0,-0.00980476662516594
294.0,428.0,4.1707,0.2656,8.4975,-0.0392,0.0327,-0.121,-1.6713210544981898,0.0,2.6107735633850098,-1.583481788635254,-0.0,2.1814146041870117,4.302983923549316,0.0,0.304876446723938,-1.6557486693011683,0.0,0.000888389942701906,0.8981937170028687,0.0,0.0042039561085402966,0.7457823157310486,0.0,-0.013111323118209839
294.0,428.0,4.1707,0.2656,8.4975,-0.0392,0.0327,-0.121,-1.6713248691954554,0.0,2.639650821685791,-1.5834541320800781,-0.0,2.1913199424743652,4.303003950709961,0.0,0.30464428663253784,-1.655752960835592,0.0,0.009507320821285248,0.8982618451118469,0.0,-0.008269385434687138,0.7457945346832275,0.0,0.0002870941534638405
294.0,428.0,4.1707,0.2656,8.4975,-0.0392,0.0327,-0.121,-1.6713692150511683,0.0,2.6036243438720703,-1.5834858417510986,-0.0,2.250157117843628,4.303008242244385,0.0,0.3092377185821533,-1.6557443777667444,0.0,-0.011896645650267601,0.8982903957366943,0.0,-0.005616527516394854,0.7457420229911804,0.0,-0.002957176649942994
294.0,428.0,4.1707,0.2656,8.4975,-0.0392,0.0327,-0.121,-1.6713210544981898,0.0,2.6461658477783203,-1.583510398864746,-0.0,2.192260503768921,4.303040190333984,0.0,0.31556758284568787,-1.6557405630694788,0.0,-0.0038996979128569365,0.8982945084571838,0.0,-0.01256177294999361,0.7458065152168274,0.0,0.00020004669204354286
312.0,407.0,4.1809,0.3254,8.3234,-0.0386,0.0299,-0.1271,-1.6713491878905238,0.0,2.6323885917663574,-1.5834500789642334,-0.0,2.1400680541992188,4.303016348476074,0.0,0.2838115096092224,-1.6557567755328577,0.0,-0.005210952367633581,0.8982458710670471,0.0,0.0012647308176383376,0.7457782030105591,0.0,0.047293126583099365
312.0,407.0,4.1809,0.3254,8.3234,-0.0386,0.0299,-0.1271,-1.6712972126402796,0.0,2.631138324737549,-1.5834619998931885,-0.0,2.159121513366699,4.302976294154785,0.0,0.2861381769180298,-1.6557849089251917,0.0,0.0036354444455355406,0.8982699513435364,0.0,-0.010609065182507038,0.7458146214485168,0.0,-0.002796567976474762
312.0,407.0,4.1809,0.3254,8.3234,-0.0386,0.0299,-0.1271,-1.6713172398009242,0.0,2.6060168743133545,-1.5835145711898804,-0.0,2.1764779090881348,4.303024454707764,0.0,0.29976606369018555,-1.6557405630694788,0.0,-0.0069867754355072975,0.8982866406440735,0.0,0.0031575115863233805,0.7457823753356934,0.0,-0.016305483877658844
312.0,407.0,4.1809,0.3254,8.3234,-0.0386,0.0299,-0.1271,-1.6713248691954554,0.0,2.6202914714813232,-1.5834295749664307,-0.0,2.163328170776367,4.302995844478271,0.0,0.2882159352302551,-1.6557562986956995,0.0,0.0006827050819993019,0.8981978297233582,0.0,-0.007717805448919535,0.7457342147827148,0.0,0.014480345882475376
312.0,407.0,4.1809,0.3254,8.3234,-0.0386,0.0299,-0.1271,-1.6713453731932582,0.0,2.6356301307678223,-1.5834860801696777,-0.0,2.238908290863037,4.302976294154785,0.0,0.3042752146720886,-1.6557405630694788,0.0,0.0024186493828892708,0.8981694579124451,0.0,-0.007614533416926861,0.7456979751586914,0.0,0.047798655927181244
312.0,407.0,4.1809,0.3254,8.3234,-0.0386,0.0299,-0.1271,-1.6713210544981898,0.0,2.6713528633117676,-1.583442211151123,-0.0,2.203491687774658,4.302983923549316,0.0,0.30098050832748413,-1.6557486693011683,0.0,0.006965694949030876,0.8981932997703552,0.0,0.003628411563113332,0.7457460761070251,0.0,-0.007874928414821625
312.0,407.0,4.1809,0.3254,8.3234,-0.0386,0.0299,-0.1271,-1.6713415584959925,0.0,2.6037070751190186,-1.5834423303604126,-0.0,2.226703643798828,4.302983923549316,0.0,0.284720242023468,-1.6557405630694788,0.0,-0.005715786479413509,0.8982138633728027,0.0,-0.006627000402659178,0.7457700371742249,0.0,-0.02101234346628189
312.0,407.0,4.1809,0.3254,8.3234,-0.0386,0.0299,-0.1271,-1.6713210544981898,0.0,2.582756757736206,-1.5834981203079224,-0.0,2.155402660369873,4.302983923549316,0.0,0.30417895317077637,-1.6557524839984339,0.0,-0.011849792674183846,0.8981777429580688,0.0,-0.003356912638992071,0.7457460761070251,0.0,-0.014758122153580189
312.0,407.0,4.1809,0.3254,8.3234,-0.0386,0.0299,-0.1271,-1.6712972126402796,0.0,2.640014171600342,-1.5834537744522095,-0.0,2.2011969089508057,4.3030077654072265,0.0,0.2931568920612335,-1.6557849089251917,0.0,0.0022496178280562162,0.8981978297233582,0.0,-0.005667753517627716,0.7457864284515381,0.0,0.010575929656624794
312.0,407.0,4.1809,0.3254,8.3234,-0.0386,0.0299,-0.1271,-1.6713534794249476,0.0,2.6236648559570312,-1.5834981203079224,-0.0,2.2261881828308105,4.302984400386475,0.0,0.294813871383667,-1.6557443777667444,0.0,0.003459716448560357,0.8982499241828918,0.0,-0.006197479087859392,0.7457622289657593,0.0,0.009604653343558311
312.0,407.0,4.1809,0.3254,8.3234,-0.0386,0.0299,-0.1271,-1.6713534794249476,0.0,2.5923380851745605,-1.5834940671920776,-0.0,2.204935073852539,4.302956266994141,0.0,0.300400048494339,-1.655752960835592,0.0,-0.000857469392940402,0.8982536792755127,0.0,-0.0034646987915039062,0.7457501888275146,0.0,0.0015469230711460114
312.0,407.0,4.1809,0.3254,8.3234,-0.0386,0.0299,-0.1271,-1.6713410816588343,0.0,2.658400535583496,-1.5834623575210571,-0.0,2.2264564037323,4.302963896388672,0.0,0.2916107177734375,-1.6557124296771448,0.0,0.009764175862073898,0.8982417583465576,0.0,-0.0038687344640493393,0.7457782030105591,0.0,0.003183230757713318
312.0,407.0,4.1809,0.3254,8.3234,-0.0386,0.0299,-0.1271,-1.6713248691954554,0.0,2.6272473335266113,-1.5834578275680542,-0.0,2.194549083709717,4.303032560939453,0.0,0.2891842722892761,-1.6557729879962366,0.0,0.011259917169809341,0.8982499241828918,0.0,0.0008798316703177989,0.7457622289657593,0.0,-0.018518291413784027
312.0,407.0,4.1809,0.3254,8.3234,-0.0386,0.0299,-0.1271,-1.6713491878905238,0.0,2.5675220489501953,-1.583498477935791,-0.0,2.172630786895752,4.303019686336182,0.0,0.29298126697540283,-1.6557405630694788,0.0,0.005668879020959139,0.8982097506523132,0.0,0.007080642506480217,0.7457823157310486,0.0,-0.0418853759765625
312.0,407.0,4.1809,0.3254,8.3234,-0.0386,0.0299,-0.1271,-1.671281477014059,0.0,2.6305055618286133,-1.583482027053833,-0.0,2.1688873767852783,4.303024454707764,0.0,0.29421937465667725,-1.6557086149798792,0.0,0.009582648053765297,0.8981978297233582,0.0,0.002269580727443099,0.7457622289657593,0.0,0.010118573904037476
315.0,410.0,4.118,0.2698,8.4688,-0.0331,0.0235,-0.115,-1.6713654003539027,0.0,2.621885299682617,-1.5834660530090332,-0.0,2.230215549468994,4.30298821508374,0.0,0.29318317770957947,-1.6558049360858362,0.0,0.004946590401232243,0.8982826471328735,0.0,-0.006477997172623873,0.7457904815673828,0.0,-0.04100329801440239
315.0,410.0,4.118,0.2698,8.4688,-0.0331,0.0235,-0.115,-1.6713329754271449,0.0,2.6435976028442383,-1.5834943056106567,-0.0,2.2029671669006348,4.303020640010498,0.0,0.30059385299682617,-1.6557124296771448,0.0,0.009705545380711555,0.8982178568840027,0.0,-0.0010564615949988365,0.7457097768783569,0.0,-0.006596502847969532
315.0,410.0,4.118,0.2698,8.4688,-0.0331,0.0235,-0.115,-1.6713534794249476,0.0,2.6273622512817383,-1.583473801612854,-0.0,2.2168891429901123,4.302991552943848,0.0,0.30283260345458984,-1.655752960835592,0.0,-0.001153977820649743,0.8982659578323364,0.0,-0.003599545219913125,0.7457581162452698,0.0,-0.03187205642461777
315.0,410.0,4.118,0.2698,8.4688,-0.0331,0.0235,-0.115,-1.6713210544981898,0.0,2.6498970985412598,-1.5834382772445679,-0.0,2.189807653427124,4.303020640010498,0.0,0.2838435173034668,-1.6557319800006312,0.0,0.0013215304352343082,0.8982179164886475,0.0,-0.007678146939724684,0.7457700371742249,0.0,0.008086544461548328
315.0,410.0,4.118,0.2698,8.4688,-0.0331,0.0235,-0.115,-1.6712929211058558,0.0,2.6467480659484863,-1.5834541320800781,-0.0,2.1749682426452637,4.3029796320148925,0.0,0.28964176774024963,-1.6557238737689417,0.0,0.007984098047018051,0.8982458114624023,0.0,-0.0035533045884221792,0.7457540035247803,0.0,-0.00222898181527853
315.0,410.0,4.118,0.2698,8.4688,-0.0331,0.0235,-0.115,-1.6713611088194789,0.0,2.6412553787231445,-1.5834858417510986,-0.0,2.179039239883423,4.3030125337788085,0.0,0.28229963779449463,-1.6557648817645472,0.0,-0.0021451967768371105,0.8982019424438477,0.0,-0.0041145337745547295,0.7457419633865356,0.0,-0.029214344918727875
315.0,410.0,4.118,0.2698,8.4688,-0.0331,0.0235,-0.115,-1.6713172398009242,0.0,2.6219422817230225,-1.5834215879440308,-0.0,2.1424412727355957,4.302976294154785,0.0,0.2934468388557434,-1.6557567755328577,0.0,-0.009303780272603035,0.898281991481781,0.0,-0.008177695795893669,0.7457460761070251,0.0,0.0016351044178009033
315.0,410.0,4.118,0.2698,8.4688,-0.0331,0.0235,-0.115,-1.6712972126402796,0.0,2.6074471473693848,-1.5834619998931885,-0.0,2.1478776931762695,4.302983923549316,0.0,0.298706978559494,-1.6557686964618128,0.0,-0.008240670897066593,0.8982301354408264,0.0,-0.009594427421689034,0.7457741498947144,0.0,-0.051567014306783676
315.0,410.0,4.118,0.2698,8.4688,-0.0331,0.0235,-0.115,-1.6713248691954554,0.0,2.631401538848877,-1.5835062265396118,-0.0,2.203946352005005,4.3030125337788085,0.0,0.2886832058429718,-1.6557443777667444,0.0,0.0029592555947601795,0.8982334136962891,0.0,-0.007886935025453568,0.745798647403717,0.0,-0.006609335541725159
315.0,410.0,4.118,0.2698,8.4688,-0.0331,0.0235,-0.115,-1.671384950677389,0.0,2.608396530151367,-1.5834299325942993,-0.0,2.184051036834717,4.302995844478271,0.0,0.3007354140281677,-1.6557768026935022,0.0,-0.009287828579545021,0.8982700109481812,0.0,-0.008548933081328869,0.7457823157310486,0.0,0.04843008145689964
315.0,410.0,4.118,0.2698,8.4688,-0.0331,0.0235,-0.115,-1.6713491878905238,0.0,2.586630344390869,-1.5834779739379883,-0.0,2.1289281845092773,4.303027792567871,0.0,0.2847214341163635,-1.6557405630694788,0.0,0.00023205854813568294,0.8982138633728027,0.0,0.01003193762153387,0.7457420229911804,0.0,0.009590213187038898
315.0,410.0,4.118,0.2698,8.4688,-0.0331,0.0235,-0.115,-1.6712891064085902,0.0,2.620025157928467,-1.5834381580352783,-0.0,2.211388111114502,4.303024454707764,0.0,0.30351123213768005,-1.6557486693011683,0.0,0.0029412233270704746,0.8982257843017578,0.0,-0.012229450978338718,0.7457823157310486,0.0,-0.02124430239200592
315.0,410.0,4.118,0.2698,8.4688,-0.0331,0.0235,-0.115,-1.6713453731932582,0.0,2.6214699745178223,-1.5834541320800781,-0.0,2.178401470184326,4.3030125337788085,0.0,0.30592626333236694,-1.6557124296771448,0.0,0.0068964846432209015,0.8982014060020447,0.0,-0.0001926901750266552,0.7457945942878723,0.0,-0.014832989312708378
315.0,410.0,4.118,0.2698,8.4688,-0.0331,0.0235,-0.115,-1.6713491878905238,0.0,2.5649971961975098,-1.583409309387207,-0.0,2.2051305770874023,4.303016348476074,0.0,0.29549330472946167,-1.655680004750387,0.0,0.012254921719431877,0.8982216715812683,0.0,-0.013700517825782299,0.7457782626152039,0.0,-0.018450364470481873
315.0,410.0,4.118,0.2698,8.4688,-0.0331,0.0235,-0.115,-1.6713210544981898,0.0,2.62471866607666,-1.5834619998931885,-0.0,2.183292865753174,4.303024454707764,0.0,0.2833296060562134,-1.6557562986956995,0.0,-0.002034775447100401,0.8983104825019836,0.0,-0.00026836880715563893,0.7457741498947144,0.0,0.00944492220878601
315.0,410.0,4.118,0.2698,8.4688,-0.0331,0.0235,-0.115,-1.671384950677389,0.0,2.634678363800049,-1.5834619998931885,-0.0,2.1860125064849854,4.303031607265137,0.0,0.27770137786865234,-1.6557729879962366,0.0,0.006695026531815529,0.8982417583465576,0.0,-0.011518224142491817,0.7457460761070251,0.0,0.013952524401247501
300.0,439.0,4.3101,0.3494,8.0818,-0.0348,0.0182,-0.1225,-1.6713367901244105,0.0,2.603577136993408,-1.5834581851959229,-0.0,2.1645915508270264,4.303008242244385,0.0,0.28525856137275696,-1.6557167212115687,0.0,0.0024079601280391216,0.8982217311859131,0.0,-0.004854459781199694,0.7457581758499146,0.0,0.004230991471558809
300.0,439.0,4.3101,0.3494,8.0818,-0.0348,0.0182,-0.1225,-1.6713248691954554,0.0,2.6672592163085938,-1.583490252494812,-0.0,2.215698003768921,4.302992029781006,0.0,0.2877253293991089,-1.6557768026935022,0.0,0.014828767627477646,0.8982499241828918,0.0,-0.006370593793690205,0.7457577586174011,0.0,0.019605087116360664
300.0,439.0,4.3101,0.3494,8.0818,-0.0348,0.0182,-0.1225,-1.6713248691954554,0.0,2.6390302181243896,-1.5834341049194336,-0.0,2.2205426692962646,4.3030287462421875,0.0,0.2898820638656616,-1.655752960835592,0.0,-0.0053526367992162704,0.8982903957366943,0.0,-0.002991586457937956,0.7457741498947144,0.0,0.03080921433866024
300.0,439.0,4.3101,0.3494,8.0818,-0.0348,0.0182,-0.1225,-1.6713415584959925,0.0,2.6484427452087402,-1.5834940671920776,-0.0,2.187101364135742,4.303027792567871,0.0,0.28224605321884155,-1.655696217213766,0.0,-0.011061704717576504,0.8982741236686707,0.0,-0.026015544310212135,0.7457378506660461,0.0,-0.015483472496271133
300.0,439.0,4.3101,0.3494,8.0818,-0.0348,0.0182,-0.1225,-1.6713491878905238,0.0,2.648137092590332,-1.5834623575210571,-0.0,2.179102897644043,4.303024454707764,0.0,0.3195999264717102,-1.6557486693011683,0.0,-0.004724183119833469,0.8982821702957153,0.0,-0.00753154419362545,0.7457378506660461,0.0,-0.021931901574134827
300.0,439.0,4.3101,0.3494,8.0818,-0.0348,0.0182,-0.1225,-1.6713572941222132,0.0,2.675450325012207,-1.5834541320800781,-0.0,2.2086308002471924,4.302983923549316,0.0,0.29456815123558044,-1.6557486693011683,0.0,0.0038915257900953293,0.8982097506523132,0.0,-0.008082136511802673,0.7457301020622253,0.0,-0.01549414824694395
300.0,439.0,4.3101,0.3494,8.0818,-0.0348,0.0182,-0.1225,-1.6713491878905238,0.0,2.6028075218200684,-1.5834381580352783,-0.0,2.201115608215332,4.3030358987995605,0.0,0.2906818985939026,-1.655736271535055,0.0,-0.001731844269670546,0.8982944488525391,0.0,-0.011774251237511635,0.7457581758499146,0.0,-0.003374034073203802
300.0,439.0,4.3101,0.3494,8.0818,-0.0348,0.0182,-0.1225,-1.6713291607298792,0.0,2.6215384006500244,-1.5834541320800781,-0.0,2.1983232498168945,4.303040190333984,0.0,0.2931920886039734,-1.6557729879962366,0.0,0.001415059668943286,0.8982499241828918,0.0,-0.018415113911032677,0.7457622289657593,0.0,0.0002697492018342018
300.0,439.0,4.3101,0.3494,8.0818,-0.0348,0.0182,-0.1225,-1.671305318871969,0.0,2.6378252506256104,-1.5834660530090332,-0.0,2.166628360748291,4.302999659175537,0.0,0.29465481638908386,-1.6557167212115687,0.0,-0.0003369758778717369,0.898282527923584,0.0,-0.01783900149166584,0.7457420229911804,0.0,0.008795447647571564
300.0,439.0,4.3101,0.3494,8.0818,-0.0348,0.0182,-0.1225,-1.6712891064085902,0.0,2.667208671569824,-1.5834578275680542,-0.0,2.1536855697631836,4.302960081691406,0.0,0.2968869209289551,-1.6557319800006312,0.0,0.005041183903813362,0.8982138633728027,0.0,-0.0002768484118860215,0.7457540035247803,0.0,0.042210809886455536
300.0,439.0,4.3101,0.3494,8.0818,-0.0348,0.0182,-0.1225,-1.6713210544981898,0.0,2.618800401687622,-1.583425760269165,-0.0,2.1863348484039307,4.3029677110859375,0.0,0.2858588993549347,-1.6557486693011683,0.0,-0.004608870949596167,0.8982820510864258,0.0,-0.004072848707437515,0.7457945346832275,0.0,-0.0002762274816632271
300.0,439.0,4.3101,0.3494,8.0818,-0.0348,0.0182,-0.1225,-1.6713210544981898,0.0,2.7022247314453125,-1.5834463834762573,-0.0,2.19352388381958,4.303020640010498,0.0,0.2999904453754425,-1.6557405630694788,0.0,0.002603112254291773,0.8982380032539368,0.0,-0.003965811338275671,0.7458226084709167,0.0,0.021824883297085762
300.0,439.0,4.3101,0.3494,8.0818,-0.0348,0.0182,-0.1225,-1.6713091335692347,0.0,2.651062250137329,-1.5834299325942993,-0.0,2.150435209274292,4.30304400503125,0.0,0.288953959941864,-1.6557124296771448,0.0,-0.006571544334292412,0.8982417583465576,0.0,-0.008355292491614819,0.7457622289657593,0.0,-0.012799853459000587
300.0,439.0,4.3101,0.3494,8.0818,-0.0348,0.0182,-0.1225,-1.671293397943014,0.0,2.6532721519470215,-1.5834581851959229,-0.0,2.198573589324951,4.3029677110859375,0.0,0.3018730878829956,-1.65574819246401,0.0,0.011919157579541206,0.8982458114624023,0.0,-0.009042687714099884,0.7457699775695801,0.0,-0.06380851566791534
300.0,439.0,4.3101,0.3494,8.0818,-0.0348,0.0182,-0.1225,-1.6713453731932582,0.0,2.6485633850097656,-1.583470106124878,-0.0,2.13527512550354,4.303076429958008,0.0,0.2890487313270569,-1.6557405630694788,0.0,0.004875403828918934,0.8982257843017578,0.0,-0.004081648774445057,0.7457618117332458,0.0,0.03571377694606781
309.0,397.0,4.255,0.3075,8.147,-0.029,0.0215,-0.1118,-1.6712891064085902,0.0,2.6393702030181885,-1.5834500789642334,-0.0,2.1573877334594727,4.303020640010498,0.0,0.29937201738357544,-1.6557768026935022,0.0,-0.01041551772505045,0.8982499241828918,0.0,-0.005693297833204269,0.7457420229911804,0.0,-0.010603824630379677
309.0,397.0,4.255,0.3075,8.147,-0.029,0.0215,-0.1118,-1.6713329754271449,0.0,2.589341640472412,-1.5834381580352783,-0.0,2.204796075820923,4.303027792567871,0.0,0.2869676351547241,-1.6558049360858362,0.0,0.008671536110341549,0.8982417583465576,0.0,0.005260392092168331,0.7457741498947144,0.0,-0.0073595005087554455
309.0,397.0,4.255,0.3075,8.147,-0.029,0.0215,-0.1118,-1.6713329754271449,0.0,2.5919318199157715,-1.5834298133850098,-0.0,2.207897186279297,4.303056402797363,0.0,0.2959204316139221,-1.6557686964618128,0.0,0.0009192388970404863,0.8982377052307129,0.0,-0.010550392791628838,0.7457741498947144,0.0,-0.0029604220762848854
309.0,397.0,4.255,0.3075,8.147,-0.029,0.0215,-0.1118,-1.6713210544981898,0.0,2.587920665740967,-1.5834379196166992,-0.0,2.2104580402374268,4.302975817317627,0.0,0.2989206910133362,-1.6557281653033655,0.0,-0.00021978726726956666,0.8982056975364685,0.0,-0.005794667638838291,0.7457420229911804,0.0,-0.012030765414237976
309.0,397.0,4.255,0.3075,8.147,-0.029,0.0215,-0.1118,-1.671305318871969,0.0,2.629361629486084,-1.5834298133850098,-0.0,2.1934194564819336,4.303080244655273,0.0,0.30475321412086487,-1.6557806173907679,0.0,-0.0022488136310130358,0.8982458114624023,0.0,-0.009435594081878662,0.7457420229911804,0.0,0.0002434905618429184
309.0,397.0,4.255,0.3075,8.147,-0.029,0.0215,-0.1118,-1.6712972126402796,0.0,2.6562693119049072,-1.5834623575210571,0.00013781974848825485,2.210078716278076,4.30304400503125,0.0,0.30301329493522644,-1.6557281653033655,0.0,-0.0006397839169949293,0.8981977105140686,0.0,-0.010681366547942162,0.7458266615867615,0.0,0.0147221889346838
309.0,397.0,4.255,0.3075,8.147,-0.029,0.0215,-0.1118,-1.671253343621725,0.0,2.6468520164489746,-1.5834540128707886,0.00019172771135345101,2.211268663406372,4.303023977870605,0.0,0.27837619185447693,-1.6557319800006312,0.0,-0.0034166511613875628,0.8982580304145813,0.0,-0.014446016401052475,0.7457822561264038,0.0,-0.038263142108917236
309.0,397.0,4.255,0.3075,8.147,-0.029,0.0215,-0.1118,-1.671293397943014,0.0,2.6542677879333496,-1.5834746360778809,0.00020399005734361708,2.22904634475708,4.303020640010498,0.0,0.2919387221336365,-1.6557486693011683,0.0,-0.008453511632978916,0.8982298374176025,0.0,-0.002736383117735386,0.7457904815673828,1.7052914245141437e-06,-0.012456192634999752
309.0,397.0,4.255,0.3075,8.147,-0.029,0.0215,-0.1118,-1.6713010273375453,0.0,2.6176440715789795,-1.5834623575210571,0.00018324083066545427,2.2076032161712646,4.303032084102295,0.0,0.30545955896377563,-1.6557205359088343,0.0,-0.0015845143934711814,0.898225724697113,0.0,0.00010623503476381302,0.7457699775695801,4.118078707898709e-12,-0.02981504425406456
309.0,397.0,4.255,0.3075,8.147,-0.029,0.0215,-0.1118,-1.6713010273375453,0.0,2.6399078369140625,-1.5834901332855225,0.0001389751851093024,2.1603844165802,4.302971525783203,0.0,0.2901967167854309,-1.6557605902301233,0.0,0.004012146033346653,0.8982377052307129,0.0,0.0038956240750849247,0.7457741498947144,9.944675516842206e-18,0.03305332735180855
309.0,397.0,4.255,0.3075,8.147,-0.029,0.0215,-0.1118,-1.6712972126402796,0.0,2.6159615516662598,-1.5834215879440308,0.00012686940317507833,2.197516918182373,4.303027792567871,0.0,0.29969900846481323,-1.6557405630694788,0.0,0.001982704969123006,0.898225724697113,0.0,-0.004602789878845215,0.7458143830299377,2.4015218384718172e-23,0.01362754125148058
309.0,397.0,4.255,0.3075,8.147,-0.029,0.0215,-0.1118,-1.6713172398009242,0.0,2.6715331077575684,-1.5834341049194336,0.00011697564332280308,2.1627447605133057,4.303019686336182,0.0,0.3058985769748688,-1.6557605902301233,0.0,0.00960094016045332,0.898222029209137,0.0,-0.005305028520524502,0.7457945346832275,5.799393952312871e-29,-0.016548870131373405
309.0,397.0,4.255,0.3075,8.147,-0.029,0.0215,-0.1118,-1.6713367901244105,0.0,2.608647108078003,-1.5834741592407227,0.00010851330443983898,2.1740996837615967,4.303064509029053,0.0,0.2963435649871826,-1.6557443777667444,0.0,0.00016438309103250504,0.898225724697113,0.0,0.006289378274232149,0.745830774307251,1.400485576690856e-34,-0.0036059897392988205
309.0,397.0,4.255,0.3075,8.147,-0.029,0.0215,-0.1118,-1.6713291607298792,0.0,2.63456392288208,-1.583417534828186,0.00010119285434484482,2.208559513092041,4.303020640010498,0.0,0.286817729473114,-1.6557682196246546,0.0,0.010227914899587631,0.8982417583465576,0.0,-0.006259824614971876,0.7457741498947144,3.3820058176786595e-40,0.04005701467394829
309.0,397.0,4.255,0.3075,8.147,-0.029,0.0215,-0.1118,-1.6713329754271449,0.0,2.6169402599334717,-1.5834381580352783,9.479762229602784e-05,2.2029638290405273,4.303020640010498,0.0,0.29712456464767456,-1.6557443777667444,0.0,-0.014461636543273926,0.8981978297233582,0.0,-0.006274909246712923,0.7457699775695801,1.401298464324817e-45,-0.018114134669303894
302.0,428.0,4.5051,0.7107,7.9268,-0.0165,0.0515,-0.1449,-1.6713487110533656,0.0,2.57614803314209,-1.5834581851959229,8.916278602555394e-05,2.1640114784240723,4.302999659175537,0.0,0.29199135303497314,-1.6557605902301233,0.0,-9.355193469673395e-05,0.8982174396514893,0.0,-0.009751099161803722,0.7457741498947144,0.0,-0.06569291651248932
302.0,428.0,4.5051,0.7107,7.9268,-0.0165,0.0515,-0.1449,-1.6713091335692347,0.0,2.634840965270996,-1.5834256410598755,8.41601358843036e-05,2.1767616271972656,4.303072615260742,0.0,0.29982990026474,-1.6557887236224573,0.0,0.006980524864047766,0.8982097506523132,0.0,-0.01614418812096119,0.7457863092422485,0.0,0.04010073095560074
302.0,428.0,4.5051,0.7107,7.9268,-0.0165,0.0515,-0.1449,-1.6713210544981898,0.0,2.66843843460083,-1.5834215879440308,7.968912541400641e-05,2.205373525619507,4.302999659175537,0.0,0.2996881604194641,-1.6557887236224573,0.0,-0.002541107125580311,0.8982298374176025,0.0,-0.0005705845542252064,0.7457741498947144,0.0,0.00021055829711258411
302.0,428.0,4.5051,0.7107,7.9268,-0.0165,0.0515,-0.1449,-1.6713010273375453,0.0,2.660486936569214,-1.5834943056106567,7.566915883217007e-05,2.188807487487793,4.303052588100098,0.0,0.2946357727050781,-1.6557167212115687,0.0,0.0007322250166907907,0.8982499241828918,0.0,0.0014860539231449366,0.7457659244537354,0.0,-0.004689471796154976
302.0,428.0,4.5051,0.7107,7.9268,-0.0165,0.0515,-0.1449,-1.6713172398009242,0.0,2.624342441558838,-1.583450436592102,7.203529094113037e-05,2.182640790939331,4.3030287462421875,0.0,0.2967361807823181,-1.6557486693011683,0.0,0.008104247972369194,0.8981896638870239,0.0,-0.01978437229990959,0.7457659244537354,0.0,-0.014210390858352184
302.0,428.0,4.5051,0.7107,7.9268,-0.0165,0.0515,-0.1449,-1.671305318871969,0.0,2.6459884643554688,-1.583482027053833,6.873451638966799e-05,2.1731271743774414,4.3029796320148925,0.0,0.30401134490966797,-1.6557729879962366,0.0,0.012506458908319473,0.8982658982276917,0.0,-0.006493046414107084,0.7457700371742249,0.0,-0.012772728689014912
302.0,428.0,4.5051,0.7107,7.9268,-0.0165,0.0515,-0.1449,-1.6713248691954554,0.0,2.648085117340088,-1.5834298133850098,6.572293932549655e-05,2.1624646186828613,4.303040190333984,0.0,0.30758345127105713,-1.6557486693011683,0.0,-0.010931123048067093,0.8982257843017578,0.0,-0.006336196791380644,0.7457379698753357,0.0,0.04420851916074753
302.0,428.0,4.5051,0.7107,7.9268,-0.0165,0.0515,-0.1449,-1.671281477014059,0.0,2.5981550216674805,-1.5833896398544312,6.385769665939733e-05,2.164869785308838,4.303020640010498,0.0,0.29448050260543823,-1.6557281653033655,0.0,0.014734186232089996,0.8982133865356445,0.0,-0.0015867536421865225,0.7457741498947144,2.030689392995555e-05,0.019840635359287262
302.0,428.0,4.5051,0.7107,7.9268,-0.0165,0.0515,-0.1449,-1.6713572941222132,0.0,2.6251888275146484,-1.5834665298461914,8.15668172435835e-05,2.1967976093292236,4.303003950709961,0.0,0.291425496339798,-1.655736271535055,0.0,0.00284074479714036,0.8982499241828918,0.0,0.0005405084230005741,0.7457741498947144,1.9038985556107946e-05,0.01510028075426817
302.0,428.0,4.5051,0.7107,7.9268,-0.0165,0.0515,-0.1449,-1.6712695560851039,0.0,2.6387710571289062,-1.5834020376205444,8.238621376222e-05,2.1649739742279053,4.303088350886963,0.0,0.29397809505462646,-1.6557167212115687,0.0,0.00552024831995368,0.8982784748077393,0.0,-0.010459549725055695,0.7457904815673828,1.7902799299918115e-05,0.048787400126457214
302.0,428.0,4.5051,0.7107,7.9268,-0.0165,0.0515,-0.1449,-1.6712571583189906,0.0,2.654082775115967,-1.5834623575210571,7.927620754344389e-05,2.222309112548828,4.303044481868408,0.0,0.2957499027252197,-1.6557562986956995,0.0,0.0031982208602130413,0.8982338905334473,0.0,0.006951478309929371,0.7457581758499146,1.6894611690077e-05,0.02311333827674389
302.0,428.0,4.5051,0.7107,7.9268,-0.0165,0.0515,-0.1449,-1.6712972126402796,0.0,2.5957212448120117,-1.5833740234375,7.639242539880797e-05,2.1997952461242676,4.3030358987995605,0.0,0.2968153953552246,-1.6557319800006312,0.0,-0.008708721026778221,0.8981978297233582,0.0,-0.007676549255847931,0.7458064556121826,1.5993922716006637e-05,-0.007042187266051769
302.0,428.0,4.5051,0.7107,7.9268,-0.0165,0.0515,-0.1449,-1.6713248691954554,0.0,2.622159004211426,-1.5834215879440308,7.37110385671258e-05,2.1876425743103027,4.303016348476074,0.0,0.2939675450325012,-1.6557806173907679,0.0,-0.0022837966680526733,0.8982577919960022,0.0,-0.022021599113941193,0.7457741498947144,1.5184398762357887e-05,-0.027275865897536278
302.0,428.0,4.5051,0.7107,7.9268,-0.0165,0.0515,-0.1449,-1.671281477014059,0.0,2.5914831161499023,-1.5834215879440308,7.121157250367105e-05,2.2303476333618164,4.303032084102295,0.0,0.30199843645095825,-1.655736271535055,0.0,-0.0001959602814167738,0.8982377648353577,0.0,-0.0020257073920220137,0.7458064556121826,1.4452888535743114e-05,0.01781410351395607
302.0,428.0,4.5051,0.7107,7.9268,-0.0165,0.0515,-0.1449,-1.6713329754271449,0.0,2.554377794265747,-1.583478331565857,3.510872556944378e-05,2.168567657470703,4.303008242244385,0.0,0.30123358964920044,-1.6557768026935022,0.0,0.011706965044140816,0.8982216715812683,0.0,-0.006925438065081835,0.7457379102706909,1.3788611795462202e-05,-0.004654920194298029
302.0,428.0,4.5051,0.7107,7.9268,-0.0165,0.0515,-0.1449,-1.6712891064085902,0.0,2.621476650238037,-1.5834174156188965,2.4548298824811354e-05,2.1305644512176514,4.302999659175537,0.0,0.2888873517513275,-1.6557443777667444,0.0,-0.0005443325499072671,0.8982138633728027,0.0,-0.009068433195352554,0.7457742094993591,1.3182706425141077e-05,-0.026920925825834274
313.0,394.0,3.9757,0.4187,8.3043,-0.0415,0.0447,-0.1248,-1.671281477014059,0.0,2.6044559478759766,-1.5834133625030518,2.3583424990647472e-05,2.201226234436035,4.303003950709961,0.0,0.2966897189617157,-1.6557443777667444,0.0,-0.015418767929077148,0.8982618451118469,0.0,0.0012125024804845452,0.7457945346832275,1.2627829164557625e-05,0.0007306337356567383
313.0,394.0,3.9757,0.4187,8.3043,-0.0415,0.0447,-0.1248,-1.671293397943014,0.0,2.6109652519226074,-1.5834020376205444,2.2691525373375043e-05,2.202620029449463,4.303040190333984,0.0,0.2925201654434204,-1.6557124296771448,0.0,0.002637968398630619,0.8982417583465576,0.0,0.00520220585167408,0.7457420229911804,1.211776543641463e-05,-0.03867483139038086
313.0,394.0,3.9757,0.4187,8.3043,-0.0415,0.0447,-0.1248,-1.6713291607298792,0.0,2.6185641288757324,-1.583470106124878,2.186465098930057e-05,2.249964714050293,4.303027792567871,0.0,0.2857990562915802,-1.6557405630694788,0.0,0.0010931914439424872,0.8982059955596924,0.0,-0.003584629623219371,0.7457659244537354,1.1647309293039143e-05,-0.00737070431932807
313.0,394.0,3.9757,0.4187,8.3043,-0.0415,0.0447,-0.1248,-1.671305318871969,0.0,2.617293357849121,-1.5834256410598755,2.1095895135658793e-05,2.1852588653564453,4.303048296565674,0.0,0.29660019278526306,-1.6557443777667444,0.0,0.006500924006104469,0.8981896042823792,0.0,-0.009513219818472862,0.7457823157310486,5.200237751523673e-08,-0.01137630920857191
313.0,394.0,3.9757,0.4187,8.3043,-0.0415,0.0447,-0.1248,-1.6712733707823695,0.0,2.60607647895813,-1.5834581851959229,2.037938975263387e-05,2.2025556564331055,4.3029796320148925,0.0,0.30032873153686523,-1.6557319800006312,0.0,-0.003395506413653493,0.8982458114624023,0.0,-0.004012735560536385,0.7457945942878723,1.2557962753446256e-13,-0.001227797009050846
313.0,394.0,3.9757,0.4187,8.3043,-0.0415,0.0447,-0.1248,-1.6712852917113246,0.0,2.637833595275879,-1.5834338665008545,7.833834843040677e-07,2.1708693504333496,4.303003950709961,0.0,0.30187514424324036,-1.655708138142721,0.0,-0.003585175145417452,0.8982257843017578,0.0,-0.0053347195498645306,0.7457501888275146,3.0325999974660774e-19,-0.019256675615906715
313.0,394.0,3.9757,0.4187,8.3043,-0.0415,0.0447,-0.1248,-1.6713448963561,0.0,2.6406044960021973,-1.5834256410598755,1.4100626222202095e-10,2.190612316131592,4.303040190333984,0.0,0.2832450270652771,-1.6557806173907679,0.0,-0.0015087584033608437,0.8982499241828918,0.0,-0.012033181264996529,0.7457581758499146,5.458573520774725e-23,0.021148240193724632
313.0,394.0,3.9757,0.4187,8.3043,-0.0415,0.0447,-0.1248,-1.6713448963561,0.0,2.6021718978881836,-1.5834578275680542,3.4051351813399434e-16,2.2137625217437744,4.303016348476074,0.0,0.31276893615722656,-1.6557648817645472,0.0,-0.005801161751151085,0.8982580900192261,0.0,0.003218487137928605,0.7457461357116699,1.3181813244652123e-28,0.008841561153531075
313.0,394.0,3.9757,0.4187,8.3043,-0.0415,0.0447,-0.1248,-1.671305318871969,0.0,2.5873165130615234,-1.5834704637527466,8.223000752828318e-22,2.135871171951294,4.303003950709961,0.0,0.29912012815475464,-1.6557729879962366,0.0,-0.007633320055902004,0.8982659578323364,0.0,-0.008264514617621899,0.7457782030105591,3.1832527069399187e-34,0.030095204710960388
313.0,394.0,3.9757,0.4187,8.3043,-0.0415,0.0447,-0.1248,-1.6713448963561,0.0,2.6562082767486572,-1.5834298133850098,1.9857578025516587e-27,2.1634910106658936,4.303032084102295,0.0,0.3084721565246582,-1.6557768026935022,0.0,-0.007156663574278355,0.8982744216918945,0.0,0.0026047269348055124,0.7457699775695801,7.687173050669865e-40,-0.03064516745507717
313.0,394.0,3.9757,0.4187,8.3043,-0.0415,0.0447,-0.1248,-1.6712929211058558,0.0,2.6484525203704834,-1.5834338665008545,4.79537116414595e-33,2.211524486541748,4.303019686336182,0.0,0.2959238290786743,-1.6557319800006312,0.0,0.007978464476764202,0.8982539772987366,0.0,-0.0009528364753350616,0.7457741498947144,1.401298464324817e-45,-0.01565363258123398
313.0,394.0,3.9757,0.4187,8.3043,-0.0415,0.0447,-0.1248,-1.6713210544981898,0.0,2.6615734100341797,-1.5834143161773682,1.1580259042958608e-38,2.2039618492126465,4.303031607265137,0.0,0.30080342292785645,-1.6557486693011683,0.0,-0.006921445019543171,0.8982417583465576,0.0,0.005766065791249275,0.7457944750785828,0.0,-0.0018711459124460816
313.0,394.0,3.9757,0.4187,8.3043,-0.0415,0.0447,-0.1248,-1.6713210544981898,0.0,2.618542194366455,-1.5834541320800781,2.802596928649634e-44,2.1954658031463623,4.303048296565674,0.0,0.3088788688182831,-1.6557686964618128,0.0,0.011781041510403156,0.8982458114624023,0.0,-0.005102395545691252,0.7457904815673828,0.0,0.005936052650213242
313.0,394.0,3.9757,0.4187,8.3043,-0.0415,0.0447,-0.1248,-1.671293397943014,0.0,2.6104931831359863,-1.5834019184112549,-0.0,2.2018930912017822,4.303048296565674,0.0,0.29361864924430847,-1.6557238737689417,0.0,0.00580216757953167,0.8982179164886475,0.0,-0.0038633551448583603,0.7457904815673828,0.0,0.03780541941523552
313.0,394.0,3.9757,0.4187,8.3043,-0.0415,0.0447,-0.1248,-1.6713091335692347,0.0,2.633928060531616,-1.583417534828186,-0.0,2.198509693145752,4.303052588100098,0.0,0.285976767539978,-1.6557882467852991,0.0,-0.0009639804484322667,0.8981896638870239,0.0,-0.00408964604139328,0.7458065152168274,0.0,-0.025624772533774376
307.0,424.0,4.7324,0.2997,8.0393,-0.0011,0.0466,-0.0973,-1.6712972126402796,0.0,2.6604177951812744,-1.5833936929702759,-0.0,2.2179598808288574,4.303008242244385,0.0,0.30186110734939575,-1.6557768026935022,0.0,0.0014939127722755075,0.8982257843017578,0.0,-0.0028516645543277264,0.7457740902900696,0.0,-0.009356713853776455
307.0,424.0,4.7324,0.2997,8.0393,-0.0011,0.0466,-0.0973,-1.6713248691954554,0.0,2.610722303390503,-1.583478331565857,-0.0,2.2121729850769043,4.303003950709961,0.0,0.29002097249031067,-1.6557405630694788,0.0,-0.0023061211686581373,0.8982217311859131,0.0,-0.002493179403245449,0.7457941174507141,0.0,-0.036736492067575455
307.0,424.0,4.7324,0.2997,8.0393,-0.0011,0.0466,-0.0973,-1.6713248691954554,0.0,2.6375784873962402,-1.5834461450576782,-0.0,2.1526360511779785,4.30304400503125,0.0,0.2816832959651947,-1.6557686964618128,0.0,0.0060752821154892445,0.8982216715812683,0.0,-0.0012490403605625033,0.7458023428916931,0.0006301281973719597,-0.03907446935772896
307.0,424.0,4.7324,0.2997,8.0393,-0.0011,0.0466,-0.0973,-1.6713010273375453,0.0,2.6105504035949707,-1.5834338665008545,-0.0,2.172506809234619,4.303048296565674,0.0,0.29318881034851074,-1.655804459248678,0.0,-0.017352964729070663,0.898270308971405,0.0,-0.014011488296091557,0.7458909153938293,0.0031405738554894924,0.05432680994272232
307.0,424.0,4.7324,0.2997,8.0393,-0.0011,0.0466,-0.0973,-1.671281477014059,0.0,2.6172657012939453,-1.5833779573440552,-0.0,2.172606945037842,4.302995844478271,0.0,0.292068749666214,-1.6557238737689417,-2.484958683268701e-09,-1.1574593372642994e-05,0.8982133865356445,0.0,0.003547612577676773,0.7458826303482056,0.005537954159080982,-0.026072373613715172
307.0,424.0,4.7324,0.2997,8.0393,-0.0011,0.0466,-0.0973,-1.67126526455068,0.0,2.6067142486572266,-1.5834298133850098,-0.0,2.1967952251434326,4.3030640321918945,0.0,0.28486689925193787,-1.6557844320880335,-6.916972420181744e-13,-0.0012245564721524715,0.8981978297233582,0.0,-0.012080147862434387,0.7458984851837158,0.0086866719648242,0.01984555274248123
307.0,424.0,4.7324,0.2997,8.0393,-0.0011,0.0466,-0.0973,-1.6713367901244105,0.00048062094720080495,2.6481688022613525,-1.5833863019943237,0.0004062688094563782,2.206489086151123,4.3030921655842285,0.0,0.2891243100166321,-1.6557319800006312,-2.948814127517259e-15,0.012849469669163227,0.8982097506523132,0.0,-0.004125084728002548,0.7459384202957153,0.010244020260870457,0.02381056174635887
307.0,424.0,4.7324,0.2997,8.0393,-0.0011,0.0466,-0.0973,-1.6712490520873011,0.000585906149353832,2.594731330871582,-1.5833945274353027,0.0005430057062767446,2.179708242416382,4.303079767818115,0.0,0.2969340682029724,-1.6557920614825647,-8.208132346915359e-19,0.008422154001891613,0.8982014060020447,0.0,0.0031157508492469788,0.7459740042686462,0.011900163255631924,-0.005759536754339933
307.0,424.0,4.7324,0.2997,8.0393,-0.0011,0.0466,-0.0973,-1.6712614498534144,0.0007831943221390247,2.6015427112579346,-1.5834264755249023,0.0009380773990415037,2.1974258422851562,4.303079767818115,0.0,0.299305260181427,-1.6558244864093226,-2.2847640820574294e-22,0.009317709133028984,0.8982420563697815,0.0,-0.006165036000311375,0.7460824251174927,0.012403195723891258,0.00037786082248203456
307.0,424.0,4.7324,0.2997,8.0393,-0.0011,0.0466,-0.0973,-1.6712171039977015,0.0006372428615577519,2.6004042625427246,-1.5833863019943237,0.00043127257958985865,2.2342586517333984,4.303079767818115,0.0,0.28813090920448303,-1.6557882467852991,-6.359724511074679e-26,-0.001366959186270833,0.8982059359550476,0.0,0.007714977487921715,0.7462025880813599,0.013243848457932472,-0.0046724602580070496
307.0,424.0,4.7324,0.2997,8.0393,-0.0011,0.0466,-0.0973,-1.671253343621725,0.0004891236312687397,2.614691734313965,-1.5834182500839233,0.0002055320655927062,2.15664005279541,4.30307595312085,0.0,0.2960408926010132,-1.6558201948748987,-1.7702525130841084e-29,0.0044194962829351425,0.8982985615730286,0.0,-0.004081526771187782,0.7461941242218018,0.013339257799088955,0.04722215235233307
307.0,424.0,4.7324,0.2997,8.0393,-0.0011,0.0466,-0.0973,-1.671277185479635,0.0003967046504840255,2.647141933441162,-1.583458662033081,7.692629151279107e-05,2.214265823364258,4.303080244655273,0.0,0.2863541543483734,-1.6557682196246546,-4.927562850735609e-33,0.0071005201898515224,0.8982458710670471,0.0,-0.01638837717473507,0.7462900280952454,0.013919009827077389,0.015400612726807594
307.0,424.0,4.7324,0.2997,8.0393,-0.0011,0.0466,-0.0973,-1.6712290249266566,0.000198129826458171,2.6303977966308594,-1.5834019184112549,3.6579166362571414e-08,2.200956106185913,4.303059740657471,0.0,0.2957703471183777,-1.655816380177633,-1.3716053758605074e-36,-6.146135274320841e-05,0.8981658220291138,0.0,-0.001514224335551262,0.7464060187339783,0.013907521963119507,-0.005210579372942448
307.0,424.0,4.7324,0.2997,8.0393,-0.0011,0.0466,-0.0973,-1.6712891064085902,0.0001044599775923416,2.6437220573425293,-1.5834463834762573,8.83343758925105e-14,2.1612493991851807,4.303023977870605,0.0,0.2898767590522766,-1.6557601133929651,-3.81790773097618e-40,-0.004284297116100788,0.8981457948684692,0.0,-0.010131707414984703,0.7464903593063354,0.013921533711254597,0.03087240643799305
307.0,424.0,4.7324,0.2997,8.0393,-0.0011,0.0466,-0.0973,-1.6712733707823695,4.448529580258764e-05,2.5867815017700195,-1.583417534828186,2.1331712330141662e-19,2.1995773315429688,4.303015394801758,0.0,0.28905224800109863,-1.6557844320880335,-1.064986832886861e-43,0.0003130463883280754,0.8982173800468445,0.0,-0.008402269333600998,0.7465259432792664,0.013055752031505108,0.01643393374979496
307.0,424.0,4.7324,0.2997,8.0393,-0.0011,0.0466,-0.0973,-1.6713210544981898,7.629857634583459e-09,2.639124870300293,-1.5834463834762573,5.151356867439899e-25,2.1826624870300293,4.303052111262939,0.0,0.2888756990432739,-1.6558006445514124,-0.0,0.004389430861920118,0.8982658982276917,0.0,-0.005991835612803698,0.7466301321983337,0.011083045974373817,-0.016293102875351906
302.0,425.0,4.057,-0.0843,8.1242,-0.0643,0.0907,-0.1231,-1.671277185479635,1.8425206157893573e-14,2.6344738006591797,-1.5834224224090576,1.2439920993565674e-30,2.180739641189575,4.30306784688916,0.0,0.2907944619655609,-1.6557882467852991,-0.0,0.0071896519511938095,0.898282527923584,0.0,-0.0015624245861545205,0.746649980545044,0.008697660639882088,0.060659781098365784
302.0,425.0,4.057,-0.0843,8.1242,-0.0643,0.0907,-0.1231,-1.671277185479635,4.4494707539952255e-20,2.6284849643707275,-1.5833945274353027,0.00017998748808167875,2.1393179893493652,4.303040190333984,0.0,0.2959768772125244,-1.6557844320880335,-0.0,-0.007188628427684307,0.8981859087944031,0.0,-0.021012568846344948,0.7467381358146667,0.006491302978247404,0.017943046987056732
302.0,425.0,4.057,-0.0843,8.1242,-0.0643,0.0907,-0.1231,-1.67126526455068,1.0744948665308632e-25,2.5798587799072266,-1.583406925201416,0.0033599957823753357,2.197831153869629,4.3030358987995605,0.0,0.2931027114391327,-1.6558483282672327,-0.0,-0.005186587572097778,0.8982458114624023,0.0,-0.002241449197754264,0.7467621564865112,0.005879989359527826,0.0034603155218064785
302.0,425.0,4.057,-0.0843,8.1242,-0.0643,0.0907,-0.1231,-1.6712695560851039,2.594778471742402e-31,2.683586597442627,-1.5833302736282349,0.004331876523792744,2.1982240676879883,4.303072138423584,0.0,0.29511862993240356,-1.6558402220355433,-0.0,-0.0010783073958009481,0.8982622027397156,0.0,-0.015014618635177612,0.7468142509460449,0.006538208108395338,0.0365665964782238
302.0,425.0,4.057,-0.0843,8.1242,-0.0643,0.0907,-0.1231,-1.6713210544981898,6.266086122055116e-37,2.5819406509399414,-1.583310604095459,0.0037641702219843864,2.195164203643799,4.303047819728516,0.0,0.2986629605293274,-1.6557920614825647,-0.0,0.005897891707718372,0.8982539176940918,0.0,0.0013886077795177698,0.7468098402023315,0.006739665754139423,0.022944070398807526
302.0,425.0,4.057,-0.0843,8.1242,-0.0643,0.0907,-0.1231,-1.6712972126402796,1.1278771079657588e-40,2.6478705406188965,-1.5833065509796143,0.0039883446879684925,2.187866687774658,4.303084059352539,0.0,0.2819516658782959,-1.6558201948748987,-0.0,0.0038958995137363672,0.8982539772987366,0.0,0.004660515114665031,0.7468780875205994,0.0070464592427015305,0.027555182576179504
302.0,425.0,4.057,-0.0843,8.1242,-0.0643,0.0907,-0.1231,-1.671293397943014,0.0,2.627047061920166,-1.5831899642944336,0.004969395697116852,2.1963000297546387,4.303052111262939,0.0,0.291562557220459,-1.6558006445514124,-0.0,0.008751907385885715,0.8982618451118469,0.0,-0.008337820880115032,0.746917724609375,0.009234032593667507,0.041240088641643524
302.0,425.0,4.057,-0.0843,8.1242,-0.0643,0.0907,-0.1231,-1.6713210544981898,0.0,2.608875036239624,-1.5831941366195679,0.006525977049022913,2.2080581188201904,4.303072138423584,0.0,0.2904548645019531,-1.6558244864093226,-0.0,0.0133524090051651,0.8982097506523132,0.0,-0.0014086017617955804,0.747014582157135,0.010800724849104881,0.020279698073863983
302.0,425.0,4.057,-0.0843,8.1242,-0.0643,0.0907,-0.1231,-1.6713210544981898,0.0,2.633174419403076,-1.5831542015075684,0.007524730172008276,2.1849517822265625,4.3030358987995605,0.0,0.29524165391921997,-1.6557963530169886,-0.0,0.0012376061640679836,0.8981937766075134,0.0,0.0096117639914155,0.7470459938049316,0.011641432531177998,0.0076875160448253155
302.0,425.0,4.057,-0.0843,8.1242,-0.0643,0.0907,-0.1231,-1.6713572941222132,-0.0001384819479426369,2.645097255706787,-1.5831224918365479,0.0064972154796123505,2.219726085662842,4.303079767818115,0.0,0.2951688766479492,-1.6558006445514124,-0.0,-0.0005248805973678827,0.8982577323913574,0.0,-0.009127910248935223,0.7470898032188416,0.010673673823475838,0.010386415757238865
302.0,425.0,4.057,-0.0843,8.1242,-0.0643,0.0907,-0.1231,-1.6713654003539027,-0.00020023962133564055,2.6091067790985107,-1.583114743232727,0.0063598970882594585,2.181285858154297,4.303080244655273,0.0,0.2993280291557312,-1.6557887236224573,-0.0,0.006252754013985395,0.8982499241828918,0.0,-0.016232190653681755,0.7471864819526672,0.01014792826026678,0.031956642866134644
302.0,425.0,4.057,-0.0843,8.1242,-0.0643,0.0907,-0.1231,-1.6713367901244105,-0.0006381350685842335,2.657848358154297,-1.5829823017120361,0.007212768774479628,2.1686670780181885,4.303079767818115,0.0,0.2961576581001282,-1.655844513569967,-0.0,0.004591973964124918,0.8983063697814941,0.0,-0.017402824014425278,0.7471415400505066,0.00835136417299509,-0.0034408089704811573
302.0,425.0,4.057,-0.0843,8.1242,-0.0643,0.0907,-0.1231,-1.6713372669615687,-0.0005513431970030069,2.607750415802002,-1.5829832553863525,0.0069779143668711185,2.193143844604492,4.303032084102295,0.0,0.2974126935005188,-1.6557524839984339,-0.0,-0.0010719641577452421,0.8981457948684692,0.0,-0.004562718328088522,0.7472218871116638,0.005761780776083469,-0.027745019644498825
302.0,425.0,4.057,-0.0843,8.1242,-0.0643,0.0907,-0.1231,-1.6713210544981898,-0.0004995656199753284,2.5978565216064453,-1.5829670429229736,0.006441911682486534,2.193974256515503,4.303095980281494,0.0,0.2935797870159149,-1.655792538319723,-0.0,-0.018564054742455482,0.8982499241828918,0.0,-0.006619449704885483,0.747249960899353,0.0027854840736836195,-0.004579071421176195
302.0,425.0,4.057,-0.0843,8.1242,-0.0643,0.0907,-0.1231,-1.6714054546751917,-0.000513227831106633,2.6337971687316895,-1.5829230546951294,0.0048355115577578545,2.185840606689453,4.303112669582031,0.0,0.31081560254096985,-1.655764404927389,-0.0,0.0004651069175451994,0.8982536792755127,0.0,-0.0005549616180360317,0.7472259998321533,0.0011184628820046782,0.09014663845300674
301.0,428.0,4.4243,-0.0191,8.3653,-0.0689,0.0617,-0.1257,-1.671396871606344,-0.0010132319293916225,2.6053943634033203,-1.5828744173049927,0.003878641175106168,2.1892127990722656,4.303095980281494,0.0,0.29336056113243103,-1.6557443777667444,-0.0,0.0001495731994509697,0.8982377052307129,0.0,-0.00048748572589829564,0.7472019195556641,-5.561206489801407e-05,0.011097540147602558
301.0,428.0,4.4243,-0.0191,8.3653,-0.0689,0.0617,-0.1257,-1.671413084069723,-0.0014384625246748328,2.6249282360076904,-1.5828827619552612,0.0031705291476100683,2.1960337162017822,4.303079767818115,4.996983625460416e-05,0.30459097027778625,-1.6557562986956995,-2.1124526028870605e-05,-0.008250564336776733,0.8982863426208496,0.0,0.008173100650310516,0.7472383975982666,-0.0014993241056799889,0.00028177601052448153
301.0,428.0,4.4243,-0.0191,8.3653,-0.0689,0.0617,-0.1257,-1.6714168987669886,-0.002430479507893324,2.6607260704040527,-1.582903265953064,0.0029267349746078253,2.2097182273864746,4.30309168874707,6.957566074561328e-05,0.3135099411010742,-1.6557562986956995,-2.0728610252263024e-05,-0.007470982614904642,0.8982784748077393,0.0,-0.015071253292262554,0.7471494674682617,-0.002811418380588293,0.013455169275403023
301.0,428.0,4.4243,-0.0191,8.3653,-0.0689,0.0617,-0.1257,-1.6714569530882777,-0.0028886019717901945,2.6293132305145264,-1.5828831195831299,0.003133161924779415,2.1661458015441895,4.303083582515381,0.0006162465433590114,0.3137001395225525,-1.6557405630694788,-2.003650661208667e-05,-0.011758712120354176,0.8981772661209106,0.0,-0.0014201872982084751,0.7471296191215515,-0.0023849112913012505,-0.010693466290831566
301.0,428.0,4.4243,-0.0191,8.3653,-0.0689,0.0617,-0.1257,-1.6714569530882777,-0.0030041071586310863,2.651190757751465,-1.5828309059143066,0.00381361017934978,2.2431530952453613,4.303079767818115,0.0006214933237060905,0.3229941427707672,-1.6557486693011683,-4.28201936131245e-08,-0.012679889798164368,0.8982458114624023,0.0,-0.009991583414375782,0.7471538782119751,-0.0016991845332086086,-0.040558822453022
301.0,428.0,4.4243,-0.0191,8.3653,-0.0689,0.0617,-0.1257,-1.6714526615538539,-0.00357946683652699,2.608588695526123,-1.5828276872634888,0.004026062786579132,2.2174735069274902,4.3031555849262695,0.000523508875630796,0.3332224488258362,-1.6557443777667444,-1.825492118578964e-10,-0.03369126096367836,0.8982138633728027,0.0,-0.011216149665415287,0.7471299171447754,-0.001381264766678214,-0.006234276108443737
301.0,428.0,4.4243,-0.0191,8.3653,-0.0689,0.0617,-0.1257,-1.6714769802489222,-0.003734756726771593,2.5777878761291504,-1.5827951431274414,0.004833404440432787,2.210127830505371,4.303127928371094,0.00041899719508364797,0.33201998472213745,-1.6557205359088343,-5.081324900776951e-14,-0.015897339209914207,0.8982904553413391,0.0,-0.00020582042634487152,0.747093915939331,-0.0018278526840731502,-0.05748104304075241
301.0,428.0,4.4243,-0.0191,8.3653,-0.0689,0.0617,-0.1257,-1.671520849267477,-0.0036850948818027973,2.5533463954925537,-1.5827150344848633,0.006299074273556471,2.236178398132324,4.3030921655842285,0.000392444955650717,0.3052940368652344,-1.655708138142721,-1.41440522839116e-17,-0.014554645866155624,0.8983023166656494,0.0,-0.003276561386883259,0.7471142411231995,-0.003660408779978752,-0.06468749791383743
301.0,428.0,4.4243,-0.0191,8.3653,-0.0689,0.0617,-0.1257,-1.6715127430357875,-0.0036213817074894905,2.5185251235961914,-1.582755208015442,0.008494416251778603,2.1814050674438477,4.303087874049805,0.00034222830436192453,0.3254586458206177,-1.6557405630694788,-3.937048924286747e-21,-0.030916426330804825,0.898266077041626,0.0,-0.014334687031805515,0.7470617294311523,-0.004829755984246731,-0.06126823648810387
301.0,428.0,4.4243,-0.0191,8.3653,-0.0689,0.0617,-0.1257,-1.6715647182860316,-0.004548122175037861,2.514492988586426,-1.582655668258667,0.010864685289561749,2.1973774433135986,4.303119822139404,0.0002486931043677032,0.32603615522384644,-1.6557686964618128,-1.0958921762431108e-24,-0.01393045298755169,0.8982858061790466,0.000582353794015944,0.003498425940051675,0.7470501065254211,-0.007305379956960678,-0.08922286331653595
301.0,428.0,4.4243,-0.0191,8.3653,-0.0689,0.0617,-0.1257,-1.6715933285155238,-0.005188902840018272,2.48526930809021,-1.5825594663619995,0.013429755344986916,2.1878859996795654,4.303111715907715,0.000254457991104573,0.3223183751106262,-1.6557124296771448,-3.050455883308152e-28,-0.024728965014219284,0.8982494473457336,0.0005980251589789987,0.006006960291415453,0.7469939589500427,-0.0061738453805446625,-0.06555576622486115
301.0,428.0,4.4243,-0.0191,8.3653,-0.0689,0.0617,-0.1257,-1.671600957910055,-0.005298676900565624,2.453028678894043,-1.5825200080871582,0.016383331269025803,2.1821060180664062,4.303131743068359,0.00022408262884709984,0.31253159046173096,-1.655708138142721,-8.49105590202773e-32,-0.007392444647848606,0.8982898592948914,0.0019413601839914918,0.0025794184766709805,0.7469655871391296,-0.0038081626407802105,-0.08885683119297028
301.0,428.0,4.4243,-0.0191,8.3653,-0.0689,0.0617,-0.1257,-1.6716567478575648,-0.00503296684473753,2.451089859008789,-1.5823516845703125,0.019704891368746758,2.2047159671783447,4.3030921655842285,0.00019927120592910796,0.3069485127925873,-1.6557486693011683,-2.3635164982501525e-35,-0.01827964186668396,0.8982657194137573,0.007795988116413355,-0.003628939390182495,0.7469898462295532,-0.001800625934265554,-0.06446103006601334
301.0,428.0,4.4243,-0.0191,8.3653,-0.0689,0.0617,-0.1257,-1.6716772518553675,-0.005134392064064741,2.4648470878601074,-1.5822279453277588,0.023781245574355125,2.2000226974487305,4.303111715907715,0.0001794067648006603,0.3327299952507019,-1.6557319800006312,-6.578935140681619e-39,-0.018421197310090065,0.8984014391899109,0.024213705211877823,0.01648838259279728,0.746985912322998,-0.0008102867286652327,-0.07087770849466324
301.0,428.0,4.4243,-0.0191,8.3653,-0.0689,0.0617,-0.1257,-1.671748777429098,-0.0058556245639920235,2.4385361671447754,-1.5821163654327393,0.028775779530405998,2.223803997039795,4.303096457118652,0.00019031880947295576,0.3165436387062073,-1.6557443777667444,-1.831497092872536e-42,-0.03200157359242439,0.8985214829444885,0.01913406141102314,0.03031100146472454,0.746985912322998,-0.0003160893393214792,-0.11593826115131378
304.0,387.0,4.7755,0.7017,8.607,-0.0202,0.0619,-0.1402,-1.6718293629088343,-0.007148962002247572,2.3914713859558105,-1.5818761587142944,0.033743757754564285,2.202641487121582,4.303123159999512,0.00017451646272093058,0.32172736525535583,-1.6557405630694788,-0.0,-0.013301752507686615,0.8986421227455139,0.008949085138738155,0.005701402202248573,0.7470182776451111,-0.00023358956968877465,-0.15586255490779877
304.0,387.0,4.7755,0.7017,8.607,-0.0202,0.0619,-0.1402,-1.6718770466246546,-0.008954508230090141,2.383801221847534,-1.5816926956176758,0.04024761542677879,2.1714913845062256,4.30312363683667,0.0001611256302567199,0.3226499557495117,-1.6557844320880335,-0.0,-0.012500325217843056,0.8985806703567505,0.0015470839571207762,0.01256415992975235,0.7470220327377319,0.0001462409709347412,-0.11191672086715698
304.0,387.0,4.7755,0.7017,8.607,-0.0202,0.0619,-0.1402,-1.6719166241087855,-0.010067167691886425,2.375075340270996,-1.5814207792282104,0.04591673985123634,2.2217249870300293,4.303100271815918,0.0001710083452053368,0.31386834383010864,-1.655764404927389,-0.0,-0.022648118436336517,0.8985610008239746,0.00016792099631857127,0.014877105131745338,0.7470138072967529,0.00017689655942376703,-0.1395425796508789
304.0,387.0,4.7755,0.7017,8.607,-0.0202,0.0619,-0.1402,-1.6719886265196742,-0.010759267024695873,2.3769683837890625,-1.5811699628829956,0.052812881767749786,2.2271111011505127,4.303119345302246,0.00015182832430582494,0.3182709217071533,-1.6557524839984339,-0.0,-0.020524190738797188,0.8986089825630188,0.00010734386887634173,0.0226760134100914,0.7469980716705322,0.00019644632993731648,-0.10067029297351837
304.0,387.0,4.7755,0.7017,8.607,-0.0202,0.0619,-0.1402,-1.67210116008901,-0.010827015154063702,2.3374133110046387,-1.5807820558547974,0.058765485882759094,2.175589084625244,4.303111239070557,0.00016518187476322055,0.3262832462787628,-1.6557562986956995,-0.0,-0.015964042395353317,0.8986215591430664,0.00015793567581567913,0.0066996850073337555,0.7470179200172424,0.00021158515301067382,-0.14942246675491333
304.0,387.0,4.7755,0.7017,8.607,-0.0202,0.0619,-0.1402,-1.6720477543272914,-0.011026082560420036,2.337205410003662,-1.5805184841156006,0.06279951333999634,2.233158588409424,4.303171797389648,0.00017842456873040646,0.32749810814857483,-1.6557725111590784,-0.0,-0.035369642078876495,0.8986048698425293,0.00013441857299767435,0.01900668442249298,0.7469857335090637,0.00019345659529790282,-0.17362496256828308
304.0,387.0,4.7755,0.7017,8.607,-0.0202,0.0619,-0.1402,-1.6721202335753382,-0.0111635597422719,2.3419601917266846,-1.5801029205322266,0.06886457651853561,2.2874512672424316,4.3031274515339355,0.00018507723871152848,0.32133185863494873,-1.6557682196246546,-0.0,-0.01892208680510521,0.8987215757369995,0.00010980399383697659,0.022732943296432495,0.747050404548645,0.0002741831121966243,-0.099836066365242
304.0,387.0,4.7755,0.7017,8.607,-0.0202,0.0619,-0.1402,-1.6721917591490687,-0.010735993273556232,2.368330478668213,-1.579692006111145,0.07516077160835266,2.2183496952056885,4.303171797389648,0.00017714932619128376,0.32201671600341797,-1.6557720343219202,-0.0,-0.02351320907473564,0.8986132740974426,9.281146776629612e-05,0.011203626170754433,0.746977686882019,0.00024190156545955688,-0.17433296144008636
304.0,387.0,4.7755,0.7017,8.607,-0.0202,0.0619,-0.1402,-1.6722923717894496,-0.010833772830665112,2.3600716590881348,-1.5792489051818848,0.08137229084968567,2.2366015911102295,4.303131266231201,0.0001649733167141676,0.32485899329185486,-1.6557562986956995,-0.0,-0.02390328422188759,0.8986695408821106,8.037507359404117e-05,0.019628141075372696,0.7470261454582214,0.00020830542780458927,-0.12992066144943237
304.0,387.0,4.7755,0.7017,8.607,-0.0202,0.0619,-0.1402,-1.6723562679686488,-0.011074494570493698,2.3231539726257324,-1.578749656677246,0.0853506326675415,2.261630058288574,4.303144140834473,0.00015436229296028614,0.3194853663444519,-1.6557562986956995,-0.0,-0.019363559782505035,0.8985365033149719,8.822656673146412e-05,0.012230711989104748,0.7470302581787109,0.000182904172106646,-0.11113804578781128
304.0,387.0,4.7755,0.7017,8.607,-0.0202,0.0619,-0.1402,-1.672408243218893,-0.011274944059550762,2.2884645462036133,-1.5781705379486084,0.0864192396402359,2.2211880683898926,4.303152247066162,0.0001450337585993111,0.3035610020160675,-1.6558087507831019,-0.0,-0.0190790593624115,0.8986214995384216,9.507802315056324e-05,0.021404780447483063,0.7469939589500427,0.00019430788233876228,-0.1263686716556549
304.0,387.0,4.7755,0.7017,8.607,-0.0202,0.0619,-0.1402,-1.6724316082396449,-0.011295130476355553,2.3568458557128906,-1.577699899673462,0.08594126999378204,2.279902935028076,4.303135557765625,0.00013676859089173377,0.3331712484359741,-1.6557605902301233,-0.0,-0.02291187271475792,0.8986494541168213,8.599660941399634e-05,0.018802080303430557,0.7470462322235107,0.0001764514745445922,-0.16861926019191742
304.0,387.0,4.7755,0.7017,8.607,-0.0202,0.0619,-0.1402,-1.672488351861471,-0.009274178184568882,2.3037586212158203,-1.5771405696868896,0.08517425507307053,2.206787586212158,4.303135557765625,0.0001293945824727416,0.321787029504776,-1.6557648817645472,-0.0,-0.032469891011714935,0.8986453413963318,7.849542453186586e-05,0.014169774018228054,0.747033953666687,0.0001606980076758191,-0.1314621865749359
304.0,387.0,4.7755,0.7017,8.607,-0.0202,0.0619,-0.1402,-1.672556062737936,-0.006524498574435711,2.3205623626708984,-1.5766291618347168,0.08930177241563797,2.253413438796997,4.303139372462891,0.00012277514906600118,0.318147748708725,-1.6557605902301233,-0.0,-0.013326005078852177,0.8986691832542419,7.21979231457226e-05,0.010161233134567738,0.7470017671585083,0.00016368911019526422,-0.13383212685585022
304.0,387.0,4.7755,0.7017,8.607,-0.0202,0.0619,-0.1402,-1.6725474796690882,-0.005209372378885746,2.3526017665863037,-1.576029896736145,0.09407400339841843,2.2741470336914062,4.303143663997314,0.0001168000599136576,0.3176776170730591,-1.6557605902301233,-0.0,-0.022995317354798317,0.8987012505531311,8.908887684810907e-05,0.02221681922674179,0.7470058798789978,0.00017401859804522246,-0.16243958473205566
304.0,387.0,4.7755,0.7017,8.607,-0.0202,0.0619,-0.1402,-1.67260803798818,-0.006646507419645786,2.2760488986968994,-1.5755194425582886,0.10044479370117188,2.2448885440826416,4.303152247066162,0.00011137952242279425,0.31662675738334656,-1.6557768026935022,-0.0,-0.011569611728191376,0.8986896872520447,8.295406587421894e-05,0.037353720515966415,0.7470740675926208,0.00019284931477159262,-0.17730382084846497
283.0,338.0,4.1174,0.4624,7.7647,-0.029,0.1403,-0.1295,-1.6726757488646449,-0.009869161061942577,2.2836852073669434,-1.5749324560165405,0.10447826236486435,2.26151180267334,4.303095980281494,9.314256749348715e-05,0.3203369379043579,-1.655792538319723,-0.0,-0.012461142614483833,0.8986613154411316,4.106248161406256e-05,0.028638500720262527,0.7470419406890869,0.0002360329235671088,-0.14490339159965515
283.0,338.0,4.1174,0.4624,7.7647,-0.029,0.1403,-0.1295,-1.6727401218810023,-0.012947965413331985,2.2586588859558105,-1.5742335319519043,0.10922181606292725,2.2895259857177734,4.303111715907715,8.917976811062545e-05,0.31409886479377747,-1.6557238737689417,-0.0,-0.009634112007915974,0.8987053036689758,5.7265471696155146e-05,0.03174581378698349,0.7470579147338867,0.000721864344086498,-0.1308574378490448
283.0,338.0,4.1174,0.4624,7.7647,-0.029,0.1403,-0.1295,-1.6728154621519984,-0.016691502183675766,2.2182254791259766,-1.5735750198364258,0.11069658398628235,2.2725586891174316,4.303107901210449,8.554688247386366e-05,0.3117715120315552,-1.6557324568377894,-0.0,-0.010983042418956757,0.8986331224441528,8.075719961198047e-05,0.027657968923449516,0.7470818758010864,0.0006014035898260772,-0.23574475944042206
283.0,338.0,4.1174,0.4624,7.7647,-0.029,0.1403,-0.1295,-1.6728912792601527,-0.019831933081150055,2.204702377319336,-1.5728479623794556,0.10734240710735321,2.176633834838867,4.3030921655842285,8.219839219236746e-05,0.2945927679538727,-1.6557167212115687,-0.0,-0.018901212140917778,0.8986852169036865,0.0004456992319319397,0.0336330384016037,0.7470980286598206,0.000526228453963995,-0.21194349229335785
283.0,338.0,4.1174,0.4624,7.7647,-0.029,0.1403,-0.1295,-1.6729957065977992,-0.019524917006492615,2.2158420085906982,-1.5724321603775024,0.10750985890626907,2.2074759006500244,4.303111715907715,8.010808960534632e-05,0.2908812165260315,-1.6557486693011683,-0.0,-0.0005361683433875442,0.8986693024635315,0.0004851024423260242,0.024102885276079178,0.7470859289169312,0.0004652055213227868,-0.19908691942691803
283.0,338.0,4.1174,0.4624,7.7647,-0.029,0.1403,-0.1295,-1.6730429134764613,-0.018649719655513763,2.240785598754883,-1.571818232536316,0.10967956483364105,2.2602474689483643,4.303131266231201,7.716451364103705e-05,0.29803723096847534,-1.6557768026935022,-0.0,0.004555615596473217,0.8987457156181335,0.0008308151154778898,0.02631009928882122,0.7470337152481079,0.00038966472493484616,-0.1637904942035675
283.0,338.0,4.1174,0.4624,7.7647,-0.029,0.1403,-0.1295,-1.6731673679747523,-0.017113644629716873,2.2140023708343506,-1.571135401725769,0.11347753554582596,2.226915121078491,4.30312363683667,7.442960486514494e-05,0.29828935861587524,-1.6557686964618128,-0.0,0.002785809338092804,0.8986971974372864,0.0009296759380958974,0.02672995999455452,0.7470699548721313,0.0003352317144162953,-0.15343555808067322
283.0,338.0,4.1174,0.4624,7.7647,-0.029,0.1403,-0.1295,-1.6733156643309535,-0.017801975831389427,2.191281318664551,-1.5705163478851318,0.11816087365150452,2.206397533416748,4.3031274515339355,7.188193558249623e-05,0.29252082109451294,-1.6557486693011683,-0.0,0.010673737153410912,0.8987054824829102,0.0008362086373381317,0.036579132080078125,0.7470414638519287,0.00029414298478513956,-0.2106434404850006
283.0,338.0,4.1174,0.4624,7.7647,-0.029,0.1403,-0.1295,-1.6734916172423304,-0.02085539698600769,2.1499931812286377,-1.5697176456451416,0.12186893820762634,2.2153525352478027,4.3031274515339355,3.523038321873173e-05,0.2787836790084839,-1.6557567755328577,-0.0,-0.003189987735822797,0.8986971378326416,0.0006876716506667435,0.0358191579580307,0.7470938563346863,0.00020195696561131626,-0.179813951253891
283.0,338.0,4.1174,0.4624,7.7647,-0.029,0.1403,-0.1295,-1.673655172387594,-0.029433950781822205,2.185887098312378,-1.5690263509750366,0.12939317524433136,2.227546453475952,4.303063555354736,2.740986928984057e-05,0.2980766296386719,-1.6557605902301233,-0.0,0.011377616785466671,0.8987457752227783,0.0005568006308749318,0.029560351744294167,0.7470818758010864,0.0001779175945557654,-0.20665457844734192
283.0,338.0,4.1174,0.4624,7.7647,-0.029,0.1403,-0.1295,-1.6737944088377894,-0.036928772926330566,2.1489391326904297,-1.5682601928710938,0.12801091372966766,2.249175548553467,4.303095980281494,3.479779934423277e-06,0.2839004099369049,-1.655752960835592,-0.0,0.014853065833449364,0.898688793182373,0.000510935322381556,0.034969404339790344,0.7470414638519287,0.00015905150212347507,-0.19538207352161407
283.0,338.0,4.1174,0.4624,7.7647,-0.029,0.1403,-0.1295,-1.6740299663939417,-0.04586753621697426,2.081911087036133,-1.5675342082977295,0.12091300636529922,2.240640878677368,4.303108378047607,9.686095259198169e-10,0.2778756022453308,-1.6557205359088343,-0.0,0.005861499346792698,0.8986567854881287,0.00047490495489910245,0.043376125395298004,0.7470897436141968,0.00014380266657099128,-0.2822795510292053
283.0,338.0,4.1174,0.4624,7.7647,-0.029,0.1403,-0.1295,-1.674354692498678,-0.05136438459157944,2.0983786582946777,-1.5667834281921387,0.11417310684919357,2.1777195930480957,4.303052111262939,2.6961603522696054e-13,0.2833438515663147,-1.6557124296771448,-0.0,0.012220771983265877,0.8987013697624207,0.0004712379304692149,0.040279947221279144,0.7470420002937317,0.00010498290066607296,-0.2811439037322998
283.0,338.0,4.1174,0.4624,7.7647,-0.029,0.1403,-0.1295,-1.6745978794493617,-0.05313234403729439,2.0521931648254395,-1.5660640001296997,0.11368214339017868,2.205530881881714,4.303087874049805,7.504862128672341e-17,0.2686184048652649,-1.6557167212115687,-0.0,0.02484135702252388,0.8986449241638184,0.0004394908028189093,0.036404334008693695,0.747053861618042,7.243877917062491e-05,-0.2691075801849365
283.0,338.0,4.1174,0.4624,7.7647,-0.029,0.1403,-0.1295,-1.6749054394164027,-0.051176730543375015,2.100513458251953,-1.5653976202011108,0.11404196172952652,2.206610679626465,4.30309168874707,2.089005862911458e-20,0.27144119143486023,-1.6557405630694788,-0.0,0.0167199969291687,0.8987292647361755,0.0004166400758549571,0.03982541710138321,0.7470616698265076,6.700915400870144e-05,-0.2600410282611847
255.0,292.0,3.2166,0.5055,6.8842,-0.0238,0.0008,-0.1165,-1.675241609612936,-0.051381971687078476,2.0601861476898193,-1.5647108554840088,0.11184156686067581,2.2163939476013184,4.303023501033447,-0.0005589521024376154,0.27073514461517334,-1.6557567755328577,-0.0,0.03624051436781883,0.898733377456665,0.000449796934844926,0.04530850797891617,0.7470617890357971,6.23657979303971e-05,-0.2735069990158081
255.0,292.0,3.2166,0.5055,6.8842,-0.0238,0.0008,-0.1165,-1.675589223901266,-0.056029368191957474,2.056966781616211,-1.5640275478363037,0.10993564873933792,2.1734120845794678,4.303003473872803,-0.0026044058613479137,0.25721096992492676,-1.655736271535055,-0.0,0.030181659385561943,0.8987415432929993,0.0004650208284147084,0.03172890841960907,0.7471062541007996,7.749898213660344e-05,-0.24132007360458374
255.0,292.0,3.2166,0.5055,6.8842,-0.0238,0.0008,-0.1165,-1.6759773693480433,-0.06449062377214432,2.0344619750976562,-1.5633361339569092,0.10756904631853104,2.150527238845825,4.303024931544922,-0.002302849432453513,0.259072870016098,-1.6557443777667444,0.00022277652169577777,0.03862061724066734,0.8987690806388855,0.0006031565717421472,0.038524989038705826,0.7470818758010864,7.303273741854355e-05,-0.2541651129722595
255.0,292.0,3.2166,0.5055,6.8842,-0.0238,0.0008,-0.1165,-1.67639221767568,-0.0745469257235527,2.0386147499084473,-1.562766671180725,0.1021745428442955,2.228198528289795,4.30301205694165,-0.0018031162908300757,0.26098495721817017,-1.6557205359088343,0.00023280346067622304,0.03208183869719505,0.8987970948219299,0.0009553220006637275,0.06227249652147293,0.7470777630805969,6.8842971813865e-05,-0.2833024859428406
255.0,292.0,3.2166,0.5055,6.8842,-0.0238,0.0008,-0.1165,-1.6768766842284144,-0.08162042498588562,1.94716215133667,-1.5621751546859741,0.09229482710361481,2.1292405128479004,4.3029724794575195,-0.0015355382347479463,0.25992903113365173,-1.6557205359088343,0.0002387897839071229,0.03962819650769234,0.8988012075424194,0.0013368678046390414,0.04129842668771744,0.7470859289169312,4.905325477011502e-05,-0.2200073003768921
255.0,292.0,3.2166,0.5055,6.8842,-0.0238,0.0008,-0.1165,-1.6771637401976527,-0.08453886210918427,1.9994823932647705,-1.5617763996124268,0.08592170476913452,2.1489696502685547,4.30299632131543,-0.0009774024365469813,0.25951361656188965,-1.6556924025165003,0.0002538012631703168,0.0361219085752964,0.8987691402435303,0.0015092722605913877,0.05061555653810501,0.7471020817756653,4.7126282879617065e-05,-0.303916335105896
255.0,292.0,3.2166,0.5055,6.8842,-0.0238,0.0008,-0.1165,-1.677603384057516,-0.0874442458152771,1.9465532302856445,-1.5612891912460327,0.0796874389052391,2.077967882156372,4.3030077654072265,-0.000590901414398104,0.2505279779434204,-1.6557443777667444,0.00023130375484470278,0.037438709288835526,0.8987933397293091,0.0015886289766058326,0.056424565613269806,0.7470901012420654,-4.5687909732805565e-05,-0.28455325961112976
255.0,292.0,3.2166,0.5055,6.8842,-0.0238,0.0008,-0.1165,-1.6781426868834437,-0.09129399806261063,1.9352167844772339,-1.5607701539993286,0.07603947818279266,2.097666025161743,4.30298821508374,-0.00042367615969851613,0.26171526312828064,-1.655752960835592,0.00021096972341183573,0.04407566040754318,0.8987566828727722,0.001701347646303475,0.045865681022405624,0.7470296025276184,-6.368974572978914e-05,-0.28122469782829285
255.0,292.0,3.2166,0.5055,6.8842,-0.0238,0.0008,-0.1165,-1.6787063084044398,-0.09822560101747513,1.885732650756836,-1.5603420734405518,0.07160992920398712,2.1001625061035156,4.302955790156982,-0.00033029235783033073,0.24842384457588196,-1.6557648817645472,0.0001939218636834994,0.03279329463839531,0.8988090753555298,0.0026889897417277098,0.07088413089513779,0.7470982670783997,-5.948092803009786e-05,-0.2951023280620575
255.0,292.0,3.2166,0.5055,6.8842,-0.0238,0.0008,-0.1165,-1.6793095074095667,-0.10505732893943787,1.903136968612671,-1.5599472522735596,0.06682290881872177,2.097134590148926,4.302992029781006,-0.0002706582599785179,0.24746796488761902,-1.6557167212115687,0.00017942361591849476,0.04723780229687691,0.8987686634063721,0.0038473010063171387,0.05544143170118332,0.7471344470977783,-5.5793563660699874e-05,-0.313110888004303
255.0,292.0,3.2166,0.5055,6.8842,-0.0238,0.0008,-0.1165,-1.680049558679098,-0.10938143730163574,1.9360599517822266,-1.5594836473464966,0.06428667902946472,2.0587902069091797,4.30298821508374,-0.00027511140797287226,0.24596211314201355,-1.6557329336749476,0.00018067106429953128,0.0386393740773201,0.8988645076751709,0.004354503005743027,0.054076723754405975,0.7470938563346863,-5.253666313365102e-05,-0.2867432236671448
255.0,292.0,3.2166,0.5055,6.8842,-0.0238,0.0008,-0.1165,-1.680749078790182,-0.11751071363687515,1.921635389328003,-1.5591974258422852,0.06202647089958191,2.0988729000091553,4.302987738246582,-0.00023864058312028646,0.26218268275260925,-1.6557167212115687,0.00016128490096889436,0.0419982485473156,0.8988247513771057,0.004111980088055134,0.06748345494270325,0.7471103668212891,-4.9639093049336225e-05,-0.3400428891181946
255.0,292.0,3.2166,0.5055,6.8842,-0.0238,0.0008,-0.1165,-1.6814195118346156,-0.12239804863929749,1.8985897302627563,-1.5587940216064453,0.06019848212599754,2.1190967559814453,4.303024931544922,-0.0002278897591168061,0.2552220821380615,-1.6556761900531214,0.0001166324145742692,0.029743853956460953,0.8988887667655945,0.002480688039213419,0.06176813691854477,0.7470576167106628,-4.704438106273301e-05,-0.28671032190322876
255.0,292.0,3.2166,0.5055,6.8842,-0.0238,0.0008,-0.1165,-1.6822430096068324,-0.1261197030544281,1.9142656326293945,-1.5584385395050049,0.056693919003009796,2.103532314300537,4.302987738246582,-0.0002509318583179265,0.25278061628341675,-1.655708138142721,0.00010618953092489392,0.02885325998067856,0.8989208340644836,0.0013226597802713513,0.06929187476634979,0.7470459938049316,-4.4707518100040033e-05,-0.27492064237594604
255.0,292.0,3.2166,0.5055,6.8842,-0.0238,0.0008,-0.1165,-1.6829973659911097,-0.1322203278541565,1.8715527057647705,-1.55808687210083,0.05448565259575844,2.113541603088379,4.30298821508374,-0.00022763398010283709,0.2619398832321167,-1.6557567755328577,9.755606151884422e-05,0.024676276370882988,0.8989368081092834,0.0006696620839647949,0.06474390625953674,0.7470740675926208,-4.259180059307255e-05,-0.32165443897247314
255.0,292.0,3.2166,0.5055,6.8842,-0.0238,0.0008,-0.1165,-1.683812757531637,-0.1439923793077469,1.955620527267456,-1.5577517747879028,0.053541023284196854,2.0601718425750732,4.302975817317627,-0.00020791261340491474,0.2684565484523773,-1.6557405630694788,9.022077574627474e-05,0.04187871888279915,0.8988966345787048,0.0005421740934252739,0.057708628475666046,0.7470579147338867,-4.066726614837535e-05,-0.3055610656738281
260.0,300.0,4.0104,-0.0724,9.4881,-0.057,-0.053,-0.1093,-1.6847244701781214,-0.15562497079372406,1.9076025485992432,-1.5574201345443726,0.05351398140192032,2.059727668762207,4.303040190333984,-0.00019133581372443587,0.24339410662651062,-1.6557567755328577,8.391175651922822e-05,0.02898055873811245,0.8988966941833496,0.0004241564020048827,0.06545037776231766,0.7470735907554626,-3.890912557835691e-05,-0.28217625617980957
260.0,300.0,4.0104,-0.0724,9.4881,-0.057,-0.053,-0.1093,-1.6856676540770472,-0.16247384250164032,1.9311084747314453,-1.5571209192276,0.05544731020927429,2.0920424461364746,4.303016348476074,-0.00017720734467729926,0.25207293033599854,-1.6557686964618128,5.9158697695238516e-05,0.01377272792160511,0.8989327549934387,0.00039988424396142364,0.06259732693433762,0.7470777034759521,-3.7296740629244596e-05,-0.26020166277885437
260.0,300.0,4.0104,-0.0724,9.4881,-0.057,-0.053,-0.1093,-1.6867019138731898,-0.1612771600484848,1.9304873943328857,-1.556713581085205,0.059495747089385986,2.0961928367614746,4.303056402797363,-7.010187255218625e-05,0.27278223633766174,-1.6557043234454554,5.5212058214237913e-05,0.01627671718597412,0.8989126682281494,0.00033627619268372655,0.06900245696306229,0.7470901012420654,-3.5812634450849146e-05,-0.2768588066101074
260.0,300.0,4.0104,-0.0724,9.4881,-0.057,-0.053,-0.1093,-1.6876937351622523,-0.1524527668952942,2.017256498336792,-1.556369423866272,0.06496059894561768,2.156402111053467,4.302991552943848,-2.067347122647334e-05,0.27212268114089966,-1.6557524839984339,-4.703749800682999e-05,0.02496984228491783,0.8988888263702393,0.00028984714299440384,0.05657634884119034,0.7470980286598206,-2.2979633286013268e-05,-0.25080570578575134
260.0,300.0,4.0104,-0.0724,9.4881,-0.057,-0.053,-0.1093,-1.6883117161192835,-0.15045571327209473,2.0271682739257812,-1.556146502494812,0.06579098850488663,2.127777099609375,4.3030358987995605,-1.9675184375955723e-05,0.2731848359107971,-1.6557486693011683,-5.802853047498502e-05,0.021562788635492325,0.8988925814628601,0.00026541922125034034,0.060910873115062714,0.7470735907554626,-1.1347194231348112e-05,-0.2631273567676544
260.0,300.0,4.0104,-0.0724,9.4881,-0.057,-0.053,-0.1093,-1.689416070977682,-0.1628190279006958,2.0177314281463623,-1.5557395219802856,0.06700106710195541,2.1102373600006104,4.303040190333984,-1.8463806554791518e-05,0.29058876633644104,-1.6557968298541468,-7.941525836940855e-05,0.009170964360237122,0.8988805413246155,0.00023563194554299116,0.07202300429344177,0.7471100687980652,-6.798075435909823e-10,-0.24503260850906372
260.0,300.0,4.0104,-0.0724,9.4881,-0.057,-0.053,-0.1093,-1.6903778515257777,-0.18238089978694916,2.0490148067474365,-1.5553275346755981,0.06582838296890259,2.1455860137939453,4.302992029781006,-1.7393293092027307e-05,0.28088539838790894,-1.655736271535055,-7.300160359591246e-05,0.01911003701388836,0.8988888263702393,0.0002118561533279717,0.0628298670053482,0.7470296025276184,-1.6416553073807672e-15,-0.2598712146282196
260.0,300.0,4.0104,-0.0724,9.4881,-0.057,-0.053,-0.1093,-1.6915012798705042,-0.19800586998462677,2.0094361305236816,-1.554896593093872,0.06546182185411453,2.1081511974334717,4.303052588100098,-1.6440111721749417e-05,0.28346845507621765,-1.655736271535055,-6.752419722033665e-05,-0.006407697219401598,0.8989245891571045,0.00019244008581154048,0.048207838088274,0.7470455765724182,-3.964404045637817e-21,-0.2007361501455307
260.0,300.0,4.0104,-0.0724,9.4881,-0.057,-0.053,-0.1093,-1.6926442585387171,-0.19818629324436188,1.9882808923721313,-1.5544731616973877,0.07109005749225616,2.1718039512634277,4.303015394801758,-2.6697063049141434e-07,0.2916579842567444,-1.6557443777667444,-8.372437150683254e-05,0.003910742700099945,0.8988806009292603,0.0001762843457981944,0.0723341628909111,0.7470377683639526,-9.573568182699578e-27,-0.2005828619003296
260.0,300.0,4.0104,-0.0724,9.4881,-0.057,-0.053,-0.1093,-1.6937710247435511,-0.18068759143352509,2.0232999324798584,-1.5540058612823486,0.08185520768165588,2.2044272422790527,4.302983446712158,-7.431225079734816e-11,0.2863561511039734,-1.6557319800006312,-7.828479283489287e-05,-0.0033087909687310457,0.8988721370697021,5.500943007064052e-05,0.05739881098270416,0.7470542192459106,-0.0002359006757615134,-0.2360716164112091
260.0,300.0,4.0104,-0.0724,9.4881,-0.057,-0.053,-0.1093,-1.6949173412718714,-0.17652377486228943,2.0324509143829346,-1.5534672737121582,0.0910019800066948,2.169740915298462,4.303020640010498,-2.0685090061168046e-14,0.2841583788394928,-1.6557768026935022,-7.349046063609421e-05,-0.012733150273561478,0.8989131450653076,4.7186287702061236e-05,0.05365202575922012,0.7470418810844421,-0.0005502385320141912,-0.2608340084552765
260.0,300.0,4.0104,-0.0724,9.4881,-0.057,-0.053,-0.1093,-1.6960207424559535,-0.18586036562919617,2.0952024459838867,-1.5529396533966064,0.09468071907758713,2.1870617866516113,4.30301205694165,-5.7577705654585794e-18,0.28493261337280273,-1.6557405630694788,-8.626419003121555e-05,0.004754602909088135,0.898859977722168,4.374483978608623e-05,0.03943677619099617,0.7470781803131104,-0.0002669244713615626,-0.2433323860168457
260.0,300.0,4.0104,-0.0724,9.4881,-0.057,-0.053,-0.1093,-1.697174688378805,-0.19802755117416382,2.065310001373291,-1.5523769855499268,0.09638561308383942,2.183845043182373,4.303060217494629,-1.6026965660996946e-21,0.30404341220855713,-1.6557968298541468,-8.183878526324406e-05,-0.0074692582711577415,0.8988971710205078,4.0772083593765274e-05,0.03592967242002487,0.7470901012420654,0.00011378067574696615,-0.2295578122138977
260.0,300.0,4.0104,-0.0724,9.4881,-0.057,-0.053,-0.1093,-1.6983777485289515,-0.203008234500885,2.1171679496765137,-1.5517414808273315,0.09659278392791748,2.1710586547851562,4.303060217494629,-4.4611656981678e-25,0.29022711515426636,-1.6557849089251917,-7.76046872488223e-05,-0.0018271642038598657,0.8988885283470154,2.87890579784289e-05,0.028575096279382706,0.7470298409461975,7.578820805065334e-05,-0.19051939249038696
260.0,300.0,4.0104,-0.0724,9.4881,-0.057,-0.053,-0.1093,-1.6995159588255824,-0.19973091781139374,2.042487621307373,-1.551147222518921,0.10070132464170456,2.2207882404327393,4.3030640321918945,-1.2417817298719365e-28,0.2894827425479889,-1.6557648817645472,-7.378717418760061e-05,-0.006002342328429222,0.8988685607910156,1.7949527318705805e-05,0.03552767261862755,0.7470538020133972,1.8301959947564228e-10,-0.23754549026489258
256.0,324.0,5.0806,0.3745,8.5938,-0.025,-0.0484,-0.1168,-1.7007190189757289,-0.19388777017593384,2.1121463775634766,-1.5504873991012573,0.10795315355062485,2.1841835975646973,4.30304400503125,-3.456545546696752e-32,0.2892446517944336,-1.6557086149798792,-7.032762368908152e-05,-0.008885474875569344,0.898929238319397,1.6933761799009517e-05,0.044383153319358826,0.7470298409461975,4.419708333885388e-16,-0.22874335944652557
256.0,324.0,5.0806,0.3745,8.5938,-0.025,-0.0484,-0.1168,-1.7018820248045863,-0.1904565840959549,2.125119924545288,-1.5498689413070679,0.11813784390687943,2.2159957885742188,4.303072138423584,-9.621421261480423e-36,0.30330631136894226,-1.6557486693011683,-6.71779562253505e-05,-0.015226321294903755,0.8989171981811523,7.0858000356111e-08,0.016186818480491638,0.7470418810844421,1.0673075496957987e-21,-0.2721341550350189
256.0,324.0,5.0806,0.3745,8.5938,-0.025,-0.0484,-0.1168,-1.7029758892455042,-0.18638764321804047,2.156662940979004,-1.5491142272949219,0.12497226148843765,2.24015736579895,4.303052111262939,-2.6781574211221974e-39,0.29066240787506104,-1.6558211485492151,-6.429835048038512e-05,-0.01214685384184122,0.8988525867462158,1.9723583877251372e-11,0.02531253919005394,0.7470298409461975,2.577422162987878e-27,-0.21669834852218628
256.0,324.0,5.0806,0.3745,8.5938,-0.025,-0.0484,-0.1168,-1.7041636906065882,-0.18642514944076538,2.172821521759033,-1.5483630895614624,0.1281517744064331,2.2166872024536133,4.303051634425781,-7.454907830208027e-43,0.29318323731422424,-1.6557686964618128,-6.165542436065152e-05,-0.008322949521243572,0.898856520652771,5.490132139055262e-15,0.017479363828897476,0.747025728225708,6.224172792626932e-33,-0.23615367710590363
256.0,324.0,5.0806,0.3745,8.5938,-0.025,-0.0484,-0.1168,-1.7048865757384242,-0.18611730635166168,2.1368255615234375,-1.5478801727294922,0.13233160972595215,2.250321865081787,4.303052111262939,7.197479862952605e-05,0.3052200376987457,-1.6557486693011683,-6.001099609420635e-05,0.0008712378330528736,0.8988604545593262,2.3405293807869632e-17,0.023484623059630394,0.7470377683639526,1.1203291987590704e-36,-0.2590175271034241
256.0,324.0,5.0806,0.3745,8.5938,-0.025,-0.0484,-0.1168,-1.7059976063170375,-0.18930605053901672,2.1579623222351074,-1.5470616817474365,0.1343536078929901,2.2973809242248535,4.303072138423584,0.0001356533612124622,0.29140424728393555,-1.6557562986956995,-5.7702498452272266e-05,-0.0010006078518927097,0.8987970948219299,6.514950437062939e-21,0.02053368091583252,0.7470377683639526,2.7059073346112218e-42,-0.22518160939216614
256.0,324.0,5.0806,0.3745,8.5938,-0.025,-0.0484,-0.1168,-1.7070595226683558,-0.18638552725315094,2.1711676120758057,-1.546247124671936,0.13370811939239502,2.2505736351013184,4.30304400503125,0.00012442012666724622,0.29891839623451233,-1.6557725111590784,-5.5565047659911215e-05,-0.01193174161016941,0.8988925814628601,1.813460664623292e-24,0.010705852881073952,0.7470378279685974,0.0,-0.2701091766357422
256.0,324.0,5.0806,0.3745,8.5938,-0.025,-0.0484,-0.1168,-1.7081266842284144,-0.17932648956775665,2.1535685062408447,-1.545457124710083,0.13744588196277618,2.294395685195923,4.303015394801758,0.00015929242363199592,0.3087654709815979,-1.6557405630694788,-5.358022463042289e-05,-0.0002976972609758377,0.8987851738929749,5.0478339767722655e-28,0.015109732747077942,0.7470620274543762,0.0,-0.1988370418548584
256.0,324.0,5.0806,0.3745,8.5938,-0.025,-0.0484,-0.1168,-1.7091099224486292,-0.17218686640262604,2.2295799255371094,-1.5446101427078247,0.1464390754699707,2.2739524841308594,4.303072138423584,0.00017064901476260275,0.302165150642395,-1.6557443777667444,-5.1732349675148726e-05,-0.0016797154676169157,0.8988520503044128,1.4050830912172655e-31,0.009159859269857407,0.747025728225708,0.0,-0.2287885844707489
256.0,324.0,5.0806,0.3745,8.5938,-0.025,-0.0484,-0.1168,-1.7101766071715296,-0.16731587052345276,2.235018253326416,-1.5437273979187012,0.15782351791858673,2.2773404121398926,4.303039713496826,0.00015940377488732338,0.30655890703201294,-1.6557648817645472,-5.00077148899436e-05,-0.007535199169069529,0.8988451957702637,3.911100728855773e-35,0.002421343233436346,0.7470619678497314,0.0,-0.1895817518234253
256.0,324.0,5.0806,0.3745,8.5938,-0.025,-0.0484,-0.1168,-1.7111736736693324,-0.16692844033241272,2.2069485187530518,-1.5427565574645996,0.16412468254566193,2.316317081451416,4.303076429958008,0.00013561552623286843,0.2877334952354431,-1.6557768026935022,-5.417447468403225e-08,-0.0027568177320063114,0.8988292217254639,1.0886693374533361e-38,0.004712150432169437,0.7470818758010864,0.0,-0.2066541314125061
256.0,324.0,5.0806,0.3745,8.5938,-0.025,-0.0484,-0.1168,-1.7121888599791468,-0.16686707735061646,2.189785957336426,-1.5417791604995728,0.16581754386425018,2.2979393005371094,4.303068323726318,0.00012312407488934696,0.28878262639045715,-1.6557806173907679,-1.5079663212569372e-11,-0.0115668885409832,0.8988373875617981,3.0310085783345793e-42,0.0062743970192968845,0.7470818758010864,0.0,-0.24164023995399475
256.0,324.0,5.0806,0.3745,8.5938,-0.025,-0.0484,-0.1168,-1.713151594201559,-0.16196906566619873,2.221384048461914,-1.5407170057296753,0.16622400283813477,2.270298480987549,4.303076906795166,0.00012448066263459623,0.2841144800186157,-1.6557281653033655,-4.197479393415211e-15,-0.013246927410364151,0.8988646268844604,1.401298464324817e-45,0.004894660320132971,0.7470377683639526,0.0,-0.20593178272247314
256.0,324.0,5.0806,0.3745,8.5938,-0.025,-0.0484,-0.1168,-1.7141591511168421,-0.15915130078792572,2.215329170227051,-1.539786696434021,0.17317795753479004,2.3513283729553223,4.303068323726318,0.00012594104919116944,0.29186540842056274,-1.6557486693011683,-1.1683839298347198e-18,-0.0032756964210420847,0.8988604545593262,0.0,-0.0009093494154512882,0.7470542192459106,0.0,-0.182949960231781
256.0,324.0,5.0806,0.3745,8.5938,-0.025,-0.0484,-0.1168,-1.7151099644102992,-0.15925048291683197,2.263784885406494,-1.5387723445892334,0.18109479546546936,2.305274486541748,4.303031607265137,0.00010483573714736849,0.3022139370441437,-1.6557605902301233,-3.2522400093982863e-22,-0.0013162018731236458,0.8988724946975708,-0.00010422140621813014,-0.003498937003314495,0.7470377683639526,0.0,-0.21701818704605103
244.0,287.0,4.724,0.1125,9.0951,-0.0429,0.0667,-0.1245,-1.716045995751852,-0.16481570899486542,2.2409725189208984,-1.537653923034668,0.18746241927146912,2.310116767883301,4.303076429958008,9.973315172828734e-05,0.29233232140541077,-1.6557281653033655,-9.052730473747183e-26,-0.005285348743200302,0.898821234703064,-0.00013752315135207027,0.009236152283847332,0.7470740675926208,0.0,-0.19000980257987976
244.0,287.0,4.724,0.1125,9.0951,-0.0429,0.0667,-0.1245,-1.71714510540151,-0.17062298953533173,2.2534067630767822,-1.5365203619003296,0.19214840233325958,2.317452907562256,4.302991552943848,9.521131869405508e-05,0.28527384996414185,-1.655736271535055,-2.5198608595526317e-29,0.005221775267273188,0.89886873960495,-0.000125983715406619,0.011649969033896923,0.7470459938049316,0.0,-0.19175434112548828
244.0,287.0,4.724,0.1125,9.0951,-0.0429,0.0667,-0.1245,-1.7181703052916468,-0.1640809327363968,2.2131943702697754,-1.5353059768676758,0.19339117407798767,2.2909486293792725,4.303023977870605,9.108179074246436e-05,0.2849854826927185,-1.655752960835592,-7.014125567530649e-33,-0.005742998793721199,0.8988766670227051,-0.00011622133752098307,0.002414213726297021,0.747025728225708,0.0,-0.2723940908908844
244.0,287.0,4.724,0.1125,9.0951,-0.0429,0.0667,-0.1245,-1.719107290307516,-0.1522519886493683,2.217877149581909,-1.534110426902771,0.20262913405895233,2.3133389949798584,4.303048296565674,8.729559340281412e-05,0.26790615916252136,-1.6557000319110315,-1.9524074021916013e-36,0.00836952868849039,0.8988724946975708,-0.0001184663487947546,-0.0035227295011281967,0.7470501065254211,0.0,-0.23054444789886475
244.0,287.0,4.724,0.1125,9.0951,-0.0429,0.0667,-0.1245,-1.7197939358153285,-0.15079204738140106,2.2349114418029785,-1.5333669185638428,0.2045469731092453,2.384556293487549,4.30301205694165,4.184950375929475e-05,0.2757527828216553,-1.655708138142721,-8.32342000671037e-39,-0.010130620561540127,0.8988292217254639,-0.0001234680094057694,0.0011336675379425287,0.7470579147338867,0.0,-0.23633527755737305
244.0,287.0,4.724,0.1125,9.0951,-0.0429,0.0667,-0.1245,-1.7207333050169886,-0.15856629610061646,2.179807424545288,-1.5321077108383179,0.2065633237361908,2.305375576019287,4.302987738246582,2.8067209001392257e-08,0.2916805148124695,-1.655736271535055,-2.3163463615289226e-42,-0.005837005563080311,0.8988412022590637,-0.00011558323603821918,0.004749662708491087,0.7470941543579102,0.0,-0.25867486000061035
244.0,287.0,4.724,0.1125,9.0951,-0.0429,0.0667,-0.1245,-1.7217351398863734,-0.17004446685314178,2.2657406330108643,-1.5308763980865479,0.20085109770298004,2.2933199405670166,4.302899523372314,-0.002359169302508235,0.2743186354637146,-1.655736271535055,-0.0,-0.00798682402819395,0.8988603949546814,-0.00010860879410756752,0.0005810208385810256,0.7470620274543762,0.0,-0.2518940567970276
244.0,287.0,4.724,0.1125,9.0951,-0.0429,0.0667,-0.1245,-1.722715517083639,-0.1804565042257309,2.2253103256225586,-1.5296332836151123,0.19815878570079803,2.2874763011932373,4.302980108852051,-0.0006067092181183398,0.2705792486667633,-1.655752960835592,-0.0,0.003787151537835598,0.8988171219825745,-0.00010242832649964839,-0.010638941079378128,0.7470257878303528,0.0,-0.25732460618019104
244.0,287.0,4.724,0.1125,9.0951,-0.0429,0.0667,-0.1245,-1.723750730554098,-0.1726786345243454,2.150254726409912,-1.5283658504486084,0.2051190733909607,2.254352569580078,4.302992029781006,-0.0002858444058801979,0.2669472098350525,-1.6557610670672815,-8.925150609684351e-07,0.012654641643166542,0.8987765312194824,-9.691326704341918e-05,-0.00037146604154258966,0.7470298409461975,0.0,-0.2842032015323639
244.0,287.0,4.724,0.1125,9.0951,-0.0429,0.0667,-0.1245,-1.7247868976988734,-0.15346868336200714,2.1966521739959717,-1.5271060466766357,0.21342164278030396,2.3320226669311523,4.302956266994141,-0.00019342591986060143,0.2539933919906616,-1.6558011213885706,-2.484348282649762e-10,0.0016205476131290197,0.8988052606582642,-9.196196333505213e-05,0.0027706606779247522,0.7469936609268188,-0.0006152557325549424,-0.2720145583152771
244.0,287.0,4.724,0.1125,9.0951,-0.0429,0.0667,-0.1245,-1.7257052860655726,-0.144498810172081,2.233302354812622,-1.5258152484893799,0.21506367623806,2.298449993133545,4.302892370814941,-0.0002728741674218327,0.24902893602848053,-1.6557205359088343,-6.91527523720599e-14,0.005723083857446909,0.8988444209098816,-8.749196422286332e-05,0.01083249319344759,0.7470220327377319,-0.00044046249240636826,-0.19709192216396332
244.0,287.0,4.724,0.1125,9.0951,-0.0429,0.0667,-0.1245,-1.7266446552672328,-0.15253496170043945,2.245750904083252,-1.5246080160140991,0.2087041437625885,2.264509677886963,4.3029443460651855,-0.0035322681069374084,0.2516629099845886,-1.6557486693011683,-1.9248927951111157e-17,0.010262293741106987,0.8988525867462158,-8.34362581372261e-05,0.005638468079268932,0.7470941543579102,-0.0002723628713283688,-0.2728256583213806
244.0,287.0,4.724,0.1125,9.0951,-0.0429,0.0667,-0.1245,-1.7276016674437464,-0.16873712837696075,2.2352726459503174,-1.523373007774353,0.2038591206073761,2.302508592605591,4.302904768581055,-0.006738357245922089,0.24188706278800964,-1.6557405630694788,-5.358010315127169e-21,0.0015822432469576597,0.8988966345787048,-7.97400061856024e-05,-0.009140590205788612,0.7470620274543762,-0.00016657268861308694,-0.30025339126586914
244.0,287.0,4.724,0.1125,9.0951,-0.0429,0.0667,-0.1245,-1.728518625298971,-0.1758650243282318,2.150465965270996,-1.5221216678619385,0.20449143648147583,2.290928602218628,4.302848501796387,-0.006835538428276777,0.22890357673168182,-1.655708138142721,-1.4914217093098159e-24,0.01939275860786438,0.8988292217254639,-7.635734800715e-05,0.011373027227818966,0.7470418810844421,-0.00018174706201534718,-0.30066487193107605
244.0,287.0,4.724,0.1125,9.0951,-0.0429,0.0667,-0.1245,-1.7295400104918421,-0.16753576695919037,2.2072887420654297,-1.5208865404129028,0.20380133390426636,2.253873348236084,4.302820368404053,-0.004092450253665447,0.2363077998161316,-1.6556761900531214,-4.151427217526726e-28,0.025049999356269836,0.8988130688667297,-8.525043813278899e-05,-0.0014612132217735052,0.747033953666687,-5.6763099564705044e-05,-0.2593403458595276
244.0,287.0,4.724,0.1125,9.0951,-0.0429,0.0667,-0.1245,-1.7304407558836878,-0.15310296416282654,2.2229981422424316,-1.5195865631103516,0.20641157031059265,2.2680060863494873,4.3028246599384765,-0.0020373102743178606,0.23552477359771729,-1.655729118977682,-1.1555649020490114e-31,0.01991090551018715,0.8988564610481262,-8.211661042878404e-05,0.016009893268346786,0.7470179200172424,-0.00014187618216965348,-0.2894430458545685
229.0,248.0,4.861,0.1854,7.8622,-0.0338,0.0386,-0.1205,-1.731410642663473,-0.143917977809906,2.218494415283203,-1.5184357166290283,0.21524223685264587,2.2794389724731445,4.302816553706787,-0.0009720303351059556,0.23671525716781616,-1.6556561628924769,-3.21655748099065e-35,0.026900839060544968,0.8988525867462158,-7.902644574642181e-05,0.009415464475750923,0.7470220923423767,-0.00012272762251086533,-0.2612035274505615
