ramyac6/ROB537/final_project/csv/all/good_132.csv
tof_0,tof_1,accelx,accely,accelz,gyrox,gyroy,gyroz,shoulder_lift_joint_position,shoulder_lift_joint_velocity,shoulder_lift_joint_effort,elbow_joint_position,elbow_joint_velocity,elbow_joint_effort,wrist_1_joint_position,wrist_1_joint_velocity,wrist_1_joint_effort,wrist_2_joint_position,wrist_2_joint_velocity,wrist_2_joint_effort,wrist_3_joint_position,wrist_3_joint_velocity,wrist_3_joint_effort,shoulder_pan_joint_position,shoulder_pan_joint_velocity,shoulder_pan_joint_effort
8190.0,963.0,0.6963,0.2046,9.4762,-0.037,0.0209,-0.1159,-1.6117097340025843,0.0,1.7739522457122803,-2.33618426322937,-0.0,1.5878604650497437,5.378323364048757,-0.0,0.28129327297210693,-1.6039498488055628,0.0,0.0015877287369221449,0.8117755055427551,-0.0,-0.00795144122093916,0.894298255443573,3.0492321457131766e-05,-0.010505856946110725
8190.0,963.0,0.6963,0.2046,9.4762,-0.037,0.0209,-0.1159,-1.6117097340025843,0.0,1.7062594890594482,-2.3361802101135254,-0.0,1.5730359554290771,5.378311085491934,-0.0,0.28619593381881714,-1.603889290486471,0.0,-0.006787990219891071,0.8116992115974426,-0.0,0.002073007170110941,0.8943060040473938,2.685305844352115e-05,0.018609169870615005
8190.0,963.0,0.6963,0.2046,9.4762,-0.037,0.0209,-0.1159,-1.611697336236471,0.0,1.828338861465454,-2.336123466491699,-0.0,1.6272377967834473,5.378335284977712,-0.0,0.2905448079109192,-1.6039093176471155,0.0,-0.009138351306319237,0.8117517232894897,-0.0,-0.006233787164092064,0.8942942023277283,2.3989936380530708e-05,0.025421692058444023
8190.0,963.0,0.6963,0.2046,9.4762,-0.037,0.0209,-0.1159,-1.6116534672179164,0.0,1.7872669696807861,-2.3362162113189697,-0.0,1.6259660720825195,5.378287243634023,-0.0,0.2943512797355652,-1.6039217154132288,0.0,-0.01441627275198698,0.8117275238037109,-0.0,-0.0011102370917797089,0.8942859172821045,2.1677811673725955e-05,0.005098859779536724
8190.0,963.0,0.6963,0.2046,9.4762,-0.037,0.0209,-0.1159,-1.611697336236471,0.0,1.7704949378967285,-2.336188554763794,-0.0,1.5888454914093018,5.3782991645629785,-0.0,0.2862829267978668,-1.6039260069476526,0.0,-0.008318631909787655,0.8117676973342896,-0.0,0.0038178309332579374,0.8942859172821045,1.977277315745596e-05,-0.001953022088855505
8190.0,963.0,0.6963,0.2046,9.4762,-0.037,0.0209,-0.1159,-1.6116811237730921,0.0,1.8024723529815674,-2.33616042137146,-0.0,1.6026194095611572,5.378327119141378,-0.0,0.27790123224258423,-1.6039093176471155,0.0,-0.011403662152588367,0.8117353916168213,-0.0,-0.001027158577926457,0.8942739963531494,1.8176022422267124e-05,0.00822303257882595
8190.0,964.0,0.6658,0.2237,9.588,-0.0411,0.0267,-0.1193,-1.611673494378561,0.0,1.7605407238006592,-2.3361761569976807,-0.0,1.5706586837768555,5.378303277283468,-0.0,0.29442256689071655,-1.60390550294985,0.0,0.0021138987503945827,0.8117034435272217,-0.0,0.0028342357836663723,0.8942618370056152,1.6508953194716014e-05,0.025529107078909874
8190.0,964.0,0.6658,0.2237,9.588,-0.0411,0.0267,-0.1193,-1.6116930447020472,0.0,1.7797634601593018,-2.3361761569976807,-0.0,1.6135621070861816,5.378287303238668,-0.0,0.2852853834629059,-1.603962246571676,0.0,-0.005271987058222294,0.811731219291687,-0.0,-0.00586664630100131,0.8942698836326599,1.5380486729554832e-05,0.01274925097823143
8190.0,964.0,0.6658,0.2237,9.588,-0.0411,0.0267,-0.1193,-1.611697336236471,0.0,1.7623544931411743,-2.3361563682556152,-0.0,1.6379982233047485,5.378303277283468,-0.0,0.27893346548080444,-1.603934113179342,0.0,-0.011609693989157677,0.8117434978485107,-0.0,0.003066607052460313,0.8942335247993469,1.439637071598554e-05,-0.026637472212314606
8190.0,964.0,0.6658,0.2237,9.588,-0.0411,0.0267,-0.1193,-1.6117016277708949,0.0,1.7902610301971436,-2.33618426322937,-0.0,1.589667558670044,5.378303277283468,-0.0,0.2992296814918518,-1.6039260069476526,0.0,-0.004014415666460991,0.8118200302124023,-0.0,-0.00040042249020189047,0.8942859172821045,1.35303716888302e-05,-0.021513115614652634
8190.0,964.0,0.6658,0.2237,9.588,-0.0411,0.0267,-0.1193,-1.6116610966124476,0.0,1.7888000011444092,-2.3362162113189697,-0.0,1.5872474908828735,5.378279077797689,-0.0,0.2881008982658386,-1.6039374510394495,0.0,-0.005039663054049015,0.8117114901542664,-0.0,0.00992181058973074,0.8942375779151917,1.2762875485350378e-05,0.020945193246006966
8190.0,964.0,0.6658,0.2237,9.588,-0.0411,0.0267,-0.1193,-1.611697336236471,0.0,1.7299258708953857,-2.336160659790039,-0.0,1.568281888961792,5.378315198212423,-0.0,0.29317203164100647,-1.6039093176471155,0.0,-0.012227672152221203,0.8117877244949341,-0.0,-0.013055586256086826,0.8942739963531494,1.1918069503735751e-05,0.010665936395525932
8190.0,964.0,0.6658,0.2237,9.588,-0.0411,0.0267,-0.1193,-1.6116653881468714,0.0,1.7225043773651123,-2.336143970489502,-0.0,1.5713045597076416,5.3783472059066675,-0.0,0.2874678373336792,-1.6039136091815394,0.0,-0.005542522296309471,0.8117597699165344,-0.0,-0.00593302957713604,0.894257664680481,1.131857334257802e-05,-0.03503638133406639
8190.0,964.0,0.6658,0.2237,9.588,-0.0411,0.0267,-0.1193,-1.6116897068419398,0.0,1.806797981262207,-2.3361480236053467,-0.0,1.6177369356155396,5.378283190518179,-0.0,0.2824309468269348,-1.6039260069476526,0.0,0.0005365870893001556,0.8117315173149109,-0.0,-0.006636320147663355,0.8942781686782837,1.0776467206596863e-05,-0.009131224825978279
8190.0,964.0,0.6658,0.2237,9.588,-0.0411,0.0267,-0.1193,-1.6116653881468714,0.0,1.7538282871246338,-2.336164712905884,-0.0,1.6101646423339844,5.378319251328268,-0.0,0.28731948137283325,-1.6039579550372522,0.0,-0.0038303970359265804,0.8117959499359131,-0.0,0.020315034314990044,0.8942978382110596,1.0283752999384888e-05,-0.0011953208595514297
8190.0,964.0,0.6658,0.2237,9.588,-0.0411,0.0267,-0.1193,-1.6116534672179164,0.0,1.7578258514404297,-2.3361523151397705,-0.0,1.6269896030426025,5.378339338093557,-0.0,0.28173184394836426,-1.6039302984820765,0.0,-0.01078430749475956,0.8116998672485352,-0.0,0.006769457831978798,0.894281804561615,3.908811549990787e-07,-0.03596939891576767
8190.0,964.0,0.6658,0.2237,9.588,-0.0411,0.0267,-0.1193,-1.611673494378561,0.0,1.7502758502960205,-2.3361566066741943,-0.0,1.5806612968444824,5.378335284977712,-0.0,0.28463053703308105,-1.6039498488055628,0.0,-0.008162823505699635,0.8116952180862427,-0.0,-0.005791675299406052,0.894281804561615,1.2664051427804194e-14,0.0263028834015131
1002.0,950.0,0.655,0.1932,9.5868,-0.0417,0.0283,-0.1257,-1.611657281915182,0.0,1.76811683177948,-2.3361966609954834,-0.0,1.5783360004425049,5.378303277283468,-0.0,0.2789919972419739,-1.603873078023092,0.0,0.004699959419667721,0.8117475509643555,-0.0,0.0003808015026152134,0.894229531288147,5.504686779419872e-24,-0.0011898664524778724
1002.0,950.0,0.655,0.1932,9.5868,-0.0417,0.0283,-0.1257,-1.6116610966124476,0.0,1.771794319152832,-2.336188554763794,-0.0,1.6017975807189941,5.378258752613821,-0.0,0.28273382782936096,-1.6039093176471155,0.0,0.00024465395836159587,0.811791718006134,-0.0,-0.0013742002192884684,0.8942941427230835,1.7834486267723716e-31,0.03381483629345894
1002.0,950.0,0.655,0.1932,9.5868,-0.0417,0.0283,-0.1257,-1.611673494378561,0.0,1.7401670217514038,-2.3361563682556152,-0.0,1.6075351238250732,5.378335284977712,-0.0,0.2904379069805145,-1.603889290486471,0.0,-0.005985855590552092,0.8117475509643555,-0.0,0.0012551180552691221,0.8943142294883728,5.7781477189600945e-39,-0.010607095435261726
1002.0,950.0,0.655,0.1932,9.5868,-0.0417,0.0283,-0.1257,-1.611673494378561,0.0,1.7508938312530518,-2.3361761569976807,-0.0,1.563493251800537,5.3783233044441126,-0.0,0.28900760412216187,-1.6039302984820765,0.0,0.006584943737834692,0.8117434978485107,-0.0,-0.001003418699838221,0.8942781686782837,0.0,-0.004355851095169783
1002.0,950.0,0.655,0.1932,9.5868,-0.0417,0.0283,-0.1257,-1.6116653881468714,1.2583578268277051e-07,1.7448339462280273,-2.336188316345215,-0.0,1.5801939964294434,5.378303277283468,-0.0,0.29610511660575867,-1.6039179007159632,0.0,0.00628564041107893,0.8117234110832214,-0.0,0.009098765440285206,0.8942781686782837,0.0,-0.0032346753869205713
1002.0,950.0,0.655,0.1932,9.5868,-0.0417,0.0283,-0.1257,-1.6117016277708949,5.469707977705254e-17,1.7413116693496704,-2.336188554763794,-0.0,1.5785365104675293,5.378359126835623,-0.0,0.29827332496643066,-1.6039302984820765,0.0,-0.008117511868476868,0.8117517232894897,-0.0,0.010234171524643898,0.8942941427230835,0.0,0.0037230183370411396
1002.0,950.0,0.655,0.1932,9.5868,-0.0417,0.0283,-0.1257,-1.611669202844137,1.7721160701502062e-24,1.8223713636398315,-2.33616042137146,-0.0,1.5720902681350708,5.378299224167623,-0.0,0.2921287715435028,-1.6039417425738733,0.0,-0.008723581209778786,0.8117312788963318,-0.0,-0.005650426261126995,0.8942739963531494,0.0,-0.033846888691186905
1002.0,950.0,0.655,0.1932,9.5868,-0.0417,0.0283,-0.1257,-1.6117173633971156,-6.573701102752239e-05,1.779759407043457,-2.3361761569976807,-0.0,1.6255388259887695,5.378335284977712,-0.0,0.2871342897415161,-1.6038935820208948,0.0,0.00330433901399374,0.8117756843566895,-0.0,0.0034739638213068247,0.8942699432373047,0.0,-0.027195783331990242
1002.0,950.0,0.655,0.1932,9.5868,-0.0417,0.0283,-0.1257,-1.6117383442320765,-5.1076327508781105e-05,1.7178101539611816,-2.336167812347412,-0.0,1.6412792205810547,5.378299224167623,-0.0,0.2949882745742798,-1.603945557271139,0.0,-0.012818505056202412,0.8117353916168213,-0.0,-0.014506503008306026,0.8942942023277283,0.0,-0.038813550025224686
1002.0,950.0,0.655,0.1932,9.5868,-0.0417,0.0283,-0.1257,-1.611673494378561,-1.6996581280182e-06,1.7905046939849854,-2.336123466491699,-0.0,1.607968807220459,5.378303277283468,-0.0,0.2884771227836609,-1.6039822737323206,0.0,-0.005456395447254181,0.8117112517356873,-0.0,-0.0021211516577750444,0.8942818641662598,0.0,-0.03732653707265854
1002.0,950.0,0.655,0.1932,9.5868,-0.0417,0.0283,-0.1257,-1.6116978130736292,-5.506675708954675e-14,1.7745158672332764,-2.336143970489502,-0.0,1.5892829895019531,5.378319251328268,-0.0,0.2821975350379944,-1.6039417425738733,0.0,0.0021081671584397554,0.8117231726646423,-0.0,-0.008799123577773571,0.8942822813987732,0.0,-0.05470121651887894
1042.0,8190.0,0.7765,0.2016,9.4612,-0.0345,0.024,-0.1199,-1.6116897068419398,-2.3935881065758284e-23,1.7276413440704346,-2.3361966609954834,-0.0,1.5604355335235596,5.378319251328268,-0.0,0.290886253118515,-1.60390550294985,0.0,-0.0018103241454809904,0.8117275238037109,-0.0,0.0033454876393079758,0.8943179249763489,0.0,0.03680314123630524
1042.0,8190.0,0.7765,0.2016,9.4612,-0.0345,0.024,-0.1199,-1.6117016277708949,-7.754920079691099e-31,1.7506422996520996,-2.336188554763794,-0.0,1.5675876140594482,5.37827883937911,-0.0,0.2787419557571411,-1.603938404713766,0.0,-0.0005926181329414248,0.8116993308067322,-0.0,-0.024967409670352936,0.894277811050415,0.0,-0.0052137235179543495
1042.0,8190.0,0.7765,0.2016,9.4612,-0.0345,0.024,-0.1199,-1.6117502651610316,-2.5124956364100247e-38,1.7836202383041382,-2.336120128631592,-0.0,1.6056270599365234,5.378311502724447,-0.0,0.292770117521286,-1.60390550294985,0.0,-0.0009804010624065995,0.8117272257804871,-0.0,0.014586434699594975,0.8943101763725281,0.0,0.00478463526815176
1042.0,8190.0,0.7765,0.2016,9.4612,-0.0345,0.024,-0.1199,-1.6116811237730921,-1.401298464324817e-45,1.7571532726287842,-2.336160659790039,-0.0,1.5782350301742554,5.378327119141378,-0.0,0.2832247018814087,-1.6039331595050257,0.0,-0.006250850856304169,0.8117757439613342,-0.0,-0.006650026421993971,0.8942375779151917,0.0,-0.002150489715859294
1042.0,8190.0,0.7765,0.2016,9.4612,-0.0345,0.024,-0.1199,-1.6117054424681605,0.0,1.782581090927124,-2.3362081050872803,-0.0,1.6013020277023315,5.378323364048757,-0.0,0.29000604152679443,-1.6039302984820765,0.0,-0.009628372266888618,0.8117194175720215,-0.0,0.0021974840201437473,0.894257664680481,0.0,0.0009803996654227376
1042.0,8190.0,0.7765,0.2016,9.4612,-0.0345,0.024,-0.1199,-1.6116653881468714,0.0,1.796571969985962,-2.336116075515747,-0.0,1.5894120931625366,5.378295111447134,-0.0,0.29257750511169434,-1.6039093176471155,0.0,-0.00438381964340806,0.811715304851532,-0.0,-0.008892910555005074,0.8942577242851257,0.0,-0.011897051706910133
1042.0,8190.0,0.7765,0.2016,9.4612,-0.0345,0.024,-0.1199,-1.6117259464659632,0.0,1.7642579078674316,-2.336143970489502,-0.0,1.6216521263122559,5.378319251328268,-0.0,0.28154265880584717,-1.6039179007159632,0.0,-0.00450606644153595,0.8117312788963318,-0.0,0.012212476693093777,0.8942978382110596,0.0,0.025015395134687424
1042.0,8190.0,0.7765,0.2016,9.4612,-0.0345,0.024,-0.1199,-1.6116978130736292,0.0,1.7553269863128662,-2.336143970489502,-0.0,1.557165265083313,5.378323364048757,-0.0,0.2842235863208771,-1.6039302984820765,0.0,-0.0023112890776246786,0.8117234706878662,-0.0,-0.018472401425242424,0.8942739963531494,0.0,-0.02481682598590851
1042.0,8190.0,0.7765,0.2016,9.4612,-0.0345,0.024,-0.1199,-1.6117173633971156,0.0,1.7493400573730469,-2.336120128631592,-0.0,1.6004629135131836,5.378299224167623,-0.0,0.2810187339782715,-1.6039260069476526,0.0,-0.016022924333810806,0.8116821646690369,-0.0,0.006636486388742924,0.894290030002594,0.0,-0.028962641954421997
1042.0,8190.0,0.7765,0.2016,9.4612,-0.0345,0.024,-0.1199,-1.6117216549315394,0.0,1.7713375091552734,-2.3362205028533936,-0.0,1.5650599002838135,5.378335284977712,-0.0,0.29848483204841614,-1.6038935820208948,0.0,-0.0038904156535863876,0.8116948008537292,-0.0,-0.004966235253959894,0.8942699432373047,0.0,0.02308439090847969
1042.0,8190.0,0.7765,0.2016,9.4612,-0.0345,0.024,-0.1199,-1.6116534672179164,0.0,1.7635153532028198,-2.336212158203125,-0.0,1.578825831413269,5.378307330399313,-0.0,0.28282469511032104,-1.6039579550372522,0.0,0.00268502626568079,0.8117475509643555,-0.0,-0.007559618912637234,0.894257664680481,0.0,0.03142358362674713
993.0,8190.0,0.6951,0.253,9.4917,-0.0356,0.0234,-0.124,-1.611657281915182,0.0,1.7701990604400635,-2.336172103881836,-0.0,1.5924173593521118,5.378287243634023,-0.0,0.28349578380584717,-1.6039374510394495,0.0,-0.0029152759816497564,0.8117115497589111,-0.0,-0.018224719911813736,0.8942535519599915,0.0,0.019188694655895233
993.0,8190.0,0.6951,0.253,9.4917,-0.0356,0.0234,-0.124,-1.6116897068419398,0.0,1.8149099349975586,-2.336143970489502,-0.0,1.5692111253738403,5.378315198212423,-0.0,0.2878186106681824,-1.60392934480776,0.0,-0.00519845774397254,0.8117074966430664,-0.0,0.0008360997890122235,0.8942698836326599,0.0,0.03237767890095711
993.0,8190.0,0.6951,0.253,9.4917,-0.0356,0.0234,-0.124,-1.6116897068419398,0.0,1.8115811347961426,-2.3361566066741943,-0.0,1.5903785228729248,5.378307032376089,-0.0,0.28437113761901855,-1.6039417425738733,0.0,-0.0009796821977943182,0.8117434978485107,-0.0,-0.002376464894041419,0.8943018913269043,0.0,0.02437453158199787
993.0,8190.0,0.6951,0.253,9.4917,-0.0356,0.0234,-0.124,-1.6116773090758265,0.0,1.7334892749786377,-2.3361399173736572,-0.0,1.6380622386932373,5.378327119141378,-0.0,0.29029610753059387,-1.6039374510394495,0.0,-0.024338582530617714,0.8117835521697998,-0.0,0.003484853310510516,0.8942739963531494,0.0,-0.045389898121356964
993.0,8190.0,0.6951,0.253,9.4917,-0.0356,0.0234,-0.124,-1.611697336236471,0.0,1.7251026630401611,-2.3361079692840576,-0.0,1.595188856124878,5.3783073900039575,-0.0,0.2865210771560669,-1.6039179007159632,0.0,-0.002506851451471448,0.8116716146469116,-0.0,0.0044837091118097305,0.89426589012146,0.0,-0.01887725479900837
993.0,8190.0,0.6951,0.253,9.4917,-0.0356,0.0234,-0.124,-1.611697336236471,0.0,1.722351312637329,-2.336120128631592,-0.0,1.5757126808166504,5.378351318627157,-0.0,0.28387391567230225,-1.6039260069476526,0.0,-0.003947101999074221,0.8117074966430664,-0.0,-0.004478161688894033,0.8942659497261047,0.0,-0.023197583854198456
993.0,8190.0,0.6951,0.253,9.4917,-0.0356,0.0234,-0.124,-1.6117259464659632,0.0,1.765906810760498,-2.336172103881836,-0.0,1.566146731376648,5.378315198212423,-0.0,0.2868184745311737,-1.6039498488055628,0.0,-0.00745492335408926,0.8117313981056213,-0.0,-0.0025630805175751448,0.8942978382110596,0.0,-0.052453555166721344
993.0,8190.0,0.6951,0.253,9.4917,-0.0356,0.0234,-0.124,-1.6116653881468714,0.0,1.7484207153320312,-2.336164712905884,-0.0,1.6368885040283203,5.378335046559133,-0.0,0.2795495390892029,-1.6039179007159632,0.0,-0.0005703428760170937,0.8117153644561768,-0.0,-0.002133170608431101,0.89426589012146,0.0,-0.046839963644742966
993.0,8190.0,0.6951,0.253,9.4917,-0.0356,0.0234,-0.124,-1.611669202844137,0.0,1.7768006324768066,-2.336188554763794,-0.0,1.615626573562622,5.378359544068136,-0.0,0.27436187863349915,-1.6038935820208948,0.0,-0.0020093913190066814,0.811743438243866,-0.0,-0.006172114983201027,0.894257664680481,0.0,0.02059708721935749
993.0,8190.0,0.6951,0.253,9.4917,-0.0356,0.0234,-0.124,-1.6116491756834925,0.0,1.8019169569015503,-2.3362205028533936,-0.0,1.6239805221557617,5.378331231861868,-0.0,0.2970694601535797,-1.603905979787008,0.0,-0.0073050037026405334,0.8117393851280212,-0.0,-0.0011625075712800026,0.8942740559577942,0.0,-0.03376917913556099
8190.0,8190.0,0.6808,0.2142,9.5533,-0.0354,0.0276,-0.1147,-1.6116892300047816,0.0,1.7670153379440308,-2.3361730575561523,-0.0,1.6421581506729126,5.378339397698202,-0.0,0.28963619470596313,-1.6038816610919397,0.0,-0.011792130768299103,0.8117035031318665,-0.0,-0.018783709034323692,0.8942536115646362,0.0,0.028941988945007324
8190.0,8190.0,0.6808,0.2142,9.5533,-0.0354,0.0276,-0.1147,-1.6116610966124476,0.0,1.7772901058197021,-2.3361802101135254,-0.0,1.5638909339904785,5.378319251328268,-0.0,0.2909674346446991,-1.603934113179342,0.0,-0.008491795510053635,0.8117313981056213,-0.0,-6.22481747996062e-05,0.8943018913269043,0.0,-0.04088566079735756
8190.0,8190.0,0.6808,0.2142,9.5533,-0.0354,0.0276,-0.1147,-1.611673494378561,0.0,1.7941181659698486,-2.3361356258392334,-0.0,1.6179356575012207,5.378295111447134,-0.0,0.2836306393146515,-1.6039136091815394,0.0,-0.0023811666760593653,0.8117153644561768,-0.0,-0.011498890817165375,0.8942453861236572,0.0,-0.00041323225013911724
8190.0,8190.0,0.6808,0.2142,9.5533,-0.0354,0.0276,-0.1147,-1.6117054424681605,0.0,1.739339828491211,-2.336200714111328,-0.0,1.6199679374694824,5.378319310932913,-0.0,0.2856517434120178,-1.60390550294985,0.0,-0.0014193779788911343,0.8117274641990662,-0.0,-0.007860226556658745,0.8942494988441467,0.0,0.006445387843996286
8190.0,8190.0,0.6808,0.2142,9.5533,-0.0354,0.0276,-0.1147,-1.6117092571654261,0.0,1.7729744911193848,-2.336127519607544,-0.0,1.5868901014328003,5.378315198212423,-0.0,0.28836554288864136,-1.6038973967181605,0.0,-0.006834181025624275,0.8117473721504211,-0.0,0.015234109945595264,0.8942698836326599,0.0,-0.07327139377593994
8190.0,8190.0,0.6808,0.2142,9.5533,-0.0354,0.0276,-0.1147,-1.6116897068419398,0.0,1.7783384323120117,-2.336188554763794,-0.0,1.555962085723877,5.378295111447134,-0.0,0.2839803695678711,-1.6039498488055628,0.0,-0.011701623909175396,0.8117234706878662,-0.0,-0.01619872823357582,0.8942978382110596,0.0,-0.000994877889752388
8190.0,8190.0,0.6808,0.2142,9.5533,-0.0354,0.0276,-0.1147,-1.6116577587523402,0.0,1.792172908782959,-2.336164712905884,-0.0,1.61348557472229,5.378311562329092,-0.0,0.2799112796783447,-1.6039093176471155,0.0,-0.012942645698785782,0.8116595149040222,-0.0,0.0018049308564513922,0.8942899703979492,0.0,0.04931502044200897
8190.0,8190.0,0.6808,0.2142,9.5533,-0.0354,0.0276,-0.1147,-1.6116811237730921,0.0,1.7695770263671875,-2.336127519607544,-0.0,1.562096118927002,5.3782991645629785,-0.0,0.28228241205215454,-1.6039541403399866,0.0,-0.006088872905820608,0.8116835355758667,-0.0,-0.006430141627788544,0.8943097591400146,0.0,-0.00165592972189188
8190.0,8190.0,0.6808,0.2142,9.5533,-0.0354,0.0276,-0.1147,-1.611673494378561,0.0,1.7503396272659302,-2.336188554763794,-0.0,1.5420196056365967,5.378323364048757,-0.0,0.29008805751800537,-1.6039374510394495,0.0,-0.00968216173350811,0.8117035627365112,-0.0,0.003129310207441449,0.8942216038703918,0.0,0.01401345431804657
8190.0,8190.0,0.6808,0.2142,9.5533,-0.0354,0.0276,-0.1147,-1.6116816006102503,0.0,1.757209062576294,-2.3361358642578125,-0.0,1.6361099481582642,5.3782991645629785,-0.0,0.2745288014411926,-1.6039093176471155,0.0,-0.012766689993441105,0.811787486076355,-0.0,0.012689596973359585,0.8942739963531494,0.0,0.006186285987496376
8190.0,8190.0,0.6808,0.2142,9.5533,-0.0354,0.0276,-0.1147,-1.6117054424681605,0.0,1.7420027256011963,-2.3361523151397705,-0.0,1.6184120178222656,5.378315198212423,-0.0,0.28709474205970764,-1.6039426962481897,0.0,-0.009168744087219238,0.8117154836654663,-0.0,0.004924181383103132,0.8942494988441467,0.0,0.038369789719581604
997.0,8190.0,0.6832,0.2052,9.4893,-0.0298,0.0238,-0.1185,-1.6116367779173792,0.0,1.766735553741455,-2.336164712905884,-0.0,1.6075921058654785,5.378331231861868,-0.0,0.28038787841796875,-1.6038816610919397,0.0,-0.004763733595609665,0.8117393851280212,-0.0,0.007237076759338379,0.8943018913269043,0.0,0.043798670172691345
997.0,8190.0,0.6832,0.2052,9.4893,-0.0298,0.0238,-0.1185,-1.611697336236471,0.0,1.753758430480957,-2.3361356258392334,-0.0,1.5722994804382324,5.378339040070333,-0.0,0.268047958612442,-1.60390550294985,0.0,-0.009659095667302608,0.8117234706878662,-0.0,0.00839158147573471,0.8943342566490173,0.0,-0.014199672266840935
997.0,8190.0,0.6832,0.2052,9.4893,-0.0298,0.0238,-0.1185,-1.6117097340025843,0.0,1.760789394378662,-2.3361480236053467,-0.0,1.577338457107544,5.378295111447134,-0.0,0.2851276993751526,-1.603934113179342,0.0,-0.01166805811226368,0.8117274641990662,-0.0,-0.0032622762955725193,0.8943142294883728,0.0,-0.024106895551085472
997.0,8190.0,0.6832,0.2052,9.4893,-0.0298,0.0238,-0.1185,-1.6116930447020472,0.0,1.764178991317749,-2.3361966609954834,-0.0,1.6064687967300415,5.378299224167623,-0.0,0.2887214422225952,-1.603934113179342,0.0,-0.014358887448906898,0.8117115497589111,-0.0,0.009021734818816185,0.8942941427230835,0.0,-0.011110545136034489
997.0,8190.0,0.6832,0.2052,9.4893,-0.0298,0.0238,-0.1185,-1.6117016277708949,0.0,1.7871301174163818,-2.3361966609954834,-0.0,1.5834121704101562,5.378290998726644,-0.0,0.2886980473995209,-1.6039217154132288,0.0,-0.0030243906658142805,0.811767578125,-0.0,0.0017702594632282853,0.89426589012146,0.0,-0.007940427400171757
997.0,8190.0,0.6832,0.2052,9.4893,-0.0298,0.0238,-0.1185,-1.6117297611632289,0.0,1.7908302545547485,-2.3361728191375732,-0.0,1.570331335067749,5.378315198212423,-0.0,0.27993446588516235,-1.6039331595050257,0.0,-0.01007275003939867,0.8117715716362,-0.0,-0.00814652256667614,0.8943018913269043,0.0,-0.006651436444371939
997.0,8190.0,0.6832,0.2052,9.4893,-0.0298,0.0238,-0.1185,-1.61171354869985,0.0,1.7315970659255981,-2.3362040519714355,-0.0,1.5833885669708252,5.378307330399313,-0.0,0.276724249124527,-1.6038973967181605,0.0,-0.010606457479298115,0.8117635846138,-0.0,0.008073785342276096,0.8942375779151917,0.0,-0.02628365159034729
997.0,8190.0,0.6832,0.2052,9.4893,-0.0298,0.0238,-0.1185,-1.6116935215392054,0.0,1.7653875350952148,-2.3361523151397705,-0.0,1.5862956047058105,5.378319310932913,-0.0,0.28968995809555054,-1.6039217154132288,0.0,-0.009148421697318554,0.8117234706878662,-0.0,-0.007760317996144295,0.8943101763725281,0.0,0.01769068092107773
997.0,8190.0,0.6832,0.2052,9.4893,-0.0298,0.0238,-0.1185,-1.611657281915182,0.0,1.7440378665924072,-2.336188316345215,-0.0,1.5757367610931396,5.378283190518179,-0.0,0.28960564732551575,-1.6039217154132288,0.0,-0.015025167725980282,0.8117595911026001,-0.0,0.004654848016798496,0.8942536115646362,0.0,0.02645452879369259
997.0,8190.0,0.6832,0.2052,9.4893,-0.0298,0.0238,-0.1185,-1.611685415307516,0.0,1.745930552482605,-2.336228847503662,-0.0,1.5889456272125244,5.378283190518179,-0.0,0.28301435708999634,-1.6038854757892054,0.0,-0.015025841072201729,0.8116995096206665,-0.0,0.0036929938942193985,0.8942822217941284,0.0,0.03116564080119133
997.0,8190.0,0.6832,0.2052,9.4893,-0.0298,0.0238,-0.1185,-1.6116615734496058,0.0,1.7696192264556885,-2.3361480236053467,-0.0,1.5856866836547852,5.378355371743002,-0.0,0.28683173656463623,-1.6039136091815394,0.0,0.012129074893891811,0.811743438243866,-0.0,-0.0008171196095645428,0.8942781686782837,0.0,-0.024286698549985886
8190.0,8190.0,0.7023,0.2692,9.5563,-0.0351,0.0325,-0.1271,-1.611673494378561,0.0,1.7759206295013428,-2.336160659790039,-0.0,1.5828163623809814,5.378331231861868,-0.0,0.2974030673503876,-1.6038973967181605,0.0,-0.01631738618016243,0.8117353916168213,-0.0,-0.0024960837326943874,0.8943219780921936,0.0,0.0021277181804180145
8190.0,8190.0,0.7023,0.2692,9.5563,-0.0351,0.0325,-0.1271,-1.6117054424681605,0.0,1.7336159944534302,-2.3361687660217285,-0.0,1.5618054866790771,5.3782991645629785,-0.0,0.28153347969055176,-1.603945557271139,0.0,0.0007469765841960907,0.8117035627365112,-0.0,-0.008490249514579773,0.8942859172821045,0.0,-0.0036976090632379055
8190.0,8190.0,0.7023,0.2692,9.5563,-0.0351,0.0325,-0.1271,-1.611673494378561,0.0,1.7985936403274536,-2.3361480236053467,-0.0,1.5905089378356934,5.378299224167623,-0.0,0.285366952419281,-1.603945557271139,0.0,0.007173426449298859,0.8117075562477112,-0.0,-0.005304585676640272,0.8943060040473938,0.0,-0.02047339826822281
8190.0,8190.0,0.7023,0.2692,9.5563,-0.0351,0.0325,-0.1271,-1.6117216549315394,0.0,1.778525471687317,-2.3361480236053467,-0.0,1.5739812850952148,5.378335284977712,-0.0,0.2938268780708313,-1.6039260069476526,0.0,-0.006553469225764275,0.8116797208786011,-0.0,-0.006479229778051376,0.8942899703979492,0.0,0.013857483863830566
8190.0,8190.0,0.7023,0.2692,9.5563,-0.0351,0.0325,-0.1271,-1.6116811237730921,0.0,1.8233885765075684,-2.3361926078796387,-0.0,1.6182940006256104,5.378307032376089,-0.0,0.28140684962272644,-1.6039579550372522,0.0,-0.0030657360330224037,0.8116717338562012,-0.0,-0.002877050545066595,0.8942739963531494,0.0,0.017111342400312424
8190.0,8190.0,0.7023,0.2692,9.5563,-0.0351,0.0325,-0.1271,-1.611673494378561,0.0,1.7523698806762695,-2.3361761569976807,-0.0,1.595794439315796,5.378303277283468,-0.0,0.28983423113822937,-1.6039541403399866,0.0,-0.007564449682831764,0.8117035627365112,-0.0,-0.0004052087606396526,0.8942494988441467,0.0,0.01521984115242958
8190.0,8190.0,0.7023,0.2692,9.5563,-0.0351,0.0325,-0.1271,-1.6116816006102503,0.0,1.7536436319351196,-2.3361644744873047,-0.0,1.6084579229354858,5.378343510418691,-0.0,0.29116111993789673,-1.6039417425738733,0.0,0.004138663411140442,0.8117075562477112,-0.0,-0.00230931187979877,0.8942978382110596,0.0,0.020292991772294044
8190.0,8190.0,0.7023,0.2692,9.5563,-0.0351,0.0325,-0.1271,-1.6116777859129847,0.0,1.7691359519958496,-2.3361926078796387,-0.0,1.5911540985107422,5.378302979260244,-0.0,0.28503671288490295,-1.6039093176471155,0.0,-0.008540782146155834,0.8117634654045105,-0.0,-0.007937395945191383,0.8942941427230835,0.0,0.0012787124142050743
8190.0,8190.0,0.7023,0.2692,9.5563,-0.0351,0.0325,-0.1271,-1.611685415307516,0.0,1.7227561473846436,-2.3361194133758545,-0.0,1.5881080627441406,5.378303277283468,-0.0,0.27664241194725037,-1.6039417425738733,0.0,0.006060492247343063,0.8117353916168213,-0.0,-0.005069486331194639,0.8942899703979492,0.0,0.00553644634783268
8190.0,8190.0,0.7023,0.2692,9.5563,-0.0351,0.0325,-0.1271,-1.6117016277708949,0.0,1.7133400440216064,-2.3361728191375732,-0.0,1.5612561702728271,5.378335284977712,-0.0,0.2903527021408081,-1.6039302984820765,0.0,-0.015304257161915302,0.8117313385009766,-0.0,0.002612123731523752,0.8942899703979492,0.0,-0.016102204099297523
8190.0,8190.0,0.7023,0.2692,9.5563,-0.0351,0.0325,-0.1271,-1.611725469628805,0.0,1.7600135803222656,-2.336164712905884,-0.0,1.595842957496643,5.378307032376089,-0.0,0.29162806272506714,-1.6039302984820765,0.0,0.002154717920348048,0.8117273449897766,-0.0,0.011751789599657059,0.8942781686782837,0.0,0.03003856912255287
1038.0,903.0,0.6233,0.1998,9.4834,-0.0353,0.0275,-0.1118,-1.6116897068419398,0.0,1.799363613128662,-2.3362205028533936,-0.0,1.5784392356872559,5.378307032376089,-0.0,0.2876405119895935,-1.603934113179342,0.0,-0.008196801878511906,0.8117154836654663,-0.0,-0.016155628487467766,0.894281804561615,0.0,-0.007850224152207375
1038.0,903.0,0.6233,0.1998,9.4834,-0.0353,0.0275,-0.1118,-1.6116935215392054,0.0,1.763213038444519,-2.3361315727233887,-0.0,1.6237843036651611,5.378319310932913,-0.0,0.27950748801231384,-1.6038849989520472,0.0,-0.00702732615172863,0.8116995096206665,-0.0,-0.001155700534582138,0.894281804561615,0.0,-0.02364533022046089
1038.0,903.0,0.6233,0.1998,9.4834,-0.0353,0.0275,-0.1118,-1.611673494378561,0.0,1.7630372047424316,-2.3361563682556152,-0.0,1.6002154350280762,5.378295111447134,-0.0,0.295510858297348,-1.6039498488055628,0.0,-0.0002913977950811386,0.8117274641990662,-0.0,-0.011555265635251999,0.8942494988441467,0.0,0.0010457758326083422
1038.0,903.0,0.6233,0.1998,9.4834,-0.0353,0.0275,-0.1118,-1.61171354869985,0.0,1.744561791419983,-2.336160659790039,-0.0,1.5961921215057373,5.378367292671957,-0.0,0.2955568730831146,-1.6039260069476526,0.0,-0.0004109568544663489,0.8117035627365112,-0.0,0.008208523504436016,0.8943220376968384,0.0,-0.03286279737949371
1038.0,903.0,0.6233,0.1998,9.4834,-0.0353,0.0275,-0.1118,-1.6117054424681605,0.0,1.7735960483551025,-2.3361480236053467,-0.0,1.6100170612335205,5.378311145096578,-0.0,0.28693437576293945,-1.6039093176471155,0.0,-0.006887457799166441,0.8117274641990662,-0.0,0.004942318424582481,0.894290030002594,0.0,0.0089222127571702
1038.0,903.0,0.6233,0.1998,9.4834,-0.0353,0.0275,-0.1118,-1.6116811237730921,0.0,1.8280333280563354,-2.3361644744873047,-0.0,1.5470856428146362,5.378315198212423,-0.0,0.2880382835865021,-1.6039260069476526,0.0,-0.004103697370737791,0.8117634654045105,-0.0,-0.004653057083487511,0.8942297697067261,0.0,-0.005797374062240124
1038.0,903.0,0.6233,0.1998,9.4834,-0.0353,0.0275,-0.1118,-1.611685415307516,0.0,1.7198821306228638,-2.3361730575561523,-0.0,1.52949857711792,5.378331172257223,-0.0,0.2886299192905426,-1.6039665381061,0.0,-0.014326170086860657,0.8117035031318665,-0.0,-0.0001685023307800293,0.8943101763725281,0.0,0.02658330835402012
1038.0,903.0,0.6233,0.1998,9.4834,-0.0353,0.0275,-0.1118,-1.6117054424681605,0.0,1.7412501573562622,-2.3362205028533936,-0.0,1.615382194519043,5.378299224167623,-0.0,0.28244274854660034,-1.6039374510394495,0.0,0.0003577785100787878,0.8117114901542664,-0.0,-0.0005658986046910286,0.8943019509315491,0.0,0.027153901755809784
1038.0,903.0,0.6233,0.1998,9.4834,-0.0353,0.0275,-0.1118,-1.611685415307516,0.0,1.7736384868621826,-2.3361761569976807,-0.0,1.5960288047790527,5.378339338093557,-1.633112667320802e-08,0.2806459963321686,-1.6039260069476526,0.0,-0.012266453355550766,0.8117393851280212,-0.0,0.006078989244997501,0.8942739963531494,0.0,0.010920392349362373
1038.0,903.0,0.6233,0.1998,9.4834,-0.0353,0.0275,-0.1118,-1.61171354869985,0.0,1.7845871448516846,-2.336164712905884,-0.0,1.6258525848388672,5.378279197006979,-2.968101296425135e-13,0.27852994203567505,-1.6039417425738733,0.0,-0.0009833660442382097,0.8117274641990662,-0.0,-0.007765291724354029,0.8942695260047913,0.0,-0.019647113978862762
1038.0,903.0,0.6233,0.1998,9.4834,-0.0353,0.0275,-0.1118,-1.6116811237730921,0.0,1.7585840225219727,-2.3361926078796387,-0.0,1.5872302055358887,5.378335284977712,-5.394377714654846e-18,0.2946317791938782,-1.6039260069476526,0.0,0.0037647816352546215,0.8117595314979553,-0.0,0.0015986725920811296,0.8942494988441467,0.0,-0.036691345274448395
8190.0,976.0,0.737,0.1681,9.5067,-0.0342,0.0322,-0.1145,-1.6117297611632289,0.0,1.7672817707061768,-2.336123466491699,-0.0,1.6003310680389404,5.378299224167623,-6.401320283790368e-24,0.28438830375671387,-1.6039016882525843,0.0,-0.007575583644211292,0.8117555975914001,-0.0,-0.009888708591461182,0.8943019509315491,0.0,0.0032121865078806877
8190.0,976.0,0.737,0.1681,9.5067,-0.0342,0.0322,-0.1145,-1.6117497883238734,0.0,1.7354075908660889,-2.336120128631592,-0.0,1.5648322105407715,5.378270971566,-1.1634084181975285e-28,0.27591338753700256,-1.6039331595050257,0.0,-0.00481755007058382,0.8117516040802002,-0.0,-0.01893632300198078,0.8943138718605042,0.0,0.0340232253074646
8190.0,976.0,0.737,0.1681,9.5067,-0.0342,0.0322,-0.1145,-1.61171354869985,0.0,1.8175811767578125,-2.3362162113189697,-0.0,1.602220058441162,5.378295528679647,-2.1144373612728827e-33,0.28535497188568115,-1.6039541403399866,0.0,-0.009059734642505646,0.8117194771766663,-0.0,-0.009932874701917171,0.8942977786064148,0.0,-0.02450381964445114
8190.0,976.0,0.737,0.1681,9.5067,-0.0342,0.0322,-0.1145,-1.6117497883238734,0.0,1.760767936706543,-2.336232900619507,-0.0,1.623978614807129,5.378290998726644,-3.842886156362463e-38,0.29527926445007324,-1.6039374510394495,0.0,-0.0050893863663077354,0.8117555975914001,-0.0,-0.0037104205694049597,0.8943219780921936,0.0,0.01923367567360401
8190.0,976.0,0.737,0.1681,9.5067,-0.0342,0.0322,-0.1145,-1.6117297611632289,0.0,1.7902978658676147,-2.3361523151397705,-0.0,1.571666955947876,5.378291058331289,-6.978466352337589e-43,0.2848582863807678,-1.6039541403399866,0.0,-0.002777172951027751,0.8117075562477112,-0.0,-0.0019517120672389865,0.8942777514457703,0.0,0.012616729363799095
8190.0,976.0,0.737,0.1681,9.5067,-0.0342,0.0322,-0.1145,-1.611697336236471,0.0,1.7455363273620605,-2.3362162113189697,-0.0,1.6100775003433228,5.378283190518179,-0.0,0.27769923210144043,-1.6039741675006312,0.0,-0.006690737325698137,0.8117075562477112,-0.0,0.0034039709717035294,0.8943302035331726,0.0,-0.015126927755773067
8190.0,976.0,0.737,0.1681,9.5067,-0.0342,0.0322,-0.1145,-1.6116653881468714,-4.3324107537046075e-05,1.800649642944336,-2.3362040519714355,-0.0,1.5852992534637451,5.3782991645629785,-0.0,0.303096741437912,-1.6039374510394495,0.0,-0.005375816021114588,0.8117715120315552,-0.0,0.0055937557481229305,0.894281804561615,0.0,0.00790712796151638
8190.0,976.0,0.737,0.1681,9.5067,-0.0342,0.0322,-0.1145,-1.6117259464659632,-3.951930921175517e-05,1.7936110496520996,-2.3361356258392334,-0.0,1.5898756980895996,5.378270971566,-0.0,0.29187601804733276,-1.603945557271139,0.0,0.002532126847654581,0.8117353916168213,-0.0,-0.010826167650520802,0.8942699432373047,0.0,-0.0017233784310519695
8190.0,976.0,0.737,0.1681,9.5067,-0.0342,0.0322,-0.1145,-1.6116892300047816,-3.632890366134234e-05,1.7004482746124268,-2.3361523151397705,-0.0,1.5887422561645508,5.378299224167623,-0.0,0.3117983639240265,-1.6039498488055628,0.0,0.0018474690150469542,0.8117516040802002,-0.0,-0.00024335086345672607,0.8942576050758362,0.0,0.027126174420118332
8190.0,976.0,0.737,0.1681,9.5067,-0.0342,0.0322,-0.1145,-1.6117173633971156,-3.361515700817108e-05,1.7461317777633667,-2.3361523151397705,-0.0,1.568281650543213,5.378319310932913,-0.0,0.2944316267967224,-1.603889290486471,0.0,0.0017736240988597274,0.8117995262145996,-0.0,-0.01186021976172924,0.894290030002594,0.0,0.0016755340620875359
8190.0,976.0,0.737,0.1681,9.5067,-0.0342,0.0322,-0.1145,-1.6117016277708949,-3.127867239527404e-05,1.7512727975845337,-2.3361728191375732,-0.0,1.6053166389465332,5.378299224167623,-0.0,0.2887106239795685,-1.6039260069476526,0.0,-0.006231005769222975,0.8117154240608215,-0.0,0.011217594146728516,0.8942978382110596,0.0,-0.06116586923599243
1013.0,8190.0,0.6987,0.0634,9.6365,-0.036,0.0252,-0.1098,-1.6116773090758265,-4.316476406529546e-05,1.7688664197921753,-2.3361399173736572,-0.0,1.6052240133285522,5.378270911961355,-7.423488568747416e-05,0.2880460023880005,-1.6039136091815394,0.0,0.0008257626905106008,0.8116840124130249,-0.0,0.004388320259749889,0.8942776918411255,0.0,-0.0018803911516442895
1013.0,8190.0,0.6987,0.0634,9.6365,-0.036,0.0252,-0.1098,-1.6116892300047816,-6.0788534028688446e-05,1.7632508277893066,-2.336200714111328,-0.0,1.5851494073867798,5.3783073900039575,-6.963979103602469e-05,0.2777711749076843,-1.6039660612689417,0.0,-0.0022171628661453724,0.8117634057998657,-0.0,0.0012549653183668852,0.8942855596542358,0.0,-0.015700211748480797
1013.0,8190.0,0.6987,0.0634,9.6365,-0.036,0.0252,-0.1098,-1.611781736413473,-0.00013128099089954048,1.7601454257965088,-2.336188554763794,-0.0,1.5819635391235352,5.378315198212423,-6.558022141689435e-05,0.2907782793045044,-1.6039541403399866,0.0,0.002884307876229286,0.8118074536323547,-0.0,-0.011826233938336372,0.8942978382110596,0.0,0.016976045444607735
1013.0,8190.0,0.6987,0.0634,9.6365,-0.036,0.0252,-0.1098,-1.6117454967894496,-0.0007862712955102324,1.7532954216003418,-2.3361523151397705,-0.0,1.6576099395751953,5.378287243634023,-6.196788308443502e-05,0.2876228094100952,-1.6039498488055628,0.0,-0.010024653747677803,0.8117634057998657,-0.0,0.0062008146196603775,0.8942855596542358,0.0,0.013215901330113411
1013.0,8190.0,0.6987,0.0634,9.6365,-0.036,0.0252,-0.1098,-1.6117617092528285,-0.0007453394937328994,1.748457670211792,-2.336172103881836,-0.0,1.5819814205169678,5.378327536373892,-5.873275949852541e-05,0.29267746210098267,-1.6039579550372522,0.0,0.0007927860133349895,0.8117194175720215,-0.0,-0.00588444247841835,0.8943461775779724,0.0,-0.029573015868663788
1013.0,8190.0,0.6987,0.0634,9.6365,-0.036,0.0252,-0.1098,-1.6117812595763148,-0.0006706787389703095,1.7477189302444458,-2.3361728191375732,-0.0,1.6001715660095215,5.378363239556112,-5.5818669352447614e-05,0.29252889752388,-1.6039302984820765,0.0,-0.009035611525177956,0.8117514848709106,-0.0,0.011039990931749344,0.8943378925323486,5.404896000982262e-05,0.007385672070086002
1013.0,8190.0,0.6987,0.0634,9.6365,-0.036,0.0252,-0.1098,-1.6117412052550257,-0.0015344331040978432,1.7491333484649658,-2.3360962867736816,5.020205140482403e-09,1.5420012474060059,5.378287243634023,-5.255896394373849e-05,0.2889857888221741,-1.6039179007159632,0.0,-0.008855805732309818,0.8117594718933105,-0.0,-0.022541208192706108,0.8943496942520142,0.000500787456985563,-0.0007597547955811024
1013.0,8190.0,0.6987,0.0634,9.6365,-0.036,0.0252,-0.1098,-1.6117974720396937,-0.0009941310854628682,1.7597017288208008,-2.3361563682556152,0.0027884163428097963,1.577509880065918,5.378311502724447,-5.767511538579129e-05,0.2883411943912506,-1.6039579550372522,0.0,-0.014546223916113377,0.8117753267288208,-0.0,0.0076108151115477085,0.8943779468536377,0.0013797130668535829,0.019106626510620117
1013.0,8190.0,0.6987,0.0634,9.6365,-0.036,0.0252,-0.1098,-1.6118055782713832,-0.0004221606068313122,1.8069217205047607,-2.3361446857452393,0.005395575426518917,1.6148618459701538,5.378315675049581,-1.6540411706955638e-08,0.2933086156845093,-1.6039331595050257,0.0,-0.006722405552864075,0.8117555379867554,-0.0,-0.007360681891441345,0.8943577408790588,0.0007902379147708416,-0.03277973830699921
1013.0,8190.0,0.6987,0.0634,9.6365,-0.036,0.0252,-0.1098,-1.6118136845030726,-0.00010445816587889567,1.764613151550293,-2.336012363433838,0.008620944805443287,1.5924642086029053,5.3782832501228235,-0.0014625572366639972,0.2784688174724579,-1.6039374510394495,0.0,-0.007227720692753792,0.8117634057998657,-0.0,-0.005140147637575865,0.8944143056869507,0.0006447188789024949,-0.002645476721227169
1013.0,8190.0,0.6987,0.0634,9.6365,-0.036,0.0252,-0.1098,-1.611788888970846,-0.00028446968644857407,1.729967474937439,-2.335916042327881,0.011964965611696243,1.6139750480651855,5.378247308522024,-0.005435267463326454,0.2838985025882721,-1.60392934480776,0.0,-0.008884750306606293,0.8117555379867554,-0.0,-0.0052602244541049,0.8943939208984375,0.0006215414614416659,0.05689125135540962
8190.0,969.0,0.7813,0.28,9.4379,-0.0389,0.0417,-0.1245,-1.6118370495238246,-0.002066117012873292,1.772444486618042,-2.335749387741089,0.015618045814335346,1.6016614437103271,5.378143358021536,-0.014636155217885971,0.2883142828941345,-1.6039302984820765,0.0,-0.005955828353762627,0.8118197321891785,9.255507507077709e-07,-0.005218029022216797,0.8944138884544373,0.0009214264573529363,0.018794236704707146
8190.0,969.0,0.7813,0.28,9.4379,-0.0389,0.0417,-0.1245,-1.6118532619872035,-0.0023342014756053686,1.7938590049743652,-2.3356497287750244,0.018657419830560684,1.6347322463989258,5.378043699055471,-0.008470608852803707,0.2744131088256836,-1.6039302984820765,0.0,-0.0017056182259693742,0.8118388056755066,1.682142793113517e-11,0.004555124323815107,0.8944180011749268,0.0009756455547176301,-0.015052772127091885
8190.0,969.0,0.7813,0.28,9.4379,-0.0389,0.0417,-0.1245,-1.6119333706297816,-0.0035071000456809998,1.785019040107727,-2.33549427986145,0.01880737394094467,1.6082563400268555,5.378060149937429,-0.0012933786492794752,0.27998292446136475,-1.6039136091815394,0.0,-0.012943819165229797,0.8118113279342651,3.057211633694911e-16,-0.005873017478734255,0.8944582343101501,0.0006892784149385989,0.03502083197236061
8190.0,969.0,0.7813,0.28,9.4379,-0.0389,0.0417,-0.1245,-1.611941476861471,-0.0051309531554579735,1.7721331119537354,-2.3353421688079834,0.01860252022743225,1.6062591075897217,5.378084349423208,0.0004742335877381265,0.2940368056297302,-1.6038854757892054,0.0,0.0020998867694288492,0.8117634057998657,5.556330502057808e-21,0.013283070176839828,0.8944220542907715,0.0004983744001947343,-0.005462829954922199
8190.0,969.0,0.7813,0.28,9.4379,-0.0389,0.0417,-0.1245,-1.6120335064330042,-0.0062030223198235035,1.7877936363220215,-2.33524751663208,0.01778174564242363,1.6185944080352783,5.378039705544271,0.00027832461637444794,0.29015374183654785,-1.6038854757892054,0.0,0.002375623444095254,0.8118229508399963,1.0098358208046648e-25,0.01455732248723507,0.894410252571106,0.0003415073442738503,-0.03627472370862961
8190.0,969.0,0.7813,0.28,9.4379,-0.0389,0.0417,-0.1245,-1.6120206318297328,-0.006245046388357878,1.75990629196167,-2.3350868225097656,0.016127659007906914,1.6491742134094238,5.378100025444784,0.00026234338292852044,0.2862494885921478,-1.6039097944842737,0.0,-0.013239623978734016,0.8118034601211548,1.8353266014077766e-30,0.0077271778136491776,0.8943536281585693,0.00028064800426363945,0.03437112644314766
8190.0,969.0,0.7813,0.28,9.4379,-0.0389,0.0417,-0.1245,-1.6120645008482875,-0.005516273435205221,1.7679698467254639,-2.3349077701568604,0.0136445052921772,1.6366462707519531,5.378100025444784,0.0001924311218317598,0.27506089210510254,-1.603905979787008,0.0,0.0035652129445225,0.8118197321891785,2.1779184313177204e-36,0.01511676236987114,0.894410252571106,7.508153794333339e-05,0.03647071123123169
8190.0,969.0,0.7813,0.28,9.4379,-0.0389,0.0417,-0.1245,-1.6121489010252894,-0.00460284948348999,1.7478883266448975,-2.334791660308838,0.013370439410209656,1.6802163124084473,5.378111946373739,0.00015852622163947672,0.275240957736969,-1.6038854757892054,0.0,-0.010449412278831005,0.8118271231651306,3.958247772178311e-41,0.0193755142390728,0.8944267630577087,3.2224077585851774e-05,-0.012433238327503204
8190.0,969.0,0.7813,0.28,9.4379,-0.0389,0.0417,-0.1245,-1.6121651134886683,-0.003919190261512995,1.7720171213150024,-2.3347201347351074,0.01260214950889349,1.6034356355667114,5.378072070866384,7.480525528080761e-05,0.2863938808441162,-1.6038778463946741,0.0,0.007352270185947418,0.8118230700492859,0.00013690927880816162,0.016295595094561577,0.894410252571106,1.3373271201544412e-07,-0.013123035430908203
8190.0,969.0,0.7813,0.28,9.4379,-0.0389,0.0417,-0.1245,-1.6122003994383753,-0.003016584785655141,1.7869701385498047,-2.334531545639038,0.01280053798109293,1.6321232318878174,5.3780478713806055,6.412740185623989e-05,0.2785024642944336,-1.603882137929098,1.5144859588644977e-08,0.0003521325415931642,0.8117794990539551,0.0001465043460484594,0.027818545699119568,0.8943939208984375,4.3327696133330356e-15,-0.06788280606269836
8190.0,969.0,0.7813,0.28,9.4379,-0.0389,0.0417,-0.1245,-1.6122166119017542,-0.002758536022156477,1.6994034051895142,-2.3344602584838867,0.0128505052998662,1.636643886566162,5.378051984101095,2.9027718483121134e-05,0.26944229006767273,-1.6038411299334925,2.7525033576177027e-13,0.006429195404052734,0.8118354082107544,0.00015418734983541071,0.040140848606824875,0.8943496942520142,1.403762203622686e-22,0.011337214149534702
985.0,975.0,0.5976,0.3745,9.7908,-0.0229,0.046,-0.1191,-1.6122609577574671,-0.003275360446423292,1.7063472270965576,-2.3343212604522705,0.01350109651684761,1.6402807235717773,5.378047454148092,1.0940668460079905e-07,0.25358694791793823,-1.6038091818438929,0.00047383885248564184,0.01771031692624092,0.8117549419403076,0.00015717107453383505,0.02784718945622444,0.8943979740142822,6.101737856085892e-32,-0.05316978320479393
985.0,975.0,0.5976,0.3745,9.7908,-0.0229,0.046,-0.1191,-1.612317224542135,-0.004413443151861429,1.682039499282837,-2.334225654602051,0.015125712379813194,1.66898775100708,5.378099965840139,1.988412256029304e-12,0.26036137342453003,-1.603894058858053,0.000438213930465281,0.008915761485695839,0.8118554353713989,0.00022584100952371955,0.01763606071472168,0.8943860530853271,1.9768860124416287e-39,-0.012582294642925262
985.0,975.0,0.5976,0.3745,9.7908,-0.0229,0.046,-0.1191,-1.6123329601683558,-0.006860501132905483,1.6609172821044922,-2.3340530395507812,0.01856510527431965,1.640714406967163,5.3780680177505396,3.613840923169851e-17,0.2600213289260864,-1.6038983503924769,0.00045700534246861935,0.025779062882065773,0.8118632435798645,0.00022569089196622372,0.04356750100851059,0.8943779468536377,0.0,-0.06914535164833069
985.0,975.0,0.5976,0.3745,9.7908,-0.0229,0.046,-0.1191,-1.6123973331847132,-0.008704369887709618,1.6242567300796509,-2.3339221477508545,0.020628364756703377,1.6802325248718262,5.378067958145895,-0.00012643700756598264,0.2411501705646515,-1.603894058858053,0.0003919069713447243,0.044963616877794266,0.8117992281913757,0.00022529653506353498,0.050649624317884445,0.8943619132041931,0.0,-0.052723269909620285
985.0,975.0,0.5976,0.3745,9.7908,-0.0229,0.046,-0.1191,-1.6125132046141566,-0.011701185256242752,1.661571741104126,-2.333742141723633,0.025278419256210327,1.6860201358795166,5.378072070866384,-0.0006397027755156159,0.24102303385734558,-1.6038535276996058,0.00035436777397990227,0.03972581773996353,0.8118190765380859,0.00022360929870046675,0.05067965388298035,0.8944380879402161,-3.955551073886454e-05,-0.07233741879463196
985.0,975.0,0.5976,0.3745,9.7908,-0.0229,0.046,-0.1191,-1.6125685177245082,-0.01256029773503542,1.6672484874725342,-2.3335273265838623,0.03150816634297371,1.6958611011505127,5.378031897335806,-0.000693864596541971,0.24822846055030823,-1.6038535276996058,0.0003094577987212688,0.035671837627887726,0.8118230700492859,0.00020039992523379624,0.044403985142707825,0.8944385647773743,-1.0186103696629978e-11,-0.05264321342110634
985.0,975.0,0.5976,0.3745,9.7908,-0.0229,0.046,-0.1191,-1.6127168140807093,-0.01437141839414835,1.6406004428863525,-2.3330955505371094,0.041049256920814514,1.7546396255493164,5.378040003567495,-0.0006654250901192427,0.23929807543754578,-1.6038616339312952,0.0002688532695174217,0.04392336681485176,0.8118312358856201,0.00018115861166734248,0.040965478867292404,0.8944143056869507,-4.42759691589267e-21,-0.08967964351177216
985.0,975.0,0.5976,0.3745,9.7908,-0.0229,0.046,-0.1191,-1.6128727398314417,-0.016601908951997757,1.617806077003479,-2.332780599594116,0.04864091798663139,1.7742793560028076,5.37802408912734,-0.0011812507873401046,0.22980625927448273,-1.6038702170001429,0.00023391138529404998,0.04169796407222748,0.8118632435798645,0.00018695549806579947,0.04800108075141907,0.8943820595741272,-1.4344851041705978e-28,-0.12209752202033997
985.0,975.0,0.5976,0.3745,9.7908,-0.0229,0.046,-0.1191,-1.6130291424193324,-0.019092950969934464,1.5773627758026123,-2.332317352294922,0.054997995495796204,1.7897931337356567,5.3780643222625635,-0.0014384625246748328,0.2326829433441162,-1.6038335005389612,0.00017279648454859853,0.0436619371175766,0.8118394017219543,0.00016442748892586678,0.047450870275497437,0.8944060802459717,-4.647549087589638e-36,-0.12019004672765732
985.0,975.0,0.5976,0.3745,9.7908,-0.0229,0.046,-0.1191,-1.6131726704039515,-0.021729707717895508,1.642067313194275,-2.331890344619751,0.06260238587856293,1.786399483680725,5.378008174687185,-0.0012900669826194644,0.23243196308612823,-1.6038172880755823,0.00014967925380915403,0.053098469972610474,0.8118230700492859,0.00017016772471833974,0.050306178629398346,0.8943779468536377,-1.4993893568275543e-43,-0.11893853545188904
8190.0,8190.0,0.5013,0.2183,9.7442,-0.0368,0.1156,-0.1324,-1.6133800945677699,-0.02531907521188259,1.6276838779449463,-2.331343412399292,0.07300181686878204,1.7917028665542603,5.377972054272451,-0.0011541099520400167,0.2352173924446106,-1.603865925465719,0.0001550329034216702,0.04535660892724991,0.8118632435798645,0.00015425338642671704,0.06116503104567528,0.8943897485733032,0.0,-0.13825879991054535
8190.0,8190.0,0.5013,0.2183,9.7442,-0.0368,0.1156,-0.1324,-1.6136404476561488,-0.02901454269886017,1.6060283184051514,-2.330521583557129,0.08374231308698654,1.773221492767334,5.378008174687185,-0.001720702857710421,0.22581076622009277,-1.6038296858416956,0.0001382308837492019,0.059355467557907104,0.8119080066680908,0.0001567221333971247,0.05781571567058563,0.8944262266159058,0.0,-0.13780000805854797
8190.0,8190.0,0.5013,0.2183,9.7442,-0.0368,0.1156,-0.1324,-1.613908430139059,-0.03554847091436386,1.57132887840271,-2.329827308654785,0.08989807963371277,1.8504412174224854,5.377968060761251,-0.0028251351322978735,0.23378248512744904,-1.6038616339312952,0.00014619606372434646,0.0522226020693779,0.8118345737457275,0.00014445558190345764,0.058317895978689194,0.8944302797317505,0.0,-0.06775976717472076
8190.0,8190.0,0.5013,0.2183,9.7442,-0.0368,0.1156,-0.1324,-1.614131589929098,-0.03881702199578285,1.5824379920959473,-2.3290367126464844,0.09648103266954422,1.8202509880065918,5.377956139832296,-0.0022944665979593992,0.24130743741989136,-1.6038416067706507,0.00014326073869597167,0.0645388662815094,0.8118431568145752,0.00013372341345530003,0.06803092360496521,0.8944340348243713,0.0,-0.15054361522197723
8190.0,8190.0,0.5013,0.2183,9.7442,-0.0368,0.1156,-0.1324,-1.6145407162108363,-0.03993940353393555,1.597562551498413,-2.328219175338745,0.10765764862298965,1.8320804834365845,5.377936708718099,-0.0017808543052524328,0.2323119044303894,-1.6038053671466272,0.00014099526742938906,0.061437830328941345,0.8118390440940857,0.00012204006634419784,0.054395891726017,0.894410252571106,0.0,-0.1174282431602478
8190.0,8190.0,0.5013,0.2183,9.7442,-0.0368,0.1156,-0.1324,-1.6148354015746058,-0.04339855909347534,1.5122718811035156,-2.327321767807007,0.11717692762613297,1.8159193992614746,5.377884316235342,-0.0032943524420261383,0.22617000341415405,-1.6038215796100062,0.0001447244721930474,0.05607450753450394,0.8118628263473511,0.00012091604730812833,0.05266007035970688,0.8943938612937927,0.0,-0.08565778285264969
8190.0,8190.0,0.5013,0.2183,9.7442,-0.0368,0.1156,-0.1324,-1.6152268848814906,-0.05072751268744469,1.559068202972412,-2.3263320922851562,0.13134567439556122,1.8566923141479492,5.377796160965719,-0.004702191334217787,0.22014208137989044,-1.6038296858416956,0.00015353715571109205,0.05962904542684555,0.8118674159049988,0.000120337943371851,0.04897027462720871,0.8943856358528137,0.0,-0.04250941425561905
8190.0,8190.0,0.5013,0.2183,9.7442,-0.0368,0.1156,-0.1324,-1.6157227955260218,-0.06077380105853081,1.5187854766845703,-2.3249034881591797,0.14735457301139832,1.88352370262146,5.377828228264608,-0.0029632614459842443,0.21010515093803406,-1.6038220564471644,0.00015684956451877952,0.07005096971988678,0.8118271231651306,0.00010827329242601991,0.053970374166965485,0.8943897485733032,0.0,-0.10855653882026672
8190.0,8190.0,0.5013,0.2183,9.7442,-0.0368,0.1156,-0.1324,-1.6162430248656214,-0.07031482458114624,1.5116411447525024,-2.3236982822418213,0.1550249606370926,1.9003405570983887,5.377848613053121,-0.0016686677699908614,0.22283484041690826,-1.6038616339312952,0.0001636544766370207,0.057144299149513245,0.8118711113929749,0.00011637526768026873,0.05783294141292572,0.8943897485733032,0.0,-0.09434279799461365
8190.0,8190.0,0.5013,0.2183,9.7442,-0.0368,0.1156,-0.1324,-1.6168343029417933,-0.07706665992736816,1.5508160591125488,-2.3224453926086426,0.16817115247249603,1.9129810333251953,5.377820002823629,-0.0008185136830434203,0.2254253625869751,-1.6038497130023401,0.0002491553022991866,0.06292452663183212,0.8118993043899536,0.00010885709343710914,0.05898565798997879,0.8943897485733032,0.0,-0.12272175401449203
8190.0,8190.0,0.5013,0.2183,9.7442,-0.0368,0.1156,-0.1324,-1.6174856624998988,-0.08657319843769073,1.5320931673049927,-2.321016550064087,0.18807964026927948,1.9172685146331787,5.377792763500967,-0.0006045773043297231,0.22829362750053406,-1.6038458983050745,0.0002449688909109682,0.05267150327563286,0.811834990978241,0.00010181976540479809,0.06163126602768898,0.8943659663200378,0.0,-0.13463634252548218
996.0,985.0,-0.317,0.5755,9.8136,-0.0192,0.1759,-0.1261,-1.618277212182516,-0.09598854929208755,1.5679311752319336,-2.319528579711914,0.1972319781780243,1.938164234161377,5.377796578198232,-0.001159120351076126,0.2298196256160736,-1.6038416067706507,0.000239558081375435,0.07043642550706863,0.8118669986724854,9.563686762703583e-05,0.0556374192237854,0.8943737149238586,0.0,-0.07083890587091446
996.0,985.0,-0.317,0.5755,9.8136,-0.0192,0.1759,-0.1261,-1.6193491421141566,-0.10425902903079987,1.524540901184082,-2.3173975944519043,0.20517386496067047,1.9683856964111328,5.377844500332632,-0.0007364196935668588,0.2173490673303604,-1.603865925465719,0.00020293767738621682,0.05769366770982742,0.8118468523025513,8.88899085111916e-05,0.06830640882253647,0.8943656086921692,0.0,-0.057012397795915604
996.0,985.0,-0.317,0.5755,9.8136,-0.0192,0.1759,-0.1261,-1.620192667047018,-0.10559748858213425,1.509033203125,-2.3157217502593994,0.22338160872459412,1.9914493560791016,5.377808797150411,-0.00024096590641420335,0.2256520837545395,-1.6037934462176722,0.00017977194511331618,0.05517594516277313,0.8118026256561279,9.605747618479654e-05,0.057669658213853836,0.8944098353385925,0.0,-0.05030941218137741
996.0,985.0,-0.317,0.5755,9.8136,-0.0192,0.1759,-0.1261,-1.621030946771139,-0.11480087786912918,1.5394833087921143,-2.313837766647339,0.22935469448566437,2.0431747436523438,5.377800869732656,-0.0012699816143140197,0.21920840442180634,-1.6038053671466272,0.00016135330952238292,0.06968283653259277,0.8119115829467773,9.128454985329881e-05,0.06773170828819275,0.8944098949432373,0.0,0.01867752894759178
996.0,985.0,-0.317,0.5755,9.8136,-0.0192,0.1759,-0.1261,-1.6220351658263148,-0.13290628790855408,1.5374574661254883,-2.3119354248046875,0.23333746194839478,1.9425675868988037,5.377828883915701,-0.0011793049052357674,0.21795639395713806,-1.6038053671466272,0.0001463589142076671,0.06054570525884628,0.8118956089019775,8.68786737555638e-05,0.07140479981899261,0.8944299221038818,0.0,-0.06499935686588287
996.0,985.0,-0.317,0.5755,9.8136,-0.0192,0.1759,-0.1261,-1.62308992962026,-0.14531992375850677,1.4764550924301147,-2.3100080490112305,0.257016122341156,1.9805493354797363,5.377832281380453,-7.970137403390254e-07,0.21757906675338745,-1.6038458983050745,0.00013391415996011347,0.058631785213947296,0.8118067383766174,8.287841774290428e-05,0.0639648586511612,0.894410252571106,0.0,-0.016993898898363113
996.0,985.0,-0.317,0.5755,9.8136,-0.0192,0.1759,-0.1261,-1.6243211231627406,-0.14823640882968903,1.5202702283859253,-2.307889223098755,0.2634197175502777,2.027778148651123,5.377796876221456,-1.4485331337188434e-11,0.21446111798286438,-1.6038134733783167,0.0001234200899489224,0.040967632085084915,0.8117902874946594,7.878795440774411e-05,0.06749629229307175,0.894413948059082,0.0,-0.07557299733161926
996.0,985.0,-0.317,0.5755,9.8136,-0.0192,0.1759,-0.1261,-1.6259643040099085,-0.15130309760570526,1.520634412765503,-2.3051466941833496,0.2769659161567688,2.0733001232147217,5.377848613053121,-1.7189239954047992e-17,0.2174385040998459,-1.6038101355182093,0.00011240910680498928,0.055807001888751984,0.8118390440940857,7.244890730362386e-05,0.0530613511800766,0.8944258093833923,0.0,-0.04469374939799309
996.0,985.0,-0.317,0.5755,9.8136,-0.0192,0.1759,-0.1261,-1.6272789440550746,-0.1716218739748001,1.5031101703643799,-2.302961587905884,0.2942672073841095,2.0739083290100098,5.377772795944967,-3.1240595786307345e-22,0.21887221932411194,-1.6038134733783167,0.00010492062574485317,0.04400557652115822,0.8118628263473511,6.80654266034253e-05,0.06423983722925186,0.8944540023803711,0.0003507347428239882,-0.0009285029955208302
996.0,985.0,-0.317,0.5755,9.8136,-0.0192,0.1759,-0.1261,-1.628702302972311,-0.19704478979110718,1.4662452936172485,-2.3006467819213867,0.294505774974823,2.055302619934082,5.377789246826925,-0.0037753027863800526,0.20706692337989807,-1.6038134733783167,9.836767276283354e-05,0.052920952439308167,0.8118791580200195,6.418216798920184e-05,0.05402710288763046,0.8944220542907715,0.0005798421916551888,0.009010336361825466
996.0,985.0,-0.317,0.5755,9.8136,-0.0192,0.1759,-0.1261,-1.6303373775877894,-0.2049458622932434,1.430741786956787,-2.2981486320495605,0.310039758682251,2.103440284729004,5.377800929337301,-0.0007086904952302575,0.22252370417118073,-1.6038296858416956,0.000105809755041264,0.062040552496910095,0.8118751645088196,6.071813913877122e-05,0.06144016981124878,0.8944098353385925,0.0003803913714364171,-0.016252661123871803
8190.0,969.0,-0.0203,0.347,9.6168,-0.0159,0.1171,-0.1098,-1.6319729290404261,-0.1986396759748459,1.4226765632629395,-2.295647144317627,0.33039048314094543,2.1604788303375244,5.377800929337301,0.00037917113513685763,0.21157854795455933,-1.6038101355182093,9.993692219723016e-05,0.047539666295051575,0.8118791580200195,5.760884960182011e-05,0.07432440668344498,0.8943696618080139,0.0003343034186400473,-0.029297221451997757
8190.0,969.0,-0.0203,0.347,9.6168,-0.0159,0.1171,-0.1098,-1.6342150173582972,-0.23222120106220245,1.455094337463379,-2.2923948764801025,0.3328481912612915,2.1179165840148926,5.377717005997457,-0.004480712115764618,0.20513929426670074,-1.6038373152362269,9.345138096250594e-05,0.05710840970277786,0.8118674755096436,5.414317638496868e-05,0.057417385280132294,0.8944213390350342,0.0003450096119195223,-0.015219628810882568
8190.0,969.0,-0.0203,0.347,9.6168,-0.0159,0.1171,-0.1098,-1.6360537014403285,-0.25305843353271484,1.4585820436477661,-2.2895970344543457,0.3479135036468506,2.13149356842041,5.377745198994436,-0.0037899347953498363,0.21228036284446716,-1.6038015524493616,8.883902773959562e-05,0.06550762057304382,0.8118546605110168,5.165706897969358e-05,0.06331590563058853,0.89447420835495,0.00029931904282420874,-0.02201439067721367
8190.0,969.0,-0.0203,0.347,9.6168,-0.0159,0.1171,-0.1098,-1.6380917034544886,-0.25877150893211365,1.4829983711242676,-2.286787509918213,0.3550816774368286,2.15378475189209,5.377717005997457,-0.0013551325537264347,0.2098674476146698,-1.6038253943072718,6.514912092825398e-05,0.06646508723497391,0.8118791580200195,1.4575647583114915e-05,0.07667327672243118,0.8944335579872131,0.00025166349951177835,-0.02495008334517479
8190.0,969.0,-0.0203,0.347,9.6168,-0.0159,0.1171,-0.1098,-1.640186449090475,-0.27043285965919495,1.4151464700698853,-2.2838754653930664,0.3647550940513611,2.169013023376465,5.3776529906089685,-0.0007612330373376608,0.1942952275276184,-1.603809658681051,6.158032192615792e-05,0.06435075402259827,0.8118792772293091,2.649051811243197e-10,0.07753507792949677,0.8944258093833923,0.00021698971977457404,0.002793676918372512
8190.0,969.0,-0.0203,0.347,9.6168,-0.0159,0.1171,-0.1098,-1.6423732242979945,-0.2821899652481079,1.4757177829742432,-2.2808942794799805,0.36906319856643677,2.1897873878479004,5.377684998303213,-0.0005729924305342138,0.20231343805789948,-1.6038616339312952,5.838448851136491e-05,0.053284160792827606,0.8118147850036621,4.814520449116866e-15,0.06865796446800232,0.8944540023803711,0.0003459461440797895,-0.05870020389556885
8190.0,969.0,-0.0203,0.347,9.6168,-0.0159,0.1171,-0.1098,-1.6452628574767054,-0.30017608404159546,1.3960952758789062,-2.277104616165161,0.3862847685813904,2.1985855102539062,5.377645242005148,-0.00045229977695271373,0.19577687978744507,-1.603882137929098,5.482776396092959e-05,0.057354435324668884,0.8118873834609985,5.7132258231850905e-21,0.07563076168298721,0.8945020437240601,0.0013092771405354142,0.0178592037409544
8190.0,969.0,-0.0203,0.347,9.6168,-0.0159,0.1171,-0.1098,-1.647660871545309,-0.31201252341270447,1.4505717754364014,-2.273984432220459,0.3878970742225647,2.2309203147888184,5.377677547722616,-0.0023300989996641874,0.20191317796707153,-1.6038253943072718,4.18269082729239e-05,0.05835844948887825,0.8119034171104431,1.0383506157083173e-25,0.07039553672075272,0.8945183753967285,0.0007297504926100373,-0.0010151565074920654
8190.0,969.0,-0.0203,0.347,9.6168,-0.0159,0.1171,-0.1098,-1.6502114735045375,-0.32277724146842957,1.412807583808899,-2.2708020210266113,0.40379083156585693,2.1943142414093018,5.3777129528816126,-0.0007605699938721955,0.20808373391628265,-1.6038220564471644,3.7420344597194344e-05,0.05363885313272476,0.81187504529953,1.887151044030445e-30,0.07074785232543945,0.8944499492645264,0.0005525209126062691,-0.01006639190018177
8190.0,969.0,-0.0203,0.347,9.6168,-0.0159,0.1171,-0.1098,-1.652811666528219,-0.32334598898887634,1.4806809425354004,-2.267575979232788,0.4193386435508728,2.2704858779907227,5.377685296326437,-0.00031722369021736085,0.19388051331043243,-1.6037729422198694,3.208390262443572e-05,0.056376852095127106,0.8118628263473511,3.4298032338865373e-35,0.06930035352706909,0.8944376707077026,0.0004090004658792168,0.023175429552793503
8190.0,969.0,-0.0203,0.347,9.6168,-0.0159,0.1171,-0.1098,-1.6556297741331996,-0.3432283401489258,1.402461290359497,-2.264248847961426,0.42407673597335815,2.21867036819458,5.377669322281637,-0.0002887759474106133,0.2128758728504181,-1.6038253943072718,2.8079412004444748e-05,0.05296800285577774,0.8118709921836853,6.2334940497485865e-40,0.05797203630208969,0.8944458365440369,0.00032467610435560346,0.018917597830295563
975.0,976.0,0.0233,0.3757,9.1693,-0.0345,0.0965,-0.1341,-1.6584459743895472,-0.3552299439907074,1.4512205123901367,-2.2607295513153076,0.43263542652130127,2.2547340393066406,5.3777129528816126,-0.0001719567517284304,0.20363210141658783,-1.6038134733783167,2.4963719624793157e-05,0.053900837898254395,0.8118874430656433,1.1210387714598537e-44,0.06669416278600693,0.8944499492645264,0.0002691813569981605,-0.034080952405929565
975.0,976.0,0.0233,0.3757,9.1693,-0.0345,0.0965,-0.1341,-1.6622234783568324,-0.377981960773468,1.4475141763687134,-2.2563881874084473,0.45193666219711304,2.2566051483154297,5.3777129528816126,4.928367616230389e-07,0.19868770241737366,-1.6038497130023401,2.192308966186829e-05,0.061170853674411774,0.8118751645088196,0.0,0.05711828172206879,0.8944535255432129,0.00022223638370633125,0.06134855002164841
975.0,976.0,0.0233,0.3757,9.1693,-0.0345,0.0965,-0.1341,-1.6651631794371546,-0.3882159888744354,1.4306955337524414,-2.2527670860290527,0.45143476128578186,2.306276798248291,5.377693164139547,8.95706512432648e-12,0.19724848866462708,-1.6038134733783167,1.9976532712462358e-05,0.06205756962299347,0.8118751049041748,0.0,0.0659145936369896,0.8944618701934814,6.064301487640478e-05,0.011688712984323502
975.0,976.0,0.0233,0.3757,9.1693,-0.0345,0.0965,-0.1341,-1.668340345422262,-0.3983026146888733,1.4460952281951904,-2.2489075660705566,0.4589492380619049,2.262263774871826,5.377673196583547,1.6279028275095872e-16,0.21057790517807007,-1.6038296858416956,1.8347522200201638e-05,0.05669592320919037,0.8118226528167725,0.0,0.06880011409521103,0.8944295048713684,8.015854837140068e-05,-0.03803020343184471
975.0,976.0,0.0233,0.3757,9.1693,-0.0345,0.0965,-0.1341,-1.671504636804098,-0.40902015566825867,1.468555212020874,-2.2452309131622314,0.4763122498989105,2.2893028259277344,5.377681243210592,2.9586336040268137e-21,0.21104641258716583,-1.6038416067706507,3.3927015465451404e-05,0.059165455400943756,0.811923086643219,0.0,0.06029253453016281,0.8945225477218628,7.165118586272001e-05,-0.01578562706708908
975.0,976.0,0.0233,0.3757,9.1693,-0.0345,0.0965,-0.1341,-1.6748820743956507,-0.41755911707878113,1.4526268243789673,-2.241389513015747,0.47964975237846375,2.2991108894348145,5.377677190094747,7.178611554081726e-07,0.2127455174922943,-1.6038015524493616,3.154952355544083e-05,0.06603299081325531,0.8118550777435303,0.0,0.0583922415971756,0.8944778442382812,6.477519491454586e-05,-0.03256838768720627
975.0,976.0,0.0233,0.3757,9.1693,-0.0345,0.0965,-0.1341,-1.6789690456786097,-0.4300275444984436,1.4993513822555542,-2.2365212440490723,0.4933726191520691,2.340641736984253,5.377704846649923,8.518610621587042e-13,0.2101154327392578,-1.6038134733783167,2.9007342163822614e-05,0.05456085503101349,0.8118345737457275,0.0,0.04895782470703125,0.8944458365440369,5.783740198239684e-05,-0.05485721305012703
975.0,976.0,0.0233,0.3757,9.1693,-0.0345,0.0965,-0.1341,-1.6824456653990687,-0.4375097155570984,1.4615225791931152,-2.232550621032715,0.5046695470809937,2.3091344833374023,5.377744900971212,1.5482155891059032e-17,0.22710475325584412,-1.6038616339312952,4.081622319063172e-05,0.06489309668540955,0.8118874430656433,0.0,0.05423136055469513,0.8944376707077026,-2.7639069230644964e-05,-0.04586898535490036
975.0,976.0,0.0233,0.3757,9.1693,-0.0345,0.0965,-0.1341,-1.6860372028746546,-0.4479859471321106,1.4957510232925415,-2.228468418121338,0.5139704942703247,2.2746763229370117,5.377708840161123,2.813805507099359e-22,0.22045505046844482,-1.6038177649127405,3.854209717246704e-05,0.06255282461643219,0.8118752241134644,0.0,0.06662353873252869,0.8944295644760132,-6.48845816613175e-05,-0.07178996503353119
975.0,976.0,0.0233,0.3757,9.1693,-0.0345,0.0965,-0.1341,-1.6897417507567347,-0.45100995898246765,1.5528687238693237,-2.2243640422821045,0.5284069776535034,2.324643850326538,5.377744781761923,0.0012168228859081864,0.2090715765953064,-1.6038177649127405,3.646024924819358e-05,0.062266960740089417,0.8118066191673279,0.0,0.05369821935892105,0.8944540023803711,-8.391775918425992e-05,-0.1124320700764656
975.0,976.0,0.0233,0.3757,9.1693,-0.0345,0.0965,-0.1341,-1.6935779056944789,-0.46782615780830383,1.5327990055084229,-2.220080614089966,0.5310345888137817,2.3072235584259033,5.377728926926412,0.00027299157227389514,0.22154054045677185,-1.6037781874286097,4.6115768782328814e-05,0.04990984499454498,0.8118669390678406,0.0,0.04493323713541031,0.8944622874259949,-7.554260082542896e-05,-0.07043588906526566
982.0,946.0,-0.0598,0.6245,9.6515,-0.0423,0.1086,-0.1368,-1.6973659000792445,-0.4888516068458557,1.5356395244598389,-2.215765953063965,0.5370010733604431,2.2980761528015137,5.377753126412191,0.0001694124803179875,0.22483906149864197,-1.6038134733783167,4.387396256788634e-05,0.07567530870437622,0.8118509650230408,0.0,0.0507444366812706,0.8944577574729919,-6.793907232349738e-05,-0.07891471683979034
982.0,946.0,-0.0598,0.6245,9.6515,-0.0423,0.1086,-0.1368,-1.7022606335081996,-0.4982897937297821,1.5266737937927246,-2.210303544998169,0.5459486842155457,2.265738010406494,5.377720701485433,0.00023033418983686715,0.23749712109565735,-1.6037853399859827,9.561226761434227e-05,0.08187524229288101,0.8118149638175964,0.0,0.04622785001993179,0.8944541811943054,-0.0002348736161366105,-0.06501445174217224
982.0,946.0,-0.0598,0.6245,9.6515,-0.0423,0.1086,-0.1368,-1.7061792812743128,-0.495064377784729,1.544176697731018,-2.2059812545776367,0.5591307282447815,2.390338659286499,5.377748954087057,0.00023700566089246422,0.21410977840423584,-1.603837792073385,0.0007543889223597944,0.0735044851899147,0.8117750883102417,0.0,0.039489179849624634,0.8944458961486816,-0.001217078766785562,-0.08089246600866318
982.0,946.0,-0.0598,0.6245,9.6515,-0.0423,0.1086,-0.1368,-1.7101522884764613,-0.4962600767612457,1.6491498947143555,-2.2015068531036377,0.5655231475830078,2.2999587059020996,5.377744960575857,0.00018796106451191008,0.22238457202911377,-1.6038058439837855,0.0016076641622930765,0.07450999319553375,0.8118674159049988,0.0,0.04599018394947052,0.8944340348243713,-0.0007830739486962557,-0.054422084242105484
982.0,946.0,-0.0598,0.6245,9.6515,-0.0423,0.1086,-0.1368,-1.714156290093893,-0.5044703483581543,1.6070871353149414,-2.196964740753174,0.5728680491447449,2.2681593894958496,5.377764928131857,0.00029311649268493056,0.2346569299697876,-1.603797737752096,0.006113655399531126,0.06341751664876938,0.8118632435798645,0.0,0.02356674149632454,0.8944299221038818,-0.00046151847345754504,-0.06762641668319702
982.0,946.0,-0.0598,0.6245,9.6515,-0.0423,0.1086,-0.1368,-1.718264719048971,-0.5134069323539734,1.651059865951538,-2.1923513412475586,0.5838372111320496,2.254063844680786,5.377753007202902,0.0002748813421931118,0.21728187799453735,-1.6036537329303187,0.020107025280594826,0.07585188746452332,0.8118189573287964,0.0,0.03421448916196823,0.894402027130127,-0.000369985937140882,-0.11469171941280365
982.0,946.0,-0.0598,0.6245,9.6515,-0.0423,0.1086,-0.1368,-1.7234794102110804,-0.5190740823745728,1.60435950756073,-2.186328172683716,0.5854105353355408,2.2729477882385254,5.377764868527212,0.00015573721611872315,0.23142224550247192,-1.6035779158221644,0.003145981812849641,0.08589164167642593,0.8118107914924622,0.0,0.033688269555568695,0.8943897485733032,-0.001842958852648735,-0.10679170489311218
982.0,946.0,-0.0598,0.6245,9.6515,-0.0423,0.1086,-0.1368,-1.727673193017477,-0.5213027596473694,1.6783759593963623,-2.1815948486328125,0.5970555543899536,2.2636218070983887,5.377744900971212,0.00023104425054043531,0.23244081437587738,-1.6035822073565882,-0.0025694305077195168,0.056453146040439606,0.8118550777435303,0.0,0.05012907087802887,0.8944061398506165,-0.001208801637403667,-0.13859380781650543
982.0,946.0,-0.0598,0.6245,9.6515,-0.0423,0.1086,-0.1368,-1.7318140468993128,-0.5281371474266052,1.6914492845535278,-2.1768252849578857,0.6026045680046082,2.2207047939300537,5.377773153572836,0.00011113493383163586,0.22553086280822754,-1.6035822073565882,-0.0009316432988271117,0.06281831860542297,0.811851441860199,0.0,0.041479505598545074,0.8944143056869507,-0.0006374208023771644,-0.09556621313095093
982.0,946.0,-0.0598,0.6245,9.6515,-0.0423,0.1086,-0.1368,-1.7359472713866175,-0.5317533016204834,1.7518274784088135,-2.172032117843628,0.6070461273193359,2.2560460567474365,5.377776849060812,8.967397297965363e-05,0.22606703639030457,-1.6035779158221644,-0.0005845890264026821,0.061179019510746,0.8118027448654175,0.0,0.031212059780955315,0.8943619132041931,-0.0005685124779120088,-0.15115219354629517
982.0,946.0,-0.0598,0.6245,9.6515,-0.0423,0.1086,-0.1368,-1.7401563129820765,-0.5287600755691528,1.7483813762664795,-2.1671667098999023,0.6102304458618164,2.2931454181671143,5.377753007202902,-8.195876580430195e-05,0.2199481874704361,-1.6035531202899378,-0.0004265363095328212,0.0682351142168045,0.811851441860199,0.0,0.03280032053589821,0.8943496346473694,-0.0003782107378356159,-0.13990060985088348
947.0,946.0,0.262,0.1023,8.9731,-0.025,0.1051,-0.1254,-1.7443486652769984,-0.5284941792488098,1.679198980331421,-2.162245512008667,0.6243652701377869,2.274142265319824,5.3777485368545435,-1.0893533186617788e-08,0.23117341101169586,-1.603565518056051,-0.0003816437383648008,0.059365976601839066,0.8118834495544434,0.0,0.03521638736128807,0.894406259059906,-0.00034469488309696317,-0.09910020232200623
947.0,946.0,0.262,0.1023,8.9731,-0.025,0.1051,-0.1254,-1.7498365841307582,-0.5284462571144104,1.7847158908843994,-2.1559536457061768,0.6192119121551514,2.250948429107666,5.377800869732656,-1.2926978924961401e-14,0.22789567708969116,-1.6035779158221644,-0.0003027269267477095,0.049809835851192474,0.8118472099304199,0.0,0.039226382970809937,0.8943700790405273,-0.0002706470841076225,-0.1355033665895462
947.0,946.0,0.262,0.1023,8.9731,-0.025,0.1051,-0.1254,-1.7541290722289027,-0.5332731008529663,1.8009382486343384,-2.1508729457855225,0.6265672445297241,2.2284703254699707,5.377776431828298,0.0016384572954848409,0.24080237746238708,-1.603565518056051,-0.00025913698482327163,0.050882961601018906,0.811891496181488,0.0,0.04453730955719948,0.8943779468536377,-0.00023095797223504633,-0.11289292573928833
947.0,946.0,0.262,0.1023,8.9731,-0.025,0.1051,-0.1254,-1.7584511242308558,-0.5350257754325867,1.8062587976455688,-2.1458487510681152,0.6323519349098206,2.243485450744629,5.377804744034567,0.0009449367644265294,0.23023509979248047,-1.6035574118243616,-0.00022652132611256093,0.05508303642272949,0.8117426633834839,0.0,0.03684717044234276,0.8944427967071533,-0.0002014201454585418,-0.15279819071292877
947.0,946.0,0.262,0.1023,8.9731,-0.025,0.1051,-0.1254,-1.7627550564207972,-0.5429486036300659,1.852979063987732,-2.140831708908081,0.6290301084518433,2.2242207527160645,5.377792882710256,0.00010588774603093043,0.23989030718803406,-1.6035736242877405,-0.00020119920372962952,0.06180262565612793,0.8117709159851074,2.0926377297669774e-10,0.024557150900363922,0.8943819999694824,-0.0001785817730706185,-0.14969654381275177
947.0,946.0,0.262,0.1023,8.9731,-0.025,0.1051,-0.1254,-1.7670742473998011,-0.5436272025108337,1.8493469953536987,-2.135749578475952,0.621310830116272,2.2251362800598145,5.377809214382925,7.186133007053286e-05,0.2236025035381317,-1.6035779158221644,-0.00018096945132128894,0.04937547445297241,0.8118475675582886,3.803265601081849e-15,0.0285062026232481,0.8943861126899719,-0.00018330865714233369,-0.10796095430850983
947.0,946.0,0.262,0.1023,8.9731,-0.025,0.1051,-0.1254,-1.7722870312132777,-0.5380603075027466,1.902038335800171,-2.1295127868652344,0.63337242603302,2.2323827743530273,5.3777726767356775,8.473331399727613e-05,0.24501720070838928,-1.6035779158221644,-0.0001607646991033107,0.0531926155090332,0.8118714094161987,4.513203243046589e-21,0.032105702906847,0.8943579196929932,-0.00016260892152786255,-0.10827529430389404
947.0,946.0,0.262,0.1023,8.9731,-0.025,0.1051,-0.1254,-1.7766334019102992,-0.5356622338294983,1.978764295578003,-2.1245410442352295,0.6256363987922668,2.2225492000579834,5.377780484944143,2.8090827441928923e-09,0.23358628153800964,-1.6035822073565882,-0.00014758302131667733,0.03767659515142441,0.8117992281913757,8.202523923491176e-26,0.014544323086738586,0.8943415880203247,-0.0001496238837717101,-0.10858180373907089
947.0,946.0,0.262,0.1023,8.9731,-0.025,0.1051,-0.1254,-1.7809683285155238,-0.5398016571998596,1.9850246906280518,-2.119414806365967,0.6293481588363647,2.2578468322753906,5.3778528449829,5.1053694556440696e-14,0.22866259515285492,-1.6035860220538538,-0.00013639917597174644,0.04944111406803131,0.8118354082107544,1.4907679542439012e-30,0.020733442157506943,0.8943256139755249,-0.000132727887830697,-0.1000681146979332
947.0,946.0,0.262,0.1023,8.9731,-0.025,0.1051,-0.1254,-1.7853108845152796,-0.5387121438980103,1.9429829120635986,-2.114389657974243,0.6427618265151978,2.2920541763305664,5.377824771195211,0.0011461124522611499,0.23556801676750183,-1.6035946051227015,-0.00012679121573455632,0.05111445486545563,0.8117913603782654,2.709397101401846e-35,0.023084906861186028,0.8943537473678589,-0.0001612846681382507,-0.1013365313410759
947.0,946.0,0.262,0.1023,8.9731,-0.025,0.1051,-0.1254,-1.7896834812560023,-0.5356964468955994,1.9843454360961914,-2.109313488006592,0.6402748227119446,2.233783721923828,5.377808737545767,0.0001424789079464972,0.23530806601047516,-1.6035617033587855,-0.00011844776599900797,0.049643926322460175,0.8118115067481995,4.924190829606694e-40,0.018320882692933083,0.8943415880203247,-0.0005914189969189465,-0.09178851544857025
938.0,915.0,0.2136,0.4804,9.9182,-0.0244,0.1164,-0.1274,-1.7940460644164027,-0.5426940321922302,1.9767216444015503,-2.104241371154785,0.6327816247940063,2.262352466583252,5.377832877426901,1.583782882619289e-08,0.22673088312149048,-1.6035903135882776,-0.00011113444634247571,0.04318802058696747,0.8117954134941101,8.407790785948902e-45,0.01992725394666195,0.8943537473678589,-0.0007925840327516198,-0.09484618902206421
938.0,915.0,0.2136,0.4804,9.9182,-0.0244,0.1164,-0.1274,-1.7994357548155726,-0.5493780970573425,1.9402860403060913,-2.097853183746338,0.6410579681396484,2.28593373298645,5.377812850266256,4.5385666453512385e-05,0.2303391993045807,-1.6035617033587855,-9.030417277244851e-05,0.05599234998226166,0.8118190765380859,0.0,0.0066854096949100494,0.8943660259246826,-0.00048709698603488505,-0.13009323179721832
938.0,915.0,0.2136,0.4804,9.9182,-0.0244,0.1164,-0.1274,-1.8037411175169886,-0.5465314388275146,2.0638673305511475,-2.092751979827881,0.6292710304260254,2.279151439666748,5.377828824311056,8.248622340722989e-10,0.23299144208431244,-1.6035297552691858,-8.538160909665748e-05,0.052404530346393585,0.811747133731842,0.0,0.013656564056873322,0.8943461775779724,-0.0004917496698908508,-0.18488436937332153
938.0,915.0,0.2136,0.4804,9.9182,-0.0244,0.1164,-0.1274,-1.8080517254271449,-0.5409901142120361,2.0657880306243896,-2.087498188018799,0.6324247717857361,2.2591912746429443,5.377884733467855,1.4991463338732622e-14,0.2245171070098877,-1.603598419819967,-8.099105616565794e-05,0.05584658682346344,0.8117913603782654,-8.682323823450133e-05,0.007112957537174225,0.8943297266960144,-0.0011605169856920838,-0.1654154658317566
938.0,915.0,0.2136,0.4804,9.9182,-0.0244,0.1164,-0.1274,-1.812437196771139,-0.5338134169578552,2.0895111560821533,-2.0824201107025146,0.6467002630233765,2.265878677368164,5.377848195820608,0.0013534626923501492,0.22470583021640778,-1.603537384663717,-7.702999573666602e-05,0.036594144999980927,0.8117954730987549,-9.051676170201972e-05,-0.006288240663707256,0.8943137526512146,-0.0007794898701831698,-0.13513416051864624
938.0,915.0,0.2136,0.4804,9.9182,-0.0244,0.1164,-0.1274,-1.816824575463766,-0.5321462154388428,2.0433506965637207,-2.0772898197174072,0.6451886892318726,2.2453360557556152,5.377864587097921,0.00038707241765223444,0.23442910611629486,-1.603525463734762,-7.343827019212767e-05,0.05654079467058182,0.8118037581443787,-8.377616904908791e-05,-0.00037490640534088016,0.8942739963531494,-0.0009335699141956866,-0.16712586581707
938.0,915.0,0.2136,0.4804,9.9182,-0.0244,0.1164,-0.1274,-1.8221789799132289,-0.539715051651001,2.1039986610412598,-2.070948362350464,0.6420199871063232,2.337392568588257,5.377856778889456,-0.0003473510150797665,0.23282933235168457,-1.603525463734762,-3.5174150980310515e-05,0.03978242352604866,0.8118478059768677,-9.197025065077469e-05,0.0008521053823642433,0.894245445728302,-0.002460871357470751,-0.12778323888778687
938.0,915.0,0.2136,0.4804,9.9182,-0.0244,0.1164,-0.1274,-1.826484819451803,-0.5475046634674072,2.109954833984375,-2.0658347606658936,0.6440741419792175,2.218183994293213,5.377792763500967,-0.00029433079180307686,0.2205328792333603,-1.6035378615008753,-6.392729678950104e-10,0.04407684877514839,0.8117794394493103,-8.610425720689818e-05,-0.005194078199565411,0.8942658305168152,-0.001507940236479044,-0.13970047235488892
938.0,915.0,0.2136,0.4804,9.9182,-0.0244,0.1164,-0.1274,-1.83081116298818,-0.5423735976219177,2.1150150299072266,-2.060720205307007,0.6298748254776001,2.311591625213623,5.3778124926383875,-0.00036189189995639026,0.21953901648521423,-1.6035946051227015,-2.701642358715617e-07,0.056606993079185486,0.8117992281913757,-8.094161603366956e-05,-0.007712997030466795,0.8942338824272156,-0.004308163654059172,-0.1400078982114792
938.0,915.0,0.2136,0.4804,9.9182,-0.0244,0.1164,-0.1274,-1.8349572620787562,-0.5331824421882629,2.2405223846435547,-2.0555715560913086,0.630642294883728,2.309797763824463,5.377860533982076,0.0015649701235815883,0.2257717251777649,-1.6035617033587855,-4.910100971644571e-12,0.05277079716324806,0.81180739402771,-8.909004100132734e-05,0.003837007097899914,0.8941736221313477,-0.0048869033344089985,-0.13144996762275696
926.0,910.0,0.1567,-0.0287,8.7984,-0.0307,0.1333,-0.1312,-1.8391787014403285,-0.5179411768913269,2.1668701171875,-2.0505692958831787,0.640367865562439,2.3070857524871826,5.3778642294700525,0.0010638252133503556,0.22414398193359375,-1.6035340468036097,-8.923866646705418e-17,0.055724747478961945,0.8117713928222656,-8.432073082076386e-05,-0.0044929333962500095,0.8942019939422607,-0.0025943813379853964,-0.17370864748954773
926.0,910.0,0.1567,-0.0287,8.7984,-0.0307,0.1333,-0.1312,-1.8434292278685511,-0.5133088231086731,2.251634359359741,-2.045515298843384,0.6403977274894714,2.3093767166137695,5.377856480866232,0.0005453696358017623,0.2144821435213089,-1.603565518056051,-1.6218688395917943e-21,0.047100719064474106,0.8118155598640442,-8.003585389815271e-05,0.0003409862983971834,0.8941900730133057,-0.001768453628756106,-0.14920231699943542
926.0,910.0,0.1567,-0.0287,8.7984,-0.0307,0.1333,-0.1312,-1.8486772976317347,-0.5193341970443726,2.1994571685791016,-2.039121627807617,0.6397359371185303,2.288012981414795,5.377892541676321,9.543503256281838e-05,0.2305869460105896,-1.6035459677325647,-1.924615304607197e-27,0.04587268829345703,0.8117754459381104,-8.599434659117833e-05,0.0005965054733678699,0.8941540718078613,-0.002543363720178604,-0.18319958448410034
926.0,910.0,0.1567,-0.0287,8.7984,-0.0307,0.1333,-0.1312,-1.8528701267638148,-0.5247154831886292,2.200139284133911,-2.034111499786377,0.6412352919578552,2.270907402038574,5.377824771195211,6.607178875128739e-07,0.22945751249790192,-1.6035297552691858,-3.497893560486926e-32,0.04838938266038895,0.8117672204971313,-8.208439248846844e-05,-0.0021060677245259285,0.8941138982772827,-0.0012491962406784296,-0.1456938087940216
926.0,910.0,0.1567,-0.0287,8.7984,-0.0307,0.1333,-0.1312,-1.857067724267477,-0.5299940705299377,2.264251947402954,-2.0289835929870605,0.6208027601242065,2.260377883911133,5.377856778889456,-0.0019233833299949765,0.21875950694084167,-1.6035011450396937,-6.357248546534723e-37,0.049473803490400314,0.8117594718933105,-2.626797822813387e-06,0.0008065636502578855,0.8941384553909302,-0.0015201003989204764,-0.17834261059761047
926.0,910.0,0.1567,-0.0287,8.7984,-0.0307,0.1333,-0.1312,-1.8612057171263636,-0.5283694267272949,2.23120379447937,-2.023963451385498,0.6217210292816162,2.351612091064453,5.377892541676321,-1.2116154266550438e-06,0.21359044313430786,-1.603513542805807,-1.1553705838358117e-41,0.04938872903585434,0.8117550611495972,-4.774075926250454e-11,0.005636377725750208,0.8941061496734619,-0.0032506450079381466,-0.201141357421875
926.0,910.0,0.1567,-0.0287,8.7984,-0.0307,0.1333,-0.1312,-1.8653189144530238,-0.5160858035087585,2.301633834838867,-2.0190327167510986,0.6281960010528564,2.3319473266601562,5.377860533982076,0.0009595899027772248,0.22986409068107605,-1.6035178343402308,-0.0,0.0684577003121376,0.8117713928222656,-8.676647110857246e-16,0.0025531111750751734,0.8940901160240173,-0.002547178417444229,-0.20174270868301392
926.0,910.0,0.1567,-0.0287,8.7984,-0.0307,0.1333,-0.1312,-1.870491167108053,-0.5078272223472595,2.3572936058044434,-2.0128417015075684,0.6201493740081787,2.3308794498443604,5.377816605358877,0.0003529097302816808,0.22663530707359314,-1.603525463734762,-0.0,0.051127176731824875,0.811747133731842,-7.557983190054074e-05,0.0021635084412992,0.8940218091011047,-0.004126660991460085,-0.20291700959205627
926.0,910.0,0.1567,-0.0287,8.7984,-0.0307,0.1333,-0.1312,-1.8746372661986292,-0.5116011500358582,2.3682706356048584,-2.0078601837158203,0.6231217980384827,2.276757001876831,5.377908873348989,0.0001813015405787155,0.20198269188404083,-1.603570286427633,-0.0,0.04313364624977112,0.8117631673812866,-7.086403638822958e-05,0.006847409997135401,0.8940829038619995,-0.0036987033672630787,-0.16105827689170837
926.0,910.0,0.1567,-0.0287,8.7984,-0.0307,0.1333,-0.1312,-1.878810545007223,-0.5132555365562439,2.345041513442993,-2.0028834342956543,0.630675196647644,2.301889181137085,5.377892839699545,0.0001688041229499504,0.22005027532577515,-1.603513542805807,-0.0,0.04233284294605255,0.8117550611495972,-6.666482659056783e-05,-0.002757514361292124,0.8939820528030396,-0.0029582451097667217,-0.17176489531993866
926.0,910.0,0.1567,-0.0287,8.7984,-0.0307,0.1333,-0.1312,-1.8830038509764613,-0.5129204392433167,2.379065752029419,-1.9978278875350952,0.6140595078468323,2.315929889678955,5.377840447216787,4.8514067430005525e-08,0.2150864601135254,-1.603525463734762,-0.0,0.04151601344347,0.8117672204971313,-6.293541082413867e-05,-0.01728997193276882,0.8939582705497742,-0.005654851906001568,-0.20543132722377777
940.0,911.0,-0.0766,0.3966,9.3709,-0.0541,0.1692,-0.1347,-1.8870445690550746,-0.5195204615592957,2.397920846939087,-1.9928267002105713,0.6115171909332275,2.28684663772583,5.377868759423055,8.817191768373256e-13,0.22489449381828308,-1.603497330342428,-0.0,0.04785115271806717,0.8117672204971313,-7.073264714563265e-05,0.003069993108510971,0.8939383029937744,-0.004853671416640282,-0.15594153106212616
940.0,911.0,-0.0766,0.3966,9.3709,-0.0541,0.1692,-0.1347,-1.891163011590475,-0.5183497667312622,2.4092905521392822,-1.987938404083252,0.6162370443344116,2.34382963180542,5.377860533982076,0.00019324936147313565,0.2150638848543167,-1.603513542805807,-0.0,0.037732478231191635,0.8117594718933105,-6.79229196975939e-05,-0.00585697777569294,0.8938703536987305,-0.004215748980641365,-0.19775718450546265
940.0,911.0,-0.0766,0.3966,9.3709,-0.0541,0.1692,-0.1347,-1.8961225948729457,-0.5023475885391235,2.421706199645996,-1.9818977117538452,0.6075043678283691,2.301579475402832,5.377836453705587,0.0001257132098544389,0.23369942605495453,-1.6035378615008753,-0.0,0.041816361248493195,0.8117230534553528,-6.390398630173877e-05,0.005634905770421028,0.8937901258468628,-0.005758894141763449,-0.1970173865556717
940.0,911.0,-0.0766,0.3966,9.3709,-0.0541,0.1692,-0.1347,-1.9001041851439417,-0.49478253722190857,2.4878928661346436,-1.9770816564559937,0.6105540990829468,2.304281234741211,5.377868401795187,0.00014305311196949333,0.2291407287120819,-1.6035421530352991,-0.0,0.040353499352931976,0.8117271661758423,-6.101575127104297e-05,0.005564894527196884,0.8937901258468628,-0.0060409060679376125,-0.2055683434009552
940.0,911.0,-0.0766,0.3966,9.3709,-0.0541,0.1692,-0.1347,-1.9040824375548304,-0.4920850694179535,2.4531404972076416,-1.9722155332565308,0.6143801808357239,2.3323628902435303,5.377840447216787,0.0005591213121078908,0.22570160031318665,-1.6034930388080042,-0.0,0.04764731228351593,0.8117717504501343,-2.543714288094634e-07,0.006040865555405617,0.8937463760375977,-0.005117927677929401,-0.176767960190773
940.0,911.0,-0.0766,0.3966,9.3709,-0.0541,0.1692,-0.1347,-1.908114572564596,-0.48753446340560913,2.4774396419525146,-1.967353105545044,0.5999225378036499,2.3453898429870605,5.377888488560476,-0.00017824451788328588,0.21794867515563965,-1.6034930388080042,-0.0,0.03982819616794586,0.8117271661758423,-4.6230753600329244e-12,-0.00018101197201758623,0.8936743140220642,-0.008197246119379997,-0.20687459409236908
940.0,911.0,-0.0766,0.3966,9.3709,-0.0541,0.1692,-0.1347,-1.9121166668333949,-0.4856595993041992,2.542623519897461,-1.9624500274658203,0.5994845032691956,2.2844910621643066,5.377908515721121,-1.0295543972915766e-08,0.23243243992328644,-1.6035578886615198,-0.0,0.050716474652290344,0.8116952180862427,-8.402211479971507e-17,-0.006019769236445427,0.8936505317687988,-0.009554475545883179,-0.17612579464912415
940.0,911.0,-0.0766,0.3966,9.3709,-0.0541,0.1692,-0.1347,-1.9169250927367152,-0.4803299009799957,2.5963258743286133,-1.9565403461456299,0.600864589214325,2.2849316596984863,5.377840447216787,0.0002490397891961038,0.21842525899410248,-1.6035378615008753,-0.0,0.04710610210895538,0.8117115497589111,-9.97061114294776e-23,-0.004756712354719639,0.8935624957084656,-0.008894972503185272,-0.22180816531181335
940.0,911.0,-0.0766,0.3966,9.3709,-0.0541,0.1692,-0.1347,-1.9207426510252894,-0.4759771227836609,2.559730052947998,-1.9518541097640991,0.5915443301200867,2.330068588256836,5.377856421261587,8.161152072716504e-05,0.22968795895576477,-1.603497330342428,-0.0,0.045998722314834595,0.8116910457611084,-7.212745549622923e-05,-0.007425168063491583,0.8934303522109985,-0.009378667920827866,-0.20531323552131653
940.0,911.0,-0.0766,0.3966,9.3709,-0.0541,0.1692,-0.1347,-1.924450536767477,-0.4683871865272522,2.549534797668457,-1.9470878839492798,0.5877562165260315,2.351595401763916,5.377880620747366,0.00011959369294345379,0.22615021467208862,-1.603497330342428,-0.0,0.03570862114429474,0.811775803565979,-7.985879346961156e-05,-0.006236078217625618,0.8934311270713806,-0.009073574095964432,-0.15297600626945496
940.0,911.0,-0.0766,0.3966,9.3709,-0.0541,0.1692,-0.1347,-1.9280568561949671,-0.45751842856407166,2.605010986328125,-1.942428469657898,0.5910224318504333,2.3263773918151855,5.377856421261587,0.00018910500511992723,0.2300286442041397,-1.603513542805807,-0.0,0.03195234388113022,0.8117033839225769,-8.944554429035634e-05,0.0014517067465931177,0.8933507204055786,-0.006989299785345793,-0.19506289064884186
903.0,889.0,0.5348,0.1591,10.0271,-0.0357,0.1472,-0.1275,-1.931657453576559,-0.4494551420211792,2.643317699432373,-1.9377622604370117,0.5755165219306946,2.309142589569092,5.377892541676321,-4.196511872578412e-05,0.2350788712501526,-1.6035259405719202,-0.0,0.043566323816776276,0.8116554617881775,-9.766397852217779e-05,-0.01574411243200302,0.8932786583900452,-0.006373613141477108,-0.15154384076595306
903.0,889.0,0.5348,0.1591,10.0271,-0.0357,0.1472,-0.1275,-1.936178823510641,-0.44771161675453186,2.614619255065918,-1.9318405389785767,0.5762301683425903,2.2951977252960205,5.377936708718099,0.0022114263847470284,0.22754278779029846,-1.6035054365741175,-0.0,0.04463493451476097,0.8117193579673767,-0.0001038144328049384,-0.00017283903434872627,0.8932469487190247,-0.005160228349268436,-0.24060195684432983
903.0,889.0,0.5348,0.1591,10.0271,-0.0357,0.1472,-0.1275,-1.9397527180113734,-0.4366678297519684,2.6770529747009277,-1.9272503852844238,0.5812101364135742,2.3458330631256104,5.377900230675497,0.004402549937367439,0.23040977120399475,-1.6035011450396937,-0.0,0.04269634187221527,0.8116713762283325,-0.00020868773572146893,-0.03208744153380394,0.8932068347930908,-0.00373348081484437,-0.11618600785732269
903.0,889.0,0.5348,0.1591,10.0271,-0.0357,0.1472,-0.1275,-1.943277975121969,-0.42905110120773315,2.7469310760498047,-1.9226471185684204,0.5780473351478577,2.330503225326538,5.377980220108785,0.002734194276854396,0.2279447317123413,-1.6035378615008753,-0.0,0.04458027333021164,0.8117398023605347,-0.00021183048374950886,-0.004917328245937824,0.8931708335876465,-0.004681068006902933,-0.15284529328346252
903.0,889.0,0.5348,0.1591,10.0271,-0.0357,0.1472,-0.1275,-1.9467598400511683,-0.43054628372192383,2.734593629837036,-1.9180208444595337,0.5748234987258911,2.310220956802368,5.377932238369741,0.0014176634140312672,0.21752546727657318,-1.6035178343402308,-0.0,0.05081459879875183,0.811731219291687,-0.0002138544514309615,-0.029962215572595596,0.8931348323822021,-0.004496130160987377,-0.16468015313148499
903.0,889.0,0.5348,0.1591,10.0271,-0.0357,0.1472,-0.1275,-1.9501730404295863,-0.4316140115261078,2.7461929321289062,-1.9134609699249268,0.5752733945846558,2.2955007553100586,5.377924072533407,0.0003391937352716923,0.22468025982379913,-1.603570286427633,-0.0,0.04958900064229965,0.8116918206214905,-0.00021521421149373055,-0.02335386350750923,0.8931146264076233,-0.003044751239940524,-0.16479277610778809
903.0,889.0,0.5348,0.1591,10.0271,-0.0357,0.1472,-0.1275,-1.9535671673216761,-0.42735007405281067,2.7552902698516846,-1.9089339971542358,0.5707736611366272,2.3036608695983887,5.377963888436117,-0.00013186910655349493,0.22969010472297668,-1.603469196950094,-0.0,0.03642056882381439,0.8116835355758667,-0.00025377143174409866,-0.025686224922537804,0.8930749893188477,-0.004382436163723469,-0.195150688290596
903.0,889.0,0.5348,0.1591,10.0271,-0.0357,0.1472,-0.1275,-1.957651277581686,-0.41052502393722534,2.852553367614746,-1.9031445980072021,0.5639195442199707,2.3034768104553223,5.378008174687185,-1.5648451978655942e-10,0.2351103127002716,-1.6035054365741175,-0.0,0.0391327328979969,0.811759889125824,-0.00023753168352413923,-0.03388335555791855,0.8930795788764954,-0.007909477688372135,-0.19875723123550415
903.0,889.0,0.5348,0.1591,10.0271,-0.0357,0.1472,-0.1275,-1.9608050785460414,-0.4022212326526642,2.804324150085449,-1.8986009359359741,0.5690298080444336,2.339529275894165,5.377968060761251,0.0012227300321683288,0.22982467710971832,-1.6034653822528284,-0.0,0.04216153174638748,0.8116835355758667,-0.00023564972798340023,-0.032435011118650436,0.8929312825202942,-0.007589982356876135,-0.17657189071178436
903.0,889.0,0.5348,0.1591,10.0271,-0.0357,0.1472,-0.1275,-1.9640127621092738,-0.389268696308136,2.893886089324951,-1.894106149673462,0.5640172958374023,2.2937979698181152,5.378004479199209,0.0005978939007036388,0.22238926589488983,-1.6034496466266077,-0.0,0.05773898959159851,0.8117197155952454,-0.00023424216487910599,-0.016252785921096802,0.89288330078125,-0.009594013914465904,-0.2038974016904831
903.0,889.0,0.5348,0.1591,10.0271,-0.0357,0.1472,-0.1275,-1.9671875439085902,-0.3879832327365875,2.89201021194458,-1.8896119594573975,0.5666788220405579,2.3094966411590576,5.37801222780303,0.0005334339221008122,0.2461228370666504,-1.603530232106344,-0.0,0.047393955290317535,0.8116958737373352,-0.0002207044162787497,-0.0215349979698658,0.8928357362747192,-0.011933574452996254,-0.19130486249923706
903.0,880.0,0.1561,0.0419,10.3585,-0.0292,0.2314,-0.1397,-1.970307012597555,-0.37896978855133057,2.92799711227417,-1.8851372003555298,0.5674340128898621,2.3452649116516113,5.378004061966696,0.0005273549468256533,0.22341573238372803,-1.6034496466266077,-0.0,0.06131292134523392,0.8116638660430908,-0.00021890045900363475,-0.023243829607963562,0.8926632404327393,-0.014677109196782112,-0.19628304243087769
903.0,880.0,0.1561,0.0419,10.3585,-0.0292,0.2314,-0.1397,-1.9741808376707972,-0.37722358107566833,2.9167537689208984,-1.8795746564865112,0.5721864700317383,2.332284688949585,5.377988028317251,0.0007872692658565938,0.2336992770433426,-1.6034696737872522,-0.0,0.05275549739599228,0.8116478323936462,-0.0001837378804339096,-0.043476469814777374,0.8924669027328491,-0.01777585595846176,-0.21853280067443848
903.0,880.0,0.1561,0.0419,10.3585,-0.0292,0.2314,-0.1397,-1.9773007831969203,-0.37736934423446655,2.9426560401916504,-1.8749189376831055,0.5631413459777832,2.3158857822418213,5.378004002362051,0.0006277545471675694,0.234715074300766,-1.6034897009478968,-0.0,0.053926486521959305,0.8117122054100037,-0.00018867760081775486,-0.028659813106060028,0.8923797607421875,-0.018545381724834442,-0.2377053052186966
903.0,880.0,0.1561,0.0419,10.3585,-0.0292,0.2314,-0.1397,-1.9802915058531703,-0.3773208558559418,2.9771804809570312,-1.870388388633728,0.5601323843002319,2.29402232170105,5.378048288613119,0.0005913200438953936,0.2468746304512024,-1.6034773031817835,-0.0,0.04023583605885506,0.8117040395736694,-0.00019214417261537164,-0.04048635810613632,0.8922114968299866,-0.01726669818162918,-0.2861695885658264
903.0,880.0,0.1561,0.0419,10.3585,-0.0292,0.2314,-0.1397,-1.9832879505553187,-0.375019907951355,2.977334499359131,-1.865881085395813,0.558394730091095,2.348710060119629,5.378007697850027,0.0005297758616507053,0.24124100804328918,-1.6034982840167444,8.448971493635327e-05,0.04310248792171478,0.8116519451141357,-0.00017395183385815471,-0.03097613900899887,0.8920395374298096,-0.01755349710583687,-0.23927326500415802
903.0,880.0,0.1561,0.0419,10.3585,-0.0292,0.2314,-0.1397,-1.986094137231344,-0.3587524890899658,2.9397575855255127,-1.8613221645355225,0.5606294274330139,2.2839975357055664,5.378036010056295,0.001576657174155116,0.2308981716632843,-1.6034453550921839,-0.00012703782704193145,0.030818311497569084,0.8116679787635803,-0.00016353512182831764,-0.04231890290975571,0.8919200897216797,-0.01767038367688656,-0.1994611620903015
903.0,880.0,0.1561,0.0419,10.3585,-0.0292,0.2314,-0.1397,-1.9888855419554652,-0.34042128920555115,3.0651044845581055,-1.856915831565857,0.5605632066726685,2.3193342685699463,5.378111946373739,0.002538240747526288,0.256216824054718,-1.6034696737872522,-1.6160852212010468e-08,0.04551780968904495,0.8117319941520691,-0.0001713334786472842,-0.0566619336605072,0.8917593955993652,-0.017741873860359192,-0.2609768807888031
903.0,880.0,0.1561,0.0419,10.3585,-0.0292,0.2314,-0.1397,-1.9922400913634242,-0.33755114674568176,3.104065179824829,-1.8514126539230347,0.556684672832489,2.3255953788757324,5.3780802367027185,0.0008269108948297799,0.2484111189842224,-1.6034615675555628,-1.9177522186920003e-14,0.029559634625911713,0.8116597533226013,-0.0001725188922137022,-0.03376335650682449,0.8916321992874146,-0.013906899839639664,-0.2691919207572937
903.0,880.0,0.1561,0.0419,10.3585,-0.0292,0.2314,-0.1397,-1.9949165783324183,-0.3285817801952362,3.1097769737243652,-1.8469693660736084,0.5584232807159424,2.3258674144744873,5.378039705544271,0.0006048129289411008,0.25489306449890137,-1.6034897009478968,-3.4854203782686843e-19,0.02744974195957184,0.8116478323936462,-0.00017769861733540893,-0.04673895984888077,0.8914923667907715,-0.013457994908094406,-0.28306668996810913
903.0,880.0,0.1561,0.0419,10.3585,-0.0292,0.2314,-0.1397,-1.9975844822325648,-0.3320995271205902,3.139038324356079,-1.8425096273422241,0.5518092513084412,2.329623222351074,5.37810372093276,0.00048576228437013924,0.2570679783821106,-1.6034615675555628,-6.334579101334597e-24,0.04050268232822418,0.8116315603256226,-0.00022208764858078212,-0.04919598251581192,0.8913363218307495,-0.015909850597381592,-0.29263439774513245
903.0,880.0,0.1561,0.0419,10.3585,-0.0292,0.2314,-0.1397,-2.000188489953512,-0.31409621238708496,3.1539053916931152,-1.8379942178726196,0.5544998645782471,2.323838472366333,5.37813155630187,0.008475485257804394,0.2690029740333557,-1.6034897009478968,-1.1512784299252915e-28,0.03560918569564819,0.8116922378540039,-0.00018632123828865588,-0.044416509568691254,0.8911961317062378,-0.01712324656546116,-0.32780319452285767
883.0,872.0,-0.2913,0.5192,9.8082,-0.0194,0.3056,-0.1449,-2.0026561222472132,-0.3108832538127899,3.1322007179260254,-1.8335704803466797,0.5547593235969543,2.327153444290161,5.378275859146871,0.014689462259411812,0.2602202892303467,-1.6034334341632288,-2.0923918830781723e-33,0.04884457588195801,0.8116798400878906,-0.00019180188246537,-0.051041122525930405,0.8911126852035522,-0.016143348067998886,-0.2905295491218567
883.0,872.0,-0.2913,0.5192,9.8082,-0.0194,0.3056,-0.1449,-2.0058194599547328,-0.30031758546829224,3.222564697265625,-1.8280361890792847,0.5564116835594177,2.2969794273376465,5.3783748028571985,0.011612358503043652,0.28539565205574036,-1.6034858862506312,-2.4829691567279293e-39,0.04806217551231384,0.8116114735603333,-0.00019002456974703819,-0.04811625927686691,0.8909326791763306,-0.015926126390695572,-0.3584578037261963
883.0,872.0,-0.2913,0.5192,9.8082,-0.0194,0.3056,-0.1449,-2.0082761249937953,-0.30577006936073303,3.1832971572875977,-1.823603630065918,0.5509013533592224,2.323424816131592,5.378386962204733,0.0024429424665868282,0.28337693214416504,-1.603473965321676,-4.484155085839415e-44,0.036263249814510345,0.8116798400878906,-0.0001937881315825507,-0.046518124639987946,0.8907725811004639,-0.017548037692904472,-0.3671404719352722
883.0,872.0,-0.2913,0.5192,9.8082,-0.0194,0.3056,-0.1449,-2.0106240711607875,-0.30188557505607605,3.21567964553833,-1.819212794303894,0.5490564107894897,2.2743053436279297,5.378386962204733,-0.00041280974983237684,0.2792922854423523,-1.6034415403949183,-0.0,0.04944390431046486,0.8116478323936462,-0.0002008829906117171,-0.060013122856616974,0.8906410336494446,-0.01904788427054882,-0.35123467445373535
883.0,872.0,-0.2913,0.5192,9.8082,-0.0194,0.3056,-0.1449,-2.013040681878561,-0.29474878311157227,3.263890266418457,-1.8148479461669922,0.5479156374931335,2.291682720184326,5.378399300366201,-4.977617251711308e-08,0.27926167845726013,-1.6034534613238733,-0.0,0.0634712427854538,0.8116278648376465,-0.00020406037219800055,-0.04340221732854843,0.8904814720153809,-0.021091248840093613,-0.36425554752349854
883.0,872.0,-0.2913,0.5192,9.8082,-0.0194,0.3056,-0.1449,-2.0153209171690882,-0.28531140089035034,3.259894371032715,-1.8104766607284546,0.5409700870513916,2.3029236793518066,5.378418552666464,-9.046574253601669e-13,0.2661672532558441,-1.603450123463766,-0.0,0.047304943203926086,0.811623752117157,-0.0002068173052975908,-0.056449808180332184,0.890358030796051,-0.024731574580073357,-0.4292818605899811
883.0,872.0,-0.2913,0.5192,9.8082,-0.0194,0.3056,-0.1449,-2.017489095727438,-0.2749842405319214,3.2616825103759766,-1.8060364723205566,0.5431489944458008,2.309689521789551,5.378446805268087,0.001104228082112968,0.2873912751674652,-1.603473965321676,-0.0,0.0523146316409111,0.8117004036903381,-0.0002076285454677418,-0.0569608174264431,0.8901056051254272,-0.027785135433077812,-0.4292337894439697
883.0,872.0,-0.2913,0.5192,9.8082,-0.0194,0.3056,-0.1449,-2.0201288662352503,-0.2624428868293762,3.3650054931640625,-1.8007217645645142,0.5412934422492981,2.299967050552368,5.378434884339132,0.0006721689715050161,0.2753337323665619,-1.603445831929342,-0.0,0.057777345180511475,0.8116278648376465,-0.00028426817152649164,-0.05347368121147156,0.8897932767868042,-0.03642731532454491,-0.4550636410713196
