ramyac6/ROB537/final_project/csv/all/good_15.csv
tof_0,tof_1,accelx,accely,accelz,gyrox,gyroy,gyroz,shoulder_lift_joint_position,shoulder_lift_joint_velocity,shoulder_lift_joint_effort,elbow_joint_position,elbow_joint_velocity,elbow_joint_effort,wrist_1_joint_position,wrist_1_joint_velocity,wrist_1_joint_effort,wrist_2_joint_position,wrist_2_joint_velocity,wrist_2_joint_effort,wrist_3_joint_position,wrist_3_joint_velocity,wrist_3_joint_effort,shoulder_pan_joint_position,shoulder_pan_joint_velocity,shoulder_pan_joint_effort
242.0,253.0,5.6608,3.2118,6.4092,-0.0429,0.0362,-0.1251,-1.6711937389769496,0.0,2.579153060913086,-1.3194751739501953,-0.0,2.110057830810547,-2.4783741436400355,0.0,0.23669573664665222,-1.2170079390155237,0.0,-0.0369582399725914,-0.017658058797017873,-0.0,-0.005049773491919041,1.421163558959961,-6.649297574767843e-05,0.0021628784015774727
242.0,253.0,5.6608,3.2118,6.4092,-0.0429,0.0362,-0.1251,-1.6711694202818812,0.0,2.6471481323242188,-1.3194950819015503,-0.0,2.15427827835083,-2.478354116479391,0.0,0.2654397785663605,-1.216975514088766,0.0,-0.03673134371638298,-0.017706219349996388,-0.0,-0.021952297538518906,1.4212040901184082,-6.367058085743338e-05,-0.03349350392818451
242.0,253.0,5.6608,3.2118,6.4092,-0.0429,0.0362,-0.1251,-1.6711164913573207,0.0,2.591010332107544,-1.3194751739501953,-0.0,2.1556971073150635,-2.478405614892477,0.0,0.2608506679534912,-1.2169912497149866,0.0,-0.0424557588994503,-0.017690006886617482,-0.0,-0.0016523514641448855,1.4211397171020508,-6.026015762472525e-05,-0.04269309714436531
242.0,253.0,5.6608,3.2118,6.4092,-0.0429,0.0362,-0.1251,-1.671197076837057,0.0,2.6004090309143066,-1.3194351196289062,-0.0,2.195422410964966,-2.47839417080068,0.0,0.2551939785480499,-1.2169998327838343,0.0,-0.039201270788908005,-0.01768190065492803,-0.0,-0.021019889041781425,1.4211798906326294,-5.7932829804485664e-05,-0.02556629292666912
242.0,253.0,5.6608,3.2118,6.4092,-0.0429,0.0362,-0.1251,-1.6712414226927699,0.0,2.6014022827148438,-1.3194630146026611,-0.0,2.178525447845459,-2.478405614892477,0.0,0.2597326934337616,-1.2169836203204554,0.0,-0.030132701620459557,-0.017690006886617482,-0.0,-0.01277252659201622,1.4211196899414062,-5.5095697462093085e-05,0.01800357922911644
242.0,253.0,5.6608,3.2118,6.4092,-0.0429,0.0362,-0.1251,-1.6711608372130335,0.0,2.627863645553589,-1.3194423913955688,-0.0,2.1726717948913574,-2.478326459924215,0.0,0.26062580943107605,-1.2170122305499476,0.0,-0.05040590465068817,-0.017718140278951466,-0.0,-0.018739212304353714,1.4211397171020508,-5.252347546047531e-05,-0.037021782249212265
242.0,253.0,5.6608,3.2118,6.4092,-0.0429,0.0362,-0.1251,-1.6711937389769496,0.0,2.6051788330078125,-1.3195031881332397,-0.0,2.161993980407715,-2.4783698521056117,0.0,0.26048627495765686,-1.2169793287860315,0.0,-0.0290070790797472,-0.017706219349996388,-0.0,-0.0007918458431959152,1.4211273193359375,-6.743189442204311e-05,-0.01197588350623846
228.0,240.0,5.5519,3.2339,6.4283,-0.0414,0.0266,-0.1161,-1.6711937389769496,0.0,2.5975494384765625,-1.3194825649261475,-0.0,2.1519615650177,-2.478366037408346,0.0,0.2635630965232849,-1.2170479933368128,0.0,-0.029277607798576355,-0.017670456563131154,-0.0,-0.013065062463283539,1.4210991859436035,-6.382542051142082e-05,0.018997972831130028
228.0,240.0,5.5519,3.2339,6.4283,-0.0414,0.0266,-0.1161,-1.6711932621397914,0.0,2.584136486053467,-1.3194825649261475,-0.0,2.168973922729492,-2.478382249871725,0.0,0.25475919246673584,-1.216971222554342,0.0,-0.04680129140615463,-0.017706219349996388,-0.0,-8.393079042434692e-06,1.4211479425430298,-6.0398841014830396e-05,-0.08054488897323608
228.0,240.0,5.5519,3.2339,6.4283,-0.0414,0.0266,-0.1161,-1.671152730981344,0.0,2.6015210151672363,-1.3194310665130615,-0.0,2.13954496383667,-2.478389879266256,0.0,0.24891939759254456,-1.2169998327838343,0.0,-0.0322626493871212,-0.017690006886617482,-0.0,-0.007478326093405485,1.4211598634719849,-5.80609921598807e-05,-0.0033817626535892487
228.0,240.0,5.5519,3.2339,6.4283,-0.0414,0.0266,-0.1161,-1.6711608372130335,0.0,2.608889102935791,-1.3194465637207031,-0.0,2.1577658653259277,-2.478386541406149,0.0,0.2670685350894928,-1.2170236746417444,0.0,-0.026259135454893112,-0.017665688191549123,-0.0,-0.011786071583628654,1.4211434125900269,-5.521162893273868e-05,-0.058387018740177155
228.0,240.0,5.5519,3.2339,6.4283,-0.0414,0.0266,-0.1161,-1.671213766137594,0.0,2.620610237121582,-1.3194785118103027,-0.0,2.13334321975708,-2.4783741436400355,0.0,0.2689967155456543,-1.2169912497149866,0.0,-0.03750542178750038,-0.01772624651064092,-0.0,-0.012287629768252373,1.4211397171020508,-5.2628794946940616e-05,-0.01607554778456688
228.0,240.0,5.5519,3.2339,6.4283,-0.0414,0.0266,-0.1161,-1.6711327038206996,0.0,2.5871376991271973,-1.3194465637207031,-0.0,2.16147518157959,-2.478389879266256,0.0,0.2704453468322754,-1.2170317808734339,0.0,-0.025643449276685715,-0.017697636281148732,-0.0,-0.004345046356320381,1.4212000370025635,-6.1013859522063285e-05,-0.015548442490398884
228.0,240.0,5.5519,3.2339,6.4283,-0.0414,0.0266,-0.1161,-1.671157022515768,0.0,2.593316078186035,-1.3194630146026611,-0.0,2.15950345993042,-2.478398462335104,0.0,0.27732694149017334,-1.217004124318258,0.0,-0.03648918867111206,-0.017693821583883107,-0.0,-0.002294581150636077,1.421163558959961,-3.146779192775284e-08,-0.0032028071582317352
228.0,240.0,5.5519,3.2339,6.4283,-0.0414,0.0266,-0.1161,-1.671213766137594,0.0,2.5813698768615723,-1.3195232152938843,-0.0,2.1421539783477783,-2.4784018001952113,0.0,0.2621065080165863,-1.2169793287860315,0.0,-0.05136806517839432,-0.017706219349996388,-0.0,-0.0038656946271657944,1.4211397171020508,-7.599101876183331e-14,0.005731281358748674
228.0,240.0,5.5519,3.2339,6.4283,-0.0414,0.0266,-0.1161,-1.6711732349791468,0.0,2.599378824234009,-1.3194465637207031,-0.0,2.18257474899292,-2.47839417080068,0.0,0.2767559885978699,-1.2170441786395472,0.0,-0.03569063916802406,-0.017730061207906544,-0.0,-0.013832156546413898,1.4211233854293823,-2.4620122164878054e-21,-0.028959844261407852
228.0,240.0,5.5519,3.2339,6.4283,-0.0414,0.0266,-0.1161,-1.6711775265135707,0.0,2.557628631591797,-1.3194228410720825,-0.0,2.159285306930542,-2.478386541406149,0.0,0.2672904133796692,-1.2170122305499476,0.0,-0.021478697657585144,-0.017666165028707326,-0.0,-0.012317711487412453,1.4211475849151611,-7.976608402487817e-29,-0.01934913732111454
228.0,240.0,5.5519,3.2339,6.4283,-0.0414,0.0266,-0.1161,-1.6712094746031703,0.0,2.5985476970672607,-1.3194351196289062,-0.0,2.1949236392974854,-2.47839417080068,0.0,0.265841007232666,-1.2169955412494105,0.0,-0.04489604011178017,-0.0177386442767542,-0.0,-0.006210905499756336,1.4211195707321167,-1.9262568787535583e-34,0.02456989325582981
228.0,240.0,5.5519,3.2339,6.4283,-0.0414,0.0266,-0.1161,-1.6711651287474574,0.0,2.5942554473876953,-1.3194785118103027,-0.0,2.105684280395508,-2.478398462335104,0.0,0.2683744728565216,-1.2170160452472132,0.0,-0.028295595198869705,-0.017658058797017873,-0.0,-0.009960048831999302,1.4211074113845825,-6.241383360102735e-42,0.02141648903489113
224.0,237.0,5.7224,3.137,6.3781,-0.0367,0.026,-0.1188,-1.6712094746031703,0.0,2.5954372882843018,-1.319490909576416,-0.0,2.13791823387146,-2.478382249871725,0.0,0.26757970452308655,-1.2170079390155237,0.0,-0.03687906637787819,-0.017710034047262013,-0.0,-0.003299230942502618,1.4210951328277588,0.0,0.00750590767711401
224.0,237.0,5.7224,3.137,6.3781,-0.0367,0.026,-0.1188,-1.67118563274526,0.0,2.5969796180725098,-1.3194743394851685,-0.0,2.170487880706787,-2.4783903561034144,0.0,0.26780563592910767,-1.2170317808734339,0.0,-0.020411517471075058,-0.01770192781557256,-0.0,-0.008506650105118752,1.4211437702178955,0.0,0.005728499498218298
224.0,237.0,5.7224,3.137,6.3781,-0.0367,0.026,-0.1188,-1.6712414226927699,0.0,2.5737404823303223,-1.3194825649261475,-0.0,2.1575942039489746,-2.4783741436400355,0.0,0.2655905783176422,-1.2170122305499476,0.0,-0.02664729207754135,-0.017685715352193654,-0.0,-0.0016203245613723993,1.4211195707321167,-8.032431651372463e-05,0.006239390000700951
224.0,237.0,5.7224,3.137,6.3781,-0.0367,0.026,-0.1188,-1.6711775265135707,0.0,2.602303981781006,-1.3195068836212158,-0.0,2.181922435760498,-2.4783503017821253,0.0,0.2647895812988281,-1.2170122305499476,0.0,-0.04622044041752815,-0.017697636281148732,-0.0,-0.023660611361265182,1.4211516380310059,-0.00010320891306037083,-0.03429216146469116
224.0,237.0,5.7224,3.137,6.3781,-0.0367,0.026,-0.1188,-1.6711489162840785,0.0,2.6385178565979004,-1.3194743394851685,-0.0,2.1539018154144287,-2.478354116479391,0.0,0.2644336521625519,-1.2170231978045862,0.0,-0.04279034584760666,-0.017641369496480763,-0.0,-0.0037160287611186504,1.42113196849823,-0.00011405009718146175,-0.03139476850628853
224.0,237.0,5.7224,3.137,6.3781,-0.0367,0.026,-0.1188,-1.6711775265135707,-2.1540769168382212e-09,2.5576229095458984,-1.3194743394851685,-0.0,2.168361186981201,-2.478366037408346,0.0,0.26246190071105957,-1.216987435017721,0.0,-0.029046611860394478,-0.017666165028707326,-0.0,-0.0012575576547533274,1.4211156368255615,-0.0004591629549395293,0.017243744805455208
224.0,237.0,5.7224,3.137,6.3781,-0.0367,0.026,-0.1188,-1.6711818180479945,-5.2018427813913665e-15,2.5787508487701416,-1.3194743394851685,-0.0,2.1037416458129883,-2.4784022770323695,0.0,0.27126654982566833,-1.216971222554342,0.0,-0.04010755941271782,-0.017653767262594044,-0.0,9.943032637238503e-06,1.4211037158966064,-0.001026776502840221,0.005686621181666851
224.0,237.0,5.7224,3.137,6.3781,-0.0367,0.026,-0.1188,-1.6711608372130335,-1.685331273156308e-22,2.5745458602905273,-1.319490671157837,-0.0,2.1526827812194824,-2.478354116479391,0.0,0.26319244503974915,-1.2170122305499476,0.0,-0.04261603578925133,-0.01770192781557256,-0.0,-0.02089224010705948,1.4211196899414062,-0.0018716653576120734,-0.018630962818861008
224.0,237.0,5.7224,3.137,6.3781,-0.0367,0.026,-0.1188,-1.6712056599059046,-5.460259280586515e-30,2.6078343391418457,-1.31952702999115,-0.0,2.147017240524292,-2.4783741436400355,0.0,0.25244274735450745,-1.2170122305499476,0.0,-0.03558620810508728,-0.01769429842104131,-0.0,-0.017646463587880135,1.4210352897644043,-0.0031887427903711796,0.02907443977892399
224.0,237.0,5.7224,3.137,6.3781,-0.0367,0.026,-0.1188,-1.671157022515768,-1.3185882596397498e-35,2.581429958343506,-1.319490671157837,-0.0,2.132779359817505,-2.478366037408346,0.0,0.2726459205150604,-1.2170317808734339,0.0,-0.023275207728147507,-0.017698113118306935,-0.0,-0.008719807490706444,1.4210315942764282,-0.003981844522058964,-0.029081448912620544
224.0,237.0,5.7224,3.137,6.3781,-0.0367,0.026,-0.1188,-1.6711775265135707,-4.273960316190692e-43,2.5882134437561035,-1.3194950819015503,-0.0,2.1319379806518555,-2.4784022770323695,0.0,0.2662557363510132,-1.2170360724078577,0.0,-0.038932278752326965,-0.017686192189351857,-0.0,-0.006769822910428047,1.4210479259490967,-0.004023650661110878,0.018443576991558075
224.0,237.0,5.7224,3.137,6.3781,-0.0367,0.026,-0.1188,-1.6711775265135707,0.0,2.5493154525756836,-1.3194785118103027,-0.0,2.16817045211792,-2.4783741436400355,0.0,0.26226097345352173,-1.2169836203204554,0.0,-0.022723566740751266,-0.017693821583883107,-0.0,-0.0026711199898272753,1.4209792613983154,-0.0029977369122207165,-0.01580365002155304
217.0,232.0,5.6393,3.2626,6.4511,-0.0284,0.0231,-0.1249,-1.671213766137594,0.0,2.608099937438965,-1.3194383382797241,-0.0,2.157665729522705,-2.4784099064269007,0.0,0.2628905475139618,-1.2169793287860315,0.0,-0.03770618140697479,-0.017673794423238576,-0.0,-0.021803349256515503,1.4209551811218262,-0.002873710123822093,-0.006851561367511749
217.0,232.0,5.6393,3.2626,6.4511,-0.0284,0.0231,-0.1249,-1.6711775265135707,0.0,2.602999687194824,-1.3194743394851685,-0.0,2.153219223022461,-2.4783579311766566,0.0,0.26916396617889404,-1.2169912497149866,0.0,-0.038377080112695694,-0.017666165028707326,-0.0,-0.007325926795601845,1.420959711074829,-0.0025035555008798838,-0.0015051646623760462
217.0,232.0,5.6393,3.2626,6.4511,-0.0284,0.0231,-0.1249,-1.671152730981344,0.0,2.575474739074707,-1.3194546699523926,-0.0,2.1656813621520996,-2.4783817730345667,0.0,0.27373936772346497,-1.216943089162008,0.0,-0.03793000429868698,-0.017641369496480763,-0.0,-0.01774417981505394,1.4209396839141846,-0.002818324137479067,-0.038946956396102905
217.0,232.0,5.6393,3.2626,6.4511,-0.0284,0.0231,-0.1249,-1.671185155908102,0.0,2.611024856567383,-1.3194670677185059,-0.0,2.10872483253479,-2.478406091729635,0.0,0.24421897530555725,-1.216975514088766,0.0,-0.03876533731818199,-0.017666165028707326,-0.0,-0.009242912754416466,1.420871376991272,-0.002702111843973398,0.04781518876552582
217.0,232.0,5.6393,3.2626,6.4511,-0.0284,0.0231,-0.1249,-1.6712056599059046,0.0,2.603318929672241,-1.319499135017395,-0.0,2.181155204772949,-2.4783622227110804,0.0,0.26683640480041504,-1.2169998327838343,0.0,-0.03787791728973389,-0.017658058797017873,-0.0,-0.026935890316963196,1.4208675622940063,-0.002829799661412835,-0.005251692607998848
217.0,232.0,5.6393,3.2626,6.4511,-0.0284,0.0231,-0.1249,-1.6712056599059046,0.0,2.5810914039611816,-1.3194825649261475,-0.0,2.180467367172241,-2.4784137211241664,0.0,0.2648817002773285,-1.2169917265521448,0.0,-0.04058590531349182,-0.017661873494283498,-0.0,-0.002034496981650591,1.4208598136901855,-0.0032427015248686075,-0.04099182039499283
217.0,232.0,5.6393,3.2626,6.4511,-0.0284,0.0231,-0.1249,-1.6711813412108363,0.0,2.577143430709839,-1.3194711208343506,-0.0,2.166398525238037,-2.4783503017821253,0.0,0.2608586549758911,-1.216959301625387,0.0,-0.03253405541181564,-0.017641369496480763,-0.0,-0.008046860806643963,1.420827865600586,-0.0042129564099013805,0.014776162803173065
217.0,232.0,5.6393,3.2626,6.4511,-0.0284,0.0231,-0.1249,-1.6712013683714808,0.0,2.583073139190674,-1.3194785118103027,-0.0,2.1569151878356934,-2.478354116479391,0.0,0.25144702196121216,-1.2169674078570765,0.0,-0.029694993048906326,-0.017686192189351857,-0.0,-0.011563085950911045,1.4207996129989624,-0.00514125544577837,0.009619522839784622
217.0,232.0,5.6393,3.2626,6.4511,-0.0284,0.0231,-0.1249,-1.6711732349791468,0.0,2.6034300327301025,-1.3194785118103027,-0.0,2.179269790649414,-2.4783460102477015,0.0,0.26392030715942383,-1.2169955412494105,0.0,-0.04332626238465309,-0.017661873494283498,-0.0,0.001294518355280161,1.4207721948623657,-0.005869538988918066,-0.013469960540533066
217.0,232.0,5.6393,3.2626,6.4511,-0.0284,0.0231,-0.1249,-1.6712094746031703,0.0,2.577132225036621,-1.3194670677185059,-0.0,2.1683430671691895,-2.4783741436400355,0.0,0.26268643140792847,-1.2169554869281214,0.0,-0.03395189344882965,-0.017678085957662404,-0.0,-0.007106265518814325,1.420732021331787,-0.006109416019171476,0.014868134632706642
217.0,232.0,5.6393,3.2626,6.4511,-0.0284,0.0231,-0.1249,-1.6712013683714808,0.0,2.5908122062683105,-1.3194868564605713,-0.0,2.189429521560669,-2.478389879266256,0.0,0.26524895429611206,-1.2169635931598108,0.0,-0.0391983762383461,-0.017653767262594044,-0.0,-0.0008515577646903694,1.420676350593567,-0.005926542915403843,-0.04699462279677391
217.0,232.0,5.6393,3.2626,6.4511,-0.0284,0.0231,-0.1249,-1.6712295017638148,0.0,2.60782790184021,-1.3194743394851685,-0.0,2.1649892330169678,-2.4783460102477015,0.0,0.25272566080093384,-1.2169955412494105,0.0,-0.036590248346328735,-0.017641369496480763,-0.0,-0.010281704366207123,1.420607566833496,-0.005998507142066956,-0.012035742402076721
217.0,232.0,5.6393,3.2626,6.4511,-0.0284,0.0231,-0.1249,-1.671208997766012,-5.689539830200374e-05,2.633704900741577,-1.31951105594635,-0.0,2.1430253982543945,-2.478302141229147,0.0,0.2596820592880249,-1.217020336781637,0.0,-0.03940825164318085,-0.017621819172994435,-0.0,-0.0007644239813089371,1.4205634593963623,-0.005059918388724327,-0.011560840532183647
216.0,236.0,5.549,3.2931,6.3494,-0.0382,0.0238,-0.1223,-1.6711813412108363,-8.279871690319851e-05,2.57275652885437,-1.3194507360458374,-0.0,2.156238317489624,-2.4783503017821253,0.0,0.2543853223323822,-1.216975514088766,0.0,-0.03973017632961273,-0.017641369496480763,-0.0,-0.003175826044753194,1.4205758571624756,-0.004132121801376343,0.006335320416837931
216.0,236.0,5.549,3.2931,6.3494,-0.0382,0.0238,-0.1223,-1.6712328396239222,-9.250251605408266e-05,2.5833213329315186,-1.319518804550171,-0.0,2.1568756103515625,-2.4783135853209437,0.0,0.24686720967292786,-1.2169879118548792,0.0,-0.04153544455766678,-0.017658058797017873,-0.0,0.005255961325019598,1.420516014099121,-0.004045662470161915,0.016074158251285553
216.0,236.0,5.549,3.2931,6.3494,-0.0382,0.0238,-0.1223,-1.671208997766012,-0.000544690468814224,2.616394519805908,-1.319499135017395,-0.0,2.129899263381958,-2.4783817730345667,0.0,0.26040685176849365,-1.2169635931598108,0.0,-0.05844584479928017,-0.01769429842104131,-0.0,0.00401715561747551,1.4205360412597656,-0.003300841199234128,0.026386450976133347
216.0,236.0,5.549,3.2931,6.3494,-0.0382,0.0238,-0.1223,-1.6712571583189906,-0.0006808381294831634,2.58773136138916,-1.3195232152938843,-0.0,2.1691200733184814,-2.478354116479391,0.0,0.2715040445327759,-1.2169716993915003,0.0,-0.0434386171400547,-0.017690483723775685,-0.0,0.003847128013148904,1.420516014099121,-0.0027297120541334152,-0.005031819920986891
216.0,236.0,5.549,3.2931,6.3494,-0.0382,0.0238,-0.1223,-1.671281477014059,-0.0006809470942243934,2.5883655548095703,-1.3194588422775269,-0.0,2.175529718399048,-2.4783622227110804,0.0,0.27998343110084534,-1.217020336781637,0.0,-0.05760347098112106,-0.01763326326479131,-0.0,0.0040205069817602634,1.420464038848877,-0.0023014643229544163,-0.007588391192257404
216.0,236.0,5.549,3.2931,6.3494,-0.0382,0.0238,-0.1223,-1.6712733707823695,-0.0006824253941886127,2.6236300468444824,-1.3194423913955688,-0.0,2.1681225299835205,-2.4783460102477015,0.0,0.2711822986602783,-1.2169836203204554,0.0,-0.05278322845697403,-0.0177386442767542,-0.0,0.010309349745512009,1.4204401969909668,-0.0020476095378398895,0.08405464142560959
216.0,236.0,5.549,3.2931,6.3494,-0.0382,0.0238,-0.1223,-1.6712571583189906,-0.0007444556104019284,2.5883758068084717,-1.3194538354873657,-0.0,2.1434078216552734,-2.4783383808531703,0.00014134352386463434,0.2703574597835541,-1.216975514088766,0.0,-0.0607529878616333,-0.017673794423238576,-0.0,0.006114769261330366,1.4204442501068115,-0.001628411584533751,0.035375408828258514
216.0,236.0,5.549,3.2931,6.3494,-0.0382,0.0238,-0.1223,-1.6712614498534144,-0.0011017187498509884,2.6201212406158447,-1.3194904327392578,-0.0,2.1871862411499023,-2.478298326531881,0.00016945574316196144,0.2830464839935303,-1.2169793287860315,0.0,-0.06389090418815613,-0.017666165028707326,-0.0,0.0014917226508259773,1.420436143875122,-0.001273844507522881,0.03240834176540375
216.0,236.0,5.549,3.2931,6.3494,-0.0382,0.0238,-0.1223,-1.6713253460326136,-0.0014885497512295842,2.5617213249206543,-1.3194950819015503,-0.0,2.1549007892608643,-2.4783383808531703,0.00015828611503820866,0.27436190843582153,-1.216975514088766,0.0,-0.07566004991531372,-0.017613712941304982,-0.0,0.008512550964951515,1.4203718900680542,-0.0011004152474924922,0.031071940436959267
216.0,236.0,5.549,3.2931,6.3494,-0.0382,0.0238,-0.1223,-1.6712895832457484,-0.002375081880018115,2.627866268157959,-1.3194950819015503,-0.0,2.0868313312530518,-2.478377958337301,0.00016812449030112475,0.2888825237751007,-1.216971222554342,0.0,-0.06674250960350037,-0.017585102711812794,-0.0,-0.0035421778447926044,1.420424222946167,-0.0011193350655958056,0.036621153354644775
216.0,236.0,5.549,3.2931,6.3494,-0.0382,0.0238,-0.1223,-1.6713329754271449,-0.003119840519502759,2.599376678466797,-1.3195068836212158,-0.0,2.184751272201538,-2.478285928765768,0.00015384095604531467,0.28516244888305664,-1.2169674078570765,-1.0013987861157148e-07,-0.07971445471048355,-0.017666165028707326,-0.0,0.007931644096970558,1.4204001426696777,-0.001297162612900138,0.0051040491089224815
216.0,236.0,5.549,3.2931,6.3494,-0.0382,0.0238,-0.1223,-1.6713410816588343,-0.003681168192997575,2.568171977996826,-1.3194464445114136,-0.0,2.149240732192993,-2.4783135853209437,0.00014172741794027388,0.2734870910644531,-1.2170036474811,-1.819992941076709e-12,-0.07597614824771881,-0.017661873494283498,-0.0,0.01313146110624075,1.4203681945800781,-0.0014655012637376785,0.024478381499648094
220.0,234.0,5.5711,3.2327,6.3948,-0.0325,0.0133,-0.1231,-1.671401163140768,-0.0033246311359107494,2.599256992340088,-1.319518804550171,-0.0,2.211981773376465,-2.478302141229147,0.00013395969290286303,0.27960431575775146,-1.216971222554342,-5.066017236650877e-16,-0.0917334109544754,-0.017658058797017873,-0.0,0.019046705216169357,1.4203521013259888,-0.0017263391055166721,0.041824426501989365
220.0,234.0,5.5711,3.2327,6.3948,-0.0325,0.0133,-0.1231,-1.6714335880675257,-0.0034828949719667435,2.614159107208252,-1.3195313215255737,-0.0,2.1666252613067627,-2.4782902203001917,0.00015878469275776297,0.2794063091278076,-1.21702748933901,-9.207235115021946e-21,-0.0924806296825409,-0.017653767262594044,-0.0,0.01033712550997734,1.4203804731369019,-0.0019877543672919273,0.032975293695926666
220.0,234.0,5.5711,3.2327,6.3948,-0.0325,0.0133,-0.1231,-1.6714326343932093,-0.002995647955685854,2.6141040325164795,-1.3195147514343262,-0.0,2.174149513244629,-2.4782940349974574,0.00018062195158563554,0.2760773301124573,-1.2170036474811,-1.6733695928263576e-25,-0.08442753553390503,-0.017658058797017873,-4.422043842211565e-10,0.010969171300530434,1.4203120470046997,-0.0019390027737244964,0.06885457783937454
220.0,234.0,5.5711,3.2327,6.3948,-0.0325,0.0133,-0.1231,-1.671436449090475,-0.0027076671831309795,2.601442337036133,-1.3195436000823975,-0.0,2.1719706058502197,-2.4782825909056605,0.0002020149549935013,0.28272297978401184,-1.2170079390155237,-4.6578862464779424e-29,-0.08093629777431488,-0.017661873494283498,-1.230892286967905e-13,0.01003231294453144,1.420364499092102,-0.0017334778094664216,0.059283796697854996
220.0,234.0,5.5711,3.2327,6.3948,-0.0325,0.0133,-0.1231,-1.671481271783346,-0.002616253914311528,2.6310267448425293,-1.3194620609283447,-0.0,2.168208360671997,-2.478278776208395,0.00029415852623060346,0.2994530200958252,-1.2169793287860315,-8.46547776943521e-34,-0.07670159637928009,-0.017646614705220998,-2.2370861852070524e-18,0.022071432322263718,1.4203685522079468,-0.0016929953126236796,0.06144295260310173
220.0,234.0,5.5711,3.2327,6.3948,-0.0325,0.0133,-0.1231,-1.6715370617308558,-0.0028182475361973047,2.540504217147827,-1.3194987773895264,-0.0,2.1791493892669678,-2.4782825909056605,0.0002521354763302952,0.2763036787509918,-1.2169955412494105,-2.3563968168858516e-37,-0.10853129625320435,-0.017653767262594044,-6.227011006486182e-22,0.024667635560035706,1.4203485250473022,-0.0016580948140472174,0.050737541168928146
220.0,234.0,5.5711,3.2327,6.3948,-0.0325,0.0133,-0.1231,-1.6715203724303187,-0.0036264294758439064,2.60082745552063,-1.3195394277572632,-3.395231040759228e-10,2.104536771774292,-2.478234430352682,0.0002471278712619096,0.2815420925617218,-1.2170079390155237,-4.282368106976641e-42,-0.08235710859298706,-0.017613712941304982,-1.1317285895048338e-26,0.021337300539016724,1.4203366041183472,-0.001682862639427185,0.05836986005306244
220.0,234.0,5.5711,3.2327,6.3948,-0.0325,0.0133,-0.1231,-1.6716095409789027,-0.004131539259105921,2.6305084228515625,-1.3195229768753052,-1.1000114137887404e-17,2.1382360458374023,-2.4782501659789027,0.00020890084851998836,0.28405195474624634,-1.2169793287860315,-0.0,-0.09456932544708252,-0.017634216939107716,-2.056860501862615e-31,0.0191563218832016,1.4203124046325684,-0.0025434999261051416,0.04559158533811569
220.0,234.0,5.5711,3.2327,6.3948,-0.0325,0.0133,-0.1231,-1.671617170373434,-0.004900020081549883,2.598053455352783,-1.3195065259933472,-2.6563979060111137e-23,2.199739933013916,-2.4782382450499476,0.00021822776761837304,0.29563412070274353,-1.216947380696432,-0.0,-0.09093768894672394,-0.017622296010152638,0.00014057137013878673,0.028229378163814545,1.420236349105835,-0.0028310222551226616,0.024812549352645874
220.0,234.0,5.5711,3.2327,6.3948,-0.0325,0.0133,-0.1231,-1.6715885601439417,-0.004886915907263756,2.5751953125,-1.319518804550171,-8.606391293500185e-31,2.2021615505218506,-2.478274007836813,0.00021911156363785267,0.30300697684288025,-1.2170079390155237,-0.0,-0.08891403675079346,-0.01761800447572881,0.00016232782218139619,0.033306464552879333,1.4202160835266113,-0.003179580206051469,0.022387079894542694
220.0,234.0,5.5711,3.2327,6.3948,-0.0325,0.0133,-0.1231,-1.6716810665526332,-0.004660565871745348,2.5927724838256836,-1.3195147514343262,-2.788361417810251e-38,2.1480214595794678,-2.478246351281637,0.00019668643653858453,0.2996361255645752,-1.2170355955706995,-0.0,-0.08625553548336029,-0.01759034792055303,0.00014185707550495863,0.03503912687301636,1.4202157258987427,-0.0037181496154516935,0.03909100964665413
220.0,234.0,5.5711,3.2327,6.3948,-0.0325,0.0133,-0.1231,-1.671664377252096,-0.004235129337757826,2.6354904174804688,-1.319510579109192,-6.726232628759122e-44,2.185420036315918,-2.478258272210592,0.0001746311318129301,0.3010079860687256,-1.216971222554342,-0.0,-0.09997684508562088,-0.017629925404683888,0.00015548913506790996,0.040256600826978683,1.420172095298767,-0.003787243040278554,0.04960617050528526
225.0,230.0,5.467,3.3619,6.5587,-0.0386,0.011,-0.1228,-1.6716801128783167,-0.0036766664125025272,2.6353871822357178,-1.319518804550171,-0.0,2.1818857192993164,-2.47829069713735,0.00018137712322641164,0.30580610036849976,-1.216975514088766,-0.0,-0.10197004675865173,-0.0175860563861292,0.00013945320097263902,0.039840664714574814,1.420128345489502,-0.004350127652287483,-0.0008708825334906578
225.0,230.0,5.467,3.3619,6.5587,-0.0386,0.011,-0.1228,-1.6717483005919398,-0.0029922230169177055,2.5833396911621094,-1.3194743394851685,-0.0,2.1556215286254883,-2.4782296619811,0.00018303733668290079,0.31117329001426697,-1.2170160452472132,-0.0,-0.09305262565612793,-0.017634216939107716,0.00012639592750929296,0.030472055077552795,1.4201160669326782,-0.004990483168512583,0.06468082964420319
225.0,230.0,5.467,3.3619,6.5587,-0.0386,0.011,-0.1228,-1.67177214244985,-0.003095292719081044,2.5533714294433594,-1.319510579109192,-0.0,2.168808698654175,-2.4782220325865687,0.00017133497749455273,0.29815518856048584,-1.2169998327838343,-0.0,-0.0926349014043808,-0.017678562794820607,0.00013270061754155904,0.03193582966923714,1.420068621635437,-0.005712791346013546,0.02552853338420391
225.0,230.0,5.467,3.3619,6.5587,-0.0386,0.011,-0.1228,-1.671788831750387,-0.0032981846015900373,2.611314296722412,-1.3195390701293945,-0.0,2.179619312286377,-2.4782377682127894,0.00017650109657552093,0.2970234453678131,-1.2169879118548792,-0.0,-0.09959586709737778,-0.01761800447572881,0.0001267013285541907,0.022954456508159637,1.420020341873169,-0.006284077651798725,0.030413556843996048
225.0,230.0,5.467,3.3619,6.5587,-0.0386,0.011,-0.1228,-1.6718207798399867,-0.0034924724604934454,2.6537885665893555,-1.3195065259933472,-0.0,2.1951045989990234,-2.478233953515524,0.00018674043531063944,0.29443758726119995,-1.216999355946676,-0.0,-0.09834709018468857,-0.017661873494283498,0.00011949174950132146,0.03209608793258667,1.4199682474136353,-0.006766023579984903,0.061807017773389816
225.0,230.0,5.467,3.3619,6.5587,-0.0386,0.011,-0.1228,-1.6718079052367152,-0.003923903685063124,2.615260601043701,-1.3195751905441284,-0.0,2.1947083473205566,-2.478206296960348,0.00021189605467952788,0.3004756271839142,-1.2169912497149866,-0.0,-0.08081810921430588,-0.017653767262594044,0.00012693139433395118,0.03082101047039032,1.4199285507202148,-0.007190593518316746,-4.490092396736145e-05
225.0,230.0,5.467,3.3619,6.5587,-0.0386,0.011,-0.1228,-1.671924730340475,-0.004048074595630169,2.605560302734375,-1.3195432424545288,-0.0,2.1886942386627197,-2.4781938991942347,0.00024334252520930022,0.29893729090690613,-1.2170079390155237,-0.0,-0.1019548550248146,-0.01759797731508428,0.00012071531818946823,0.023903578519821167,1.4198646545410156,-0.007385744713246822,0.03507732227444649
225.0,230.0,5.467,3.3619,6.5587,-0.0386,0.011,-0.1228,-1.6719285450377406,-0.004455466754734516,2.6522231101989746,-1.3195189237594604,-0.0,2.135735034942627,-2.478274007836813,0.0002226501819677651,0.30373668670654297,-1.2170398871051233,-0.0,-0.09475584328174591,-0.01761037508119756,0.00012270470324438065,0.027761787176132202,1.4198287725448608,-0.007315437309443951,0.025630487129092216
225.0,230.0,5.467,3.3619,6.5587,-0.0386,0.011,-0.1228,-1.6719161472716273,-0.004346099682152271,2.5784778594970703,-1.3195313215255737,-0.0,2.1873605251312256,-2.478246351281637,0.00029867084231227636,0.3012673258781433,-1.2169998327838343,-0.0,-0.08456472307443619,-0.017622296010152638,0.00012195738963782787,0.028844287618994713,1.419760823249817,-0.007064265664666891,0.03387492522597313
225.0,230.0,5.467,3.3619,6.5587,-0.0386,0.011,-0.1228,-1.6719886265196742,-0.004139713477343321,2.6518657207489014,-1.3195353746414185,-0.0,2.176778554916382,-2.478233953515524,0.00023599750420544297,0.29924362897872925,-1.2169793287860315,-0.0,-0.0897841677069664,-0.017622296010152638,0.00011185259063495323,0.05100424587726593,1.419684648513794,-0.007796871941536665,0.03425033763051033
225.0,230.0,5.467,3.3619,6.5587,-0.0386,0.011,-0.1228,-1.6720363102354945,-0.004213395994156599,2.603724956512451,-1.319510579109192,-0.0,2.1680240631103516,-2.478222509423727,0.0002432614128338173,0.29947996139526367,-1.216959301625387,-0.0,-0.10369714349508286,-0.01761037508119756,0.00012278206122573465,0.04617933928966522,1.4196609258651733,-0.008158380165696144,0.01789797842502594
225.0,230.0,5.467,3.3619,6.5587,-0.0386,0.011,-0.1228,-1.6720406017699183,-0.004718142095953226,2.623378038406372,-1.3195353746414185,-0.0,2.1575381755828857,-2.4782144031920375,0.00020713639969471842,0.29693302512168884,-1.2169716993915003,-0.0,-0.07638891041278839,-0.017609898244039357,0.0001139692758442834,0.03095269203186035,1.4195687770843506,-0.0086293313652277,-0.019807301461696625
225.0,230.0,5.467,3.3619,6.5587,-0.0386,0.011,-0.1228,-1.6720406017699183,-0.004605038557201624,2.5922348499298096,-1.3195271492004395,-0.0,2.1812057495117188,-2.4782296619811,0.00017957919044420123,0.292518675327301,-1.2169635931598108,-0.0,-0.07940417528152466,-0.01760560670961553,0.00010627866140566766,0.035202521830797195,1.419472575187683,-0.010080893523991108,-0.08148045092821121
225.0,239.0,5.6339,3.1047,6.347,-0.0473,0.0333,-0.1361,-1.6721164188780726,-0.004687906708568335,2.601895809173584,-1.319518804550171,-0.0,2.216975450515747,-2.4782544575133265,0.00018690423166844994,0.2936127185821533,-1.2169516722308558,-0.0,-0.085640549659729,-0.017606083546773732,0.00010115900659002364,0.04452206939458847,1.4194526672363281,-0.010064734145998955,-0.040967222303152084
225.0,239.0,5.6339,3.1047,6.347,-0.0473,0.0333,-0.1361,-1.6721726856627406,-0.0044596996158361435,2.6004414558410645,-1.3195390701293945,-0.0,2.1920502185821533,-2.478202005425924,0.00019416633585933596,0.29670214653015137,-1.216959301625387,-0.0,-0.07295472174882889,-0.01760560670961553,9.505384514341131e-05,0.05073689669370651,1.4193485975265503,-0.010949361138045788,-0.04050126671791077
225.0,239.0,5.6339,3.1047,6.347,-0.0473,0.0333,-0.1361,-1.672152658502096,-0.004643135704100132,2.6221137046813965,-1.3195189237594604,-0.0,2.1645500659942627,-2.478218217889303,0.0001741683081490919,0.29216504096984863,-1.2169516722308558,-0.0,-0.08564245700836182,-0.01763803163637334,9.093763947021216e-05,0.03672215715050697,1.4192851781845093,-0.01215305645018816,-0.07833290100097656
225.0,239.0,5.6339,3.1047,6.347,-0.0473,0.0333,-0.1361,-1.6722284756102503,-0.004262670408934355,2.6291732788085938,-1.3194983005523682,-0.0,2.11871075630188,-2.478161951104635,0.00020818100892938673,0.29759323596954346,-1.2170079390155237,-0.0,-0.08700903505086899,-0.017622296010152638,9.509561641607434e-05,0.03281700983643532,1.4191933870315552,-0.014283890835940838,-0.1577691286802292
225.0,239.0,5.6339,3.1047,6.347,-0.0473,0.0333,-0.1361,-1.6722084484496058,-0.00484674796462059,2.6411545276641846,-1.3194786310195923,-0.0,2.1608047485351562,-2.4782029591002406,0.0005043551209382713,0.2850852906703949,-1.2170160452472132,-0.0,-0.06678199023008347,-0.01759797731508428,9.316969226347283e-05,0.038759902119636536,1.4190207719802856,-0.017193211242556572,-0.1374693065881729
225.0,239.0,5.6339,3.1047,6.347,-0.0473,0.0333,-0.1361,-1.6722399197020472,-0.006170747801661491,2.592949628829956,-1.3195271492004395,-0.0,2.183234453201294,-2.4782139263548792,0.0005258488818071783,0.28910157084465027,-1.2169879118548792,-0.0,-0.07296904176473618,-0.017581764851705373,8.968795009423047e-05,0.03372562304139137,1.418920874595642,-0.01961144432425499,-0.18986015021800995
225.0,239.0,5.6339,3.1047,6.347,-0.0473,0.0333,-0.1361,-1.6723038158812464,-0.007225471083074808,2.642749309539795,-1.3195432424545288,-0.0,2.1410205364227295,-2.4781304798521937,0.0007451847195625305,0.3084375858306885,-1.216975514088766,-0.0,-0.06803256273269653,-0.017586533223287404,8.95826451596804e-05,0.04469244182109833,1.4187328815460205,-0.024661444127559662,-0.15335789322853088
225.0,239.0,5.6339,3.1047,6.347,-0.0473,0.0333,-0.1361,-1.67236389736318,-0.010040340013802052,2.5765299797058105,-1.3195271492004395,-0.0,2.1081292629241943,-2.4781624279417933,0.0031492875423282385,0.2935417592525482,-1.2169917265521448,-0.0,-0.07876630872488022,-0.017581764851705373,8.35758910397999e-05,0.0575605183839798,1.4185611009597778,-0.028750982135534286,-0.16828826069831848
225.0,239.0,5.6339,3.1047,6.347,-0.0473,0.0333,-0.1361,-1.6724640331664027,-0.01073151733726263,2.6252408027648926,-1.3195271492004395,-0.0,2.15608286857605,-2.4780942402281703,0.013561025261878967,0.29659464955329895,-1.2169836203204554,-0.0,-0.08093930780887604,-0.017606083546773732,7.916500180726871e-05,0.041115500032901764,1.418365716934204,-0.034483980387449265,-0.1661207526922226
225.0,239.0,5.6339,3.1047,6.347,-0.0473,0.0333,-0.1361,-1.6724792919554652,-0.012925851158797741,2.5950980186462402,-1.3195147514343262,-0.0,2.1339454650878906,-2.4779588184752406,0.032924044877290726,0.3000418543815613,-1.2170122305499476,-0.0,-0.068621426820755,-0.017601792012349904,7.395943976007402e-05,0.050273165106773376,1.4181016683578491,-0.03966764360666275,-0.1977590024471283
225.0,239.0,5.6339,3.1047,6.347,-0.0473,0.0333,-0.1361,-1.6726447544493617,-0.014076531864702702,2.611273765563965,-1.3195911645889282,-0.0,2.182157278060913,-2.4776140652098597,0.031099621206521988,0.3040434718132019,-1.2170193831073206,-0.0,-0.07195089012384415,-0.01763040224184209,8.327626710524783e-05,0.0403764545917511,1.4177255630493164,-0.045245446264743805,-0.11029773950576782
225.0,239.0,5.6339,3.1047,6.347,-0.0473,0.0333,-0.1361,-1.672743936578268,-0.016707710921764374,2.607588768005371,-1.3195637464523315,-0.0,2.1478283405303955,-2.477446218530172,0.023800235241651535,0.3236427307128906,-1.2170112768756312,-0.0,-0.08607129752635956,-0.017601792012349904,7.959502545418218e-05,0.043816693127155304,1.4174740314483643,-0.048884667456150055,-0.1199522390961647
228.0,236.0,5.6369,3.1986,6.326,-0.0412,0.0099,-0.1347,-1.6728478870787562,-0.018114743754267693,2.587887763977051,-1.319486379623413,-0.0,2.1960766315460205,-2.4773761234679164,0.011452033184468746,0.3111804127693176,-1.2170231978045862,-0.0,-0.0831775814294815,-0.017609898244039357,8.763107325648889e-05,0.0499969907104969,1.4170544147491455,-0.05190110579133034,-0.12419982999563217
228.0,236.0,5.6369,3.1986,6.326,-0.0412,0.0099,-0.1347,-1.6729914150633753,-0.020270880311727524,2.6038222312927246,-1.3194743394851685,-0.0,2.188654661178589,-2.477304597894186,0.004025647416710854,0.30621111392974854,-1.216971222554342,-0.0,-0.07957889139652252,-0.017606083546773732,8.417134813498706e-05,0.041180551052093506,1.4167102575302124,-0.053432293236255646,-0.09463606029748917
228.0,236.0,5.6369,3.1986,6.326,-0.0412,0.0099,-0.1347,-1.6731392345824183,-0.021593384444713593,2.644007682800293,-1.3195147514343262,-0.0,2.1498827934265137,-2.4772960148253382,0.00039291969733312726,0.30963921546936035,-1.2170522848712366,-1.4943399295752613e-10,-0.08690501749515533,-0.01759797731508428,9.131544356932864e-05,0.04414987564086914,1.416286826133728,-0.0579468198120594,-0.08692115545272827
228.0,236.0,5.6369,3.1986,6.326,-0.0412,0.0099,-0.1347,-1.6733070812621058,-0.024871349334716797,2.583322763442993,-1.3195271492004395,-0.0,2.1933059692382812,-2.477284093896383,0.0003002291196025908,0.31263267993927,-1.2170398871051233,-2.7158891726265094e-15,-0.09138505160808563,-0.017614189778463185,0.00013406903599388897,0.0425429567694664,1.41571044921875,-0.06508739292621613,-0.11240148544311523
228.0,236.0,5.6369,3.1986,6.326,-0.0412,0.0099,-0.1347,-1.6734911404051722,-0.027384508401155472,2.6103708744049072,-1.3195350170135498,-0.0,2.1938047409057617,-2.477244039575094,0.00029472526512108743,0.31955042481422424,-1.217004124318258,-7.559777326050756e-19,-0.09580843150615692,-0.01756602922548467,0.00014767145330552012,0.04705817252397537,1.4153393507003784,-0.06872951239347458,-0.11080478131771088
228.0,236.0,5.6369,3.1986,6.326,-0.0412,0.0099,-0.1347,-1.6737224064269007,-0.029642343521118164,2.5547194480895996,-1.3195472955703735,-0.0,2.170759677886963,-2.477227827111715,0.0003612727450672537,0.30584195256233215,-1.2170160452472132,-1.3739520966474703e-23,-0.0924421101808548,-0.017574135457174123,0.00015525844355579466,0.05579729378223419,1.4148036241531372,-0.06877326220273972,-0.07637906819581985
228.0,236.0,5.6369,3.1986,6.326,-0.0412,0.0099,-0.1347,-1.6739541492857875,-0.03180506080389023,2.5830063819885254,-1.3195271492004395,-0.0,2.173440456390381,-2.4772120914854945,0.0030281003564596176,0.3084649443626404,-1.2170317808734339,-0.0002110283967340365,-0.1083015501499176,-0.017550293599263966,0.00015129675739444792,0.05239375680685043,1.4142076969146729,-0.06673121452331543,-0.0817783921957016
228.0,236.0,5.6369,3.1986,6.326,-0.0412,0.0099,-0.1347,-1.6741630039610804,-0.03333346173167229,2.6055245399475098,-1.3194950819015503,-0.0,2.181692123413086,-2.477180143395895,0.00464059179648757,0.3299746513366699,-1.2170470396624964,-0.00020732487610075623,-0.10673318803310394,-0.017602268849508107,0.0001513701572548598,0.05479266867041588,1.413779854774475,-0.06361545622348785,-0.045410387217998505
228.0,236.0,5.6369,3.1986,6.326,-0.0412,0.0099,-0.1347,-1.674422403375143,-0.03524337336421013,2.5945017337799072,-1.3195432424545288,-0.0,2.213585138320923,-2.4772001705565394,0.004816554486751556,0.3122400939464569,-1.217004124318258,-0.0002100637648254633,-0.1086246520280838,-0.017570320759908498,0.00021031469805166125,0.054258815944194794,1.4132522344589233,-0.06313540041446686,-0.016706572845578194
228.0,236.0,5.6369,3.1986,6.326,-0.0412,0.0099,-0.1347,-1.6746818027892054,-0.03700385242700577,2.5732381343841553,-1.319474458694458,-0.0,2.1690433025360107,-2.477072378198141,0.004094545729458332,0.3125784695148468,-1.2170398871051233,-0.00018178320897277445,-0.1287750005722046,-0.01756602922548467,0.00021238367480691522,0.06253021955490112,1.4127647876739502,-0.06446738541126251,-0.05569654703140259
228.0,236.0,5.6369,3.1986,6.326,-0.0412,0.0099,-0.1347,-1.674929758111471,-0.03785053640604019,2.6258552074432373,-1.3194987773895264,-0.0,2.1819350719451904,-2.4770389995970667,0.004158962517976761,0.3238193988800049,-1.2170317808734339,-0.00019259241526015103,-0.11489726603031158,-0.01755839983095342,0.000190222286619246,0.06449732184410095,1.4124011993408203,-0.06668391078710556,-0.007666998077183962
228.0,236.0,5.6369,3.1986,6.326,-0.0412,0.0099,-0.1347,-1.6752053699889125,-0.03952344134449959,2.5959129333496094,-1.3195229768753052,-0.0,2.183117151260376,-2.4769803486266078,0.004870119970291853,0.32402634620666504,-1.2170475164996546,-0.00019614704069681466,-0.12818554043769836,-0.01755410829652959,0.00019451355910860002,0.05990544706583023,1.4119014739990234,-0.06302355974912643,-0.03727170079946518
243.0,237.0,5.415,3.2889,6.4068,-0.0863,-0.0144,-0.1781,-1.675481458703512,-0.040956564247608185,2.6093451976776123,-1.3195432424545288,-3.5072100779132143e-10,2.2096681594848633,-2.4769722423949183,0.006179004441946745,0.32811352610588074,-1.2170432249652308,-0.0002481188566889614,-0.12751105427742004,-0.017598930989400685,0.00019050725677516311,0.07597634196281433,1.411496877670288,-0.05996809899806976,-0.03503146767616272
243.0,237.0,5.415,3.2889,6.4068,-0.0863,-0.0144,-0.1781,-1.6757928333678187,-0.0437016636133194,2.5869150161743164,-1.3195068836212158,-1.1362916381733775e-17,2.1932883262634277,-2.476940771142477,0.008853290230035782,0.3169437050819397,-1.21702748933901,-0.00027170858811587095,-0.13656839728355408,-0.0175097624408167,0.00018279191863257438,0.07084731757640839,1.4111021757125854,-0.056568410247564316,-0.009000258520245552
243.0,237.0,5.415,3.2889,6.4068,-0.0863,-0.0144,-0.1781,-1.6761723957457484,-0.04255671426653862,2.5983400344848633,-1.3195353746414185,-3.6814405417863464e-25,2.2291646003723145,-2.4768487415709437,0.01117648184299469,0.3329427242279053,-1.2170475164996546,-0.00024294728063978255,-0.12985992431640625,-0.017562214528219044,0.0001659398403717205,0.06479436904191971,1.4105981588363647,-0.056530073285102844,0.034034326672554016
243.0,237.0,5.415,3.2889,6.4068,-0.0863,-0.0144,-0.1781,-1.6763998470702113,-0.04194154962897301,2.583293914794922,-1.3194828033447266,-8.890244967359347e-31,2.2145400047302246,-2.4767610035338343,0.012420827522873878,0.3210643529891968,-1.2170680204974573,-0.0003283146652393043,-0.13678355515003204,-0.017602268849508107,0.0001642236311454326,0.07007933408021927,1.410266637802124,-0.058322321623563766,0.03402881324291229
243.0,237.0,5.415,3.2889,6.4068,-0.0863,-0.0144,-0.1781,-1.6767717800536097,-0.04273286089301109,2.5989627838134766,-1.3195436000823975,-2.880326674206039e-38,2.2007932662963867,-2.476692338983053,0.015424815006554127,0.3350537121295929,-1.217071835194723,-0.0003047627105843276,-0.12364848703145981,-0.01755839983095342,0.00014335043670143932,0.06450220942497253,1.4098150730133057,-0.05934625491499901,0.016724582761526108
243.0,237.0,5.415,3.2889,6.4068,-0.0863,-0.0144,-0.1781,-1.6770912609496058,-0.043428488075733185,2.5810670852661133,-1.3194987773895264,-1.401298464324817e-45,2.223479747772217,-2.476549287835592,0.021479908376932144,0.333371639251709,-1.2170675436602991,-0.0002691705885808915,-0.13229943811893463,-0.017546002064840138,0.00015254692698363215,0.0687415599822998,1.4093153476715088,-0.05941591039299965,0.0059518953785300255
243.0,237.0,5.415,3.2889,6.4068,-0.0863,-0.0144,-0.1781,-1.6773392162718714,-0.044552769511938095,2.599752426147461,-1.3194868564605713,-0.0,2.248323440551758,-2.4763652286925257,0.029985914006829262,0.3491060435771942,-1.2170756498919886,-0.0002550868084654212,-0.13046440482139587,-0.017542187367574513,0.0001406534283887595,0.07569406926631927,1.409011721611023,-0.05675530061125755,0.027409549802541733
243.0,237.0,5.415,3.2889,6.4068,-0.0863,-0.0144,-0.1781,-1.6776501140990199,-0.04594411328434944,2.5554747581481934,-1.3195271492004395,-0.0,2.2123422622680664,-2.476065298120016,0.05390235036611557,0.354656845331192,-1.217055622731344,-0.00021953096438664943,-0.13770797848701477,-0.017554585133687794,0.00014860798546578735,0.07017893344163895,1.4085519313812256,-0.0536380410194397,0.03894013538956642
243.0,237.0,5.415,3.2889,6.4068,-0.0863,-0.0144,-0.1781,-1.6780263386168421,-0.048795804381370544,2.5257909297943115,-1.3195555210113525,-0.0,2.20508074760437,-2.475370069543356,0.10590218007564545,0.3776407539844513,-1.217083756123678,-0.00019267214520368725,-0.14031851291656494,-0.01753884950746709,0.0001501857623225078,0.06661919504404068,1.4081357717514038,-0.05139504000544548,0.016638703644275665
243.0,237.0,5.415,3.2889,6.4068,-0.0863,-0.0144,-0.1781,-1.6783744297423304,-0.05157040059566498,2.582029342651367,-1.319518804550171,-0.0,2.248596429824829,-2.4745618305602015,0.14454646408557892,0.3847508728504181,-1.217055622731344,-0.00017647906497586519,-0.15199223160743713,-0.017522160206929982,0.0001457689650123939,0.07800453901290894,1.4077472686767578,-0.05510755628347397,0.04202355444431305
243.0,237.0,5.415,3.2889,6.4068,-0.0863,-0.0144,-0.1781,-1.6787811718382777,-0.05564720928668976,2.5789294242858887,-1.319535255432129,-0.0,2.1963913440704346,-2.4733201466002406,0.16878992319107056,0.40899643301963806,-1.2170599142657679,-0.0001586958533152938,-0.12595108151435852,-0.017502609883443654,0.00013484962983056903,0.08040442317724228,1.4073965549468994,-0.05669022724032402,0.019928816705942154
243.0,237.0,5.415,3.2889,6.4068,-0.0863,-0.0144,-0.1781,-1.679220815698141,-0.057357046753168106,2.583400249481201,-1.3194987773895264,-0.0,2.215482473373413,-2.4718224010863246,0.2118791788816452,0.4310693144798279,-1.2170351187335413,-0.0001441688509657979,-0.13161614537239075,-0.017586533223287404,0.00012545102799776942,0.07616500556468964,1.4068844318389893,-0.05575794354081154,0.034342210739851
243.0,237.0,5.415,3.2889,6.4068,-0.0863,-0.0144,-0.1781,-1.6795727215208949,-0.05702142417430878,2.624702215194702,-1.319494605064392,-0.0,2.177920341491699,-2.4704090557494105,0.23824775218963623,0.46214762330055237,-1.217038933430807,-0.00015401028213091195,-0.1384771168231964,-0.01752645174135381,0.0001192192648886703,0.08383052051067352,1.4066290855407715,-0.05189913883805275,0.055233679711818695
220.0,226.0,5.8816,4.0361,6.6443,-0.0394,0.0049,-0.1649,-1.6800610027708949,-0.05585509166121483,2.6604247093200684,-1.31951105594635,-0.0,2.2374846935272217,-2.4684230289854945,0.2569023370742798,0.44781163334846497,-1.2170351187335413,-0.00014201432350091636,-0.13995908200740814,-0.01755839983095342,0.00011595354590099305,0.06928230822086334,1.4061973094940186,-0.04588407650589943,0.02559763193130493
220.0,226.0,5.8816,4.0361,6.6443,-0.0394,0.0049,-0.1649,-1.680347581902975,-0.055231451988220215,2.586742639541626,-1.3194868564605713,-0.0,2.1766281127929688,-2.4667612514891566,0.2862372398376465,0.4725342392921448,-1.2170632521258753,-0.00013408035738393664,-0.14233574271202087,-0.01755839983095342,0.00010765791375888512,0.08545422554016113,1.405893087387085,-0.046206895262002945,0.03901849687099457
220.0,226.0,5.8816,4.0361,6.6443,-0.0394,0.0049,-0.1649,-1.680819650689596,-0.05697792023420334,2.6150336265563965,-1.3195147514343262,-0.0,2.199437379837036,-2.4643408260741175,0.3295402228832245,0.4938381612300873,-1.217055622731344,-0.00012478514690883458,-0.13401097059249878,-0.01753408113588506,9.825477172853425e-05,0.08197648823261261,1.4055824279785156,-0.04484587535262108,0.07293570041656494
220.0,226.0,5.8816,4.0361,6.6443,-0.0394,0.0049,-0.1649,-1.6812588177123011,-0.05668570101261139,2.6297290325164795,-1.3195147514343262,-0.0,2.251941680908203,-2.461515089074606,0.3623744547367096,0.4947032630443573,-1.2170918623553675,-0.00011669512605294585,-0.14598724246025085,-0.01755077043642217,9.036252595251426e-05,0.07489816844463348,1.405166506767273,-0.04805446043610573,0.037738949060440063
220.0,226.0,5.8816,4.0361,6.6443,-0.0394,0.0049,-0.1649,-1.6816102466978968,-0.05329472944140434,2.607184886932373,-1.319530963897705,-0.0,2.24243426322937,-2.4591433010497035,0.3921622037887573,0.507165253162384,-1.2169950644122522,-0.00011128408368676901,-0.13201715052127838,-0.017550293599263966,8.522815915057436e-05,0.07154061645269394,1.4048340320587158,-0.05003703385591507,0.01667296513915062
220.0,226.0,5.8816,4.0361,6.6443,-0.0394,0.0049,-0.1649,-1.682009836236471,-0.05008964613080025,2.6113409996032715,-1.319518804550171,-0.00010319295688532293,2.2067832946777344,-2.4557796917357386,0.43095147609710693,0.5242695808410645,-1.2170599142657679,-0.00010480456694494933,-0.15047019720077515,-0.017534557973043263,7.922605436760932e-05,0.06814257800579071,1.4045346975326538,-0.05237911641597748,0.017950844019651413
220.0,226.0,5.8816,4.0361,6.6443,-0.0394,0.0049,-0.1649,-1.6824094257750453,-0.04854847118258476,2.6099419593811035,-1.319510579109192,-8.394244650844485e-05,2.249574899673462,-2.4521762333311976,0.47168171405792236,0.5500617623329163,-1.2169955412494105,-9.90380794974044e-05,-0.14358538389205933,-0.017530266438619435,7.401369657600299e-05,0.06662728637456894,1.4040790796279907,-0.05595257133245468,0.030560074374079704
220.0,226.0,5.8816,4.0361,6.6443,-0.0394,0.0049,-0.1649,-1.682765623132223,-0.050249967724084854,2.575314521789551,-1.3195353746414185,-0.00011028172593796626,2.2489013671875,-2.449284692803854,0.4996572732925415,0.5591378808021545,-1.2170475164996546,-9.511317330179736e-05,-0.13714195787906647,-0.0175097624408167,7.053340232232586e-05,0.07404486835002899,1.4036904573440552,-0.05750606209039688,0.053509268909692764
220.0,226.0,5.8816,4.0361,6.6443,-0.0394,0.0049,-0.1649,-1.68312468151235,-0.05259896442294121,2.5985255241394043,-1.3195514678955078,-6.333492638077587e-05,2.178144931793213,-2.4451033077635707,0.5157959461212158,0.5545471906661987,-1.2170599142657679,-9.033955575432628e-05,-0.14224225282669067,-0.017598454152242482,5.354398308554664e-05,0.06598298251628876,1.4032431840896606,-0.06388869881629944,0.013608735054731369
220.0,226.0,5.8816,4.0361,6.6443,-0.0394,0.0049,-0.1649,-1.6834961376585902,-0.05173942446708679,2.6128392219543457,-1.3194987773895264,-5.322215557157506e-09,2.2248640060424805,-2.4408818684019984,0.5420306921005249,0.5548640489578247,-1.217055622731344,-7.562971586594358e-05,-0.14700113236904144,-0.017594639454976857,5.0139566155849025e-05,0.059826821088790894,1.4027279615402222,-0.07419344782829285,0.013026796281337738
220.0,226.0,5.8816,4.0361,6.6443,-0.0394,0.0049,-0.1649,-1.6838442287840785,-0.050996605306863785,2.631416082382202,-1.319518804550171,-1.2852524728897748e-14,2.1705305576324463,-2.437568326989645,0.5606046915054321,0.56341153383255,-1.217083756123678,-7.266511966008693e-05,-0.13399267196655273,-0.017574135457174123,4.812861516256817e-05,0.05552113056182861,1.4022477865219116,-0.08135829865932465,-0.015481753274798393
220.0,226.0,5.8816,4.0361,6.6443,-0.0394,0.0049,-0.1649,-1.6842237911620082,-0.051858995109796524,2.6140918731689453,-1.3194423913955688,-4.1640546685732175e-22,2.2741446495056152,-2.432995458642477,0.5760421752929688,0.5445125102996826,-1.2169917265521448,-3.520868995110504e-05,-0.1382703185081482,-0.017638508473531544,4.568553049466573e-05,0.04797844588756561,1.4016002416610718,-0.08439452946186066,-0.06770961731672287
221.0,220.0,6.2626,4.3998,6.8423,-0.3262,0.277,-0.0432,-1.6845232448973597,-0.053819235414266586,2.6114373207092285,-1.3194507360458374,-1.005570201830358e-27,2.225276470184326,-2.429544588128561,0.5878701210021973,0.5496541261672974,-1.2169912497149866,-9.800469769061237e-09,-0.13313736021518707,-0.01757842699159795,3.301069591543637e-05,0.04998151957988739,1.4011049270629883,-0.08172076940536499,-0.02781999669969082
221.0,220.0,6.2626,4.3998,6.8423,-0.3262,0.277,-0.0432,-1.6850348911681117,-0.05761052295565605,2.6344170570373535,-1.3194588422775269,-3.2579196144883585e-35,2.187100887298584,-2.424952646295065,0.579253077507019,0.5281915664672852,-1.2169955412494105,-2.0994195438106544e-05,-0.1349128782749176,-0.01755839983095342,3.1468720408156514e-05,0.04481641948223114,1.4004652500152588,-0.08075673878192902,-0.03226736932992935
221.0,220.0,6.2626,4.3998,6.8423,-0.3262,0.277,-0.0432,-1.6854578457274378,-0.058557841926813126,2.6079983711242676,-1.3195148706436157,-1.0551777436365873e-42,2.2102243900299072,-2.420347353021139,0.5764225721359253,0.5437954664230347,-1.2170231978045862,-1.2552508451335598e-05,-0.10544800013303757,-0.01759797731508428,-3.405433380976319e-05,0.04700593650341034,1.3997732400894165,-0.0838099867105484,-0.10513640940189362
221.0,220.0,6.2626,4.3998,6.8423,-0.3262,0.277,-0.0432,-1.6858865223326625,-0.0560503825545311,2.554575204849243,-1.3195353746414185,-0.0,2.1515448093414307,-2.4169308147826136,0.5696942806243896,0.5388704538345337,-1.2170079390155237,-1.1532939936387265e-08,-0.11167505383491516,-0.017606560383931935,-3.222959639970213e-05,0.043189916759729385,1.3992499113082886,-0.08776930719614029,-0.14948670566082
221.0,220.0,6.2626,4.3998,6.8423,-0.3262,0.277,-0.0432,-1.6863094768919886,-0.05455790087580681,2.5971922874450684,-1.319518804550171,-0.0,2.1749415397644043,-2.4124676189818324,0.5487552285194397,0.5292232036590576,-1.2169912497149866,-2.096054991899965e-13,-0.10895532369613647,-0.017525974904195607,-4.509617792791687e-05,0.04141660034656525,1.3984819650650024,-0.09491928666830063,-0.13962239027023315
221.0,220.0,6.2626,4.3998,6.8423,-0.3262,0.277,-0.0432,-1.6867324314513148,-0.05152345448732376,2.6008124351501465,-1.3195147514343262,-0.0,2.201364755630493,-2.408234258691305,0.5270941853523254,0.5326646566390991,-1.2170231978045862,-3.8094764999460936e-18,-0.09816616028547287,-0.017581764851705373,-5.454035635921173e-05,0.0397028848528862,1.3977546691894531,-0.1049499437212944,-0.15360774099826813
221.0,220.0,6.2626,4.3998,6.8423,-0.3262,0.277,-0.0432,-1.6870562038817347,-0.04759228602051735,2.6280765533447266,-1.3194743394851685,-0.0,2.1883726119995117,-2.4052192173399867,0.4998890459537506,0.5404458045959473,-1.216975514088766,-1.0603819315495845e-21,-0.09927394986152649,-0.017629925404683888,-5.3851865231990814e-05,0.029065430164337158,1.3971107006072998,-0.11489766091108322,-0.15470930933952332
221.0,220.0,6.2626,4.3998,6.8423,-0.3262,0.277,-0.0432,-1.6874319515623988,-0.04215897619724274,2.5882935523986816,-1.3195068836212158,-0.0,2.1784722805023193,-2.4014116726317347,0.4720669686794281,0.5079942941665649,-1.2169879118548792,-1.9271915055380073e-26,-0.10344433784484863,-0.017614189778463185,-6.351408228510991e-05,0.024817530065774918,1.3961313962936401,-0.12417344003915787,-0.22603362798690796
221.0,220.0,6.2626,4.3998,6.8423,-0.3262,0.277,-0.0432,-1.6878286800780238,-0.03928779438138008,2.6179165840148926,-1.3194828033447266,-0.0,2.129011631011963,-2.3978640041747035,0.4368179738521576,0.4918472468852997,-1.216987435017721,-3.502575848359839e-31,-0.10067000240087509,-0.017646137868062794,-6.012077210471034e-05,0.026774633675813675,1.3951681852340698,-0.12280918657779694,-0.18398673832416534
221.0,220.0,6.2626,4.3998,6.8423,-0.3262,0.277,-0.0432,-1.6879593334593714,-0.03783728927373886,2.568031072616577,-1.319518804550171,-0.0,2.1742630004882812,-2.3953105411925257,0.4077049493789673,0.4735415577888489,-1.2169793287860315,-9.74954899777635e-35,-0.09847858548164368,-0.01757365862001592,-0.0001589960156707093,0.018787726759910583,1.3943884372711182,-0.12041552364826202,-0.15237528085708618
221.0,220.0,6.2626,4.3998,6.8423,-0.3262,0.277,-0.0432,-1.6882950268187464,-0.03718908876180649,2.6133275032043457,-1.3194259405136108,-0.0,2.162250280380249,-2.392418523828024,0.36126381158828735,0.45421749353408813,-1.2169635931598108,-1.771932099049481e-39,-0.09716556966304779,-0.01764232317079717,-0.00013935478636994958,0.006987479515373707,1.3934653997421265,-0.11500873416662216,-0.23491491377353668
221.0,220.0,6.2626,4.3998,6.8423,-0.3262,0.277,-0.0432,-1.688531061212057,-0.03766978159546852,2.5754597187042236,-1.3194950819015503,-0.0,2.15838885307312,-2.3903757534422816,0.32673418521881104,0.43618178367614746,-1.2170160452472132,-4.932570594423356e-43,-0.08319874107837677,-0.017609898244039357,-0.0001275076938327402,0.012538274750113487,1.3927901983261108,-0.11638316512107849,-0.22742092609405518
229.0,204.0,4.6953,2.6285,6.9182,-0.3606,0.3322,-0.0582,-1.6888390980162562,-0.037043072283267975,2.578502893447876,-1.3194547891616821,-0.0,2.160036087036133,-2.3879577122130335,0.28174206614494324,0.42791080474853516,-1.2170036474811,-0.0,-0.09619685262441635,-0.01753408113588506,-0.0001145264322985895,0.018014222383499146,1.391810655593872,-0.1274646520614624,-0.2585015594959259
229.0,204.0,4.6953,2.6285,6.9182,-0.3606,0.3322,-0.0582,-1.6890655956664027,-0.04086710140109062,2.6262824535369873,-1.3194630146026611,-0.0,2.147676467895508,-2.386059423486227,0.20512673258781433,0.36647868156433105,-1.217020336781637,-0.0,-0.08411534130573273,-0.01759034792055303,-0.00010394419223302975,0.016652844846248627,1.3907870054244995,-0.134755477309227,-0.24678528308868408
229.0,204.0,4.6953,2.6285,6.9182,-0.3606,0.3322,-0.0582,-1.6894103489317835,-0.04252622649073601,2.6256048679351807,-1.3194917440414429,-0.0,2.1257054805755615,-2.3849932156004847,0.17027363181114197,0.3776330351829529,-1.2170231978045862,-0.0,-0.08271317183971405,-0.017570320759908498,-9.720790694700554e-05,0.008296921849250793,1.3899955749511719,-0.1342524290084839,-0.23085954785346985
229.0,204.0,4.6953,2.6285,6.9182,-0.3606,0.3322,-0.0582,-1.6897217235960902,-0.04382004961371422,2.5963997840881348,-1.3194702863693237,-0.0,2.1689882278442383,-2.3839713535704554,0.09419813007116318,0.34773918986320496,-1.2170398871051233,-0.0,-0.08964670449495316,-0.01759797731508428,-8.947627065936103e-05,0.01145113818347454,1.3889650106430054,-0.12949109077453613,-0.22692301869392395
229.0,204.0,4.6953,2.6285,6.9182,-0.3606,0.3322,-0.0582,-1.6901451549925746,-0.045450057834386826,2.5502047538757324,-1.3194475173950195,0.0005635551060549915,2.162999391555786,-2.3835050068297328,0.03094763495028019,0.3083289563655853,-1.21702748933901,-0.0,-0.09977996349334717,-0.017629925404683888,-8.288404205814004e-05,0.010814987123012543,1.3878170251846313,-0.1174621507525444,-0.22853614389896393
229.0,204.0,4.6953,2.6285,6.9182,-0.3606,0.3322,-0.0582,-1.690425535241598,-0.04689278453588486,2.6062817573547363,-1.3194752931594849,0.00034702790435403585,2.143555164337158,-2.383465429345602,-0.000245671602897346,0.2918206453323364,-1.216987435017721,-0.0,-0.10198011994361877,-0.017626110707418263,-7.854388968553394e-05,0.01862257719039917,1.3871537446975708,-0.1168450266122818,-0.18247024714946747
229.0,204.0,4.6953,2.6285,6.9182,-0.3606,0.3322,-0.0582,-1.6908170185484828,-0.050836145877838135,2.668666362762451,-1.3194866180419922,0.00010797141294460744,2.1803112030029297,-2.3835445843138636,-0.027958322316408157,0.28214943408966064,-1.2170317808734339,-0.0,-0.08025651425123215,-0.017650429402486623,-7.341805758187547e-05,0.0038695931434631348,1.3861583471298218,-0.12577202916145325,-0.2120659053325653
229.0,204.0,4.6953,2.6285,6.9182,-0.3606,0.3322,-0.0582,-1.691280027429098,-0.05929627642035484,2.5976290702819824,-1.3194949626922607,2.1024872121078175e-10,2.1504974365234375,-2.38383211712026,-0.0359637588262558,0.2894294857978821,-1.2170160452472132,-0.0,-0.0988440066576004,-0.017574135457174123,-6.892027158755809e-05,0.021073710173368454,1.3850950002670288,-0.12844693660736084,-0.23019438982009888
229.0,204.0,4.6953,2.6285,6.9182,-0.3606,0.3322,-0.0582,-1.6916638813414515,-0.06606066226959229,2.5669193267822266,-1.319430947303772,5.077259481443309e-16,2.1935720443725586,-2.384000440637106,-0.03986198082566261,0.2692989408969879,-1.2170122305499476,-0.0,-0.0871669128537178,-0.017621819172994435,-6.589268741663545e-05,0.022689105942845345,1.3843529224395752,-0.1310269981622696,-0.2106887698173523
229.0,204.0,4.6953,2.6285,6.9182,-0.3606,0.3322,-0.0582,-1.6921712360777796,-0.06566276401281357,2.6145756244659424,-1.3194743394851685,1.6449676272188646e-23,2.158994674682617,-2.384291788140768,-0.03642646595835686,0.2668936848640442,-1.2170193831073206,-0.0,-0.10126009583473206,-0.01763803163637334,-6.22468360234052e-05,0.018321912735700607,1.3833637237548828,-0.12475264817476273,-0.17623206973075867
229.0,204.0,4.6953,2.6285,6.9182,-0.3606,0.3322,-0.0582,-1.6925345859923304,-0.05883098766207695,2.623879909515381,-1.3194868564605713,3.972403242140561e-29,2.1593499183654785,-2.3844791851439417,-0.028967328369617462,0.2922634184360504,-1.2170360724078577,-0.0,-0.10034599900245667,-0.017581764851705373,-5.976662941975519e-05,0.043289344757795334,1.382577657699585,-0.11662271618843079,-0.19111180305480957
229.0,204.0,4.6953,2.6285,6.9182,-0.3606,0.3322,-0.0582,-1.6929775677123011,-0.052910588681697845,2.613800525665283,-1.319466233253479,-6.36074910289608e-05,2.1624114513397217,-2.38466276744985,-0.013770563527941704,0.29369187355041504,-1.2169912497149866,-0.0,-0.0817447155714035,-0.017609898244039357,-5.6751654483377934e-05,0.021169085055589676,1.3816683292388916,-0.10797257721424103,-0.1533815860748291
229.0,204.0,4.6953,2.6285,6.9182,-0.3606,0.3322,-0.0582,-1.693505426446432,-0.0532645620405674,2.6482136249542236,-1.3195436000823975,-0.00019239394168835133,2.195004463195801,-2.384702344933981,-0.0026465612463653088,0.30313748121261597,-1.2170193831073206,-0.0,-0.10777018964290619,-0.01757842699159795,-5.402631722972728e-05,0.023504728451371193,1.3808308839797974,-0.10668685287237167,-0.20669260621070862
229.0,200.0,4.6487,0.4528,7.0762,-0.1025,-0.0803,-0.1857,-1.693829198876852,-0.05624960735440254,2.6335339546203613,-1.3195353746414185,-0.0005967317265458405,2.1085550785064697,-2.384721418420309,0.0004426538071129471,0.2813698947429657,-1.2170236746417444,-0.0,-0.10337883234024048,-0.01759034792055303,-5.2148050599498674e-05,0.011918890289962292,1.3802168369293213,-0.10413125157356262,-0.14190563559532166
229.0,200.0,4.6487,0.4528,7.0762,-0.1025,-0.0803,-0.1857,-1.6942969761290492,-0.06067242845892906,2.6413073539733887,-1.3195147514343262,-0.0002855999337043613,2.1880316734313965,-2.3847257099547328,0.0003029499785043299,0.30002349615097046,-1.2170236746417444,-0.0,-0.09122932702302933,-0.017570320759908498,-4.2431453039171174e-05,0.022823262959718704,1.379418969154358,-0.10193584859371185,-0.17494753003120422
229.0,200.0,4.6487,0.4528,7.0762,-0.1025,-0.0803,-0.1857,-1.6947242222227992,-0.06583361327648163,2.604161262512207,-1.3194866180419922,0.00016678178508300334,2.1703946590423584,-2.38468660930776,0.0007440390181727707,0.29956936836242676,-1.216987435017721,-0.0,-0.08497591316699982,-0.0175860563861292,-1.4760778155320509e-09,0.034583788365125656,1.3786811828613281,-0.09830449521541595,-0.1690250039100647
229.0,200.0,4.6487,0.4528,7.0762,-0.1025,-0.0803,-0.1857,-1.695071359673971,-0.06655106693506241,2.6338601112365723,-1.3194785118103027,0.00034976506140083075,2.2155442237854004,-2.384606023828024,0.0026531934272497892,0.299805223941803,-1.2170317808734339,-0.0,-0.08613593131303787,-0.01757842699159795,-4.1087166763494054e-13,0.03673229366540909,1.378070592880249,-0.09441549330949783,-0.18978789448738098
229.0,200.0,4.6487,0.4528,7.0762,-0.1025,-0.0803,-0.1857,-1.695583005944723,-0.06394308805465698,2.6242270469665527,-1.3194100856781006,0.001110395067371428,2.186250686645508,-2.384594579736227,0.002014211844652891,0.2950623631477356,-1.2170317808734339,2.354280513827689e-05,-0.10180048644542694,-0.01764232317079717,-7.467388696254096e-18,0.03324597328901291,1.377308964729309,-0.08572245389223099,-0.14743980765342712
229.0,200.0,4.6487,0.4528,7.0762,-0.1025,-0.0803,-0.1857,-1.6960908375182093,-0.05861712992191315,2.67433500289917,-1.3194432258605957,0.0005597242852672935,2.1775431632995605,-2.3846260509886683,0.0011619842844083905,0.3110104203224182,-1.2170112768756312,2.2173278921400197e-05,-0.09632419049739838,-0.017582241688863576,-1.3571613500520221e-22,0.03161569684743881,1.3766425848007202,-0.08249370008707047,-0.08065464347600937
229.0,200.0,4.6487,0.4528,7.0762,-0.1025,-0.0803,-0.1857,-1.696482320825094,-0.05953671783208847,2.6336417198181152,-1.3194712400436401,0.0003272463218308985,2.2359917163848877,-2.384602209130758,0.0007874129223637283,0.30900076031684875,-1.2170637289630335,1.1397996786399744e-05,-0.10534556210041046,-0.01752645174135381,-3.777708504427652e-26,0.04398826137185097,1.3761920928955078,-0.08102849125862122,-0.10774795711040497
229.0,200.0,4.6487,0.4528,7.0762,-0.1025,-0.0803,-0.1857,-1.6970058880248011,-0.06661248207092285,2.6770949363708496,-1.3194137811660767,-0.00014670388191007078,2.1673247814178467,-2.3846498928465785,0.0005475800717249513,0.33176589012145996,-1.2170961538897913,1.0206553270108998e-05,-0.10144918411970139,-0.017562214528219044,2.0735587895615026e-05,0.03759737312793732,1.3755214214324951,-0.07602512836456299,-0.11940045654773712
229.0,200.0,4.6487,0.4528,7.0762,-0.1025,-0.0803,-0.1857,-1.6974250278868617,-0.07118590176105499,2.6364219188690186,-1.3194825649261475,-0.00012096662248950452,2.193209409713745,-2.3846665821471156,0.00044580039684660733,0.311570405960083,-1.2170842329608362,1.28553404010745e-06,-0.1051655113697052,-0.01755839983095342,2.007702278206125e-05,0.05321042984724045,1.3751109838485718,-0.0696762278676033,-0.040443599224090576
229.0,200.0,4.6487,0.4528,7.0762,-0.1025,-0.0803,-0.1857,-1.6980043850340785,-0.07441360503435135,2.672434091567993,-1.3194465637207031,-0.00014300206385087222,2.209695816040039,-2.3846498928465785,0.00031262068659998477,0.3171091675758362,-1.217083756123678,2.336394966384603e-11,-0.10548762232065201,-0.017606083546773732,2.8015181285923063e-09,0.05137180536985397,1.37458074092865,-0.06115878000855446,-0.06312541663646698
229.0,200.0,4.6487,0.4528,7.0762,-0.1025,-0.0803,-0.1857,-1.6986280880370082,-0.07407647371292114,2.682002544403076,-1.3194743394851685,-0.00011800129868788645,2.2068099975585938,-2.384646078149313,0.0002608327195048332,0.32045191526412964,-1.2170475164996546,4.2462825730998064e-16,-0.11296527087688446,-0.01759797731508428,5.091620416844238e-14,0.047974370419979095,1.3741217851638794,-0.056248944252729416,0.010554096661508083
229.0,200.0,4.6487,0.4528,7.0762,-0.1025,-0.0803,-0.1857,-1.6990558109679164,-0.07294419407844543,2.665405035018921,-1.3194825649261475,-0.00010432257840875536,2.2394354343414307,-2.384646078149313,0.00023201064323075116,0.3287281394004822,-1.2170880476581019,1.181968329293766e-19,-0.12365482747554779,-0.017534557973043263,1.4172710783414113e-17,0.05730261281132698,1.3738069534301758,-0.05255448818206787,-0.031447939574718475
220.0,194.0,4.0606,1.4195,7.5625,-0.0623,-0.0608,-0.2042,-1.6996389828123988,-0.06982343643903732,2.697233200073242,-1.3194630146026611,-6.0238726291572675e-05,2.199204444885254,-2.3846904240050257,0.00020221825980115682,0.3468508720397949,-1.217038933430807,2.1481692191126834e-24,-0.12768347561359406,-0.017554585133687794,2.5758201821638566e-22,0.052162013947963715,1.373460292816162,-0.04826745018362999,0.024986697360873222
220.0,194.0,4.0606,1.4195,7.5625,-0.0623,-0.0608,-0.2042,-1.7001902065672816,-0.06612442433834076,2.6355628967285156,-1.3194383382797241,-5.312622670317069e-05,2.183687210083008,-2.3846546612181605,0.00017920721438713372,0.3394215703010559,-1.217055622731344,3.904192220188334e-29,-0.13822036981582642,-0.017566506062642873,4.681426864114063e-27,0.06070191413164139,1.373032808303833,-0.043638426810503006,0.05167462304234505
220.0,194.0,4.0606,1.4195,7.5625,-0.0623,-0.0608,-0.2042,-1.7005859814085902,-0.06281901895999908,2.710609197616577,-1.3194867372512817,-4.880486085312441e-05,2.206414222717285,-2.384646554986471,0.00016511569265276194,0.3347387909889221,-1.2170231978045862,1.0867461436399372e-32,-0.13158701360225677,-0.01754314104189092,1.3030922877735374e-30,0.05700305849313736,1.3728293180465698,-0.039608847349882126,0.016868820413947105
220.0,194.0,4.0606,1.4195,7.5625,-0.0623,-0.0608,-0.2042,-1.7010613880553187,-0.062027644366025925,2.6735644340515137,-1.3194950819015503,-4.4029566197423264e-05,2.2111001014709473,-2.3846308193602503,0.0001679894921835512,0.3293597996234894,-1.2170317808734339,1.975107540482646e-37,-0.13109515607357025,-0.017501656209127248,2.3683054323888662e-35,0.06461266428232193,1.3725184202194214,-0.03701202571392059,0.01301098708063364
220.0,194.0,4.0606,1.4195,7.5625,-0.0623,-0.0608,-0.2042,-1.701552530328268,-0.06534790992736816,2.7170605659484863,-1.3194351196289062,-2.2401603928301483e-05,2.250250816345215,-2.38463892559194,0.00015599458129145205,0.3455708622932434,-1.2170317808734339,3.5901266656001813e-42,-0.12698782980442047,-0.017522160206929982,4.304284414958681e-40,0.06859412789344788,1.3722596168518066,-0.03545079007744789,0.0028085680678486824
220.0,194.0,4.0606,1.4195,7.5625,-0.0623,-0.0608,-0.2042,-1.701928278008932,-0.06859090179204941,2.6895885467529297,-1.319499135017395,-1.8796381482388824e-05,2.1681957244873047,-2.384606500665182,0.00011357623588992283,0.33915337920188904,-1.2170112768756312,1.401298464324817e-45,-0.13660742342472076,-0.017530266438619435,0.00011743874347303063,0.08012577891349792,1.3720722198486328,-0.03548942878842354,0.008121873252093792
220.0,194.0,4.0606,1.4195,7.5625,-0.0623,-0.0608,-0.2042,-1.7025238476195277,-0.0683261826634407,2.703123092651367,-1.319439172744751,-1.7347205357509665e-05,2.2300641536712646,-2.384618421594137,0.00014019300579093397,0.3347882032394409,-1.2170599142657679,0.0,-0.13210104405879974,-0.0175097624408167,0.00010652581840986386,0.06244567409157753,1.3717162609100342,-0.036754507571458817,0.025475841015577316
220.0,194.0,4.0606,1.4195,7.5625,-0.0623,-0.0608,-0.2042,-1.703038831750387,-0.0628877580165863,2.6984057426452637,-1.3194465637207031,-1.610551589692477e-05,2.2284860610961914,-2.3846103153624476,0.000512895465362817,0.3338387608528137,-1.2170756498919886,0.0,-0.12923911213874817,-0.017566506062642873,0.00011547444591997191,0.07145286351442337,1.3714534044265747,-0.037478163838386536,-0.0021677184849977493
220.0,194.0,4.0606,1.4195,7.5625,-0.0623,-0.0608,-0.2042,-1.7034231624998988,-0.06212048605084419,2.6778335571289062,-1.319430947303772,-1.5284953406080604e-05,2.225226402282715,-2.3846260509886683,0.00033662113128229976,0.3409143090248108,-1.2170847097979944,0.0,-0.12979231774806976,-0.01747018495668584,0.00010965874389512464,0.07873319089412689,1.371221899986267,-0.03800991177558899,-0.01095225103199482
220.0,194.0,4.0606,1.4195,7.5625,-0.0623,-0.0608,-0.2042,-1.7039343319334925,-0.0651618167757988,2.679656505584717,-1.3194670677185059,-1.7296089936280623e-05,2.2588095664978027,-2.384634634057516,0.00020634198153857142,0.34795451164245605,-1.217071835194723,0.0,-0.12967754900455475,-0.017586533223287404,0.00010142056999029592,0.07331899553537369,1.3709629774093628,-0.036699485033750534,0.05905056744813919
220.0,194.0,4.0606,1.4195,7.5625,-0.0623,-0.0608,-0.2042,-1.70434631923818,-0.06657183915376663,2.710054874420166,-1.3194743394851685,-1.6353273167624138e-05,2.189419746398926,-2.3847223720946253,-9.747093281475827e-05,0.3404974341392517,-1.2170432249652308,0.0,-0.12348761409521103,-0.017502609883443654,0.0001119767184718512,0.08363319933414459,1.370699405670166,-0.03700118139386177,0.06318586319684982
220.0,194.0,4.0606,1.4195,7.5625,-0.0623,-0.0608,-0.2042,-1.7048093281187953,-0.06533868610858917,2.6789538860321045,-1.3194265365600586,-1.5245254871842917e-05,2.248419761657715,-2.3846503696837367,-0.00015434504894074053,0.3245231509208679,-1.2170193831073206,0.0,-0.13634450733661652,-0.017562214528219044,0.00010457521420903504,0.0862160176038742,1.370452642440796,-0.03401588276028633,0.0556647814810276
220.0,194.0,4.0606,1.4195,7.5625,-0.0623,-0.0608,-0.2042,-1.7053452930846156,-0.06257205456495285,2.70196270942688,-1.3194142580032349,-2.654174213745364e-09,2.2271828651428223,-2.3846379719176234,-0.00016744778258726,0.33251437544822693,-1.2170475164996546,0.0,-0.12360440939664841,-0.017525974904195607,0.00011183387687196955,0.07752743363380432,1.3701971769332886,-0.028939049690961838,0.033906225115060806
226.0,174.0,5.2558,2.6112,7.322,-0.016,0.0095,-0.1744,-1.7056886158385218,-0.060398202389478683,2.6950111389160156,-1.3195111751556396,-6.4095177936310775e-15,2.227567434310913,-2.384726186791891,-0.00018355282372795045,0.34560951590538025,-1.2170432249652308,0.0,-0.14026349782943726,-0.017486397420064748,0.0001070730941137299,0.08298739790916443,1.3700295686721802,-0.024225013330578804,0.059728026390075684
226.0,174.0,5.2558,2.6112,7.322,-0.016,0.0095,-0.1744,-1.706156393090719,-0.055129874497652054,2.737215757369995,-1.3195229768753052,-2.076602495613585e-22,2.1990134716033936,-2.3846785030760707,-0.0002890145988203585,0.3333978056907654,-1.2170351187335413,0.0,-0.14529143273830414,-0.017506901417867482,0.00012820230040233582,0.07907663285732269,1.3698984384536743,-0.018231654539704323,0.03490345552563667
226.0,174.0,5.2558,2.6112,7.322,-0.016,0.0095,-0.1744,-1.7065593204894007,-0.05024023354053497,2.6785497665405273,-1.3194907903671265,-6.727927058682768e-30,2.241799831390381,-2.3846823177733363,-0.00032223586458712816,0.3315386176109314,-1.2170475164996546,0.0,-0.1507161557674408,-0.017525974904195607,0.00013796838175039738,0.08378461748361588,1.3697142601013184,-0.013971159234642982,0.10923754423856735
226.0,174.0,5.2558,2.6112,7.322,-0.016,0.0095,-0.1744,-1.7068349323668421,-0.050520334392786026,2.710329532623291,-1.3194785118103027,-1.6247149984202016e-35,2.252676486968994,-2.384698053399557,-0.0003196184989064932,0.3328533470630646,-1.2170193831073206,0.0,-0.15205830335617065,-0.017523113881246388,0.00014827736595179886,0.08738337457180023,1.3696668148040771,-0.012116663157939911,0.07824642956256866
226.0,174.0,5.2558,2.6112,7.322,-0.016,0.0095,-0.1744,-1.7072183094420375,-0.04942011088132858,2.715010166168213,-1.3194100856781006,-5.268882225861312e-43,2.213980197906494,-2.3846942387022914,-0.00027167837833985686,0.3342859447002411,-1.2170112768756312,0.0,-0.13629496097564697,-0.017514530812398732,0.00015615554002579302,0.1087615042924881,1.369554877281189,-0.011775854974985123,0.06238637864589691
226.0,174.0,5.2558,2.6112,7.322,-0.016,0.0095,-0.1744,-1.7076379261412562,-0.04634837061166763,2.7119879722595215,-1.3194432258605957,-0.0,2.2460739612579346,-2.384669920007223,-0.00023604626767337322,0.3270210325717926,-1.2170317808734339,0.0,-0.13280349969863892,-0.0174945036517542,0.00026257068384438753,0.08954577147960663,1.3694511651992798,-0.010753804817795753,0.002396244555711746
226.0,174.0,5.2558,2.6112,7.322,-0.016,0.0095,-0.1744,-1.7078939876952113,-0.04307657480239868,2.7182064056396484,-1.3194867372512817,-0.0,2.1772642135620117,-2.3846665821471156,-0.00018805221770890057,0.321973979473114,-1.2170317808734339,0.0,-0.11460251361131668,-0.01750642458070928,0.00026684129261411726,0.10363320261240005,1.3693954944610596,-0.010791044682264328,0.04491506144404411
226.0,174.0,5.2558,2.6112,7.322,-0.016,0.0095,-0.1744,-1.708189149896139,-0.03845022991299629,2.7804818153381348,-1.3194432258605957,-0.0,2.2175955772399902,-2.38463892559194,-0.00016798588330857456,0.3267296552658081,-1.2170231978045862,0.0,-0.11814585328102112,-0.017438713704244435,0.00025622904649935663,0.08785563707351685,1.3693435192108154,-0.009060025215148926,0.04595036804676056
226.0,174.0,5.2558,2.6112,7.322,-0.016,0.0095,-0.1744,-1.708489557305807,-0.03732401877641678,2.734090805053711,-1.3194628953933716,-0.0,2.2073965072631836,-2.384641786614889,-0.00015554283163510263,0.32587799429893494,-1.2170513311969202,0.0,-0.11783692240715027,-0.017523113881246388,0.00023230297665577382,0.09887425601482391,1.3693315982818604,-0.008143187500536442,0.02901783399283886
226.0,174.0,5.2558,2.6112,7.322,-0.016,0.0095,-0.1744,-1.708757062951559,-0.039341747760772705,2.7560346126556396,-1.3195068836212158,-0.0,2.192970037460327,-2.38468660930776,-0.00014156197721604258,0.3147582411766052,-1.2170599142657679,0.0,-0.11756198853254318,-0.017466370259420216,0.00023085431894287467,0.09508059918880463,1.3692638874053955,-0.007188369054347277,-0.004127553664147854
226.0,174.0,5.2558,2.6112,7.322,-0.016,0.0095,-0.1744,-1.7090159855284632,-0.040332622826099396,2.711650848388672,-1.3194465637207031,-0.0,2.1947927474975586,-2.3845859966673792,-0.00012988716480322182,0.32997506856918335,-1.21702748933901,0.0,-0.11855581402778625,-0.017530266438619435,0.00022347156482283026,0.08852216601371765,1.3692400455474854,-0.0045861913822591305,0.001071813516318798
226.0,174.0,5.2558,2.6112,7.322,-0.016,0.0095,-0.1744,-1.7092677555479945,-0.041965384036302567,2.755138635635376,-1.3194506168365479,-0.0,2.1580944061279297,-2.384669920007223,-0.00012232140579726547,0.32139724493026733,-1.21702748933901,0.0,-0.10969604551792145,-0.017486397420064748,0.00022859816090203822,0.09460218250751495,1.3692240715026855,-0.0032964879646897316,0.035517651587724686
202.0,181.0,6.0365,2.3719,6.923,-0.0217,0.0194,-0.1449,-1.7096077404417933,-0.043648362159729004,2.727870464324951,-1.3194630146026611,-0.0,2.2376437187194824,-2.3846379719176234,-0.00011350579734425992,0.3253835439682007,-1.2170360724078577,0.0,-0.12541641294956207,-0.017490212117330373,0.00023219542345032096,0.0992228239774704,1.3691840171813965,-0.0024481371510773897,-0.0030160103924572468
202.0,181.0,6.0365,2.3719,6.923,-0.0217,0.0194,-0.1449,-1.7099558315672816,-0.04573320597410202,2.720421075820923,-1.3194060325622559,-0.0,2.183898687362671,-2.384602209130758,-4.163130870438181e-05,0.3323596119880676,-1.2170236746417444,0.0,-0.13061262667179108,-0.01744252840151006,0.0003577202733140439,0.09570784866809845,1.3691680431365967,-0.0011859646765515208,0.023825567215681076
202.0,181.0,6.0365,2.3719,6.923,-0.0217,0.0194,-0.1449,-1.7102509937682093,-0.04632078483700752,2.7355804443359375,-1.3194506168365479,-0.0,2.2087559700012207,-2.384669920007223,-3.696665589814074e-05,0.3284938335418701,-1.217055622731344,0.0,-0.129410058259964,-0.017470661793844044,0.0003505880304146558,0.11220142245292664,1.3691598176956177,-0.0008658581064082682,0.001864459365606308
202.0,181.0,6.0365,2.3719,6.923,-0.0217,0.0194,-0.1449,-1.7106105289854945,-0.04649558290839195,2.7227087020874023,-1.3194990158081055,-0.0,2.2254273891448975,-2.384681840936178,-3.4159846109105274e-05,0.3330383896827698,-1.2170317808734339,0.0,-0.12634459137916565,-0.017514530812398732,0.00037074252031743526,0.10468430817127228,1.369163990020752,-0.00043245506822131574,0.04134136438369751
202.0,181.0,6.0365,2.3719,6.923,-0.0217,0.0194,-0.1449,-1.7110229931273402,-0.04837153106927872,2.7510931491851807,-1.319439172744751,-0.0,2.21120285987854,-2.384665628472799,-3.174970333930105e-05,0.3197808861732483,-1.2170031706439417,0.0,-0.10980701446533203,-0.017498318349019826,0.0003719458181876689,0.10309100151062012,1.3691680431365967,-0.00043724727584049106,0.0018508564680814743
202.0,181.0,6.0365,2.3719,6.923,-0.0217,0.0194,-0.1449,-1.7113062343993128,-0.04854414612054825,2.7291276454925537,-1.319439172744751,-0.0,2.2357051372528076,-2.3846780262389125,-3.015401671291329e-05,0.3363320827484131,-1.2169912497149866,-2.1468871636898257e-05,-0.12144645303487778,-0.017458264027730763,0.00029902803362347186,0.09323160350322723,1.3691803216934204,-0.00041360832983627915,0.016501864418387413
202.0,181.0,6.0365,2.3719,6.923,-0.0217,0.0194,-0.1449,-1.7117301426329554,-0.050499461591243744,2.711352825164795,-1.3194506168365479,-0.0,2.2066566944122314,-2.3846618137755335,-4.191477273707278e-05,0.31092455983161926,-1.2170432249652308,-1.2979654684386333e-06,-0.10150744020938873,-0.017526928578512013,0.00023621329455636442,0.08926020562648773,1.3691480159759521,-0.0004544785479083657,0.0026806332170963287
202.0,181.0,6.0365,2.3719,6.923,-0.0217,0.0194,-0.1449,-1.7120171986021937,-0.05259446054697037,2.707846164703369,-1.3194184303283691,-0.0,2.1617212295532227,-2.3847457371153773,-4.048355185659602e-05,0.3119167387485504,-1.2169998327838343,-3.6129343961022187e-10,-0.1290796995162964,-0.017434422169820607,0.00020406772091519088,0.09428633749485016,1.3691080808639526,-0.0007893316214904189,-0.010481137782335281
202.0,181.0,6.0365,2.3719,6.923,-0.0217,0.0194,-0.1449,-1.7124258480467738,-0.05229287967085838,2.729412078857422,-1.3195031881332397,-0.0,2.2125144004821777,-2.3846665821471156,-3.819301491603255e-05,0.31855735182762146,-1.217004124318258,-6.56632942667274e-15,-0.10186274349689484,-0.017514530812398732,0.00017272899276576936,0.0984678640961647,1.3691163063049316,-0.0014410611474886537,-0.10311126708984375
202.0,181.0,6.0365,2.3719,6.923,-0.0217,0.0194,-0.1449,-1.7128750286498011,-0.04774453490972519,2.7238521575927734,-1.3194835186004639,-0.0,2.1668498516082764,-2.3846780262389125,-3.61476959369611e-05,0.3136577904224396,-1.2170122305499476,-1.1933978974077175e-19,-0.09773843735456467,-0.0174945036517542,0.0001497358753113076,0.09288929402828217,1.3691284656524658,-0.0019251939374953508,-0.06476227194070816
202.0,181.0,6.0365,2.3719,6.923,-0.0217,0.0194,-0.1449,-1.7131592235960902,-0.04502161592245102,2.714447021484375,-1.319422721862793,-0.0,2.17814040184021,-2.3846546612181605,-3.475193807389587e-05,0.3002331256866455,-1.2169831434832972,-3.321866766159265e-23,-0.1236373633146286,-0.017482582722799123,0.00013614394993055612,0.1026996597647667,1.3691486120224,-0.001907546422444284,-0.07169252634048462
202.0,181.0,6.0365,2.3719,6.923,-0.0217,0.0194,-0.1449,-1.7134906254210414,-0.044572580605745316,2.693974733352661,-1.3194143772125244,-0.0,2.1691818237304688,-2.3846618137755335,-4.3972224375465885e-05,0.29838305711746216,-1.2170475164996546,-6.037328633949818e-28,-0.10195285081863403,-0.01747447649110967,0.00012144573702244088,0.09115409851074219,1.3690764904022217,-0.0015377298695966601,-0.03734410181641579
198.0,174.0,5.8433,2.7308,6.5545,-0.0148,-0.0127,-0.1362,-1.7139035664000453,-0.04832512140274048,2.6972861289978027,-1.3194268941879272,-0.0,2.149813413619995,-2.3847061596312464,-4.370641181594692e-05,0.3089669644832611,-1.2169998327838343,-1.0972546223259069e-32,-0.0997103899717331,-0.017478291188375294,0.00010961211228277534,0.08802048861980438,1.3690764904022217,-0.0026977250818163157,-0.04979299008846283
198.0,174.0,5.8433,2.7308,6.5545,-0.0148,-0.0127,-0.1362,-1.714175363580221,-0.05230887234210968,2.6430392265319824,-1.3194785118103027,-0.0,2.1867024898529053,-2.3846904240050257,-6.043205576133914e-05,0.3005101680755615,-1.2169793287860315,-3.054248429531756e-36,-0.0930754765868187,-0.017470661793844044,0.00010214739450020716,0.08934159576892853,1.369064211845398,-0.004076757468283176,-0.08223005384206772
198.0,174.0,5.8433,2.7308,6.5545,-0.0148,-0.0127,-0.1362,-1.7146045170226039,-0.05697924643754959,2.6485133171081543,-1.3194794654846191,-0.0,2.1344187259674072,-2.3846541843810023,-5.6048469559755176e-05,0.2905001640319824,-1.2170680204974573,-5.550963606729898e-41,-0.09597870707511902,-0.017498318349019826,9.364439029013738e-05,0.09402577579021454,1.3690162897109985,-0.005405830685049295,-0.0801767110824585
198.0,174.0,5.8433,2.7308,6.5545,-0.0148,-0.0127,-0.1362,-1.7150856457152308,-0.06063340604305267,2.649289608001709,-1.3194351196289062,-0.0,2.1079225540161133,-2.384669920007223,-3.450214353506453e-05,0.3025725483894348,-1.2169998327838343,-1.401298464324817e-45,-0.09736727178096771,-0.017478291188375294,6.917845894349739e-05,0.09190329164266586,1.3689887523651123,-0.00770591851323843,-0.04398994520306587
198.0,174.0,5.8433,2.7308,6.5545,-0.0148,-0.0127,-0.1362,-1.7154656849303187,-0.06205124408006668,2.6998467445373535,-1.3194184303283691,-0.0,2.1089258193969727,-2.3846341572203578,-3.262481914134696e-05,0.29299336671829224,-1.2169674078570765,-0.0,-0.09816126525402069,-0.01746255556215459,6.538999878102913e-05,0.08273579925298691,1.3689087629318237,-0.009873892180621624,-0.10204330086708069
198.0,174.0,5.8433,2.7308,6.5545,-0.0148,-0.0127,-0.1362,-1.7159582577147425,-0.06873112916946411,2.6896109580993652,-1.3193988800048828,-0.0,2.1731882095336914,-2.384681840936178,-3.0419419999816455e-05,0.3090909719467163,-1.2170122305499476,-0.0,-0.08197803795337677,-0.01750642458070928,6.096077777328901e-05,0.07563218474388123,1.3688572645187378,-0.010919212363660336,-0.15515367686748505
198.0,174.0,5.8433,2.7308,6.5545,-0.0148,-0.0127,-0.1362,-1.7163588009276332,-0.07373077422380447,2.6786727905273438,-1.3194751739501953,-0.0,2.156986951828003,-2.384658475915426,-1.4484126950264908e-05,0.293325811624527,-1.216947380696432,-0.0,-0.08586685359477997,-0.017438713704244435,5.8013687521452084e-05,0.08166748285293579,1.3687570095062256,-0.012634688057005405,-0.14667193591594696
198.0,174.0,5.8433,2.7308,6.5545,-0.0148,-0.0127,-0.1362,-1.7169867954649867,-0.07571585476398468,2.705986976623535,-1.3194587230682373,-0.0,2.1429619789123535,-2.384681840936178,-1.3600755664811004e-05,0.2959619462490082,-1.2170122305499476,-0.0,-0.07837507128715515,-0.01750642458070928,4.0875933336792514e-05,0.07239691913127899,1.3686854839324951,-0.014651229605078697,-0.1680128127336502
198.0,174.0,5.8433,2.7308,6.5545,-0.0148,-0.0127,-0.1362,-1.717684885064596,-0.0789247378706932,2.6616973876953125,-1.3194795846939087,-0.0,2.133448839187622,-2.3846546612181605,-2.4844885047059506e-05,0.3052331805229187,-1.2169879118548792,-0.0,-0.07312723994255066,-0.017486397420064748,-2.9686940251849592e-05,0.05835781991481781,1.3684858083724976,-0.01820671185851097,-0.16909533739089966
198.0,174.0,5.8433,2.7308,6.5545,-0.0148,-0.0127,-0.1362,-1.7181726894774378,-0.07598993927240372,2.7007510662078857,-1.3194670677185059,-0.0,2.124403238296509,-2.3846546612181605,-2.652519106050022e-05,0.29307636618614197,-1.2169879118548792,0.0002027262089541182,-0.07417503744363785,-0.017542664204732716,-4.2286184907425195e-05,0.049318913370370865,1.3684182167053223,-0.02119506150484085,-0.238328218460083
198.0,174.0,5.8433,2.7308,6.5545,-0.0148,-0.0127,-0.1362,-1.7187940082945765,-0.074799545109272,2.699014186859131,-1.3194268941879272,-0.0,2.1386709213256836,-2.38468660930776,-7.077198824845254e-05,0.29155728220939636,-1.2170208136187952,0.0002241781767224893,-0.06556970626115799,-0.017522160206929982,-6.082834806875326e-05,0.0704658180475235,1.3682262897491455,-0.025430645793676376,-0.21600307524204254
198.0,174.0,5.8433,2.7308,6.5545,-0.0148,-0.0127,-0.1362,-1.719471117059225,-0.07977326214313507,2.6883163452148438,-1.3194836378097534,-0.0,2.1402382850646973,-2.3847061596312464,-0.0004638239333871752,0.27995842695236206,-1.216947380696432,0.00023854177561588585,-0.055029429495334625,-0.017494026814595998,-0.0004634993674699217,0.054324373602867126,1.3679749965667725,-0.028963228687644005,-0.2232106775045395
198.0,174.0,5.8433,2.7308,6.5545,-0.0148,-0.0127,-0.1362,-1.7199956379332484,-0.08888834714889526,2.6205883026123047,-1.3194383382797241,-0.0002109126071445644,2.1242992877960205,-2.3846823177733363,-0.0003766805457416922,0.2787761688232422,-1.2169759909259241,0.0003510690585244447,-0.04933955892920494,-0.017554585133687794,-0.00046093095443211496,0.04387423396110535,1.367835283279419,-0.032223206013441086,-0.3002927303314209
198.0,170.0,4.6714,2.2798,6.5629,0.0029,-0.0276,-0.1599,-1.720696588555807,-0.09667106717824936,2.602071523666382,-1.3194308280944824,-1.274279242124976e-07,2.099229574203491,-2.384618421594137,-0.000245854229433462,0.27216172218322754,-1.2169435659991663,0.00032490293961018324,-0.05302686616778374,-0.01754647890199834,-0.0005406927084550261,0.05277496203780174,1.3676162958145142,-0.03730858117341995,-0.313215970993042
198.0,170.0,4.6714,2.2798,6.5629,0.0029,-0.0276,-0.1599,-1.7214938602843226,-0.09762688726186752,2.6756820678710938,-1.3194224834442139,-4.128503382937925e-15,2.0975470542907715,-2.3846017322936,0.000156638867338188,0.2920752465724945,-1.2169917265521448,0.00030550677911378443,-0.038085222244262695,-0.017505470906392873,-0.0004974139737896621,0.027362404391169548,1.3672449588775635,-0.04412065073847771,-0.3135204315185547
198.0,170.0,4.6714,2.2798,6.5629,0.0029,-0.0276,-0.1599,-1.7220097980894984,-0.09650753438472748,2.6425929069519043,-1.3194152116775513,0.001420571468770504,2.119619846343994,-2.384578367272848,0.0006929972441866994,0.2768109142780304,-1.2169554869281214,0.00026669877115637064,-0.03571704775094986,-0.017530266438619435,-0.0004526599368546158,0.030782485380768776,1.3669859170913696,-0.05059146508574486,-0.35963889956474304
198.0,170.0,4.6714,2.2798,6.5629,0.0029,-0.0276,-0.1599,-1.7228557072081507,-0.09746905416250229,2.7069578170776367,-1.3194184303283691,0.001078608795069158,2.1014933586120605,-2.384594579736227,0.0008056590449996293,0.29231560230255127,-1.216947380696432,0.00022807164350524545,-0.04457120597362518,-0.017570320759908498,-0.000399463257053867,0.03735649585723877,1.366582989692688,-0.06147216632962227,-0.33737581968307495
198.0,170.0,4.6714,2.2798,6.5629,0.0029,-0.0276,-0.1599,-1.7234474621214808,-0.09836595505475998,2.6613194942474365,-1.3193904161453247,0.0007532077142968774,2.1214115619659424,-2.3845821819701136,0.000663445855025202,0.2866652011871338,-1.2169635931598108,0.000205725766136311,-0.03468281030654907,-0.01749879518617803,-0.0003813513903878629,0.039342448115348816,1.366143822669983,-0.07106301933526993,-0.37458536028862
198.0,170.0,4.6714,2.2798,6.5629,0.0029,-0.0276,-0.1599,-1.7242003879942835,-0.09013400971889496,2.739973783493042,-1.3194557428359985,0.0002514935040380806,2.1424612998962402,-2.384594579736227,0.0004025915404781699,0.28300559520721436,-1.2170317808734339,0.00018195620214100927,-0.040477581322193146,-0.01752645174135381,-0.00034803073504008353,0.027279207482933998,1.3655732870101929,-0.0804743617773056,-0.4086230397224426
198.0,170.0,4.6714,2.2798,6.5629,0.0029,-0.0276,-0.1599,-1.7249776325621546,-0.09061979502439499,2.7053072452545166,-1.3194752931594849,-0.0010619742097333074,2.119823455810547,-2.3845139942564906,0.0002963420411106199,0.30358415842056274,-1.2169912497149866,0.00016311122453771532,-0.04790864512324333,-0.017594162617818654,-0.000295293953968212,0.015493335202336311,1.3648792505264282,-0.08381051570177078,-0.3477681279182434
198.0,170.0,4.6714,2.2798,6.5629,0.0029,-0.0276,-0.1599,-1.7255059681334437,-0.09500531107187271,2.7170047760009766,-1.3194588422775269,-0.0011901725083589554,2.1145212650299072,-2.38463892559194,0.00021094991825520992,0.2811686396598816,-1.2169998327838343,0.00015135448484215885,-0.041517194360494614,-0.01756602922548467,-0.0002469628816470504,0.013841473497450352,1.3643325567245483,-0.08430679142475128,-0.35020023584365845
198.0,170.0,4.6714,2.2798,6.5629,0.0029,-0.0276,-0.1599,-1.7263232670226039,-0.10687805712223053,2.7268733978271484,-1.319439172744751,-0.0007163126138038933,2.12595272064209,-2.3845745525755824,0.0001622508862055838,0.2892943322658539,-1.2169354597674769,0.0001380843750666827,-0.05595313757658005,-0.017570320759908498,-0.0002429823507554829,0.02622925117611885,1.3637100458145142,-0.08275358378887177,-0.3626815676689148
198.0,170.0,4.6714,2.2798,6.5629,0.0029,-0.0276,-0.1599,-1.727140565911764,-0.1153424009680748,2.7192540168762207,-1.3194143772125244,-3.194501550751738e-05,2.131762742996216,-2.384550233880514,5.5731754400767386e-05,0.288591206073761,-1.2169998327838343,0.00012695370241999626,-0.04208165407180786,-0.017586533223287404,-0.00020592220243997872,0.009047018364071846,1.3630088567733765,-0.08008069545030594,-0.28849753737449646
198.0,170.0,4.6714,2.2798,6.5629,0.0029,-0.0276,-0.1599,-1.727793355981344,-0.11310817301273346,2.738638401031494,-1.3193780183792114,0.0021899493876844645,2.201094150543213,-2.384521623651022,0.00017659473815001547,0.28831374645233154,-1.2170117537127894,0.00011971607455052435,-0.05780692771077156,-0.01759797731508428,-0.00018478014681022614,0.01648293435573578,1.3625177145004272,-0.07834066450595856,-0.27484628558158875
198.0,170.0,4.6714,2.2798,6.5629,0.0029,-0.0276,-0.1599,-1.7286178074278773,-0.10421407222747803,2.7154226303100586,-1.3193304538726807,0.005189657676964998,2.149793863296509,-2.3845025501646937,0.0017006420530378819,0.2956000566482544,-1.2169998327838343,0.00011125911260023713,-0.04390434920787811,-0.017574135457174123,-0.00018914663814939559,0.018472086638212204,1.3619515895843506,-0.07982613891363144,-0.3503425717353821
201.0,172.0,6.1633,4.2497,6.7645,0.0327,-0.102,-0.2279,-1.729443212548727,-0.09384113550186157,2.77364444732666,-1.319310188293457,0.004628201946616173,2.209928035736084,-2.384510656396383,0.0014966941671445966,0.2926367521286011,-1.2169793287860315,0.00010391824616817757,-0.04666014388203621,-0.017562214528219044,-0.00016924233932513744,0.016090936958789825,1.3613251447677612,-0.08541151881217957,-0.3610605001449585
201.0,172.0,6.1633,4.2497,6.7645,0.0327,-0.102,-0.2279,-1.7300154171385707,-0.09353142976760864,2.7797012329101562,-1.3193469047546387,0.0015187684912234545,2.155806541442871,-2.3845225773253382,0.0009804618312045932,0.28790250420570374,-1.2169793287860315,9.901828889269382e-05,-0.0475265197455883,-0.017594162617818654,-0.0001566194841871038,0.025534197688102722,1.3607902526855469,-0.09010522812604904,-0.35439735651016235
201.0,172.0,6.1633,4.2497,6.7645,0.0327,-0.102,-0.2279,-1.7307845554747523,-0.09638667106628418,2.7265329360961914,-1.3193427324295044,-0.002134690759703517,2.1195812225341797,-2.384510179559225,0.0006456631817854941,0.317515105009079,-1.2169998327838343,6.3128667534329e-05,-0.05060333013534546,-0.017550293599263966,-0.00014245322381611913,0.011188777163624763,1.3600045442581177,-0.0955924391746521,-0.31989508867263794
201.0,172.0,6.1633,4.2497,6.7645,0.0327,-0.102,-0.2279,-1.7315651379027308,-0.10097576677799225,2.782398223876953,-1.3192858695983887,-0.0005643873591907322,2.1647274494171143,-2.3845063648619593,0.00038517595385201275,0.29690778255462646,-1.2170079390155237,2.9972759875818156e-05,-0.0628843903541565,-0.017566506062642873,-0.0001306370395468548,0.01981114223599434,1.3592510223388672,-0.09713586419820786,-0.26305437088012695
201.0,172.0,6.1633,4.2497,6.7645,0.0327,-0.102,-0.2279,-1.7321907482542933,-0.10323139280080795,2.7718377113342285,-1.3193066120147705,-2.8804388207959164e-08,2.14731502532959,-2.384470602075094,0.0014938086969777942,0.3119695484638214,-1.217004124318258,2.8546190151246265e-05,-0.06518368422985077,-0.017554585133687794,-0.00012298612273298204,0.026181180030107498,1.3586763143539429,-0.0983259379863739,-0.28045395016670227
201.0,172.0,6.1633,4.2497,6.7645,0.0327,-0.102,-0.2279,-1.7329870663084925,-0.10587632656097412,2.7929723262786865,-1.3192940950393677,0.0014461821410804987,2.1676583290100098,-2.384413858453268,0.006826912052929401,0.29562926292419434,-1.2169912497149866,1.3429379578155931e-05,-0.07265818119049072,-0.017582241688863576,-0.00011407797137508169,0.02621234767138958,1.3578784465789795,-0.08918677270412445,-0.19872060418128967
201.0,172.0,6.1633,4.2497,6.7645,0.0327,-0.102,-0.2279,-1.7336489162840785,-0.10405752062797546,2.783353567123413,-1.319278597831726,0.0016383411129936576,2.1958913803100586,-2.3843709431090296,0.013477313332259655,0.30776962637901306,-1.2170079390155237,8.509607596351998e-07,-0.06920750439167023,-0.017594162617818654,-4.102399543626234e-05,0.023885633796453476,1.3574122190475464,-0.07944262027740479,-0.21685791015625
201.0,172.0,6.1633,4.2497,6.7645,0.0327,-0.102,-0.2279,-1.7344089947142542,-0.09860193729400635,2.792664051055908,-1.3192940950393677,0.0017298634629696608,2.2011663913726807,-2.3842464886107386,0.011790790595114231,0.3050341308116913,-1.2170079390155237,1.5465791841640097e-11,-0.07642006874084473,-0.017542664204732716,-3.7347013858379796e-05,0.02466743066906929,1.3568377494812012,-0.06833503395318985,-0.11059604585170746
201.0,172.0,6.1633,4.2497,6.7645,0.0327,-0.102,-0.2279,-1.7351533375182093,-0.09601148217916489,2.828364849090576,-1.3192992210388184,0.0005908063030801713,2.1837096214294434,-2.3842631779112757,0.004045065026730299,0.30801528692245483,-1.2170079390155237,2.8108314545579086e-16,-0.08199891448020935,-0.01759034792055303,-3.448493225732818e-05,0.01326667983084917,1.3563270568847656,-0.061305150389671326,-0.14914876222610474
201.0,172.0,6.1633,4.2497,6.7645,0.0327,-0.102,-0.2279,-1.735790868798727,-0.09925796836614609,2.782378673553467,-1.3192578554153442,0.00029461883241310716,2.1590723991394043,-2.3842317066588343,0.0011481334222480655,0.3204408884048462,-1.2170069853412073,7.824051321250762e-20,-0.08099634945392609,-0.01755839983095342,-3.261062011006288e-05,0.009799539111554623,1.355915904045105,-0.057867664843797684,-0.058071523904800415
201.0,172.0,6.1633,4.2497,6.7645,0.0327,-0.102,-0.2279,-1.7365442715086878,-0.0970238521695137,2.8380537033081055,-1.3192827701568604,0.0002050701150437817,2.173431873321533,-2.384275098840231,0.00013062595098745078,0.3146915137767792,-1.2170317808734339,1.421982622558189e-24,-0.08119521290063858,-0.017530266438619435,-3.0407041776925325e-05,0.037415146827697754,1.3555132150650024,-0.05654555931687355,-0.09033827483654022
201.0,172.0,6.1633,4.2497,6.7645,0.0327,-0.102,-0.2279,-1.7372485599913539,-0.09705715626478195,2.788573741912842,-1.3193230628967285,0.00020969279285054654,2.2076711654663086,-2.3842107258238734,0.0001635728549445048,0.3127412796020508,-1.217055622731344,2.58438312380825e-29,-0.09892331063747406,-0.01752645174135381,-1.6102781955851242e-05,0.0319516584277153,1.3550546169281006,-0.052836909890174866,-0.08363659679889679
183.0,164.0,5.7099,1.8897,6.6485,-0.0683,-0.0224,-0.2089,-1.737828870812887,-0.09399012476205826,2.8440213203430176,-1.3192216157913208,0.00010308714263373986,2.1895408630371094,-2.384239812890524,0.0005189661169424653,0.32505661249160767,-1.2171080748187464,-0.00038434978341683745,-0.09604747593402863,-0.01754647890199834,-1.359633188258158e-05,0.02547624707221985,1.3547799587249756,-0.04805905744433403,-0.01462810393422842
183.0,164.0,5.7099,1.8897,6.6485,-0.0683,-0.0224,-0.2089,-1.738537927667135,-0.09128165245056152,2.7967729568481445,-1.319266676902771,0.0007806565845385194,2.2284340858459473,-2.384139200250143,0.002218133769929409,0.3170621991157532,-1.2170594374286097,-0.0003744435671251267,-0.10601823031902313,-0.017530266438619435,-1.2821086784242652e-05,0.030954375863075256,1.354420781135559,-0.04164605215191841,0.031341616064310074
183.0,164.0,5.7099,1.8897,6.6485,-0.0683,-0.0224,-0.2089,-1.739246507684225,-0.08339226245880127,2.857761859893799,-1.319286823272705,0.0012273648753762245,2.2143054008483887,-2.384151598016256,0.001854803878813982,0.32536110281944275,-1.2170513311969202,-0.0004332873795647174,-0.10788634419441223,-0.01754647890199834,-6.152298283268465e-06,0.03843143582344055,1.3541457653045654,-0.03857183828949928,0.016033180058002472
183.0,164.0,5.7099,1.8897,6.6485,-0.0683,-0.0224,-0.2089,-1.739751478234762,-0.08121977746486664,2.8055176734924316,-1.3192628622055054,0.0008830425795167685,2.209933042526245,-2.384167333642477,0.0013153946492820978,0.33600685000419617,-1.217067066823141,-0.0004144233535043895,-0.11332324147224426,-0.01761037508119756,-1.7125149076591129e-09,0.043176859617233276,1.3538780212402344,-0.03563260659575462,-0.06695951521396637
183.0,164.0,5.7099,1.8897,6.6485,-0.0683,-0.0224,-0.2089,-1.7404805622496546,-0.08650649338960648,2.829871654510498,-1.3192341327667236,0.0004945360706187785,2.2639191150665283,-2.3841754398741664,0.0010557759087532759,0.3225097060203552,-1.2171314398394983,-0.00042136028059758246,-0.11620135605335236,-0.017510716115133107,-3.112411045037844e-14,0.02985292114317417,1.353582501411438,-0.032454900443553925,0.004859275184571743
183.0,164.0,5.7099,1.8897,6.6485,-0.0683,-0.0224,-0.2089,-1.7409688434996546,-0.09158544987440109,2.7872934341430664,-1.3192588090896606,0.0003719917149282992,2.2472167015075684,-2.3841196499266566,0.0008928962633945048,0.3331211805343628,-1.2171195189105433,-0.00042842558468692005,-0.10629484057426453,-0.01755077043642217,-8.66351005997925e-18,0.05560966953635216,1.353411316871643,-0.028921108692884445,-0.021092725917696953
183.0,164.0,5.7099,1.8897,6.6485,-0.0683,-0.0224,-0.2089,-1.7416378460326136,-0.09186425805091858,2.798621416091919,-1.3192061185836792,0.00048398328362964094,2.195554733276367,-2.3841072521605433,0.0035374299623072147,0.3363354504108429,-1.2170870939837855,-0.00041822108323685825,-0.12212062627077103,-0.01754647890199834,-1.5745502109498006e-22,0.059698112308979034,1.3532160520553589,-0.024738673120737076,0.030800679698586464
183.0,164.0,5.7099,1.8897,6.6485,-0.0683,-0.0224,-0.2089,-1.742350240746969,-0.08306629955768585,2.8469529151916504,-1.3191702365875244,0.006434381473809481,2.226828098297119,-2.3839756451048792,0.01152049656957388,0.3481692671775818,-1.2170870939837855,-0.000340612925356254,-0.13481198251247406,-0.0174945036517542,-2.861667467178068e-27,0.07028798758983612,1.3530126810073853,-0.019396016374230385,0.02626771852374077
183.0,164.0,5.7099,1.8897,6.6485,-0.0683,-0.0224,-0.2089,-1.7428270779051722,-0.07839351892471313,2.890841484069824,-1.319122314453125,0.008219951763749123,2.232882499694824,-2.383899827996725,0.017422975972294807,0.34422916173934937,-1.2171195189105433,-0.0003348789468873292,-0.11981004476547241,-0.017534557973043263,0.0004128221480641514,0.07204286754131317,1.3529610633850098,-0.014567512087523937,0.08507230132818222
