ramyac6/ROB537/final_project/csv/all/good_20.csv
tof_0,tof_1,accelx,accely,accelz,gyrox,gyroy,gyroz,shoulder_lift_joint_position,shoulder_lift_joint_velocity,shoulder_lift_joint_effort,elbow_joint_position,elbow_joint_velocity,elbow_joint_effort,wrist_1_joint_position,wrist_1_joint_velocity,wrist_1_joint_effort,wrist_2_joint_position,wrist_2_joint_velocity,wrist_2_joint_effort,wrist_3_joint_position,wrist_3_joint_velocity,wrist_3_joint_effort,shoulder_pan_joint_position,shoulder_pan_joint_velocity,shoulder_pan_joint_effort
343.0,426.0,-0.0281,0.3141,9.5031,-0.0301,0.0206,-0.1159,-1.8412443600096644,0.0,3.1131515502929688,-1.779811978340149,-0.0,1.9592208862304688,5.1247236905391595,-0.0,0.28084123134613037,-1.5936463514911097,0.0,-0.0021894704550504684,0.7772371172904968,-0.0,0.001184680382721126,0.8291857242584229,0.0,-0.0653296411037445
343.0,426.0,-0.0281,0.3141,9.5031,-0.0301,0.0206,-0.1159,-1.841276308099264,0.0,3.108619213104248,-1.7798686027526855,-0.0,1.9955968856811523,5.124647515803137,-0.0,0.2856616675853729,-1.5936620871173304,0.0,-0.011193712241947651,0.7772132754325867,-0.0,-0.007828456349670887,0.829177737236023,0.0,0.005032409448176622
343.0,426.0,-0.0281,0.3141,9.5031,-0.0301,0.0206,-0.1159,-1.8412844143309535,0.0,3.094424247741699,-1.7797842025756836,-0.0,2.0004220008850098,5.124707686692037,-0.0,0.2815825939178467,-1.5935896078692835,0.0,-0.014345521107316017,0.7772288918495178,-0.0,-0.00041246457840316,0.8292377591133118,0.0,0.04255945235490799
343.0,426.0,-0.0281,0.3141,9.5031,-0.0301,0.0206,-0.1159,-1.841288229028219,0.0,3.1737470626831055,-1.7798408269882202,-0.0,2.0258631706237793,5.1247117696102045,-0.0,0.271418958902359,-1.5936701933490198,0.0,-0.0003098908346146345,0.7772375345230103,-0.0,-0.00529217254370451,0.8292137384414673,0.0,-0.07671775668859482
343.0,426.0,-0.0281,0.3141,9.5031,-0.0301,0.0206,-0.1159,-1.841320653954977,0.0,3.0962047576904297,-1.779820442199707,-0.0,1.9818512201309204,5.124708074122228,-0.0,0.26381582021713257,-1.5936620871173304,0.0,-0.005456099286675453,0.7772334218025208,-0.0,0.00893477164208889,0.8291656970977783,0.0,-0.02420562319457531
343.0,426.0,-0.0281,0.3141,9.5031,-0.0301,0.0206,-0.1159,-1.8413483105101527,0.0,3.1330032348632812,-1.7798327207565308,-0.0,1.9778125286102295,5.124747919827261,-0.0,0.27664655447006226,-1.593609635029928,0.0,-0.0016074678860604763,0.7772735953330994,-0.0,-0.007550843991339207,0.829197883605957,0.0,0.028034338727593422
343.0,426.0,-0.0281,0.3141,9.5031,-0.0301,0.0206,-0.1159,-1.8412844143309535,0.0,3.145617961883545,-1.7797964811325073,-0.0,1.9785925149917603,5.1247319159801386,-0.0,0.27829599380493164,-1.5936382452594202,0.0,0.0008928527822718024,0.7772859334945679,-0.0,-0.0002110143832396716,0.8291458487510681,0.0,0.0068552144803106785
343.0,426.0,-0.0281,0.3141,9.5031,-0.0301,0.0206,-0.1159,-1.841304441491598,0.0,3.1180927753448486,-1.7798242568969727,-0.0,1.9423305988311768,5.12477200010375,-0.0,0.286081463098526,-1.5936296621905726,0.0,-0.014221938326954842,0.7772412896156311,-0.0,-0.00933869369328022,0.8291617631912231,0.0,-0.041201721876859665
343.0,420.0,-0.1047,0.2967,9.6485,-0.0322,0.0304,-0.1257,-1.8412801227965296,0.0,3.1706175804138184,-1.7798285484313965,-0.0,2.00502347946167,5.124707686692037,-0.0,0.27890461683273315,-1.5936463514911097,0.0,0.00016093533486127853,0.7772288918495178,-0.0,0.007162914611399174,0.8291736841201782,0.0,0.046380482614040375
343.0,420.0,-0.1047,0.2967,9.6485,-0.0322,0.0304,-0.1257,-1.8413087330260218,0.0,3.1204168796539307,-1.779808759689331,-0.0,1.9942634105682373,5.1247199950511835,-0.0,0.27229493856430054,-1.593653980885641,0.0,-0.016925876960158348,0.777245283126831,-0.0,0.013280762359499931,0.8292417526245117,0.0,0.015194236300885677
343.0,420.0,-0.1047,0.2967,9.6485,-0.0322,0.0304,-0.1257,-1.8412605724730433,0.0,3.1224350929260254,-1.779828429222107,-0.0,2.0323328971862793,5.124687599926748,-0.0,0.2832607328891754,-1.593653980885641,0.0,-0.002012175042182207,0.7772256731987,-0.0,-0.008545882999897003,0.8291776180267334,0.0,-0.010572336614131927
343.0,420.0,-0.1047,0.2967,9.6485,-0.0322,0.0304,-0.1257,-1.8412963352599085,0.0,3.108353614807129,-1.7798563241958618,-0.0,1.9161407947540283,5.124671298056402,-0.0,0.28218528628349304,-1.5936902205096644,0.0,-0.012610265053808689,0.7773019075393677,-0.0,-0.0028232650365680456,0.829193651676178,0.0,-0.011404566466808319
343.0,420.0,-0.1047,0.2967,9.6485,-0.0322,0.0304,-0.1257,-1.8412844143309535,0.0,3.1213674545288086,-1.779811978340149,-0.0,1.9506467580795288,5.124687599926748,-0.0,0.2973930835723877,-1.593653980885641,0.0,-0.010997870936989784,0.7772412896156311,-0.0,-0.007697684690356255,0.8291816711425781,0.0,-0.012568635866045952
343.0,420.0,-0.1047,0.2967,9.6485,-0.0322,0.0304,-0.1257,-1.8412724934019984,0.0,3.088547706604004,-1.7797759771347046,-0.0,1.949455738067627,5.124691682844915,-0.0,0.29325470328330994,-1.5936902205096644,0.0,-0.008081546984612942,0.7772334218025208,-0.0,0.00010114797623828053,0.8292258381843567,0.0,0.011358426883816719
343.0,420.0,-0.1047,0.2967,9.6485,-0.0322,0.0304,-0.1257,-1.8412844143309535,0.0,3.099487543106079,-1.779811978340149,-0.0,1.9671621322631836,5.12470360377387,-0.0,0.28216657042503357,-1.5936053434955042,0.0,-0.0065751587972044945,0.7772448658943176,-0.0,-0.004055032506585121,0.8292137980461121,0.0,-0.03723709285259247
343.0,420.0,-0.1047,0.2967,9.6485,-0.0322,0.0304,-0.1257,-1.8412443600096644,0.0,3.136021614074707,-1.7798161506652832,-0.0,1.967484712600708,5.1247117696102045,-0.0,0.27250826358795166,-1.5936577955829065,0.0,0.0038061272352933884,0.7772132754325867,-0.0,-0.002132941037416458,0.8291857242584229,0.0,0.029790077358484268
343.0,420.0,-0.1047,0.2967,9.6485,-0.0322,0.0304,-0.1257,-1.8412968120970667,0.0,3.131166934967041,-1.7798129320144653,-0.0,1.9714078903198242,5.124695765763082,-0.0,0.29457634687423706,-1.5936463514911097,0.0,-0.005164811387658119,0.7772215604782104,-0.0,0.004217925947159529,0.8292377591133118,0.0,-0.0029038311913609505
343.0,420.0,-0.1047,0.2967,9.6485,-0.0322,0.0304,-0.1257,-1.8412844143309535,0.0,3.1318249702453613,-1.7798285484313965,-0.0,1.9386650323867798,5.1247437475021265,-0.0,0.2770334780216217,-1.5936782995807093,0.0,-0.0053173573687672615,0.7772334218025208,-0.0,-0.002442991826683283,0.8291097283363342,0.0,0.02010519616305828
343.0,420.0,-0.1047,0.2967,9.6485,-0.0322,0.0304,-0.1257,-1.8412682018675746,0.0,3.105813503265381,-1.7797633409500122,-0.0,2.0012764930725098,5.124715524702825,-0.0,0.282356321811676,-1.5936501661883753,0.0,-0.013516152277588844,0.7772092223167419,-0.0,0.009637638926506042,0.829221785068512,0.0,-0.005178400781005621
343.0,420.0,-0.1047,0.2967,9.6485,-0.0322,0.0304,-0.1257,-1.841320653954977,0.0,3.0977869033813477,-1.779860496520996,-0.0,2.005110263824463,5.124755996256628,-0.0,0.2766839861869812,-1.593609635029928,0.0,-0.005622217431664467,0.7772215604782104,-0.0,0.0034891266841441393,0.8291897177696228,0.0,-0.039330556988716125
343.0,420.0,-0.1047,0.2967,9.6485,-0.0322,0.0304,-0.1257,-1.8412724934019984,0.0,3.1247873306274414,-1.7798367738723755,-0.0,2.025489568710327,5.1247199950511835,-0.0,0.2753618657588959,-1.5936577955829065,0.0,-0.0008696295553818345,0.7772256731987,-0.0,0.007887124083936214,0.8291857242584229,0.0,-0.01910850778222084
343.0,420.0,-0.1047,0.2967,9.6485,-0.0322,0.0304,-0.1257,-1.841288229028219,0.0,3.10382342338562,-1.7798327207565308,-0.0,1.9627158641815186,5.124675321369924,-0.0,0.28516244888305664,-1.5936701933490198,0.0,-0.002087951870635152,0.7772210836410522,-0.0,-0.007035029586404562,0.829217791557312,0.0,-0.003405536524951458
343.0,420.0,-0.1047,0.2967,9.6485,-0.0322,0.0304,-0.1257,-1.8412724934019984,0.0,3.1707305908203125,-1.7797521352767944,-0.0,1.961861252784729,5.12470360377387,-0.0,0.29490336775779724,-1.5936334768878382,0.0,-0.008806001394987106,0.7772654294967651,-0.0,-0.003231603419408202,0.8291817307472229,0.0,0.034872714430093765
343.0,420.0,-0.1047,0.2967,9.6485,-0.0322,0.0304,-0.1257,-1.8413087330260218,0.0,3.080801248550415,-1.7798244953155518,-0.0,1.9695219993591309,5.124771970301428,-0.0,0.281377375125885,-1.5936420599566858,0.0,-0.0086763184517622,0.7771929502487183,-0.0,0.011226503178477287,0.8292258381843567,0.0,-0.015524221584200859
337.0,400.0,0.0568,0.2883,9.5139,-0.0261,0.02,-0.1142,-1.841288229028219,0.0,3.132970094680786,-1.7798367738723755,-0.0,1.9773015975952148,5.124727803259649,-0.0,0.28889256715774536,-1.5936339537249964,0.0,-0.009255456738173962,0.7772535681724548,-0.0,0.0067887818440794945,0.8291378021240234,0.0,0.0043906462378799915
337.0,400.0,0.0568,0.2883,9.5139,-0.0261,0.02,-0.1142,-1.8413039646544398,0.0,3.0999393463134766,-1.779820203781128,-0.0,1.9701027870178223,5.124659377127447,-0.0,0.2949478030204773,-1.5936782995807093,0.0,-0.009562873281538486,0.7772371768951416,-0.0,0.010660061612725258,0.8291816711425781,0.0,0.047237008810043335
337.0,400.0,0.0568,0.2883,9.5139,-0.0261,0.02,-0.1142,-1.8412724934019984,0.0,3.1173043251037598,-1.779784083366394,-0.0,1.975079894065857,5.124707686692037,-0.0,0.2798154652118683,-1.5936620871173304,0.0,-0.016528695821762085,0.7772817015647888,-0.0,0.00027677646721713245,0.8291857242584229,0.0,-0.025204403325915337
337.0,400.0,0.0568,0.2883,9.5139,-0.0261,0.02,-0.1142,-1.8412724934019984,0.0,3.1127867698669434,-1.7797964811325073,-0.0,1.9916107654571533,5.124731945782461,-0.0,0.28434139490127563,-1.5936296621905726,0.0,-0.009398285299539566,0.7772416472434998,-0.0,0.005781604442745447,0.8291857242584229,0.0,-0.00830387044698
337.0,400.0,0.0568,0.2883,9.5139,-0.0261,0.02,-0.1142,-1.8413087330260218,0.0,3.1269235610961914,-1.7798482179641724,-0.0,1.983597755432129,5.124719607620992,-0.0,0.2803955376148224,-1.5936663786517542,0.0,-0.013706468977034092,0.7771605253219604,-0.0,-0.009218397550284863,0.8291976451873779,0.0,-0.03751973807811737
337.0,400.0,0.0568,0.2883,9.5139,-0.0261,0.02,-0.1142,-1.8412724934019984,0.0,3.1049296855926514,-1.7797397375106812,-0.0,2.0036892890930176,5.124675380974569,-0.0,0.28196486830711365,-1.5936701933490198,0.0,0.0016633053310215473,0.7772694826126099,-0.0,-0.003290619235485792,0.829197883605957,0.0,0.040888771414756775
337.0,400.0,0.0568,0.2883,9.5139,-0.0261,0.02,-0.1142,-1.8412682018675746,0.0,3.150707244873047,-1.7798327207565308,-0.0,1.993674874305725,5.1247117696102045,-0.0,0.27769553661346436,-1.5936620871173304,0.0,-0.004099704325199127,0.7772371768951416,-0.0,-0.0018309347797185183,0.8292098641395569,0.0,0.013028118759393692
337.0,400.0,0.0568,0.2883,9.5139,-0.0261,0.02,-0.1142,-1.8412801227965296,0.0,3.1443262100219727,-1.7798047065734863,-0.0,1.9673357009887695,5.124715912133016,-0.0,0.2803093194961548,-1.5936420599566858,0.0,-0.0045553892850875854,0.7772776484489441,-0.0,0.01130731776356697,0.8292137980461121,0.0,0.030729874968528748
337.0,400.0,0.0568,0.2883,9.5139,-0.0261,0.02,-0.1142,-1.841276308099264,0.0,3.1380186080932617,-1.779820203781128,-0.0,1.9679791927337646,5.1247236905391595,-0.0,0.27478787302970886,-1.593621555958883,0.0,0.00015239288040902466,0.7771888971328735,-0.0,-0.014633553102612495,0.829153835773468,0.0,-0.00921633094549179
337.0,400.0,0.0568,0.2883,9.5139,-0.0261,0.02,-0.1142,-1.8413087330260218,0.0,3.1213178634643555,-1.779820203781128,-0.0,1.9525665044784546,5.1247199950511835,-0.0,0.29119929671287537,-1.5936339537249964,0.0,-0.011952077969908714,0.7772375345230103,-0.0,-0.008657230995595455,0.8292098641395569,0.0,-0.012586873024702072
337.0,400.0,0.0568,0.2883,9.5139,-0.0261,0.02,-0.1142,-1.8412724934019984,0.0,3.116652488708496,-1.7797964811325073,-0.0,1.9720914363861084,5.124760079174795,-0.0,0.2836705446243286,-1.5936577955829065,0.0,-0.025369910523295403,0.7772092819213867,-0.0,0.012651942670345306,0.8291378021240234,0.0,-0.002584921196103096
337.0,400.0,0.0568,0.2883,9.5139,-0.0261,0.02,-0.1142,-1.841316362420553,0.0,3.1124815940856934,-1.7798079252243042,-0.0,1.995192050933838,5.124695765763082,-0.0,0.2708715796470642,-1.5936420599566858,0.0,-0.01497099082916975,0.7771768569946289,-0.0,-0.0006725107086822391,0.8291696906089783,0.0,0.005600406788289547
337.0,400.0,0.0568,0.2883,9.5139,-0.0261,0.02,-0.1142,-1.8412801227965296,0.0,3.120159387588501,-1.7798047065734863,-0.0,1.9479293823242188,5.1247236905391595,-0.0,0.272201806306839,-1.5936740080462855,0.0,-0.009660273790359497,0.7772612571716309,-0.0,0.0020279192831367254,0.829217791557312,0.0,0.019202927127480507
337.0,400.0,0.0568,0.2883,9.5139,-0.0261,0.02,-0.1142,-1.8412801227965296,0.0,3.127241849899292,-1.7797757387161255,-0.0,1.9887256622314453,5.124695378332891,-0.0,0.2746918201446533,-1.593649689351217,0.0,-0.0008304049260914326,0.7772334218025208,-0.0,0.011505311354994774,0.8291497826576233,0.0,0.0065475944429636
337.0,400.0,0.0568,0.2883,9.5139,-0.0261,0.02,-0.1142,-1.8412682018675746,0.0,3.101778030395508,-1.7798285484313965,-0.0,1.9562244415283203,5.12470360377387,-0.0,0.2866337299346924,-1.5936577955829065,0.0,-0.011772390455007553,0.7772092819213867,-0.0,-0.0028088525868952274,0.829153835773468,0.0,-0.025394996628165245
337.0,400.0,0.0568,0.2883,9.5139,-0.0261,0.02,-0.1142,-1.841288229028219,0.0,3.126707077026367,-1.7797561883926392,-0.0,1.9560706615447998,5.124683606415548,-0.0,0.2829316258430481,-1.5936382452594202,0.0,-0.023984737694263458,0.7771810293197632,-0.0,-0.0018910723738372326,0.8291696906089783,0.0,0.012369820848107338
331.0,406.0,0.0191,0.2991,9.3769,-0.0275,0.024,-0.1208,-1.8412968120970667,0.0,3.1180081367492676,-1.779860496520996,-0.0,1.9142107963562012,5.124659377127447,-0.0,0.28420767188072205,-1.5936620871173304,0.0,-0.005779800936579704,0.7771851420402527,-0.0,-0.0015930684749037027,0.8292257189750671,0.0,0.03045162372291088
331.0,406.0,0.0191,0.2991,9.3769,-0.0275,0.024,-0.1208,-1.8413363895811976,0.0,3.1021671295166016,-1.779767632484436,-0.0,1.9804694652557373,5.124659377127447,-0.0,0.288483202457428,-1.5936172644244593,0.0,-0.0033859750255942345,0.7771933078765869,-0.0,0.002810404635965824,0.8291696906089783,0.0,-0.029610589146614075
331.0,406.0,0.0191,0.2991,9.3769,-0.0275,0.024,-0.1208,-1.8412920437254847,0.0,3.1348824501037598,-1.7797800302505493,-0.0,1.9936015605926514,5.124679374485769,-0.0,0.28801608085632324,-1.5936172644244593,0.0,-0.014619354158639908,0.7772575616836548,-0.0,0.006839354056864977,0.829177737236023,0.0,-0.02535320818424225
331.0,406.0,0.0191,0.2991,9.3769,-0.0275,0.024,-0.1208,-1.841264387170309,0.0,3.1188011169433594,-1.7798843383789062,-0.0,1.99882972240448,5.124707686692037,-0.0,0.2776550054550171,-1.593665901814596,0.0,-0.012262273579835892,0.7772051692008972,-0.0,0.0033576516434550285,0.8291776180267334,0.0,0.030890697613358498
331.0,406.0,0.0191,0.2991,9.3769,-0.0275,0.024,-0.1208,-1.8413402042784632,0.0,3.1054468154907227,-1.779852271080017,-0.0,1.926727294921875,5.12470360377387,-0.0,0.2792244255542755,-1.5936463514911097,0.0,-0.014290300197899342,0.7772173881530762,-0.0,-0.00342802912928164,0.829177737236023,0.0,0.0018434780649840832
331.0,406.0,0.0191,0.2991,9.3769,-0.0275,0.024,-0.1208,-1.8412724934019984,0.0,3.1269962787628174,-1.7798038721084595,-0.0,1.965874433517456,5.124727773457327,-0.0,0.27623534202575684,-1.5936420599566858,0.0,-0.001967419870197773,0.7771888971328735,-0.0,0.003087242366746068,0.8291857242584229,0.0,-0.019410423934459686
331.0,406.0,0.0191,0.2991,9.3769,-0.0275,0.024,-0.1208,-1.841264387170309,0.0,3.135450601577759,-1.779792308807373,-0.0,1.9152005910873413,5.12470360377387,-0.0,0.2744763493537903,-1.5936782995807093,0.0,-0.002652909141033888,0.7771806716918945,-0.0,0.002452197251841426,0.8291656374931335,0.0,0.03895280510187149
331.0,406.0,0.0191,0.2991,9.3769,-0.0275,0.024,-0.1208,-1.8412724934019984,0.0,3.1460351943969727,-1.7798327207565308,-0.0,2.0114405155181885,5.124691682844915,-0.0,0.28415390849113464,-1.5936382452594202,0.0,-0.006217090412974358,0.7772493362426758,-0.0,-0.012668528594076633,0.829177737236023,0.0,0.03213435411453247
331.0,406.0,0.0191,0.2991,9.3769,-0.0275,0.024,-0.1208,-1.8412920437254847,0.0,3.1260781288146973,-1.779792308807373,-0.0,1.9698944091796875,5.1246999380882166,-0.0,0.2832120656967163,-1.5936339537249964,0.0,-0.012881943956017494,0.7772133350372314,-0.0,-0.0012211579596623778,0.8291738033294678,0.0,0.023994384333491325
331.0,406.0,0.0191,0.2991,9.3769,-0.0275,0.024,-0.1208,-1.8413125477232875,0.0,3.11617112159729,-1.7797964811325073,-0.0,1.957853078842163,5.124695765763082,-0.0,0.2703598439693451,-1.593665901814596,0.0,0.0009889306966215372,0.7772173881530762,-0.0,0.0013608136214315891,0.8292019367218018,0.0,0.02663140557706356
331.0,406.0,0.0191,0.2991,9.3769,-0.0275,0.024,-0.1208,-1.8413125477232875,0.0,3.1409268379211426,-1.7798490524291992,-0.0,2.0044243335723877,5.12470360377387,-0.0,0.2767166495323181,-1.593649689351217,0.0,-0.015174094587564468,0.7772293090820312,-0.0,0.0035973815247416496,0.8291937112808228,0.0,0.0641467422246933
331.0,406.0,0.0191,0.2991,9.3769,-0.0275,0.024,-0.1208,-1.8412801227965296,0.0,3.1065080165863037,-1.7797634601593018,-0.0,1.9615490436553955,5.124695765763082,-0.0,0.27851682901382446,-1.593653980885641,0.0,-0.0020714490674436092,0.7772412300109863,-0.0,-0.0020893916953355074,0.8291736841201782,0.0,0.014291554689407349
331.0,406.0,0.0191,0.2991,9.3769,-0.0275,0.024,-0.1208,-1.8413001499571742,0.0,3.131474018096924,-1.7798367738723755,-0.0,1.9733119010925293,5.124739694386282,-0.0,0.2735963463783264,-1.5936582724200647,0.0,-0.022314269095659256,0.7772010564804077,-0.0,-0.002693143906071782,0.8291458487510681,0.0,0.028140146285295486
331.0,406.0,0.0191,0.2991,9.3769,-0.0275,0.024,-0.1208,-1.8412682018675746,0.0,3.1416752338409424,-1.779868721961975,-0.0,1.9640936851501465,5.1247117696102045,-0.0,0.2826801538467407,-1.5936740080462855,0.0,-0.010179334320127964,0.777289867401123,-0.0,-0.02012498676776886,0.829193651676178,0.0,-0.017522601410746574
331.0,406.0,0.0191,0.2991,9.3769,-0.0275,0.024,-0.1208,-1.8412920437254847,0.0,3.081974744796753,-1.7798606157302856,-0.0,2.0028743743896484,5.124707627087393,-0.0,0.279543936252594,-1.5936382452594202,0.0,-0.008430758491158485,0.7772092819213867,-0.0,-0.012216705828905106,0.8291857242584229,0.0,0.0008849266450852156
331.0,406.0,0.0191,0.2991,9.3769,-0.0275,0.024,-0.1208,-1.8412682018675746,0.0,3.139817953109741,-1.7798006534576416,-0.0,2.0058040618896484,5.124743777304449,-0.0,0.2712647318840027,-1.5936577955829065,0.0,-0.006573367863893509,0.777233362197876,-0.0,0.012669723480939865,0.8292058706283569,0.0,-0.00834429357200861
340.0,410.0,-0.0508,0.2399,9.5396,-0.0357,0.0252,-0.1156,-1.841264387170309,0.0,3.1272757053375244,-1.779868721961975,-0.0,1.916146993637085,5.124707686692037,-0.0,0.2722499966621399,-1.5936420599566858,0.0,-0.01051761582493782,0.7772133350372314,-0.0,0.008963102474808693,0.8291736841201782,0.0,0.026672249659895897
340.0,410.0,-0.0508,0.2399,9.5396,-0.0357,0.0252,-0.1156,-1.8412724934019984,0.0,3.1750988960266113,-1.7798285484313965,-0.0,1.987790822982788,5.124780195742407,-0.0,0.281819224357605,-1.5936701933490198,0.0,-0.008117200806736946,0.777197003364563,-0.0,-0.007233811542391777,0.8291656970977783,0.0,-0.015676632523536682
340.0,410.0,-0.0508,0.2399,9.5396,-0.0357,0.0252,-0.1156,-1.841316362420553,0.0,3.141785144805908,-1.7798399925231934,-0.0,2.0050597190856934,5.124735611468115,4.403013953435675e-09,0.2813987731933594,-1.5936897436725062,0.0,-0.00810195691883564,0.7772412300109863,-0.0,0.009218168444931507,0.8291939496994019,0.0,-0.05198179930448532
340.0,410.0,-0.0508,0.2399,9.5396,-0.0357,0.0252,-0.1156,-1.8412801227965296,0.0,3.0990371704101562,-1.77980375289917,-0.0,1.9929556846618652,5.124727386027136,0.0006599034531973302,0.27540716528892517,-1.5936854521380823,0.0,0.0027829958125948906,0.7772895097732544,-0.0,0.0053170351311564445,0.8292577266693115,2.6609407655087125e-07,-0.004513476509600878
340.0,410.0,-0.0508,0.2399,9.5396,-0.0357,0.0252,-0.1156,-1.8412605724730433,0.0,3.1128859519958496,-1.7797602415084839,-0.0,1.9715723991394043,5.124727326422491,0.0005694795399904251,0.28097668290138245,-1.5936816374408167,0.0,0.004513932857662439,0.7772215008735657,-0.0,-0.0031697642989456654,0.8292537331581116,0.0008667814545333385,-0.06577110290527344
340.0,410.0,-0.0508,0.2399,9.5396,-0.0357,0.0252,-0.1156,-1.8412405453123988,0.0,3.114711284637451,-1.7798006534576416,0.0007789919036440551,1.9901516437530518,5.124739604979315,0.0005659376038238406,0.2696668803691864,-1.5936616102801722,0.0,-0.004254781641066074,0.777281641960144,-0.0,-0.010221069678664207,0.8292337656021118,0.0018864375306293368,-0.0481611005961895
340.0,410.0,-0.0508,0.2399,9.5396,-0.0357,0.0252,-0.1156,-1.8412286243834437,1.1599274785112357e-07,3.138355016708374,-1.7797716856002808,0.0006677930359728634,2.0167932510375977,5.124678987055578,0.00048151088412851095,0.28141263127326965,-1.593649689351217,0.0,-0.003661233000457287,0.777233362197876,-0.0,0.0018473966047167778,0.8292738795280457,0.0022014935966581106,-0.014769076369702816
340.0,410.0,-0.0508,0.2399,9.5396,-0.0357,0.0252,-0.1156,-1.8412605724730433,2.0878285211800574e-11,3.1096787452697754,-1.779767632484436,0.000550953671336174,2.0165975093841553,5.124787318497457,0.00047322738100774586,0.2787693738937378,-1.5936697165118616,0.0,0.003790667513385415,0.7772173881530762,-0.0,0.003288231324404478,0.8292458057403564,0.0018553994596004486,-0.0035792437847703695
340.0,410.0,-0.0508,0.2399,9.5396,-0.0357,0.0252,-0.1156,-1.8412524662413539,5.041860055518531e-17,3.113983631134033,-1.7797757387161255,0.0002028239832725376,1.9834898710250854,5.12475152590827,0.0004338028375059366,0.2803768813610077,-1.593677822743551,0.0,-0.008813920430839062,0.7772256135940552,-0.0,0.0006066422211006284,0.8293057680130005,0.0013288067420944571,-0.005598903633654118
340.0,410.0,-0.0508,0.2399,9.5396,-0.0357,0.0252,-0.1156,-1.8412562809386195,1.217549883005711e-22,3.1325018405914307,-1.7798047065734863,0.00015156281006056815,1.9763940572738647,5.1247355220611475,0.00038767140358686447,0.2826906442642212,-1.5936978499041956,0.0,0.0024086805060505867,0.7772173881530762,-0.0,-0.005724440794438124,0.8293017745018005,0.0008461226243525743,0.02114608697593212
340.0,410.0,-0.0508,0.2399,9.5396,-0.0357,0.0252,-0.1156,-1.8412443600096644,2.9402392459332453e-28,3.178154945373535,-1.779852271080017,6.049741568858735e-05,1.9675060510635376,5.1247635064418695,0.0003540818579494953,0.2741861641407013,-1.5936735312091272,0.0,-0.016561901196837425,0.7772252559661865,-0.0,-0.007717277389019728,0.8292897343635559,0.0005753962905146182,0.0069257039576768875
340.0,410.0,-0.0508,0.2399,9.5396,-0.0357,0.0252,-0.1156,-1.8412562809386195,7.100331639609651e-34,3.093749523162842,-1.7798408269882202,5.034229616285302e-05,1.9034266471862793,5.124735611468115,0.000303551641991362,0.2836582064628601,-1.5936735312091272,0.0,0.0019176615169271827,0.777245283126831,-0.0,-0.010860627517104149,0.8292659521102905,0.00043597084004431963,0.01605713553726673
340.0,410.0,-0.0508,0.2399,9.5396,-0.0357,0.0252,-0.1156,-1.841288229028219,1.2780345341050717e-37,3.0962560176849365,-1.7797881364822388,7.610280050585061e-08,1.9521245956420898,5.124755608826437,0.00021494453540071845,0.2807285189628601,-1.5936978499041956,0.0,-0.008447078987956047,0.7771613597869873,-0.0,-0.022082844749093056,0.8292818069458008,0.0003753475903067738,-0.011022756807506084
340.0,410.0,-0.0508,0.2399,9.5396,-0.0357,0.0252,-0.1156,-1.841276308099264,3.0828566215145976e-43,3.084287643432617,-1.7798242568969727,1.83779301997887e-13,1.9763705730438232,5.124743687897482,0.00018157632439397275,0.2791910171508789,-1.5936415831195276,0.0,-0.012944944202899933,0.7772375345230103,-0.0,-0.008015302009880543,0.8292658925056458,0.0002588124480098486,0.026169680058956146
340.0,410.0,-0.0508,0.2399,9.5396,-0.0357,0.0252,-0.1156,-1.841264387170309,0.0,3.1022863388061523,-1.779811978340149,4.43805404595486e-19,1.9887926578521729,5.124711024552145,0.00015770616300869733,0.2807576358318329,-1.5936339537249964,0.0,-0.020307598635554314,0.7771732807159424,-0.0,-0.006565302610397339,0.8292742967605591,0.00019178696675226092,0.010775165632367134
340.0,410.0,-0.0508,0.2399,9.5396,-0.0357,0.0252,-0.1156,-1.8412605724730433,0.0,3.1215333938598633,-1.7798285484313965,1.0717377483633092e-24,1.9540181159973145,5.124759691744604,0.00013938457414042205,0.28236064314842224,-1.5936382452594202,0.0,-0.0037039676681160927,0.7771691083908081,-0.0,-0.009726835414767265,0.8292697668075562,-6.268371362239122e-05,-0.02576039917767048
335.0,396.0,-0.1735,-0.1627,9.5916,-0.0188,0.0423,-0.1078,-1.8412682018675746,0.0,3.1033806800842285,-1.7798285484313965,2.588120894917311e-30,2.013878345489502,5.124779838114538,0.00012487743515521288,0.2712138295173645,-1.5936701933490198,0.0,-0.007306459825485945,0.7772452235221863,-0.0,-0.008892897516489029,0.8292416930198669,-0.0016406706999987364,-0.02701660804450512
335.0,396.0,-0.1735,-0.1627,9.5916,-0.0188,0.0423,-0.1078,-1.841276308099264,0.0,3.1388421058654785,-1.7797718048095703,4.658526356636958e-34,1.977736473083496,5.124759691744604,0.0001167749214801006,0.28595736622810364,-1.593653980885641,0.0,0.0016000524628907442,0.777193009853363,-0.0,-0.018382379785180092,0.82923424243927,-0.001922192401252687,0.0011969865299761295
335.0,396.0,-0.1735,-0.1627,9.5916,-0.0188,0.0423,-0.1078,-1.8413087330260218,0.0,3.1243577003479004,-1.779811978340149,1.124979222741535e-39,1.992283821105957,5.124727356224813,0.00010641822882462293,0.267983078956604,-1.5936501661883753,0.0,-0.002422786783427,0.7772456407546997,-0.0,-0.0006565485382452607,0.8291617035865784,-0.0015444578602910042,0.016253815963864326
335.0,396.0,-0.1735,-0.1627,9.5916,-0.0188,0.0423,-0.1078,-1.841276308099264,0.0,3.121793746948242,-1.7798606157302856,2.802596928649634e-45,2.0282936096191406,5.124788063555517,9.77489398792386e-05,0.27190306782722473,-1.5936420599566858,0.0,-0.013901551254093647,0.7772455811500549,-0.0,-0.019462332129478455,0.8291419148445129,-0.0015242265071719885,0.02038693055510521
335.0,396.0,-0.1735,-0.1627,9.5916,-0.0188,0.0423,-0.1078,-1.841320653954977,0.0,3.15620756149292,-1.7798408269882202,4.341410385677591e-05,1.9338903427124023,5.124783921032705,9.038612915901467e-05,0.27531278133392334,-1.5936782995807093,0.0,-0.0002643197076395154,0.7772493958473206,-0.0,-0.013748358935117722,0.8291658163070679,-0.0012701660161837935,-0.04827244579792023
335.0,396.0,-0.1735,-0.1627,9.5916,-0.0188,0.0423,-0.1078,-1.8412562809386195,0.0,3.1203455924987793,-1.7797602415084839,3.8921261875657365e-05,1.9975295066833496,5.124747860222616,8.405458356719464e-05,0.27989229559898376,-1.5936501661883753,0.0,-0.008752180263400078,0.7771810293197632,-0.0,-0.01251649297773838,0.8291776180267334,-0.0007931942236609757,0.018548863008618355
335.0,396.0,-0.1735,-0.1627,9.5916,-0.0188,0.0423,-0.1078,-1.8412920437254847,0.0,3.174877405166626,-1.779800534248352,7.163843110902235e-05,1.9573993682861328,5.124783205776968,8.030451863305643e-05,0.2814449071884155,-1.5936582724200647,0.0,-0.006423385813832283,0.777197003364563,-0.0,0.0013931829016655684,0.8291696906089783,-0.0006324479472823441,0.026147132739424706
335.0,396.0,-0.1735,-0.1627,9.5916,-0.0188,0.0423,-0.1078,-1.84124817470693,1.8702785382629372e-05,3.099215030670166,-1.7798006534576416,3.200162609573454e-05,1.9879512786865234,5.124727356224813,7.526749686803669e-05,0.271384060382843,-1.5936334768878382,0.0,-0.008086897432804108,0.7772215008735657,-0.0,-0.0035594794899225235,0.829145610332489,-0.0005582773592323065,-0.004998692777007818
335.0,396.0,-0.1735,-0.1627,9.5916,-0.0188,0.0423,-0.1078,-1.8412443600096644,1.782351864676457e-05,3.1302390098571777,-1.779792308807373,2.8916687369928695e-05,1.9833186864852905,5.1247233031089685,2.3227923520607874e-05,0.28935062885284424,-1.5936577955829065,0.0,-0.01652463711798191,0.777205228805542,-0.0,-0.005985811352729797,0.8291457295417786,-0.0004557905194815248,0.04740134999155998
335.0,396.0,-0.1735,-0.1627,9.5916,-0.0188,0.0423,-0.1078,-1.8412920437254847,1.682399852143135e-05,3.120751142501831,-1.7798047065734863,2.637443321873434e-05,1.979527235031128,5.124767529755392,2.151187254639808e-05,0.2699435353279114,-1.5936620871173304,0.0,-0.013927275314927101,0.7771814465522766,-0.0,-0.011308516375720501,0.8291776180267334,-0.00043388354242779315,-0.03047828935086727
335.0,396.0,-0.1735,-0.1627,9.5916,-0.0188,0.0423,-0.1078,-1.8412724934019984,1.5930618246784434e-05,3.1400299072265625,-1.7797964811325073,6.369115651549961e-11,1.9898639917373657,5.124739604979315,1.3404851415543817e-06,0.2767191529273987,-1.5936253706561487,0.0,-0.015358643606305122,0.777233362197876,-0.0,-0.002809024415910244,0.8291736841201782,-0.0003676388587336987,-0.03022710792720318
335.0,396.0,-0.1735,-0.1627,9.5916,-0.0188,0.0423,-0.1078,-1.8413244686522425,1.5385934602818452e-05,3.1451401710510254,-1.7798327207565308,1.1464181824173431e-14,2.0008692741394043,5.1247233031089685,5.714698048109312e-09,0.2680974006652832,-1.5936382452594202,0.0,-0.005850238259881735,0.7772694230079651,-0.0,-0.0015644424129277468,0.8291097283363342,-0.0003335709625389427,0.03563329949975014
335.0,396.0,-0.1735,-0.1627,9.5916,-0.0188,0.0423,-0.1078,-1.8412562809386195,9.305922143987289e-10,3.1202244758605957,-1.7798646688461304,2.768464942759586e-20,2.002258539199829,5.12473155835227,1.590706949841647e-12,0.28807327151298523,-1.5936544577227991,0.0,-0.00618118466809392,0.7771410346031189,-0.0,0.0033927427139133215,0.8291696906089783,-0.00029286372591741383,-0.007618248928338289
335.0,396.0,-0.1735,-0.1627,9.5916,-0.0188,0.0423,-0.1078,-1.841320653954977,2.2472705238986727e-15,3.121971845626831,-1.7798327207565308,6.685517285657553e-26,2.0118067264556885,5.124707686692037,4.4277914104823583e-16,0.2787178158760071,-1.5936501661883753,0.0,-0.00395252276211977,0.7771851420402527,-0.0,-0.010574525222182274,0.8291857242584229,-0.0002610120573081076,-0.042910244315862656
335.0,396.0,-0.1735,-0.1627,9.5916,-0.0188,0.0423,-0.1078,-1.841316362420553,5.426894507651732e-21,3.1741323471069336,-1.7798761129379272,1.6144738999292396e-31,1.9542171955108643,5.124679314881124,1.232492004120622e-19,0.2966497540473938,-1.5936740080462855,0.0,0.0016203545965254307,0.7772255539894104,-0.0,-0.008727687411010265,0.8291497826576233,-0.00020634348038583994,0.011089028790593147
335.0,396.0,-0.1735,-0.1627,9.5916,-0.0188,0.0423,-0.1078,-1.841288229028219,1.3105309240581737e-26,3.123882293701172,-1.779868721961975,3.898765230756897e-37,1.9449293613433838,5.124719607620992,3.430686341502159e-23,0.27777084708213806,-1.5936577955829065,0.0,-0.004422485362738371,0.7771933078765869,-0.0,0.003225508611649275,0.8291777968406677,-7.836428267182782e-05,0.022267039865255356
326.0,421.0,-0.0586,0.0861,9.7107,-0.046,0.0229,-0.1145,-1.8412801227965296,3.164778150994266e-32,3.110316038131714,-1.7797883749008179,-9.649888670537621e-05,1.9758869409561157,5.124735611468115,9.549440132356295e-27,0.2877747416496277,-1.5936053434955042,0.0,-0.006851557642221451,0.777205228805542,-0.0,0.00044995243661105633,0.829193651676178,-4.6564091462641954e-05,-0.0027681002393364906
326.0,421.0,-0.0586,0.0861,9.7107,-0.046,0.0229,-0.1145,-1.841320653954977,5.6964891024525176e-36,3.1453418731689453,-1.779844045639038,-6.698950892314315e-05,1.971879482269287,5.124779838114538,4.0710761563553645e-29,0.2737659811973572,-1.5936577955829065,0.0,-0.008780918084084988,0.7771613597869873,-0.0,-0.008935550227761269,0.829193651676178,-3.217943958588876e-05,0.02755703404545784
326.0,421.0,-0.0586,0.0861,9.7107,-0.046,0.0229,-0.1145,-1.841288229028219,1.375654702427673e-41,3.166783332824707,-1.7798243761062622,-8.537617723902713e-09,1.9937669038772583,5.12478398063735,1.1331989620537477e-32,0.2771732211112976,-1.593653980885641,0.0,-0.004937588237226009,0.7771732807159424,-0.0,-0.007543136831372976,0.8292019367218018,-4.0289037883667334e-07,-0.029736077412962914
326.0,421.0,-0.0586,0.0861,9.7107,-0.046,0.0229,-0.1145,-1.841332574883932,0.0,3.138537883758545,-1.7798449993133545,-2.0617342671980753e-14,1.9897027015686035,5.124707299261846,3.154301050201446e-36,0.27259331941604614,-1.5936816374408167,0.0,0.0045105512253940105,0.7772010564804077,-0.0,-0.005040954798460007,0.829197883605957,-9.729327803478793e-13,0.037802841514348984
326.0,421.0,-0.0586,0.0861,9.7107,-0.046,0.0229,-0.1145,-1.8412968120970667,0.0,3.115063190460205,-1.7797964811325073,-4.978845020278996e-20,1.9611101150512695,5.124703156739034,8.780115787920006e-40,0.2865808308124542,-1.5936582724200647,0.0,0.000335508375428617,0.7772092819213867,-0.0,-0.006123831961303949,0.8292338252067566,-2.3495184352216382e-18,-0.018931278958916664
326.0,421.0,-0.0586,0.0861,9.7107,-0.046,0.0229,-0.1145,-1.8413402042784632,-0.0015987271908670664,3.1196186542510986,-1.779820442199707,-1.2023326111908063e-25,1.9707386493682861,5.124763864069738,2.4382593279251817e-43,0.27769652009010315,-1.5936620871173304,0.0,0.000761057308409363,0.7771691679954529,-0.0,0.00022907817037776113,0.8292377591133118,0.001081719994544983,-0.02373589389026165
326.0,421.0,-0.0586,0.0861,9.7107,-0.046,0.0229,-0.1145,-1.8413888416686,-0.0029158294200897217,3.099792718887329,-1.779820203781128,-2.164156344225446e-29,1.9721378087997437,5.124719607620992,1.401298464324817e-45,0.2801046669483185,-1.59369403520693,0.0,-0.0038520023226737976,0.7772011160850525,-0.0,-0.0025719956029206514,0.829265832901001,0.0018366443691775203,0.00035936571657657623
326.0,421.0,-0.0586,0.0861,9.7107,-0.046,0.0229,-0.1145,-1.8414322338499964,-0.0038394732400774956,3.117666721343994,-1.7798327207565308,-5.226183024936729e-35,1.9787276983261108,5.124719607620992,0.0,0.28795093297958374,-1.5936582724200647,0.0,-0.007406130898743868,0.7772092819213867,-0.0,0.0009407638572156429,0.8292897343635559,0.0024602257180958986,0.06776592880487442
326.0,421.0,-0.0586,0.0861,9.7107,-0.046,0.0229,-0.1145,-1.841424127618307,-0.002843477064743638,3.1662418842315674,-1.7798244953155518,-1.2620654489095032e-40,1.942047357559204,5.124719607620992,0.0,0.2747083306312561,-1.593637768422262,0.0,-0.007145241368561983,0.777205228805542,-0.0,0.0018557504517957568,0.8293058276176453,0.0026330635882914066,0.0023128180764615536
326.0,421.0,-0.0586,0.0861,9.7107,-0.046,0.0229,-0.1145,-1.841440340081686,-0.001073849038220942,3.174987316131592,-1.779811978340149,-0.0,1.9711618423461914,5.1247117696102045,-0.0004985391278751194,0.2773858904838562,-1.593665901814596,0.0,-0.0011084929574280977,0.7771769762039185,-0.0,-0.0012112610274925828,0.8293017148971558,0.0030709770508110523,0.038872912526130676
326.0,421.0,-0.0586,0.0861,9.7107,-0.046,0.0229,-0.1145,-1.8414083919920863,-0.0006220103823579848,3.1237363815307617,-1.7798761129379272,-0.0,1.9707895517349243,5.1247315285499475,-0.00037443620385602117,0.27886003255844116,-1.593665901814596,0.0,-0.006638846825808287,0.777265727519989,-0.0,-0.011773137375712395,0.8293339610099792,0.0033376889768987894,-0.01337425783276558
326.0,421.0,-0.0586,0.0861,9.7107,-0.046,0.0229,-0.1145,-1.8413688145079554,-0.0004872135177720338,3.080387592315674,-1.7798242568969727,-0.0,1.9560823440551758,5.124727803259649,-0.0002579806314315647,0.2835543751716614,-1.593665901814596,0.0,0.0015894328244030476,0.7772535681724548,-0.0,-0.005505921319127083,0.8293219208717346,0.0027408835012465715,0.030505293980240822
326.0,421.0,-0.0586,0.0861,9.7107,-0.046,0.0229,-0.1145,-1.8414045772948207,-0.0003677192726172507,3.113234758377075,-1.7797842025756836,-0.0,1.9478265047073364,5.124727773457327,-0.0002114985982188955,0.2815166115760803,-1.593665901814596,0.0,-0.008877267129719257,0.777181088924408,-0.0,-0.0059270369820296764,0.8293337821960449,0.0016195176867768168,0.02058372087776661
326.0,421.0,-0.0586,0.0861,9.7107,-0.046,0.0229,-0.1145,-1.841452261010641,-0.00039297848707064986,3.134887933731079,-1.779871940612793,-0.0,1.9542216062545776,5.124663460045614,-7.182730041677132e-05,0.27443745732307434,-1.5936701933490198,0.0,-0.008544232696294785,0.7772216200828552,-0.0,0.0060245743952691555,0.8293176889419556,0.0009148534154519439,0.00861025508493185
326.0,421.0,-0.0586,0.0861,9.7107,-0.046,0.0229,-0.1145,-1.8414517841734828,-0.0004367805377114564,3.0888075828552246,-1.779831886291504,-0.0,1.9445018768310547,5.1246593473251245,-5.540624260902405e-05,0.2671469748020172,-1.593677822743551,0.0,0.0024294473696500063,0.7772011160850525,-0.0,0.004957935307174921,0.8293219804763794,0.000639493518974632,-0.017072509974241257
326.0,421.0,-0.0586,0.0861,9.7107,-0.046,0.0229,-0.1145,-1.8415361843504847,-0.005599233787506819,3.067913293838501,-1.77988862991333,-0.00013172872422728688,1.9417403936386108,5.124708103924551,-0.00012759215314872563,0.26727917790412903,-1.593665901814596,0.0,0.006801913026720285,0.7772935628890991,-0.0,-0.004708899650722742,0.8293179273605347,0.00010965623368974775,0.04900107532739639
332.0,398.0,-1.063,0.5312,9.6006,-0.0272,0.0499,-0.1016,-1.8415280781187953,-0.00745157478377223,3.0729122161865234,-1.7798678874969482,-0.00023001983936410397,1.984519362449646,5.124687689333715,-0.0003254049806855619,0.27743029594421387,-1.5937097708331507,0.0,-0.008517267182469368,0.7772173881530762,-0.0,-0.0038513371255248785,0.8293299674987793,2.3904220142867416e-05,-0.02838057093322277
332.0,398.0,-1.063,0.5312,9.6006,-0.0272,0.0499,-0.1016,-1.84157194713735,-0.008837494067847729,3.0901761054992676,-1.7798194885253906,-0.0009562536724843085,1.9628576040267944,5.124619620829382,-0.0005128663033246994,0.2820928394794464,-1.5936172644244593,0.0,-0.017816312611103058,0.7772092819213867,-0.0,-0.0010431420523673296,0.8292778134346008,5.772587616248437e-11,0.01743171736598015
332.0,398.0,-1.063,0.5312,9.6006,-0.0272,0.0499,-0.1016,-1.8415996036925257,-0.008177593350410461,3.1190714836120605,-1.779848337173462,-0.0005227741203270853,1.9712750911712646,5.1246797917182825,-0.00036340818041935563,0.29054611921310425,-1.593653980885641,0.0,-0.011555937118828297,0.777229368686676,-0.0,-0.004280306864529848,0.8292537331581116,-0.0016825756756588817,0.019231881946325302
332.0,398.0,-1.063,0.5312,9.6006,-0.0272,0.0499,-0.1016,-1.841684480706686,-0.005293938331305981,3.1340997219085693,-1.779860496520996,-0.0003867456689476967,1.9572653770446777,5.1246317503745935,-0.0002948629262391478,0.2860320210456848,-1.5936902205096644,0.0,-0.01871355250477791,0.7772170305252075,-0.0,-0.0013925060629844666,0.8292136192321777,-0.0020609607454389334,0.050294116139411926
332.0,398.0,-1.063,0.5312,9.6006,-0.0272,0.0499,-0.1016,-1.8416959247984828,-0.003048694459721446,3.1027755737304688,-1.7798678874969482,-0.00030745158437639475,1.9382102489471436,5.124648082047262,-0.00022203738626558334,0.2919255793094635,-1.5936501661883753,0.0,-0.010601367801427841,0.7772453427314758,-0.0,0.006520524621009827,0.8292138576507568,-0.002674975898116827,-0.031169282272458076
332.0,398.0,-1.063,0.5312,9.6006,-0.0272,0.0499,-0.1016,-1.8416720829405726,-0.0020541043486446142,3.067755699157715,-1.7798556089401245,-0.00032449109130539,2.0022828578948975,5.124691772251882,-0.00019065444939769804,0.2757037281990051,-1.5936172644244593,0.0,0.0027574459090828896,0.7772412300109863,-0.0,0.003991807345300913,0.8291857242584229,-0.004320190288126469,0.012012891471385956
332.0,398.0,-1.063,0.5312,9.6006,-0.0272,0.0499,-0.1016,-1.8416959247984828,-0.0012566649820655584,3.121645927429199,-1.7798844575881958,-0.00032059685327112675,1.9983668327331543,5.124663758068838,-0.0002087901666527614,0.28183674812316895,-1.5936382452594202,0.0,-0.0008635327685624361,0.7772572040557861,-0.0,-0.00943341851234436,0.8291537761688232,-0.007780057843774557,-0.04681888595223427
332.0,398.0,-1.063,0.5312,9.6006,-0.0272,0.0499,-0.1016,-1.8416959247984828,-0.0010637654922902584,3.175751209259033,-1.7798926830291748,-0.00027830066392198205,1.9471330642700195,5.124655681639471,-0.0001785308850230649,0.27825915813446045,-1.5936782995807093,0.0,-0.002341035520657897,0.777245283126831,-0.0,-0.006242591887712479,0.8291137218475342,-0.007839321158826351,-0.01504092663526535
332.0,398.0,-1.063,0.5312,9.6006,-0.0272,0.0499,-0.1016,-1.8417116604247035,-0.0008782831719145179,3.138610363006592,-1.779795527458191,-0.00021450109488796443,1.9579458236694336,5.124627756863394,-9.967570804292336e-05,0.27675560116767883,-1.593653980885641,0.0,-0.007987741380929947,0.777221143245697,-0.0,-0.009881734848022461,0.8290137052536011,-0.007961412891745567,-0.028911661356687546
332.0,398.0,-1.063,0.5312,9.6006,-0.0272,0.0499,-0.1016,-1.8416840038695277,-0.0006194933666847646,3.151930809020996,-1.7798680067062378,-0.00021690949506592005,2.006338596343994,5.124644088536062,-8.402133971685544e-05,0.2801039516925812,-1.5936172644244593,0.0,-0.012286655604839325,0.7772293090820312,-0.0,0.000291546864900738,0.8290135860443115,-0.007960940711200237,-0.00374508835375309
332.0,398.0,-1.063,0.5312,9.6006,-0.0272,0.0499,-0.1016,-1.8416878185667933,-0.0005176486447453499,3.1391592025756836,-1.7798277139663696,-0.00020078507077414542,1.9187872409820557,5.124671983509817,-7.684507727390155e-05,0.2865859866142273,-1.593649689351217,0.0,-0.010004088282585144,0.7772735357284546,-0.0,-0.0003169418196193874,0.8289856314659119,-0.008504283614456654,-0.018323086202144623
332.0,398.0,-1.063,0.5312,9.6006,-0.0272,0.0499,-0.1016,-1.8417159519591273,-0.00041526000131852925,3.124014139175415,-1.7799403667449951,-0.0001806353684514761,1.962877869606018,5.124663758068838,-6.81191377225332e-05,0.2955619990825653,-1.5936334768878382,0.0,-0.008805129677057266,0.7772412300109863,-0.0,-0.00013268832117319107,0.828941822052002,-0.007815655320882797,-0.03780942037701607
332.0,398.0,-1.063,0.5312,9.6006,-0.0272,0.0499,-0.1016,-1.8416997394957484,-0.00034669399610720575,3.137551784515381,-1.7798120975494385,-0.0001641611015656963,1.9771591424942017,5.12467576840476,-6.117313023423776e-05,0.30126890540122986,-1.593609635029928,0.0,-0.0018190874252468348,0.7772854566574097,-0.0,0.005710128229111433,0.8288134932518005,-0.007963014766573906,-0.018032945692539215
332.0,398.0,-1.063,0.5312,9.6006,-0.0272,0.0499,-0.1016,-1.8416921101012171,-0.00029756268486380577,3.138312339782715,-1.7799403667449951,-0.00015044055180624127,1.9828159809112549,5.124667930393972,-5.551258800551295e-05,0.29049307107925415,-1.5936334768878382,0.0,-0.020111514255404472,0.7772371768951416,-0.0,-0.01437917910516262,0.8287935853004456,-0.0074637271463871,0.0033343229442834854
332.0,398.0,-1.063,0.5312,9.6006,-0.0272,0.0499,-0.1016,-1.8416720829405726,-0.00026062989491038024,3.133843421936035,-1.7798844575881958,-0.00013883675273973495,2.0006277561187744,5.124655681639471,-5.0811049732146785e-05,0.29889148473739624,-1.5936253706561487,0.0,-0.01050516776740551,0.7772293090820312,-0.0,-0.0037834951654076576,0.8287492990493774,-0.0067934198305010796,0.006944628898054361
332.0,398.0,-1.063,0.5312,9.6006,-0.0272,0.0499,-0.1016,-1.841668268243307,-0.00023185332247521728,3.146974802017212,-1.779880404472351,-0.00012889486970379949,1.9731351137161255,5.124648082047262,-4.684383748099208e-05,0.3008616864681244,-1.5936339537249964,0.0,-0.012724282220005989,0.7772330045700073,-0.0,-0.001945391995832324,0.8287173509597778,-0.00627224612981081,-0.01913062483072281
331.0,429.0,0.4169,0.8345,9.3942,-0.036,0.0069,-0.1319,-1.8416921101012171,-0.000215957363252528,3.109818458557129,-1.7799123525619507,-0.0001230222114827484,1.9849350452423096,5.124659764557638,-4.452621942618862e-05,0.29579222202301025,-1.5936177412616175,0.0,-0.0070815193466842175,0.7772613167762756,-0.0,0.005411201156675816,0.8286814093589783,-0.006026696413755417,0.04933939874172211
331.0,429.0,0.4169,0.8345,9.3942,-0.036,0.0069,-0.1319,-1.841680189172262,-0.00019581937522161752,3.1542558670043945,-1.779896855354309,-0.00011515200458234176,1.9484225511550903,5.124640005617895,-4.1450031858403236e-05,0.2963995933532715,-1.5936582724200647,0.0,-0.012952500954270363,0.7772327065467834,-0.0,0.0012522272299975157,0.8286734223365784,-0.00562613969668746,-0.02610800415277481
331.0,429.0,0.4169,0.8345,9.3942,-0.036,0.0069,-0.1319,-1.841680189172262,-0.00020470484741963446,3.1184887886047363,-1.7798120975494385,-0.00010822831973200664,1.9765903949737549,5.12467976191596,-3.877149356412701e-05,0.2989763915538788,-1.5936139265643519,0.0,-0.024482615292072296,0.7772449254989624,-0.0,0.003274145070463419,0.8286532759666443,-0.00573522737249732,-0.013811671175062656
331.0,429.0,0.4169,0.8345,9.3942,-0.036,0.0069,-0.1319,-1.8416840038695277,-0.00015578324382659048,3.1034903526306152,-1.7799444198608398,-0.000102090067230165,2.008925437927246,5.124664562731542,-3.641809962573461e-05,0.30989697575569153,-1.5936139265643519,0.0,-0.019572664052248,0.7772695422172546,-0.0,0.0021216978784650564,0.8286253213882446,-0.005099310539662838,-0.017762834206223488
331.0,429.0,0.4169,0.8345,9.3942,-0.036,0.0069,-0.1319,-1.8417521915831507,-0.0008706604712642729,3.1017961502075195,-1.7798596620559692,-9.661064541433007e-05,1.936768889427185,5.12467976191596,-3.433411620790139e-05,0.29773497581481934,-1.593597714100973,0.0,-0.023810237646102905,0.7772854566574097,-0.0,0.0001073894090950489,0.8286260962486267,-0.00427704444155097,-0.055870264768600464
331.0,429.0,0.4169,0.8345,9.3942,-0.036,0.0069,-0.1319,-1.8417402706541957,-0.0010152531322091818,3.110743522644043,-1.7798885107040405,-9.327329462394118e-05,1.9777803421020508,5.124579387694158,-3.307243969175033e-05,0.29069867730140686,-1.5936334768878382,0.0,-0.0005220342427492142,0.7772288918495178,-0.0,0.009069215506315231,0.828565239906311,-0.0036373138427734375,-0.013540834188461304
331.0,429.0,0.4169,0.8345,9.3942,-0.036,0.0069,-0.1319,-1.8417359791197718,-0.001300143776461482,3.070791006088257,-1.7798162698745728,-8.867822180036455e-05,1.9153451919555664,5.124656337290563,-3.134466533083469e-05,0.2888622283935547,-1.5936301390277308,0.0,-0.012201566249132156,0.7772572040557861,-0.0,0.0028255819343030453,0.8285613656044006,-0.0029517763759940863,0.028581125661730766
331.0,429.0,0.4169,0.8345,9.3942,-0.036,0.0069,-0.1319,-1.8417359791197718,-0.0017392010195180774,3.068638324737549,-1.7798441648483276,-8.451470057480037e-05,1.9641122817993164,5.124644088536062,-2.978847987833433e-05,0.28785714507102966,-1.5936015287982386,0.0,-0.015540996566414833,0.7773014903068542,-0.0,0.016547685489058495,0.8285372257232666,-0.002336686011403799,-0.0323367565870285
331.0,429.0,0.4169,0.8345,9.3942,-0.036,0.0069,-0.1319,-1.8417641125121058,-0.0018428652547299862,3.0362389087677,-1.7799237966537476,-8.072444325080141e-05,1.9385430812835693,5.124644028931417,-2.8379503419273533e-05,0.2985658347606659,-1.5936015287982386,0.0,-0.017278429120779037,0.7772926688194275,-0.0,0.014603634364902973,0.8285613656044006,-0.001579580013640225,-0.04616672918200493
331.0,429.0,0.4169,0.8345,9.3942,-0.036,0.0069,-0.1319,-1.8417641125121058,-0.002125851111486554,3.058002471923828,-1.779880404472351,-6.438546552089974e-05,1.9573094844818115,5.124635922699728,-2.7097803467768244e-05,0.2959473133087158,-1.5935776869403284,0.0,-0.0048021841794252396,0.7772531509399414,-0.0,0.009603556245565414,0.8285173177719116,-0.0010931285796687007,-0.029991816729307175
331.0,429.0,0.4169,0.8345,9.3942,-0.036,0.0069,-0.1319,-1.8417402706541957,-0.0025149581488221884,3.0493764877319336,-1.779840111732483,-6.259206566028297e-05,1.971919059753418,5.1246797917182825,-2.630576454976108e-05,0.29518550634384155,-1.5936139265643519,0.0,-0.008177390322089195,0.7772966623306274,-0.0,0.025792185217142105,0.828565239906311,-0.0007257985416799784,-0.05480939522385597
331.0,429.0,0.4169,0.8345,9.3942,-0.036,0.0069,-0.1319,-1.8417841396727503,-0.0028419371228665113,3.0547165870666504,-1.77988862991333,-4.94691776111722e-05,1.9406366348266602,5.124663758068838,-2.5200884920195676e-05,0.2835962772369385,-1.5936420599566858,0.0,-0.009337416850030422,0.7773371934890747,-0.0,0.015499215573072433,0.8285614252090454,-0.0005865835701115429,-0.03326306492090225
331.0,429.0,0.4169,0.8345,9.3942,-0.036,0.0069,-0.1319,-1.8418079815306605,-0.003230657894164324,3.053579330444336,-1.7798399925231934,-4.6216689952416345e-05,1.9690377712249756,5.124595719366827,-2.4185092115658335e-05,0.2903774380683899,-1.593609635029928,0.0,-0.02358553558588028,0.7772694230079651,-0.0,0.02660389430820942,0.8285133838653564,-0.000442467222455889,-0.04846934974193573
331.0,429.0,0.4169,0.8345,9.3942,-0.036,0.0069,-0.1319,-1.8417793713011683,-0.0035128684248775244,3.020064115524292,-1.7798285484313965,-4.45027653768193e-05,1.9423831701278687,5.124659764557638,-2.324801062059123e-05,0.3050644099712372,-1.5936296621905726,0.0,-0.00778405973687768,0.777324914932251,0.00025762864970602095,0.012191434390842915,0.8285372257232666,-0.0004143301921430975,-0.02603372186422348
331.0,429.0,0.4169,0.8345,9.3942,-0.036,0.0069,-0.1319,-1.8418599567809046,-0.0033000223338603973,3.0309031009674072,-1.7798244953155518,-4.291139339329675e-05,1.9330849647521973,5.124595719366827,-2.2380838345270604e-05,0.292319655418396,-1.5936334768878382,0.0,-0.02335255593061447,0.7773613929748535,0.00026415102183818817,0.03921943157911301,0.8285372853279114,-0.00034188604331575334,-0.011915473267436028
342.0,424.0,0.015,-0.1172,9.5414,-0.0383,0.011,-0.1188,-1.8418761692442835,-0.003837613156065345,3.058546781539917,-1.7797924280166626,-3.18508391501382e-05,1.949833869934082,5.124595719366827,-2.1837786334799603e-05,0.30268633365631104,-1.5936220327960413,0.0,-0.01880634017288685,0.7772813439369202,0.0002603921457193792,0.017641544342041016,0.8285053372383118,-0.0003783738939091563,-0.006223232951015234
342.0,424.0,0.015,-0.1172,9.5414,-0.0383,0.011,-0.1188,-1.841884275475973,-0.004100263584405184,2.9770469665527344,-1.779880404472351,-3.0373377740033902e-05,1.946336030960083,5.124652224570074,-3.159453262924217e-05,0.2919371724128723,-1.5935857931720179,0.0,-0.01870083250105381,0.7773008346557617,0.0002477527305018157,0.0378868505358696,0.8285372853279114,-0.0011419878574088216,-0.04078630730509758
342.0,424.0,0.015,-0.1172,9.5414,-0.0383,0.011,-0.1188,-1.841896196404928,-0.003807533299550414,2.9785892963409424,-1.7798523902893066,-1.3600376291833527e-07,1.9792423248291016,5.124591666250982,-3.8096532080089673e-05,0.2982974946498871,-1.5936177412616175,0.0,-0.03311285749077797,0.7773212194442749,0.00025324776652269065,0.03481540083885193,0.8284692764282227,-0.001499053556472063,-0.05392813682556152
342.0,424.0,0.015,-0.1172,9.5414,-0.0383,0.011,-0.1188,-1.841952463189596,-0.0038182151038199663,3.0201406478881836,-1.7798844575881958,-1.8779239326249808e-05,1.9761935472488403,5.124648231058874,-2.5986867058236385e-06,0.28287699818611145,-1.593597714100973,0.0,-0.0034780646674335003,0.7772691249847412,0.0002790557045955211,0.029520466923713684,0.8284971714019775,-0.0022860413882881403,-0.026962347328662872
342.0,424.0,0.015,-0.1172,9.5414,-0.0383,0.011,-0.1188,-1.8420244656004847,-0.004038761369884014,3.0148673057556152,-1.7798885107040405,2.35150055232225e-05,1.9714194536209106,5.124648260861196,-6.386993482010439e-05,0.2868533134460449,-1.5935900847064417,0.0,-0.009574003517627716,0.7773371934890747,0.0002354910975554958,0.03458758816123009,0.8283933401107788,-0.0027892026118934155,-0.027501311153173447
342.0,424.0,0.015,-0.1172,9.5414,-0.0383,0.011,-0.1188,-1.841975828210348,-0.0047603873535990715,3.014603614807129,-1.7797956466674805,2.2916376110515557e-05,1.9498252868652344,5.124619918852606,-6.829549965914339e-05,0.2911517024040222,-1.5936334768878382,0.0,-0.003919175826013088,0.7772884964942932,0.0002554157981649041,0.02870561182498932,0.8285011053085327,-0.003165887203067541,-0.03936031833291054
342.0,424.0,0.015,-0.1172,9.5414,-0.0383,0.011,-0.1188,-1.8419958553709925,-0.004944061394780874,2.987429141998291,-1.7797964811325073,2.2073312720749527e-05,1.9591000080108643,5.124632257014074,-7.674622611375526e-05,0.287729948759079,-1.5935900847064417,0.0,-0.01350191980600357,0.7773048281669617,0.0002587554045021534,0.04431756213307381,0.8284013271331787,-0.003360698465257883,-0.11415672302246094
342.0,424.0,0.015,-0.1172,9.5414,-0.0383,0.011,-0.1188,-1.8420559368529261,-0.005252866540104151,3.0101218223571777,-1.7798678874969482,2.129011227225419e-05,1.9377386569976807,5.124603915005483,-8.464519487461075e-05,0.27065473794937134,-1.5936334768878382,0.0,-0.01827910915017128,0.777276873588562,0.00023237809364218265,0.050504013895988464,0.8284531831741333,-0.004010901786386967,-0.07042920589447021
342.0,424.0,0.015,-0.1172,9.5414,-0.0383,0.011,-0.1188,-1.8420640430846156,-0.005864164792001247,2.9611473083496094,-1.7798523902893066,2.0560561097227037e-05,1.969759464263916,5.124612080841818,-0.00035576478694565594,0.269939124584198,-1.5936663786517542,1.527324400285579e-07,-0.013167859986424446,0.7772966623306274,0.00023904276895336807,0.04266916587948799,0.8283932209014893,-0.004696043208241463,-0.1037408858537674
342.0,424.0,0.015,-0.1172,9.5414,-0.0383,0.011,-0.1188,-1.842151781121725,-0.006568663753569126,2.9906325340270996,-1.779831886291504,1.987935866054613e-05,1.9862968921661377,5.124624001770773,-0.00034547183895483613,0.29913315176963806,-1.593569580708639,4.251362803464609e-11,-0.007314168848097324,0.7773089408874512,0.00023236192646436393,0.03070690855383873,0.8283650875091553,-0.0050822412595152855,-0.02482963539659977
342.0,424.0,0.015,-0.1172,9.5414,-0.0383,0.011,-0.1188,-1.8421837292113246,-0.006785037461668253,2.9837515354156494,-1.7798523902893066,4.800631073220707e-11,1.9730734825134277,5.124583917647161,-0.00033812643960118294,0.27925699949264526,-1.5935981909381312,1.1833825308289313e-14,-0.014991043135523796,0.7772966623306274,0.00020565756130963564,0.04142426699399948,0.8283212184906006,-0.005758748855441809,-0.09444160014390945
342.0,424.0,0.015,-0.1172,9.5414,-0.0383,0.011,-0.1188,-1.8421913586058558,-0.0073514338582754135,2.954176902770996,-1.7798523902893066,8.640966800866224e-15,1.9531493186950684,5.124595749169149,-0.0003486683708615601,0.2623272240161896,-1.5935738722430628,5.044945108331109e-17,-0.013392342254519463,0.7772727608680725,0.00022109287965577096,0.050492048263549805,0.8282612562179565,-0.005752565339207649,-0.1242024302482605
342.0,424.0,0.015,-0.1172,9.5414,-0.0383,0.011,-0.1188,-1.8422275982298792,-0.008597366511821747,2.986720561981201,-1.7798367738723755,2.0866918574595836e-20,1.9618773460388184,5.124632227211752,-0.00040173353045247495,0.2542703151702881,-1.5936301390277308,1.4042789996545596e-20,-0.004143028520047665,0.7773409485816956,0.00020087689335923642,0.04383198171854019,0.8282331228256226,-0.006844629067927599,-0.15011748671531677
342.0,424.0,0.015,-0.1172,9.5414,-0.0383,0.011,-0.1188,-1.8423196278014125,-0.009243140928447247,2.9479470252990723,-1.7798399925231934,5.039115272654725e-26,1.9131113290786743,5.124571996718206,-0.0003903969482053071,0.2593682110309601,-1.5936182180987757,3.908862188924837e-24,0.0024253535084426403,0.7773651480674744,0.00018070860824082047,0.0546133816242218,0.8281686305999756,-0.00777797307819128,-0.11715587228536606
342.0,424.0,0.015,-0.1172,9.5414,-0.0383,0.011,-0.1188,-1.842367788354391,-0.011075124144554138,2.8905482292175293,-1.779905080795288,1.2168869158483576e-31,1.9871883392333984,5.1245999214942834,-0.0005406588898040354,0.2553691864013672,-1.5935538450824183,0.0002444545680191368,-0.01213884074240923,0.7773129940032959,0.0001913462474476546,0.0459010973572731,0.8281609416007996,-0.008102389052510262,-0.09322097897529602
342.0,424.0,0.015,-0.1172,9.5414,-0.0383,0.011,-0.1188,-1.8424598179259242,-0.01221341174095869,2.912632942199707,-1.7798606157302856,2.9386383466826018e-37,1.906611680984497,5.124539691000738,-0.0005613879766315222,0.25411149859428406,-1.5935776869403284,0.00023163373407442123,-0.0036648428067564964,0.777324914932251,0.0001755707198753953,0.052033931016922,0.8281087279319763,-0.00851200707256794,-0.1629398763179779
340.0,406.0,-0.1041,0.2674,9.6515,-0.0325,0.0206,-0.1231,-1.842471262017721,-0.013276178389787674,2.8959097862243652,-1.7799010276794434,5.289481313286887e-41,1.9748895168304443,5.124567913800039,-0.0005492907948791981,0.25063231587409973,-1.5935896078692835,0.00023141060955822468,-0.006322336848825216,0.7773088812828064,0.00018964553601108491,0.0509675070643425,0.8280689120292664,-0.008858053013682365,-0.16582708060741425
340.0,406.0,-0.1041,0.2674,9.6515,-0.0325,0.0206,-0.1231,-1.842635294000143,-0.014404837042093277,2.8634591102600098,-1.7798523902893066,0.0,2.003779411315918,5.124551999359884,-0.0006702066748403013,0.24711166322231293,-1.5935981909381312,0.00023869845608714968,0.01333208940923214,0.7773408889770508,0.0001761110033839941,0.06842061132192612,0.8280731439590454,-0.008816869929432869,-0.1921156942844391
340.0,406.0,-0.1041,0.2674,9.6515,-0.0325,0.0206,-0.1231,-1.8426720104613246,-0.015862565487623215,2.857823371887207,-1.7798244953155518,-0.0,1.9295566082000732,5.1246083853538416,-0.0007056252215988934,0.2457062304019928,-1.593586270009176,0.0002449686289764941,0.012247957289218903,0.7773450016975403,0.0001769118243828416,0.05079720914363861,0.8279649019241333,-0.00913456454873085,-0.15968549251556396
340.0,406.0,-0.1041,0.2674,9.6515,-0.0325,0.0206,-0.1231,-1.8428036175169886,-0.016460824757814407,2.8206465244293213,-1.7798845767974854,-0.0,1.9538559913635254,5.124524014979162,-0.000699441647157073,0.23913618922233582,-1.5935819784747522,0.00028079497860744596,0.016096659004688263,0.7773125767707825,0.0001817033626139164,0.059139370918273926,0.8279770016670227,-0.009497403167188168,-0.18521195650100708
340.0,406.0,-0.1041,0.2674,9.6515,-0.0325,0.0206,-0.1231,-1.842879434625143,-0.01745191216468811,2.8548989295959473,-1.7798678874969482,-0.0,1.9383207559585571,5.124536323338308,-0.0009645529207773507,0.24511367082595825,-1.5935819784747522,0.00028750725323334336,0.01974758878350258,0.7774052619934082,0.00017180375289171934,0.04904940724372864,0.8278729319572449,-0.010100090876221657,-0.19376522302627563
340.0,406.0,-0.1041,0.2674,9.6515,-0.0325,0.0206,-0.1231,-1.8430592022337855,-0.018465327098965645,2.833662509918213,-1.7797759771347046,-0.0,1.9697182178497314,5.124524313002386,-0.0015582513296976686,0.23603908717632294,-1.5936058203326624,0.00029220624128356576,0.02262885496020317,0.777328610420227,0.00018146439106203616,0.04935348778963089,0.8278366923332214,-0.010556546971201897,-0.19282394647598267
340.0,406.0,-0.1041,0.2674,9.6515,-0.0325,0.0206,-0.1231,-1.8431278667845667,-0.01979437842965126,2.8422656059265137,-1.7798720598220825,-0.0,1.98830246925354,5.124468105822363,-0.002976492512971163,0.23997461795806885,-1.5935619513141077,0.00028374395333230495,0.017836954444646835,0.7773125767707825,0.00017292643315158784,0.057325929403305054,0.8278007507324219,-0.011817106045782566,-0.24019333720207214
340.0,406.0,-0.1041,0.2674,9.6515,-0.0325,0.0206,-0.1231,-1.8432475529112757,-0.021372616291046143,2.824347972869873,-1.779860496520996,7.950190047267824e-05,1.9675767421722412,5.124492454319753,-0.007895390503108501,0.22705939412117004,-1.5935819784747522,0.0002691041736397892,0.018979594111442566,0.7773892879486084,0.00017098426178563386,0.07596961408853531,0.8276962637901306,-0.013287876732647419,-0.23928380012512207
340.0,406.0,-0.1041,0.2674,9.6515,-0.0325,0.0206,-0.1231,-1.843363424340719,-0.02380247414112091,2.7410941123962402,-1.7798367738723755,8.96710844244808e-05,1.9204943180084229,5.124432551651754,-0.015648968517780304,0.22852858901023865,-1.5935943762408655,0.00024197362654376775,0.015739452093839645,0.7773445844650269,0.00016968137060757726,0.08096445351839066,0.8277007937431335,-0.013975683599710464,-0.21522849798202515
340.0,406.0,-0.1041,0.2674,9.6515,-0.0325,0.0206,-0.1231,-1.8435269794859828,-0.02585495635867119,2.7669358253479004,-1.779852271080017,0.0001014674999169074,1.9234676361083984,5.124332862883367,-0.013087955303490162,0.22419586777687073,-1.5935938994037073,0.00025237188674509525,0.010311717167496681,0.7773568630218506,0.0001921002403832972,0.07299558818340302,0.8275442719459534,-0.016083065420389175,-0.24172455072402954
340.0,406.0,-0.1041,0.2674,9.6515,-0.0325,0.0206,-0.1231,-1.8436314068236292,-0.027467409148812294,2.7681894302368164,-1.7798482179641724,0.00011239422019571066,1.9658280611038208,5.124260711460867,-0.007940823212265968,0.22727864980697632,-1.5935819784747522,0.00022693634673487395,0.02172163873910904,0.7773485779762268,0.0001874482404673472,0.07994545996189117,0.8274725079536438,-0.017160318791866302,-0.2316579520702362
340.0,406.0,-0.1041,0.2674,9.6515,-0.0325,0.0206,-0.1231,-1.8437873325743617,-0.0325755700469017,2.720451831817627,-1.7797996997833252,0.00036440594703890383,1.955948829650879,5.124256956368246,-0.00202171434648335,0.2394138127565384,-1.5935896078692835,0.0001971076853806153,0.014272061176598072,0.7773728370666504,0.0001955685147549957,0.08126547187566757,0.8274084329605103,-0.018556786701083183,-0.25651198625564575
340.0,406.0,-0.1041,0.2674,9.6515,-0.0325,0.0206,-0.1231,-1.8439909420409144,-0.036253996193408966,2.728684425354004,-1.779792308807373,0.000359828001819551,1.9495532512664795,5.12427710273818,-0.0005154510727152228,0.2241915762424469,-1.5935700575457972,0.00017421065422240645,0.034715283662080765,0.7773769497871399,0.00017999355623032898,0.07465535402297974,0.8272964954376221,-0.020351601764559746,-0.23613311350345612
340.0,406.0,-0.1041,0.2674,9.6515,-0.0325,0.0206,-0.1231,-1.8442226848998011,-0.04123903810977936,2.7495973110198975,-1.7797799110412598,0.0003999152104370296,1.9549174308776855,5.12427710273818,-0.00032551519689150155,0.22726356983184814,-1.5935776869403284,0.00015608096146024764,0.01911282166838646,0.7773568034172058,0.0001908701960928738,0.08283470571041107,0.8271682858467102,-0.021593159064650536,-0.2346470057964325
340.0,406.0,-0.1041,0.2674,9.6515,-0.0325,0.0206,-0.1231,-1.8445068798460902,-0.047691430896520615,2.733203172683716,-1.7797725200653076,0.0006457912386395037,1.9443516731262207,5.124277132540502,-0.00023894966579973698,0.24011951684951782,-1.5935896078692835,0.00011359030031599104,0.008407494984567165,0.7774335145950317,0.00019955683092121035,0.06955000758171082,0.8270441889762878,-0.024146178737282753,-0.23010078072547913
340.0,406.0,-0.1041,0.2674,9.6515,-0.0325,0.0206,-0.1231,-1.8447472057738246,-0.0527774840593338,2.6930179595947266,-1.7798047065734863,0.0009044932667165995,1.9612371921539307,5.12427710273818,-0.0002029865572694689,0.22501632571220398,-1.593637768422262,0.00010641081462381408,0.012586978264153004,0.7773805856704712,0.0001894635206554085,0.08477601408958435,0.8269520998001099,-0.024459995329380035,-0.17353834211826324
334.0,426.0,-0.1202,0.3075,9.6479,-0.0348,0.0078,-0.1199,-1.8450542889037074,-0.060014959424734116,2.7102646827697754,-1.7798126935958862,0.0009176193852908909,1.9643383026123047,5.12431355097846,-0.0001656119857216254,0.23149710893630981,-1.5936182180987757,9.774105274118483e-05,0.01436846423894167,0.7773244976997375,0.00023148569744080305,0.08143393695354462,0.8267360329627991,-0.02667325548827648,-0.1796083301305771
334.0,426.0,-0.1202,0.3075,9.6479,-0.0348,0.0078,-0.1199,-1.8454510174193324,-0.06564243882894516,2.7248950004577637,-1.7798086404800415,0.0011344075901433825,2.0374550819396973,5.124264794379034,-0.00013986397243570536,0.22950506210327148,-1.5935981909381312,9.037926065502688e-05,1.637614332139492e-06,0.7773487567901611,0.0002406888670520857,0.08649881184101105,0.8266115188598633,-0.028275545686483383,-0.12112772464752197
334.0,426.0,-0.1202,0.3075,9.6479,-0.0348,0.0078,-0.1199,-1.8458858929076136,-0.07068789005279541,2.7208824157714844,-1.7797280550003052,0.002483271062374115,1.9810172319412231,5.124285179167547,8.488159073749557e-05,0.2238890528678894,-1.5936058203326624,8.404852997045964e-05,0.00796432327479124,0.7773847579956055,0.0002476887311786413,0.09837371855974197,0.8264270424842834,-0.029766300693154335,-0.11602452397346497
334.0,426.0,-0.1202,0.3075,9.6479,-0.0348,0.0078,-0.1199,-1.8462778530516566,-0.0772329568862915,2.725991725921631,-1.7797362804412842,0.003780943341553211,1.9688632488250732,5.124264794379034,7.445904338965192e-05,0.25013092160224915,-1.593569580708639,5.8921679737977684e-05,0.006767268292605877,0.7774012088775635,0.00025317532708868384,0.09261111915111542,0.8262276649475098,-0.030452581122517586,-0.14580583572387695
334.0,426.0,-0.1202,0.3075,9.6479,-0.0348,0.0078,-0.1199,-1.8466540775694789,-0.08193037658929825,2.740241527557373,-1.779695987701416,0.00527116609737277,1.9920854568481445,5.124341088324346,6.876869883853942e-05,0.245222806930542,-1.5935857931720179,5.644696284434758e-05,-0.004579881206154823,0.7773847579956055,0.0002855508355423808,0.10081909596920013,0.8261029720306396,-0.030963391065597534,-0.14396312832832336
334.0,426.0,-0.1202,0.3075,9.6479,-0.0348,0.0078,-0.1199,-1.8471576176085414,-0.089054636657238,2.7082176208496094,-1.7796845436096191,0.0059349918738007545,1.9895029067993164,5.124261098891058,6.169628613861278e-05,0.22849932312965393,-1.5936139265643519,-2.3818207409931347e-05,0.0077634393237531185,0.7773846983909607,0.0003036832786165178,0.11153699457645416,0.8259512186050415,-0.029350748285651207,-0.12140415608882904
334.0,426.0,-0.1202,0.3075,9.6479,-0.0348,0.0078,-0.1199,-1.8477899036803187,-0.09024115651845932,2.7424776554107666,-1.7796286344528198,0.005167366471141577,2.009730100631714,5.124289262085714,5.594311733148061e-05,0.23298236727714539,-1.593581501637594,-4.6712673793081194e-05,-8.884689304977655e-05,0.7774129509925842,0.0003031504456885159,0.10635698586702347,0.8257353901863098,-0.02849690243601799,-0.10765539109706879
334.0,426.0,-0.1202,0.3075,9.6479,-0.0348,0.0078,-0.1199,-1.8483292065062464,-0.08887242525815964,2.8001341819763184,-1.7795850038528442,0.0036361836828291416,2.01488995552063,5.124265211611547,5.1171584345865995e-05,0.24977582693099976,-1.593597714100973,-4.334477489464916e-05,-0.008923370391130447,0.7773846387863159,0.0002829907462000847,0.096071258187294,0.8256067037582397,-0.02713032439351082,-0.04711972177028656
334.0,426.0,-0.1202,0.3075,9.6479,-0.0348,0.0078,-0.1199,-1.8488971195616664,-0.08731649070978165,2.7299160957336426,-1.7796449661254883,0.0018666572868824005,2.0176994800567627,5.124272930413046,4.71500534331426e-05,0.25340917706489563,-1.5936177412616175,-6.059063525754027e-05,-0.019083712249994278,0.7773929238319397,0.00028496573213487864,0.09592381119728088,0.8254510164260864,-0.02602543868124485,-0.044738832861185074
334.0,426.0,-0.1202,0.3075,9.6479,-0.0348,0.0078,-0.1199,-1.849412580529684,-0.08888296782970428,2.6935648918151855,-1.779644250869751,0.000469988735858351,2.0053317546844482,5.124252813845434,3.297293005743995e-05,0.2438770979642868,-1.5936220327960413,-5.6809043599059805e-05,-0.008661976084113121,0.7773323059082031,0.00029609398916363716,0.10841833055019379,0.8252867460250854,-0.024913745000958443,-0.04286574199795723
334.0,426.0,-0.1202,0.3075,9.6479,-0.0348,0.0078,-0.1199,-1.8497754536070765,-0.08954532444477081,2.736957311630249,-1.7795883417129517,-0.0004359933373052627,1.9624179601669312,5.124281155854025,2.089220652123913e-05,0.24341902136802673,-1.593637768422262,-6.34544194326736e-05,-0.01932663284242153,0.7773765325546265,0.0003136237501166761,0.10568725317716599,0.825166642665863,-0.02484280802309513,-0.008101793937385082
334.0,426.0,-0.1202,0.3075,9.6479,-0.0348,0.0078,-0.1199,-1.8502828083434046,-0.09268109500408173,2.7699265480041504,-1.7796049118041992,-0.000294201890937984,1.962074875831604,5.124265181809225,1.9490520571707748e-05,0.24323594570159912,-1.5935981909381312,-6.853255035821348e-05,-0.021603530272841454,0.7774167060852051,0.00035056471824645996,0.10697920620441437,0.8250106573104858,-0.025438081473112106,-0.07046380639076233
334.0,426.0,-0.1202,0.3075,9.6479,-0.0348,0.0078,-0.1199,-1.850839754144186,-0.09307791292667389,2.7099967002868652,-1.7796326875686646,-9.961582691175863e-05,2.005171060562134,5.124297100096502,1.830500696087256e-05,0.23646321892738342,-1.5936134497271937,-7.996267231646925e-05,-0.019227780401706696,0.7773965001106262,0.000533035141415894,0.11385771632194519,0.8249427676200867,-0.024625202640891075,-0.01390792801976204
334.0,426.0,-0.1202,0.3075,9.6479,-0.0348,0.0078,-0.1199,-1.8513628445067347,-0.09734677523374557,2.7284510135650635,-1.7795603275299072,-4.325360070112083e-09,1.9850413799285889,5.1242971298988245,4.672241266234778e-05,0.24092784523963928,-1.5936177412616175,-0.0001919707137858495,-0.021028440445661545,0.7773964405059814,0.0011910974280908704,0.10495847463607788,0.8247464299201965,-0.02316153794527054,0.01264139823615551
334.0,426.0,-0.1202,0.3075,9.6479,-0.0348,0.0078,-0.1199,-1.8519612751402796,-0.10290960967540741,2.695749521255493,-1.7795168161392212,0.0026185791939496994,2.0150253772735596,5.124313103943624,8.558677654946223e-05,0.2604953646659851,-1.5936253706561487,-0.00023052706092130393,-0.03289783000946045,0.777513325214386,0.0031851092353463173,0.1062854453921318,0.8246179223060608,-0.019517237320542336,0.029892979189753532
334.0,426.0,-0.1202,0.3075,9.6479,-0.0348,0.0078,-0.1199,-1.8523708782591761,-0.10312497615814209,2.699314594268799,-1.7795331478118896,0.004764741752296686,1.9617035388946533,5.1243212697799585,0.000627924338914454,0.2571004629135132,-1.5936296621905726,-0.00023807994148228317,-0.03079093061387539,0.7775170207023621,0.007852653041481972,0.11772704124450684,0.8245421648025513,-0.016778917983174324,0.018423497676849365
352.0,470.0,-0.4929,0.2548,9.2961,-0.0356,-0.0719,-0.1516,-1.8529368839659632,-0.10168951749801636,2.7108712196350098,-1.7794846296310425,0.007601186167448759,2.0415823459625244,5.1243610856826685,0.001339952228590846,0.2471243143081665,-1.593637768422262,-0.00034248115844093263,-0.0486990287899971,0.7775887846946716,0.02021796442568302,0.131764218211174,0.8244419693946838,-0.013571193441748619,0.10007511079311371
352.0,470.0,-0.4929,0.2548,9.2961,-0.0356,-0.0719,-0.1516,-1.8535663090147914,-0.09697140753269196,2.720264196395874,-1.779421329498291,0.010243591852486134,2.0415353775024414,5.1243488667304895,0.0009196437313221395,0.25710585713386536,-1.5936253706561487,-0.0004249444173183292,-0.0447276309132576,0.777700662612915,0.021438296884298325,0.14999786019325256,0.8244102597236633,-0.010279598645865917,0.14509199559688568
352.0,470.0,-0.4929,0.2548,9.2961,-0.0356,-0.0719,-0.1516,-1.8541094265379847,-0.09340441226959229,2.7505311965942383,-1.7794419527053833,0.011568461544811726,2.077183246612549,5.1243693111236475,0.0006391724455170333,0.2411852329969406,-1.5936463514911097,-0.0003878430579788983,-0.038461022078990936,0.7777522206306458,0.01817851886153221,0.12771663069725037,0.824374258518219,-0.00659684743732214,0.1579156368970871
352.0,470.0,-0.4929,0.2548,9.2961,-0.0356,-0.0719,-0.1516,-1.8547331295409144,-0.09293615072965622,2.7687296867370605,-1.7793333530426025,0.010364394634962082,2.074618339538574,5.124301183014669,0.00018373435887042433,0.2516213655471802,-1.593653980885641,-0.0003381169808562845,-0.06067650020122528,0.7778957486152649,0.012419254519045353,0.12901413440704346,0.8243342638015747,-0.0033570516388863325,0.14226625859737396
352.0,470.0,-0.4929,0.2548,9.2961,-0.0356,-0.0719,-0.1516,-1.8550850353636683,-0.09654282033443451,2.7440927028656006,-1.7793216705322266,0.008115852251648903,2.0546047687530518,5.124345141440191,0.00014854615437798202,0.24499183893203735,-1.5936253706561487,-0.0003053347172681242,-0.0501619316637516,0.7778715491294861,0.00824502669274807,0.12620499730110168,0.8243021368980408,-0.0021822473499923944,0.09796206653118134
352.0,470.0,-0.4929,0.2548,9.2961,-0.0356,-0.0719,-0.1516,-1.855739255944723,-0.10513937473297119,2.662036418914795,-1.7792494297027588,0.005247792229056358,2.0484652519226074,5.124332862883367,0.00011903406993951648,0.2642478048801422,-1.5936220327960413,-0.0003043007745873183,-0.061274584382772446,0.7779234647750854,0.0032395331654697657,0.13456794619560242,0.8243222236633301,-0.0011225510388612747,0.11490875482559204
352.0,470.0,-0.4929,0.2548,9.2961,-0.0356,-0.0719,-0.1516,-1.8563267193236292,-0.10913488268852234,2.7371456623077393,-1.7791974544525146,0.003783246036618948,2.060338258743286,5.124297100096502,9.932035754900426e-05,0.24494287371635437,-1.5936253706561487,-0.0002703268255572766,-0.05714210122823715,0.7779194116592407,0.0010043868096545339,0.13954880833625793,0.8243061900138855,-0.0005761536885984242,0.20289844274520874
352.0,470.0,-0.4929,0.2548,9.2961,-0.0356,-0.0719,-0.1516,-1.856931825677389,-0.11128991842269897,2.672271490097046,-1.7791374921798706,0.005516857374459505,2.081543445587158,5.124300884991445,0.00015916689881123602,0.24064353108406067,-1.5936740080462855,-0.00022528348199557513,-0.06866468489170074,0.7779353260993958,0.0006574870785698295,0.12073472142219543,0.82432621717453,-0.00033291528234258294,0.1999126821756363
352.0,470.0,-0.4929,0.2548,9.2961,-0.0356,-0.0719,-0.1516,-1.8575226269164027,-0.10941707342863083,2.702618360519409,-1.7791178226470947,0.010115527547895908,2.0302810668945312,5.124417263060369,0.00022542047372553498,0.23972587287425995,-1.5936701933490198,-0.000230167803238146,-0.0633641704916954,0.77793949842453,0.0005141066503711045,0.1321469247341156,0.8242940306663513,-0.00021799758542329073,0.17301180958747864
352.0,470.0,-0.4929,0.2548,9.2961,-0.0356,-0.0719,-0.1516,-1.857997556725973,-0.10392922908067703,2.739377498626709,-1.7790627479553223,0.013263988308608532,2.033604145050049,5.12439318278388,0.001430118689313531,0.2584291994571686,-1.59369403520693,-0.0002494062064215541,-0.060682713985443115,0.7779517769813538,0.0005030744359828532,0.13181418180465698,0.8242981433868408,0.00012411113129928708,0.2410292774438858
352.0,470.0,-0.4929,0.2548,9.2961,-0.0356,-0.0719,-0.1516,-1.8586231670775355,-0.09636684507131577,2.7187893390655518,-1.778945803642273,0.017955241724848747,2.0740857124328613,5.124389040261068,0.001651785452850163,0.2635459899902344,-1.59369403520693,-0.0005443909321911633,-0.06564658880233765,0.7779555320739746,0.0003599812916945666,0.12271329015493393,0.824350118637085,0.001345048425719142,0.2485581487417221
352.0,470.0,-0.4929,0.2548,9.2961,-0.0356,-0.0719,-0.1516,-1.8592468700804652,-0.0937323272228241,2.73415470123291,-1.7788907289505005,0.02071128971874714,2.085073709487915,5.124368536263265,0.0009302251855842769,0.2646051347255707,-1.5936616102801722,-0.00061374920187518,-0.06489629298448563,0.7779837846755981,0.0004158720839768648,0.14243265986442566,0.824394702911377,0.0025852303951978683,0.2784874439239502
352.0,470.0,-0.4929,0.2548,9.2961,-0.0356,-0.0719,-0.1516,-1.8597613773741664,-0.10139469802379608,2.74678897857666,-1.778759241104126,0.018665602430701256,2.124847888946533,5.124397235899725,0.00045879147364757955,0.2645851671695709,-1.593625847493307,-0.00092932244297117,-0.08852940797805786,0.7780478000640869,0.0011006159475073218,0.1533563882112503,0.8244222402572632,0.00327338301576674,0.2828029990196228
352.0,470.0,-0.4929,0.2548,9.2961,-0.0356,-0.0719,-0.1516,-1.8604499302306117,-0.10487693548202515,2.749690532684326,-1.7786637544631958,0.017075475305318832,2.1163406372070312,5.124360787659445,0.0003316829679533839,0.2727174162864685,-1.593722168599264,-0.0009107330697588623,-0.09671583771705627,0.77793949842453,0.0020464244298636913,0.13861751556396484,0.8243823051452637,0.002658089390024543,0.25970259308815
352.0,470.0,-0.4929,0.2548,9.2961,-0.0356,-0.0719,-0.1516,-1.860793252984518,-0.10653743147850037,2.7667856216430664,-1.7786109447479248,0.0165815781801939,2.0528182983398438,5.1243727085884,0.00028002969338558614,0.27159881591796875,-1.5936897436725062,-0.0008562232251279056,-0.09527048468589783,0.7779555320739746,0.0024445918388664722,0.15026207268238068,0.8244300484657288,0.001976595027372241,0.3044058680534363
352.0,470.0,-0.4929,0.2548,9.2961,-0.0356,-0.0719,-0.1516,-1.8614570103087367,-0.10418366640806198,2.748774766921997,-1.7784794569015503,0.01874152198433876,2.1084375381469727,5.124393093376913,7.158480730140582e-05,0.27529916167259216,-1.5936735312091272,-0.0007861245539970696,-0.10229486227035522,0.7780313491821289,0.003417449537664652,0.15128189325332642,0.8244261145591736,0.0010603521950542927,0.30161529779434204
414.0,592.0,0.6754,-0.2656,9.2148,-0.0429,-0.1035,-0.1151,-1.8620292148985804,-0.09821715950965881,2.800654649734497,-1.778335452079773,0.021322062239050865,2.1339759826660156,5.124372529774465,0.00016407998919021338,0.2709203064441681,-1.593722168599264,-0.0007393109262920916,-0.0842563658952713,0.7780473828315735,0.0047810557298362255,0.14956213533878326,0.8244502544403076,0.0008769613923504949,0.3295815587043762
414.0,592.0,0.6754,-0.2656,9.2148,-0.0429,-0.1035,-0.1151,-1.8625160656371058,-0.0955490916967392,2.766118049621582,-1.7781685590744019,0.02576073631644249,2.136162519454956,5.124408709793844,0.0005492964410223067,0.27638399600982666,-1.5937016646014612,-0.0008820698712952435,-0.10680156946182251,0.7780793309211731,0.0046356916427612305,0.15286314487457275,0.8244140148162842,0.0016753049567341805,0.36040931940078735
414.0,592.0,0.6754,-0.2656,9.2148,-0.0429,-0.1035,-0.1151,-1.8631764851012171,-0.09228622913360596,2.821643590927124,-1.7780245542526245,0.029449496418237686,2.1737992763519287,5.124433177500524,0.0005011333269067109,0.2734246850013733,-1.593682114277975,-0.0010693104704841971,-0.09679669141769409,0.7780833840370178,0.003041089279577136,0.1504257768392563,0.8244584202766418,0.003626895369961858,0.3987843096256256
414.0,592.0,0.6754,-0.2656,9.2148,-0.0429,-0.1035,-0.1151,-1.8636957607665003,-0.09282436966896057,2.773527145385742,-1.7778328657150269,0.031192339956760406,2.1897692680358887,5.124372559576788,0.0003920589806511998,0.2728700339794159,-1.5937383810626429,-0.0011600597063079476,-0.11426733434200287,0.7780428528785706,0.0016142495442181826,0.14590561389923096,0.8244223594665527,0.0050108167342841625,0.40287506580352783
414.0,592.0,0.6754,-0.2656,9.2148,-0.0429,-0.1035,-0.1151,-1.8640591106810511,-0.09213405102491379,2.789602279663086,-1.7776373624801636,0.032006245106458664,2.155221462249756,5.124396818667211,0.0003423206799197942,0.2669336497783661,-1.5937460104571741,-0.0012838029069826007,-0.11255225539207458,0.778107225894928,0.0010820322204381227,0.1504838764667511,0.8244903087615967,0.005793178919702768,0.4046456813812256
414.0,592.0,0.6754,-0.2656,9.2148,-0.0429,-0.1035,-0.1151,-1.864627023736471,-0.09414435923099518,2.754922866821289,-1.7775466442108154,0.033995792269706726,2.168867588043213,5.124393093376913,0.00028760070563293993,0.26796531677246094,-1.5937379042254847,-0.0018361647380515933,-0.10473926365375519,0.7780875563621521,0.0007133751059882343,0.15500888228416443,0.8245465159416199,0.005071006715297699,0.4582897424697876
414.0,592.0,0.6754,-0.2656,9.2148,-0.0429,-0.1035,-0.1151,-1.8651744327940882,-0.0979769304394722,2.7488207817077637,-1.7772951126098633,0.036460258066654205,2.184664487838745,5.124416875630178,0.00024796868092380464,0.26565685868263245,-1.5937216917621058,-0.0068391854874789715,-0.11245399713516235,0.7781231999397278,0.0006083041080273688,0.13971425592899323,0.8245182633399963,0.004276751074939966,0.4273928999900818
414.0,592.0,0.6754,-0.2656,9.2148,-0.0429,-0.1035,-0.1151,-1.8657785854735316,-0.10369604825973511,2.7327308654785156,-1.77705979347229,0.04004963859915733,2.1793415546417236,5.124440687685766,0.00021793840278405696,0.2696254253387451,-1.5937617460833948,-0.010227203369140625,-0.10656453669071198,0.7781071662902832,0.000485239113913849,0.14286386966705322,0.8245704174041748,0.0030367146246135235,0.4009592533111572
414.0,592.0,0.6754,-0.2656,9.2148,-0.0429,-0.1035,-0.1151,-1.8663298092284144,-0.1053900420665741,2.723670482635498,-1.7767479419708252,0.046206533908843994,2.2018606662750244,5.12442912438468,0.00022664872813038528,0.2743842601776123,-1.5938261190997522,-0.00560234859585762,-0.11931774765253067,0.778107225894928,0.0002781714720185846,0.14856944978237152,0.8245503902435303,0.0022711658384650946,0.46684694290161133
414.0,592.0,0.6754,-0.2656,9.2148,-0.0429,-0.1035,-0.1151,-1.8667780361571253,-0.10308710485696793,2.719625949859619,-1.7765685319900513,0.051431864500045776,2.183030128479004,5.124420869141378,0.0002198676229454577,0.25886911153793335,-1.5938661734210413,-0.002546606119722128,-0.1046556606888771,0.7780711054801941,0.00029010706930421293,0.15389765799045563,0.8245946168899536,0.0019979793578386307,0.39386051893234253
414.0,592.0,0.6754,-0.2656,9.2148,-0.0429,-0.1035,-0.1151,-1.8674055538573207,-0.09986880421638489,2.7342119216918945,-1.7761802673339844,0.06096643581986427,2.186457872390747,5.124432551651754,0.0007962596137076616,0.2695537209510803,-1.5938337484942835,-0.0010691649513319135,-0.10927318781614304,0.7780711650848389,0.00029430133872665465,0.14204177260398865,0.8245701789855957,0.002025024499744177,0.4553493559360504
414.0,592.0,0.6754,-0.2656,9.2148,-0.0429,-0.1035,-0.1151,-1.8680254421629847,-0.09724847227334976,2.7731525897979736,-1.7757822275161743,0.06702106446027756,2.247324228286743,5.124448555498876,0.0011635448317974806,0.2698512673377991,-1.5938456694232386,-0.0006696810596622527,-0.11155850440263748,0.7781113386154175,0.0002962537982966751,0.1494370698928833,0.8246583342552185,0.0025829582009464502,0.515008807182312
414.0,592.0,0.6754,-0.2656,9.2148,-0.0429,-0.1035,-0.1151,-1.868664880792135,-0.0979803279042244,2.7625925540924072,-1.7753793001174927,0.07187691330909729,2.1939444541931152,5.1244250414665125,0.0006308629526756704,0.25952649116516113,-1.5938056151019495,-0.0005691415281035006,-0.1109401285648346,0.778099000453949,0.00040575891034677625,0.15571482479572296,0.8246065378189087,0.0029246550984680653,0.5264281034469604
414.0,592.0,0.6754,-0.2656,9.2148,-0.0429,-0.1035,-0.1151,-1.8692518673338832,-0.09879174828529358,2.7178843021392822,-1.7748955488204956,0.07398375868797302,2.223508834838867,5.124389040261068,0.00032318028388544917,0.2699644863605499,-1.5938018004046839,-0.0005115889362059534,-0.12355352193117142,0.7781354784965515,0.0007118562352843583,0.1453341841697693,0.8246303796768188,0.00276191346347332,0.5349549055099487
414.0,592.0,0.6754,-0.2656,9.2148,-0.0429,-0.1035,-0.1151,-1.869688173333639,-0.10468016564846039,2.72822642326355,-1.774673342704773,0.07428314536809921,2.2618980407714844,5.124412792712011,0.00024312180175911635,0.26371949911117554,-1.5939019362079065,-0.00044796578004024923,-0.11094198375940323,0.7781550884246826,0.000835435523185879,0.15460658073425293,0.8246426582336426,0.002689796034246683,0.5354527235031128
414.0,592.0,0.6754,-0.2656,9.2148,-0.0429,-0.1035,-0.1151,-1.8703280887999476,-0.11458597332239151,2.74289608001709,-1.7741419076919556,0.07571224123239517,2.234328269958496,5.124372648983755,-0.00018875997920986265,0.2598390281200409,-1.593825642262594,-0.0002689549291972071,-0.12479934096336365,0.7781391143798828,0.0012756134383380413,0.15439146757125854,0.8246263861656189,0.0024947833735495806,0.5292476415634155
513.0,689.0,0.6532,-0.1322,9.5031,-0.0583,-0.0457,-0.1199,-1.8709951839842738,-0.12106028944253922,2.735724687576294,-1.7736839056015015,0.0818701982498169,2.242892026901245,5.124416845827856,-9.107085497817025e-05,0.2576783001422882,-1.593825642262594,-0.00021567969815805554,-0.11532150208950043,0.7781468629837036,0.0018247758271172643,0.14995646476745605,0.8246584534645081,0.0019043389474973083,0.5233149528503418
513.0,689.0,0.6532,-0.1322,9.5031,-0.0583,-0.0457,-0.1199,-1.8716746769347132,-0.12554436922073364,2.740126132965088,-1.7731047868728638,0.09231651574373245,2.234161376953125,5.124428468733587,-5.80140549573116e-05,0.2612907290458679,-1.5938456694232386,-0.00022609284496866167,-0.12024061381816864,0.77822345495224,0.0023162085562944412,0.15581530332565308,0.8246545791625977,0.0015423165168613195,0.5349407196044922
513.0,689.0,0.6532,-0.1322,9.5031,-0.0583,-0.0457,-0.1199,-1.8724829159178675,-0.12560957670211792,2.677978038787842,-1.7725865840911865,0.10202581435441971,2.2758724689483643,5.124400841980734,-4.860569242737256e-05,0.25647008419036865,-1.5938780943499964,-0.0002333369484404102,-0.1332351565361023,0.7781592011451721,0.0031269912142306566,0.14772562682628632,0.8246744871139526,0.0018333435291424394,0.5422685146331787
513.0,689.0,0.6532,-0.1322,9.5031,-0.0583,-0.0457,-0.1199,-1.873037954370016,-0.12579654157161713,2.683012008666992,-1.772139072418213,0.10780884325504303,2.2505221366882324,5.1243885336215875,-4.3866133637493476e-05,0.2475457787513733,-1.5938456694232386,-0.0002473118656780571,-0.11991244554519653,0.7781746983528137,0.003375188447535038,0.16102388501167297,0.8247065544128418,0.002360271755605936,0.5246491432189941
513.0,689.0,0.6532,-0.1322,9.5031,-0.0583,-0.0457,-0.1199,-1.8738538227477015,-0.1247687116265297,2.6668200492858887,-1.7713568210601807,0.11998304724693298,2.258397102355957,5.12440453746871,-3.82690122933127e-05,0.2560862600803375,-1.5938294569598597,-0.00033598518348298967,-0.1202700138092041,0.778203010559082,0.0035713391844183207,0.1686287224292755,0.8247025609016418,0.003946720156818628,0.5992894172668457
513.0,689.0,0.6532,-0.1322,9.5031,-0.0583,-0.0457,-0.1199,-1.8746572933592738,-0.12455742061138153,2.6965270042419434,-1.7706665992736816,0.127607062458992,2.2952632904052734,5.1244210479553125,-9.020345896715298e-05,0.2339491993188858,-1.5938332716571253,-0.0003529034147504717,-0.13948047161102295,0.7782748341560364,0.003509532194584608,0.17096468806266785,0.8247868418693542,0.0049126665107905865,0.581292986869812
513.0,689.0,0.6532,-0.1322,9.5031,-0.0583,-0.0457,-0.1199,-1.875500818292135,-0.1360919177532196,2.6986961364746094,-1.7699846029281616,0.130547434091568,2.2947511672973633,5.124417322665014,-0.0013069149572402239,0.2515977919101715,-1.5938661734210413,-0.00030469964258372784,-0.13311944901943207,0.7782230377197266,0.002988426946103573,0.17382043600082397,0.8247947692871094,0.004754713736474514,0.6182098984718323
513.0,689.0,0.6532,-0.1322,9.5031,-0.0583,-0.0457,-0.1199,-1.876308103600973,-0.1519165188074112,2.6898834705352783,-1.7691556215286255,0.12921397387981415,2.2673377990722656,5.124352949648657,-0.0019928913097828627,0.23495694994926453,-1.5938456694232386,-0.0002660835161805153,-0.11277417838573456,0.7782629728317261,0.002356000477448106,0.1602088212966919,0.8247947096824646,0.0033460091799497604,0.6036957502365112
513.0,689.0,0.6532,-0.1322,9.5031,-0.0583,-0.0457,-0.1199,-1.8770128689207972,-0.16198799014091492,2.708089828491211,-1.7685961723327637,0.13300655782222748,2.3091938495635986,5.1243567047412775,-0.001085209776647389,0.23964862525463104,-1.5938780943499964,-0.00024535408010706306,-0.1290757805109024,0.7782588005065918,0.001987895229831338,0.1719898134469986,0.8247626423835754,0.0020122211426496506,0.550713300704956
513.0,689.0,0.6532,-0.1322,9.5031,-0.0583,-0.0457,-0.1199,-1.8778912029662074,-0.17223486304283142,2.6553168296813965,-1.767697811126709,0.14780643582344055,2.2862672805786133,5.124400871783056,-4.363189873402007e-05,0.24535703659057617,-1.5938823858844202,-0.00021968346845824271,-0.1361052542924881,0.778282642364502,0.001664280891418457,0.14968477189540863,0.8247865438461304,0.000637564342468977,0.5130804181098938
513.0,689.0,0.6532,-0.1322,9.5031,-0.0583,-0.0457,-0.1199,-1.878923078576559,-0.1675131618976593,2.6924614906311035,-1.7667725086212158,0.16287299990653992,2.339155435562134,5.124420869141378,0.00046175968600437045,0.2477625161409378,-1.593825642262594,-0.0001988762232940644,-0.11670657992362976,0.7782986760139465,0.0011645931517705321,0.16291500627994537,0.8247746229171753,0.0001211883791256696,0.5594630241394043
513.0,689.0,0.6532,-0.1322,9.5031,-0.0583,-0.0457,-0.1199,-1.8798977337279261,-0.152303546667099,2.694904088973999,-1.7658355236053467,0.17866027355194092,2.343780994415283,5.124408709793844,0.000895738834515214,0.2493669092655182,-1.5938742796527308,-0.0001816696603782475,-0.11341775953769684,0.7782862782478333,0.0009172878926619887,0.1796610951423645,0.8248185515403748,0.0002480399562045932,0.5214683413505554
513.0,689.0,0.6532,-0.1322,9.5031,-0.0583,-0.0457,-0.1199,-1.880925794641012,-0.14755378663539886,2.720951557159424,-1.7646658420562744,0.18918681144714355,2.402867555618286,5.124392705946722,0.0005267718224786222,0.24576660990715027,-1.5938456694232386,-0.00016720427083782852,-0.12275435030460358,0.778294563293457,0.0007301979348994792,0.16484877467155457,0.8248105645179749,0.00028260075487196445,0.5477073788642883
513.0,689.0,0.6532,-0.1322,9.5031,-0.0583,-0.0457,-0.1199,-1.8815528355040492,-0.15612056851387024,2.735572338104248,-1.763922929763794,0.19144798815250397,2.3557050228118896,5.124356674938955,0.00029071816243231297,0.25995251536369324,-1.5938413778888147,-0.00015877564146649092,-0.12000417709350586,0.7782986760139465,0.000607272784691304,0.17760705947875977,0.8247942328453064,0.0018278670031577349,0.6027358770370483
513.0,689.0,0.6532,-0.1322,9.5031,-0.0583,-0.0457,-0.1199,-1.8825608692564906,-0.17349420487880707,2.664875030517578,-1.7628223896026611,0.19092947244644165,2.3898792266845703,5.1243727085884,-0.0003433384408708662,0.25635120272636414,-1.5938413778888147,-0.00014761427883058786,-0.12654943764209747,0.7782867550849915,0.0003848834312520921,0.1716436743736267,0.8248185515403748,0.003083535935729742,0.5668511390686035
513.0,689.0,0.6532,-0.1322,9.5031,-0.0583,-0.0457,-0.1199,-1.8836003742613734,-0.19294489920139313,2.683314800262451,-1.761649489402771,0.19537301361560822,2.3925271034240723,5.124324667244711,-0.0011406275443732738,0.24685630202293396,-1.5938175360309046,-0.00013791921082884073,-0.11087881028652191,0.7783309817314148,0.0003061745082959533,0.1679236739873886,0.8248226046562195,0.001916337525472045,0.5335330963134766
615.0,733.0,0.3452,-0.1842,10.5805,-0.0643,-0.0281,-0.1064,-1.8846470318236292,-0.19854730367660522,2.635716199874878,-1.7603833675384521,0.20414817333221436,2.41658353805542,5.124393123179235,-0.0003225843538530171,0.2386913001537323,-1.5938294569598597,-5.2993320423411205e-05,-0.11676742136478424,0.7782583832740784,0.00025425004423595965,0.15381717681884766,0.8247900605201721,0.0005263012135401368,0.5246373414993286
615.0,733.0,0.3452,-0.1842,10.5805,-0.0643,-0.0281,-0.1064,-1.8857528171935023,-0.18686136603355408,2.6566405296325684,-1.7591155767440796,0.21513767540454865,2.434203863143921,5.124421077757635,-2.2570148416889424e-07,0.2469862401485443,-1.5938456694232386,-4.6431669034063816e-05,-0.1224403977394104,0.7782625555992126,0.0002173887478420511,0.15455041825771332,0.8248385787010193,-0.000614629709161818,0.5286662578582764
615.0,733.0,0.3452,-0.1842,10.5805,-0.0643,-0.0281,-0.1064,-1.8868748150267542,-0.1744336038827896,2.705906867980957,-1.7577741146087646,0.22966372966766357,2.4087345600128174,5.124452549010076,0.00225784070789814,0.25025585293769836,-1.5938375631915491,-4.309578434913419e-05,-0.1086689755320549,0.7783227562904358,0.00018986551731359214,0.1556805670261383,0.8248265981674194,-0.0005554265226237476,0.5346579551696777
615.0,733.0,0.3452,-0.1842,10.5805,-0.0643,-0.0281,-0.1064,-1.8875576458373011,-0.1707550585269928,2.700871467590332,-1.7568612098693848,0.2392018437385559,2.455770492553711,5.12440453746871,0.0017183446325361729,0.2608843445777893,-1.593869988118307,-6.133429269539192e-05,-0.10598913580179214,0.7782949805259705,0.0001750876836013049,0.15739889442920685,0.8248864412307739,0.0007782219327054918,0.5087625980377197
615.0,733.0,0.3452,-0.1842,10.5805,-0.0643,-0.0281,-0.1064,-1.888625284234518,-0.17526815831661224,2.753622531890869,-1.7554359436035156,0.252747118473053,2.4879212379455566,5.124424981861868,0.00020841302466578782,0.243867427110672,-1.5938623587237757,-5.7732097047846764e-05,-0.10761140286922455,0.7782866954803467,0.00015678386262152344,0.16921569406986237,0.8248665928840637,0.002326496411114931,0.5066582560539246
615.0,733.0,0.3452,-0.1842,10.5805,-0.0643,-0.0281,-0.1064,-1.8897563419737757,-0.18613998591899872,2.7049784660339355,-1.7539961338043213,0.2552105486392975,2.4320311546325684,5.124404507666387,5.801253522008665e-08,0.2441224753856659,-1.5938294569598597,-5.425208655651659e-05,-0.10655738413333893,0.7783510088920593,0.00014194568211678416,0.1513897329568863,0.8248625993728638,0.002076469361782074,0.5583415627479553
615.0,733.0,0.3452,-0.1842,10.5805,-0.0643,-0.0281,-0.1064,-1.8908797703185023,-0.19658154249191284,2.7131710052490234,-1.752397060394287,0.25458040833473206,2.449420928955078,5.1243767020996,-0.0004199419927317649,0.2578248381614685,-1.5938456694232386,-5.1270129915792495e-05,-0.1186210960149765,0.7783511281013489,0.00012967348448000848,0.15575657784938812,0.8248625993728638,0.0012900317087769508,0.5016906261444092
615.0,733.0,0.3452,-0.1842,10.5805,-0.0643,-0.0281,-0.1064,-1.8920308552184046,-0.20411334931850433,2.684298038482666,-1.7508323192596436,0.2634841501712799,2.4241271018981934,5.124432551651754,-0.00012489620712585747,0.2411831170320511,-1.5938175360309046,4.264683593646623e-05,-0.11956697702407837,0.7783068418502808,0.00011935463408008218,0.16080771386623383,0.8248386383056641,2.5337385523016565e-06,0.5442960262298584
615.0,733.0,0.3452,-0.1842,10.5805,-0.0643,-0.0281,-0.1064,-1.8928066692748011,-0.20437374711036682,2.6890273094177246,-1.749751091003418,0.2708157002925873,2.4227304458618164,5.12438856342391,-9.726701682666317e-05,0.23275581002235413,-1.5938294569598597,3.8977505028015e-05,-0.1071588397026062,0.7782465815544128,0.00011334093142068014,0.1539527177810669,0.8248386383056641,4.560639643713671e-10,0.5209941864013672
615.0,733.0,0.3452,-0.1842,10.5805,-0.0643,-0.0281,-0.1064,-1.8939258060851039,-0.19819825887680054,2.6701114177703857,-1.7480398416519165,0.2748569846153259,2.481548547744751,5.124396788864889,-7.342712342506275e-05,0.23477399349212646,-1.5938175360309046,6.664778629783541e-05,-0.10717065632343292,0.7783066630363464,0.00010537810885580257,0.1388978511095047,0.8248065710067749,-0.0012661865912377834,0.45119041204452515
615.0,733.0,0.3452,-0.1842,10.5805,-0.0643,-0.0281,-0.1064,-1.8950649700560511,-0.19034068286418915,2.7641501426696777,-1.7463879585266113,0.2794432044029236,2.48549222946167,5.1244690892990015,-1.0913795449596364e-06,0.24316895008087158,-1.5938742796527308,6.187371764099225e-05,-0.11122174561023712,0.7782870531082153,9.846128523349762e-05,0.13568028807640076,0.8247866630554199,-0.0009906881023198366,0.4878731966018677
615.0,733.0,0.3452,-0.1842,10.5805,-0.0643,-0.0281,-0.1064,-1.8961879215636195,-0.18383346498012543,2.7895708084106445,-1.744692325592041,0.2910604476928711,2.5279157161712646,5.1244250414665125,-3.0378952131648873e-10,0.2378780096769333,-1.5937936941729944,5.608949140878394e-05,-0.09811143577098846,0.7782747745513916,9.239551582140848e-05,0.14774712920188904,0.824802577495575,-0.00024314133042935282,0.4585738182067871
615.0,733.0,0.3452,-0.1842,10.5805,-0.0643,-0.0281,-0.1064,-1.897353311578268,-0.19053000211715698,2.7403883934020996,-1.742876648902893,0.29432836174964905,2.53163480758667,5.124408709793844,-8.456093220391911e-14,0.25534558296203613,-1.5938380400287073,5.129402779857628e-05,-0.07810936868190765,0.7783231735229492,8.70347794261761e-05,0.15235206484794617,0.8248105645179749,-1.0348312571295537e-05,0.4039924442768097
615.0,733.0,0.3452,-0.1842,10.5805,-0.0643,-0.0281,-0.1064,-1.8981553516783656,-0.19526617228984833,2.745291233062744,-1.7416597604751587,0.29646793007850647,2.489673137664795,5.124380755215444,-3.604964811976014e-16,0.2387295514345169,-1.593841854725973,6.0443901020335034e-05,-0.1012953370809555,0.7783027291297913,8.379336213693023e-05,0.13690185546875,0.824842631816864,-1.862659582130277e-09,0.39053452014923096
615.0,733.0,0.3452,-0.1842,10.5805,-0.0643,-0.0281,-0.1064,-1.899332185784811,-0.19978410005569458,2.7685928344726562,-1.7399083375930786,0.29793956875801086,2.5001344680786133,5.124340194254675,-1.00345499828658e-19,0.24995289742946625,-1.5938099066363733,7.837123848730698e-05,-0.0771980956196785,0.7782506346702576,7.935999747132882e-05,0.13738030195236206,0.8248544931411743,-4.498103244857023e-15,0.38922399282455444
615.0,733.0,0.3452,-0.1842,10.5805,-0.0643,-0.0281,-0.1064,-1.9005419216551722,-0.19579759240150452,2.7622690200805664,-1.738121747970581,0.30299127101898193,2.467660903930664,5.124472605973043,-2.793153885907142e-23,0.23358184099197388,-1.5938380400287073,8.353843441000208e-05,-0.07657541334629059,0.7782546877861023,6.226940604392439e-05,0.1580037921667099,0.824862539768219,-1.0862390401204309e-20,0.4157711863517761
664.0,779.0,0.2728,-0.3494,10.5458,-0.0362,0.1171,-0.1179,-1.9017168484129847,-0.1964109092950821,2.7179510593414307,-1.7362898588180542,0.3091450333595276,2.503389358520508,5.124368506460943,-7.77484591113912e-27,0.23405581712722778,-1.5938456694232386,0.00016091452562250197,-0.08002319931983948,0.7782871127128601,5.741321365348995e-05,0.14769768714904785,0.824842631816864,-2.623139695414748e-26,0.3869670629501343
664.0,779.0,0.2728,-0.3494,10.5458,-0.0362,0.1171,-0.1179,-1.9029017887511195,-0.2061847299337387,2.7262377738952637,-1.7343823909759521,0.3144851624965668,2.532700538635254,5.1243767020996,-2.1641567579994574e-30,0.23808687925338745,-1.5938099066363733,0.00014536571688950062,-0.0693407878279686,0.7782670855522156,5.479148603626527e-05,0.14034487307071686,0.8248465657234192,-6.334573899625017e-32,0.4045916795730591
664.0,779.0,0.2728,-0.3494,10.5458,-0.0362,0.1171,-0.1179,-1.903759618798727,-0.21073868870735168,2.7639331817626953,-1.7331815958023071,0.31442320346832275,2.5571937561035156,5.12440453746871,-9.226139245497351e-33,0.23776167631149292,-1.5938218275653284,0.00016372748359572142,-0.08276637643575668,0.7782424092292786,5.31726072949823e-05,0.14083972573280334,0.8248386383056641,-1.1402009651980323e-35,0.39373892545700073
664.0,779.0,0.2728,-0.3494,10.5458,-0.0362,0.1171,-0.1179,-1.9050747356810511,-0.2100963443517685,2.7899866104125977,-1.7312227487564087,0.31798478960990906,2.5438971519470215,5.124420839339056,3.9390775782521814e-05,0.2296324372291565,-1.5938294569598597,0.00015017975238151848,-0.07715316116809845,0.7782383561134338,5.0916474719997495e-05,0.135291188955307,0.824842631816864,-2.753411352551833e-41,0.39632630348205566
664.0,779.0,0.2728,-0.3494,10.5458,-0.0362,0.1171,-0.1179,-1.9063779316344203,-0.2008799910545349,2.824075222015381,-1.7292839288711548,0.3293570280075073,2.558011293411255,5.12440054395751,0.00010114773613167927,0.26638638973236084,-1.5938380400287073,0.00013861425395589322,-0.07890432327985764,0.7782747745513916,4.8844034608919173e-05,0.13368874788284302,0.8248786330223083,-0.0,0.35243338346481323
664.0,779.0,0.2728,-0.3494,10.5458,-0.0362,0.1171,-0.1179,-1.9076572857298792,-0.20813824236392975,2.798124313354492,-1.7273647785186768,0.327775776386261,2.5119407176971436,5.124464857369222,1.994642116187606e-05,0.25071001052856445,-1.5938175360309046,0.00012870256614405662,-0.07332231849431992,0.7782908082008362,4.693365917773917e-05,0.13611894845962524,0.8248586654663086,0.0,0.34551602602005005
664.0,779.0,0.2728,-0.3494,10.5458,-0.0362,0.1171,-0.1179,-1.9090210400023402,-0.22534646093845367,2.7583045959472656,-1.7254374027252197,0.32530391216278076,2.4798097610473633,5.124400871783056,5.55216006503656e-09,0.24802646040916443,-1.5938337484942835,0.00012011377839371562,-0.08038599789142609,0.7782302498817444,4.516716217040084e-05,0.13109377026557922,0.8248465657234192,8.818937203614041e-05,0.3877551555633545
664.0,779.0,0.2728,-0.3494,10.5458,-0.0362,0.1171,-0.1179,-1.9099394283690394,-0.23552873730659485,2.7557454109191895,-1.7241171598434448,0.3286862373352051,2.5266265869140625,5.124392705946722,2.3669731105679936e-11,0.2561671733856201,-1.593813721333639,0.00011499779066070914,-0.061205826699733734,0.7782583832740784,4.406149673741311e-05,0.12756572663784027,0.8248745203018188,8.190930384444073e-05,0.3564158082008362
664.0,779.0,0.2728,-0.3494,10.5458,-0.0362,0.1171,-0.1179,-1.9113179645934046,-0.23333513736724854,2.800732135772705,-1.7221100330352783,0.3263497054576874,2.5317392349243164,5.124412792712011,6.5885568417581135e-15,0.2504287660121918,-1.5938299337970179,0.00010809188825078309,-0.06423945724964142,0.7782825827598572,4.2500952986301854e-05,0.13485229015350342,0.8248544931411743,3.749949246412143e-05,0.3582060933113098
