ramyac6/ROB537/final_project/csv/all/good_158.csv
tof_0,tof_1,accelx,accely,accelz,gyrox,gyroy,gyroz,shoulder_lift_joint_position,shoulder_lift_joint_velocity,shoulder_lift_joint_effort,elbow_joint_position,elbow_joint_velocity,elbow_joint_effort,wrist_1_joint_position,wrist_1_joint_velocity,wrist_1_joint_effort,wrist_2_joint_position,wrist_2_joint_velocity,wrist_2_joint_effort,wrist_3_joint_position,wrist_3_joint_velocity,wrist_3_joint_effort,shoulder_pan_joint_position,shoulder_pan_joint_velocity,shoulder_pan_joint_effort
459.0,432.0,0.3763,0.0652,9.3529,-0.0273,0.0228,-0.106,-1.2835605305484314,0.0,0.863251805305481,-2.199801206588745,-0.0,2.0753588676452637,4.954839008837499,-0.0,0.29467642307281494,-1.5836098829852503,-0.0,-0.001250991364941001,0.853175163269043,-0.0,-0.005890676286071539,0.7851439714431763,0.0,0.03185557946562767
459.0,432.0,0.3763,0.0652,9.3529,-0.0273,0.0228,-0.106,-1.2836289268783112,0.0,0.8881011009216309,-2.1997971534729004,-0.0,2.06791353225708,4.954794841795721,-0.0,0.2850906252861023,-1.5836060682879847,-0.0,-0.012287824414670467,0.8532154560089111,-0.0,0.014683142304420471,0.785111665725708,0.0,-0.02980024553835392
459.0,432.0,0.3763,0.0652,9.3529,-0.0273,0.0228,-0.106,-1.2836087209037323,0.0,0.8676161766052246,-2.1997971534729004,-0.0,2.093006134033203,4.954831245332517,-0.0,0.28816261887550354,-1.5836179892169397,-0.0,-0.0012493899557739496,0.8532074689865112,-0.0,-0.008545421995222569,0.7850956320762634,0.0,0.007404630072414875
459.0,432.0,0.3763,0.0652,9.3529,-0.0273,0.0228,-0.106,-1.2835925680449982,0.0,0.8383814096450806,-2.199765205383301,-0.0,2.0405707359313965,4.954826774984159,-0.0,0.27726638317108154,-1.5835660139666956,-0.0,0.0037265580613166094,0.8532713651657104,-0.0,-0.012514538131654263,0.7850956916809082,0.0,0.016484957188367844
459.0,432.0,0.3763,0.0652,9.3529,-0.0273,0.0228,-0.106,-1.2836168867400666,0.0,0.8164064884185791,-2.1997857093811035,-0.0,2.0714268684387207,4.954839008837499,-0.0,0.27884167432785034,-1.5836060682879847,-0.0,0.0022656687069684267,0.8532113432884216,-0.0,-0.003204752691090107,0.785111665725708,0.0,0.007683362811803818
514.0,8190.0,0.2261,-0.0162,9.5827,-0.0301,0.0258,-0.115,-1.2835645836642762,0.0,0.937579333782196,-2.1998209953308105,-0.0,2.0890283584594727,4.954774695425787,-0.0,0.2848111689090729,-1.583630386983053,-0.0,-0.003759508952498436,0.8533072471618652,-0.0,-0.0006264581461437047,0.7850956916809082,0.0,-0.005929200444370508
514.0,8190.0,0.2261,-0.0162,9.5827,-0.0301,0.0258,-0.115,-1.2836128038218995,0.0,0.8698182106018066,-2.199765205383301,-0.0,2.130235433578491,4.954810845642843,-0.0,0.29316186904907227,-1.5836017767535608,-0.0,-0.006352525670081377,0.853227436542511,-0.0,0.012176772579550743,0.7850956320762634,0.0,0.016042642295360565
514.0,8190.0,0.2261,-0.0162,9.5827,-0.0301,0.0258,-0.115,-1.2836289268783112,0.0,0.875857949256897,-2.1998085975646973,-0.0,2.0710346698760986,4.954847234278478,-0.0,0.290155827999115,-1.5835703055011194,-0.0,-0.007666667457669973,0.853223443031311,-0.0,0.004623100161552429,0.7850956916809082,0.0,-0.05520711839199066
514.0,8190.0,0.2261,-0.0162,9.5827,-0.0301,0.0258,-0.115,-1.2836250227740784,0.0,0.8799864053726196,-2.19976544380188,-0.0,2.0807504653930664,4.954847234278478,-0.0,0.28907090425491333,-1.5836260954486292,-0.0,0.007113810628652573,0.8532634377479553,-0.0,0.0071822102181613445,0.7850956320762634,0.0,-0.0371374748647213
514.0,8190.0,0.2261,-0.0162,9.5827,-0.0301,0.0258,-0.115,-1.2836647790721436,0.0,0.860580325126648,-2.1998329162597656,-0.0,2.1152400970458984,4.954798939615049,-0.0,0.28814148902893066,-1.5835421721087855,-0.0,-0.009783854708075523,0.853246808052063,-0.0,-0.0049871038645505905,0.785111665725708,0.0,-0.03075583465397358
514.0,8190.0,0.2261,-0.0162,9.5827,-0.0301,0.0258,-0.115,-1.283624843960144,0.0,0.8901360034942627,-2.1997931003570557,-0.0,2.1131954193115234,4.954810845642843,-0.0,0.2754904627799988,-1.5836260954486292,-0.0,-0.01379312388598919,0.8532074689865112,-0.0,-0.007810875773429871,0.7850874066352844,0.0,-0.012038588523864746
514.0,8190.0,0.2261,-0.0162,9.5827,-0.0301,0.0258,-0.115,-1.2835885447314759,0.0,0.8476580381393433,-2.199709415435791,-0.0,2.099088430404663,4.95481892207221,-0.0,0.2859100103378296,-1.58356219926943,-0.0,-0.007865957915782928,0.8531875610351562,-0.0,-0.005676111206412315,0.785111665725708,0.0,-0.011578060686588287
514.0,8190.0,0.2261,-0.0162,9.5827,-0.0301,0.0258,-0.115,-1.2835925978473206,0.0,0.8936293125152588,-2.1997692584991455,-0.0,2.130066156387329,4.954802605300703,-0.0,0.28364312648773193,-1.583630386983053,-0.0,0.0044867172837257385,0.8532754182815552,-0.0,-0.012609370052814484,0.785111665725708,0.0,0.026386432349681854
514.0,8190.0,0.2261,-0.0162,9.5827,-0.0301,0.0258,-0.115,-1.2835925978473206,0.0,0.8687756061553955,-2.199789047241211,-0.0,2.094921112060547,4.954802605300703,-0.0,0.28105372190475464,-1.5835979620562952,-0.0,-0.013197293505072594,0.8532754182815552,-0.0,-0.0005880261887796223,0.7851560115814209,0.0,-0.011725710704922676
514.0,8190.0,0.2261,-0.0162,9.5827,-0.0301,0.0258,-0.115,-1.2836087209037323,0.0,0.8661642074584961,-2.199812650680542,-0.0,2.0675814151763916,4.954786631255903,-0.0,0.2855035960674286,-1.5835779348956507,-0.0,0.0013868974056094885,0.8532427549362183,-0.0,-0.0004947299603372812,0.7850956916809082,0.0,0.01207040250301361
455.0,8190.0,0.2991,0.0437,9.4917,-0.0336,0.0121,-0.108,-1.283644900923111,0.0,0.831318736076355,-2.1998167037963867,-0.0,2.0967817306518555,4.95482716241435,-0.0,0.29469770193099976,-1.5835822264300745,-0.0,-0.004103829152882099,0.8531914353370667,-0.0,-0.0023890717420727015,0.7851198315620422,0.0,0.041394803673028946
455.0,8190.0,0.2991,0.0437,9.4917,-0.0336,0.0121,-0.108,-1.2836087209037323,0.0,0.8657237887382507,-2.199761152267456,-0.0,2.0790629386901855,4.954843181162634,-0.0,0.28672608733177185,-1.58356219926943,-0.0,-0.006079046055674553,0.8532554507255554,-0.0,0.003600365249440074,0.785111665725708,0.0,0.0019321367144584656
455.0,8190.0,0.2991,0.0437,9.4917,-0.0336,0.0121,-0.108,-1.283632681970932,0.0,0.8367139101028442,-2.199777364730835,-0.0,2.049190044403076,4.954810830741682,-0.0,0.28663358092308044,-1.5836017767535608,-0.0,7.380172610282898e-05,0.8532634973526001,-0.0,-0.009959038347005844,0.7851074934005737,0.0,-0.0010704752057790756
455.0,8190.0,0.2991,0.0437,9.4917,-0.0336,0.0121,-0.108,-1.283584789638855,0.0,0.8147335648536682,-2.1998291015625,-0.0,2.0739986896514893,4.954843196063795,-0.0,0.2865830063819885,-1.5835898558246058,-0.0,-0.013754823245108128,0.8532593846321106,-0.0,-0.010840831324458122,0.7851157188415527,0.0,0.024219609797000885
455.0,8190.0,0.2991,0.0437,9.4917,-0.0336,0.0121,-0.108,-1.2836128038218995,0.0,0.8804364204406738,-2.1998536586761475,-0.0,2.1126060485839844,4.954814913659849,-0.0,0.28124815225601196,-1.5836384932147425,-0.0,-0.012469859793782234,0.8531995415687561,-0.0,0.00346518587321043,0.7850997447967529,0.0,0.028719350695610046
455.0,8190.0,0.2991,0.0437,9.4917,-0.0336,0.0121,-0.108,-1.2835925978473206,0.0,0.8733921051025391,-2.1997568607330322,-0.0,2.109544038772583,4.95481892207221,-0.0,0.2712516784667969,-1.583613697682516,-0.0,-0.008508982136845589,0.8532512187957764,-0.0,0.0021513979882001877,0.7851279973983765,0.0,0.0014987362083047628
455.0,8190.0,0.2991,0.0437,9.4917,-0.0336,0.0121,-0.108,-1.2836330097964783,0.0,0.8750434517860413,-2.1998085975646973,-0.0,2.081139087677002,4.954810830741682,-0.0,0.2813713252544403,-1.5835979620562952,-0.0,0.0017603226006031036,0.8532427549362183,-0.0,-0.00106090831104666,0.785111665725708,0.0,0.03234002739191055
455.0,8190.0,0.2991,0.0437,9.4917,-0.0336,0.0121,-0.108,-1.2836330395988007,0.0,0.9214403629302979,-2.199777841567993,-0.0,2.0716490745544434,4.954862910300054,-0.0,0.2896634638309479,-1.5836384932147425,-0.0,-0.0017166214529424906,0.8532273769378662,-0.0,-0.006616923958063126,0.785111665725708,0.0,-0.034526433795690536
455.0,8190.0,0.2991,0.0437,9.4917,-0.0336,0.0121,-0.108,-1.2835925978473206,0.0,0.8849122524261475,-2.1998329162597656,-0.0,2.0298819541931152,4.954850959568777,-0.0,0.2948126196861267,-1.583630386983053,-0.0,-0.021157242357730865,0.8532195687294006,-0.0,0.007987775839865208,0.7851279973983765,0.0,-0.0283209141343832
482.0,8190.0,0.2255,-0.0036,9.5085,-0.0362,0.0212,-0.1239,-1.2836126548102875,0.0,0.9082606434822083,-2.1997487545013428,-0.0,2.065304756164551,4.954859185009756,-0.0,0.2865053415298462,-1.5836098829852503,-0.0,-0.00451957480981946,0.8532114028930664,-0.0,-0.005987935699522495,0.7851198315620422,0.0,-0.017062315717339516
482.0,8190.0,0.2255,-0.0036,9.5085,-0.0362,0.0212,-0.1239,-1.283632681970932,0.0,0.8195694088935852,-2.199765205383301,-0.0,2.078582525253296,4.954830843001165,-0.0,0.2832202911376953,-1.5836017767535608,-0.0,-0.014218238182365894,0.8532388210296631,-0.0,-0.0033392910845577717,0.7850874066352844,0.0,0.007019391283392906
482.0,8190.0,0.2255,-0.0036,9.5085,-0.0362,0.0212,-0.1239,-1.2835925978473206,0.0,0.8674779534339905,-2.199781656265259,-0.0,2.100586414337158,4.954839008837499,-0.0,0.28196778893470764,-1.5835979620562952,-0.0,-0.015105425380170345,0.8531950116157532,-0.0,-0.011833508498966694,0.7850795388221741,0.0,-0.04945885390043259
482.0,8190.0,0.2255,-0.0036,9.5085,-0.0362,0.0212,-0.1239,-1.2836289268783112,0.0,0.8673402070999146,-2.1997923851013184,-0.0,2.0679707527160645,4.954786616354742,-0.0,0.2887782156467438,-1.5835822264300745,-0.0,-0.005638724192976952,0.8532195687294006,-0.0,0.000639330071862787,0.7850956916809082,0.0,0.0013177823275327682
482.0,8190.0,0.2255,-0.0036,9.5085,-0.0362,0.0212,-0.1239,-1.2836167079261322,0.0,0.872962474822998,-2.1997971534729004,-0.0,2.065415143966675,4.954803007632055,-0.0,0.2669403851032257,-1.5835898558246058,-0.0,-0.006905773654580116,0.8532754182815552,-0.0,-0.000966961495578289,0.7851157188415527,0.0,0.018071599304676056
482.0,8190.0,0.2255,-0.0036,9.5085,-0.0362,0.0212,-0.1239,-1.283644900923111,0.0,0.8373359441757202,-2.1997857093811035,-0.0,2.099665403366089,4.95481892207221,-0.0,0.28744757175445557,-1.583550278340475,-0.0,-0.012821256183087826,0.853223443031311,-0.0,-0.00759956706315279,0.785111665725708,0.0,-0.013716471381485462
482.0,8190.0,0.2255,-0.0036,9.5085,-0.0362,0.0212,-0.1239,-1.2835966807654877,0.0,0.8411500453948975,-2.199812650680542,-0.0,2.051382064819336,4.954802620201864,-0.0,0.2849927544593811,-1.5835941473590296,-0.0,-0.01833554171025753,0.853219211101532,-0.0,-0.0028716661036014557,0.7850997447967529,0.0,0.04177591949701309
482.0,8190.0,0.2255,-0.0036,9.5085,-0.0362,0.0212,-0.1239,-1.2835966807654877,0.0,0.8676042556762695,-2.1998207569122314,-0.0,2.049774169921875,4.954790684371748,-0.0,0.2914023697376251,-1.5835979620562952,-0.0,-0.0054209865629673,0.8532835841178894,-0.0,0.0005139000713825226,0.7850956916809082,0.0,0.000864105299115181
482.0,8190.0,0.2255,-0.0036,9.5085,-0.0362,0.0212,-0.1239,-1.2836569410613556,0.0,0.8110470771789551,-2.1998207569122314,-0.0,2.054483413696289,4.954839008837499,-0.0,0.29130303859710693,-1.5835941473590296,-0.0,-0.014265493489801884,0.8532508611679077,-0.0,0.00039106199983507395,0.785111665725708,0.0,0.0037052775733172894
482.0,8190.0,0.2255,-0.0036,9.5085,-0.0362,0.0212,-0.1239,-1.283637062912323,0.0,0.850139856338501,-2.199800491333008,-0.0,2.0429739952087402,4.954790684371748,-0.0,0.2916526794433594,-1.5836098829852503,-0.0,-0.013124266639351845,0.8532508611679077,-0.0,0.0005828880239278078,0.785111665725708,0.0,-0.012295815162360668
446.0,8190.0,0.0993,-0.0437,9.8788,-0.0269,0.016,-0.1119,-1.2836650770953675,0.0,0.8281344175338745,-2.1998045444488525,-0.0,2.0761561393737793,4.9548431662614725,-0.0,0.2866078317165375,-1.583574120198385,-0.0,-0.008416898548603058,0.8532468676567078,-0.0,-0.0016547704581171274,0.7851280570030212,0.0,-0.011314396746456623
446.0,8190.0,0.0993,-0.0437,9.8788,-0.0269,0.016,-0.1119,-1.2836688619903107,0.0,0.8397276401519775,-2.199881076812744,-0.0,2.092972993850708,4.954814854055204,-0.0,0.28577134013175964,-1.583630386983053,-0.0,-0.005593746434897184,0.853219211101532,-0.0,-0.0029618730768561363,0.7851157188415527,0.0,-0.0210297591984272
446.0,8190.0,0.0993,-0.0437,9.8788,-0.0269,0.016,-0.1119,-1.2836168867400666,0.0,0.8655732870101929,-2.1997931003570557,-0.0,2.053657293319702,4.95482716241435,-0.0,0.29483479261398315,-1.583574120198385,-0.0,-0.008932963013648987,0.8532794713973999,-0.0,0.0006475658155977726,0.7851157188415527,0.0,-0.02651451900601387
446.0,8190.0,0.0993,-0.0437,9.8788,-0.0269,0.016,-0.1119,-1.2836087209037323,0.0,0.8580441474914551,-2.199777364730835,-0.0,2.1319851875305176,4.954839008837499,-0.0,0.28414082527160645,-1.5836179892169397,-0.0,-0.018042249605059624,0.8531953692436218,-0.0,-0.00731651671230793,0.7851279973983765,0.0,0.005947947967797518
446.0,8190.0,0.0993,-0.0437,9.8788,-0.0269,0.016,-0.1119,-1.2836489838412781,0.0,0.8492782115936279,-2.1997692584991455,-0.0,2.056892156600952,4.954830843001165,-0.0,0.28526538610458374,-1.5835822264300745,-0.0,-0.015882985666394234,0.8531712889671326,-0.0,-0.013266980648040771,0.7851038575172424,0.0,0.016073722392320633
446.0,8190.0,0.0993,-0.0437,9.8788,-0.0269,0.016,-0.1119,-1.283672885303833,0.0,0.8289344906806946,-2.199781656265259,-0.0,2.092682361602783,4.954790639668264,-0.0,0.2830870747566223,-1.5836060682879847,-0.0,-0.012449304573237896,0.8532590866088867,-0.0,-0.002705076476559043,0.7851198315620422,0.0,-0.039709705859422684
446.0,8190.0,0.0993,-0.0437,9.8788,-0.0269,0.016,-0.1119,-1.283580706720688,0.0,0.8695884943008423,-2.199765205383301,-0.0,2.086434841156006,4.954879167466917,-0.0,0.28022971749305725,-1.5835979620562952,-0.0,-0.005745904520153999,0.8531991243362427,-0.0,-0.00033970153890550137,0.785111665725708,0.0,-0.0065836310386657715
446.0,8190.0,0.0993,-0.0437,9.8788,-0.0269,0.016,-0.1119,-1.2835804384997864,0.0,0.8723681569099426,-2.199793815612793,-0.0,2.0593314170837402,4.954794841795721,-0.0,0.27655473351478577,-1.5835941473590296,-0.0,-0.004039914347231388,0.8532388210296631,-0.0,0.008812443353235722,0.7850956916809082,0.0,0.041196346282958984
446.0,8190.0,0.0993,-0.0437,9.8788,-0.0269,0.016,-0.1119,-1.2836087209037323,0.0,0.8240808248519897,-2.19985294342041,-0.0,2.0414021015167236,4.95481892207221,-0.0,0.27991363406181335,-1.5836179892169397,-0.0,-0.016714531928300858,0.8532355427742004,-0.0,0.014934621751308441,0.7850795388221741,0.0,0.006923750974237919
513.0,8190.0,0.0897,0.0676,9.6849,-0.0284,0.0224,-0.1161,-1.283648894434311,0.0,0.8642483949661255,-2.1998085975646973,-0.0,2.0543954372406006,4.954855012684622,-0.0,0.27778446674346924,-1.5835779348956507,-0.0,-0.005168846342712641,0.8532074689865112,-0.0,-0.00642743892967701,0.785111665725708,0.0,-0.012045400217175484
513.0,8190.0,0.0897,0.0676,9.6849,-0.0284,0.0224,-0.1161,-1.2835885447314759,0.0,0.8245426416397095,-2.1998331546783447,-0.0,2.106691837310791,4.954850989371099,-0.0,0.2869426906108856,-1.5835779348956507,-0.0,-0.004683787934482098,0.8532554507255554,-0.0,0.0001228651963174343,0.7850835919380188,0.0,-0.03383300453424454
513.0,8190.0,0.0897,0.0676,9.6849,-0.0284,0.0224,-0.1161,-1.2836168867400666,0.0,0.8880623579025269,-2.1997733116149902,-0.0,2.1097161769866943,4.954834925919332,-0.0,0.2957785725593567,-1.5836218039142054,-0.0,0.0003837140975520015,0.8532555103302002,-0.0,0.0026317532174289227,0.7851361632347107,0.0,-0.019763976335525513
513.0,8190.0,0.0897,0.0676,9.6849,-0.0284,0.0224,-0.1161,-1.2836007934859772,0.0,0.8512773513793945,-2.1998167037963867,-0.0,2.079163074493408,4.954855012684622,-0.0,0.2780284285545349,-1.5835979620562952,-0.0,-0.006032649427652359,0.8531671762466431,-0.0,0.0007391491672024131,0.7850997447967529,0.0,0.01219894178211689
513.0,8190.0,0.0897,0.0676,9.6849,-0.0284,0.0224,-0.1161,-1.2836330097964783,0.0,0.8911890983581543,-2.19980525970459,-0.0,2.0846006870269775,4.954830857902326,-0.0,0.2946435213088989,-1.5836179892169397,-0.0,-0.012662776745855808,0.8532150983810425,-0.0,0.008974388241767883,0.785111665725708,0.0,0.0033263452351093292
513.0,8190.0,0.0897,0.0676,9.6849,-0.0284,0.0224,-0.1161,-1.283644900923111,0.0,0.8822046518325806,-2.1997692584991455,-0.0,2.0609161853790283,4.95480668821887,-0.0,0.280045747756958,-1.5835822264300745,-0.0,0.002289642347022891,0.8531953692436218,-0.0,0.004664821084588766,0.7850835919380188,0.0,0.009310183115303516
513.0,8190.0,0.0897,0.0676,9.6849,-0.0284,0.0224,-0.1161,-1.283640818004944,0.0,0.8806967735290527,-2.199761152267456,-0.0,2.1111092567443848,4.954818996578016,-0.0,0.2934202551841736,-1.5836017767535608,-0.0,-0.019149059429764748,0.8533034920692444,-0.0,-0.0037308468017727137,0.7851038575172424,0.0,-0.033464547246694565
513.0,8190.0,0.0897,0.0676,9.6849,-0.0284,0.0224,-0.1161,-1.2836087209037323,0.0,0.8506958484649658,-2.1997487545013428,-0.0,2.1011152267456055,4.954798567086019,-0.0,0.28071391582489014,-1.58356219926943,-0.0,-0.007082297466695309,0.8532427549362183,-0.0,-0.005912803113460541,0.7851279973983765,0.0,-0.014472795650362968
513.0,8190.0,0.0897,0.0676,9.6849,-0.0284,0.0224,-0.1161,-1.2836007636836548,0.0,0.8571364879608154,-2.1997692584991455,-0.0,2.140951633453369,4.95481892207221,-0.0,0.2811914086341858,-1.5835703055011194,-0.0,-0.013817558996379375,0.8532794713973999,-0.0,0.002841009758412838,0.7851198315620422,0.0,0.027128836140036583
513.0,8190.0,0.0897,0.0676,9.6849,-0.0284,0.0224,-0.1161,-1.2836168867400666,0.0,0.8376905918121338,-2.1998250484466553,-0.0,2.0780959129333496,4.954834925919332,-0.0,0.2806564271450043,-1.5835779348956507,-0.0,-0.01785799115896225,0.8532593846321106,-0.0,0.012404872104525566,0.7851198315620422,0.0,0.012775326147675514
8190.0,8190.0,0.195,-0.0012,9.5928,-0.0345,0.0307,-0.1312,-1.283584789638855,0.0,0.8326530456542969,-2.1998329162597656,-0.0,2.049294948577881,4.954830843001165,-0.0,0.2925780415534973,-1.5836456457721155,-0.0,0.004886304959654808,0.8532395958900452,-0.0,0.005164686590433121,0.7851079106330872,0.0,-0.057044968008995056
8190.0,8190.0,0.195,-0.0012,9.5928,-0.0345,0.0307,-0.1312,-1.2836007636836548,0.0,0.8251643180847168,-2.1998772621154785,-0.0,2.1139211654663086,4.9548509297664545,-0.0,0.28652867674827576,-1.583613697682516,-0.0,-0.0030076371040195227,0.8532590866088867,-0.0,-0.0027278768830001354,0.7851157188415527,0.0,0.008840437978506088
8190.0,8190.0,0.195,-0.0012,9.5928,-0.0345,0.0307,-0.1312,-1.2836209398559113,0.0,0.844904899597168,-2.1997568607330322,-0.0,2.0942811965942383,4.954831245332517,-0.0,0.2833896279335022,-1.583630386983053,-0.0,-0.009184005670249462,0.8532992005348206,-0.0,-0.007818838581442833,0.785111665725708,0.0,0.020252089947462082
8190.0,8190.0,0.195,-0.0012,9.5928,-0.0345,0.0307,-0.1312,-1.2836330097964783,0.0,0.8679431676864624,-2.1998291015625,-0.0,2.0916712284088135,4.954818996578016,-0.0,0.2959119975566864,-1.5836222807513636,-0.0,-0.014600742608308792,0.8532509803771973,-0.0,-0.004453171044588089,0.785111665725708,0.0,-0.04158222675323486
8190.0,8190.0,0.195,-0.0012,9.5928,-0.0345,0.0307,-0.1312,-1.2836128038218995,0.0,0.8531240224838257,-2.1997897624969482,-0.0,2.0471954345703125,4.95477061250762,-0.0,0.27948975563049316,-1.5836017767535608,-0.0,-0.014025403186678886,0.8532074689865112,-0.0,0.009173069149255753,0.7850795388221741,0.0,0.02833718992769718
8190.0,8190.0,0.195,-0.0012,9.5928,-0.0345,0.0307,-0.1312,-1.2836128038218995,0.0,0.8793491125106812,-2.199781656265259,-0.0,2.042111873626709,4.9548431662614725,-0.0,0.2922588884830475,-1.5836342016803187,-0.0,-0.023877575993537903,0.8533034324645996,-0.0,-0.015079132281243801,0.7851157188415527,0.0,-0.04266270622611046
8190.0,8190.0,0.195,-0.0012,9.5928,-0.0345,0.0307,-0.1312,-1.2835966807654877,0.0,0.8489496111869812,-2.199777841567993,-0.0,2.1334469318389893,4.95480668821887,-0.0,0.2825687527656555,-1.5836342016803187,-0.0,-0.010365957394242287,0.8532389998435974,-0.0,-0.008663161657750607,0.785111665725708,0.0,-0.020252009853720665
8190.0,8190.0,0.195,-0.0012,9.5928,-0.0345,0.0307,-0.1312,-1.2835483413985749,0.0,0.8328914642333984,-2.1998085975646973,-0.0,2.107229709625244,4.9548431662614725,-0.0,0.29593414068222046,-1.583681885396139,-0.0,-0.01365199126303196,0.8532150983810425,-0.0,-0.0001236293464899063,0.7851074934005737,0.0,-0.00711810402572155
8190.0,8190.0,0.195,-0.0012,9.5928,-0.0345,0.0307,-0.1312,-1.2836289268783112,0.0,0.8351818323135376,-2.1998331546783447,-0.0,2.045525074005127,4.954782548337736,-0.0,0.2934529781341553,-1.5836222807513636,-0.0,-0.01137896440923214,0.8532427549362183,-0.0,-0.0038278880529105663,0.785111665725708,0.0,0.021590828895568848
481.0,456.0,0.1466,-0.2865,9.4092,-0.0202,0.0221,-0.1161,-1.283685104256012,0.0,0.8529738783836365,-2.1997413635253906,-0.0,2.0942983627319336,4.95485499778346,-0.0,0.2905316948890686,-1.5836299101458948,-0.0,0.002833823673427105,0.853234589099884,-0.0,0.0041487631388008595,0.7850992679595947,0.0,-0.008314304053783417
481.0,456.0,0.1466,-0.2865,9.4092,-0.0202,0.0221,-0.1161,-1.283624843960144,0.0,0.882106363773346,-2.199845314025879,-0.0,2.0880372524261475,4.954843210964956,-0.0,0.27414053678512573,-1.583625618611471,-0.0,-0.004819797817617655,0.8532754182815552,-0.0,0.0028409843798726797,0.785167932510376,0.00040511644328944385,0.056930746883153915
481.0,456.0,0.1466,-0.2865,9.4092,-0.0202,0.0221,-0.1161,-1.2836046677878876,0.0,0.8889319896697998,-2.199777603149414,-0.0,2.068434953689575,4.954823019891538,-0.0,0.2706318795681,-1.583642307912008,-0.0,-0.008859848603606224,0.8532875180244446,-0.0,0.009202752262353897,0.7851601839065552,0.00035493902396410704,-0.03468598425388336
481.0,456.0,0.1466,-0.2865,9.4092,-0.0202,0.0221,-0.1161,-1.2835523349097748,0.0,0.8641124963760376,-2.1997897624969482,-0.0,2.0454771518707275,4.954810741334715,-0.0,0.27696287631988525,-1.5836380163775843,-0.0,-0.017786746844649315,0.8532594442367554,-0.0,-0.006067364942282438,0.7851398587226868,0.00028474978171288967,0.010299366898834705
481.0,456.0,0.1466,-0.2865,9.4092,-0.0202,0.0221,-0.1161,-1.2836048167994996,0.0,0.8450878858566284,-2.1998209953308105,-0.0,2.112941265106201,4.954798477679052,-0.0,0.2931787073612213,-1.583637539540426,-0.0,-0.006851268466562033,0.8532593846321106,-0.0,-0.005697512999176979,0.785132110118866,0.00010361812019255012,0.04329584538936615
481.0,456.0,0.1466,-0.2865,9.4092,-0.0202,0.0221,-0.1161,-1.2836250525764008,0.0,0.8924646973609924,-2.1998372077941895,-0.0,2.0892245769500732,4.954822990089216,-0.0,0.2791789174079895,-1.5835583845721644,-2.4906308681238443e-05,-0.014261740259826183,0.8532031774520874,-0.0,0.003665146417915821,0.78509521484375,4.085930049768649e-05,0.01327192597091198
481.0,456.0,0.1466,-0.2865,9.4092,-0.0202,0.0221,-0.1161,-1.2836046677878876,5.861185148337e-11,0.8432554602622986,-2.1997857093811035,-0.0,2.098818302154541,4.95479482689456,-0.0,0.28652718663215637,-1.5836098829852503,-3.913891487172805e-05,-0.007933307439088821,0.853234589099884,-0.0,0.0028585377149283886,0.785075306892395,3.3169195376103744e-05,-0.029401298612356186
481.0,456.0,0.1466,-0.2865,9.4092,-0.0202,0.0221,-0.1161,-1.2836087209037323,2.5476826824509403e-20,0.8332464694976807,-2.1998291015625,-0.0,2.0828795433044434,4.95477885284976,-2.4189432679122547e-07,0.2850506901741028,-1.583613697682516,-1.1768502190534491e-06,-0.015275701880455017,0.853227436542511,-0.0,-0.0005901165422983468,0.785111665725708,3.2953939808066934e-06,-0.02619997039437294
481.0,456.0,0.1466,-0.2865,9.4092,-0.0202,0.0221,-0.1161,-1.2836888593486329,1.1074019691639e-29,0.8686068058013916,-2.199784994125366,-0.0,2.0974795818328857,4.954787003784933,-2.87047620915748e-13,0.2894567549228668,-1.5835860411273401,-1.3965274249516657e-12,-0.012075744569301605,0.8532509207725525,-0.0,0.005454912316054106,0.7851157188415527,1.4324095820469852e-15,0.0022281103301793337
481.0,456.0,0.1466,-0.2865,9.4092,-0.0202,0.0221,-0.1161,-1.2836487752250214,3.5878413159606833e-37,0.8308054208755493,-2.1998291015625,-0.0,2.032180070877075,4.954774799733915,-5.2169487140331405e-18,0.2890401780605316,-1.583534065877096,-2.5381195026326075e-17,0.00013274629600346088,0.8532794713973999,-0.0,0.0024159885942935944,0.7851079106330872,4.64082452920452e-23,0.05512579157948494
496.0,8190.0,0.1442,0.5145,9.6317,-0.0137,0.022,-0.1174,-1.2836286288550873,0.0,0.8527501821517944,-2.1998167037963867,-0.0,2.077662229537964,4.954742821841993,-0.0004947512061335146,0.28531068563461304,-1.58356219926943,0.0005507289315573871,-0.03090592473745346,0.8532471060752869,-0.0,0.01047246903181076,0.7850472927093506,2.0172282396269013e-32,8.078478276729584e-05
496.0,8190.0,0.1442,0.5145,9.6317,-0.0137,0.022,-0.1174,-1.2836122971824189,-0.0005874470225535333,0.8841148614883423,-2.19985294342041,-0.0,2.067894458770752,4.954767006426611,-0.0007785969646647573,0.2898891568183899,-1.5835779348956507,0.0006632224540226161,-0.008284399285912514,0.8532794713973999,-0.0,0.0030336729250848293,0.7850431799888611,-0.000279580446658656,0.02944887988269329
496.0,8190.0,0.1442,0.5145,9.6317,-0.0137,0.022,-0.1174,-1.2836848062327881,-0.0008049679454416037,0.8939574956893921,-2.1998331546783447,-0.0,2.0628130435943604,4.954698565393247,-0.0005453492049127817,0.26916757225990295,-1.5835297743426722,0.0006018655258230865,-0.00026567745953798294,0.853267252445221,-0.0,-0.0035602578427642584,0.785111665725708,-0.00018021515279542655,-0.0265040323138237
496.0,8190.0,0.1442,0.5145,9.6317,-0.0137,0.022,-0.1174,-1.2837209564498444,-0.0004630486364476383,0.8397580981254578,-2.199781656265259,-0.0,2.0143611431121826,4.954762923508444,-0.0003394091036170721,0.28121238946914673,-1.5835378805743616,0.00042506400495767593,-0.004479901399463415,0.8532304763793945,-0.0,0.0050292047671973705,0.7850794792175293,-0.00014412836753763258,0.017602305859327316
496.0,8190.0,0.1442,0.5145,9.6317,-0.0137,0.022,-0.1174,-1.2836968463710328,-0.00032406923128291965,0.833803653717041,-2.1998610496520996,-0.0,2.0506529808044434,4.954787078290739,-0.00024642585776746273,0.2894107699394226,-1.5835259596454065,0.00034584017703309655,-0.0015471500810235739,0.8532992601394653,-0.0,-0.009134470485150814,0.7850794792175293,-8.589564117755799e-07,0.018887456506490707
496.0,8190.0,0.1442,0.5145,9.6317,-0.0137,0.022,-0.1174,-1.2837290924838562,-0.0002492654020898044,0.8240666389465332,-2.199761152267456,-0.0,2.0832815170288086,4.9547510025794885,-0.00019344336760696024,0.28937286138534546,-1.5835498015033167,0.00026224396424368024,0.004858861677348614,0.8532631397247314,-0.0,0.006011251360177994,0.7850473523139954,-3.733628322570554e-16,-0.00792829692363739
496.0,8190.0,0.1442,0.5145,9.6317,-0.0137,0.022,-0.1174,-1.2836688321879883,-0.0002104123996105045,0.7989099621772766,-2.19980525970459,-0.0,2.09498929977417,4.95473093071536,-0.0001650569320190698,0.28242531418800354,-1.5835660139666956,0.0002549031632952392,-0.017122596502304077,0.8532388210296631,-0.0,-0.014282595366239548,0.7851279973983765,-1.209648147308038e-23,0.03304639458656311
496.0,8190.0,0.1442,0.5145,9.6317,-0.0137,0.022,-0.1174,-1.2836606961539765,-0.0001761019229888916,0.8380452394485474,-2.1997931003570557,-0.0,2.125771999359131,4.954718741565504,-0.00013947460683993995,0.2890588045120239,-1.5835297743426722,0.00021288599236868322,-0.0021678509656339884,0.8532791137695312,-0.0,0.003473234362900257,0.785132110118866,-5.257982190466261e-33,0.019518550485372543
496.0,8190.0,0.1442,0.5145,9.6317,-0.0137,0.022,-0.1174,-1.283620463018753,-0.00015141256153583527,0.858810305595398,-2.1998045444488525,-0.0,2.104670524597168,4.954726817994871,-0.00014408609422389418,0.2720850706100464,-1.5835579077350062,0.00018211350834462792,-0.0033966097980737686,0.8532907366752625,-0.0,0.007664386183023453,0.7851157188415527,-2.2855177953137766e-42,-0.011162182316184044
555.0,463.0,0.2261,0.2225,9.6694,-0.0362,0.0197,-0.128,-1.2837009292891999,-0.0001549272274132818,0.8050006628036499,-2.199845552444458,-0.0,2.068528890609741,4.954718681960859,-0.00014355432358570397,0.27890509366989136,-1.583545986806051,0.0001591144100530073,-0.007783725392073393,0.8532555103302002,-0.0,0.01958601176738739,0.785111665725708,0.0,-0.01057472638785839
555.0,463.0,0.2261,0.2225,9.6694,-0.0362,0.0197,-0.128,-1.2837091249278565,-0.00014105247100815177,0.7920989990234375,-2.1997931003570557,-0.0,2.0800976753234863,4.954734968930044,-0.0001556037022965029,0.2888007164001465,-1.5835860411273401,0.00016511204012203962,-0.006207160651683807,0.8532512187957764,-0.0,-0.002928765956312418,0.7851157784461975,0.0,-0.004928041249513626
555.0,463.0,0.2261,0.2225,9.6694,-0.0362,0.0197,-0.128,-1.2837087672999878,-0.0001450953568564728,0.8490352630615234,-2.19985294342041,-0.0,2.0610063076019287,4.954743268876829,-0.00011493689817143604,0.27843374013900757,-1.5835297743426722,0.00012825935846194625,3.542006015777588e-05,0.8532829284667969,-0.0,0.0017390570137649775,0.785103440284729,0.0,-0.04580230638384819
555.0,463.0,0.2261,0.2225,9.6694,-0.0362,0.0197,-0.128,-1.283680723314621,-0.00012502502067945898,0.8185950517654419,-2.199869155883789,-0.0,2.0818164348602295,4.954710918455877,-0.00044765995698980987,0.28450241684913635,-1.5835536162005823,0.0003444586764089763,-0.006432036869227886,0.8532829284667969,-0.0,0.012735512107610703,0.7850795388221741,0.0,-0.0028037545271217823
555.0,463.0,0.2261,0.2225,9.6694,-0.0362,0.0197,-0.128,-1.2837087672999878,-0.000669719825964421,0.7676071524620056,-2.1997897624969482,-0.0,2.0956907272338867,4.954735058337011,-0.0005276878364384174,0.2714395225048065,-1.583494011555807,0.0012512753019109368,0.021355362609028816,0.853270947933197,-0.0,0.011162953451275826,0.7851157784461975,0.0,-0.02835102379322052
555.0,463.0,0.2261,0.2225,9.6694,-0.0362,0.0197,-0.128,-1.2837126117995759,-0.0012733748881146312,0.8170681595802307,-2.1997733116149902,-0.0,2.096315383911133,4.954687419324674,-0.0009540217579342425,0.26955676078796387,-1.5834739843951624,0.013865974731743336,0.02217705547809601,0.8532791137695312,-0.0,0.016575347632169724,0.7850473523139954,0.0,-0.023999005556106567
555.0,463.0,0.2261,0.2225,9.6694,-0.0362,0.0197,-0.128,-1.2837771636298676,-0.0036850939504802227,0.7671905755996704,-2.1997931003570557,-0.0,2.0967977046966553,4.954691383033552,-0.0007786566275171936,0.26276373863220215,-1.5832818190204065,0.016028882935643196,0.02538851462304592,0.8532512187957764,-0.0,0.013199996203184128,0.785111665725708,0.0,-0.019768860191106796
555.0,463.0,0.2261,0.2225,9.6694,-0.0362,0.0197,-0.128,-1.2837523978999634,-0.007141446229070425,0.7557857036590576,-2.199812650680542,-0.0,2.060323476791382,4.954679238587179,-0.0005179360159672797,0.24764549732208252,-1.5832656065570276,0.00022216846991796046,0.02207755297422409,0.8532668948173523,-0.0,0.015323859639465809,0.7850956320762634,0.0,-0.052619174122810364
555.0,463.0,0.2261,0.2225,9.6694,-0.0362,0.0197,-0.128,-1.283880816107132,-0.00781167671084404,0.7376933097839355,-2.199841260910034,-0.0,2.1580281257629395,4.9546590624149225,-0.0004979671793989837,0.2566024959087372,-1.5832656065570276,4.037802536771551e-09,0.030175000429153442,0.853319525718689,-0.0,0.00264516519382596,0.785111665725708,0.0,-0.025449125096201897
555.0,463.0,0.2261,0.2225,9.6694,-0.0362,0.0197,-0.128,-1.2840047639659424,-0.00988853070884943,0.7484468817710876,-2.199777603149414,-0.0,2.0786633491516113,4.954671400576391,-0.0005550367059186101,0.23609663546085358,-1.583198372517721,4.791519692950649e-15,0.03222682327032089,0.8532150983810425,-0.0,0.010705173946917057,0.785111665725708,0.0,-0.0630650520324707
478.0,471.0,0.0275,-0.3027,9.533,-0.057,0.0211,-0.1182,-1.2841449242881318,-0.01317943911999464,0.6772439479827881,-2.199781656265259,-0.0,2.0416688919067383,4.954655381828108,-0.000998454517684877,0.24754683673381805,-1.583289925252096,5.685930882454758e-21,0.03884883597493172,0.8532593846321106,-0.0,0.006182380951941013,0.7851439714431763,0.0,-0.09948459267616272
478.0,471.0,0.0275,-0.3027,9.533,-0.057,0.0211,-0.1182,-1.2842768889716645,-0.017289791256189346,0.6895884871482849,-2.199761152267456,-0.0,2.121333122253418,4.954679670720854,-0.0012813587673008442,0.2345699965953827,-1.5832579771624964,6.747297574562398e-27,0.032931894063949585,0.8532554507255554,-0.0,0.017501231282949448,0.7851074934005737,0.0,-0.1062420904636383
478.0,471.0,0.0275,-0.3027,9.533,-0.057,0.0211,-0.1182,-1.2844452124885102,-0.01967597007751465,0.69353848695755,-2.1997568607330322,-0.0,2.116917610168457,4.954679238587179,-0.0012148043606430292,0.2394222915172577,-1.583261791859762,1.2262878143696238e-31,0.049478817731142044,0.8532992601394653,-0.0,-0.0003775060176849365,0.7851923108100891,0.0,-0.10949206352233887
478.0,471.0,0.0275,-0.3027,9.533,-0.057,0.0211,-0.1182,-1.2845520836165925,-0.022871557623147964,0.6831249594688416,-2.1997528076171875,-0.0,2.0875678062438965,4.954659479647436,-0.0011497715022414923,0.22605541348457336,-1.5832536856280726,1.4551930758860124e-37,0.0360398143529892,0.8532549142837524,-0.0,0.004147440195083618,0.785127580165863,0.0,-0.07508745789527893
478.0,471.0,0.0275,-0.3027,9.533,-0.057,0.0211,-0.1182,-1.2848405700973053,-0.02956145815551281,0.6348491311073303,-2.1997857093811035,-0.0,2.0799567699432373,4.954660001188078,-0.002919816179201007,0.2342737913131714,-1.5832822958575647,1.723597111119525e-43,0.03883594274520874,0.8532471656799316,-0.0,0.0019271369092166424,0.7851197719573975,0.0,-0.06419797986745834
478.0,471.0,0.0275,-0.3027,9.533,-0.057,0.0211,-0.1182,-1.2850683492473145,-0.03586531803011894,0.6317263245582581,-2.199812650680542,-0.0,2.0789403915405273,4.954603495984831,-0.006050001829862595,0.22985604405403137,-1.5832341353045862,0.0,0.048415474593639374,0.8532869815826416,-0.0,0.002150801010429859,0.7851439714431763,0.0,-0.026047945022583008
478.0,471.0,0.0275,-0.3027,9.533,-0.057,0.0211,-0.1182,-1.2855247122100373,-0.04380739852786064,0.6619318723678589,-2.1997692584991455,-0.0,2.043487787246704,4.954567405372419,-0.004520217422395945,0.23728874325752258,-1.5832656065570276,0.0,0.030417680740356445,0.8533554673194885,-0.0,0.0024598687887191772,0.7851601243019104,0.0,-0.10329947620630264
478.0,471.0,0.0275,-0.3027,9.533,-0.057,0.0211,-0.1182,-1.2859490376761933,-0.049315739423036575,0.5874884128570557,-2.199721574783325,0.0013992935419082642,2.134323835372925,4.954555469542303,-0.0011295379372313619,0.23196032643318176,-1.5832541624652308,0.0,0.033949337899684906,0.8532631397247314,-0.0,0.00942125916481018,0.7851637601852417,3.091636244789697e-05,-0.10966609418392181
478.0,471.0,0.0275,-0.3027,9.533,-0.057,0.0211,-0.1182,-1.2865213614753266,-0.058733053505420685,0.6338363885879517,-2.199704885482788,0.001070839469321072,2.1216046810150146,4.954547393112936,-0.0005948186735622585,0.22567056119441986,-1.583249870930807,4.577599156618817e-06,0.0428105965256691,0.8532181978225708,-0.0,0.0051222797483205795,0.7851480841636658,1.2504013113812107e-07,-0.12651824951171875
478.0,471.0,0.0275,-0.3027,9.533,-0.057,0.0211,-0.1182,-1.2869886022857209,-0.06398191303014755,0.603991687297821,-2.199753522872925,0.0009848573245108128,2.075139045715332,4.95454731860713,-0.0004316495615057647,0.2332831770181656,-1.5832904020892542,3.2678915886208415e-05,0.039364252239465714,0.8532828688621521,-0.0,0.012140365317463875,0.7851039171218872,4.051141322766348e-15,-0.1273466944694519
469.0,446.0,-0.265,0.0419,9.4744,-0.0505,-0.0252,-0.122,-1.2876679760268708,-0.06275460124015808,0.627924382686615,-2.1997017860412598,0.0009864607127383351,2.1333413124084473,4.954543235688963,-0.00036423420533537865,0.21932658553123474,-1.5832904020892542,2.9959817766211927e-05,0.044337764382362366,0.8532911539077759,-0.0,0.025891132652759552,0.7850717306137085,1.7609106954219944e-24,-0.08014841377735138
469.0,446.0,-0.265,0.0419,9.4744,-0.0505,-0.0252,-0.122,-1.2883315545371552,-0.0621161088347435,0.5623273849487305,-2.199681282043457,0.0011543999426066875,2.092130184173584,4.9545272318418405,-0.0003001332806888968,0.2168709635734558,-1.5832698980914515,4.10216671298258e-05,0.05250338837504387,0.8533309698104858,-0.0,0.019554978236556053,0.7850914597511292,7.654156619449956e-34,-0.10355669260025024
469.0,446.0,-0.265,0.0419,9.4744,-0.0505,-0.0252,-0.122,-1.2890172761729737,-0.06821514666080475,0.5498303174972534,-2.1996936798095703,0.0008000020170584321,2.094905138015747,4.954483705549993,-0.002490526996552944,0.21114566922187805,-1.5832575003253382,3.8527090509887785e-05,0.06099049374461174,0.8532907962799072,-0.0,0.003341350704431534,0.7850795388221741,-7.4135183240287e-05,-0.10512901842594147
469.0,446.0,-0.265,0.0419,9.4744,-0.0505,-0.0252,-0.122,-1.2895077627948304,-0.07383254915475845,0.5314645171165466,-2.199681282043457,0.001028368598781526,2.1280434131622314,4.954479637532987,-0.002965381136164069,0.20039424300193787,-1.5832784811602991,4.8542529839323834e-05,0.04469900578260422,0.8533190488815308,-0.0,0.020843615755438805,0.7850795388221741,-5.3405503422254696e-05,-0.09082382917404175
469.0,446.0,-0.265,0.0419,9.4744,-0.0505,-0.0252,-0.122,-1.2903248828700562,-0.08347754180431366,0.5509992241859436,-2.199629306793213,0.004917582962661982,2.052960157394409,4.9545316872890375,-0.0013593368930742145,0.21396015584468842,-1.5832541624652308,4.552321843220852e-05,0.06804417073726654,0.8533148765563965,-0.0,0.023109162226319313,0.7851117253303528,-4.1184743167832494e-05,-0.10074879229068756
469.0,446.0,-0.265,0.0419,9.4744,-0.0505,-0.0252,-0.122,-1.2912246745875855,-0.095671147108078,0.49901652336120605,-2.199561834335327,0.007160824257880449,2.0872645378112793,4.9544758824403665,-0.0006449039792641997,0.21710368990898132,-1.5832212607013147,5.351701474864967e-05,0.05457590892910957,0.8533231019973755,-0.0,0.03784254193305969,0.7851601839065552,-4.3898874335993043e-13,-0.08828189969062805
469.0,446.0,-0.265,0.0419,9.4744,-0.0505,-0.0252,-0.122,-1.292232410316803,-0.10888157039880753,0.497797429561615,-2.199481964111328,0.007992864586412907,2.14143443107605,4.954519453435697,-0.00040359271224588156,0.21789026260375977,-1.583249870930807,5.051610787631944e-05,0.05923164635896683,0.8533676862716675,-0.0,0.028957640752196312,0.7850993275642395,-1.9081539341869938e-22,-0.04343258589506149
469.0,446.0,-0.265,0.0419,9.4744,-0.0505,-0.0252,-0.122,-1.2931970220855256,-0.11405712366104126,0.5358870625495911,-2.1994218826293945,0.00807036180049181,2.088752508163452,4.954479697137632,-0.00031066304654814303,0.20770025253295898,-1.5832822958575647,5.4118029169103465e-08,0.057228513062000275,0.8533029556274414,-0.0,0.057255834341049194,0.7851074934005737,-6.182176816963226e-30,-0.09177948534488678
469.0,446.0,-0.265,0.0419,9.4744,-0.0505,-0.0252,-0.122,-1.2942835849574585,-0.11898387968540192,0.5205560922622681,-2.1993348598480225,0.00745386304333806,2.0946409702301025,4.954483705549993,-0.0002814284525811672,0.20143622159957886,-1.5832460562335413,6.421999840548406e-14,0.04973257705569267,0.8533148765563965,0.00016677999519743025,0.03134838491678238,0.785111665725708,-2.6872084079032714e-39,-0.06222589313983917
472.0,8190.0,-0.1436,0.0945,9.6885,-0.0351,-0.0825,-0.1271,-1.2954833668521424,-0.12280838191509247,0.5236670970916748,-2.199281930923462,0.0057372646406292915,2.1074202060699463,4.954491886287489,-0.00022221451217774302,0.19540296494960785,-1.5832575003253382,7.62076328466276e-20,0.05492602288722992,0.8532907366752625,0.00016884354408830404,0.039632219821214676,0.7851197719573975,0.0,-0.032060034573078156
472.0,8190.0,-0.1436,0.0945,9.6885,-0.0351,-0.0825,-0.1271,-1.296437607412674,-0.13185657560825348,0.5189013481140137,-2.199251174926758,0.003971206024289131,2.061547040939331,4.954459878593244,-0.0009887946071103215,0.18646661937236786,-1.583245579396383,1.3850363220621629e-24,0.05502959340810776,0.8532828688621521,0.0001500727521488443,0.040959373116493225,0.785103440284729,0.0,-0.07323706150054932
472.0,8190.0,-0.1436,0.0945,9.6885,-0.0351,-0.0825,-0.1271,-1.297778771524765,-0.1367957442998886,0.47103989124298096,-2.1991865634918213,0.004341021180152893,2.0765533447265625,4.954547735839643,-0.0009214869351126254,0.18546782433986664,-1.5832660833941858,1.643574132449665e-30,0.051583416759967804,0.8533149361610413,0.00015369715401902795,0.04032915458083153,0.7851439714431763,0.0,-0.06018425524234772
472.0,8190.0,-0.1436,0.0945,9.6885,-0.0351,-0.0825,-0.1271,-1.2991703909686585,-0.141978457570076,0.47602230310440063,-2.199162721633911,0.0058061773888766766,2.1160871982574463,4.954519811063566,-0.0005722062778659165,0.18727847933769226,-1.583233658467428,1.9503726719798508e-36,0.04486342519521713,0.8532989025115967,0.00013700670388061553,0.04171574115753174,0.7851678729057312,0.0,-0.03621237725019455
472.0,8190.0,-0.1436,0.0945,9.6885,-0.0351,-0.0825,-0.1271,-1.3006627422622223,-0.1559540331363678,0.4736483693122864,-2.1991233825683594,0.0041004810482263565,2.066964864730835,4.954443532019415,-0.0009127087541855872,0.18946561217308044,-1.5832541624652308,2.3149450630645978e-42,0.044597938656806946,0.8533030152320862,0.0001235697855008766,0.04619733989238739,0.7850952744483948,0.0001666548050707206,-0.013194159604609013
472.0,8190.0,-0.1436,0.0945,9.6885,-0.0351,-0.0825,-0.1271,-1.301905558710434,-0.16431502997875214,0.49927735328674316,-2.1990914344787598,0.0030768183059990406,2.1038317680358887,4.95446394661025,-0.0017011032905429602,0.184363454580307,-1.5832660833941858,0.0,0.05010904371738434,0.8533067107200623,0.00011457993241492659,0.051497191190719604,0.7851518988609314,0.000173066247953102,-0.03528982400894165
472.0,8190.0,-0.1436,0.0945,9.6885,-0.0351,-0.0825,-0.1271,-1.303577945833542,-0.1664082407951355,0.47662976384162903,-2.1990468502044678,0.004474113695323467,2.0903170108795166,4.954439449101248,-0.0012218875344842672,0.17972928285598755,-1.5832374731646937,0.0,0.04378538578748703,0.8532710671424866,0.00010502886289032176,0.04446782171726227,0.7850952744483948,0.00013741801376454532,-0.029985303059220314
472.0,8190.0,-0.1436,0.0945,9.6885,-0.0351,-0.0825,-0.1271,-1.305373178129532,-0.1848565638065338,0.49817758798599243,-2.199035406112671,0.005940998904407024,2.0758705139160156,4.954455870180883,-0.0012072016252204776,0.18314072489738464,-1.583233658467428,0.0,0.044120386242866516,0.8532989025115967,9.694747132016346e-05,0.0354086309671402,0.7851555347442627,0.0001490846771048382,-0.004621724132448435
472.0,8190.0,-0.1436,0.0945,9.6885,-0.0351,-0.0825,-0.1271,-1.307405249481537,-0.20070919394493103,0.41890254616737366,-2.198923349380493,0.009147152304649353,2.0543525218963623,4.954492303520002,-0.0012891117949038744,0.18251830339431763,-1.583245579396383,0.0,0.040859825909137726,0.8532181978225708,9.002105798572302e-05,0.020403141155838966,0.785176157951355,-7.379448652500287e-05,-0.009111980907619
472.0,8190.0,-0.1436,0.0945,9.6885,-0.0351,-0.0825,-0.1271,-1.309052274828293,-0.19954968988895416,0.45310264825820923,-2.1988561153411865,0.015319581143558025,2.0586369037628174,4.954475867539205,-0.0007818882004357874,0.16924341022968292,-1.583249870930807,0.0,0.03395739942789078,0.8533313274383545,8.515388617524877e-05,0.029097892343997955,0.7851074934005737,-6.011304503772408e-05,-0.025972915813326836
483.0,8190.0,-0.1549,-0.1657,9.2219,-0.0594,-0.1498,-0.1156,-1.3112397950938721,-0.21905671060085297,0.4362158179283142,-2.198688268661499,0.0196632482111454,2.103792667388916,4.954435783415594,-0.0003896064299624413,0.1798524558544159,-1.5832575003253382,0.0,0.03348249942064285,0.853327214717865,7.976331835379824e-05,0.04003202170133591,0.7851518988609314,-4.506189361563884e-05,-0.014908154495060444
483.0,8190.0,-0.1549,-0.1657,9.2219,-0.0594,-0.1498,-0.1156,-1.3135558527759095,-0.23684050142765045,0.4166044592857361,-2.19840407371521,0.023810748010873795,2.09922456741333,4.954443532019415,-0.0003255966876167804,0.19480428099632263,-1.5832660833941858,0.0,0.051870815455913544,0.8532907366752625,7.501450454583392e-05,0.031550683081150055,0.7851279973983765,-4.788105675834764e-13,-0.01822846382856369
483.0,8190.0,-0.1549,-0.1657,9.2219,-0.0594,-0.1498,-0.1156,-1.3154626053622742,-0.2315182387828827,0.4806180000305176,-2.198185920715332,0.031087687239050865,2.0981240272521973,4.954475867539205,-0.00021899383864365518,0.2043675184249878,-1.5832298437701624,0.0,0.033775344491004944,0.8533390760421753,7.160411041695625e-05,0.03863542526960373,0.7851238250732422,-1.551285311935285e-20,0.010687197558581829
483.0,8190.0,-0.1549,-0.1657,9.2219,-0.0594,-0.1498,-0.1156,-1.3178173464587708,-0.24862942099571228,0.44466859102249146,-2.1978254318237305,0.039063647389411926,2.0897467136383057,4.954427513271131,-0.00019308537594042718,0.17178772389888763,-1.5832493940936487,0.0,0.02417811006307602,0.8533189296722412,7.584629457824121e-08,0.033317308872938156,0.7851799130439758,-6.742975643322447e-30,-0.042967237532138824
483.0,8190.0,-0.1549,-0.1657,9.2219,-0.0594,-0.1498,-0.1156,-1.3203900915435334,-0.25312793254852295,0.4440157413482666,-2.197504997253418,0.043680135160684586,2.1153922080993652,4.954443949251928,-0.00017653874238021672,0.20184674859046936,-1.5832660833941858,0.0,0.04031084477901459,0.8532989025115967,9.000416921088258e-14,0.032793961465358734,0.7851436734199524,-2.930971282264895e-39,-0.02386496029794216
483.0,8190.0,-0.1549,-0.1657,9.2219,-0.0594,-0.1498,-0.1156,-1.322828323846199,-0.260070264339447,0.45649126172065735,-2.1969168186187744,0.05589992180466652,2.136286735534668,4.954479950457372,-0.00010159625526284799,0.20231713354587555,-1.5832575003253382,1.3247956758277724e-06,0.042895182967185974,0.8533231019973755,1.0680483044746241e-19,0.03119027614593506,0.7851717472076416,0.0,-0.04036403447389603
483.0,8190.0,-0.1549,-0.1657,9.2219,-0.0594,-0.1498,-0.1156,-1.3249887388995667,-0.2608981728553772,0.499233603477478,-2.1964550018310547,0.0655326396226883,2.1534786224365234,4.954523864179411,-6.825280433986336e-05,0.196294367313385,-1.5832985083209437,2.407751081845433e-11,0.0261332206428051,0.8533837199211121,1.941124983143603e-24,0.04068213701248169,0.7851437330245972,0.0,-0.032760102301836014
483.0,8190.0,-0.1549,-0.1657,9.2219,-0.0594,-0.1498,-0.1156,-1.327596591120102,-0.2619783282279968,0.503449559211731,-2.1957929134368896,0.07263422757387161,2.1572046279907227,4.954459863692083,5.1914918003603816e-05,0.20105984807014465,-1.5833466688739222,2.85719466319371e-17,0.025921598076820374,0.8532869815826416,2.3034660041086277e-30,0.033097174018621445,0.7851675748825073,0.001244842424057424,0.008407004177570343
483.0,8190.0,-0.1549,-0.1657,9.2219,-0.0594,-0.1498,-0.1156,-1.3301550459912796,-0.27341988682746887,0.4593712091445923,-2.1949987411499023,0.07071416825056076,2.098068952560425,4.954491886287489,4.537251152214594e-05,0.19975316524505615,-1.5833023230182093,3.3905342680594956e-23,0.03540794923901558,0.8533557653427124,2.733443723845446e-36,0.017884425818920135,0.7851593494415283,0.002123704180121422,0.05239992216229439
466.0,604.0,0.4421,-0.0048,10.6271,-0.0321,-0.1856,-0.1043,-1.3328226667693635,-0.2727716565132141,0.5162608623504639,-2.1942927837371826,0.07435248047113419,2.1285457611083984,4.95452760437087,0.0004838925669901073,0.2025938630104065,-1.5832575003253382,4.023430455090547e-29,0.029576309025287628,0.8533024787902832,3.2440059449119515e-42,0.023592963814735413,0.7852441668510437,0.001418032217770815,0.07042843103408813
466.0,604.0,0.4421,-0.0048,10.6271,-0.0321,-0.1856,-0.1043,-1.3349823665669938,-0.2659865915775299,0.5160982012748718,-2.193687677383423,0.07969821244478226,2.1074395179748535,4.954479637532987,0.001236980315297842,0.21274879574775696,-1.5832293669330042,7.312386228723184e-34,0.024407874792814255,0.8532989025115967,0.0,0.03350366652011871,0.7852359414100647,0.0007168418960645795,-0.03953568637371063
466.0,604.0,0.4421,-0.0048,10.6271,-0.0321,-0.1856,-0.1043,-1.337692068224289,-0.2728389799594879,0.5352332592010498,-2.192805767059326,0.0885598286986351,2.1647555828094482,4.954467358976164,0.0006649610586464405,0.21675843000411987,-1.5832818190204065,8.677358571531067e-40,0.011737970635294914,0.8533517122268677,0.0,0.029473647475242615,0.7851876616477966,0.0009131376864388585,-0.007045425474643707
466.0,604.0,0.4421,-0.0048,10.6271,-0.0321,-0.1856,-0.1043,-1.340553418999054,-0.2755899429321289,0.5818681716918945,-2.191796064376831,0.10231997817754745,2.1667823791503906,4.9545075474079034,0.0004547811404336244,0.23041987419128418,-1.5832698980914515,1.401298464324817e-45,0.025064881891012192,0.8532832264900208,0.0,0.04352353513240814,0.7851834893226624,0.0013106762198731303,-0.015739034861326218
466.0,604.0,0.4421,-0.0048,10.6271,-0.0321,-0.1856,-0.1043,-1.3428836327842255,-0.28987228870391846,0.5733693838119507,-2.1910037994384766,0.11190121620893478,2.168470621109009,4.9544918713863275,0.0003178599290549755,0.22091731429100037,-1.5833547751056116,0.0,0.014191173948347569,0.8533024787902832,0.0,0.03065638057887554,0.7852759957313538,0.0009710909798741341,0.03863789513707161
466.0,604.0,0.4421,-0.0048,10.6271,-0.0321,-0.1856,-0.1043,-1.3459024292281647,-0.29252713918685913,0.5713434219360352,-2.1897988319396973,0.11788014322519302,2.1539785861968994,4.954535814910688,0.0002536777756176889,0.21950064599514008,-1.5832942167865198,0.0,0.01666785590350628,0.8532590270042419,0.0,0.03436178341507912,0.7852641344070435,0.0004865008231718093,0.05313258618116379
466.0,604.0,0.4421,-0.0048,10.6271,-0.0321,-0.1856,-0.1043,-1.3488396120122452,-0.29999664425849915,0.5463842153549194,-2.1885623931884766,0.1192145124077797,2.204102039337158,4.954539510398664,0.00024118550936691463,0.21884295344352722,-1.583306137715475,0.0,0.021825291216373444,0.8533434867858887,0.0,0.04210400581359863,0.7852195501327515,0.00037890285602770746,0.000669955275952816
466.0,604.0,0.4421,-0.0048,10.6271,-0.0321,-0.1856,-0.1043,-1.351865531211235,-0.29785194993019104,0.6117008924484253,-2.187286138534546,0.12563422322273254,2.1792776584625244,4.954567837506094,0.00018107703363057226,0.20610234141349792,-1.583278004323141,0.0,0.024711010977625847,0.853246808052063,0.0,0.03136756271123886,0.7852479815483093,0.00038800761103630066,0.03337528556585312
466.0,604.0,0.4421,-0.0048,10.6271,-0.0321,-0.1856,-0.1043,-1.3542845708182831,-0.3050706386566162,0.6061352491378784,-2.1863417625427246,0.1291731595993042,2.1675660610198975,4.9544918713863275,0.00010692661453504115,0.21906939148902893,-1.5833099524127405,0.0,0.022941330447793007,0.8533108234405518,0.0,0.018145471811294556,0.7852112650871277,0.00030613571288995445,0.010272788815200329
466.0,604.0,0.4421,-0.0048,10.6271,-0.0321,-0.1856,-0.1043,-1.357260824447014,-0.3047046959400177,0.5810258984565735,-2.184969425201416,0.13830818235874176,2.2259576320648193,4.954455870180883,4.3247790017630905e-05,0.20890969038009644,-1.5833056608783167,0.0,0.012639816850423813,0.853339433670044,0.0,0.031061414629220963,0.7852477431297302,0.00023851817240938544,-0.022497523576021194
558.0,676.0,1.0409,0.2028,9.679,-0.0449,-0.1715,-0.1126,-1.360327811246254,-0.31344759464263916,0.6064001321792603,-2.1834816932678223,0.1374085545539856,2.1848340034484863,4.9545075474079034,3.860930155497044e-05,0.20991188287734985,-1.5832861105548304,0.0,0.037782564759254456,0.8532348275184631,0.0,0.023363547399640083,0.785280168056488,0.00019536903710104525,-0.013657943345606327
558.0,676.0,1.0409,0.2028,9.679,-0.0449,-0.1715,-0.1126,-1.3634264332107087,-0.3171341121196747,0.5743976831436157,-2.1820881366729736,0.1433260440826416,2.250951051712036,4.954467463284292,3.4869543014792725e-05,0.22197628021240234,-1.5832980314837855,0.0,0.03561512380838394,0.8533070683479309,0.0,0.03095184452831745,0.7852559089660645,0.00016544030222576112,0.005185223184525967
558.0,676.0,1.0409,0.2028,9.679,-0.0449,-0.1715,-0.1126,-1.3658996981433411,-0.3128286600112915,0.6083595752716064,-2.1808907985687256,0.1479300558567047,2.2943973541259766,4.954479652434149,3.2361851481255144e-05,0.20360448956489563,-1.5832741896258753,0.0,0.027959438040852547,0.853270947933197,8.854581210471224e-06,0.03334951773285866,0.7852038145065308,0.00012282053648959845,0.019489755854010582
558.0,676.0,1.0409,0.2028,9.679,-0.0449,-0.1715,-0.1126,-1.3690617245486756,-0.31723320484161377,0.6061282753944397,-2.179394483566284,0.15261054039001465,2.190993309020996,4.954511645227232,4.3553372961468995e-05,0.2078022062778473,-1.583289925252096,0.0,0.025673190131783485,0.8532989025115967,1.0507425658723424e-11,0.02618066780269146,0.7852115035057068,0.00012968224473297596,-0.03218008205294609
558.0,676.0,1.0409,0.2028,9.679,-0.0449,-0.1715,-0.1126,-1.372315139775612,-0.31417354941368103,0.6364415287971497,-2.1778244972229004,0.16126064956188202,2.238396167755127,4.954491573363104,5.4626245400868356e-05,0.20248723030090332,-1.583278004323141,0.0,0.03990674018859863,0.853306770324707,1.2468795649351844e-17,0.01613832823932171,0.7852276563644409,0.00011577995610423386,-0.008921168744564056
558.0,676.0,1.0409,0.2028,9.679,-0.0449,-0.1715,-0.1126,-1.374985547070839,-0.3270949125289917,0.6378713250160217,-2.1765830516815186,0.16580568253993988,2.238060712814331,4.954471799522199,3.8810158002888784e-05,0.20795148611068726,-1.5832818190204065,0.0,0.02652766928076744,0.8532951474189758,2.26614191598442e-22,0.0174306258559227,0.7852520942687988,8.910547330742702e-05,-0.03735755756497383
558.0,676.0,1.0409,0.2028,9.679,-0.0449,-0.1715,-0.1126,-1.378324107532837,-0.3252285420894623,0.712425708770752,-2.174894332885742,0.17025835812091827,2.2603020668029785,4.954491811781683,-1.1657228071726422e-08,0.21598348021507263,-1.5832660833941858,0.0,0.02318800985813141,0.8533029556274414,2.6891521479648356e-28,0.013533355668187141,0.7852678298950195,8.087690366664901e-05,-0.001984825124964118
558.0,676.0,1.0409,0.2028,9.679,-0.0449,-0.1715,-0.1126,-1.381602243786194,-0.33419716358184814,0.6797980070114136,-2.17315411567688,0.17100752890110016,2.2629623413085938,4.954555797367849,-1.383322794555825e-14,0.2337144911289215,-1.5832980314837855,0.0,0.028909306973218918,0.8532668948173523,3.19112392731562e-34,0.018938258290290833,0.7852274179458618,8.904199057724327e-05,-0.0819709300994873
558.0,676.0,1.0409,0.2028,9.679,-0.0449,-0.1715,-0.1126,-1.3848682951978226,-0.33075177669525146,0.6746848821640015,-2.1715171337127686,0.17992672324180603,2.227315902709961,4.954463678389349,-1.6415415411986173e-20,0.2291540950536728,-1.583278004323141,0.0,0.035011231899261475,0.8532910943031311,3.7867989050681694e-40,0.0026667085476219654,0.7852438688278198,6.855581887066364e-05,-0.08027508854866028
638.0,932.0,1.1641,-0.1478,9.5186,-0.049,-0.1562,-0.113,-1.387498216038086,-0.3281813859939575,0.6575151681900024,-2.17004132270813,0.1851586103439331,2.276641607284546,4.954547661333837,-2.9834204210679944e-25,0.21986645460128784,-1.5832861105548304,0.0,0.043134719133377075,0.853270947933197,7.006492321624085e-45,0.013629601337015629,0.7852318286895752,5.2209481509635225e-05,-0.08341574668884277
638.0,932.0,1.1641,-0.1478,9.5186,-0.049,-0.1562,-0.113,-1.3907232743552704,-0.32519471645355225,0.7564792633056641,-2.16809344291687,0.18906885385513306,2.284733772277832,4.954511630326071,-3.5403221474590933e-31,0.22215929627418518,-1.583278004323141,0.0,0.01750814914703369,0.8532829284667969,0.0,0.023025814443826675,0.7852438688278198,1.4291716979641933e-05,-0.10821374505758286
638.0,932.0,1.1641,-0.1478,9.5186,-0.049,-0.1562,-0.113,-1.3938496124795456,-0.3261810839176178,0.7306796312332153,-2.166203260421753,0.2029004544019699,2.311725378036499,4.9544997093971155,-4.201177546576924e-37,0.226010262966156,-1.5832937399493616,0.0,0.03331434726715088,0.853319525718689,0.0,-0.003044465556740761,0.7852277159690857,2.6480762244318612e-05,-0.020458325743675232
638.0,932.0,1.1641,-0.1478,9.5186,-0.049,-0.1562,-0.113,-1.3971486252597352,-0.3230043053627014,0.7957756519317627,-2.164132595062256,0.2114982157945633,2.2985525131225586,4.954511630326071,-4.988622532996349e-43,0.22507840394973755,-1.5833023230182093,0.0,0.03343125432729721,0.8532348871231079,0.0,0.020313140004873276,0.785203754901886,2.282537936437734e-09,-0.06070127338171005
638.0,932.0,1.1641,-0.1478,9.5186,-0.049,-0.1562,-0.113,-1.399702565079071,-0.32616838812828064,0.7475405335426331,-2.162432909011841,0.21360653638839722,2.282864809036255,4.954527261644163,-0.0,0.22467410564422607,-1.5833223501788538,0.0,0.02732381969690323,0.8533071279525757,0.0,0.013392273336648941,0.785271942615509,7.395132980822486e-17,-0.09134948998689651
638.0,932.0,1.1641,-0.1478,9.5186,-0.049,-0.1562,-0.113,-1.403011069898941,-0.3171312212944031,0.8143393993377686,-2.1601483821868896,0.23323236405849457,2.2953710556030273,4.954559656768598,0.0007393091800622642,0.22944076359272003,-1.5832698980914515,0.0,0.05544263869524002,0.8532989621162415,0.0,-0.0035451229196041822,0.7852641344070435,3.214444253618757e-26,-0.0802379846572876
638.0,932.0,1.1641,-0.1478,9.5186,-0.049,-0.1562,-0.113,-1.4063632947257538,-0.3300853669643402,0.8439919948577881,-2.1578123569488525,0.2305167019367218,2.258234977722168,4.954507845431127,-0.00024295735056512058,0.23789644241333008,-1.5832698980914515,0.0,0.0269976407289505,0.8532430529594421,0.0,0.0008397605852223933,0.7852801084518433,1.3972235511687317e-35,-0.05546427145600319
638.0,932.0,1.1641,-0.1478,9.5186,-0.049,-0.1562,-0.113,-1.4090027970126648,-0.32813867926597595,0.8675523400306702,-2.1558356285095215,0.23640993237495422,2.313343048095703,4.954515430122175,-8.464340339742193e-07,0.2393006980419159,-1.5833223501788538,0.0,0.041969649493694305,0.8533152341842651,0.0,0.009187093935906887,0.7852397561073303,4.526194039769159e-43,-0.11685116589069366
638.0,932.0,1.1641,-0.1478,9.5186,-0.049,-0.1562,-0.113,-1.4122712326100846,-0.33696702122688293,0.773259162902832,-2.1534128189086914,0.2547989785671234,2.304102897644043,4.95446768680171,0.0002389881992712617,0.24294397234916687,-1.5832374731646937,0.0,0.031146369874477386,0.8533111810684204,0.0,0.0025398493744432926,0.7852397561073303,0.0,-0.0709400475025177
638.0,932.0,1.1641,-0.1478,9.5186,-0.049,-0.1562,-0.113,-1.4155795884183426,-0.32863372564315796,0.8419941663742065,-2.1508543491363525,0.24358592927455902,2.3194360733032227,4.954455542355337,4.5450179730899265e-10,0.21754832565784454,-1.5832575003253382,0.0,0.0420302078127861,0.8532910346984863,0.0,-0.00537424860522151,0.7852357029914856,0.0,-0.10704007744789124
852.0,8190.0,1.4824,-0.1633,9.5964,-0.0544,-0.0921,-0.1165,-1.4188720744899292,-0.3263864815235138,0.8854551315307617,-2.148273468017578,0.26100480556488037,2.3493924140930176,4.954531433969297,0.0005577686824835837,0.23351404070854187,-1.5832698980914515,0.0,0.04316040128469467,0.8532549738883972,0.0,0.009777517057955265,0.7853083610534668,0.0,-0.12643904983997345
852.0,8190.0,1.4824,-0.1633,9.5964,-0.0544,-0.0921,-0.1165,-1.4214237046292801,-0.32221630215644836,0.9143027067184448,-2.1462042331695557,0.2660461664199829,2.3394391536712646,4.954463678389349,0.00030065811006352305,0.23265282809734344,-1.5832904020892542,0.0,0.04068542644381523,0.8533152937889099,0.0,-0.0033063688315451145,0.7852357029914856,0.0,-0.06364326924085617
852.0,8190.0,1.4824,-0.1633,9.5964,-0.0544,-0.0921,-0.1165,-1.4245793533376236,-0.3233141005039215,0.8796756267547607,-2.1435399055480957,0.26265108585357666,2.3326752185821533,4.954507562309065,7.3532744337967415e-09,0.22462886571884155,-1.583261791859762,0.0,0.03988881781697273,0.8532750606536865,0.0,-0.006181485019624233,0.7852156758308411,0.0,-0.09298347681760788
852.0,8190.0,1.4824,-0.1633,9.5964,-0.0544,-0.0921,-0.1165,-1.4277673971704026,-0.32108041644096375,0.9149370789527893,-2.1408886909484863,0.27537909150123596,2.3216195106506348,4.95451948323802,8.725878465696679e-15,0.22011703252792358,-1.583306137715475,0.0,0.039527278393507004,0.8532874584197998,0.0,0.0027438048273324966,0.785268247127533,0.0,-0.1115330308675766
852.0,8190.0,1.4824,-0.1633,9.5964,-0.0544,-0.0921,-0.1165,-1.4310368609479447,-0.31825146079063416,0.9006152153015137,-2.13811993598938,0.2805177569389343,2.376755714416504,4.954511630326071,1.0354700222314219e-20,0.23193708062171936,-1.5832904020892542,0.0,0.05685809254646301,0.853226363658905,0.0,-0.00045707306708209217,0.7852641344070435,0.0,-0.0930759608745575
852.0,8190.0,1.4824,-0.1633,9.5964,-0.0544,-0.0921,-0.1165,-1.4336438190988083,-0.31315645575523376,0.937964141368866,-2.1358323097229004,0.283620148897171,2.3573670387268066,4.95455955246047,0.00013058878539595753,0.2318481206893921,-1.5832698980914515,0.0,0.03988796845078468,0.8533030152320862,0.0,0.0017037970246747136,0.785268247127533,0.0,-0.12340046465396881
852.0,8190.0,1.4824,-0.1633,9.5964,-0.0544,-0.0921,-0.1165,-1.4369406265071412,-0.3219464123249054,0.9133281111717224,-2.132995367050171,0.30450674891471863,2.3695619106292725,4.954507562309065,0.00022227173030842096,0.23601248860359192,-1.5832980314837855,0.0,0.04388820007443428,0.8533030152320862,0.0,0.0018532110843807459,0.7852438688278198,0.0,-0.12505078315734863
852.0,8190.0,1.4824,-0.1633,9.5964,-0.0544,-0.0921,-0.1165,-1.4402322483113785,-0.3220466375350952,0.9592958688735962,-2.1300034523010254,0.2952527105808258,2.30578875541687,4.954479637532987,2.576061808312602e-09,0.2412727177143097,-1.5832536856280726,0.0,0.02767818793654442,0.8532911539077759,0.0,-0.0011885443236678839,0.7852397561073303,0.0,-0.13459375500679016
852.0,8190.0,1.4824,-0.1633,9.5964,-0.0544,-0.0921,-0.1165,-1.4434722524932404,-0.331722229719162,0.9496417045593262,-2.126983880996704,0.3069744408130646,2.3903801441192627,4.9544595805700204,3.056923695432404e-15,0.23431549966335297,-1.5832698980914515,0.0,0.041643135249614716,0.8533074259757996,0.0,-0.0003101350739598274,0.7852033376693726,0.0,-0.1501779407262802
872.0,8190.0,1.264,0.143,9.8387,-0.0699,-0.0151,-0.12,-1.4460883152535935,-0.327723890542984,0.9835725426673889,-2.124523162841797,0.3054679036140442,2.3957905769348145,4.954523759871282,5.555807051826427e-20,0.22891733050346375,-1.5832861105548304,0.0,0.04697415977716446,0.8532471060752869,0.0,-0.004957776516675949,0.785260021686554,0.0,-0.10059428215026855
872.0,8190.0,1.264,0.143,9.8387,-0.0699,-0.0151,-0.12,-1.449325719182827,-0.3277546763420105,0.9647073745727539,-2.121443748474121,0.3079032003879547,2.382702112197876,4.9545078603322885,6.592884061266811e-26,0.21944020688533783,-1.5832980314837855,0.0,0.029794998466968536,0.8532509207725525,0.0,-0.003917271737009287,0.7852718830108643,0.0,-0.13977113366127014
872.0,8190.0,1.264,0.143,9.8387,-0.0699,-0.0151,-0.12,-1.452488550250866,-0.32021477818489075,0.9733937978744507,-2.1182963848114014,0.3107825219631195,2.4201135635375977,4.954515713244238,-2.079570293744837e-09,0.23376330733299255,-1.5832660833941858,0.0,0.05024546757340431,0.8532430529594421,0.0,-0.008049741387367249,0.7852438688278198,0.0,-0.14087119698524475
872.0,8190.0,1.264,0.143,9.8387,-0.0699,-0.0151,-0.12,-1.455001288359501,-0.3208591639995575,1.0328452587127686,-2.115811824798584,0.3141465485095978,2.3519253730773926,4.954455795675077,-3.779516914823207e-14,0.2416742444038391,-1.5833099524127405,0.0,0.04016344994306564,0.8532264232635498,0.0,-0.0018418700201436877,0.7852922081947327,0.0,-0.07411827892065048
872.0,8190.0,1.264,0.143,9.8387,-0.0699,-0.0151,-0.12,-1.458140791659691,-0.319096177816391,1.0118132829666138,-2.1126482486724854,0.3133871555328369,2.365312337875366,4.9545316872890375,-4.4850220719939596e-20,0.24325630068778992,-1.5833023230182093,0.0,0.026096772402524948,0.8532869815826416,0.0,-0.007899987511336803,0.7852236032485962,0.0,-0.0491233766078949
872.0,8190.0,1.264,0.143,9.8387,-0.0699,-0.0151,-0.12,-1.461309203212597,-0.31510794162750244,1.06022047996521,-2.109553098678589,0.31812751293182373,2.3706297874450684,4.954527634173193,-5.322220811503827e-26,0.2377811074256897,-1.5833142439471644,0.0,0.041026778519153595,0.8532630801200867,0.0,-0.002148391678929329,0.7852678298950195,0.0,-0.10625457763671875
872.0,8190.0,1.264,0.143,9.8387,-0.0699,-0.0151,-0.12,-1.4644641739181061,-0.30618932843208313,1.0599411725997925,-2.106381893157959,0.3217960298061371,2.381279706954956,4.954511630326071,-6.315695460350811e-32,0.242373526096344,-1.5833142439471644,0.0,0.047293417155742645,0.853267252445221,0.0,-0.004622516222298145,0.7852559089660645,0.0,-0.14043444395065308
872.0,8190.0,1.264,0.143,9.8387,-0.0699,-0.0151,-0.12,-1.4670014765909691,-0.3081543445587158,1.0907810926437378,-2.1037979125976562,0.3287411630153656,2.3938562870025635,4.954507562309065,-1.1478463958095274e-36,0.22793510556221008,-1.5832980314837855,0.0,0.03574301302433014,0.8532832264900208,0.0,-0.006757886614650488,0.7852678298950195,0.0,-0.10683878511190414
872.0,8190.0,1.264,0.143,9.8387,-0.0699,-0.0151,-0.12,-1.4701826584390183,-0.31283408403396606,1.1731868982315063,-2.100497007369995,0.3316192328929901,2.3812341690063477,4.954484078079023,-1.3620621073237222e-42,0.23891228437423706,-1.5833099524127405,0.0,0.03627099096775055,0.8532869815826416,0.0,0.00038577988743782043,0.7852315306663513,0.0,-0.09391961991786957
872.0,8190.0,1.264,0.143,9.8387,-0.0699,-0.0151,-0.12,-1.4733554434827347,-0.31704020500183105,1.1281417608261108,-2.0971827507019043,0.3337198495864868,2.422412157058716,4.954515713244238,-0.0,0.2224193513393402,-1.5833023230182093,0.0,0.040014851838350296,0.8532471060752869,0.0,0.008175870403647423,0.7853042483329773,0.0,-0.11771825700998306
846.0,850.0,1.3047,0.2351,10.0696,-0.0267,0.0159,-0.1294,-1.4765088197639962,-0.3116956949234009,1.1492505073547363,-2.0937883853912354,0.3303731679916382,2.408108949661255,4.954463633685865,-0.0,0.23987996578216553,-1.5833104292498987,0.0,0.03821708261966705,0.8532549142837524,0.0,0.002758891088888049,0.785260021686554,0.0,-0.1077326089143753
846.0,850.0,1.3047,0.2351,10.0696,-0.0267,0.0159,-0.1294,-1.4789586973241349,-0.31077027320861816,1.154717206954956,-2.0911507606506348,0.3360937833786011,2.408653974533081,4.954459565668859,-0.0,0.2394910752773285,-1.583261791859762,0.0,0.037885792553424835,0.8532910346984863,-1.4901756628660223e-07,0.012368003837764263,0.7852562069892883,0.0,-0.07798545807600021
846.0,850.0,1.3047,0.2351,10.0696,-0.0267,0.0159,-0.1294,-1.4820038986257096,-0.29974451661109924,1.1914098262786865,-2.0877652168273926,0.32513657212257385,2.3768911361694336,4.954471799522199,-0.0,0.24567186832427979,-1.5832861105548304,0.0,0.03152695298194885,0.8532348871231079,-1.7683397064358064e-13,0.012626550160348415,0.7852236032485962,0.0,-0.09288151562213898
846.0,850.0,1.3047,0.2351,10.0696,-0.0267,0.0159,-0.1294,-1.4849246007255097,-0.29695257544517517,1.2388253211975098,-2.0844035148620605,0.33103346824645996,2.418571710586548,4.954519766360082,-0.0,0.24171730875968933,-1.5832784811602991,0.0,0.029613114893436432,0.8532951474189758,-2.0984271915944955e-19,0.0009215777390636504,0.7852197885513306,0.0,-0.08021427690982819
846.0,850.0,1.3047,0.2351,10.0696,-0.0267,0.0159,-0.1294,-1.4872912180474778,-0.29184257984161377,1.227055549621582,-2.0818288326263428,0.330923467874527,2.4174256324768066,4.954503792315283,-0.0,0.24931101500988007,-1.5832698980914515,0.0,0.03488653153181076,0.8532791137695312,-3.8137874893362426e-24,0.011244580149650574,0.7852842807769775,0.0,-0.07867349684238434
846.0,850.0,1.3047,0.2351,10.0696,-0.0267,0.0159,-0.1294,-1.490031251018383,-0.28261491656303406,1.2285830974578857,-2.0785441398620605,0.3281606435775757,2.4082188606262207,4.9545000968273065,-0.00010880116315092891,0.24332591891288757,-1.583278004323141,0.0,0.02243133634328842,0.8533029556274414,-4.525690490326841e-30,0.000490592559799552,0.785280168056488,0.0,-0.14272981882095337
846.0,850.0,1.3047,0.2351,10.0696,-0.0267,0.0159,-0.1294,-1.492934027021267,-0.27987679839134216,1.291369080543518,-2.0752174854278564,0.33208155632019043,2.423501491546631,4.954435395985403,-0.0001216465316247195,0.2369588017463684,-1.5832942167865198,0.0,0.034313835203647614,0.8532829284667969,-5.3704791895425655e-36,0.00965799018740654,0.7852400541305542,0.0,-0.0932510495185852
846.0,850.0,1.3047,0.2351,10.0696,-0.0267,0.0159,-0.1294,-1.495722511117794,-0.27078208327293396,1.267404556274414,-2.0719687938690186,0.3368679881095886,2.4151787757873535,4.954443546920576,-9.091271931538358e-05,0.24386584758758545,-1.583261791859762,0.0,0.023374248296022415,0.8533030152320862,-6.373105415749268e-42,0.006404814310371876,0.7852356433868408,0.0,-0.08662170171737671
846.0,850.0,1.3047,0.2351,10.0696,-0.0267,0.0159,-0.1294,-1.4980131548694153,-0.2734333872795105,1.302348017692566,-2.069378614425659,0.3328704535961151,2.3999369144439697,4.954435783415594,-0.0001319360308116302,0.2411687672138214,-1.5832904020892542,0.0,0.03620602935552597,0.8532951474189758,-0.0,-0.009198080748319626,0.7852317690849304,0.0,-0.03790803998708725
775.0,926.0,1.0229,-0.1023,9.5007,-0.0269,0.0768,-0.1144,-1.5008299139193078,-0.27953094244003296,1.3291809558868408,-2.0660297870635986,0.33863720297813416,2.38588285446167,4.954443546920576,-9.378360118716955e-05,0.23383578658103943,-1.583261791859762,0.0,0.027410458773374557,0.8533030152320862,-0.0,-0.0008527509053237736,0.7852235436439514,0.0,-0.14115729928016663
775.0,926.0,1.0229,-0.1023,9.5007,-0.0269,0.0768,-0.1144,-1.5036234644106408,-0.2770116329193115,1.2421172857284546,-2.0625598430633545,0.32877135276794434,2.4168834686279297,4.954475852638044,-7.473360165022314e-05,0.2279001623392105,-1.5832417646991175,0.0,0.047408733516931534,0.8532791137695312,-0.0,0.004989603068679571,0.7852880954742432,0.0,-0.06395965814590454
775.0,926.0,1.0229,-0.1023,9.5007,-0.0269,0.0768,-0.1144,-1.5063808944872399,-0.27647221088409424,1.2738498449325562,-2.0592832565307617,0.3309718072414398,2.4411780834198,4.954415324121275,-6.186085374793038e-05,0.22408434748649597,-1.5832374731646937,0.0,0.03642734885215759,0.8532710075378418,-0.0,0.0037850001826882362,0.785271942615509,0.0,-0.07503034174442291
775.0,926.0,1.0229,-0.1023,9.5007,-0.0269,0.0768,-0.1144,-1.5085304614952584,-0.27298539876937866,1.3027076721191406,-2.056689500808716,0.31864839792251587,2.4287009239196777,4.954407843738355,-0.0004352304677013308,0.22430536150932312,-1.5832861105548304,0.0,0.056204862892627716,0.8532471656799316,-0.0,0.010843167081475258,0.7852438688278198,0.0,-0.13548508286476135
775.0,926.0,1.0229,-0.1023,9.5007,-0.0269,0.0768,-0.1144,-1.5112204079381009,-0.27341657876968384,1.3426867723464966,-2.053475856781006,0.32073113322257996,2.3651845455169678,4.954443546920576,-0.00033021910348907113,0.24310702085494995,-1.5832660833941858,0.0,0.0557430274784565,0.8532710075378418,-0.0,0.012906000949442387,0.7852801084518433,0.0,-0.1110348328948021
775.0,926.0,1.0229,-0.1023,9.5007,-0.0269,0.0768,-0.1144,-1.5138177958181878,-0.2614666521549225,1.3584524393081665,-2.0503270626068115,0.3221811056137085,2.3428406715393066,4.9544398514326,-0.00024184500216506422,0.23446477949619293,-1.5832536856280726,0.0,0.05418698489665985,0.8532750606536865,-0.0,0.014260746538639069,0.7852880954742432,0.0,-0.09100013971328735
775.0,926.0,1.0229,-0.1023,9.5007,-0.0269,0.0768,-0.1144,-1.515921001588442,-0.25994786620140076,1.3529295921325684,-2.047722578048706,0.31490230560302734,2.4287376403808594,4.954463961511411,-0.00021297045168466866,0.22177651524543762,-1.5832575003253382,0.0,0.0385768786072731,0.8532471656799316,-0.0,0.007272718474268913,0.7852678298950195,0.0,-0.10431520640850067
775.0,926.0,1.0229,-0.1023,9.5007,-0.0269,0.0768,-0.1144,-1.518465382312872,-0.26176732778549194,1.3859796524047852,-2.0446128845214844,0.31127578020095825,2.447019100189209,4.95446406581954,-0.00023518103989772499,0.23150266706943512,-1.583245579396383,0.0,0.03698620945215225,0.8532058596611023,-0.0,0.008559467270970345,0.7852716445922852,0.0,-0.12036575376987457
775.0,926.0,1.0229,-0.1023,9.5007,-0.0269,0.0768,-0.1144,-1.521036272203066,-0.2601070702075958,1.3135943412780762,-2.041539430618286,0.31319740414619446,2.349513530731201,4.954488190799513,-0.00020363835210446268,0.22005800902843475,-1.5833023230182093,0.0,0.030867382884025574,0.8532631397247314,-0.0,0.012099247425794601,0.7852678298950195,0.0,-0.10000861436128616
775.0,926.0,1.0229,-0.1023,9.5007,-0.0269,0.0768,-0.1144,-1.5235535216382523,-0.2556043863296509,1.3966760635375977,-2.0384411811828613,0.3110491931438446,2.357172966003418,4.95441600957469,-0.00016552158922422677,0.22425314784049988,-1.5832937399493616,0.0,0.05410394072532654,0.8532875180244446,-0.0,0.005991444922983646,0.7852357029914856,0.0,-0.1492801308631897
632.0,743.0,1.3597,-0.2423,8.8128,-0.0324,0.0631,-0.1139,-1.5257073429277916,-0.25500208139419556,1.3972656726837158,-2.0359110832214355,0.3124849200248718,2.396881580352783,4.954464036017217,-0.00013337166456039995,0.23991018533706665,-1.5832861105548304,0.0,0.043665334582328796,0.853294849395752,-0.0,0.004356022924184799,0.7852798700332642,0.0,-0.09357178211212158
632.0,743.0,1.3597,-0.2423,8.8128,-0.0324,0.0631,-0.1139,-1.5283178140274067,-0.2548448443412781,1.420135736465454,-2.0328280925750732,0.30780312418937683,2.387101173400879,4.954387414246359,-0.00013876173761673272,0.2361871600151062,-1.5832417646991175,0.0,0.026805954053997993,0.8533390760421753,-0.0,0.008059829473495483,0.7853080630302429,0.00012753999908454716,-0.14259293675422668
632.0,743.0,1.3597,-0.2423,8.8128,-0.0324,0.0631,-0.1139,-1.5309828718057652,-0.2712918519973755,1.3935368061065674,-2.0297067165374756,0.30570274591445923,2.383910894393921,4.954403865128317,-0.00014364330854732543,0.2252248227596283,-1.583261791859762,0.0,0.050133731216192245,0.8532910346984863,-0.0,0.008872531354427338,0.7852798700332642,0.00015646041720174253,-0.06203220412135124
632.0,743.0,1.3597,-0.2423,8.8128,-0.0324,0.0631,-0.1139,-1.5336127330413838,-0.25701963901519775,1.402381420135498,-2.026709794998169,0.3004250228404999,2.345127820968628,4.954451802163877,-0.00012894321116618812,0.23739579319953918,-1.5832374731646937,0.0,0.04040829837322235,0.8532348871231079,-0.0,0.007821857929229736,0.785280168056488,0.000156148147652857,-0.10599707067012787
632.0,743.0,1.3597,-0.2423,8.8128,-0.0324,0.0631,-0.1139,-1.5357633096030732,-0.2630283236503601,1.403754472732544,-2.024221658706665,0.30227792263031006,2.402413845062256,4.954448047071256,-7.091097359079868e-05,0.23806452751159668,-1.5832861105548304,0.0,0.043883662670850754,0.8532750606536865,-0.0,0.010732877999544144,0.7852596044540405,0.00017386044783052057,-0.05945657193660736
632.0,743.0,1.3597,-0.2423,8.8128,-0.0324,0.0631,-0.1139,-1.5384171170047303,-0.2562740743160248,1.4582479000091553,-2.0212955474853516,0.29649680852890015,2.3848776817321777,4.954407888441839,-8.88052600203082e-05,0.2265690565109253,-1.5832536856280726,0.0,0.05042681843042374,0.8533149361610413,-0.0,0.01905207894742489,0.7852919101715088,0.00017535913502797484,-0.1138947606086731
632.0,743.0,1.3597,-0.2423,8.8128,-0.0324,0.0631,-0.1139,-1.5409094684622069,-0.26010870933532715,1.4221677780151367,-2.0184054374694824,0.290981262922287,2.3865983486175537,4.954443964153089,-0.00010162720718653873,0.22677481174468994,-1.5832212607013147,0.0,0.04673607647418976,0.8532710075378418,-0.0,0.016130736097693443,0.7852839827537537,0.00014101271517574787,-0.12139579653739929
632.0,743.0,1.3597,-0.2423,8.8128,-0.0324,0.0631,-0.1139,-1.5429670617780467,-0.2585066556930542,1.468754768371582,-2.016018867492676,0.2900316119194031,2.3317627906799316,4.954455870180883,-9.136254084296525e-05,0.22794505953788757,-1.583261791859762,0.0,0.04995839670300484,0.8533070683479309,-0.0,0.019640762358903885,0.785243570804596,0.00012191073619760573,-0.10091892629861832
632.0,743.0,1.3597,-0.2423,8.8128,-0.0324,0.0631,-0.1139,-1.5455106564662238,-0.2497931569814682,1.4541761875152588,-2.013125419616699,0.2905693054199219,2.4019224643707275,4.954407858639517,-8.107420580927283e-05,0.2202003002166748,-1.5832575003253382,-1.0024785446205442e-09,0.05361158028244972,0.8532869815826416,-0.0,0.006526340264827013,0.7852356433868408,7.819300662958995e-05,-0.11765031516551971
532.0,521.0,1.0104,-0.1442,9.0718,-0.0487,0.0657,-0.12,-1.5479709331742306,-0.2505209147930145,1.4758086204528809,-2.0102760791778564,0.29140761494636536,2.358175039291382,4.954411941557684,-7.286871550604701e-05,0.21010559797286987,-1.5832784811602991,-1.189606528925356e-15,0.031761493533849716,0.853318989276886,-0.0,0.0021374947391450405,0.7852798700332642,8.839904330670834e-05,-0.0951845794916153
532.0,521.0,1.0104,-0.1442,9.0718,-0.0487,0.0657,-0.12,-1.5505376060358067,-0.25464725494384766,1.4637504816055298,-2.007392644882202,0.2860337197780609,2.343564510345459,4.954420196800985,-0.0009987459052354097,0.22196173667907715,-1.583249870930807,-1.411664797601024e-21,0.04284317046403885,0.8533194661140442,-0.0,0.008352655917406082,0.78526371717453,6.300082168309018e-05,-0.14642904698848724
532.0,521.0,1.0104,-0.1442,9.0718,-0.0487,0.0657,-0.12,-1.5524589710733672,-0.25271108746528625,1.4947274923324585,-2.0050861835479736,0.285999059677124,2.386472225189209,4.954452219396391,-0.001781086204573512,0.22626349329948425,-1.5832417646991175,-2.565631427275345e-26,0.044016074389219284,0.8532951474189758,-0.0,0.006689245812594891,0.7852394580841064,-2.203388612542767e-05,-0.15966732800006866
532.0,521.0,1.0104,-0.1442,9.0718,-0.0487,0.0657,-0.12,-1.5550131865641852,-0.2549818158149719,1.508171558380127,-2.0021233558654785,0.2856001853942871,2.3665225505828857,4.9543956247861765,-0.000973838905338198,0.2123616337776184,-1.583249870930807,-3.044546237803461e-32,0.054054174572229385,0.8532714247703552,-0.0,0.025036929175257683,0.7852839827537537,-9.262050326697135e-08,-0.16403725743293762
532.0,521.0,1.0104,-0.1442,9.0718,-0.0487,0.0657,-0.12,-1.5576925541139026,-0.2524222135543823,1.4606058597564697,-1.9992656707763672,0.28735044598579407,2.341627359390259,4.954416024475851,-0.0005246879882179201,0.21397650241851807,-1.5832698980914515,-3.612857408249687e-38,0.05758678913116455,0.8532947897911072,-0.0,0.010469038970768452,0.7853163480758667,-4.025938664749074e-17,-0.1489807516336441
532.0,521.0,1.0104,-0.1442,9.0718,-0.0487,0.0657,-0.12,-1.5602496995455404,-0.2560752034187317,1.5182950496673584,-1.9963558912277222,0.2865547239780426,2.332514762878418,4.954420181899824,-0.0004113029281143099,0.2350444495677948,-1.5832741896258753,-4.344025239406933e-44,0.06772401928901672,0.8532869815826416,-0.0,0.006249914411455393,0.785271942615509,-1.749955722401432e-26,-0.1851181983947754
532.0,521.0,1.0104,-0.1442,9.0718,-0.0487,0.0657,-0.12,-1.5622986390120168,-0.26693010330200195,1.491100788116455,-1.9940426349639893,0.28197118639945984,2.340947389602661,4.954403865128317,-0.00039247050881385803,0.2170945107936859,-1.5832822958575647,-0.0,0.05357370525598526,0.8532671928405762,-0.0,0.01182353962212801,0.7852274179458618,-5.66963425098148e-34,-0.1932833045721054
532.0,521.0,1.0104,-0.1442,9.0718,-0.0487,0.0657,-0.12,-1.56501733258877,-0.2568158805370331,1.5230517387390137,-1.991122841835022,0.2842692732810974,2.3475193977355957,4.954395594983854,-0.0002902934211306274,0.21630671620368958,-1.5832985083209437,-0.0,0.0634753555059433,0.853246808052063,-0.0,0.015153689309954643,0.7852476835250854,-2.466285297211678e-43,-0.12593863904476166
532.0,521.0,1.0104,-0.1442,9.0718,-0.0487,0.0657,-0.12,-1.5675937303206702,-0.26387670636177063,1.5281307697296143,-1.9883009195327759,0.28911539912223816,2.347212076187134,4.954387816577711,-0.0002474313077982515,0.2124089002609253,-1.5832575003253382,-0.0,0.05739597603678703,0.8532509207725525,-0.0,0.0016403147019445896,0.785251796245575,0.0,-0.1098654642701149
532.0,521.0,1.0104,-0.1442,9.0718,-0.0487,0.0657,-0.12,-1.5702035463512694,-0.2595411241054535,1.5572056770324707,-1.9854302406311035,0.28260084986686707,2.332777261734009,4.954371842532911,-0.0017689382657408714,0.20937305688858032,-1.5832865873919886,-0.0,0.06645102053880692,0.8532671928405762,-0.0,0.005087622441351414,0.7853083610534668,0.0,-0.1126168891787529
483.0,487.0,0.6054,-0.0688,9.4977,-0.0315,0.0011,-0.1194,-1.572261472741598,-0.2696540355682373,1.565988540649414,-1.9832402467727661,0.28707826137542725,2.3276541233062744,4.954303818732061,-0.002019522013142705,0.21901291608810425,-1.5832660833941858,-0.0,0.059143953025341034,0.8532869815826416,-0.0,0.015403233468532562,0.7852274179458618,0.0,-0.12028469890356064
483.0,487.0,0.6054,-0.0688,9.4977,-0.0315,0.0011,-0.1194,-1.574906965295309,-0.26336926221847534,1.5399653911590576,-1.9803617000579834,0.2815781533718109,2.3556301593780518,4.954311984568395,-0.00460541108623147,0.21172352135181427,-1.5832904020892542,-0.0,0.04477564990520477,0.8532791137695312,-0.0,0.008257944136857986,0.785271942615509,0.0,-0.12906327843666077
483.0,487.0,0.6054,-0.0688,9.4977,-0.0315,0.0011,-0.1194,-1.577466150323385,-0.2606554627418518,1.5740337371826172,-1.977530837059021,0.2958366572856903,2.3473753929138184,4.954312371998586,-0.003910241648554802,0.21766544878482819,-1.583249870930807,-0.0,0.05263534188270569,0.8532710075378418,-0.0,0.012722199782729149,0.7852718830108643,0.0,-0.14395615458488464
483.0,487.0,0.6054,-0.0688,9.4977,-0.0315,0.0011,-0.1194,-1.5795608959593714,-0.2625027000904083,1.591934084892273,-1.9752639532089233,0.28727853298187256,2.342841148376465,4.954248416214742,-0.009446598589420319,0.2083377093076706,-1.5832784811602991,-0.0,0.05183372646570206,0.8532110452651978,-0.0,0.003813554532825947,0.7852356433868408,0.0,-0.11563926935195923
483.0,487.0,0.6054,-0.0688,9.4977,-0.0315,0.0011,-0.1194,-1.5821529827513636,-0.2691664397716522,1.5461876392364502,-1.9724063873291016,0.2919125258922577,2.3863601684570312,4.9540885267551324,-0.016805404797196388,0.19946731626987457,-1.5832374731646937,-0.0,0.046893782913684845,0.8532910346984863,-0.0,0.011481961235404015,0.7852641940116882,-5.612392851617187e-05,-0.1951490044593811
483.0,487.0,0.6054,-0.0688,9.4977,-0.0315,0.0011,-0.1194,-1.5848309002318324,-0.26899370551109314,1.5581815242767334,-1.9694732427597046,0.28617581725120544,2.385347843170166,4.953921276121893,-0.032773591578006744,0.20540547370910645,-1.583306137715475,-0.0,0.05865389481186867,0.8532348275184631,-0.0,0.0039040513802319765,0.785243570804596,-6.806820601923391e-05,-0.19010967016220093
483.0,487.0,0.6054,-0.0688,9.4977,-0.0315,0.0011,-0.1194,-1.587484975854391,-0.26984235644340515,1.5348546504974365,-1.9664955139160156,0.29611602425575256,2.33856463432312,4.953477817564764,-0.05311879143118858,0.18274331092834473,-1.583306137715475,-0.0,0.061843156814575195,0.853295087814331,-0.0,0.008823245763778687,0.7852518558502197,-0.00012596268788911402,-0.20260117948055267
483.0,487.0,0.6054,-0.0688,9.4977,-0.0315,0.0011,-0.1194,-1.589759965936178,-0.26035311818122864,1.6214399337768555,-1.964163064956665,0.2937421202659607,2.3147902488708496,4.952950197249212,-0.06481572985649109,0.17499971389770508,-1.5832861105548304,-0.0,0.05734262615442276,0.853234589099884,-0.0,0.0006994621362537146,0.7852480411529541,-9.861905709840357e-05,-0.20694248378276825
483.0,487.0,0.6054,-0.0688,9.4977,-0.0315,0.0011,-0.1194,-1.5924931965269984,-0.2749180495738983,1.6148414611816406,-1.9611583948135376,0.2968806028366089,2.3725178241729736,4.952384713083067,-0.04256683588027954,0.18566058576107025,-1.583245579396383,-0.0,0.06380517780780792,0.8532951474189758,-0.0,-0.006221416871994734,0.785260021686554,-1.5764386489536264e-06,-0.1928400993347168
467.0,498.0,0.0634,0.1926,9.9763,-0.0142,0.0034,-0.1193,-1.5953198872008265,-0.2743341326713562,1.5911304950714111,-1.9582055807113647,0.2959631085395813,2.359203577041626,4.952205705433645,-0.009582128375768661,0.21732845902442932,-1.5832741896258753,-0.0,0.05512867867946625,0.8532593846321106,-0.0,0.004393611568957567,0.7852477431297302,-6.852310196038894e-16,-0.21350011229515076
467.0,498.0,0.0634,0.1926,9.9763,-0.0142,0.0034,-0.1193,-1.5981656513609828,-0.28181612491607666,1.6572332382202148,-1.955264925956726,0.294963538646698,2.3263301849365234,4.95221375206069,0.007682104129344225,0.20723749697208405,-1.583233658467428,-0.0,0.06755468994379044,0.8532671928405762,-0.0,-0.0010577619541436434,0.7852677702903748,-2.9784957103481194e-25,-0.20050424337387085
467.0,498.0,0.0634,0.1926,9.9763,-0.0142,0.0034,-0.1193,-1.6003829441466273,-0.2755405902862549,1.616297721862793,-1.9529281854629517,0.30121564865112305,2.38926100730896,4.952253359347143,0.0027486865874379873,0.20582324266433716,-1.583261791859762,-0.0,0.0710849016904831,0.8532389998435974,-0.0,0.011388320475816727,0.7852718830108643,-9.649947570639003e-33,-0.15396222472190857
467.0,498.0,0.0634,0.1926,9.9763,-0.0142,0.0034,-0.1193,-1.6031762562193812,-0.28130465745925903,1.6325231790542603,-1.9499033689498901,0.29531481862068176,2.3505868911743164,4.952181848674574,7.398374890499326e-08,0.20958952605724335,-1.583261791859762,-0.0,0.0669609010219574,0.8532430529594421,-0.0,0.011576121672987938,0.7852678298950195,-4.1940863037241775e-42,-0.1557723581790924
467.0,498.0,0.0634,0.1926,9.9763,-0.0142,0.0034,-0.1193,-1.6059395275511683,-0.28245997428894043,1.6834441423416138,-1.946926474571228,0.30669617652893066,2.3887155055999756,4.952241423517027,-9.106377660828002e-07,0.2091917097568512,-1.5832575003253382,-0.0,0.058813564479351044,0.8532110452651978,-0.0,0.00932659488171339,0.7852315306663513,0.0,-0.17463037371635437
467.0,498.0,0.0634,0.1926,9.9763,-0.0142,0.0034,-0.1193,-1.6081448994078578,-0.2757969796657562,1.6842617988586426,-1.9445216655731201,0.30585870146751404,2.3954529762268066,4.952217909484663,-1.6550393000525077e-11,0.22234249114990234,-1.583233658467428,-0.0,0.05478271096944809,0.8532593846321106,-0.0,0.007772753480821848,0.785271942615509,0.0,-0.15935570001602173
467.0,498.0,0.0634,0.1926,9.9763,-0.0142,0.0034,-0.1193,-1.6109286747374476,-0.2735694348812103,1.712934970855713,-1.9414165019989014,0.31270936131477356,2.4022159576416016,4.952205675631323,-1.9639775753626138e-17,0.21670322120189667,-1.583261791859762,-0.0,0.06059117987751961,0.8532832264900208,-0.0,-0.002722427947446704,0.7852438688278198,0.0,-0.19300413131713867
467.0,498.0,0.0634,0.1926,9.9763,-0.0142,0.0034,-0.1193,-1.6135760746397914,-0.2787128984928131,1.7587295770645142,-1.9382718801498413,0.3062002658843994,2.3673343658447266,4.952189358859815,-2.330584468202904e-23,0.21728046238422394,-1.5832660833941858,-0.0,0.030658774077892303,0.8532554507255554,-0.0,-0.007563096936792135,0.7853124737739563,0.0,-0.12163283675909042
467.0,498.0,0.0634,0.1926,9.9763,-0.0142,0.0034,-0.1193,-1.6162787876524867,-0.2761378884315491,1.7643401622772217,-1.9351396560668945,0.3123018741607666,2.387209892272949,4.952221351652899,-2.765623664004472e-29,0.2254205346107483,-1.583249870930807,-0.0,0.048670001327991486,0.8531994819641113,-0.0,0.0069324662908911705,0.7852235436439514,-6.413543451344594e-05,-0.1398998647928238
467.0,498.0,0.0634,0.1926,9.9763,-0.0142,0.0034,-0.1193,-1.6184855900206507,-0.2756914496421814,1.760321855545044,-1.9325743913650513,0.3085215091705322,2.3504016399383545,4.952181073814192,-5.026384915934812e-34,0.22315609455108643,-1.5833027998553675,-0.0,0.04612337052822113,0.8531914353370667,-0.0,0.001973952166736126,0.7852078676223755,-0.0001904924283735454,-0.13517703115940094
411.0,463.0,1.5703,-0.1998,9.3452,-0.0446,0.0318,-0.1245,-1.6212722263731898,-0.2637057602405548,1.7858314514160156,-1.9294140338897705,0.31791287660598755,2.39090895652771,4.952249276428976,0.0016845822101458907,0.2358853816986084,-1.5833104292498987,-0.0,0.04741216450929642,0.8532388210296631,-0.0,-0.0006061275489628315,0.7852115631103516,-0.00018865779566112906,-0.17834770679473877
411.0,463.0,1.5703,-0.1998,9.3452,-0.0446,0.0318,-0.1245,-1.6240016422667445,-0.2752127945423126,1.7729467153549194,-1.9262686967849731,0.3236255347728729,2.396193504333496,4.952229115157881,0.0007629879401065409,0.2410694658756256,-1.5832942167865198,-0.0,0.04578788951039314,0.8531634211540222,-0.0,-0.004765188321471214,0.7852400541305542,-0.00013383603072725236,-0.16510486602783203
411.0,463.0,1.5703,-0.1998,9.3452,-0.0446,0.0318,-0.1245,-1.6267878017821253,-0.26934003829956055,1.8387632369995117,-1.9230855703353882,0.3236936926841736,2.428964138031006,4.952249291330137,0.0004124552942812443,0.23943427205085754,-1.5832660833941858,-0.0,0.04204859584569931,0.8532395958900452,-0.0,0.013628172688186169,0.7852880358695984,-0.00013981111987959594,-0.12402678281068802
411.0,463.0,1.5703,-0.1998,9.3452,-0.0446,0.0318,-0.1245,-1.6290093861021937,-0.2767723798751831,1.824214220046997,-1.9205238819122314,0.3287055790424347,2.408281087875366,4.952257427364149,0.00030173329287208617,0.22240996360778809,-1.5832942167865198,-0.0,0.047136448323726654,0.8531715869903564,-8.81831074366346e-05,-0.006599081214517355,0.7852922081947327,-0.00010557576024439186,-0.1435287892818451
411.0,463.0,1.5703,-0.1998,9.3452,-0.0446,0.0318,-0.1245,-1.6317149601378382,-0.2676260471343994,1.8893201351165771,-1.9171476364135742,0.33066219091415405,2.4260776042938232,4.952281597047605,0.0002650716924108565,0.23965126276016235,-1.5832784811602991,2.535686105531454e-10,0.021315379068255424,0.8531477451324463,-9.776134538697079e-05,-0.00925353541970253,0.7852759957313538,-9.449127537664026e-05,-0.1250818371772766
411.0,463.0,1.5703,-0.1998,9.3452,-0.0446,0.0318,-0.1245,-1.6343533001341761,-0.2695115804672241,1.8909542560577393,-1.9138953685760498,0.33683833479881287,2.411766529083252,4.95221312621192,0.0001900156057672575,0.23308667540550232,-1.5832942167865198,3.0090112238314053e-16,0.030354639515280724,0.8531713485717773,-0.00011906524014193565,-0.004244847688823938,0.7852760553359985,-8.55132529977709e-05,-0.14244385063648224
411.0,463.0,1.5703,-0.1998,9.3452,-0.0446,0.0318,-0.1245,-1.6364833317198695,-0.2697208821773529,1.8707314729690552,-1.9112346172332764,0.33969804644584656,2.4031286239624023,4.95225744226531,0.00018671652651391923,0.24225586652755737,-1.5832980314837855,5.468728520896748e-21,0.03067941404879093,0.8532198071479797,-0.0003508827358018607,-0.019702503457665443,0.7852718830108643,-6.379491969710216e-05,-0.08298265188932419
411.0,463.0,1.5703,-0.1998,9.3452,-0.0446,0.0318,-0.1245,-1.6391345463194789,-0.2633822560310364,1.9006403684616089,-1.907745122909546,0.3357994556427002,2.3830668926239014,4.952249276428976,0.0001592055195942521,0.23797810077667236,-1.5832660833941858,6.489550370105054e-27,0.025287318974733353,0.8531956672668457,-0.00035275990376248956,0.0008919164538383484,0.7852521538734436,-2.137486808351241e-05,-0.12792465090751648
411.0,463.0,1.5703,-0.1998,9.3452,-0.0446,0.0318,-0.1245,-1.6417676411070765,-0.26249808073043823,1.988551378250122,-1.9043015241622925,0.3427577614784241,2.4611709117889404,4.952249276428976,0.00015913820243440568,0.24797767400741577,-1.5832904020892542,7.700924305045894e-33,0.02783937007188797,0.8531191945075989,-0.00034866222995333374,-0.034128185361623764,0.7852156162261963,-1.9105387764284387e-05,-0.10641823709011078
397.0,407.0,0.816,-0.1555,9.7974,-0.0325,0.1113,-0.1228,-1.644329687158102,-0.26034337282180786,1.9257452487945557,-1.9009838104248047,0.33562779426574707,2.4442005157470703,4.952297660499372,0.00038351459079422057,0.23988868296146393,-1.5833023230182093,9.138419397457076e-39,0.032300159335136414,0.8532121181488037,-0.00030154199339449406,-0.025647874921560287,0.7852603197097778,-1.7272128388867714e-05,-0.10308696329593658
397.0,407.0,0.816,-0.1555,9.7974,-0.0325,0.1113,-0.1228,-1.6463600597777308,-0.25510653853416443,1.9931161403656006,-1.8982356786727905,0.3345986604690552,2.418569803237915,4.952257352858343,0.0005935766384936869,0.2456797957420349,-1.583306137715475,1.6675451725465323e-43,0.012274455279111862,0.8531760573387146,-0.0002868271549232304,-0.021309977397322655,0.7852156758308411,-1.611567677173298e-05,-0.09947942942380905
397.0,407.0,0.816,-0.1555,9.7974,-0.0325,0.1113,-0.1228,-1.648886343041891,-0.2499980330467224,2.0205183029174805,-1.8948606252670288,0.3416387736797333,2.424060106277466,4.952337282686987,0.004361472092568874,0.2582724988460541,-1.5832904020892542,0.0,0.024974821135401726,0.8531801104545593,-0.00023412000155076385,-0.049511078745126724,0.7852074503898621,-5.877807325305184e-07,-0.1163417249917984
397.0,407.0,0.816,-0.1555,9.7974,-0.0325,0.1113,-0.1228,-1.6513563595213832,-0.23541215062141418,2.035810947418213,-1.8914612531661987,0.3395823836326599,2.422956943511963,4.952357280045309,0.004302767105400562,0.2636340856552124,-1.583261791859762,0.0,0.017584051936864853,0.8531760573387146,-0.0002253833954455331,-0.042417801916599274,0.7852641344070435,-2.5549081257811063e-16,-0.109145388007164
397.0,407.0,0.816,-0.1555,9.7974,-0.0325,0.1113,-0.1228,-1.6537977657713832,-0.2370043843984604,2.06795334815979,-1.8880246877670288,0.33750197291374207,2.4743828773498535,4.952357280045309,0.0028653310146182775,0.2796357572078705,-1.5833023230182093,-0.00017919944366440177,-0.004507859703153372,0.8531558513641357,-0.0001950668665813282,-0.032449811697006226,0.7852236032485962,-1.1105427284115524e-25,-0.12571033835411072
397.0,407.0,0.816,-0.1555,9.7974,-0.0325,0.1113,-0.1228,-1.6557232342162074,-0.24272280931472778,2.1144649982452393,-1.8853832483291626,0.3433874845504761,2.4672329425811768,4.952385204821386,0.0017782963113859296,0.27888232469558716,-1.5833342711078089,-0.0001943969400599599,-0.0019198018126189709,0.8531558513641357,-0.00017599335114937276,-0.040849488228559494,0.7852683067321777,-3.5980170265021836e-33,-0.06420883536338806
397.0,407.0,0.816,-0.1555,9.7974,-0.0325,0.1113,-0.1228,-1.6580959759154261,-0.22369368374347687,2.1604726314544678,-1.88200843334198,0.3418700397014618,2.4402637481689453,4.952449220209875,0.0028798840939998627,0.2798764109611511,-1.5832698980914515,-0.00014292581181507558,-0.0015429860213771462,0.8531681895256042,-0.00012634857557713985,-0.029353436082601547,0.7852521538734436,-1.563849086186496e-42,-0.04431114345788956
397.0,407.0,0.816,-0.1555,9.7974,-0.0325,0.1113,-0.1228,-1.660398622552389,-0.22604654729366302,2.184377431869507,-1.8786115646362305,0.3479389250278473,2.4672892093658447,4.952420550375738,0.0022082370705902576,0.2743213176727295,-1.5833023230182093,-0.00017851639131549746,0.01502208411693573,0.8530791401863098,-0.0001105949777411297,-0.033620841801166534,0.7852236032485962,0.0,-0.0351448729634285
397.0,407.0,0.816,-0.1555,9.7974,-0.0325,0.1113,-0.1228,-1.662166257897848,-0.2150934785604477,2.1839427947998047,-1.8758656978607178,0.3388662040233612,2.3741822242736816,4.952468859940328,0.0010197501396760345,0.2788732349872589,-1.5833261648761194,-0.0002141232689609751,-0.012424631044268608,0.853151798248291,-0.0001006954480544664,-0.03974582254886627,0.7852678298950195,0.0,-0.04454757273197174
397.0,407.0,0.816,-0.1555,9.7974,-0.0325,0.1113,-0.1228,-1.6641880474486292,-0.20593425631523132,2.2406139373779297,-1.8724828958511353,0.33718782663345337,2.438994884490967,4.952452885895529,0.0005666912184096873,0.28573185205459595,-1.5833547751056116,-0.00018521634046919644,-0.00798092968761921,0.8531677722930908,-9.05626657186076e-05,-0.04887735843658447,0.7853080630302429,0.0004766705387737602,0.010935944505035877
373.0,376.0,1.0666,0.0449,10.1067,-0.0263,0.1364,-0.1144,-1.6662079296507777,-0.2050887793302536,2.2302968502044678,-1.8690582513809204,0.32904288172721863,2.4389147758483887,4.952468889742651,0.0003716399078257382,0.2875211238861084,-1.5833261648761194,-0.000153600936755538,-0.008067364804446697,0.8531436920166016,-8.228275692090392e-05,-0.05443602055311203,0.7852960228919983,0.0003115851723123342,-0.021789412945508957
373.0,376.0,1.0666,0.0449,10.1067,-0.0263,0.1364,-0.1144,-1.6681157551207484,-0.18304458260536194,2.2216506004333496,-1.8656635284423828,0.32867535948753357,2.431825876235962,4.952509033470907,0.001406268565915525,0.29049238562583923,-1.5833056608783167,-0.00013120581570547074,0.000848161056637764,0.8531396389007568,-7.539014040958136e-05,-0.0356270857155323,0.7852315306663513,0.00018515581905376166,-0.08101566135883331
373.0,376.0,1.0666,0.0449,10.1067,-0.0263,0.1364,-0.1144,-1.6695643864073695,-0.17181162536144257,2.303067684173584,-1.863072395324707,0.3299393951892853,2.3996968269348145,4.952533173352041,0.0014791327994316816,0.28393128514289856,-1.5832861105548304,-0.00011750107660191134,-0.009901609271764755,0.8531800508499146,-7.06552600604482e-05,-0.030492501333355904,0.785260021686554,0.00015356090443674475,-0.02958919107913971
373.0,376.0,1.0666,0.0449,10.1067,-0.0263,0.1364,-0.1144,-1.671328683892721,-0.17715072631835938,2.3068466186523438,-1.8599010705947876,0.32247865200042725,2.4496912956237793,4.952408644347944,0.00012706793495453894,0.2776208221912384,-1.5832937399493616,-0.00010393128468422219,-0.006578617729246616,0.853147566318512,-6.551210390171036e-05,-0.04485032707452774,0.7852600812911987,6.863557064207271e-05,-0.012074129655957222
373.0,376.0,1.0666,0.0449,10.1067,-0.0263,0.1364,-0.1144,-1.6730104885497035,-0.17618641257286072,2.273907423019409,-1.856677770614624,0.31192463636398315,2.4356603622436523,4.952452885895529,7.441473280778155e-05,0.2871703505516052,-1.5832822958575647,-9.317151852883399e-05,0.0018511527450755239,0.8531271815299988,-6.106700311647728e-05,-0.04214896634221077,0.7852153778076172,8.522343941663735e-11,-0.029518242925405502
373.0,376.0,1.0666,0.0449,10.1067,-0.0263,0.1364,-0.1144,-1.674680849114889,-0.1694737672805786,2.2823474407196045,-1.8535621166229248,0.3192959129810333,2.3708133697509766,4.95243692675189,0.00010527708218432963,0.28940361738204956,-1.583306137715475,-8.443067781627178e-05,-0.007656048983335495,0.8531796932220459,-5.7186753110727295e-05,-0.020194442942738533,0.785260021686554,3.704409142988253e-20,-0.06527693569660187
373.0,376.0,1.0666,0.0449,10.1067,-0.0263,0.1364,-0.1144,-1.6760031185545863,-0.1585751175880432,2.345900058746338,-1.8511152267456055,0.311592698097229,2.4290969371795654,4.952445152192869,4.342189276940189e-05,0.290083110332489,-1.5832985083209437,-7.853640272514895e-05,-0.008837051689624786,0.8531315326690674,-5.442045221570879e-05,-0.03539232537150383,0.78523188829422,1.2001811856648105e-27,-0.0018903848249465227
373.0,376.0,1.0666,0.0449,10.1067,-0.0263,0.1364,-0.1144,-1.6775537929930628,-0.15405577421188354,2.3429183959960938,-1.8480557203292847,0.31159988045692444,2.451197862625122,4.952452885895529,3.567758176359348e-05,0.2959230840206146,-1.5832861105548304,-7.223316060844809e-05,-0.006970587186515331,0.8531110882759094,-5.1317463658051565e-05,-0.030287839472293854,0.7852438688278198,5.216832395702431e-37,-0.026374271139502525
373.0,376.0,1.0666,0.0449,10.1067,-0.0263,0.1364,-0.1144,-1.6791883907713832,-0.16628630459308624,2.3441922664642334,-1.8449867963790894,0.29092493653297424,2.453248977661133,4.952445122390547,6.049902245841565e-10,0.294975221157074,-1.5832861105548304,-7.849287067074329e-05,-0.005677111446857452,0.8531878590583801,-1.0722622789671732e-07,-0.018162105232477188,0.7852678298950195,0.0,-0.034205362200737
349.0,341.0,0.9045,0.1711,10.1468,-0.0133,0.1833,-0.121,-1.6804305515685023,-0.16575853526592255,2.358027458190918,-1.842639446258545,0.28907009959220886,2.3819057941436768,4.952452885895529,1.0995399062812064e-14,0.3037763237953186,-1.5832937399493616,-7.573804032290354e-05,-0.003726227907463908,0.8531715869903564,-1.948783582422786e-12,-0.024919169023633003,0.7852518558502197,0.0,-0.024694230407476425
349.0,341.0,0.9045,0.1711,10.1468,-0.0133,0.1833,-0.121,-1.6819802723326625,-0.1482558250427246,2.373965263366699,-1.8397411108016968,0.28257158398628235,2.3986117839813232,4.9524488029773615,0.0003161274653393775,0.28560274839401245,-1.5833175818072718,-7.953659223858267e-05,-0.017913930118083954,0.8531477451324463,-2.3125538015981748e-18,-0.038575928658246994,0.7852235436439514,0.0,-0.08041573315858841
349.0,341.0,0.9045,0.1711,10.1468,-0.0133,0.1833,-0.121,-1.6835109196104945,-0.14032365381717682,2.4476726055145264,-1.8369379043579102,0.2767849266529083,2.4074923992156982,4.9524123696382425,0.00038961958489380777,0.31129273772239685,-1.5833023230182093,-8.81916712387465e-05,-0.021138327196240425,0.8531477451324463,-2.7442271942865697e-24,-0.017279453575611115,0.7852877974510193,0.0,-0.05009426176548004
349.0,341.0,0.9045,0.1711,10.1468,-0.0133,0.1833,-0.121,-1.6850248775877894,-0.15879371762275696,2.3613266944885254,-1.8342233896255493,0.2623644471168518,2.380096435546875,4.9524288205202005,0.00018732505850493908,0.30033814907073975,-1.5833423773394983,-6.680501974187791e-05,-0.01871487870812416,0.8531837463378906,-3.256480087484117e-30,-0.033398184925317764,0.7853080630302429,0.0012826422462239861,-0.032323192805051804
