ramyac6/ROB537/final_project/csv/all/good_190.csv
tof_0,tof_1,accelx,accely,accelz,gyrox,gyroy,gyroz,shoulder_lift_joint_position,shoulder_lift_joint_velocity,shoulder_lift_joint_effort,elbow_joint_position,elbow_joint_velocity,elbow_joint_effort,wrist_1_joint_position,wrist_1_joint_velocity,wrist_1_joint_effort,wrist_2_joint_position,wrist_2_joint_velocity,wrist_2_joint_effort,wrist_3_joint_position,wrist_3_joint_velocity,wrist_3_joint_effort,shoulder_pan_joint_position,shoulder_pan_joint_velocity,shoulder_pan_joint_effort
356.0,411.0,1.6457,-0.2614,9.3882,-0.0298,0.0264,-0.1124,-1.531061479156353,0.0,1.9185837507247925,-1.89128839969635,-0.0,2.157299041748047,4.743667590409078,0.0,0.3059422969818115,-1.597194019948141,0.0,-4.352675750851631e-05,0.9703083634376526,0.0,-0.003971277270466089,0.6430907249450684,0.0,0.04038286954164505
356.0,411.0,1.6457,-0.2614,9.3882,-0.0298,0.0264,-0.1124,-1.5311097924462338,0.0,1.9331257343292236,-1.891360878944397,-0.0,2.165558338165283,4.743691901653566,0.0,0.28458237648010254,-1.5972455183612269,0.0,-0.0071928054094314575,0.9702877998352051,0.0,0.0034898431040346622,0.6430747509002686,0.0,0.01624799333512783
356.0,411.0,1.6457,-0.2614,9.3882,-0.0298,0.0264,-0.1124,-1.5310493682375927,0.0,1.9513331651687622,-1.8913488388061523,-0.0,2.1469850540161133,4.743639315455713,0.0,0.29256725311279297,-1.597205940877096,0.0,-0.001455258927308023,0.9703161716461182,0.0,0.006143192760646343,0.6431109309196472,0.0,0.038660623133182526
356.0,411.0,1.6457,-0.2614,9.3882,-0.0298,0.0264,-0.1124,-1.5310655397227784,0.0,1.9262142181396484,-1.8913723230361938,-0.0,2.1168997287750244,4.743699609279194,0.0,0.2916114032268524,-1.5971978346454065,0.0,-0.007679414935410023,0.970292329788208,0.0,0.001539840130135417,0.6430665850639343,0.0,-0.0430058091878891
356.0,411.0,1.6457,-0.2614,9.3882,-0.0298,0.0264,-0.1124,-1.5310778518072148,0.0,1.896209716796875,-1.8912965059280396,-0.0,2.151418685913086,4.7436556843812845,0.0,0.298019140958786,-1.5972455183612269,0.0,-0.005739367101341486,0.9703197479248047,0.0,-0.0010015651350840926,0.6431109309196472,0.0,-0.01558104157447815
356.0,411.0,1.6457,-0.2614,9.3882,-0.0298,0.0264,-0.1124,-1.5310696449926873,0.0,1.943052053451538,-1.8913161754608154,-0.0,2.092226266860962,4.74367584937767,0.0,0.2977454364299774,-1.5972417036639612,0.0,-0.009156923741102219,0.9702841639518738,0.0,-0.0033936714753508568,0.6430504322052002,0.0,-0.010221505537629128
357.0,417.0,1.614,-0.2465,9.4289,-0.0318,0.0226,-0.1235,-1.5310856786421319,0.0,1.9188783168792725,-1.8912930488586426,-0.0,2.0976903438568115,4.743671688228407,0.0,0.2916545569896698,-1.5972297827350062,0.0,0.004865311086177826,0.9703037738800049,0.0,-0.005386221222579479,0.6430747509002686,0.0,-0.025210969150066376
357.0,417.0,1.614,-0.2465,9.4289,-0.0318,0.0226,-0.1235,-1.5310815547457715,0.0,1.90428626537323,-1.89128839969635,-0.0,2.1630780696868896,4.743663526117363,0.0,0.2858487367630005,-1.5972335974322718,0.0,-0.0029097767546772957,0.9703037738800049,0.0,-0.0008050632895901799,0.6430829167366028,0.0,-0.04302508383989334
357.0,417.0,1.614,-0.2465,9.4289,-0.0318,0.0226,-0.1235,-1.5310655397227784,0.0,1.928877830505371,-1.8913209438323975,-0.0,2.068986177444458,4.743667590409078,0.0,0.288974404335022,-1.5972536245929163,0.0,-0.010694274678826332,0.9703648090362549,0.0,6.324530113488436e-05,0.6431189179420471,0.0,-0.03840116038918495
357.0,417.0,1.614,-0.2465,9.4289,-0.0318,0.0226,-0.1235,-1.5310334165445347,0.0,1.9557769298553467,-1.891329050064087,-0.0,2.0968401432037354,4.743667590409078,0.0,0.3053932189941406,-1.5972335974322718,0.0,-0.01611991412937641,0.970368504524231,0.0,0.0005758831975981593,0.6430948376655579,0.0,-0.006131231784820557
357.0,417.0,1.614,-0.2465,9.4289,-0.0318,0.0226,-0.1235,-1.5310493570617218,0.0,1.9587414264678955,-1.8913168907165527,-0.0,2.13779878616333,4.743671703129568,0.0,0.3001803159713745,-1.5972259680377405,0.0,-0.010332971811294556,0.9703198075294495,0.0,0.0020952043123543262,0.643050491809845,0.0,-0.04311852157115936
357.0,417.0,1.614,-0.2465,9.4289,-0.0318,0.0226,-0.1235,-1.5310773786953469,0.0,1.9472084045410156,-1.8913248777389526,-0.0,2.0804786682128906,4.743651579111376,0.0,0.2898485064506531,-1.5972335974322718,0.0,-0.0005772265139967203,0.9703078269958496,0.0,-0.0056366268545389175,0.6430668234825134,0.0,0.023363852873444557
357.0,417.0,1.614,-0.2465,9.4289,-0.0318,0.0226,-0.1235,-1.5310334165445347,0.0,1.9281816482543945,-1.8913403749465942,-0.0,2.1125049591064453,4.7436392334993265,0.0,0.2907424569129944,-1.5972140471087855,0.0,0.0011675833957269788,0.9703447222709656,0.0,-0.00011491368059068918,0.6430627107620239,0.0,0.04310291260480881
357.0,417.0,1.614,-0.2465,9.4289,-0.0318,0.0226,-0.1235,-1.5310696785203,0.0,1.954352855682373,-1.8912521600723267,-0.0,2.0958285331726074,4.743655669480123,0.0,0.2993457615375519,-1.597217861806051,0.0,0.0047910637222230434,0.9703161716461182,0.0,-0.0043981061317026615,0.6431068778038025,0.0,0.05044843629002571
357.0,417.0,1.614,-0.2465,9.4289,-0.0318,0.0226,-0.1235,-1.5310573366335412,0.0,1.9295315742492676,-1.8913363218307495,-0.0,2.124145269393921,4.743667590409078,0.0,0.2922568917274475,-1.5972259680377405,0.0,0.004215153865516186,0.9703444242477417,0.0,-0.0015700305812060833,0.6431068778038025,0.0,-0.005750632844865322
357.0,417.0,1.614,-0.2465,9.4289,-0.0318,0.0226,-0.1235,-1.5310938482037564,0.0,1.9858264923095703,-1.891344428062439,-0.0,2.1327121257781982,4.743631153344669,0.0,0.3048453629016876,-1.597262207661764,0.0,0.00735255004838109,0.9703001976013184,0.0,-0.004929293878376484,0.6430948376655579,0.0,0.006080504972487688
357.0,417.0,1.614,-0.2465,9.4289,-0.0318,0.0226,-0.1235,-1.5310210485807438,0.0,1.9668681621551514,-1.8912765979766846,-0.0,2.1488099098205566,4.743651579111376,0.0,0.30722707509994507,-1.5972335974322718,0.0,-0.010912591591477394,0.9703447222709656,0.0,0.0038788942620158195,0.643050491809845,0.0,0.034035202115774155
359.0,411.0,1.7174,-0.2309,9.3565,-0.04,0.027,-0.1139,-1.5310774457505723,0.0,1.9720745086669922,-1.891329050064087,-0.0,2.1172938346862793,4.743647492467918,0.0,0.2951588034629822,-1.597217861806051,0.0,0.0024218931794166565,0.9702882766723633,0.0,0.002044128021225333,0.6430545449256897,0.0,-0.037429966032505035
359.0,411.0,1.7174,-0.2309,9.3565,-0.04,0.027,-0.1139,-1.531073735361435,0.0,1.9252114295959473,-1.8913363218307495,-0.0,2.1258606910705566,4.74363116079525,0.0,0.29942354559898376,-1.5972140471087855,0.0,-0.015342218801379204,0.9703078269958496,0.0,0.007634645327925682,0.6430706977844238,0.0,-0.014001566916704178
359.0,411.0,1.7174,-0.2309,9.3565,-0.04,0.027,-0.1139,-1.531061453079321,0.0,1.9717087745666504,-1.89128839969635,-0.0,2.1398520469665527,4.743659446924486,0.0,0.292385995388031,-1.5972378889666956,0.0,-0.0014145763125270605,0.9702997207641602,0.0,0.0003730237949639559,0.6430788636207581,0.0,-0.013747377321124077
359.0,411.0,1.7174,-0.2309,9.3565,-0.04,0.027,-0.1139,-1.5310655397227784,0.0,1.9848074913024902,-1.8913887739181519,-0.0,2.145324230194092,4.7436434020991705,0.0,0.2883152663707733,-1.5972297827350062,0.0,0.0004255954409018159,0.9703730940818787,0.0,0.0037769859191030264,0.6430747509002686,0.0,0.0009617130272090435
359.0,411.0,1.7174,-0.2309,9.3565,-0.04,0.027,-0.1139,-1.5310733032277604,0.0,1.9359506368637085,-1.8913323879241943,-0.0,2.135279893875122,4.743687688350239,0.0,0.2933727502822876,-1.5972455183612269,0.0,-0.002780426759272814,0.970280110836029,0.0,0.005819686222821474,0.6430545449256897,0.0,-0.02229428105056286
359.0,411.0,1.7174,-0.2309,9.3565,-0.04,0.027,-0.1139,-1.5310614642551919,0.0,1.9420194625854492,-1.8913209438323975,-0.0,2.121553897857666,4.743655669480123,0.0,0.2923252582550049,-1.5972536245929163,0.0,-0.00422299187630415,0.9703238606452942,0.0,-0.0017414155881851912,0.6430665850639343,0.0,0.021162062883377075
359.0,411.0,1.7174,-0.2309,9.3565,-0.04,0.027,-0.1139,-1.5310856078616162,0.0,1.9415037631988525,-1.8912560939788818,-0.0,2.161947727203369,4.743720053672352,0.0,0.3036491870880127,-1.5972746054278772,0.0,-0.002433173358440399,0.9702598452568054,0.0,-0.0032385950908064842,0.6430706977844238,0.0,-0.018110137432813644
359.0,411.0,1.7174,-0.2309,9.3565,-0.04,0.027,-0.1139,-1.5310814653388043,0.0,1.9570441246032715,-1.8912850618362427,-0.0,2.1498098373413086,4.743671680777826,0.0,0.2954624891281128,-1.597262207661764,0.0,0.0014168999623507261,0.9703488945960999,0.0,0.004504745360463858,0.6430383920669556,0.0,-0.0211312435567379
359.0,411.0,1.7174,-0.2309,9.3565,-0.04,0.027,-0.1139,-1.5311019730618973,0.0,1.910193681716919,-1.8913248777389526,-0.0,2.115172863006592,4.743623354449429,0.0,0.3024009168148041,-1.5972541014300745,0.0,0.004582337103784084,0.9703083038330078,0.0,0.006793060339987278,0.6430948972702026,0.0,0.012017948552966118
359.0,411.0,1.7174,-0.2309,9.3565,-0.04,0.027,-0.1139,-1.5310774606517334,0.0,1.9673397541046143,-1.8913403749465942,-0.0,2.1345736980438232,4.743687688350239,0.0,0.30045995116233826,-1.5972016493426722,0.0,0.009019825607538223,0.9703161716461182,0.0,-0.0020445918198674917,0.6430989503860474,0.0,-0.009650156833231449
359.0,411.0,1.7174,-0.2309,9.3565,-0.04,0.027,-0.1139,-1.5310493421605607,0.0,1.9275052547454834,-1.891301155090332,-0.0,2.113964557647705,4.743651594012537,0.0,0.29462382197380066,-1.5972541014300745,0.0,-0.0037716662045568228,0.9702717661857605,0.0,0.0074057867750525475,0.6430866718292236,0.0,0.008290191181004047
354.0,419.0,1.6134,-0.2871,9.4325,-0.0363,0.018,-0.1199,-1.5310696561685582,0.0,1.927132487297058,-1.891301155090332,-0.0,2.1661183834075928,4.743655669480123,0.0,0.2967070937156677,-1.5971978346454065,0.0,0.0005534363444894552,0.9703607559204102,0.0,-0.00932219810783863,0.6431109309196472,0.0,0.006976328790187836
354.0,419.0,1.6134,-0.2871,9.4325,-0.0363,0.018,-0.1199,-1.531049383138754,0.0,1.9870367050170898,-1.8912850618362427,-0.0,2.1401467323303223,4.743651579111376,0.0,0.2932283878326416,-1.5972498098956507,0.0,0.0027349942829459906,0.9703121185302734,0.0,-0.000957136508077383,0.6430948376655579,0.0,0.0034001972526311874
354.0,419.0,1.6134,-0.2871,9.4325,-0.0363,0.018,-0.1199,-1.5310374622097989,0.0,1.9771995544433594,-1.8912850618362427,-0.0,2.1688928604125977,4.743663928448715,0.0,0.288100928068161,-1.597217861806051,0.0,-0.006351831369102001,0.9703243374824524,0.0,-0.006101733539253473,0.6430866718292236,0.0,0.008685738779604435
354.0,419.0,1.6134,-0.2871,9.4325,-0.0363,0.018,-0.1199,-1.5310897317579766,0.0,1.9362564086914062,-1.8913484811782837,-0.0,2.117680072784424,4.743647492467918,0.0,0.29292383790016174,-1.597262207661764,0.0,0.006495767273008823,0.9703362584114075,0.0,-0.0020128032192587852,0.6431354284286499,0.0,-0.0164077989757061
354.0,419.0,1.6134,-0.2871,9.4325,-0.0363,0.018,-0.1199,-1.5310293075493355,0.0,1.946469783782959,-1.8913004398345947,-0.0,2.1167187690734863,4.7436638725693605,0.0,0.29799264669418335,-1.5972579161273401,0.0,-0.009478401392698288,0.9703121185302734,0.0,-0.002110058907419443,0.6430742740631104,0.0,0.05134105309844017
354.0,419.0,1.6134,-0.2871,9.4325,-0.0363,0.018,-0.1199,-1.5310534995845337,0.0,1.9274784326553345,-1.8913484811782837,-0.0,2.1220290660858154,4.743635275378384,0.0,0.30300959944725037,-1.5972297827350062,0.0,0.006479180883616209,0.9703406095504761,0.0,-0.011364351958036423,0.6430866718292236,0.0,0.02474144659936428
354.0,419.0,1.6134,-0.2871,9.4325,-0.0363,0.018,-0.1199,-1.531073735361435,0.0,1.9644310474395752,-1.8912603855133057,-0.0,2.109452247619629,4.7436556843812845,0.0,0.28923702239990234,-1.5972498098956507,0.0,-0.019810810685157776,0.9702837467193604,0.0,0.003971787169575691,0.6431273818016052,0.0,-0.03659339249134064
354.0,419.0,1.6134,-0.2871,9.4325,-0.0363,0.018,-0.1199,-1.5310655546239396,0.0,1.9868805408477783,-1.8912965059280396,-0.0,2.1586406230926514,4.743671703129568,0.0,0.3060440123081207,-1.5971892515765589,0.0,-0.012353524565696716,0.9703238606452942,0.0,-0.018806995823979378,0.6430504322052002,0.0,0.0073403711430728436
354.0,419.0,1.6134,-0.2871,9.4325,-0.0363,0.018,-0.1199,-1.5310616952231904,0.0,1.984770655632019,-1.8913209438323975,-0.0,2.147036552429199,4.74367584937767,0.0,0.2981460988521576,-1.5972421805011194,0.0,-0.004906817339360714,0.9702841639518738,0.0,0.0009375674417242408,0.6430545449256897,0.0,-0.014684511348605156
354.0,419.0,1.6134,-0.2871,9.4325,-0.0363,0.018,-0.1199,-1.5310774606517334,0.0,1.9415111541748047,-1.8913168907165527,-0.0,2.1769113540649414,4.743679526239195,0.0,0.28599733114242554,-1.5971859137164515,0.0,-0.0014370076823979616,0.9702876806259155,0.0,-0.0015702762175351381,0.6430906653404236,0.0,-0.016753602772951126
354.0,419.0,1.6134,-0.2871,9.4325,-0.0363,0.018,-0.1199,-1.5310737167349835,0.0,1.9516650438308716,-1.8912845849990845,-0.0,2.168647289276123,4.743651605188408,0.0,0.28750157356262207,-1.597262207661764,0.0,-0.008642956614494324,0.9702836871147156,0.0,0.0007808760274201632,0.6430990099906921,0.0,0.011897919699549675
369.0,415.0,1.6092,-0.2638,9.3129,-0.0365,0.0244,-0.1138,-1.5310979199460526,0.0,1.9722511768341064,-1.8912725448608398,-0.0,2.17792010307312,4.7436393340821645,0.0,0.3045021891593933,-1.597222153340475,0.0,0.0021152934059500694,0.9703364372253418,0.0,0.004841292276978493,0.6430262923240662,0.0,0.028199143707752228
369.0,415.0,1.6092,-0.2638,9.3129,-0.0365,0.0244,-0.1138,-1.5310453039458771,0.0,1.9324302673339844,-1.891332983970642,-0.0,2.12585711479187,4.743671639799633,0.0,0.2875496745109558,-1.5972097555743616,0.0,0.0024578836746513844,0.9703284502029419,0.0,-6.390910129994154e-05,0.6430668234825134,0.0,0.01427159272134304
369.0,415.0,1.6092,-0.2638,9.3129,-0.0365,0.0244,-0.1138,-1.531073735361435,0.0,1.986071228981018,-1.8913242816925049,-0.0,2.1319186687469482,4.743707901775398,0.0,0.2946903109550476,-1.5972135702716272,0.0,-0.008261957205832005,0.9703322052955627,0.0,-0.0057198889553546906,0.6430990099906921,0.0,-0.03826073184609413
369.0,415.0,1.6092,-0.2638,9.3129,-0.0365,0.0244,-0.1138,-1.5310375031879921,0.0,1.9411020278930664,-1.8913283348083496,-0.0,2.106645107269287,4.743679518788614,0.0,0.30191367864608765,-1.597245995198385,0.0,-0.015189561992883682,0.9702960848808289,0.0,-0.014364862814545631,0.6430665850639343,0.0,-0.010596929118037224
369.0,415.0,1.6092,-0.2638,9.3129,-0.0365,0.0244,-0.1138,-1.5310453039458771,0.0,1.981528639793396,-1.8913445472717285,-0.0,2.081366539001465,4.74361918398694,0.0,0.2916735112667084,-1.59723407426943,0.0,0.0020302096381783485,0.9703807830810547,0.0,-0.009897293522953987,0.6430788636207581,0.0,0.012503250502049923
369.0,415.0,1.6092,-0.2638,9.3129,-0.0365,0.0244,-0.1138,-1.5310655397227784,0.0,1.9713859558105469,-1.8913249969482422,-0.0,2.1457276344299316,4.743643510132589,0.0,0.2930336892604828,-1.597217861806051,0.0,-0.0018208174733445048,0.9703447222709656,0.0,-0.0024940012954175472,0.6430665254592896,0.0,0.009643081575632095
369.0,415.0,1.6092,-0.2638,9.3129,-0.0365,0.0244,-0.1138,-1.5310778257301827,0.0,1.9705827236175537,-1.891336441040039,-0.0,2.127702236175537,4.74368359053091,0.0,0.2969281077384949,-1.597245995198385,0.0,0.006935894023627043,0.9702919125556946,0.0,-0.0016507518012076616,0.6430788636207581,0.0,-0.03490982949733734
369.0,415.0,1.6092,-0.2638,9.3129,-0.0365,0.0244,-0.1138,-1.531041146521904,0.0,1.9549148082733154,-1.8912159204483032,-0.0,2.1549439430236816,4.743651605188408,0.0,0.29186370968818665,-1.5972297827350062,0.0,-0.011711004190146923,0.97027587890625,0.0,0.006992061156779528,0.6430709362030029,0.0,0.012724434025585651
369.0,415.0,1.6092,-0.2638,9.3129,-0.0365,0.0244,-0.1138,-1.5310375031879921,0.0,1.982683539390564,-1.8912765979766846,-0.0,2.1494221687316895,4.743631186872282,0.0,0.29861339926719666,-1.5972097555743616,0.0,0.007147781550884247,0.9703364372253418,0.0,0.006388284265995026,0.6431110501289368,0.0,-0.03878635913133621
369.0,415.0,1.6092,-0.2638,9.3129,-0.0365,0.0244,-0.1138,-1.531033383016922,0.0,1.9666720628738403,-1.8913004398345947,-0.0,2.1211633682250977,4.743683624058523,0.0,0.29232579469680786,-1.5972097555743616,0.0,-0.018648969009518623,0.9703488349914551,0.0,-0.009204965084791183,0.6431148648262024,0.0,-0.013504638336598873
349.0,422.0,1.7055,-0.2171,9.3841,-0.0315,0.0228,-0.1153,-1.5310937960496922,0.0,1.9987868070602417,-1.891312599182129,-0.0,2.18106746673584,4.743663880019941,0.0,0.298011839389801,-1.5972216765033167,0.0,-0.011677940376102924,0.970332145690918,0.0,-0.002917044097557664,0.6430948376655579,0.0,0.017650056630373
349.0,422.0,1.7055,-0.2171,9.3841,-0.0315,0.0228,-0.1153,-1.5310937774232407,0.0,1.9166126251220703,-1.8913323879241943,-0.0,2.1322097778320312,4.743667623936691,0.0,0.29063528776168823,-1.5972254912005823,0.0,-0.006108779460191727,0.9703197479248047,0.0,-0.0033662363421171904,0.6430907249450684,0.0,-0.010196143761277199
349.0,422.0,1.7055,-0.2171,9.3841,-0.0315,0.0228,-0.1153,-1.531073735361435,0.0,1.9368178844451904,-1.891312837600708,-0.0,2.1124212741851807,4.743647507369079,0.0,0.2925879657268524,-1.597222153340475,0.0,-0.01824481412768364,0.9703447222709656,0.0,-0.00998640339821577,0.6430829763412476,0.0,0.01843477226793766
349.0,422.0,1.7055,-0.2171,9.3841,-0.0315,0.0228,-0.1153,-1.5310371418348332,0.0,1.9403175115585327,-1.8913323879241943,-0.0,2.164956569671631,4.743663913547554,0.0,0.29367855191230774,-1.5972541014300745,0.0,0.005104958079755306,0.9702640771865845,0.0,-0.008728737011551857,0.6430342197418213,0.0,0.001761868130415678
349.0,422.0,1.7055,-0.2171,9.3841,-0.0315,0.0228,-0.1153,-1.531053216462471,0.0,1.929924726486206,-1.8913249969482422,-0.0,2.177039861679077,4.74369594731883,0.0,0.2868451476097107,-1.5972579161273401,0.0,-0.0037665434647351503,0.9703161716461182,0.0,-0.0036178717855364084,0.6430503726005554,0.0,0.03298542648553848
349.0,422.0,1.7055,-0.2171,9.3841,-0.0315,0.0228,-0.1153,-1.531049383138754,0.0,1.9780962467193604,-1.8912768363952637,-0.0,2.150122880935669,4.743703721999683,0.0,0.28503739833831787,-1.5972664991961878,0.0,-0.004272658843547106,0.9703807830810547,0.0,-0.005905314814299345,0.6430545449256897,0.0,-0.045436225831508636
349.0,422.0,1.7055,-0.2171,9.3841,-0.0315,0.0228,-0.1153,-1.5310411167195817,0.0,1.9766162633895874,-1.8913609981536865,-0.0,2.1248788833618164,4.743647492467918,0.0,0.2996752858161926,-1.597189728413717,0.0,-0.008941379375755787,0.9702957272529602,0.0,-0.001210486050695181,0.6430706977844238,0.0,-0.031366463750600815
349.0,422.0,1.7055,-0.2171,9.3841,-0.0315,0.0228,-0.1153,-1.5310374473086377,0.0,1.9358689785003662,-1.89129638671875,-0.0,2.134237289428711,4.743655703007736,0.0,0.2825591266155243,-1.5972297827350062,0.0,0.01152505911886692,0.9703078269958496,0.0,0.0018996833823621273,0.6430585980415344,0.0,-0.014761182479560375
349.0,422.0,1.7055,-0.2171,9.3841,-0.0315,0.0228,-0.1153,-1.531097837989666,0.0,1.9594975709915161,-1.8913323879241943,-0.0,2.088470935821533,4.7436635223920725,0.0,0.2979618012905121,-1.5971816221820276,0.0,-0.02196042612195015,0.9702842831611633,0.0,-0.006516478955745697,0.6430665850639343,0.0,0.013011393137276173
349.0,422.0,1.7055,-0.2171,9.3841,-0.0315,0.0228,-0.1153,-1.5311138530126591,0.0,1.9259397983551025,-1.891336441040039,-0.0,2.128267765045166,4.743683624058523,0.0,0.2944628894329071,-1.5972216765033167,0.0,-0.004485094919800758,0.9703482985496521,0.0,-0.012159433215856552,0.6430585980415344,0.0,-0.028001505881547928
349.0,422.0,1.7055,-0.2171,9.3841,-0.0315,0.0228,-0.1153,-1.5310696934214612,0.0,1.913595199584961,-1.891329050064087,-0.0,2.149346113204956,4.7436434020991705,0.0,0.3040100932121277,-1.59723407426943,0.0,-0.013228989206254482,0.970336377620697,0.0,0.0038358576130121946,0.6430585980415344,0.0,-0.021326040849089622
350.0,408.0,1.6283,-0.2273,9.3841,-0.0406,0.027,-0.1177,-1.531117969458439,0.0,1.9351451396942139,-1.891312599182129,-0.0,2.1121182441711426,4.743671721756019,0.0,0.2955421805381775,-1.59723407426943,0.0,-0.008422809652984142,0.9702997207641602,0.0,-0.0014211439993232489,0.6431148648262024,0.0,-0.05837167426943779
350.0,408.0,1.6283,-0.2273,9.3841,-0.0406,0.027,-0.1177,-1.5310453300229092,0.0,1.987607717514038,-1.8912849426269531,-0.0,2.1638503074645996,4.743647507369079,0.0,0.3014846444129944,-1.5972016493426722,0.0,-0.008645603433251381,0.9702841639518738,0.0,-0.001983687048777938,0.6430503726005554,0.0,0.029739096760749817
350.0,408.0,1.6283,-0.2273,9.3841,-0.0406,0.027,-0.1177,-1.5310897690108796,0.0,1.921224594116211,-1.8913403749465942,-0.0,2.1246695518493652,4.7436556843812845,0.0,0.2885868549346924,-1.5972297827350062,0.0,-0.013193309307098389,0.970280110836029,0.0,0.0071401530876755714,0.6430627107620239,0.0,-0.036507513374090195
350.0,408.0,1.6283,-0.2273,9.3841,-0.0406,0.027,-0.1177,-1.5310655397227784,0.0,1.9707951545715332,-1.891312837600708,-0.0,2.1197166442871094,4.743659800827064,0.0,0.2894812822341919,-1.5972054640399378,0.0,-0.002413774374872446,0.9703362584114075,0.0,0.009494361467659473,0.6431474685668945,0.0,-0.046752385795116425
350.0,408.0,1.6283,-0.2273,9.3841,-0.0406,0.027,-0.1177,-1.5310815510204812,0.0,1.9580233097076416,-1.8913004398345947,-0.0,2.1224398612976074,4.743671680777826,0.0,0.28556543588638306,-1.597222153340475,0.0,-0.011017601005733013,0.9703447222709656,0.0,-0.004107465967535973,0.6431028246879578,0.0,0.01119617186486721
350.0,408.0,1.6283,-0.2273,9.3841,-0.0406,0.027,-0.1177,-1.5310089823654671,0.0,1.9633431434631348,-1.8912768363952637,-0.0,2.1484994888305664,4.743631136580863,0.0,0.2875156104564667,-1.5971816221820276,0.0,-0.012434576638042927,0.9703243374824524,0.0,-0.003542375983670354,0.6430948376655579,0.0,-0.007039258256554604
350.0,408.0,1.6283,-0.2273,9.3841,-0.0406,0.027,-0.1177,-1.5310778108290215,0.0,1.9211452007293701,-1.8912765979766846,-0.0,2.1502203941345215,4.743691860675373,0.0,0.2910686433315277,-1.597205940877096,0.0,0.001302017830312252,0.9703404903411865,0.0,0.005301899742335081,0.6431110501289368,0.0,-0.007206689566373825
350.0,408.0,1.6283,-0.2273,9.3841,-0.0406,0.027,-0.1177,-1.531049383138754,0.0,1.9818034172058105,-1.8913004398345947,-0.0,2.126882791519165,4.743691860675373,0.0,0.2884785234928131,-1.5972016493426722,0.0,-0.0005574107635766268,0.9703242778778076,0.0,-0.0044601354748010635,0.6430747509002686,0.0,0.030570633709430695
350.0,408.0,1.6283,-0.2273,9.3841,-0.0406,0.027,-0.1177,-1.531045639222004,1.0477866396740865e-07,1.991162896156311,-1.8912850618362427,-0.0,2.119629144668579,4.743639348983326,0.0,0.2944830656051636,-1.5971978346454065,0.0,-0.002493202453479171,0.9703161716461182,0.0,-0.002191579667851329,0.6430627107620239,0.0,0.023679176345467567
350.0,408.0,1.6283,-0.2273,9.3841,-0.0406,0.027,-0.1177,-1.531077903961279,3.394695447325475e-15,1.90163254737854,-1.8912930488586426,-0.0,2.1380913257598877,4.7436795113380334,0.0,0.28053751587867737,-1.59723407426943,0.0,-0.003383942414075136,0.9703930616378784,0.0,0.008017311803996563,0.6430345177650452,0.0,0.04148092120885849
350.0,408.0,1.6283,-0.2273,9.3841,-0.0406,0.027,-0.1177,-1.5310616952231904,1.0998383306480386e-22,1.9334805011749268,-1.8912768363952637,-0.0,2.141268253326416,4.743615151360192,4.453094004652769e-10,0.295561820268631,-1.5971816221820276,0.0,-0.002676264848560095,0.970332145690918,0.0,-0.009563891217112541,0.6430866718292236,0.0,0.01354647520929575
364.0,434.0,1.995,0.3033,9.0634,-0.0368,0.0371,-0.1161,-1.531081524943449,4.780669990984185e-32,1.954097032546997,-1.8913609981536865,-0.0,2.1538333892822266,4.743703740626135,5.284333096662976e-16,0.29410773515701294,-1.597245995198385,0.0,-0.006250505335628986,0.9703037142753601,0.0,-0.01010428462177515,0.6430825591087341,0.0,-0.07276099920272827
364.0,434.0,1.995,0.3033,9.0634,-0.0368,0.0371,-0.1161,-1.5310535070351143,1.5488762120951852e-39,2.004991054534912,-1.8913521766662598,-0.0,2.092257022857666,4.743683601706781,9.60401442937674e-21,0.2924122214317322,-1.5972541014300745,0.0,-0.00016985787078738213,0.9703238606452942,0.0,0.007804838474839926,0.6430825591087341,0.0,-0.019946081563830376
364.0,434.0,1.995,0.3033,9.0634,-0.0368,0.0371,-0.1161,-1.531061702673771,0.0,1.9793927669525146,-1.8912601470947266,-0.0,2.119746208190918,4.743663514941492,1.745482079881972e-25,0.29943519830703735,-1.5972378889666956,0.0,-0.0012428765185177326,0.9703361988067627,0.0,-0.009967563673853874,0.6431028246879578,0.0,-0.043010663241147995
364.0,434.0,1.995,0.3033,9.0634,-0.0368,0.0371,-0.1161,-1.5310213205269356,0.00021003691654186696,1.9172409772872925,-1.8912684917449951,-0.0,2.126563310623169,4.74366760531024,3.172327481343778e-30,0.29626280069351196,-1.5972097555743616,0.0,-0.0013736267574131489,0.9703123569488525,0.0,0.0018011463107541203,0.6430583000183105,0.0,-0.022648200392723083
364.0,434.0,1.995,0.3033,9.0634,-0.0368,0.0371,-0.1161,-1.5310094219497223,0.00021242976072244346,1.942684292793274,-1.891312599182129,-0.0,2.148084878921509,4.743655669480123,5.765548391112588e-35,0.28556352853775024,-1.5972216765033167,0.0,0.0026030782610177994,0.97037672996521,0.0,-0.0064432574436068535,0.6430706977844238,0.0,-0.014992758631706238
364.0,434.0,1.995,0.3033,9.0634,-0.0368,0.0371,-0.1161,-1.5310778890601178,0.00018722147797234356,1.9763259887695312,-1.8913168907165527,-0.0,2.1396617889404297,4.743659413396873,1.047860163055883e-39,0.2910946309566498,-1.5972541014300745,0.0,-0.0020027700811624527,0.9703197479248047,0.0,-0.005485120229423046,0.6431148648262024,0.0,0.015701215714216232
364.0,434.0,1.995,0.3033,9.0634,-0.0368,0.0371,-0.1161,-1.5310498227230092,0.00018304420518688858,1.9583985805511475,-1.8913044929504395,-0.0,2.157325029373169,4.7436795113380334,1.961817850054744e-44,0.29997384548187256,-1.5972664991961878,0.0,-0.0076088327914476395,0.9702717661857605,0.0,0.002985265338793397,0.6431272029876709,0.0,-0.04331829398870468
364.0,434.0,1.995,0.3033,9.0634,-0.0368,0.0371,-0.1161,-1.5310539615205307,0.00017286883667111397,1.9584863185882568,-1.8912930488586426,-0.0,2.1236987113952637,4.743675420969286,0.0,0.2898380160331726,-1.5972664991961878,0.0,-0.009631188586354256,0.9702877998352051,0.0,-0.0038218998815864325,0.6430747509002686,0.0,0.024808835238218307
364.0,434.0,1.995,0.3033,9.0634,-0.0368,0.0371,-0.1161,-1.5310617175749321,0.00018588708189781755,1.9545331001281738,-1.8913249969482422,-0.0,2.1069176197052,4.743667590409078,0.0,0.2916160523891449,-1.5972135702716272,0.0,-0.01662331260740757,0.9703078269958496,0.0,0.0015259147621691227,0.6430986523628235,0.0,-0.05987495183944702
364.0,434.0,1.995,0.3033,9.0634,-0.0368,0.0371,-0.1161,-1.5310575676015397,0.00015952774265315384,1.982863187789917,-1.8913166522979736,-0.0,2.1141557693481445,4.743667590409078,0.0,0.30254051089286804,-1.5972254912005823,0.0,-0.006183251738548279,0.9703156352043152,0.0,-0.0011652120156213641,0.6430825591087341,0.0,-0.015374737791717052
364.0,434.0,1.995,0.3033,9.0634,-0.0368,0.0371,-0.1161,-1.5310497556677838,0.0001676126994425431,1.9576102495193481,-1.891329050064087,-0.0,2.1132471561431885,4.743659420847454,0.0,0.29986459016799927,-1.597262207661764,0.0,-0.005591035820543766,0.9703121185302734,0.0,-0.011928468011319637,0.6431068778038025,0.0,0.020593412220478058
340.0,410.0,1.194,-0.2441,9.6832,-0.0418,0.0528,-0.1188,-1.530993228112795,0.0001491364964749664,1.950667142868042,-1.8912808895111084,-0.0,2.1440765857696533,4.743663511216202,0.0,0.29519110918045044,-1.5972541014300745,0.0,-0.0036850308533757925,0.9703688621520996,0.0,-0.004915379453450441,0.6431351900100708,5.585168878496916e-07,0.019361425191164017
340.0,410.0,1.194,-0.2441,9.6832,-0.0418,0.0528,-0.1188,-1.5310699355653306,0.00013429997488856316,1.9729714393615723,-1.8913044929504395,-0.0,2.125483751296997,4.743651582836666,0.0,0.3021468222141266,-1.5972374121295374,0.0,0.0018478411948308349,0.9703447222709656,0.0,-0.003221026621758938,0.6430825591087341,1.8095236002961188e-14,-0.016860326752066612
340.0,410.0,1.194,-0.2441,9.6832,-0.0418,0.0528,-0.1188,-1.531029538517334,0.00012214858725201339,1.9429643154144287,-1.891336441040039,-0.0,2.1129815578460693,4.74368358680562,0.0,0.2954075336456299,-1.5972583929644983,0.0,-0.004121772479265928,0.9702919125556946,0.0,0.007619095966219902,0.6430706977844238,5.862626435598245e-22,0.00020053517073392868
340.0,410.0,1.194,-0.2441,9.6832,-0.0418,0.0528,-0.1188,-1.5310093995979805,0.00011201343295397237,1.9851808547973633,-1.8912687301635742,-0.0,2.16363525390625,4.743651594012537,0.0,0.30171018838882446,-1.597245995198385,0.0,-0.0012784014688804746,0.9703528881072998,0.0,-0.0008887068834155798,0.6431269645690918,1.8994165094372074e-29,0.018744640052318573
340.0,410.0,1.194,-0.2441,9.6832,-0.0418,0.0528,-0.1188,-1.5310014572790642,0.00012953265104442835,1.948563814163208,-1.8912930488586426,-0.0,2.097196578979492,4.743675420969286,0.0,0.3011693060398102,-1.5972417036639612,0.0,-0.010621760971844196,0.9703770279884338,0.0,-0.008119344711303711,0.6430945992469788,8.256201120675172e-39,0.01487877406179905
340.0,410.0,1.194,-0.2441,9.6832,-0.0418,0.0528,-0.1188,-1.5310056035271664,0.00012585564400069416,1.9847129583358765,-1.8912487030029297,-0.0,2.1588470935821533,4.743703591614523,0.0,0.2970331609249115,-1.5972541014300745,0.0,-0.004403911530971527,0.9703161716461182,0.0,-0.00793860387057066,0.6430987119674683,0.0,-0.01787300780415535
340.0,410.0,1.194,-0.2441,9.6832,-0.0418,0.0528,-0.1188,-1.5310014461031933,0.00011360661301296204,1.9581652879714966,-1.8913404941558838,-0.0,2.070034980773926,4.743663514941492,0.0,0.31140345335006714,-1.5972297827350062,0.0,-0.01129166316241026,0.9703524112701416,0.0,0.0026036349590867758,0.6431230902671814,0.0,0.030290614813566208
340.0,410.0,1.194,-0.2441,9.6832,-0.0418,0.0528,-0.1188,-1.5310616952231904,0.00010318599379388615,1.915457010269165,-1.8913569450378418,-0.0,2.143712282180786,4.743651579111376,0.0,0.29052823781967163,-1.59723407426943,0.0,-0.00907189305871725,0.9703404903411865,0.0,0.0003995585720986128,0.6430987119674683,0.0,0.012019773945212364
340.0,410.0,1.194,-0.2441,9.6832,-0.0418,0.0528,-0.1188,-1.5310493421605607,7.562395330751315e-05,1.9211914539337158,-1.8913168907165527,-0.0,2.1183998584747314,4.743683609157362,0.0,0.2964515686035156,-1.5972135702716272,0.0,-0.018930474296212196,0.97037672996521,0.0,0.002935742260888219,0.6430987119674683,0.0,0.054880306124687195
340.0,410.0,1.194,-0.2441,9.6832,-0.0418,0.0528,-0.1188,-1.5310658079436799,6.975305586820468e-05,1.9535020589828491,-1.8913085460662842,-0.0,2.1638879776000977,4.74366760531024,0.0,0.3047056794166565,-1.5972135702716272,0.0,0.009961513802409172,0.9703643321990967,0.0,-0.0020428248681128025,0.6431189775466919,0.0,-0.04044008255004883
340.0,410.0,1.194,-0.2441,9.6832,-0.0418,0.0528,-0.1188,-1.5310213205269356,6.473605026258156e-05,1.9684686660766602,-1.8913085460662842,3.738341830105546e-13,2.109712839126587,4.743631214811959,0.0,0.2918678820133209,-1.5972417036639612,0.0,-0.004036943428218365,0.9703364372253418,0.0,-0.005838264711201191,0.6431107521057129,0.0,0.019193999469280243
359.0,435.0,1.252,-0.6455,9.7388,-0.0246,0.0521,-0.1072,-1.5310456876507779,6.0392176237655804e-05,1.954700231552124,-1.891284704208374,0.0005877974908798933,2.1285247802734375,4.74364751481966,0.0,0.28498098254203796,-1.5972254912005823,0.0,-0.00037666759453713894,0.970332145690918,0.0,-0.015120549127459526,0.6430702209472656,0.0,0.028368065133690834
359.0,435.0,1.252,-0.6455,9.7388,-0.0246,0.0521,-0.1072,-1.5310778890601178,4.178929521003738e-05,1.9699828624725342,-1.891276478767395,0.00035564202698878944,2.1348636150360107,4.743675420969286,0.0,0.29237815737724304,-1.597194019948141,0.0,-0.0014685072237625718,0.9703403115272522,0.0,0.0008409373112954199,0.6430825591087341,0.0,-0.005590710788965225
359.0,435.0,1.252,-0.6455,9.7388,-0.0246,0.0521,-0.1072,-1.5310576011291523,-8.341246575582772e-05,1.9561264514923096,-1.8912930488586426,0.00027020450215786695,2.098287343978882,4.7436795113380334,0.0,0.2945031523704529,-1.5971978346454065,0.0,-0.008434080518782139,0.9703648090362549,0.0,-0.0037931473925709724,0.6431148648262024,0.0,0.005553139373660088
359.0,435.0,1.252,-0.6455,9.7388,-0.0246,0.0521,-0.1072,-1.5310696561685582,-0.0006809378392063081,1.959380030632019,-1.8913331031799316,0.0002178697905037552,2.1065549850463867,4.743671688228407,0.0,0.30641767382621765,-1.5972583929644983,0.0,-0.012517541646957397,0.9703161716461182,0.0,0.00619974359869957,0.643126904964447,0.0,-0.03376159816980362
359.0,435.0,1.252,-0.6455,9.7388,-0.0246,0.0521,-0.1072,-1.5310449574938794,-0.001187359681352973,1.9334702491760254,-1.8912887573242188,0.00014601614384446293,2.1363139152526855,4.743643495231428,5.251124335359236e-08,0.29788127541542053,-1.5972135702716272,0.0,-0.01519974134862423,0.9703078866004944,0.0,-0.00259770848788321,0.6430904865264893,8.191600500140339e-05,8.651800453662872e-05
359.0,435.0,1.252,-0.6455,9.7388,-0.0246,0.0521,-0.1072,-1.531125535523035,-0.0010233524953946471,1.96590256690979,-1.8912889957427979,0.00012563263589981943,2.098841667175293,4.743663906096973,9.54365818144065e-13,0.29900771379470825,-1.5972417036639612,0.0,-0.003632528008893132,0.9703488349914551,0.0,-0.007013787515461445,0.6431590914726257,0.0005241558537818491,-0.05157267302274704
359.0,435.0,1.252,-0.6455,9.7388,-0.0246,0.0521,-0.1072,-1.5311012727073212,-0.0008063242421485484,1.9397790431976318,-1.891312599182129,0.00011024293780792505,2.1231307983398438,4.7436516647930524,1.734512544920606e-17,0.3016591966152191,-1.5972541014300745,0.0,-0.00594571977853775,0.9703161716461182,0.0,-0.007969201542437077,0.6431342959403992,0.0011888634180650115,0.023789700120687485
359.0,435.0,1.252,-0.6455,9.7388,-0.0246,0.0521,-0.1072,-1.5311295327595253,-0.0007399244350381196,1.9524345397949219,-1.891348958015442,9.821262210607529e-05,2.1254782676696777,4.743639352708616,3.1523914233784385e-22,0.2901645600795746,-1.5972216765033167,0.0,-0.019307758659124374,0.9703606963157654,0.0,0.008223769254982471,0.6431626677513123,0.0013374867849051952,-0.01724548265337944
359.0,435.0,1.252,-0.6455,9.7388,-0.0246,0.0521,-0.1072,-1.5311334554902096,-0.0005301061901263893,1.909508466720581,-1.891276478767395,8.854949555825442e-05,2.1440253257751465,4.743655669480123,5.7293153320194475e-27,0.29214343428611755,-1.5972374121295374,0.0,-0.0007128128199838102,0.97027587890625,0.0,-0.006128562614321709,0.6431828737258911,0.0010746234329417348,0.010936083272099495
359.0,435.0,1.252,-0.6455,9.7388,-0.0246,0.0521,-0.1072,-1.5311658208123227,-0.00032693136017769575,1.9677214622497559,-1.8913331031799316,7.885188097134233e-05,2.1150333881378174,4.743703721999683,6.798779410563821e-33,0.3138194680213928,-1.5972541014300745,0.0,-0.005626028869301081,0.9703648090362549,0.0,0.006544762756675482,0.6431947946548462,0.0011163359740749002,0.019744982942938805
359.0,435.0,1.252,-0.6455,9.7388,-0.0246,0.0521,-0.1072,-1.531137542133667,-0.00029799604089930654,1.883288860321045,-1.8913085460662842,7.250005000969395e-05,2.1361265182495117,4.743655669480123,1.235644470832106e-37,0.29288434982299805,-1.5972216765033167,0.0,0.008420372381806374,0.9703607559204102,0.0,0.009182139299809933,0.6431424021720886,0.0011551022762432694,-0.031582340598106384
355.0,415.0,2.0351,0.0431,9.1214,-0.0148,0.0202,-0.1026,-1.5311734576574345,-0.0004988234722986817,1.9311506748199463,-1.8912971019744873,6.709517765557393e-05,2.078922748565674,4.743659461825647,2.2462814383126818e-42,0.29987844824790955,-1.5972054640399378,0.0,-0.005954175256192684,0.9703404903411865,0.0,-0.00783292856067419,0.6432187557220459,0.001414966769516468,0.030308673158288002
355.0,415.0,2.0351,0.0431,9.1214,-0.0148,0.0202,-0.1026,-1.5312096935561677,-0.0010569358710199594,1.9405490159988403,-1.8912808895111084,6.244034739211202e-05,2.1332356929779053,4.743651594012537,0.0,0.30147838592529297,-1.5972417036639612,0.0,-0.005195046775043011,0.9703242182731628,0.0,0.0006590035045519471,0.6432912945747375,0.0016761510632932186,0.014366037212312222
355.0,415.0,2.0351,0.0431,9.1214,-0.0148,0.0202,-0.1026,-1.5311816830984135,-0.001536153955385089,1.9413750171661377,-1.8912724256515503,5.8389443438500166e-05,2.1026880741119385,4.743683609157362,0.0,0.30743515491485596,-1.5972254912005823,0.0,-0.009885880164802074,0.970323920249939,0.0,0.008845275267958641,0.6432589888572693,0.001490295515395701,-0.0050096637569367886
355.0,415.0,2.0351,0.0431,9.1214,-0.0148,0.0202,-0.1026,-1.5312135529569169,-0.0025840678717941046,1.9685457944869995,-1.8912889957427979,4.112663009436801e-05,2.1504201889038086,4.7436515902872465,0.0,0.2886868417263031,-1.5972664991961878,0.0,-0.010942201130092144,0.9703115820884705,0.0,-0.00013331626541912556,0.643263041973114,0.0010847605299204588,0.000898425467312336
355.0,415.0,2.0351,0.0431,9.1214,-0.0148,0.0202,-0.1026,-1.5312292736819764,-0.004823461640626192,1.9660874605178833,-1.8912972211837769,-2.557840161898639e-05,2.1512603759765625,4.743715877621927,0.0,0.2986505627632141,-1.5972097555743616,0.0,-0.011510631069540977,0.9703404903411865,0.0,-0.009562743827700615,0.6432346701622009,0.0008832943858578801,-0.012313395738601685
355.0,415.0,2.0351,0.0431,9.1214,-0.0148,0.0202,-0.1026,-1.5313214746168633,-0.006065556313842535,1.9414368867874146,-1.8913004398345947,-3.987460513599217e-05,2.0901942253112793,4.743667657464304,0.0,0.2970620393753052,-1.597245995198385,0.0,-0.011165054515004158,0.97031569480896,0.0,-0.0034703300334513187,0.6432425379753113,0.0006017097621224821,-0.04250673949718475
355.0,415.0,2.0351,0.0431,9.1214,-0.0148,0.0202,-0.1026,-1.5313813512078305,-0.006008576136082411,1.9354294538497925,-1.8913724422454834,-4.9510439566802233e-05,2.087024688720703,4.7436475334461115,0.0,0.29048269987106323,-1.5972216765033167,0.0,-0.01560131460428238,0.9703607559204102,0.0,-0.00030689407140016556,0.643294632434845,0.0006394129013642669,-0.014062263071537018
355.0,415.0,2.0351,0.0431,9.1214,-0.0148,0.0202,-0.1026,-1.5314814534834404,-0.006396777927875519,1.9282641410827637,-1.8913168907165527,-0.000388710672268644,2.147465229034424,4.743647507369079,0.0,0.3037230670452118,-1.597245995198385,0.0,-0.010861816816031933,0.9703683853149414,0.0,-0.0020917393267154694,0.6432946920394897,0.00088216905714944,-0.002526190597563982
355.0,415.0,2.0351,0.0431,9.1214,-0.0148,0.0202,-0.1026,-1.531512939637043,-0.007742829155176878,1.928107500076294,-1.8913569450378418,-0.0003541231853887439,2.0948429107666016,4.743671669601955,0.0,0.2778263986110687,-1.5972254912005823,0.0,-0.008608986623585224,0.9703683853149414,0.0,-0.001711725490167737,0.6433475017547607,0.0007516610203310847,-0.018142011016607285
355.0,415.0,2.0351,0.0431,9.1214,-0.0148,0.0202,-0.1026,-1.5316252198866387,-0.007822605781257153,1.9292389154434204,-1.8913521766662598,-0.0002891153853852302,2.135028123855591,4.743655669480123,0.0,0.29842609167099,-1.5972541014300745,0.0,-0.00903407484292984,0.97037672996521,0.0,-0.004552929196506739,0.643311083316803,0.0004960262449458241,-0.02206326462328434
355.0,415.0,2.0351,0.0431,9.1214,-0.0148,0.0202,-0.1026,-1.5316531223109742,-0.007133600302040577,1.9367921352386475,-1.8913168907165527,-0.00024427069001831114,2.1697516441345215,4.743647507369079,0.0,0.30239030718803406,-1.5972097555743616,0.0,0.003539527300745249,0.97037672996521,0.0,-0.006990849506109953,0.6433029174804688,0.00034420035080984235,-0.002206689678132534
341.0,426.0,1.5781,-0.0036,9.6054,-0.0377,0.0252,-0.1113,-1.5317492944053193,-0.005387968383729458,1.936880350112915,-1.891304612159729,-0.00010124051914317533,2.13580322265625,4.743671688228407,0.0,0.29808247089385986,-1.597245995198385,0.0,-0.013423274271190166,0.9703882336616516,0.0,0.0029372614808380604,0.6433190703392029,0.0002635489508975297,-0.004688570275902748
341.0,426.0,1.5781,-0.0036,9.6054,-0.0377,0.0252,-0.1113,-1.53172870845113,-0.004732005763798952,1.9308207035064697,-1.8913168907165527,-8.263160270871595e-05,2.131484031677246,4.743651579111376,0.0,0.296096533536911,-1.5972097555743616,0.0,-0.002384947147220373,0.9703643321990967,0.0,0.016926564276218414,0.6433029174804688,0.0002562263107392937,0.02306702546775341
341.0,426.0,1.5781,-0.0036,9.6054,-0.0377,0.0252,-0.1113,-1.5317808774164696,-0.00563686853274703,1.9632833003997803,-1.8913644552230835,-3.492561882012524e-05,2.1212916374206543,4.743655669480123,0.0,0.30540531873703003,-1.5972583929644983,0.0,-0.009506535716354847,0.9704120755195618,0.0,0.005834311246871948,0.6433432102203369,0.00028567566187120974,-0.0059202807024121284
341.0,426.0,1.5781,-0.0036,9.6054,-0.0377,0.0252,-0.1113,-1.5318808120540162,-0.007044999394565821,1.9769673347473145,-1.8913004398345947,-1.3914115015722928e-07,2.1241159439086914,4.74361924917952,0.0,0.30234771966934204,-1.5972297827350062,0.0,0.002652898896485567,0.9703881740570068,0.00028094384470023215,0.01231204904615879,0.6433514356613159,0.00028730035410262644,0.06264577805995941
341.0,426.0,1.5781,-0.0036,9.6054,-0.0377,0.0252,-0.1113,-1.5319325563362618,-0.007119543384760618,1.9100497961044312,-1.8912849426269531,-4.5079965896809536e-15,2.1119160652160645,4.743635290279546,0.0,0.2996990978717804,-1.5972374121295374,0.0,-0.01381897646933794,0.9704123139381409,0.000342354440363124,0.018831424415111542,0.6433749198913574,0.0018415047088637948,-0.028034742921590805
341.0,426.0,1.5781,-0.0036,9.6054,-0.0377,0.0252,-0.1113,-1.5319847253016015,-0.007100580260157585,1.9562503099441528,-1.8912889957427979,-1.4605336830721835e-22,2.1469271183013916,4.743651608913698,0.0,0.3025481402873993,-1.5972541014300745,0.0,-0.012257935479283333,0.9704041481018066,0.0003658933565020561,0.019377952441573143,0.6433790326118469,0.00583541439846158,0.05140070989727974
341.0,426.0,1.5781,-0.0036,9.6054,-0.0377,0.0252,-0.1113,-1.5320527491024514,-0.008704760111868382,1.9265460968017578,-1.8913209438323975,-4.731943293359408e-30,2.139626979827881,4.74367584937767,0.0,0.305181622505188,-1.5971892515765589,0.0,-0.01045864075422287,0.9703844785690308,0.0005027560400776565,0.015796320512890816,0.6434631943702698,0.010768293403089046,0.06462790071964264
341.0,426.0,1.5781,-0.0036,9.6054,-0.0377,0.0252,-0.1113,-1.5321367134204884,-0.009282680228352547,1.9416077136993408,-1.8913414478302002,-1.5330893517519175e-37,2.107476234436035,4.743659841805258,0.0,0.3028121590614319,-1.5972097555743616,0.0,-0.0046972669661045074,0.9703677892684937,0.0005665448843501508,0.014025578275322914,0.6435351967811584,0.009815426543354988,0.052428267896175385
341.0,426.0,1.5781,-0.0036,9.6054,-0.0377,0.0252,-0.1113,-1.532204584484436,-0.010514532215893269,1.9151570796966553,-1.891312599182129,0.0002918587124440819,2.1217641830444336,4.743675420969286,0.0,0.2965337634086609,-1.597262207661764,0.0,-0.009338822215795517,0.9703841209411621,0.0005933601642027497,0.014217663556337357,0.6436070203781128,0.01066514290869236,-0.0016027656383812428
341.0,426.0,1.5781,-0.0036,9.6054,-0.0377,0.0252,-0.1113,-1.5323488128236313,-0.014239169657230377,1.9322173595428467,-1.8912930488586426,0.00027810438768938184,2.1309285163879395,4.743699586927452,0.0,0.29797497391700745,-1.5971978346454065,0.0,-0.002510741353034973,0.9704079627990723,0.000559119216632098,0.024488188326358795,0.6437514424324036,0.012087465263903141,0.03152915835380554
341.0,426.0,1.5781,-0.0036,9.6054,-0.0377,0.0252,-0.1113,-1.5324080039611836,-0.017968537285923958,1.8989746570587158,-1.8913207054138184,0.00026902180979959667,2.1646387577056885,4.743715940951862,0.0,0.31448984146118164,-1.5972374121295374,0.0,0.005671053193509579,0.9703518152236938,0.00044564969721250236,0.022219136357307434,0.6437990665435791,0.01307038776576519,0.02043253555893898
352.0,398.0,1.4411,-0.4241,9.3847,-0.0192,0.0151,-0.0825,-1.532668301170208,-0.023465771228075027,1.8750369548797607,-1.8912642002105713,0.0004207923775538802,2.1498489379882812,4.743655669480123,0.0,0.31762921810150146,-1.5972378889666956,0.0,-0.0039979806169867516,0.9703718423843384,0.000386791885830462,0.027580805122852325,0.6439593434333801,0.01435489859431982,0.02662968821823597
352.0,398.0,1.4411,-0.4241,9.3847,-0.0192,0.0151,-0.0825,-1.5329365108958264,-0.03001653030514717,1.8588765859603882,-1.891268253326416,0.0007689018966630101,2.1568100452423096,4.74368358680562,0.0,0.3083344101905823,-1.5972378889666956,0.0,-0.010250461287796497,0.970451831817627,0.0002852546167559922,0.020127072930336,0.6440756320953369,0.01560601033270359,0.05685384199023247
352.0,398.0,1.4411,-0.4241,9.3847,-0.0192,0.0151,-0.0825,-1.5331274730018158,-0.03760353475809097,1.8090167045593262,-1.8912197351455688,0.0007262448198162019,2.1395788192749023,4.743675420969286,0.0,0.29815518856048584,-1.597245995198385,0.0,0.0062125129625201225,0.9703919291496277,0.000272473698714748,0.0278082937002182,0.6442115902900696,0.01622922159731388,0.03602468967437744
352.0,398.0,1.4411,-0.4241,9.3847,-0.0192,0.0151,-0.0825,-1.5335521411946793,-0.04988204687833786,1.8504540920257568,-1.8912690877914429,0.0010848623933270574,2.090824604034424,4.743687688350239,0.0,0.3008800148963928,-1.5972135702716272,0.0,0.00696587935090065,0.9704276919364929,0.00026461726520210505,0.022685781121253967,0.644359827041626,0.017922500148415565,0.03809330612421036
352.0,398.0,1.4411,-0.4241,9.3847,-0.0192,0.0151,-0.0825,-1.5339512315443535,-0.06284860521554947,1.8688730001449585,-1.8912320137023926,0.004449847154319286,2.119612455368042,4.7437200275953195,0.0,0.2922145128250122,-1.5972135702716272,0.0,-0.015573644079267979,0.9704480767250061,0.0002588013303466141,0.027511529624462128,0.6444998383522034,0.01872703805565834,0.07030723989009857
352.0,398.0,1.4411,-0.4241,9.3847,-0.0192,0.0151,-0.0825,-1.5345151622644444,-0.076667420566082,1.7902522087097168,-1.8912012577056885,0.008649997413158417,2.160191297531128,4.743715512543478,2.5428054106768627e-10,0.2969904839992523,-1.5972297827350062,0.0,-0.0001781882019713521,0.9704239368438721,0.000257231411524117,0.03038807213306427,0.6446605920791626,0.019337307661771774,0.04782934859395027
352.0,398.0,1.4411,-0.4241,9.3847,-0.0192,0.0151,-0.0825,-1.5352149058929463,-0.09088696539402008,1.788092851638794,-1.891072392463684,0.007988622412085533,2.1368448734283447,4.7436914322669885,4.621422348131303e-15,0.3123091459274292,-1.5972417036639612,0.0,0.00279916706494987,0.9703837633132935,0.0002494539075996727,0.022059809416532516,0.6447880864143372,0.02120283618569374,0.072353795170784
352.0,398.0,1.4411,-0.4241,9.3847,-0.0192,0.0151,-0.0825,-1.5362103332630177,-0.1001533716917038,1.8134788274765015,-1.8910409212112427,0.008846022188663483,2.173002243041992,4.743691480695762,0.0004316670529078692,0.29762697219848633,-1.5972097555743616,0.0,-0.0010771886445581913,0.9704034924507141,0.00022122891095932573,0.0326995812356472,0.6450327038764954,0.021040132269263268,0.047435030341148376
352.0,398.0,1.4411,-0.4241,9.3847,-0.0192,0.0151,-0.0825,-1.5370091696134587,-0.10033430904150009,1.796776533126831,-1.8909491300582886,0.006545364391058683,2.1752164363861084,4.743663026928463,0.00032757557346485555,0.2986714839935303,-1.5972054640399378,0.0,-0.006512025836855173,0.9704796075820923,0.00020722376939374954,0.03276123106479645,0.6451520323753357,0.02169737219810486,0.07778629660606384
352.0,398.0,1.4411,-0.4241,9.3847,-0.0192,0.0151,-0.0825,-1.5378204707852383,-0.10335720330476761,1.7845330238342285,-1.8908922672271729,0.0027880878187716007,2.101473569869995,4.743655241071739,0.00026359077310189605,0.29802560806274414,-1.5972297827350062,0.0,0.0011159442365169525,0.970447838306427,0.00020928804588038474,0.04437226802110672,0.645400881767273,0.022359848022460938,0.03626077622175217
360.0,421.0,0.856,-0.0682,9.3769,-0.0421,-0.0617,-0.0899,-1.5386918944171448,-0.11040441691875458,1.8375306129455566,-1.8908250331878662,0.00043367844773456454,2.1575846672058105,4.743659428298034,0.00025662322877906263,0.307658314704895,-1.5972541014300745,0.0,-0.0004493407905101776,0.970439612865448,0.00024330410815309733,0.029701536521315575,0.6455608606338501,0.025476502254605293,0.08446162194013596
360.0,421.0,0.856,-0.0682,9.3769,-0.0421,-0.0617,-0.0899,-1.5395347786000748,-0.11914362013339996,1.7878825664520264,-1.8908767700195312,0.00010633120109559968,2.1162984371185303,4.743667225330629,9.619402408134192e-05,0.30338817834854126,-1.5972216765033167,0.0,-0.005831896793097258,0.9704154133796692,0.00027386899455450475,0.03663192316889763,0.6457852125167847,0.027380067855119705,0.08035658299922943
360.0,421.0,0.856,-0.0682,9.3769,-0.0421,-0.0617,-0.0899,-1.5404981852373858,-0.12851855158805847,1.769818663597107,-1.8908848762512207,0.00028562708757817745,2.1235764026641846,4.743715940951862,0.00011884052219102159,0.3096662759780884,-1.5972135702716272,0.0,0.004877012223005295,0.9704477787017822,0.00046111136907711625,0.04619089886546135,0.6460095643997192,0.030438952147960663,0.16464956104755402
360.0,421.0,0.856,-0.0682,9.3769,-0.0421,-0.0617,-0.0899,-1.5415616084686299,-0.13570059835910797,1.8152859210968018,-1.8908610343933105,0.0036021771375089884,2.163245677947998,4.743674929230966,0.00021959564764983952,0.31312042474746704,-1.5972421805011194,0.0,-0.014738140627741814,0.9704556465148926,0.00045941161806695163,0.054243966937065125,0.6462616324424744,0.03504247963428497,0.12539812922477722
360.0,421.0,0.856,-0.0682,9.3769,-0.0421,-0.0617,-0.0899,-1.5427210603705426,-0.13532181084156036,1.818985104560852,-1.8907883167266846,0.005490614101290703,2.150024890899658,4.743739745556869,0.0002373825409449637,0.33170604705810547,-1.5972216765033167,0.0,-0.0050736078992486,0.9705033302307129,0.0006058337166905403,0.038431547582149506,0.646614134311676,0.042349398136138916,0.158739373087883
360.0,421.0,0.856,-0.0682,9.3769,-0.0421,-0.0617,-0.0899,-1.5440512181124468,-0.138071209192276,1.8234174251556396,-1.8908123970031738,0.0022918623872101307,2.1869897842407227,4.743671293347635,0.00017851113807410002,0.3139193654060364,-1.59723407426943,0.0,-0.0012941148597747087,0.970535933971405,0.000634457974229008,0.042954593896865845,0.6470984816551208,0.056465744972229004,0.13748320937156677
360.0,421.0,0.856,-0.0682,9.3769,-0.0421,-0.0617,-0.0899,-1.5452425398728629,-0.1509857028722763,1.7791049480438232,-1.8908288478851318,0.00044655040255747736,2.0524871349334717,4.7436712858970544,0.00014895778440404683,0.32396411895751953,-1.5972097555743616,0.0,-0.009410095401108265,0.9704830646514893,0.0005763945518992841,0.04814361408352852,0.6475508809089661,0.06958842277526855,0.18240167200565338
360.0,421.0,0.856,-0.0682,9.3769,-0.0421,-0.0617,-0.0899,-1.5464337964406987,-0.16203847527503967,1.7720316648483276,-1.890869140625,-0.0002072805946227163,2.1569337844848633,4.743723797589102,0.00012780218094121665,0.3226153254508972,-1.5972664991961878,0.0,-0.0022750464268028736,0.9705073833465576,0.0004883925430476665,0.03957317769527435,0.6481799483299255,0.08043452352285385,0.17983408272266388
360.0,421.0,0.856,-0.0682,9.3769,-0.0421,-0.0617,-0.0899,-1.5476322651705523,-0.15888608992099762,1.8113064765930176,-1.8907803297042847,0.0015630141133442521,2.1364073753356934,4.743723741709747,0.00011190908844582736,0.30988138914108276,-1.5972102324115198,0.0,-0.010884090326726437,0.9705154895782471,0.0005404250114224851,0.04548466578125954,0.6488970518112183,0.08303949981927872,0.18158459663391113
360.0,421.0,0.856,-0.0682,9.3769,-0.0421,-0.0617,-0.0899,-1.548932086010911,-0.15787743031978607,1.7833776473999023,-1.8907006978988647,0.004139239434152842,2.1280317306518555,4.743687278568306,9.95316804619506e-05,0.31629860401153564,-1.5972498098956507,0.0,-0.006585276685655117,0.9705400466918945,0.0005499097751453519,0.0501389354467392,0.6495251059532166,0.08554092049598694,0.2063535451889038
360.0,421.0,0.856,-0.0682,9.3769,-0.0421,-0.0617,-0.0899,-1.5501982246390362,-0.16065122187137604,1.7564561367034912,-1.8906840085983276,0.004413904622197151,2.1570487022399902,4.7437196029122255,8.962005813373253e-05,0.32852935791015625,-1.5972254912005823,0.0,-0.005317169241607189,0.9704995155334473,0.0006394342053681612,0.04213409125804901,0.6502217650413513,0.08646734058856964,0.21506769955158234
364.0,8190.0,1.2808,-0.7753,8.9085,0.0191,-0.1124,-0.0119,-1.5514691111496468,-0.1651913821697235,1.805243730545044,-1.8906962871551514,0.0026093730702996254,2.1544294357299805,4.743675413518705,8.150372741511092e-05,0.31932735443115234,-1.5971892515765589,0.0,-0.013303965330123901,0.9705679416656494,0.0005871452740393579,0.05486936494708061,0.6509262323379517,0.08435805141925812,0.23688969016075134
364.0,8190.0,1.2808,-0.7753,8.9085,0.0191,-0.1124,-0.0119,-1.5528359536877652,-0.16853868961334229,1.7898776531219482,-1.8906735181808472,0.002165385754778981,2.1566710472106934,4.743735610484638,0.00010526611731620505,0.30984950065612793,-1.5972664991961878,0.0,-0.01589222066104412,0.9704830050468445,0.0006027562776580453,0.05541587620973587,0.6516111493110657,0.08799832314252853,0.21193024516105652
364.0,8190.0,1.2808,-0.7753,8.9085,0.0191,-0.1124,-0.0119,-1.5545269449106236,-0.17467007040977478,1.8160194158554077,-1.8907018899917603,0.0036496224347501993,2.1132779121398926,4.74371553862051,0.00014495245704893023,0.31277012825012207,-1.5972297827350062,0.0,-0.01782968081533909,0.9704834818840027,0.0006272629834711552,0.04499591886997223,0.6524593830108643,0.09688977897167206,0.2381875365972519
364.0,8190.0,1.2808,-0.7753,8.9085,0.0191,-0.1124,-0.0119,-1.5558977139047165,-0.17945630848407745,1.8584502935409546,-1.8905770778656006,0.005161636509001255,2.1458215713500977,4.7437598062451265,0.0013850968098267913,0.3131500780582428,-1.5972417036639612,0.0,-0.01016467995941639,0.9704790115356445,0.0007518435595557094,0.05606978386640549,0.6533087491989136,0.10441561043262482,0.26035478711128235
364.0,8190.0,1.2808,-0.7753,8.9085,0.0191,-0.1124,-0.0119,-1.5573681092685838,-0.17477835714817047,1.8361608982086182,-1.8905160427093506,0.009662901051342487,2.1067392826080322,4.743759355485,0.0061868890188634396,0.3247450292110443,-1.5972498098956507,0.0,-0.02135411649942398,0.9705150127410889,0.0007247109897434711,0.04021832346916199,0.6541255116462708,0.10965728014707565,0.21345123648643494
364.0,8190.0,1.2808,-0.7753,8.9085,0.0191,-0.1124,-0.0119,-1.558810975668468,-0.17342722415924072,1.883994221687317,-1.8904528617858887,0.01098878588527441,2.1484827995300293,4.743895682483473,0.021735236048698425,0.33788424730300903,-1.597189728413717,0.0,-0.011871060356497765,0.9705193042755127,0.0006880692089907825,0.04900158941745758,0.6550503373146057,0.11653105914592743,0.2448185384273529
364.0,8190.0,1.2808,-0.7753,8.9085,0.0191,-0.1124,-0.0119,-1.560361686428525,-0.1932058036327362,1.8668304681777954,-1.8904051780700684,0.006481465883553028,2.1095831394195557,4.744087397098102,0.02438686229288578,0.3416450619697571,-1.5971859137164515,0.0,-0.006889308802783489,0.9705760478973389,0.0006138639291748405,0.05213825777173042,0.6560030579566956,0.11409355700016022,0.24511003494262695
364.0,8190.0,1.2808,-0.7753,8.9085,0.0191,-0.1124,-0.0119,-1.5619284466705103,-0.20899657905101776,1.8442047834396362,-1.890268087387085,0.006627625320106745,2.1259853839874268,4.744323155819931,0.025643570348620415,0.33398136496543884,-1.5971935431109827,0.0,-0.01393367350101471,0.9704835414886475,0.000489827711135149,0.047684039920568466,0.6568878889083862,0.10662142932415009,0.18283775448799133
364.0,8190.0,1.2808,-0.7753,8.9085,0.0191,-0.1124,-0.0119,-1.5635746929659327,-0.1946176141500473,1.8743187189102173,-1.8902405500411987,0.014245991595089436,2.1471927165985107,4.744550763606586,0.02910015545785427,0.33827051520347595,-1.5972135702716272,0.0,-0.006381898652762175,0.970531702041626,0.0005362716619856656,0.04696190729737282,0.6577364802360535,0.10885986685752869,0.18788781762123108
364.0,8190.0,1.2808,-0.7753,8.9085,0.0191,-0.1124,-0.0119,-1.5651776150665064,-0.18919260799884796,1.8708066940307617,-1.8901171684265137,0.0179430041462183,2.1617515087127686,4.744742798596182,0.024066755548119545,0.34366798400878906,-1.597205940877096,0.0,-0.009966925717890263,0.9705150723457336,0.000512345286551863,0.031244000419974327,0.6586092710494995,0.1134767159819603,0.21288153529167175
364.0,8190.0,1.2808,-0.7753,8.9085,0.0191,-0.1124,-0.0119,-1.5671998544460912,-0.2109239101409912,1.8433845043182373,-1.889952301979065,0.012790733948349953,2.1822190284729004,4.744890193432131,0.008864758536219597,0.3288116753101349,-1.5971935431109827,0.0,-0.012956115417182446,0.9705150723457336,0.0004163078556302935,0.03702948987483978,0.659810483455658,0.12135564535856247,0.2525201141834259
366.0,694.0,1.1761,0.408,9.4505,0.0142,-0.1378,0.004,-1.5688667000834648,-0.20901724696159363,1.9005099534988403,-1.8899173736572266,0.010879709385335445,2.139772891998291,4.744918453484335,0.0015699743526056409,0.33470529317855835,-1.5972259680377405,0.0,-0.0048067159950733185,0.9705150723457336,0.00032692489912733436,0.03821466863155365,0.6607996225357056,0.12740984559059143,0.2387136071920395
366.0,694.0,1.1761,0.408,9.4505,0.0142,-0.1378,0.004,-1.5704326843009149,-0.2037801444530487,1.8666284084320068,-1.8897720575332642,0.009883539751172066,2.165372133255005,4.744910190790453,0.0006024214089848101,0.33870354294776917,-1.5972097555743616,0.0,-0.010186685249209404,0.9706159234046936,0.000303850305499509,0.04863879829645157,0.6617560982704163,0.12232876569032669,0.2543766498565674
366.0,694.0,1.1761,0.408,9.4505,0.0142,-0.1378,0.004,-1.5720278225340785,-0.20403005182743073,1.9230036735534668,-1.8897132873535156,0.00938238576054573,2.1364426612854004,4.744922152697601,0.0003920855524484068,0.3283259868621826,-1.597205940877096,0.0,0.002187057863920927,0.9706200957298279,0.0002682620252016932,0.043249115347862244,0.6627728939056396,0.12146814167499542,0.20731353759765625
366.0,694.0,1.1761,0.408,9.4505,0.0142,-0.1378,0.004,-1.573677202264303,-0.20152312517166138,1.8913695812225342,-1.8896406888961792,0.00885094702243805,2.1538376808166504,4.744966383069315,0.0003486844361759722,0.32792720198631287,-1.5972378889666956,0.0,0.006701236590743065,0.9705636501312256,0.0002444997080601752,0.03673715889453888,0.6637858748435974,0.12213929742574692,0.2061237245798111
366.0,694.0,1.1761,0.408,9.4505,0.0142,-0.1378,0.004,-1.5753284893431605,-0.19599087536334991,1.8776965141296387,-1.8895732164382935,0.007982496172189713,2.162921667098999,4.744938123017111,0.00032331683905795217,0.3410417437553406,-1.5971859137164515,0.0,-0.0035639810375869274,0.9705276489257812,0.000211640028283,0.03574800863862038,0.664770781993866,0.1224687322974205,0.22277671098709106
366.0,694.0,1.1761,0.408,9.4505,0.0142,-0.1378,0.004,-1.5768186054625453,-0.200162872672081,1.9301377534866333,-1.8895606994628906,0.004474989138543606,2.116772413253784,4.744922111719408,0.0002682775375433266,0.31706950068473816,-1.5972335974322718,0.0,-0.001902638585306704,0.9704987406730652,0.00021320120140444487,0.04490906000137329,0.6657831072807312,0.1271771490573883,0.19217365980148315
366.0,694.0,1.1761,0.408,9.4505,0.0142,-0.1378,0.004,-1.5784055195250453,-0.2053844928741455,1.925905466079712,-1.8895576000213623,0.0016001376789063215,2.1803181171417236,4.7449421910341165,6.774438224965706e-05,0.33843863010406494,-1.5972016493426722,0.0,-0.013252105563879013,0.9705395102500916,0.00019062049977947026,0.02540111541748047,0.6668566465377808,0.13057400286197662,0.2207661271095276
366.0,694.0,1.1761,0.408,9.4505,0.0142,-0.1378,0.004,-1.5803920231261195,-0.20206598937511444,1.9074344635009766,-1.8894966840744019,0.0005401125526987016,2.105560779571533,4.744922111719408,8.448849257547408e-05,0.3290210962295532,-1.5972259680377405,0.0,-0.005512924864888191,0.9704987406730652,0.00014757545432075858,0.03474962338805199,0.6682021617889404,0.1345401406288147,0.24015283584594727
366.0,694.0,1.1761,0.408,9.4505,0.0142,-0.1378,0.004,-1.5819469890990199,-0.19855526089668274,1.8771014213562012,-1.889492154121399,0.0012016046093776822,2.1146998405456543,4.744934461056747,7.58611859055236e-05,0.32566559314727783,-1.5972378889666956,0.0,-0.008249685168266296,0.970531702041626,0.00015654989692848176,0.03472977876663208,0.6692953705787659,0.13227276504039764,0.21167397499084473
366.0,694.0,1.1761,0.408,9.4505,0.0142,-0.1378,0.004,-1.5835253200926722,-0.1956191062927246,1.9084128141403198,-1.8894892930984497,0.0023697461001574993,2.138291120529175,4.7449220707412145,9.092147956835106e-05,0.3307356834411621,-1.597222153340475,0.0,-0.00768502801656723,0.9705796837806702,0.00016286567552015185,0.038059838116168976,0.6703323125839233,0.12695306539535522,0.16348305344581604
366.0,694.0,1.1761,0.408,9.4505,0.0142,-0.1378,0.004,-1.5850917301573695,-0.19725719094276428,1.9671101570129395,-1.8894976377487183,0.001881511532701552,2.1798903942108154,4.745002507209339,8.258433808805421e-05,0.3293583393096924,-1.597217861806051,0.0,-0.013041246682405472,0.9705679416656494,0.00014825629477854818,0.03885386884212494,0.6713566780090332,0.12947306036949158,0.2376512885093689
390.0,917.0,1.7934,-0.0897,9.2106,-0.013,-0.1611,0.0272,-1.586665769616598,-0.2067308872938156,1.9399428367614746,-1.8894851207733154,0.000598431215621531,2.1440436840057373,4.744958220958271,7.5643059972208e-05,0.33528611063957214,-1.59723407426943,0.0,-0.004030605778098106,0.9705395698547363,0.00013550101721193641,0.0347725935280323,0.6723089218139648,0.12981054186820984,0.20193026959896088
390.0,917.0,1.7934,-0.0897,9.2106,-0.013,-0.1611,0.0272,-1.5883690319456996,-0.2052382528781891,1.9456794261932373,-1.8894654512405396,0.0004679599078372121,2.0842185020446777,4.744934021472492,6.983429193496704e-05,0.32898759841918945,-1.5971935431109827,0.0,-0.00029446673579514027,0.9705153703689575,0.00012476657866500318,0.04073736071586609,0.6733740568161011,0.13604381680488586,0.22114163637161255
390.0,917.0,1.7934,-0.0897,9.2106,-0.013,-0.1611,0.0272,-1.589975973168844,-0.1921478807926178,1.9574384689331055,-1.8894448280334473,0.0044589112512767315,2.142958402633667,4.744954134314813,0.00010898873733822256,0.3318137526512146,-1.5971692244159144,0.0,0.007496103644371033,0.9705876111984253,0.00013212335761636496,0.0287853442132473,0.6744674444198608,0.1345432549715042,0.2177371382713318
390.0,917.0,1.7934,-0.0897,9.2106,-0.013,-0.1611,0.0272,-1.5920821628966273,-0.20936091244220734,1.9466265439987183,-1.8893847465515137,0.0039148638024926186,2.1155362129211426,4.744954134314813,9.748343290993944e-05,0.3257903754711151,-1.5972421805011194,0.0,-0.015080497600138187,0.9705476760864258,0.0001210195041494444,0.029464375227689743,0.6757282614707947,0.12596562504768372,0.2188025712966919
390.0,917.0,1.7934,-0.0897,9.2106,-0.013,-0.1611,0.0272,-1.5937687359251917,-0.21643280982971191,1.93068265914917,-1.8893778324127197,0.0033206751104444265,2.144597053527832,4.7449622032936,0.00010425658547319472,0.31640392541885376,-1.5972016493426722,0.0,-0.008741442114114761,0.9705555438995361,0.00011339545744704083,0.030611082911491394,0.676721453666687,0.12112373858690262,0.21060039103031158
390.0,917.0,1.7934,-0.0897,9.2106,-0.013,-0.1611,0.0272,-1.5955316028990687,-0.20641285181045532,2.003258466720581,-1.8893132209777832,0.005779474042356014,2.106574058532715,4.744997966080465,0.0009651680593378842,0.3183457553386688,-1.5972254912005823,0.0,-0.015037604607641697,0.9705596566200256,0.00010667507740436122,0.03114168345928192,0.6776826977729797,0.11768246442079544,0.18726199865341187
390.0,917.0,1.7934,-0.0897,9.2106,-0.013,-0.1611,0.0272,-1.597234388391012,-0.2107328325510025,1.977431058883667,-1.889302134513855,0.00643233023583889,2.1433801651000977,4.74498604515151,0.0012513425899669528,0.32845163345336914,-1.5971859137164515,0.0,-0.023527642711997032,0.9705796837806702,0.00010070684220409021,0.0365355908870697,0.6786351799964905,0.1258448362350464,0.24271529912948608
390.0,917.0,1.7934,-0.0897,9.2106,-0.013,-0.1611,0.0272,-1.598952432672018,-0.22034336626529694,1.967815637588501,-1.889204502105713,0.005921043921262026,2.072049140930176,4.744941784977474,0.0007670968188904226,0.3146061301231384,-1.597194019948141,0.0,-0.022933004423975945,0.9705954790115356,9.537104051560163e-05,0.02876322530210018,0.6796278357505798,0.13153290748596191,0.23780664801597595
390.0,917.0,1.7934,-0.0897,9.2106,-0.013,-0.1611,0.0272,-1.600720068017477,-0.2089099884033203,1.9758763313293457,-1.8891816139221191,0.0049562943167984486,2.1185550689697266,4.7449540486331365,0.0005156421684660017,0.33162033557891846,-1.5972135702716272,0.0,-0.023376744240522385,0.9705355167388916,9.057204442797229e-05,0.02512948587536812,0.6806410551071167,0.1264464557170868,0.21338219940662384
390.0,917.0,1.7934,-0.0897,9.2106,-0.013,-0.1611,0.0272,-1.602426668206686,-0.21345245838165283,1.955310583114624,-1.8891609907150269,0.003227001056075096,2.1160378456115723,4.744974124222555,0.0003883938188664615,0.324038565158844,-1.597189728413717,0.0,-0.008357765153050423,0.9706154465675354,8.623299800092354e-05,0.03752853721380234,0.6816419363021851,0.11808551847934723,0.20185664296150208
390.0,917.0,1.7934,-0.0897,9.2106,-0.013,-0.1611,0.0272,-1.6041132412352503,-0.2235226333141327,1.9515769481658936,-1.8891581296920776,0.0019813126418739557,2.123216390609741,4.744986037700929,0.0003115388099104166,0.3097299039363861,-1.5971859137164515,0.0,-0.026482488960027695,0.9705560803413391,8.229072409449145e-05,0.01676671952009201,0.6825703978538513,0.11398738622665405,0.29556265473365784
449.0,8190.0,2.263,-2.0189,9.4235,-0.0825,-0.1955,0.0536,-1.6063200436034144,-0.2143070548772812,1.940077543258667,-1.8890976905822754,0.004562940448522568,2.085963726043701,4.744990139245548,0.0002854482445400208,0.3138647675514221,-1.597222153340475,0.0,-0.01946435123682022,0.9705514907836914,6.827178003732115e-05,0.028537504374980927,0.6836472749710083,0.12061353027820587,0.2561368942260742
449.0,8190.0,2.263,-2.0189,9.4235,-0.0825,-0.1955,0.0536,-1.6079303226866664,-0.20929981768131256,1.9847581386566162,-1.889098048210144,0.006832887418568134,2.1582655906677246,4.744977752655306,0.00020320226030889899,0.3167121112346649,-1.597245995198385,0.0,-0.03515615314245224,0.9705595970153809,6.436540570575744e-05,0.03001163899898529,0.6846404075622559,0.12472710013389587,0.19106948375701904
449.0,8190.0,2.263,-2.0189,9.4235,-0.0825,-0.1955,0.0536,-1.6096250019469203,-0.21381817758083344,1.9849529266357422,-1.8890128135681152,0.006215785630047321,2.1166577339172363,4.74498604515151,0.00014828973507974297,0.31771236658096313,-1.5972302595721644,0.0,-0.004292280878871679,0.9705875515937805,6.088212103350088e-05,0.04313899576663971,0.6856689453125,0.12672261893749237,0.22045229375362396
449.0,8190.0,2.263,-2.0189,9.4235,-0.0825,-0.1955,0.0536,-1.611307760278219,-0.21617837250232697,1.9521400928497314,-1.8889442682266235,0.004592652898281813,2.1013221740722656,4.744958109199562,0.00015621172497048974,0.3211404085159302,-1.5972541014300745,0.0,-0.011697662994265556,0.9705715179443359,5.775648605776951e-05,0.03599221259355545,0.6866618394851685,0.1278621256351471,0.20707961916923523
449.0,8190.0,2.263,-2.0189,9.4235,-0.0825,-0.1955,0.0536,-1.6130148373045863,-0.21723125874996185,1.984900951385498,-1.8889497518539429,0.00415981188416481,2.131322145462036,4.744981943606891,0.00014005773118697107,0.3196808695793152,-1.597217861806051,0.0,-0.013788839802145958,0.970535933971405,5.493613571161404e-05,0.03399474173784256,0.6876425743103027,0.11538815498352051,0.22966058552265167
449.0,8190.0,2.263,-2.0189,9.4235,-0.0825,-0.1955,0.0536,-1.6146613560118617,-0.21237501502037048,1.9972443580627441,-1.8888976573944092,0.0062865703366696835,2.116175651550293,4.745002075075664,0.0001452605938538909,0.3143303692340851,-1.5972259680377405,0.0,-0.019734639674425125,0.9705514311790466,5.237841105554253e-05,0.019013984128832817,0.6886196732521057,0.11599394679069519,0.19909346103668213
449.0,8190.0,2.263,-2.0189,9.4235,-0.0825,-0.1955,0.0536,-1.6163002453246058,-0.20638178288936615,2.0052602291107178,-1.8888620138168335,0.008849499747157097,2.2080957889556885,4.745013891696491,0.00013532133016269654,0.31618189811706543,-1.5971859137164515,0.0,-0.02589801512658596,0.9705555438995361,5.004827107768506e-05,0.020708998665213585,0.6894801259040833,0.12284073233604431,0.22473381459712982
449.0,8190.0,2.263,-2.0189,9.4235,-0.0825,-0.1955,0.0536,-1.6179467640318812,-0.2094990611076355,2.0684869289398193,-1.8886840343475342,0.010774523951113224,2.1806278228759766,4.745010117977419,0.00017750875849742442,0.31545910239219666,-1.5972135702716272,0.0,0.00010497402399778366,0.9705796837806702,3.5400584685874037e-09,0.015878530219197273,0.6905016899108887,0.1223042830824852,0.2437455654144287
449.0,8190.0,2.263,-2.0189,9.4235,-0.0825,-0.1955,0.0536,-1.6200815639891566,-0.2034805715084076,2.0428457260131836,-1.8886418342590332,0.014574636705219746,2.174335241317749,4.745042185276308,0.0008483452838845551,0.3341498076915741,-1.5972102324115198,0.0,-0.011994612403213978,0.9705476760864258,4.200864137072439e-15,0.02889111265540123,0.6917548179626465,0.12564893066883087,0.2036445438861847
449.0,8190.0,2.263,-2.0189,9.4235,-0.0825,-0.1955,0.0536,-1.6217719517149867,-0.20771460235118866,2.0717992782592773,-1.8884925842285156,0.0167972631752491,2.2192108631134033,4.745026136725702,0.000698516727425158,0.328322172164917,-1.5971816221820276,1.1291215429309887e-07,-0.006154739763587713,0.9705756306648254,7.634862190462814e-20,0.02343062497675419,0.6927353739738464,0.12025506794452667,0.19103598594665527
449.0,8190.0,2.263,-2.0189,9.4235,-0.0825,-0.1955,0.0536,-1.623490949670309,-0.22204998135566711,2.019291877746582,-1.8883048295974731,0.018508290871977806,2.138139247894287,4.745038046478786,0.0005458206869661808,0.3297044038772583,-1.5972664991961878,2.052122577769766e-12,0.015996044501662254,0.9705756306648254,1.3875986408899339e-24,0.01911843754351139,0.6936964392662048,0.11428766697645187,0.2081528902053833
528.0,952.0,2.1631,-1.5392,9.4451,-0.1342,-0.1643,-0.0406,-1.6252685985960902,-0.2171323001384735,2.068021535873413,-1.8880952596664429,0.02492590993642807,2.235470771789551,4.745058055012979,0.000920439197216183,0.3288547992706299,-1.597194019948141,3.7296309888040037e-17,0.004660507198423147,0.970531702041626,2.5218919633275757e-29,0.015079997479915619,0.6945972442626953,0.1120547205209732,0.1790662258863449
528.0,952.0,2.1631,-1.5392,9.4451,-0.1342,-0.1643,-0.0406,-1.6270362339415492,-0.20762233436107635,2.0814952850341797,-1.8879090547561646,0.03465507924556732,2.221662998199463,4.7450740588601015,0.003999198321253061,0.33020785450935364,-1.5972016493426722,6.778420487832345e-22,-0.010526105761528015,0.9705235362052917,4.583414104329337e-34,0.0193316787481308,0.6955378651618958,0.10895613580942154,0.21662084758281708
528.0,952.0,2.1631,-1.5392,9.4451,-0.1342,-0.1643,-0.0406,-1.6287905178465785,-0.2183839976787567,2.068995237350464,-1.8875972032546997,0.04377240315079689,2.231443405151367,4.745069975941934,0.003295858856290579,0.33889684081077576,-1.5972102324115198,1.2319444311982214e-26,-0.01614300347864628,0.9705476760864258,8.330129423757557e-39,0.03088018298149109,0.6964026093482971,0.10714107006788254,0.18836794793605804
528.0,952.0,2.1631,-1.5392,9.4451,-0.1342,-0.1643,-0.0406,-1.6305610142149867,-0.22565044462680817,2.083336353302002,-1.887191891670227,0.05417823791503906,2.293058395385742,4.745057619154014,0.0012843183940276504,0.3399617075920105,-1.597222153340475,2.238998414446255e-31,-0.020894043147563934,0.9705994129180908,1.5134023414708024e-43,0.020992165431380272,0.697231113910675,0.1055271327495575,0.15576282143592834
528.0,952.0,2.1631,-1.5392,9.4451,-0.1342,-0.1643,-0.0406,-1.632331987420553,-0.2188102751970291,2.1222312450408936,-1.8866912126541138,0.06538326293230057,2.3031413555145264,4.745121977269211,0.0006579479086212814,0.332924485206604,-1.5972102324115198,4.0692685016633116e-36,-0.018578970804810524,0.9705595970153809,0.0,0.011810701340436935,0.6980999112129211,0.10397537052631378,0.18450790643692017
528.0,952.0,2.1631,-1.5392,9.4451,-0.1342,-0.1643,-0.0406,-1.6344901523985804,-0.22837963700294495,2.0617454051971436,-1.885972261428833,0.08381955325603485,2.287132740020752,4.745077713369884,0.00040864848415367305,0.35103365778923035,-1.5972140471087855,4.8288745080633196e-42,0.0010727120097726583,0.9704910516738892,0.0,0.025278201326727867,0.6991609334945679,0.1041460633277893,0.2016216516494751
528.0,952.0,2.1631,-1.5392,9.4451,-0.1342,-0.1643,-0.0406,-1.6362811527647914,-0.22395332157611847,2.0809617042541504,-1.885277509689331,0.10168583691120148,2.34940242767334,4.745033520251074,0.00035216673859395087,0.3438144028186798,-1.597194019948141,0.0,-0.007298721931874752,0.9704948663711548,0.0,0.009871359914541245,0.699921190738678,0.09927137941122055,0.2062300443649292
528.0,952.0,2.1631,-1.5392,9.4451,-0.1342,-0.1643,-0.0406,-1.6381079159178675,-0.21828147768974304,2.1256930828094482,-1.8843090534210205,0.11658591032028198,2.3148412704467773,4.745105969696798,0.00033913369406946003,0.3377293348312378,-1.5972541014300745,0.0,-0.010715335607528687,0.9705595970153809,0.0,0.010855707339942455,0.7007173895835876,0.08920074999332428,0.13868656754493713
528.0,952.0,2.1631,-1.5392,9.4451,-0.1342,-0.1643,-0.0406,-1.6398259601988734,-0.2239399403333664,2.1088979244232178,-1.8833800554275513,0.12347612529993057,2.3418002128601074,4.745105969696798,0.0002640772727318108,0.3425579071044922,-1.5971773306476038,0.0,-0.012803113088011742,0.9704549908638,0.0,0.025563614442944527,0.7014820575714111,0.08237213641405106,0.12441447377204895
528.0,952.0,2.1631,-1.5392,9.4451,-0.1342,-0.1643,-0.0406,-1.6416088543333949,-0.2262016087770462,2.044768810272217,-1.8823521137237549,0.13592323660850525,2.3773863315582275,4.745073652803459,0.0008184021571651101,0.3421046733856201,-1.5972097555743616,0.0,0.0006536217406392097,0.9705636501312256,0.0,0.021787066012620926,0.70203697681427,0.08233737200498581,0.13613206148147583
528.0,952.0,2.1631,-1.5392,9.4451,-0.1342,-0.1643,-0.0406,-1.6434160671629847,-0.22800332307815552,2.123255968093872,-1.8812391757965088,0.14844532310962677,2.389878273010254,4.745105984597959,0.0006946250214241445,0.33847764134407043,-1.5971935431109827,0.0,-0.00931231863796711,0.9705755710601807,0.0,0.02422325313091278,0.7027337551116943,0.07664225250482559,0.0985756441950798
794.0,940.0,2.9779,-0.259,9.7238,-0.0276,-0.0997,-0.0281,-1.64514221767568,-0.2246537208557129,2.1048977375030518,-1.8799846172332764,0.16759702563285828,2.369917631149292,4.745097815036335,0.0004294932878110558,0.3342023491859436,-1.597194019948141,0.0,-0.013285297900438309,0.9705678820610046,0.0,0.005431642755866051,0.7032644748687744,0.0751408040523529,0.1759374737739563
794.0,940.0,2.9779,-0.259,9.7238,-0.0276,-0.0997,-0.0281,-1.6469608745970667,-0.22518852353096008,2.2017064094543457,-1.8785227537155151,0.1793682724237442,2.4772441387176514,4.745105969696798,0.0003727372095454484,0.3385312557220459,-1.597262207661764,0.0,0.001753990538418293,0.9705915451049805,0.0,0.0024173918645828962,0.7039128541946411,0.07755469530820847,0.08942153304815292
794.0,940.0,2.9779,-0.259,9.7238,-0.0276,-0.0997,-0.0281,-1.6492592296996058,-0.23394212126731873,2.15183687210083,-1.8766200542449951,0.1918240785598755,2.395737409591675,4.745105533837833,0.00044444974628277123,0.34029632806777954,-1.5972021261798304,0.0,-0.00850186962634325,0.9705998301506042,0.0,0.021114720031619072,0.7047006487846375,0.0831555500626564,0.11859441548585892
794.0,940.0,2.9779,-0.259,9.7238,-0.0276,-0.0997,-0.0281,-1.6511017284789027,-0.23067700862884521,2.1745591163635254,-1.8750768899917603,0.20846550166606903,2.4409353733062744,4.745146143227377,0.0024946345947682858,0.3385046720504761,-1.5971859137164515,0.0,-0.015818670392036438,0.9705150723457336,0.0,0.01199217326939106,0.7053848505020142,0.07676763832569122,0.0962066650390625
794.0,940.0,2.9779,-0.259,9.7238,-0.0276,-0.0997,-0.0281,-1.652935644189352,-0.2261136919260025,2.125103235244751,-1.873232126235962,0.2241959273815155,2.441837787628174,4.745113342046299,0.0015891942894086242,0.3485756516456604,-1.597189728413717,0.0,-0.0015212949365377426,0.9705474376678467,0.0,0.007352328859269619,0.7059404850006104,0.06591204553842545,0.05883442610502243
794.0,940.0,2.9779,-0.259,9.7238,-0.0276,-0.0997,-0.0281,-1.6549092731871546,-0.23984426259994507,2.213303565979004,-1.8713027238845825,0.23107141256332397,2.44443678855896,4.745242028474369,0.0009149454417638481,0.33549657464027405,-1.5972259680377405,0.0,-9.750388562679291e-05,0.9705235958099365,0.0,0.006498240400105715,0.7064643502235413,0.060043446719646454,0.08654522895812988
794.0,940.0,2.9779,-0.259,9.7238,-0.0276,-0.0997,-0.0281,-1.6568471393980921,-0.23534676432609558,2.2504923343658447,-1.8694120645523071,0.24843807518482208,2.4939141273498535,4.745197723596849,0.003627721220254898,0.34919270873069763,-1.597194019948141,0.0,-0.00431132223457098,0.9706000685691833,0.0,0.009171501733362675,0.7069000005722046,0.05485176667571068,0.07556845992803574
794.0,940.0,2.9779,-0.259,9.7238,-0.0276,-0.0997,-0.0281,-1.6587611637511195,-0.23657765984535217,2.25169038772583,-1.8673001527786255,0.2621150314807892,2.4795570373535156,4.745246066689052,0.003726537572219968,0.3428773581981659,-1.597205940877096,0.0,-0.013617546297609806,0.970531702041626,0.0,0.002017446793615818,0.707299530506134,0.049416713416576385,0.05353126674890518
794.0,940.0,2.9779,-0.259,9.7238,-0.0276,-0.0997,-0.0281,-1.6606866321959437,-0.2496374547481537,2.2978434562683105,-1.8651610612869263,0.27311378717422485,2.5103204250335693,4.745229638158836,0.0014825406251475215,0.3427462577819824,-1.5972259680377405,0.0,-0.008422847837209702,0.9705636501312256,0.0,-0.005542400758713484,0.707699716091156,0.04519033059477806,0.05839510262012482
794.0,940.0,2.9779,-0.259,9.7238,-0.0276,-0.0997,-0.0281,-1.6631924114623011,-0.23922021687030792,2.2434582710266113,-1.8623782396316528,0.29249951243400574,2.5143723487854004,4.74527798870162,0.0013764926698058844,0.3513789176940918,-1.597194019948141,0.0,-0.016474615782499313,0.9705114960670471,5.856064078102463e-08,0.008150167763233185,0.7081516981124878,0.04002715274691582,0.015113580971956253
869.0,928.0,2.6231,-0.1771,9.1238,-0.0402,0.0487,-0.079,-1.6651627025999964,-0.2469790279865265,2.280695676803589,-1.8600062131881714,0.3025754392147064,2.56134295463562,4.745193659305134,0.00038818991743028164,0.33598166704177856,-1.597189728413717,0.0,0.004451696295291185,0.9705150723457336,1.0643107489077819e-12,0.00018501607701182365,0.708415150642395,0.03923153504729271,0.04428500682115555
869.0,928.0,2.6231,-0.1771,9.1238,-0.0402,0.0487,-0.079,-1.6670519314207972,-0.2548740804195404,2.2347614765167236,-1.857565999031067,0.31147506833076477,2.5630433559417725,4.745257954090395,-0.0002147330524167046,0.34020739793777466,-1.5972664991961878,0.0,-0.004632940515875816,0.9705718755722046,1.9343322493893258e-17,-0.0033969441428780556,0.7087593078613281,0.0416719987988472,0.0608651228249073
869.0,928.0,2.6231,-0.1771,9.1238,-0.0402,0.0487,-0.079,-1.6691066227354945,-0.24814777076244354,2.2235424518585205,-1.8549243211746216,0.3253989517688751,2.5348000526428223,4.745217363327303,-7.283267041202635e-05,0.33910900354385376,-1.597194019948141,0.0,-0.012113263830542564,0.9704750776290894,3.515553449189901e-22,0.007338478229939938,0.7090954184532166,0.0441809706389904,0.03816290944814682
869.0,928.0,2.6231,-0.1771,9.1238,-0.0402,0.0487,-0.079,-1.6710921726622523,-0.25204482674598694,2.2713284492492676,-1.8523191213607788,0.34273597598075867,2.5781540870666504,4.745173598616876,-7.743701280560344e-05,0.33622854948043823,-1.5971773306476038,0.0,0.000603752676397562,0.9705193042755127,6.389345390656553e-27,0.005148416850715876,0.7094756364822388,0.04874897003173828,0.021996501833200455
869.0,928.0,2.6231,-0.1771,9.1238,-0.0402,0.0487,-0.079,-1.6730739078917445,-0.2552456557750702,2.254187822341919,-1.849640965461731,0.35045161843299866,2.5424962043762207,4.74523792320446,-0.00024430968915112317,0.3329579830169678,-1.5971859137164515,0.0,-0.007451306097209454,0.9704989194869995,1.1612319603143256e-31,0.006458243355154991,0.7098715305328369,0.0531102754175663,0.012938221916556358
869.0,928.0,2.6231,-0.1771,9.1238,-0.0402,0.0487,-0.079,-1.6750995121397914,-0.26118266582489014,2.2191884517669678,-1.8467323780059814,0.3592787981033325,2.5406980514526367,4.74519811102704,-0.0004437230818439275,0.3269103765487671,-1.5971859137164515,0.0,-0.002634403295814991,0.9705838561058044,2.1104817610803917e-36,0.0034827571362257004,0.7103112936019897,0.05733676999807358,0.0310228168964386
869.0,928.0,2.6231,-0.1771,9.1238,-0.0402,0.0487,-0.079,-1.6771613560118617,-0.26474717259407043,2.240358829498291,-1.843797206878662,0.3615214228630066,2.554399013519287,4.745197723596849,-0.0012052695965394378,0.3173243999481201,-1.5971983114825647,0.0,-0.014368727803230286,0.9704910516738892,3.8356341565498893e-41,0.01160778570920229,0.710803210735321,0.05872122943401337,0.06402308493852615
869.0,928.0,2.6231,-0.1771,9.1238,-0.0402,0.0487,-0.079,-1.6797949276366175,-0.2710016667842865,2.23980712890625,-1.840031385421753,0.3714051842689514,2.5499491691589355,4.745177610754528,-0.00048636033898219466,0.3169460892677307,-1.5972583929644983,0.0,0.002893628552556038,0.9705073833465576,0.0,0.00681292312219739,0.7113467454910278,0.057326462119817734,0.05386711284518242
869.0,928.0,2.6231,-0.1771,9.1238,-0.0402,0.0487,-0.079,-1.681988378564352,-0.2671692967414856,2.1517586708068848,-1.83699369430542,0.37848183512687683,2.529658079147339,4.745221897005596,-0.00033943657763302326,0.30392250418663025,-1.597194019948141,0.0,0.0037065516225993633,0.9705520272254944,0.0,-0.0025322067085653543,0.711810827255249,0.056083254516124725,0.03973880410194397
869.0,928.0,2.6231,-0.1771,9.1238,-0.0402,0.0487,-0.079,-1.6841346226134242,-0.2663360834121704,2.2191317081451416,-1.8339184522628784,0.38701513409614563,2.5536131858825684,4.745165384351768,-0.00030582695035263896,0.3034144937992096,-1.5972378889666956,0.0,-0.0021473162341862917,0.970539927482605,0.0,-0.004605497699230909,0.7122625112533569,0.054539360105991364,0.038597047328948975
869.0,928.0,2.6231,-0.1771,9.1238,-0.0402,0.0487,-0.079,-1.6864196262755335,-0.2797413170337677,2.2149970531463623,-1.8308253288269043,0.39408445358276367,2.5409226417541504,4.745185802667894,-0.00025398549041710794,0.3185844123363495,-1.5972140471087855,0.0,-0.004071895964443684,0.9705874919891357,0.0,0.00010458717588335276,0.7126903533935547,0.0506155751645565,-0.0038621965795755386
915.0,914.0,1.9968,0.0431,8.9916,0.0281,0.1379,-0.0713,-1.6886855564513148,-0.28010880947113037,2.2463691234588623,-1.827653169631958,0.4019431173801422,2.6142399311065674,4.745214163302936,-0.00026678197900764644,0.31278204917907715,-1.597217861806051,0.0,0.005689103156328201,0.9705236554145813,0.0,-0.00016117142513394356,0.7131306529045105,0.0468624047935009,-0.010284684598445892
915.0,914.0,1.9968,0.0431,8.9916,0.0281,0.1379,-0.0713,-1.6910067997374476,-0.2915852963924408,2.1855998039245605,-1.8244177103042603,0.39965343475341797,2.5103609561920166,4.745165812760153,-0.0002534017839934677,0.3068065047264099,-1.5972421805011194,0.0,-0.005047795828431845,0.9704831838607788,0.0,0.006025972776114941,0.7134581804275513,0.04531704634428024,0.06187659502029419
915.0,914.0,1.9968,0.0431,8.9916,0.0281,0.1379,-0.0713,-1.6934200725951136,-0.29735878109931946,2.230351209640503,-1.8211884498596191,0.40768924355506897,2.541630744934082,4.745161737292566,-0.00023581209825351834,0.2944526672363281,-1.597217861806051,0.0,-0.00045002601109445095,0.9704951047897339,0.0,0.015156114473938942,0.7138586044311523,0.04822796210646629,0.0700238049030304
915.0,914.0,1.9968,0.0431,8.9916,0.0281,0.1379,-0.0713,-1.6957699261107386,-0.30026352405548096,2.222688674926758,-1.818048357963562,0.4114152491092682,2.558379650115967,4.745153906732359,-0.00020849517022725195,0.3093138635158539,-1.5972016493426722,0.0,-0.005766815505921841,0.9705355763435364,0.0,0.014238577336072922,0.7142504453659058,0.05394278094172478,0.06690206378698349
915.0,914.0,1.9968,0.0431,8.9916,0.0281,0.1379,-0.0713,-1.698874136010641,-0.3086112439632416,2.2749056816101074,-1.8138906955718994,0.40043559670448303,2.5101118087768555,4.745137988566913,-0.003411262994632125,0.29573705792427063,-1.597194019948141,0.0,-0.0056311520747840405,0.9705033302307129,0.0,0.011772830970585346,0.7147341966629028,0.05961648002266884,0.05813782662153244
915.0,914.0,1.9968,0.0431,8.9916,0.0281,0.1379,-0.0713,-1.7012273273863734,-0.3076412081718445,2.255185127258301,-1.8105729818344116,0.40064555406570435,2.5218615531921387,4.745097815036335,-0.0003418945998419076,0.3027680516242981,-1.5971816221820276,0.0,-0.004331925883889198,0.9705598950386047,0.0,0.013951199129223824,0.7152217626571655,0.06243559345602989,0.0499458983540535
915.0,914.0,1.9968,0.0431,8.9916,0.0281,0.1379,-0.0713,-1.7037207088866175,-0.30912962555885315,2.209681749343872,-1.8074499368667603,0.4004151225090027,2.5788025856018066,4.7451138002570055,-0.0002183590695494786,0.3031924068927765,-1.597217861806051,0.0,0.010519666597247124,0.9705114364624023,0.0,0.0023499082308262587,0.7157497406005859,0.06744405627250671,0.026844151318073273
915.0,914.0,1.9968,0.0431,8.9916,0.0281,0.1379,-0.0713,-1.7061578236021937,-0.3122144937515259,2.2282259464263916,-1.8042840957641602,0.3924463093280792,2.492009162902832,4.745133887022295,-0.0002758328046184033,0.29435834288597107,-1.5972102324115198,0.0,0.02279455028474331,0.9705518484115601,0.0,0.010605394840240479,0.7162775993347168,0.06773718446493149,0.03706689924001694
915.0,914.0,1.9968,0.0431,8.9916,0.0281,0.1379,-0.0713,-1.7086111507811488,-0.3113330900669098,2.2548351287841797,-1.8011741638183594,0.3909865617752075,2.525238513946533,4.745162150799789,-0.00019557173072826117,0.2898678183555603,-1.597189728413717,0.0,0.005271795205771923,0.9705033302307129,0.0,-0.005410088691860437,0.7168856859207153,0.06979688256978989,0.02366030402481556
915.0,914.0,1.9968,0.0431,8.9916,0.0281,0.1379,-0.0713,-1.7111488781371058,-0.31820157170295715,2.2248904705047607,-1.7980353832244873,0.39210689067840576,2.5144221782684326,4.745133901923456,-0.00015564975910820067,0.28423207998275757,-1.597194019948141,0.0,-0.003151527140289545,0.9704991579055786,0.0,-0.005169972311705351,0.7174416780471802,0.07193558663129807,0.015906572341918945
915.0,914.0,1.9968,0.0431,8.9916,0.0281,0.1379,-0.0713,-1.713677545587057,-0.3147335648536682,2.239126205444336,-1.7950224876403809,0.3885743021965027,2.538710594177246,4.745154282986679,-9.449962090002373e-05,0.283290296792984,-1.5972102324115198,0.0,0.0019308290211483836,0.9705193042755127,0.0,0.018127519637346268,0.7179411053657532,0.06461633741855621,0.024551112204790115
952.0,900.0,2.2487,-0.0359,8.4838,0.014,0.0932,-0.0634,-1.7162896595396937,-0.3223836421966553,2.2338039875030518,-1.791847825050354,0.3898487687110901,2.5524661540985107,4.745097833662786,-7.22959593986161e-05,0.27258816361427307,-1.5972021261798304,0.0,0.003645136719569564,0.9705151319503784,0.0,-0.0054170237854123116,0.7185176014900208,0.05615196004509926,0.009648344479501247
952.0,900.0,2.2487,-0.0359,8.4838,0.014,0.0932,-0.0634,-1.719633241693014,-0.32834240794181824,2.2687621116638184,-1.787946105003357,0.39389315247535706,2.495126724243164,4.7451461283262155,-6.0203612520126626e-05,0.28732362389564514,-1.5971654097186487,0.0,0.003467588685452938,0.9704914093017578,0.0,-0.003633782733231783,0.7190170884132385,0.049771640449762344,-0.07843586057424545
952.0,900.0,2.2487,-0.0359,8.4838,0.014,0.0932,-0.0634,-1.7223478756346644,-0.3393853008747101,2.276305913925171,-1.7848806381225586,0.39495566487312317,2.5197720527648926,4.745137966215172,-0.00012749929737765342,0.27974724769592285,-1.597161595021383,0.0,0.0047488645650446415,0.9705877900123596,0.0,-0.001848528627306223,0.7193728685379028,0.04797181859612465,-0.015460425987839699
952.0,900.0,2.2487,-0.0359,8.4838,0.014,0.0932,-0.0634,-1.7251397571959437,-0.3397778868675232,2.3206052780151367,-1.7816753387451172,0.3851073384284973,2.526641368865967,4.745113815158167,-0.0002045051660388708,0.2753044068813324,-1.5971735159503382,0.0,0.009492750279605389,0.9705595374107361,0.0,0.004719227086752653,0.7197649478912354,0.04771364480257034,-0.023884788155555725
952.0,900.0,2.2487,-0.0359,8.4838,0.014,0.0932,-0.0634,-1.727875371972555,-0.3460407555103302,2.2906503677368164,-1.778592586517334,0.38438135385513306,2.5238747596740723,4.745073608099975,-0.0002706466766539961,0.288480669260025,-1.5972421805011194,0.0,-0.007327152416110039,0.9705595374107361,0.0,0.0076765986159443855,0.7201365828514099,0.047000233083963394,0.020257331430912018
952.0,900.0,2.2487,-0.0359,8.4838,0.014,0.0932,-0.0634,-1.7306038341917933,-0.34674835205078125,2.2770800590515137,-1.7754952907562256,0.38014140725135803,2.4884071350097656,4.745105969696798,-0.00019525231618899852,0.29611071944236755,-1.5971816221820276,0.0,0.013849133625626564,0.9704791903495789,0.0,0.013477939181029797,0.7204038500785828,0.044259797781705856,0.0047704922035336494
952.0,900.0,2.2487,-0.0359,8.4838,0.014,0.0932,-0.0634,-1.7332946262755335,-0.34397092461586,2.2772014141082764,-1.7724590301513672,0.37070128321647644,2.5139622688293457,4.745137981116333,-0.0002019014209508896,0.2746807038784027,-1.5971735159503382,2.336001392322373e-10,0.001111704157665372,0.9705113768577576,0.0,-0.0065046376548707485,0.7207642197608948,0.038638778030872345,-0.012764722108840942
952.0,900.0,2.2487,-0.0359,8.4838,0.014,0.0932,-0.0634,-1.7359692058958949,-0.33646830916404724,2.316859722137451,-1.7694506645202637,0.3742380142211914,2.497560977935791,4.745141956001081,-0.00012456817785277963,0.2781190574169159,-1.5972021261798304,4.245567147896732e-15,0.002324613742530346,0.9704992175102234,0.0,-0.013179291039705276,0.721068263053894,0.03492565453052521,-0.04128342494368553
952.0,900.0,2.2487,-0.0359,8.4838,0.014,0.0932,-0.0634,-1.738652845422262,-0.33639684319496155,2.3462748527526855,-1.7666078805923462,0.3754669427871704,2.466937780380249,4.745121958642759,1.2226729495523614e-07,0.2823675870895386,-1.597194019948141,7.716111359895981e-20,-0.006236034445464611,0.9704951643943787,0.0,-0.005825887434184551,0.7213846445083618,0.03358614444732666,-0.05637556314468384
952.0,900.0,2.2487,-0.0359,8.4838,0.014,0.0932,-0.0634,-1.74200501064443,-0.3378886580467224,2.3763930797576904,-1.7629166841506958,0.3635748624801636,2.4461116790771484,4.745109605580129,1.4509036062437114e-13,0.2878955602645874,-1.5971816221820276,9.156442263475622e-26,0.007691366132348776,0.9704676270484924,0.0,0.008243590593338013,0.7216801643371582,0.032496172934770584,-0.02528148517012596
952.0,900.0,2.2487,-0.0359,8.4838,0.014,0.0932,-0.0634,-1.7447158298888148,-0.33903491497039795,2.4119954109191895,-1.7599519491195679,0.3697928190231323,2.4621620178222656,4.745162199228563,2.6369457069054923e-18,0.28700336813926697,-1.597222153340475,1.664138324662498e-30,0.005652276333421469,0.970571756362915,0.0,0.011004946194589138,0.7218998670578003,0.033078331500291824,-0.01591731421649456
919.0,886.0,2.5256,0.2937,9.5396,0.005,0.0632,-0.1045,-1.747439523736471,-0.33963292837142944,2.4130544662475586,-1.7569671869277954,0.3721776604652405,2.4992177486419678,4.74515392535881,4.7925183792018135e-23,0.2904054522514343,-1.5972302595721644,3.024488993508796e-35,-0.0037532912101596594,0.9704715013504028,0.0,-0.012858407571911812,0.7221880555152893,0.03468780592083931,-0.009632300585508347
919.0,886.0,2.5256,0.2937,9.5396,0.005,0.0632,-0.1045,-1.7502347431578578,-0.33521905541419983,2.4243311882019043,-1.7540459632873535,0.376426100730896,2.5054891109466553,4.745093657612362,8.710166470096992e-28,0.27647554874420166,-1.5971859137164515,5.496859473022317e-40,-3.1649135053157806e-05,0.9704874157905579,0.0,-0.0047281282022595406,0.7224961519241333,0.034267667680978775,-0.04155077040195465
919.0,886.0,2.5256,0.2937,9.5396,0.005,0.0632,-0.1045,-1.753122945825094,-0.3388475775718689,2.3805301189422607,-1.7509949207305908,0.3731042742729187,2.4939372539520264,4.745141963451662,1.5830301607287127e-32,0.27507203817367554,-1.5971735159503382,9.80908925027372e-45,-0.013755764812231064,0.9705151319503784,-5.725910301457304e-10,-0.0035945777781307697,0.7227479815483093,0.033211685717105865,-0.0021078623831272125
919.0,886.0,2.5256,0.2937,9.5396,0.005,0.0632,-0.1045,-1.755897661248678,-0.35011330246925354,2.431118965148926,-1.7479466199874878,0.3742329776287079,2.498021125793457,4.745125676482477,2.877078744625427e-37,0.2824787497520447,-1.5971692244159144,0.0,0.011092656292021275,0.9705192446708679,-1.040655869853982e-14,0.003833377966657281,0.7230237722396851,0.03167726844549179,-0.0036679632030427456
919.0,886.0,2.5256,0.2937,9.5396,0.005,0.0632,-0.1045,-1.758681436578268,-0.35295259952545166,2.4867777824401855,-1.7449818849563599,0.3691316246986389,2.513021469116211,4.74509401524023,5.229645868860217e-42,0.29275622963905334,-1.597189728413717,0.0,-0.004012429621070623,0.9705273509025574,-1.8913404572903137e-19,-0.0023804178927093744,0.7232879400253296,0.026975112035870552,-0.004169796593487263
919.0,886.0,2.5256,0.2937,9.5396,0.005,0.0632,-0.1045,-1.7621289692320765,-0.3484036326408386,2.4191274642944336,-1.7412201166152954,0.365751713514328,2.443741798400879,4.745125631778993,0.0,0.29005420207977295,-1.597205940877096,0.0,0.006626276299357414,0.9705317616462708,-2.244387914925268e-25,0.008167549036443233,0.7234755158424377,0.01871146634221077,-0.06096469610929489
919.0,886.0,2.5256,0.2937,9.5396,0.005,0.0632,-0.1045,-1.7648402653136195,-0.3400390148162842,2.4706387519836426,-1.7383249998092651,0.37143561244010925,2.4823126792907715,4.745165820210733,0.0,0.2947065830230713,-1.597189728413717,0.0,-0.004530102014541626,0.9704396724700928,-4.079064326957903e-30,-0.00680608581751585,0.7235711812973022,0.013440163806080818,-0.08104151487350464
919.0,886.0,2.5256,0.2937,9.5396,0.005,0.0632,-0.1045,-1.7675115070738734,-0.3314046859741211,2.5326709747314453,-1.7353957891464233,0.37329187989234924,2.5560503005981445,4.745113792806425,0.0,0.28270959854125977,-1.5971983114825647,0.0,-0.012592011131346226,0.9705154299736023,-7.413497913553724e-35,-0.011060021817684174,0.7237681150436401,0.011454486288130283,-0.019125178456306458
919.0,886.0,2.5256,0.2937,9.5396,0.005,0.0632,-0.1045,-1.7701102695860804,-0.3307722210884094,2.522904396057129,-1.732409954071045,0.36643728613853455,2.5342812538146973,4.74515018144206,0.0,0.27960583567619324,-1.597189728413717,0.0,-0.0011396943591535091,0.970455527305603,-1.3473666903283478e-39,-0.003969260491430759,0.7237954139709473,0.010874267667531967,0.0011795428581535816
919.0,886.0,2.5256,0.2937,9.5396,0.005,0.0632,-0.1045,-1.772693773309225,-0.3316555917263031,2.5021090507507324,-1.7294576168060303,0.37003594636917114,2.4532649517059326,4.745117890625753,0.0,0.3010658323764801,-1.597194019948141,0.0,-0.0026427695993334055,0.9704914093017578,-2.382207389352189e-44,0.0006962261395528913,0.7239395380020142,0.011005922220647335,-0.03853974863886833
919.0,886.0,2.5256,0.2937,9.5396,0.005,0.0632,-0.1045,-1.7753292522826136,-0.33138710260391235,2.5702342987060547,-1.7265299558639526,0.3684339225292206,2.492341995239258,4.745121574937858,0.0,0.2973324656486511,-1.597205940877096,0.0,-0.002801004098728299,0.970575749874115,-0.0,0.0015801733825355768,0.7239555716514587,0.009476936422288418,0.02826075442135334
899.0,889.0,2.8552,0.1609,9.1657,-0.0501,0.0521,-0.1194,-1.7778407535948695,-0.3184199631214142,2.6014232635498047,-1.7235620021820068,0.37923046946525574,2.539076805114746,4.745133875846424,0.0,0.29039186239242554,-1.597189728413717,0.0,-0.004866582807153463,0.9704636335372925,-0.0,0.010617271065711975,0.7240356802940369,0.006024288013577461,-0.03813943266868591
899.0,889.0,2.8552,0.1609,9.1657,-0.0501,0.0521,-0.1194,-1.7805530033507289,-0.32122284173965454,2.618387222290039,-1.720513105392456,0.37571951746940613,2.534285306930542,4.745125661581316,0.0,0.29933109879493713,-1.5972302595721644,0.0,0.007675392087548971,0.9704952239990234,-0.0,-0.01395406574010849,0.7240713834762573,0.004039665684103966,-0.011529635637998581
899.0,889.0,2.8552,0.1609,9.1657,-0.0501,0.0521,-0.1194,-1.7838183842101039,-0.32318976521492004,2.6098623275756836,-1.716773271560669,0.37541303038597107,2.482299327850342,4.745146139502086,0.0,0.2941703498363495,-1.597194019948141,0.0,-0.004655545111745596,0.9705398678779602,-0.0,-0.015518453903496265,0.724095344543457,0.0029079990927129984,-0.05413476750254631
899.0,889.0,2.8552,0.1609,9.1657,-0.0501,0.0521,-0.1194,-1.7864695988097132,-0.33145326375961304,2.622692584991455,-1.7137784957885742,0.3747034966945648,2.5755133628845215,4.745133887022295,0.0,0.288543701171875,-1.5972378889666956,0.0,-0.005388819146901369,0.9704952239990234,-0.0,-0.009449646808207035,0.7240791916847229,0.0028326986357569695,-0.05309645086526871
899.0,889.0,2.8552,0.1609,9.1657,-0.0501,0.0521,-0.1194,-1.7890364132323207,-0.3232066035270691,2.6575236320495605,-1.7108054161071777,0.3704240322113037,2.4700767993927,4.745113841235199,0.0,0.2761266827583313,-1.5971859137164515,0.0,-0.004817132838070393,0.9705153703689575,-0.0,-0.0022917198948562145,0.7240833044052124,0.0012308529112488031,0.040671806782484055
899.0,889.0,2.8552,0.1609,9.1657,-0.0501,0.0521,-0.1194,-1.7915641270079554,-0.3235825002193451,2.656675338745117,-1.7078135013580322,0.36902928352355957,2.4782586097717285,4.745129845082321,0.0,0.28219351172447205,-1.5971816221820276,0.0,-0.0008410713635385036,0.9705232977867126,-0.0,-0.003391253761947155,0.7241193056106567,0.0008218887378461659,-0.016984272748231888
899.0,889.0,2.8552,0.1609,9.1657,-0.0501,0.0521,-0.1194,-1.7941729031004847,-0.3099465072154999,2.5950822830200195,-1.70493745803833,0.3706449866294861,2.507960796356201,4.745113803982296,0.0,0.29663118720054626,-1.597194019948141,0.0,-0.006011652294546366,0.9705313444137573,-0.0,-0.004046433139592409,0.7241151928901672,0.0005698634777218103,-0.0317472480237484
899.0,889.0,2.8552,0.1609,9.1657,-0.0501,0.0521,-0.1194,-1.796608110467428,-0.30592113733291626,2.656794309616089,-1.7020457983016968,0.36824315786361694,2.508896827697754,4.745097856014528,0.0,0.2872926890850067,-1.5972102324115198,0.0,-0.009824641048908234,0.9704994559288025,-0.0,-0.006144950166344643,0.7241110801696777,0.0007685341988690197,-0.06951219588518143
899.0,889.0,2.8552,0.1609,9.1657,-0.0501,0.0521,-0.1194,-1.7990476093687953,-0.3045003116130829,2.6461758613586426,-1.6991015672683716,0.3658863604068756,2.5075623989105225,4.745105969696798,0.0,0.2841276526451111,-1.597194019948141,0.0,-0.007891139946877956,0.9705073833465576,-0.0,0.0004390812246128917,0.7241676449775696,0.0014919545501470566,-0.04356077313423157
899.0,889.0,2.8552,0.1609,9.1657,-0.0501,0.0521,-0.1194,-1.8014708958067835,-0.30376535654067993,2.7309064865112305,-1.6961290836334229,0.3634468913078308,2.4641823768615723,4.745098183840074,0.0,0.3040508031845093,-1.5971859137164515,0.0,-0.003131098346784711,0.9704794883728027,-0.0,-0.0002912824274972081,0.7242036461830139,0.0027496807742863894,-0.07653078436851501
899.0,889.0,2.8552,0.1609,9.1657,-0.0501,0.0521,-0.1194,-1.804394861260885,-0.29967445135116577,2.7459380626678467,-1.6925535202026367,0.3699616491794586,2.5023863315582275,4.74508589410738,0.0,0.2843587398529053,-1.5971983114825647,0.0,-0.00811395887285471,0.9705439209938049,-0.0,-0.0014819065108895302,0.7242157459259033,0.003626244841143489,-0.04196076840162277
899.0,858.0,2.8277,-0.4504,9.3314,-0.0383,0.0736,-0.122,-1.8067742786803187,-0.28942951560020447,2.7696421146392822,-1.6896257400512695,0.36183011531829834,2.4673140048980713,4.745137966215172,0.0,0.28857851028442383,-1.5972140471087855,0.0,0.0088915741071105,0.9704633951187134,-0.0,0.006862236652523279,0.7241306304931641,0.0029031909070909023,0.01299059484153986
899.0,858.0,2.8277,-0.4504,9.3314,-0.0383,0.0736,-0.122,-1.8091703854002894,-0.2881486415863037,2.7298498153686523,-1.6865965127944946,0.36685043573379517,2.514951229095459,4.745137966215172,0.0,0.28593820333480835,-1.597189728413717,0.0,-0.005741110071539879,0.9705153703689575,-0.0,0.0019625183194875717,0.724186897277832,0.0028675273060798645,-0.0737425908446312
899.0,858.0,2.8277,-0.4504,9.3314,-0.0383,0.0736,-0.122,-1.8115178547301234,-0.29406628012657166,2.726199150085449,-1.6837211847305298,0.36202889680862427,2.504551410675049,4.745053580939331,0.0,0.285372257232666,-1.5971816221820276,0.0,-0.0027617427986115217,0.9705396294593811,-0.0,0.005858483258634806,0.7242549657821655,0.004666350781917572,-0.030355289578437805
