ramyac6/ROB537/final_project/csv/all/good_67.csv
tof_0,tof_1,accelx,accely,accelz,gyrox,gyroy,gyroz,shoulder_lift_joint_position,shoulder_lift_joint_velocity,shoulder_lift_joint_effort,elbow_joint_position,elbow_joint_velocity,elbow_joint_effort,wrist_1_joint_position,wrist_1_joint_velocity,wrist_1_joint_effort,wrist_2_joint_position,wrist_2_joint_velocity,wrist_2_joint_effort,wrist_3_joint_position,wrist_3_joint_velocity,wrist_3_joint_effort,shoulder_pan_joint_position,shoulder_pan_joint_velocity,shoulder_pan_joint_effort
305.0,340.0,-4.654,0.2369,8.7559,-0.0339,0.033,-0.1252,-2.211379190484518,0.0,4.33631706237793,-1.54985773563385,-0.0,1.776806116104126,5.6900930283363245,-0.0,0.21215155720710754,-1.6249287764178675,0.0,-0.000696097849868238,0.7012913823127747,-0.0,-0.0002497532404959202,0.9438620209693909,0.0,0.0012773722410202026
305.0,340.0,-4.654,0.2369,8.7559,-0.0339,0.033,-0.1252,-2.211374898950094,0.0,4.378770351409912,-1.5498260259628296,-0.0,1.7938573360443115,5.690113055496969,-0.0,0.2173004448413849,-1.6249688307391565,0.0,-0.0033653220161795616,0.7013396620750427,-0.0,0.01383125688880682,0.9438300132751465,0.0,0.005047711543738842
305.0,340.0,-4.654,0.2369,8.7559,-0.0339,0.033,-0.1252,-2.211379190484518,0.0,4.347728729248047,-1.549842357635498,-0.0,1.8347370624542236,5.690120923310079,-0.0,0.22300995886325836,-1.6249521414386194,0.0,-0.013275152072310448,0.7013034820556641,-0.0,-0.0012978240847587585,0.9437976479530334,0.0,-0.009701646864414215
305.0,340.0,-4.654,0.2369,8.7559,-0.0339,0.033,-0.1252,-2.2113548717894496,0.0,4.354626178741455,-1.5498260259628296,-0.0,1.7585060596466064,5.690100896149435,-0.0,0.2121656835079193,-1.6249120871173304,0.0,-0.009915239177644253,0.7013156414031982,-0.0,0.003948989789932966,0.9438296556472778,0.0,-0.003221470396965742
305.0,340.0,-4.654,0.2369,8.7559,-0.0339,0.033,-0.1252,-2.2113830051817835,0.0,4.374300479888916,-1.5498340129852295,-0.0,1.7702133655548096,5.690129029541769,-0.0,0.22537657618522644,-1.6249564329730433,0.0,-0.007060100324451923,0.7012832164764404,-0.0,0.006210093852132559,0.9438661932945251,0.0,0.02890635095536709
305.0,340.0,-4.654,0.2369,8.7559,-0.0339,0.033,-0.1252,-2.211391588250631,0.0,4.375809669494629,-1.5498383045196533,-0.0,1.7413746118545532,5.6901047108467,-0.0,0.21807321906089783,-1.6250088850604456,0.0,-0.0009024203172884881,0.7013515830039978,-0.0,0.014773372560739517,0.9438177943229675,0.0,0.010843414813280106
305.0,340.0,-4.654,0.2369,8.7559,-0.0339,0.033,-0.1252,-2.211367269555563,0.0,4.379611968994141,-1.5497701168060303,-0.0,1.7939907312393188,5.690140950470724,-0.0,0.2159384787082672,-1.6249731222735804,0.0,-0.003200207371264696,0.7013195157051086,-0.0,0.018326716497540474,0.9438619613647461,0.0,0.030278334394097328
305.0,340.0,-4.654,0.2369,8.7559,-0.0339,0.033,-0.1252,-2.2113505802550257,0.0,4.3698530197143555,-1.5498299598693848,-0.0,1.7688171863555908,5.690124976425924,-0.0,0.20830625295639038,-1.6249564329730433,0.0,0.012165398336946964,0.7013356685638428,-0.0,0.0094969617202878,0.943789541721344,0.0,-0.019924117252230644
305.0,340.0,-4.654,0.2369,8.7559,-0.0339,0.033,-0.1252,-2.211379190484518,0.0,4.321530342102051,-1.5498100519180298,-0.0,1.8109424114227295,5.69008897522048,-0.0,0.2146478295326233,-1.6249726454364222,0.0,-0.010380132123827934,0.7012913823127747,-0.0,-0.0016834138659760356,0.9437854886054993,0.0,0.025244832038879395
300.0,352.0,-4.587,0.2297,8.7242,-0.0371,0.0237,-0.1203,-2.2113553486266078,0.0,4.3465962409973145,-1.5498658418655396,-0.0,1.7949349880218506,5.690140950470724,-0.0,0.22551539540290833,-1.624993149434225,0.0,-0.014759711921215057,0.7012791037559509,-0.0,0.00218802853487432,0.9438378810882568,0.0,0.025648942217230797
300.0,352.0,-4.587,0.2297,8.7242,-0.0371,0.0237,-0.1203,-2.2113548717894496,0.0,4.381997108459473,-1.5498100519180298,-0.0,1.7334128618240356,5.690109002381124,-0.0,0.2125212550163269,-1.6249731222735804,0.0,0.0010350036900490522,0.7013235092163086,-0.0,0.003940664231777191,0.9438538551330566,0.0,-0.0019134185276925564
300.0,352.0,-4.587,0.2297,8.7242,-0.0371,0.0237,-0.1203,-2.2113505802550257,0.0,4.356279373168945,-1.54985773563385,-0.0,1.7828369140625,5.69011281707839,-0.0,0.21753036975860596,-1.6249688307391565,0.0,0.0029867670964449644,0.7011953592300415,-0.0,0.005645644385367632,0.9438338279724121,0.0,-0.03667255491018295
300.0,352.0,-4.587,0.2297,8.7242,-0.0371,0.0237,-0.1203,-2.211395402947897,0.0,4.359005928039551,-1.549842357635498,-0.0,1.7732341289520264,5.690064954548635,-0.0,0.212636798620224,-1.6249764601336878,0.0,0.0008625565096735954,0.7013075947761536,-0.0,0.002732706256210804,0.9438783526420593,0.0,-0.003674114588648081
300.0,352.0,-4.587,0.2297,8.7242,-0.0371,0.0237,-0.1203,-2.2113386593260707,0.0,4.347648620605469,-1.549850344657898,-0.0,1.7714543342590332,5.690100896149435,-0.0,0.20991167426109314,-1.6249850432025355,0.0,0.0010442838538438082,0.7012791633605957,-0.0,0.008828599937260151,0.94389808177948,0.0,0.056217458099126816
300.0,352.0,-4.587,0.2297,8.7242,-0.0371,0.0237,-0.1203,-2.211358686486715,0.0,4.3390302658081055,-1.549853801727295,-0.0,1.7819554805755615,5.6900930283363245,-0.0,0.2160080373287201,-1.624936882649557,0.0,-0.003907352220267057,0.7013156414031982,-0.0,-0.0020381882786750793,0.9438338279724121,0.0,0.012747794389724731
300.0,352.0,-4.587,0.2297,8.7242,-0.0371,0.0237,-0.1203,-2.2113310299315394,0.0,4.33778715133667,-1.54985773563385,-0.0,1.7669944763183594,5.6900930283363245,-0.0,0.2113904058933258,-1.624988857899801,0.0,0.012246251106262207,0.701351523399353,-0.0,0.008747384883463383,0.9438378810882568,0.0,-0.0017747802194207907
300.0,352.0,-4.587,0.2297,8.7242,-0.0371,0.0237,-0.1203,-2.211379190484518,0.0,4.3090128898620605,-1.5498384237289429,-0.0,1.7412395477294922,5.6900930283363245,-0.0,0.222947895526886,-1.6249807516681116,0.0,-0.003811024595052004,0.7013474702835083,-0.0,0.004288489930331707,0.9438296556472778,0.0,0.026225464418530464
300.0,352.0,-4.587,0.2297,8.7242,-0.0371,0.0237,-0.1203,-2.2113710842528285,0.0,4.3214545249938965,-1.5498343706130981,-0.0,1.7748231887817383,5.690176951676168,-0.0,0.22460287809371948,-1.6249287764178675,0.0,-0.0057532899081707,0.7012994289398193,-0.0,0.007831753231585026,0.9438136219978333,0.0,0.03226355463266373
300.0,352.0,-4.587,0.2297,8.7242,-0.0371,0.0237,-0.1203,-2.211391588250631,0.0,4.330633640289307,-1.5498697757720947,-0.0,1.7781188488006592,5.690109002381124,-0.0,0.21006301045417786,-1.6250088850604456,0.0,-0.005547022446990013,0.7012832164764404,-0.0,-0.0037255948409438133,0.9438419938087463,0.0,-0.04576539993286133
300.0,352.0,-4.587,0.2297,8.7242,-0.0371,0.0237,-0.1203,-2.211351057092184,0.0,4.3445210456848145,-1.5498260259628296,-0.0,1.7929233312606812,5.690109002381124,-0.0,0.21890047192573547,-1.6249483267413538,0.0,-0.0028149683494120836,0.7013075947761536,-0.0,0.007094052620232105,0.9437896013259888,0.0,-0.004826031159609556
300.0,352.0,-4.587,0.2297,8.7242,-0.0371,0.0237,-0.1203,-2.2113386593260707,0.0,4.332012176513672,-1.5498100519180298,-0.0,1.7474570274353027,5.690120923310079,-0.0,0.22368811070919037,-1.624976936970846,0.0,0.0028427450451999903,0.7012994289398193,-0.0,-0.0021975566633045673,0.9438661336898804,0.0,0.021346647292375565
300.0,352.0,-4.587,0.2297,8.7242,-0.0371,0.0237,-0.1203,-2.211362978021139,0.0,4.348718166351318,-1.5498179197311401,-0.0,1.7482993602752686,5.69007300117568,-0.0,0.22097554802894592,-1.6249688307391565,0.0,-0.006297404877841473,0.7012994289398193,-0.0,0.010145960375666618,0.943821907043457,0.0,0.011602232232689857
300.0,352.0,-4.587,0.2297,8.7242,-0.0371,0.0237,-0.1203,-2.2114116154112757,0.0,4.354477882385254,-1.549874186515808,-0.0,1.747793197631836,5.690101134568014,-0.0,0.19622930884361267,-1.6249645392047327,0.0,-0.005181918852031231,0.7012592554092407,-0.0,0.006098615936934948,0.9438538551330566,0.0,0.0017118947580456734
300.0,352.0,-4.587,0.2297,8.7242,-0.0371,0.0237,-0.1203,-2.2113872967162074,0.0,4.352975845336914,-1.5498697757720947,-0.0,1.740525722503662,5.690052974015035,-0.0,0.2246207445859909,-1.62500507036318,0.0,-0.007934915833175182,0.7013315558433533,-0.0,-0.012595783919095993,0.9438099265098572,0.0,0.02597908303141594
300.0,352.0,-4.587,0.2297,8.7242,-0.0371,0.0237,-0.1203,-2.2113872967162074,0.0,4.3358659744262695,-1.549805998802185,-0.0,1.7154383659362793,5.6901049492652795,-0.0,0.2110755443572998,-1.6249807516681116,0.0,0.009611300192773342,0.7013474702835083,-0.0,0.0015279717044904828,0.9438255429267883,0.0,-0.011102910153567791
296.0,352.0,-4.5709,0.1741,8.7506,-0.0379,0.0278,-0.1165,-2.211395402947897,0.0,4.377480506896973,-1.549850344657898,-0.0,1.7510690689086914,5.6900648949439905,-0.0,0.2260439097881317,-1.6249449888812464,0.0,0.0010190177708864212,0.701339602470398,-0.0,0.004305677022784948,0.943809986114502,0.0,-0.0008799899369478226
296.0,352.0,-4.5709,0.1741,8.7506,-0.0379,0.0278,-0.1165,-2.2113706074156703,0.0,4.349766254425049,-1.5498384237289429,-0.0,1.7600334882736206,5.690136897354879,-0.0,0.2280094474554062,-1.6249731222735804,0.0,-0.010536371730268002,0.7012553215026855,-0.0,0.009958293288946152,0.943809986114502,0.0,-0.01339644007384777
296.0,352.0,-4.5709,0.1741,8.7506,-0.0379,0.0278,-0.1165,-2.2113548717894496,0.0,4.325161933898926,-1.5498263835906982,-0.0,1.7490135431289673,5.690109002381124,-0.0,0.20522424578666687,-1.6249969641314905,0.0,-0.01417117565870285,0.7013115882873535,-0.0,0.0017776379827409983,0.9438018798828125,0.0,0.0057619535364210606
296.0,352.0,-4.5709,0.1741,8.7506,-0.0379,0.0278,-0.1165,-2.211391588250631,0.0,4.357277870178223,-1.5498697757720947,-0.0,1.7897605895996094,5.6900930283363245,-0.0,0.20949415862560272,-1.6250084082232874,0.0,0.0017211954109370708,0.7013075947761536,-0.0,0.011004962958395481,0.943818211555481,0.0,-0.039190251380205154
296.0,352.0,-4.5709,0.1741,8.7506,-0.0379,0.0278,-0.1165,-2.2113830051817835,0.0,4.359494209289551,-1.549842357635498,-0.0,1.7801291942596436,5.69008897522048,-0.0,0.2060336470603943,-1.624965016041891,0.0,-0.005153382197022438,0.7013236284255981,-0.0,-0.00045564165338873863,0.9438460469245911,0.0,0.05085302144289017
296.0,352.0,-4.5709,0.1741,8.7506,-0.0379,0.0278,-0.1165,-2.2113429508604945,0.0,4.337594985961914,-1.5498822927474976,-0.0,1.793455958366394,5.6901049492652795,-0.0,0.20271721482276917,-1.6249521414386194,0.0,0.0023998674005270004,0.701311469078064,-0.0,0.0036147169303148985,0.943801760673523,0.0,0.004773435182869434
296.0,352.0,-4.5709,0.1741,8.7506,-0.0379,0.0278,-0.1165,-2.2114116154112757,0.0,4.339632511138916,-1.5498219728469849,-0.0,1.7734559774398804,5.69011281707839,-0.0,0.20758432149887085,-1.6249850432025355,0.0,-0.0013209943426772952,0.7012673020362854,-0.0,0.001480648759752512,0.9438378810882568,0.0,0.00915313046425581
296.0,352.0,-4.5709,0.1741,8.7506,-0.0379,0.0278,-0.1165,-2.2113505802550257,0.0,4.336156368255615,-1.5498343706130981,-0.0,1.7588261365890503,5.690109002381124,-0.0,0.2170695662498474,-1.6249926725970667,0.0,-0.009561913087964058,0.7012711763381958,-0.0,0.01090269722044468,0.9438136219978333,0.0,0.02017488330602646
296.0,352.0,-4.5709,0.1741,8.7506,-0.0379,0.0278,-0.1165,-2.2113706074156703,0.0,4.342565536499023,-1.5498497486114502,-0.0,1.7647864818572998,5.690136897354879,-0.0,0.21249599754810333,-1.62494403520693,0.0,0.003979227971285582,0.7012354135513306,-0.0,0.0036683096550405025,0.9437772631645203,0.0,-0.003800097620114684
296.0,352.0,-4.5709,0.1741,8.7506,-0.0379,0.0278,-0.1165,-2.2113548717894496,0.0,4.3819990158081055,-1.549842357635498,-0.0,1.7909770011901855,5.690120923310079,-0.0,0.2227376103401184,-1.624988857899801,0.0,-0.006670671980828047,0.701319694519043,-0.0,0.0006053568795323372,0.9438095092773438,0.0,0.0372098833322525
296.0,352.0,-4.5709,0.1741,8.7506,-0.0379,0.0278,-0.1165,-2.2114116154112757,0.0,4.28530740737915,-1.5498260259628296,-0.0,1.7751973867416382,5.690140950470724,-0.0,0.22565282881259918,-1.6249564329730433,0.0,0.002214576816186309,0.7012753486633301,-0.0,-0.0006117040757089853,0.9438460469245911,0.0,-0.05732797831296921
296.0,352.0,-4.5709,0.1741,8.7506,-0.0379,0.0278,-0.1165,-2.2113505802550257,0.0,4.334227085113525,-1.5498260259628296,-0.0,1.7961595058441162,5.690092789917745,-0.0,0.22085869312286377,-1.6249163786517542,0.0,-0.011042619124054909,0.7013433575630188,-0.0,0.004324476234614849,0.9438784122467041,0.0,0.019339194521307945
296.0,352.0,-4.5709,0.1741,8.7506,-0.0379,0.0278,-0.1165,-2.211395402947897,0.0,4.322396755218506,-1.5498384237289429,-0.0,1.7687479257583618,5.6901049492652795,-0.0,0.20844438672065735,-1.6249731222735804,0.0,0.0008497940725646913,0.7012752294540405,-0.0,0.018556594848632812,0.9438661336898804,0.0,-0.025363929569721222
296.0,352.0,-4.5709,0.1741,8.7506,-0.0379,0.0278,-0.1165,-2.2113996944823207,0.0,4.374189376831055,-1.5498299598693848,-0.0,1.7800283432006836,5.690084922104635,-0.0,0.2058541625738144,-1.6249688307391565,0.0,0.0010224217548966408,0.7013355493545532,-0.0,0.005704049486666918,0.943882167339325,0.0,0.024378439411520958
296.0,352.0,-4.5709,0.1741,8.7506,-0.0379,0.0278,-0.1165,-2.211358686486715,0.0,4.367256164550781,-1.5498260259628296,-0.0,1.7193992137908936,5.690109002381124,-0.0,0.21822799742221832,-1.6250007788287562,0.0,-0.011066948063671589,0.701319694519043,-0.0,0.014459720812737942,0.9438460469245911,0.0,0.032859012484550476
296.0,352.0,-4.5709,0.1741,8.7506,-0.0379,0.0278,-0.1165,-2.2113872967162074,0.0,4.34865665435791,-1.5499022006988525,-0.0,1.7937796115875244,5.690068948059835,-0.0,0.2244642972946167,-1.6249483267413538,0.0,0.005096357315778732,0.7013395428657532,-0.0,-0.013112511485815048,0.9438375234603882,0.0,0.03684486076235771
291.0,349.0,-4.6181,0.1998,8.7972,-0.0348,0.0301,-0.121,-2.2113548717894496,0.0,4.371687412261963,-1.549850344657898,-0.0,1.7708017826080322,5.690116870194235,-0.0,0.21224278211593628,-1.624965016041891,0.0,-0.021574456244707108,0.7013235092163086,-0.0,-0.0021482366137206554,0.9438255429267883,0.0,-0.005520529579371214
291.0,349.0,-4.6181,0.1998,8.7972,-0.0348,0.0301,-0.121,-2.2113872967162074,0.0,4.357122421264648,-1.5498384237289429,-0.0,1.7924381494522095,5.690109061985769,-0.0,0.2177748829126358,-1.6249201933490198,0.0,-0.004392143338918686,0.7013795375823975,-0.0,0.016655512154102325,0.9438181519508362,0.0,-0.010408017784357071
291.0,349.0,-4.6181,0.1998,8.7972,-0.0348,0.0301,-0.121,-2.211391588250631,0.0,4.330296516418457,-1.5498661994934082,-0.0,1.7400128841400146,5.690077054291525,-0.0,0.19800320267677307,-1.6249492804156702,0.0,-0.012899842113256454,0.7012994885444641,-0.0,-0.0004425765946507454,0.9438539147377014,0.0,-0.031935714185237885
291.0,349.0,-4.6181,0.1998,8.7972,-0.0348,0.0301,-0.121,-2.211362978021139,0.0,4.337167739868164,-1.5498260259628296,-0.0,1.7632904052734375,5.690081107407369,-0.0,0.22157712280750275,-1.6250208059894007,0.0,0.0009514465346001089,0.7012872695922852,-0.0,0.005232322495430708,0.9438579678535461,0.0,-0.0026414552703499794
291.0,349.0,-4.6181,0.1998,8.7972,-0.0348,0.0301,-0.121,-2.211362978021139,0.0,4.352902412414551,-1.5498658418655396,-0.0,1.7933708429336548,5.69008486249999,-0.0,0.22909754514694214,-1.6249688307391565,0.0,-0.007200266234576702,0.7012953758239746,-0.0,0.005643238313496113,0.9438498020172119,0.0,-0.0011930125765502453
291.0,349.0,-4.6181,0.1998,8.7972,-0.0348,0.0301,-0.121,-2.211379190484518,0.0,4.331620693206787,-1.549842357635498,-0.0,1.765379548072815,5.690084922104635,-0.0,0.22267760336399078,-1.6249564329730433,0.0,-0.00294569693505764,0.7013114094734192,-0.0,0.014550389721989632,0.9437812566757202,0.0,-0.018463686108589172
291.0,349.0,-4.6181,0.1998,8.7972,-0.0348,0.0301,-0.121,-2.211395402947897,0.0,4.311380863189697,-1.54985773563385,-0.0,1.762727975845337,5.690084922104635,-0.0,0.2183738797903061,-1.6249287764178675,0.0,-0.0044922917149960995,0.7013156414031982,-0.0,-0.005187372677028179,0.9438140392303467,0.0,-0.0025294311344623566
291.0,349.0,-4.6181,0.1998,8.7972,-0.0348,0.0301,-0.121,-2.2114154301085414,0.0,4.405305862426758,-1.5498219728469849,-0.0,1.791520357131958,5.69008897522048,-0.0,0.2170582115650177,-1.6249807516681116,0.0,-0.019472287967801094,0.7013156414031982,-0.0,0.0026724212802946568,0.9438460469245911,0.0,-0.017856260761618614
291.0,349.0,-4.6181,0.1998,8.7972,-0.0348,0.0301,-0.121,-2.2113429508604945,0.0,4.338615417480469,-1.5498340129852295,-0.0,1.7817305326461792,5.690148818283834,-0.0,0.21311727166175842,-1.624936882649557,0.0,-0.012452857568860054,0.7012994289398193,-0.0,0.0066092489287257195,0.9438255429267883,0.0,-0.017085330560803413
291.0,349.0,-4.6181,0.1998,8.7972,-0.0348,0.0301,-0.121,-2.2113710842528285,0.0,4.354702949523926,-1.5498219728469849,-0.0,1.7453033924102783,5.690132844239034,-0.0,0.22173024713993073,-1.624960724507467,0.0,-0.006747267674654722,0.7012792229652405,-0.0,0.011496646329760551,0.9438338279724121,0.0,0.0021635140292346478
291.0,349.0,-4.6181,0.1998,8.7972,-0.0348,0.0301,-0.121,-2.2114316425719203,0.0,4.312685489654541,-1.54985773563385,-0.0,1.7560373544692993,5.690116870194235,-0.0,0.22326403856277466,-1.624976936970846,0.0,0.002668064786121249,0.7012872695922852,-0.0,0.013827049173414707,0.9438378810882568,0.0,0.007306818850338459
291.0,349.0,-4.6181,0.1998,8.7972,-0.0348,0.0301,-0.121,-2.211334844628805,0.0,4.401286602020264,-1.5498617887496948,-0.0,1.7591447830200195,5.690116870194235,-0.0,0.214161217212677,-1.6249731222735804,0.0,-0.0030247378163039684,0.7013235092163086,-0.0,0.016817595809698105,0.9438177943229675,0.0,-0.0038887010887265205
291.0,349.0,-4.6181,0.1998,8.7972,-0.0348,0.0301,-0.121,-2.2113872967162074,0.0,4.348707675933838,-1.5497781038284302,-0.0,1.7728455066680908,5.69011681058959,-0.0,0.2143944799900055,-1.6250088850604456,0.0,-0.004431247711181641,0.7013115882873535,-0.0,-0.002946994500234723,0.9438821077346802,0.0,-0.03809472545981407
291.0,349.0,-4.6181,0.1998,8.7972,-0.0348,0.0301,-0.121,-2.211362978021139,0.0,4.3893609046936035,-1.54979407787323,-0.0,1.8067400455474854,5.690109002381124,-0.0,0.21961438655853271,-1.6249163786517542,0.0,-0.0013687522150576115,0.7012832164764404,-0.0,0.0003865131875500083,0.9438378810882568,0.0,-0.016846533864736557
291.0,349.0,-4.6181,0.1998,8.7972,-0.0348,0.0301,-0.121,-2.211379190484518,0.0,4.356863975524902,-1.549842357635498,-0.0,1.7545169591903687,5.690100896149435,-0.0,0.22848978638648987,-1.6249645392047327,0.0,-0.013856228440999985,0.7013354301452637,-0.0,0.009715639054775238,0.9438661932945251,0.0,-0.025201212614774704
291.0,349.0,-4.6181,0.1998,8.7972,-0.0348,0.0301,-0.121,-2.2113553486266078,0.0,4.396807670593262,-1.5498219728469849,-0.0,1.7846579551696777,5.6900930283363245,-0.0,0.22306692600250244,-1.6250088850604456,0.0,-0.0061223991215229034,0.7012994289398193,-0.0,0.007941676303744316,0.9438099265098572,0.0,-0.0016109850257635117
291.0,349.0,-4.6181,0.1998,8.7972,-0.0348,0.0301,-0.121,-2.211334367791647,0.0,4.318090438842773,-1.5498299598693848,-0.0,1.7910857200622559,5.69006513336257,-0.0,0.23016348481178284,-1.624965016041891,0.0,0.011723130941390991,0.7012712955474854,-0.0,0.005717122461646795,0.9438498020172119,0.0,0.00664726085960865
298.0,351.0,-4.5595,0.2076,8.6315,-0.0324,0.0243,-0.1104,-2.211362978021139,0.0,4.3530707359313965,-1.549813985824585,-0.0,1.8040411472320557,5.690129029541769,-0.0,0.21720251441001892,-1.6249688307391565,0.0,-0.012045267969369888,0.7012996077537537,-0.0,0.0034151391591876745,0.9438058733940125,0.0,0.003964035771787167
298.0,351.0,-4.5595,0.2076,8.6315,-0.0324,0.0243,-0.1104,-2.2113872967162074,0.0,4.354988098144531,-1.5498384237289429,-0.0,1.7760686874389648,5.6901049492652795,-0.0,0.2256215512752533,-1.624936882649557,0.0,-0.0076490603387355804,0.7012994289398193,-0.0,-0.00039760442450642586,0.9438459873199463,0.0,0.034414514899253845
298.0,351.0,-4.5595,0.2076,8.6315,-0.0324,0.0243,-0.1104,-2.2113706074156703,0.0,4.330598831176758,-1.5498617887496948,-0.0,1.749920129776001,5.690100896149435,-0.0,0.21151208877563477,-1.6249969641314905,0.0,-0.00014935503713786602,0.7012832164764404,-0.0,0.0005363891832530499,0.9438702464103699,0.0,0.018471527844667435
298.0,351.0,-4.5595,0.2076,8.6315,-0.0324,0.0243,-0.1104,-2.2113667927184046,0.0,4.357365608215332,-1.5498743057250977,-0.0,1.759467363357544,5.690113055496969,-0.0,0.21659988164901733,-1.624936882649557,0.0,0.003161513712257147,0.7013433575630188,-0.0,0.007677982561290264,0.9438177943229675,0.0,-0.0035561388358473778
298.0,351.0,-4.5595,0.2076,8.6315,-0.0324,0.0243,-0.1104,-2.211379190484518,0.0,4.344936370849609,-1.5498942136764526,-0.0,1.7803149223327637,5.69008086898879,-0.0,0.2167443186044693,-1.62494403520693,0.0,-0.0020806556567549706,0.7012832164764404,-0.0,0.009233907796442509,0.9438018202781677,0.0,-0.00519908731803298
298.0,351.0,-4.5595,0.2076,8.6315,-0.0324,0.0243,-0.1104,-2.211367269555563,0.0,4.30584192276001,-1.5498782396316528,-0.0,1.8367669582366943,5.69009684303359,-0.0,0.21337050199508667,-1.6249201933490198,0.0,-0.008712559007108212,0.7012713551521301,-0.0,0.0029436624608933926,0.9438456296920776,0.0,0.005735048092901707
298.0,351.0,-4.5595,0.2076,8.6315,-0.0324,0.0243,-0.1104,-2.211407323876852,0.0,4.328352928161621,-1.5498100519180298,-0.0,1.7744303941726685,5.69011681058959,-0.0,0.22224387526512146,-1.6249287764178675,0.0,-0.006032805889844894,0.7013595700263977,-0.0,-0.0002338392660021782,0.9438378810882568,0.0,0.0501222237944603
298.0,351.0,-4.5595,0.2076,8.6315,-0.0324,0.0243,-0.1104,-2.211374898950094,0.0,4.3728179931640625,-1.5498617887496948,-0.0,1.8009694814682007,5.69007300117568,-0.0,0.22127178311347961,-1.6249449888812464,0.0,0.005168505012989044,0.7013074159622192,-0.0,-0.0004321028827689588,0.9438018202781677,0.0,0.04397014155983925
298.0,351.0,-4.5595,0.2076,8.6315,-0.0324,0.0243,-0.1104,-2.2113706074156703,0.0,4.378190994262695,-1.5498820543289185,-0.0,1.784580111503601,5.69008897522048,-0.0,0.21551576256752014,-1.6249406973468226,0.0,-0.0102298054844141,0.7013075947761536,-0.0,0.006840192247182131,0.9438177943229675,0.0,-0.009538319893181324
298.0,351.0,-4.5595,0.2076,8.6315,-0.0324,0.0243,-0.1104,-2.2113706074156703,0.0,4.347947597503662,-1.5498260259628296,-0.0,1.8002628087997437,5.6901049492652795,-0.0,0.2250281274318695,-1.624960724507467,0.0,-0.002791102509945631,0.7012515068054199,-0.0,0.009473403915762901,0.9438177943229675,0.0,-0.022870685905218124
298.0,351.0,-4.5595,0.2076,8.6315,-0.0324,0.0243,-0.1104,-2.2114035091795863,0.0,4.311423301696777,-1.5498743057250977,-0.0,1.7680134773254395,5.69007300117568,-0.0,0.21236972510814667,-1.6249688307391565,0.0,-0.008153747767210007,0.7013474106788635,-0.0,-0.006119685247540474,0.9438338279724121,0.0,0.031438685953617096
298.0,351.0,-4.5595,0.2076,8.6315,-0.0324,0.0243,-0.1104,-2.2113548717894496,0.0,4.359011650085449,-1.5498738288879395,-0.0,1.7539950609207153,5.69006888845519,-0.0,0.2186630815267563,-1.6249850432025355,0.0,0.00035332716652192175,0.7012355923652649,-0.0,0.002349119633436203,0.9438981413841248,0.0,0.011065134778618813
298.0,351.0,-4.5595,0.2076,8.6315,-0.0324,0.0243,-0.1104,-2.211374898950094,0.0,4.387325763702393,-1.5498822927474976,-0.0,1.757554054260254,5.690136897354879,-0.0,0.2275564968585968,-1.6249483267413538,0.0,-0.005958171561360359,0.7012792229652405,-0.0,0.003077287692576647,0.9438058137893677,0.0,-0.004214809276163578
298.0,351.0,-4.5595,0.2076,8.6315,-0.0324,0.0243,-0.1104,-2.2113706074156703,0.0,4.362049102783203,-1.5498464107513428,-0.0,1.7494451999664307,5.690132903843679,-0.0,0.22267121076583862,-1.6249850432025355,0.0,0.000256136292591691,0.7013393640518188,-0.0,-0.004932496231049299,0.9438498020172119,0.0,-0.024682682007551193
298.0,351.0,-4.5595,0.2076,8.6315,-0.0324,0.0243,-0.1104,-2.2113429508604945,0.0,4.372061729431152,-1.549805998802185,-0.0,1.7954449653625488,5.6901049492652795,-0.0,0.21380460262298584,-1.6249201933490198,0.0,-0.0032732582185417414,0.7012795209884644,-0.0,-0.0028632115572690964,0.9438661336898804,0.0,-0.044404417276382446
298.0,351.0,-4.5595,0.2076,8.6315,-0.0324,0.0243,-0.1104,-2.2113949261107386,0.0,4.312185287475586,-1.5498902797698975,-0.0,1.807376742362976,5.6901089427764795,-0.0,0.20648662745952606,-1.6249807516681116,0.0,-0.013052848167717457,0.7012832164764404,-0.0,0.01304565742611885,0.9438579678535461,0.0,-0.029270431026816368
297.0,350.0,-4.6259,0.189,8.7697,-0.0373,0.0228,-0.1268,-2.2113830051817835,0.0,4.321784019470215,-1.5498462915420532,-0.0,1.7591487169265747,5.690109002381124,-0.0,0.21249473094940186,-1.6249483267413538,0.0,-0.010669033043086529,0.7013034820556641,-0.0,0.005301265046000481,0.9438620805740356,0.0,0.02326720580458641
297.0,350.0,-4.6259,0.189,8.7697,-0.0373,0.0228,-0.1268,-2.2113872967162074,0.0,4.320977210998535,-1.549842357635498,-0.0,1.7659544944763184,5.6900930283363245,-0.0,0.2248389571905136,-1.6249731222735804,0.0,-0.009144773706793785,0.7012872695922852,-0.0,-0.0019359258003532887,0.943821907043457,0.0,0.0010396246798336506
297.0,350.0,-4.6259,0.189,8.7697,-0.0373,0.0228,-0.1268,-2.2113830051817835,0.0,4.318969249725342,-1.5498497486114502,-0.0,1.7848689556121826,5.690097081452169,-0.0,0.23000523447990417,-1.6249731222735804,0.0,0.005231605842709541,0.7013076543807983,-0.0,0.007261327933520079,0.9438018202781677,0.0,0.004408611916005611
297.0,350.0,-4.6259,0.189,8.7697,-0.0373,0.0228,-0.1268,-2.211358686486715,0.0,4.344690322875977,-1.5498902797698975,-0.0,1.7624895572662354,5.690113055496969,-0.0,0.22828352451324463,-1.6249688307391565,0.0,0.0006714812479913235,0.7013473510742188,-0.0,0.0034454739652574062,0.9438259601593018,0.0,0.026596548035740852
297.0,350.0,-4.6259,0.189,8.7697,-0.0373,0.0228,-0.1268,-2.2113591633238734,0.0,4.3943986892700195,-1.5498782396316528,-0.0,1.8235543966293335,5.690084922104635,-0.0,0.2012072503566742,-1.6250007788287562,0.0,-0.005615647416561842,0.7013274431228638,-0.0,0.003243616782128811,0.9438378810882568,0.0,-0.0021578101441264153
297.0,350.0,-4.6259,0.189,8.7697,-0.0373,0.0228,-0.1268,-2.211374898950094,0.0,4.353128433227539,-1.5498743057250977,-0.0,1.7395243644714355,5.6900930283363245,-0.0,0.23081918060779572,-1.6249483267413538,0.0,0.0009116509463638067,0.7013037204742432,-0.0,0.0017391464207321405,0.9438661336898804,0.0,-0.007255740463733673
297.0,350.0,-4.6259,0.189,8.7697,-0.0373,0.0228,-0.1268,-2.2113505802550257,0.0,4.337311267852783,-1.5498698949813843,-0.0,1.7771661281585693,5.690064835339346,-0.0,0.21949870884418488,-1.6249287764178675,0.0,0.011689592152833939,0.7012752890586853,-0.0,0.001137322629801929,0.9438701868057251,0.0,0.02043703943490982
297.0,350.0,-4.6259,0.189,8.7697,-0.0373,0.0228,-0.1268,-2.2113830051817835,0.0,4.333991527557373,-1.54985773563385,-0.0,1.7601027488708496,5.690136897354879,-0.0,0.22179965674877167,-1.624976936970846,0.0,-0.004328361712396145,0.7012792229652405,-0.0,0.006295312196016312,0.9438338279724121,0.0,-0.024540644139051437
297.0,350.0,-4.6259,0.189,8.7697,-0.0373,0.0228,-0.1268,-2.211379190484518,0.0,4.33350133895874,-1.5498384237289429,-0.0,1.77244234085083,5.69008897522048,-0.0,0.20500041544437408,-1.6249244848834437,0.0,-0.0022035010624676943,0.7012593746185303,-0.0,-0.007865279912948608,0.9438742399215698,0.0,-0.0051772803999483585
297.0,350.0,-4.6259,0.189,8.7697,-0.0373,0.0228,-0.1268,-2.211358686486715,0.0,4.374224662780762,-1.5498099327087402,-0.0,1.7281811237335205,5.690081107407369,-0.0,0.21705086529254913,-1.624960724507467,0.0,-0.007045930251479149,0.7013675570487976,-0.0,-0.004222198389470577,0.9438537359237671,0.0,-0.0035504098050296307
297.0,350.0,-4.6259,0.189,8.7697,-0.0373,0.0228,-0.1268,-2.2113996944823207,0.0,4.316657066345215,-1.5498340129852295,-0.0,1.7919691801071167,5.6901330826576135,-0.0,0.22531215846538544,-1.6249688307391565,0.0,0.005898766219615936,0.7013235688209534,-0.0,-0.002512387465685606,0.9438579678535461,0.0,0.0488961860537529
297.0,350.0,-4.6259,0.189,8.7697,-0.0373,0.0228,-0.1268,-2.2113310299315394,0.0,4.320791721343994,-1.5498504638671875,-0.0,1.785010814666748,5.690120923310079,-0.0,0.20495444536209106,-1.624988857899801,0.0,-0.003653445979580283,0.7013115882873535,-0.0,-0.006408071611076593,0.9438338279724121,0.0,0.03526238724589348
297.0,350.0,-4.6259,0.189,8.7697,-0.0373,0.0228,-0.1268,-2.2113710842528285,0.0,4.355718612670898,-1.54982590675354,-0.0,1.794924020767212,5.69008897522048,-0.0,0.20977522432804108,-1.6249449888812464,0.0,-0.0015347455628216267,0.7012515068054199,-0.0,6.556999869644642e-05,0.9438419342041016,0.0,0.02171887457370758
297.0,350.0,-4.6259,0.189,8.7697,-0.0373,0.0228,-0.1268,-2.211367269555563,0.0,4.350114822387695,-1.5498497486114502,-0.0,1.7820810079574585,5.690116870194235,-0.0,0.21013858914375305,-1.6249807516681116,0.0,-0.006771232467144728,0.7013076543807983,-0.0,0.006253344938158989,0.9438338279724121,0.0,-0.01824110746383667
297.0,350.0,-4.6259,0.189,8.7697,-0.0373,0.0228,-0.1268,-2.2113706074156703,0.0,4.357001304626465,-1.5498497486114502,-0.0,1.7728667259216309,5.690084922104635,-0.0,0.2136250138282776,-1.624993149434225,0.0,-0.006413107737898827,0.701263427734375,-0.0,0.007851838134229183,0.9438498020172119,0.0,-0.05303095281124115
297.0,350.0,-4.6259,0.189,8.7697,-0.0373,0.0228,-0.1268,-2.2114154301085414,0.0,4.3411054611206055,-1.5498299598693848,-0.0,1.799811601638794,5.69007300117568,-0.0,0.2246614396572113,-1.6249483267413538,0.0,-0.00019950687419623137,0.7012872695922852,-0.0,0.0004964174004271626,0.9438456296920776,0.0,-0.006964533124119043
297.0,350.0,-4.6259,0.189,8.7697,-0.0373,0.0228,-0.1268,-2.2113310299315394,0.0,4.344649791717529,-1.5498099327087402,-0.0,1.8062925338745117,5.6900808093841455,-0.0,0.2264145463705063,-1.6249564329730433,0.0,0.0016036867164075375,0.7012911438941956,-0.0,0.001848470652475953,0.9438539147377014,0.0,0.01716461218893528
304.0,353.0,-4.5763,0.198,8.7009,-0.0365,0.0266,-0.1164,-2.211358686486715,0.0,4.308714866638184,-1.549813985824585,-0.0,1.7743446826934814,5.6901049492652795,-0.0,0.22799047827720642,-1.6249731222735804,0.0,0.0012672500452026725,0.7013156414031982,-0.0,0.010386406444013119,0.9438579678535461,0.0,-0.012967287562787533
304.0,353.0,-4.5763,0.198,8.7009,-0.0365,0.0266,-0.1164,-2.2113548717894496,0.0,4.316353797912598,-1.5498260259628296,-0.0,1.7669215202331543,5.690084922104635,-0.0,0.21079671382904053,-1.6249731222735804,0.0,-0.0045220088213682175,0.7012954354286194,-0.0,-0.0030730189755558968,0.9438742995262146,0.0,-0.02627630904316902
304.0,353.0,-4.5763,0.198,8.7009,-0.0365,0.0266,-0.1164,-2.2113830051817835,0.0,4.333580493927002,-1.549842357635498,-0.0,1.7579747438430786,5.690036344319143,-0.0,0.21053077280521393,-1.624976936970846,0.0,-0.012971499003469944,0.7012875080108643,-0.0,0.008056942373514175,0.9438259601593018,0.0,-0.025371020659804344
304.0,353.0,-4.5763,0.198,8.7009,-0.0365,0.0266,-0.1164,-2.211395402947897,0.0,4.367315769195557,-1.5498342514038086,-0.0,1.7980566024780273,5.690084922104635,-0.0,0.21543607115745544,-1.6249449888812464,0.0,-0.0007621045224368572,0.7012633681297302,-0.0,0.01975812204182148,0.9438742995262146,0.0,0.023601848632097244
304.0,353.0,-4.5763,0.198,8.7009,-0.0365,0.0266,-0.1164,-2.2114321194090785,0.0,4.3722381591796875,-1.5498099327087402,-0.0,1.795013666152954,5.690132844239034,-0.0,0.21842002868652344,-1.624976936970846,0.0,-0.021355539560317993,0.7012792825698853,-0.0,0.0030735803302377462,0.9437976479530334,0.0,-0.0277556162327528
304.0,353.0,-4.5763,0.198,8.7009,-0.0365,0.0266,-0.1164,-2.2113548717894496,0.0,4.335724830627441,-1.5499022006988525,-0.0,1.8109183311462402,5.690097081452169,-0.0,0.21585556864738464,-1.6249406973468226,0.0,-0.004967767745256424,0.7013155817985535,-0.0,-0.00044279766734689474,0.9438619613647461,0.0,-0.03280525282025337
304.0,353.0,-4.5763,0.198,8.7009,-0.0365,0.0266,-0.1164,-2.211358686486715,0.0,4.337881088256836,-1.54985773563385,-0.0,1.7739171981811523,5.69008897522048,-0.0,0.21421334147453308,-1.6249564329730433,0.0,-0.007524396292865276,0.7013074159622192,-0.0,0.010275601409375668,0.9438661336898804,0.0,-0.03913327679038048
304.0,353.0,-4.5763,0.198,8.7009,-0.0365,0.0266,-0.1164,-2.211367269555563,0.0,4.343495845794678,-1.54985773563385,-0.0,1.7868808507919312,5.6901330826576135,-0.0,0.21851307153701782,-1.6249850432025355,0.0,-0.008855159394443035,0.701355516910553,-0.0,0.008814938366413116,0.9438338279724121,0.0,0.0299859456717968
304.0,353.0,-4.5763,0.198,8.7009,-0.0365,0.0266,-0.1164,-2.2113505802550257,0.0,4.328826904296875,-1.5498019456863403,-0.0,1.7764146327972412,5.690036284714498,-0.0,0.21898937225341797,-1.6249521414386194,0.0,-0.011151019483804703,0.7013314366340637,-0.0,0.010911654680967331,0.9438661336898804,0.0,0.028817737475037575
304.0,353.0,-4.5763,0.198,8.7009,-0.0365,0.0266,-0.1164,-2.211374898950094,0.0,4.34739351272583,-1.5498021841049194,-0.0,1.7814193964004517,5.690084922104635,-0.0,0.20317679643630981,-1.6249731222735804,0.0,0.007566486485302448,0.7013155817985535,-0.0,-0.0006444657337851822,0.9438300132751465,0.0,0.01564163900911808
304.0,353.0,-4.5763,0.198,8.7009,-0.0365,0.0266,-0.1164,-2.2113505802550257,0.0,4.369649410247803,-1.5498698949813843,-0.0,1.7568354606628418,5.690137374192037,-0.0,0.2297743558883667,-1.624932591115133,0.0,-0.01492538582533598,0.7013314962387085,-0.0,-0.0032525225542485714,0.9438579082489014,0.0,0.03432420268654823
304.0,353.0,-4.5763,0.198,8.7009,-0.0365,0.0266,-0.1164,-2.2113191090025843,0.0,4.373798847198486,-1.5497779846191406,-0.0,1.7791553735733032,5.690124976425924,-0.0,0.21619099378585815,-1.6249688307391565,0.0,-0.007090752944350243,0.7012994289398193,-0.0,-0.009239844977855682,0.9438378810882568,0.0,-0.014859192073345184
304.0,353.0,-4.5763,0.198,8.7009,-0.0365,0.0266,-0.1164,-2.2113830051817835,0.0,4.364846706390381,-1.5498101711273193,-0.0,1.7723677158355713,5.690109002381124,-0.0,0.21413710713386536,-1.624960724507467,0.0,-0.010725611820816994,0.7012954354286194,-0.0,0.002422379795461893,0.9438498020172119,0.0,0.014772139489650726
304.0,353.0,-4.5763,0.198,8.7009,-0.0365,0.0266,-0.1164,-2.211362978021139,0.0,4.334195137023926,-1.5498982667922974,-0.0,1.8007099628448486,5.690120923310079,-0.0,0.22910189628601074,-1.6249082724200647,0.0,-0.0023649539798498154,0.7012752890586853,-0.0,0.0020611472427845,0.9438502192497253,0.0,-0.01905243843793869
304.0,353.0,-4.5763,0.198,8.7009,-0.0365,0.0266,-0.1164,-2.211407323876852,0.0,4.329290866851807,-1.5498179197311401,-0.0,1.7883195877075195,5.69007300117568,-0.0,0.2206983119249344,-1.6249688307391565,0.0,0.00345465075224638,0.7013076543807983,-0.0,-0.00808729324489832,0.9438259601593018,0.0,0.014170118607580662
304.0,353.0,-4.5763,0.198,8.7009,-0.0365,0.0266,-0.1164,-2.211362978021139,0.0,4.342137336730957,-1.54982590675354,-0.0,1.759413242340088,5.690085160523214,-0.0,0.210425466299057,-1.6249483267413538,0.0,-0.012260744348168373,0.7013037204742432,-0.0,0.0020503848791122437,0.943821907043457,0.0,-0.0050748600624501705
290.0,343.0,-4.584,0.1998,8.7494,-0.0357,0.02,-0.1138,-2.211379190484518,0.0,4.364672660827637,-1.5498260259628296,-0.0,1.7412495613098145,5.690141010075369,-0.0,0.20410363376140594,-1.6249688307391565,0.0,-0.0029024221003055573,0.7013073563575745,-0.0,0.008208307437598705,0.9437936544418335,0.0,-0.026025138795375824
290.0,343.0,-4.584,0.1998,8.7494,-0.0357,0.02,-0.1138,-2.2113386593260707,0.0,4.374906539916992,-1.54979407787323,-0.0,1.7963025569915771,5.690129089146414,-0.0,0.21971344947814941,-1.624936882649557,0.0,0.0007881300989538431,0.7013037204742432,-0.0,0.009831582196056843,0.9438338279724121,0.0,0.003026890568435192
290.0,343.0,-4.584,0.1998,8.7494,-0.0357,0.02,-0.1138,-2.211374898950094,0.0,4.312822341918945,-1.5498342514038086,-0.0,1.7598210573196411,5.690145063191213,-0.0,0.2154506891965866,-1.6249564329730433,0.0,0.0006011220975778997,0.7013518810272217,-0.0,0.004228457808494568,0.9438619613647461,0.0,-0.012399312108755112
290.0,343.0,-4.584,0.1998,8.7494,-0.0357,0.02,-0.1138,-2.2114273510374964,0.0,4.392331123352051,-1.5498822927474976,-0.0,1.7708070278167725,5.6900930283363245,-0.0,0.2126050442457199,-1.624960724507467,0.0,-0.0012283215764909983,0.7012872695922852,-0.0,-0.0012073066318407655,0.9438378810882568,0.0,0.03766828030347824
290.0,343.0,-4.584,0.1998,8.7494,-0.0357,0.02,-0.1138,-2.21134676555776,0.0,4.36970853805542,-1.5498180389404297,-0.0,1.77472722530365,5.690161037236013,-0.0,0.21273422241210938,-1.624993149434225,0.0,0.0064459191635251045,0.7012588977813721,-0.0,-0.003282732330262661,0.9438338279724121,0.0,0.022673245519399643
290.0,343.0,-4.584,0.1998,8.7494,-0.0357,0.02,-0.1138,-2.2113710842528285,0.0,4.293481349945068,-1.5498299598693848,-0.0,1.763493537902832,5.690100896149435,-0.0,0.20746152102947235,-1.6249483267413538,0.0,-0.004762147553265095,0.7013235688209534,-0.0,0.0038842044305056334,0.9437695741653442,0.0,-0.01885896734893322
290.0,343.0,-4.584,0.1998,8.7494,-0.0357,0.02,-0.1138,-2.2114035091795863,0.0,4.338216781616211,-1.5498383045196533,-0.0,1.7658562660217285,5.690109061985769,-0.0,0.20280222594738007,-1.6249807516681116,0.0,0.00604465464130044,0.7013115882873535,-0.0,-0.009818166494369507,0.9438295960426331,0.0,-0.03180074691772461
290.0,343.0,-4.584,0.1998,8.7494,-0.0357,0.02,-0.1138,-2.211395402947897,0.0,4.355241775512695,-1.5497781038284302,-0.0,1.7278099060058594,5.69006888845519,-0.0,0.2161746621131897,-1.6250007788287562,0.0,-0.003006581449881196,0.7013115882873535,-0.0,0.006044371984899044,0.9438538551330566,0.0,-0.03283383697271347
290.0,343.0,-4.584,0.1998,8.7494,-0.0357,0.02,-0.1138,-2.211334844628805,0.0,4.351691246032715,-1.54985773563385,-0.0,1.7699377536773682,5.690084922104635,-0.0,0.21382872760295868,-1.624960724507467,0.0,-0.0048315091989934444,0.7013157606124878,-0.0,0.009039006195962429,0.9438379406929016,0.0,0.03515419736504555
290.0,343.0,-4.584,0.1998,8.7494,-0.0357,0.02,-0.1138,-2.2113872967162074,0.0,4.360727310180664,-1.5498902797698975,-0.0,1.8425695896148682,5.690100896149435,-0.0,0.21873344480991364,-1.624993149434225,0.0,-0.002316549187526107,0.7013034224510193,-0.0,0.0014693664852529764,0.9438379406929016,0.0,0.015319428406655788
290.0,343.0,-4.584,0.1998,8.7494,-0.0357,0.02,-0.1138,-2.2114159069456996,0.0,4.360538005828857,-1.5498782396316528,-0.0,1.7807390689849854,5.690052556782522,-0.0,0.2118472456932068,-1.6249688307391565,0.0,-0.016714729368686676,0.7013075351715088,-0.0,-0.004830074962228537,0.943821907043457,0.0,-0.05352237820625305
290.0,343.0,-4.584,0.1998,8.7494,-0.0357,0.02,-0.1138,-2.211379190484518,0.0,4.357119560241699,-1.5498299598693848,-0.0,1.7944543361663818,5.690116870194235,-0.0,0.23491214215755463,-1.625016991292135,0.0,-0.003033737186342478,0.7013075351715088,-0.0,-0.005709634628146887,0.943809986114502,0.0,-0.01080557331442833
290.0,343.0,-4.584,0.1998,8.7494,-0.0357,0.02,-0.1138,-2.2113148174681605,0.0,4.376893043518066,-1.5498497486114502,-0.0,1.7839120626449585,5.6900930283363245,-0.0,0.20813578367233276,-1.6249564329730433,0.0,-0.014881538227200508,0.7013481259346008,-0.0,-0.005576429422944784,0.943801760673523,0.0,0.011744292452931404
290.0,343.0,-4.584,0.1998,8.7494,-0.0357,0.02,-0.1138,-2.2113872967162074,0.0,4.350194931030273,-1.5497781038284302,-0.0,1.7405996322631836,5.690077054291525,-0.0,0.21457520127296448,-1.624988857899801,0.0,-0.000349686190020293,0.7012671232223511,-0.0,0.005767752882093191,0.9438743591308594,0.0,-0.02711540274322033
290.0,343.0,-4.584,0.1998,8.7494,-0.0357,0.02,-0.1138,-2.2113667927184046,0.0,4.365391731262207,-1.5498462915420532,-0.0,1.773017406463623,5.690129029541769,-0.0,0.2137896865606308,-1.6249282995807093,0.0,-0.009268857538700104,0.7012830972671509,-0.0,-0.002748076803982258,0.9437975883483887,0.0,-0.021519571542739868
290.0,343.0,-4.584,0.1998,8.7494,-0.0357,0.02,-0.1138,-2.2114154301085414,0.0,4.3566203117370605,-1.5498299598693848,-0.0,1.7447216510772705,5.690109061985769,-0.0,0.23479241132736206,-1.6249483267413538,0.0,-0.009340530261397362,0.7012789845466614,-0.0,0.0016685589216649532,0.9438702464103699,0.0,-0.004438189789652824
304.0,343.0,-4.6229,0.1854,8.8193,-0.0362,0.0296,-0.1219,-2.211395402947897,0.0,4.3424787521362305,-1.5498180389404297,-0.0,1.7756452560424805,5.690085160523214,-0.0,0.21576836705207825,-1.6249521414386194,0.0,-0.008851176127791405,0.7012952566146851,-0.0,0.00902277510613203,0.943821907043457,0.0,0.04551496356725693
304.0,343.0,-4.6229,0.1854,8.8193,-0.0362,0.0296,-0.1219,-2.211379190484518,0.0,4.387357711791992,-1.54982590675354,-0.0,1.7721773386001587,5.690097141056814,-0.0,0.22503803670406342,-1.6249564329730433,0.0,-0.009465810842812061,0.7013359069824219,-0.0,0.00021294259931892157,0.9438538551330566,0.0,-0.02292526513338089
304.0,343.0,-4.6229,0.1854,8.8193,-0.0362,0.0296,-0.1219,-2.2114278278746546,0.0,4.354453086853027,-1.5498617887496948,-0.0,1.789891004562378,5.690113115101614,-0.0,0.213335782289505,-1.6249564329730433,0.0,0.0015077709686011076,0.701307475566864,-0.0,0.011266268789768219,0.9438140392303467,0.0,0.014575785025954247
304.0,343.0,-4.6229,0.1854,8.8193,-0.0362,0.0296,-0.1219,-2.2114035091795863,0.0,4.338576316833496,-1.5498219728469849,-0.0,1.7609941959381104,5.6901171682174585,-0.0,0.21868610382080078,-1.6249688307391565,0.0,0.0036748184356838465,0.7012829780578613,-0.0,-0.0009040948934853077,0.9438177943229675,0.0,0.011375462636351585
304.0,343.0,-4.6229,0.1854,8.8193,-0.0362,0.0296,-0.1219,-2.2113830051817835,0.0,4.38272762298584,-1.5498462915420532,-0.0,1.7857487201690674,5.69007300117568,-0.0,0.22623491287231445,-1.6249521414386194,0.0,0.0017741527408361435,0.7013036012649536,-0.0,-0.004663914442062378,0.9438701868057251,0.0,-0.02625638246536255
304.0,343.0,-4.6229,0.1854,8.8193,-0.0362,0.0296,-0.1219,-2.211423536340231,0.0,4.287205696105957,-1.5498260259628296,-0.0,1.7560851573944092,5.690077054291525,-0.0,0.21519625186920166,-1.624960724507467,0.0,0.0008833734318614006,0.7013317346572876,-0.0,-0.0035494263283908367,0.9438497424125671,0.0,-0.0030240113846957684
304.0,343.0,-4.6229,0.1854,8.8193,-0.0362,0.0296,-0.1219,-2.211358686486715,0.0,4.318317413330078,-1.549842357635498,-0.0,1.7717616558074951,5.690101134568014,-0.0,0.22452589869499207,-1.6249564329730433,0.0,-0.019775034859776497,0.7013558149337769,-0.0,0.002922449493780732,0.9437812566757202,0.0,0.025215212255716324
304.0,343.0,-4.6229,0.1854,8.8193,-0.0362,0.0296,-0.1219,-2.2113310299315394,0.0,4.371976375579834,-1.5497701168060303,-0.0,1.7255282402038574,5.6900930283363245,-0.0,0.2104727327823639,-1.6249287764178675,0.0,-0.009938150644302368,0.7013111710548401,-0.0,-0.005134343635290861,0.9438419342041016,0.0,-0.029572509229183197
304.0,343.0,-4.6229,0.1854,8.8193,-0.0362,0.0296,-0.1219,-2.211391588250631,0.0,4.3567214012146,-1.5498578548431396,-0.0,1.7876534461975098,5.6901288507278345,-0.0,0.23262856900691986,-1.6249645392047327,0.0,-0.004968452733010054,0.7012994289398193,-0.0,-0.0025035853032022715,0.9437652826309204,0.0,0.019073156639933586
304.0,343.0,-4.6229,0.1854,8.8193,-0.0362,0.0296,-0.1219,-2.2113830051817835,0.0,4.375301361083984,-1.5498862266540527,-0.0,1.7608532905578613,5.690124976425924,-0.0,0.21975907683372498,-1.6249764601336878,0.0,0.0031544859521090984,0.7012913227081299,-0.0,0.005519043654203415,0.943825900554657,0.0,-0.005348744802176952
304.0,343.0,-4.6229,0.1854,8.8193,-0.0362,0.0296,-0.1219,-2.211379190484518,0.0,4.3409504890441895,-1.5498862266540527,-0.0,1.8088464736938477,5.69008486249999,-0.0,0.22643449902534485,-1.6249645392047327,0.0,-0.007608144544064999,0.7012871503829956,-0.0,0.005419165827333927,0.9438338279724121,0.0,0.010846586897969246
304.0,343.0,-4.6229,0.1854,8.8193,-0.0362,0.0296,-0.1219,-2.2113872967162074,0.0,4.354943752288818,-1.549842357635498,-0.0,1.7950952053070068,5.690113055496969,-0.0,0.2227240353822708,-1.6249077955829065,0.0,-0.0011470834724605083,0.7012913823127747,-0.0,-0.0006357129313983023,0.9438661336898804,0.0,-0.021384239196777344
304.0,343.0,-4.6229,0.1854,8.8193,-0.0362,0.0296,-0.1219,-2.211374898950094,0.0,4.3634819984436035,-1.5498464107513428,-0.0,1.7759263515472412,5.6901049492652795,-0.0,0.2223309576511383,-1.6249282995807093,0.0,-0.014147365465760231,0.7012665867805481,-0.0,-0.003714338643476367,0.9438661336898804,0.0,-0.04924328997731209
304.0,343.0,-4.6229,0.1854,8.8193,-0.0362,0.0296,-0.1219,-2.2114159069456996,0.0,4.315031051635742,-1.5498504638671875,-0.0,1.8082025051116943,5.690097081452169,-0.0,0.21010926365852356,-1.6249731222735804,0.0,-0.009706470184028149,0.7012708783149719,-0.0,-0.01161213405430317,0.9438296556472778,0.0,-0.0007173551712185144
304.0,343.0,-4.6229,0.1854,8.8193,-0.0362,0.0296,-0.1219,-2.211395402947897,0.0,4.3585991859436035,-1.5498099327087402,-0.0,1.762852668762207,5.6900930283363245,-0.0,0.2168523073196411,-1.624976936970846,0.0,-0.016912993043661118,0.7013117671012878,-0.0,0.002493026200681925,0.943882167339325,0.0,0.005043977405875921
304.0,343.0,-4.6229,0.1854,8.8193,-0.0362,0.0296,-0.1219,-2.2113830051817835,0.0,4.372123718261719,-1.5498942136764526,-0.0,1.7505733966827393,5.690140950470724,-0.0,0.219831645488739,-1.6249688307391565,0.0,0.006202223710715771,0.7013841271400452,-0.0,0.017536165192723274,0.9438256025314331,0.0,-0.03833852335810661
304.0,343.0,-4.6229,0.1854,8.8193,-0.0362,0.0296,-0.1219,-2.2113872967162074,0.0,4.388144493103027,-1.5498942136764526,-0.0,1.7660614252090454,5.69007300117568,-0.0,0.21768632531166077,-1.62494403520693,0.0,0.005399465560913086,0.7012630105018616,-0.0,-0.006910016760230064,0.9438539147377014,0.0,0.024641528725624084
284.0,368.0,-4.6271,0.2154,8.8433,-0.0411,0.0183,-0.119,-2.211391588250631,0.0,4.349384784698486,-1.5498299598693848,-0.0,1.7754344940185547,5.690120923310079,-0.0,0.21633970737457275,-1.6249812285052698,0.0,-0.0006523812189698219,0.7013198733329773,-0.0,-0.011551917530596256,0.943821907043457,0.0,-0.020712684839963913
284.0,368.0,-4.6271,0.2154,8.8433,-0.0411,0.0183,-0.119,-2.2113996944823207,0.0,4.320730209350586,-1.5498464107513428,-0.0,1.7694886922836304,5.690133142262258,-0.0,0.21419602632522583,-1.6249402205096644,0.0,0.0014550157357007265,0.701246976852417,-0.0,-0.005449450574815273,0.9438498020172119,0.0,0.037100255489349365
284.0,368.0,-4.6271,0.2154,8.8433,-0.0411,0.0183,-0.119,-2.2113386593260707,0.0,4.319719314575195,-1.5498301982879639,-0.0,1.7687115669250488,5.690117049008169,-0.0,0.2156727910041809,-1.6249731222735804,0.0,-0.004865383729338646,0.7012830972671509,-0.0,-9.099522139877081e-05,0.9438661932945251,0.0,0.024457575753331184
284.0,368.0,-4.6271,0.2154,8.8433,-0.0411,0.0183,-0.119,-2.211419721642965,0.0,4.3277435302734375,-1.549842357635498,-0.0,1.7485272884368896,5.690136897354879,-0.0,0.2154528796672821,-1.6249688307391565,0.0,-0.006731546949595213,0.7013235688209534,-0.0,0.0007830011891201138,0.9438300132751465,0.0,-0.0034957886673510075
284.0,368.0,-4.6271,0.2154,8.8433,-0.0411,0.0183,-0.119,-2.211407323876852,0.0,4.386738300323486,-1.5498138666152954,-0.0,1.8088903427124023,5.690109002381124,-0.0,0.21051961183547974,-1.624960724507467,0.0,-0.0038921060040593147,0.701262891292572,-0.0,0.004229177255183458,0.9438338279724121,0.0,0.013468200340867043
284.0,368.0,-4.6271,0.2154,8.8433,-0.0411,0.0183,-0.119,-2.2113548717894496,0.0,4.3064470291137695,-1.5498942136764526,-0.0,1.7780208587646484,5.690109002381124,-0.0,0.22396552562713623,-1.62500507036318,0.0,-0.012289628386497498,0.7012994289398193,-0.0,-0.001687483279965818,0.9438821077346802,0.0,0.009368935599923134
284.0,368.0,-4.6271,0.2154,8.8433,-0.0411,0.0183,-0.119,-2.21134676555776,0.0,4.369894981384277,-1.549842357635498,-0.0,1.7789816856384277,5.690084922104635,-0.0,0.21087071299552917,-1.6249564329730433,0.0,-0.004951033741235733,0.7012389302253723,-0.0,-0.003144870512187481,0.9438701868057251,0.0,-0.020499207079410553
284.0,368.0,-4.6271,0.2154,8.8433,-0.0411,0.0183,-0.119,-2.2113224468626917,0.0,4.393502235412598,-1.549853801727295,-0.0,1.7807319164276123,5.69008486249999,-0.0,0.21568119525909424,-1.624988857899801,0.0,0.002318208571523428,0.7012872695922852,-0.0,0.005260107107460499,0.9438456296920776,0.0,0.0030828630551695824
284.0,368.0,-4.6271,0.2154,8.8433,-0.0411,0.0183,-0.119,-2.2113872967162074,0.0,4.352325439453125,-1.5498099327087402,-0.0,1.7516871690750122,5.690120923310079,-0.0,0.21574965119361877,-1.6249688307391565,0.0,0.004343346692621708,0.7013275623321533,-0.0,0.014388298615813255,0.9438579082489014,0.0,0.01458283606916666
284.0,368.0,-4.6271,0.2154,8.8433,-0.0411,0.0183,-0.119,-2.2113267383971156,0.0,4.302051544189453,-1.5498464107513428,-0.0,1.7969623804092407,5.690072643547811,-0.0,0.22009310126304626,-1.624993149434225,0.0,-0.015969140455126762,0.7013199329376221,-0.0,0.004839970730245113,0.9438498020172119,0.0,0.007285238243639469
284.0,368.0,-4.6271,0.2154,8.8433,-0.0411,0.0183,-0.119,-2.2113706074156703,0.0,4.367234230041504,-1.5498584508895874,-0.0,1.7361408472061157,5.690120923310079,-0.0,0.22355403006076813,-1.6249688307391565,0.0,0.0019239478278905153,0.7012870907783508,-0.0,0.0026027001440525055,0.943882167339325,0.0,-0.00449965987354517
284.0,368.0,-4.6271,0.2154,8.8433,-0.0411,0.0183,-0.119,-2.211395402947897,0.0,4.33711051940918,-1.54979407787323,-0.0,1.7586089372634888,5.69007699468688,-0.0,0.2096545547246933,-1.6249521414386194,0.0,-0.0067842379212379456,0.7012671232223511,-0.0,0.004805995617061853,0.9438661336898804,0.0,-0.04124649986624718
284.0,368.0,-4.6271,0.2154,8.8433,-0.0411,0.0183,-0.119,-2.2113872967162074,0.0,4.380730628967285,-1.5498380661010742,-0.0,1.78123140335083,5.6901049492652795,-0.0,0.22479656338691711,-1.6249688307391565,0.0,0.0011933683417737484,0.7013318538665771,-0.0,-0.00410098722204566,0.9438661336898804,0.0,-0.0007436736486852169
284.0,368.0,-4.6271,0.2154,8.8433,-0.0411,0.0183,-0.119,-2.2113830051817835,0.0,4.361171722412109,-1.5498743057250977,-0.0,1.774167776107788,5.690125036030569,-0.0,0.22136211395263672,-1.6249764601336878,0.0,-0.009193484671413898,0.7012548446655273,-0.0,0.008520962670445442,0.9438259601593018,0.0,-0.008657881058752537
284.0,368.0,-4.6271,0.2154,8.8433,-0.0411,0.0183,-0.119,-2.211358686486715,0.0,4.344823837280273,-1.5498545169830322,-0.0,1.7671736478805542,5.69006888845519,-0.0,0.2103062868118286,-1.6249564329730433,0.0,-0.007356324233114719,0.7012708187103271,-0.0,0.007210354320704937,0.9438177943229675,0.0,0.02817205898463726
284.0,368.0,-4.6271,0.2154,8.8433,-0.0411,0.0183,-0.119,-2.211391588250631,0.0,4.331908226013184,-1.5498504638671875,-0.0,1.7740919589996338,5.690120982914724,-0.0,0.22498132288455963,-1.62494403520693,0.0,-0.00032853131415322423,0.7013076543807983,-0.0,0.009102017618715763,0.9438498020172119,0.0,0.028366785496473312
303.0,346.0,-4.5685,0.204,8.7757,-0.0322,0.0289,-0.1197,-2.211391588250631,0.0,4.354883670806885,-1.5498617887496948,-0.0,1.7884869575500488,5.690096783428945,-0.0,0.2165956050157547,-1.624993149434225,0.0,0.0038838419131934643,0.7012630105018616,-0.0,0.0003222681116312742,0.9438095688819885,0.0,0.031072845682501793
303.0,346.0,-4.5685,0.204,8.7757,-0.0322,0.0289,-0.1197,-2.2113830051817835,0.0,4.339489459991455,-1.5498340129852295,-0.0,1.7628002166748047,5.690132844239034,-0.0,0.21470969915390015,-1.6249845663653772,0.0,-0.004975440446287394,0.7012712359428406,-0.0,0.004358538426458836,0.9438742995262146,0.0,0.015010982751846313
303.0,346.0,-4.5685,0.204,8.7757,-0.0322,0.0289,-0.1197,-2.211334844628805,0.0,4.307738304138184,-1.5498299598693848,-0.0,1.7461293935775757,5.690092730313101,-0.0,0.22583477199077606,-1.6250007788287562,0.0,0.007903290912508965,0.7012954354286194,-0.0,0.0056310174986720085,0.9438579678535461,0.0,0.0007525179535150528
303.0,346.0,-4.5685,0.204,8.7757,-0.0322,0.0289,-0.1197,-2.21134676555776,0.0,4.33311653137207,-1.5498342514038086,-0.0,1.7887828350067139,5.690136956959524,-0.0,0.22156581282615662,-1.6249807516681116,0.0,-0.014744996093213558,0.7013559937477112,-0.0,-0.004366951063275337,0.9438177943229675,0.0,0.00842865090817213
303.0,346.0,-4.5685,0.204,8.7757,-0.0322,0.0289,-0.1197,-2.211419244805807,0.0,4.344390869140625,-1.5499221086502075,-0.0,1.7683014869689941,5.690040337830343,-0.0,0.21443776786327362,-1.6249521414386194,0.0,-0.010747967287898064,0.7013036012649536,-0.0,0.005495243705809116,0.943818211555481,0.0,-0.0015112180262804031
303.0,346.0,-4.5685,0.204,8.7757,-0.0322,0.0289,-0.1197,-2.2113706074156703,0.0,4.326780796051025,-1.5498260259628296,-0.0,1.7977477312088013,5.690100896149435,-0.0,0.21925245225429535,-1.6249521414386194,0.0,-0.005945226177573204,0.7013354301452637,-0.0,0.0008364049717783928,0.9438338279724121,0.0,-0.031929876655340195
303.0,346.0,-4.5685,0.204,8.7757,-0.0322,0.0289,-0.1197,-2.211395402947897,0.0,4.33273983001709,-1.5498219728469849,-0.0,1.7358810901641846,5.690081107407369,-0.0,0.2291823923587799,-1.6249764601336878,0.0,0.0024350094608962536,0.7012670636177063,-0.0,0.008182624354958534,0.9438943266868591,0.0,-0.04468030482530594
303.0,346.0,-4.5685,0.204,8.7757,-0.0322,0.0289,-0.1197,-2.211334844628805,0.0,4.360594272613525,-1.5498578548431396,-0.0,1.7764406204223633,5.690125036030569,-0.0,0.23219861090183258,-1.62494403520693,0.0,0.000728769286070019,0.7013036012649536,-0.0,-0.008765485137701035,0.9438300132751465,0.0,-0.03141799196600914
303.0,346.0,-4.5685,0.204,8.7757,-0.0322,0.0289,-0.1197,-2.2113267383971156,0.0,4.37904167175293,-1.5498299598693848,-0.0,1.7683688402175903,5.690097141056814,-0.0,0.22229832410812378,-1.62500507036318,0.0,0.002760492730885744,0.7012789249420166,-0.0,0.0008323912625201046,0.9438701868057251,0.0,-0.027596749365329742
303.0,346.0,-4.5685,0.204,8.7757,-0.0322,0.0289,-0.1197,-2.211374898950094,0.0,4.3021979331970215,-1.549805998802185,-0.0,1.8243322372436523,5.69008486249999,-0.0,0.2076403796672821,-1.624993149434225,0.0,-0.0077681695111095905,0.7013276219367981,-0.0,-0.0015759440138936043,0.9438498020172119,0.0,0.008581820875406265
303.0,346.0,-4.5685,0.204,8.7757,-0.0322,0.0289,-0.1197,-2.211367269555563,0.0,4.31508731842041,-1.5498497486114502,-0.0,1.7523045539855957,5.690124976425924,-0.0,0.21816693246364594,-1.6249483267413538,0.0,0.00048662512563169,0.7012994289398193,-0.0,0.00232435530051589,0.9438300132751465,0.0,-0.029284382238984108
303.0,346.0,-4.5685,0.204,8.7757,-0.0322,0.0289,-0.1197,-2.2113996944823207,0.0,4.331371307373047,-1.5498658418655396,-0.0,1.7405143976211548,5.6901049492652795,-0.0,0.21872416138648987,-1.6249969641314905,0.0,0.0011810865253210068,0.7012748122215271,-0.0,0.0024676613975316286,0.9438579082489014,0.0,0.01061365194618702
303.0,346.0,-4.5685,0.204,8.7757,-0.0322,0.0289,-0.1197,-2.211362978021139,0.0,4.327918529510498,-1.5498303174972534,-0.0,1.7432234287261963,5.69008486249999,-0.0,0.22848615050315857,-1.6249688307391565,0.0,-0.012357614934444427,0.7012748718261719,-0.0,-0.003141854889690876,0.943825900554657,0.0,-0.009980592876672745
303.0,346.0,-4.5685,0.204,8.7757,-0.0322,0.0289,-0.1197,-2.211391588250631,0.0,4.34768009185791,-1.549842357635498,-0.0,1.774733543395996,5.690113115101614,-0.0,0.21158884465694427,-1.6249969641314905,0.0,0.0009093345142900944,0.7013275623321533,-0.0,0.008310854434967041,0.9438538551330566,0.0,0.01023863535374403
303.0,346.0,-4.5685,0.204,8.7757,-0.0322,0.0289,-0.1197,-2.211407323876852,0.0,4.389150619506836,-1.5498299598693848,-0.0,1.7760629653930664,5.690136956959524,-0.0,0.22217914462089539,-1.6249807516681116,0.0,-0.01372494176030159,0.70121830701828,-0.0,0.012440369464457035,0.943809986114502,0.0,0.048425883054733276
303.0,346.0,-4.5685,0.204,8.7757,-0.0322,0.0289,-0.1197,-2.211391588250631,0.0,4.337974548339844,-1.549853801727295,-0.0,1.7707552909851074,5.690129089146414,-0.0,0.2078472375869751,-1.624960724507467,0.0,-0.010844705626368523,0.7012506127357483,-0.0,0.009122162126004696,0.9438701868057251,0.0,0.028170088306069374
303.0,346.0,-4.5685,0.204,8.7757,-0.0322,0.0289,-0.1197,-2.211391588250631,0.0,4.33203125,-1.54982590675354,-0.0,1.778503656387329,5.690125036030569,-0.0,0.2162216305732727,-1.624976936970846,0.0,0.003970930352807045,0.7013034224510193,-0.0,0.0007756402483209968,0.9438177943229675,0.0,0.007746780291199684
294.0,354.0,-4.6164,0.201,8.811,-0.0331,0.0238,-0.117,-2.2113996944823207,0.0,4.3405351638793945,-1.5498383045196533,-0.0,1.7667908668518066,5.690141010075369,-0.0,0.22523102164268494,-1.624936882649557,0.0,-0.019002608954906464,0.7012994289398193,-0.0,0.015287594869732857,0.9438579678535461,0.0,0.009893251582980156
294.0,354.0,-4.6164,0.201,8.811,-0.0331,0.0238,-0.117,-2.211367269555563,0.0,4.317228317260742,-1.5498340129852295,-0.0,1.7425329685211182,5.6901087043579,-0.0,0.22351843118667603,-1.6249850432025355,0.0,-0.01056891493499279,0.7012953162193298,-0.0,0.009006628766655922,0.9438538551330566,0.0,0.008392924442887306
294.0,354.0,-4.6164,0.201,8.811,-0.0331,0.0238,-0.117,-2.2113548717894496,0.0,4.374205112457275,-1.5498504638671875,-0.0,1.8030608892440796,5.690125036030569,-0.0,0.20915064215660095,-1.62500507036318,0.0,-0.0016961030196398497,0.7013235092163086,-0.0,0.0036019040271639824,0.9438296556472778,0.0,-0.04548519104719162
294.0,354.0,-4.6164,0.201,8.811,-0.0331,0.0238,-0.117,-2.2113872967162074,0.0,4.371086597442627,-1.54982590675354,-0.0,1.7742499113082886,5.690105426102438,-0.0,0.21222800016403198,-1.624976936970846,0.0,0.0019117062911391258,0.7013034820556641,-0.0,-0.010768862441182137,0.943809986114502,0.0,-0.005060847382992506
294.0,354.0,-4.6164,0.201,8.811,-0.0331,0.0238,-0.117,-2.2113548717894496,0.0,4.33723783493042,-1.5498417615890503,-0.0,1.7752530574798584,5.690161096840658,-0.0,0.20782461762428284,-1.6249402205096644,0.0,-0.008463282138109207,0.7013235092163086,-0.0,0.0009770081378519535,0.9439021944999695,0.0,0.00984875950962305
294.0,354.0,-4.6164,0.201,8.811,-0.0331,0.0238,-0.117,-2.2113548717894496,0.0,4.306179523468018,-1.5498698949813843,-0.0,1.807016372680664,5.69010083654479,-0.0,0.222606360912323,-1.624932591115133,0.0,0.003701966255903244,0.7012835741043091,-0.0,-0.004919413011521101,0.9438498020172119,0.0,0.013979137875139713
294.0,354.0,-4.6164,0.201,8.811,-0.0331,0.0238,-0.117,-2.2113830051817835,0.0,4.363565921783447,-1.5498617887496948,-0.0,1.7742455005645752,5.690100896149435,-0.0,0.21004357933998108,-1.6249807516681116,0.0,-0.013763787224888802,0.7012389898300171,-0.0,0.007170087657868862,0.9438579082489014,0.0,0.010312647558748722
294.0,354.0,-4.6164,0.201,8.811,-0.0331,0.0238,-0.117,-2.2113548717894496,0.0,4.317105770111084,-1.5498383045196533,-0.0,1.7828353643417358,5.6900930283363245,-0.0,0.2115173637866974,-1.6250413099872034,0.0,0.006472005043178797,0.7013034820556641,-0.0,-0.001886641955934465,0.9438177943229675,0.0,-0.031458280980587006
294.0,354.0,-4.6164,0.201,8.811,-0.0331,0.0238,-0.117,-2.2113548717894496,0.0,4.363718032836914,-1.5498464107513428,-0.0,1.76029634475708,5.69008897522048,-0.0,0.21966789662837982,-1.6249731222735804,0.0,0.0004895532038062811,0.7013076543807983,-0.0,0.008747180923819542,0.9438338279724121,0.0,0.01083977147936821
294.0,354.0,-4.6164,0.201,8.811,-0.0331,0.0238,-0.117,-2.211395402947897,0.0,4.348294258117676,-1.54982590675354,-0.0,1.7791411876678467,5.690077054291525,-0.0,0.21594324707984924,-1.624960724507467,0.0,0.0015402351273223758,0.7013194561004639,-0.0,-0.003927215933799744,0.9438498020172119,0.0,-0.01985333487391472
294.0,354.0,-4.6164,0.201,8.811,-0.0331,0.0238,-0.117,-2.2113706074156703,0.0,4.3341193199157715,-1.5498220920562744,-0.0,1.755429983139038,5.6901049492652795,-0.0,0.21569335460662842,-1.6249645392047327,0.0,-0.0017303049098700285,0.7013359069824219,-0.0,0.009511949494481087,0.9438255429267883,0.0,0.06356729567050934
294.0,354.0,-4.6164,0.201,8.811,-0.0331,0.0238,-0.117,-2.211374898950094,0.0,4.360154628753662,-1.549805998802185,-0.0,1.730818748474121,5.6900930283363245,-0.0,0.21440832316875458,-1.6249731222735804,0.0,-0.0041252500377595425,0.7012667059898376,-0.0,-4.236353561282158e-07,0.9437976479530334,0.0,0.02909298986196518
294.0,354.0,-4.6164,0.201,8.811,-0.0331,0.0238,-0.117,-2.2113548717894496,0.0,4.344197750091553,-1.5498462915420532,-0.0,1.7494388818740845,5.690132844239034,-0.0,0.22877836227416992,-1.6249731222735804,0.0,-0.006546845659613609,0.7013323307037354,-0.0,-0.005179169587790966,0.9438661932945251,0.0,0.0353352352976799
294.0,354.0,-4.6164,0.201,8.811,-0.0331,0.0238,-0.117,-2.2113872967162074,0.0,4.357896327972412,-1.549766182899475,-0.0,1.7982265949249268,5.690100896149435,-0.0,0.21574774384498596,-1.6249807516681116,0.0,-0.007398603484034538,0.7012547254562378,-0.0,-0.0021623033098876476,0.9438539147377014,0.0,0.046389855444431305
294.0,354.0,-4.6164,0.201,8.811,-0.0331,0.0238,-0.117,-2.211362978021139,0.0,4.350109100341797,-1.549813985824585,-0.0,1.7730298042297363,5.690113055496969,-0.0,0.21921449899673462,-1.624988857899801,0.0,-0.009770265780389309,0.7013075351715088,-0.0,-0.0015010860515758395,0.9438259601593018,0.0,0.0187278650701046
294.0,354.0,-4.6164,0.201,8.811,-0.0331,0.0238,-0.117,-2.211367269555563,0.0,4.334571361541748,-1.5498783588409424,-0.0,1.804865837097168,5.690109002381124,-0.0,0.20461684465408325,-1.6249688307391565,0.0,-8.013332262635231e-05,0.7012552618980408,-0.0,-0.011846951209008694,0.9438460469245911,0.0,0.028651028871536255
296.0,362.0,-4.6379,0.1854,8.7607,-0.0356,0.0244,-0.1197,-2.211362978021139,0.0,4.381752014160156,-1.5498099327087402,-0.0,1.7560454607009888,5.69008897522048,-0.0,0.2239990085363388,-1.624976936970846,0.0,-0.005382956005632877,0.7013558149337769,-0.0,-0.0029962467961013317,0.9438378810882568,0.0,-0.03608362376689911
296.0,362.0,-4.6379,0.1854,8.7607,-0.0356,0.0244,-0.1197,-2.2113992176451625,0.0,4.353855609893799,-1.549842357635498,-0.0,1.7834084033966064,5.690096783428945,-0.0,0.22014783322811127,-1.6250007788287562,0.0,-0.010672287084162235,0.7012952566146851,-0.0,0.004061260260641575,0.9438456296920776,0.0,-0.008000747300684452
296.0,362.0,-4.6379,0.1854,8.7607,-0.0356,0.0244,-0.1197,-2.211351057092184,0.0,4.348147392272949,-1.549842357635498,-0.0,1.7755773067474365,5.690100896149435,-0.0,0.22466294467449188,-1.6249483267413538,0.0,0.0019542549271136522,0.7012748718261719,-0.0,-0.0025643992703408003,0.9438378810882568,0.0,-0.0008572842925786972
296.0,362.0,-4.6379,0.1854,8.7607,-0.0356,0.0244,-0.1197,-2.2114116154112757,0.0,4.321499824523926,-1.54982590675354,-0.0,1.8029981851577759,5.690116870194235,-0.0,0.21403665840625763,-1.624960724507467,0.0,0.006882509216666222,0.7013317346572876,-0.0,0.005419127643108368,0.9438218474388123,0.0,0.012219291180372238
296.0,362.0,-4.6379,0.1854,8.7607,-0.0356,0.0244,-0.1197,-2.211358686486715,0.0,4.369140148162842,-1.54982590675354,-0.0,1.7723851203918457,5.69008897522048,-0.0,0.20686139166355133,-1.624976936970846,0.0,0.003971151076257229,0.7013075947761536,-0.0,0.011646872386336327,0.9438018202781677,0.0,0.04903102666139603
296.0,362.0,-4.6379,0.1854,8.7607,-0.0356,0.0244,-0.1197,-2.211362978021139,0.0,4.378046989440918,-1.5498420000076294,-0.0,1.8146228790283203,5.690084922104635,-0.0,0.2063634693622589,-1.62494403520693,0.0,-0.006739801727235317,0.7013199329376221,-0.0,0.0011645765043795109,0.9438539147377014,0.0,0.015112473629415035
296.0,362.0,-4.6379,0.1854,8.7607,-0.0356,0.0244,-0.1197,-2.2113996944823207,0.0,4.3559160232543945,-1.5498420000076294,-0.0,1.7559082508087158,5.690116870194235,-0.0,0.2063722312450409,-1.6249764601336878,0.0,-0.0013693543151021004,0.7012872695922852,-0.0,-0.011817967519164085,0.9438620209693909,0.0,0.009568411856889725
296.0,362.0,-4.6379,0.1854,8.7607,-0.0356,0.0244,-0.1197,-2.2113667927184046,0.0,4.359223365783691,-1.5498504638671875,-0.0,1.7770205736160278,5.6900930283363245,-0.0,0.21530559659004211,-1.624932591115133,0.0,0.0002704083453863859,0.7013075351715088,-0.0,-0.000471230479888618,0.9438539147377014,0.0,0.0046288869343698025
296.0,362.0,-4.6379,0.1854,8.7607,-0.0356,0.0244,-0.1197,-2.211395402947897,0.0,4.366571426391602,-1.5498578548431396,-0.0,1.717404842376709,5.69007300117568,-0.0,0.21247875690460205,-1.6249483267413538,0.0,-0.017296690493822098,0.7012189030647278,-0.0,-0.001331541920080781,0.9438296556472778,0.0,-0.0340130440890789
296.0,362.0,-4.6379,0.1854,8.7607,-0.0356,0.0244,-0.1197,-2.211362978021139,0.0,4.374361991882324,-1.5498219728469849,-0.0,1.7822134494781494,5.6900930283363245,-0.0,0.2115480750799179,-1.625016991292135,0.0,-0.0017172533553093672,0.7013112902641296,-0.0,0.0023674885742366314,0.9438378810882568,0.0,0.02834591642022133
296.0,362.0,-4.6379,0.1854,8.7607,-0.0356,0.0244,-0.1197,-2.2114035091795863,0.0,4.348554611206055,-1.5498340129852295,-0.0,1.7820656299591064,5.690140950470724,-0.0,0.21994447708129883,-1.6249926725970667,0.0,-0.0011534665245562792,0.7013239860534668,-0.0,-0.004431223031133413,0.943882167339325,0.0,0.015304919332265854
296.0,362.0,-4.6379,0.1854,8.7607,-0.0356,0.0244,-0.1197,-2.2113548717894496,0.0,4.327469348907471,-1.5498782396316528,-0.0,1.7322914600372314,5.6901447651679895,-0.0,0.22034749388694763,-1.6249926725970667,0.0,-0.006102635525166988,0.7013275623321533,-0.0,-0.0029026814736425877,0.9438943266868591,0.0,-0.03102671541273594
296.0,362.0,-4.6379,0.1854,8.7607,-0.0356,0.0244,-0.1197,-2.21132292369985,0.0,4.3465423583984375,-1.5498099327087402,-0.0,1.795068383216858,5.690113115101614,-0.0,0.22310921549797058,-1.624960724507467,0.0,-0.011430383659899235,0.7012547850608826,-0.0,0.0038482975214719772,0.9438661336898804,0.0,-0.06456796079874039
296.0,362.0,-4.6379,0.1854,8.7607,-0.0356,0.0244,-0.1197,-2.211358686486715,0.0,4.336541175842285,-1.5498617887496948,-0.0,1.7560508251190186,5.690136956959524,-0.0,0.2190665304660797,-1.6249688307391565,0.0,0.010109967552125454,0.7013076543807983,-0.0,-0.0065453629940748215,0.9437854886054993,0.0,-0.005875797942280769
296.0,362.0,-4.6379,0.1854,8.7607,-0.0356,0.0244,-0.1197,-2.211374898950094,0.0,4.369378566741943,-1.54982590675354,-0.0,1.7730607986450195,5.690116870194235,-0.0,0.222683846950531,-1.6249564329730433,0.0,0.011242823675274849,0.7013116478919983,-0.0,0.0012647435069084167,0.9438177943229675,0.0,0.016209162771701813
296.0,362.0,-4.6379,0.1854,8.7607,-0.0356,0.0244,-0.1197,-2.211362501183981,0.0,4.344526767730713,-1.5497980117797852,-0.0,1.7824628353118896,5.690132844239034,-0.0,0.21140122413635254,-1.624960724507467,0.0,-0.007798836566507816,0.7012666463851929,-0.0,-0.016641739755868912,0.9438456296920776,0.0,-0.030179357156157494
294.0,352.0,-4.6187,0.1472,8.5675,-0.0435,0.0228,-0.1208,-2.2113386593260707,0.0,4.395519256591797,-1.5498020648956299,-0.0,1.7659034729003906,5.69006888845519,-0.0,0.2263622283935547,-1.6249521414386194,0.0,-0.001573372632265091,0.7013476490974426,-0.0,0.0035959058441221714,0.9438661336898804,0.0,0.004867526236921549
294.0,352.0,-4.6187,0.1472,8.5675,-0.0435,0.0228,-0.1208,-2.211367269555563,0.0,4.310744762420654,-1.5498299598693848,-0.0,1.7669579982757568,5.690129089146414,-0.0,0.22908881306648254,-1.6249645392047327,0.0,0.00828629732131958,0.7013194561004639,-0.0,0.007310200482606888,0.943882167339325,0.0,0.02012857235968113
294.0,352.0,-4.6187,0.1472,8.5675,-0.0435,0.0228,-0.1208,-2.211358686486715,1.7512643069039768e-07,4.341480255126953,-1.5498384237289429,-0.0,1.7906806468963623,5.690064775734701,-0.0,0.2073996663093567,-1.6249645392047327,0.0,-0.010990905575454235,0.7012830972671509,-0.0,0.0180245041847229,0.9438742399215698,0.0,0.012995824217796326
294.0,352.0,-4.6187,0.1472,8.5675,-0.0435,0.0228,-0.1208,-2.2113591633238734,3.152213906565393e-11,4.356573104858398,-1.549842119216919,-0.0,1.7666680812835693,5.690068948059835,-0.0,0.22131367027759552,-1.6249163786517542,0.0,0.0023580414708703756,0.7013682126998901,-0.0,0.009849335998296738,0.9439022541046143,0.0,-0.018603473901748657
294.0,352.0,-4.6187,0.1472,8.5675,-0.0435,0.0228,-0.1208,-2.2113429508604945,7.612225539970293e-17,4.370195388793945,-1.5497941970825195,-0.0,1.773240566253662,5.69006888845519,-0.0,0.22184792160987854,-1.6250088850604456,0.0,-0.009946610778570175,0.7012712359428406,-0.0,0.009093726985156536,0.9438579082489014,0.0,0.0058197868056595325
294.0,352.0,-4.6187,0.1472,8.5675,-0.0435,0.0228,-0.1208,-2.211334844628805,1.8382631299038192e-22,4.3362836837768555,-1.5498464107513428,-0.0,1.8315162658691406,5.690100896149435,-0.0,0.20966503024101257,-1.624993149434225,0.0,-0.014995074830949306,0.7013036012649536,-0.0,0.020257364958524704,0.9438337683677673,0.0,-0.01908833347260952
294.0,352.0,-4.6187,0.1472,8.5675,-0.0435,0.0228,-0.1208,-2.2113429508604945,4.439189558684859e-28,4.3481855392456055,-1.5498299598693848,-0.0,1.7398649454116821,5.69012879112319,-0.0,0.21406516432762146,-1.6249764601336878,0.0,-0.011076084338128567,0.7013117671012878,-0.0,-7.23587436368689e-05,0.9438456296920776,0.0,-0.008588004857301712
294.0,352.0,-4.6187,0.1472,8.5675,-0.0435,0.0228,-0.1208,-2.2113872967162074,1.0720120933705475e-33,4.382997512817383,-1.5498383045196533,-0.0,1.7609301805496216,5.690096783428945,-0.0,0.21473219990730286,-1.6249521414386194,0.0,0.0010616471990942955,0.7012712955474854,-0.0,-0.007721935398876667,0.9438018202781677,0.0,-0.020508436486124992
294.0,352.0,-4.6187,0.1472,8.5675,-0.0435,0.0228,-0.1208,-2.211391588250631,1.929583949635696e-37,4.371303558349609,-1.5498698949813843,-0.0,1.803739070892334,5.69010083654479,-0.0,0.21498659253120422,-1.6249969641314905,0.0,-0.002271266421303153,0.7012789845466614,-0.0,0.001485191285610199,0.9437853097915649,0.0,-0.0070243352092802525
294.0,352.0,-4.6187,0.1472,8.5675,-0.0435,0.0228,-0.1208,-2.2113267383971156,4.666323886201641e-43,4.380653381347656,-1.5497980117797852,-0.0,1.8061747550964355,5.690101194172659,-0.0,0.216351717710495,-1.6249688307391565,0.0,0.000813242164440453,0.7013198733329773,-0.0,0.0016832619439810514,0.9438456296920776,0.0,-0.024567607790231705
294.0,352.0,-4.6187,0.1472,8.5675,-0.0435,0.0228,-0.1208,-2.2113548717894496,0.0,4.35875129699707,-1.5498504638671875,-0.0,1.7534570693969727,5.690129029541769,-0.0,0.20769700407981873,-1.6249807516681116,0.0,0.0035470258444547653,0.7012954354286194,-0.0,-0.0015765572898089886,0.9438498020172119,0.0,0.018438953906297684
294.0,352.0,-4.6187,0.1472,8.5675,-0.0435,0.0228,-0.1208,-2.21134676555776,0.0,4.328482151031494,-1.5498464107513428,-0.0,1.7724418640136719,5.690177011280813,-0.0,0.21491041779518127,-1.6249731222735804,0.0,0.0033088629133999348,0.7013358473777771,-0.0,0.004205712117254734,0.9438378810882568,0.0,0.005015628412365913
294.0,352.0,-4.6187,0.1472,8.5675,-0.0435,0.0228,-0.1208,-2.211379190484518,0.0,4.32813835144043,-1.5498464107513428,-0.0,1.7772613763809204,5.690125036030569,-0.0,0.23590832948684692,-1.624936882649557,0.0,-0.006062758155167103,0.7012994885444641,-0.0,-0.003377143759280443,0.9438579082489014,0.0,0.0047271596267819405
294.0,352.0,-4.6187,0.1472,8.5675,-0.0435,0.0228,-0.1208,-2.211358686486715,0.0,4.333063125610352,-1.5498658418655396,-0.0,1.7200734615325928,5.690136956959524,-0.0,0.2035996913909912,-1.6249688307391565,0.0,-0.0024833991192281246,0.7013239860534668,-0.0,0.01985272765159607,0.9438337683677673,0.0,-0.013194587081670761
294.0,352.0,-4.6187,0.1472,8.5675,-0.0435,0.0228,-0.1208,-2.211379190484518,0.0,4.369180679321289,-1.5498464107513428,-0.0,1.7840642929077148,5.6900808093841455,-0.0,0.2120644450187683,-1.624936882649557,0.0,-0.012319210916757584,0.7013115882873535,-0.0,0.008981604129076004,0.9438861608505249,0.0,0.019755933433771133
294.0,352.0,-4.6187,0.1472,8.5675,-0.0435,0.0228,-0.1208,-2.211367269555563,0.0,4.321623802185059,-1.5498099327087402,-0.0,1.820143222808838,5.690125036030569,-0.0,0.23133623600006104,-1.6249850432025355,0.0,0.007258969359099865,0.7012872695922852,-0.0,0.0017524037975817919,0.943781316280365,0.0,-0.026006046682596207
294.0,352.0,-4.6187,0.1472,8.5675,-0.0435,0.0228,-0.1208,-2.2113872967162074,0.0,4.361606121063232,-1.5497980117797852,-0.0,1.7987881898880005,5.69008486249999,-0.0,0.22528289258480072,-1.62494403520693,0.0,-0.0016657605301588774,0.7012671232223511,-0.0,0.002063772641122341,0.9438456296920776,0.0,-0.010125267319381237
299.0,346.0,-4.5529,0.1651,8.7619,-0.0386,0.0275,-0.1184,-2.211362978021139,0.0,4.3326263427734375,-1.5498340129852295,-0.0,1.7909152507781982,5.69008486249999,-0.0,0.20720793306827545,-1.6249521414386194,0.0,-0.008160868659615517,0.7012712955474854,-0.0,0.017970699816942215,0.943821907043457,0.0,0.0041645597666502
299.0,346.0,-4.5529,0.1651,8.7619,-0.0386,0.0275,-0.1184,-2.211367269555563,0.0,4.367012977600098,-1.5498180389404297,-0.0,1.7875070571899414,5.6900930283363245,-0.0,0.20861223340034485,-1.6249764601336878,0.0,-0.02059844881296158,0.7013198733329773,-0.0,-0.001784169697202742,0.9438661336898804,0.0,-0.02104213833808899
299.0,346.0,-4.5529,0.1651,8.7619,-0.0386,0.0275,-0.1184,-2.211367269555563,0.0,4.362196445465088,-1.549805998802185,-0.0,1.791313648223877,5.6901049492652795,-0.0,0.21401923894882202,-1.624960724507467,0.0,-0.0024403869174420834,0.7012547254562378,-0.0,0.008152623660862446,0.9438419342041016,0.0,-0.029224630445241928
299.0,346.0,-4.5529,0.1651,8.7619,-0.0386,0.0275,-0.1184,-2.211395402947897,0.0,4.367044448852539,-1.5498299598693848,-0.0,1.8152198791503906,5.690056788712301,-0.0,0.2057318091392517,-1.6249564329730433,0.0,-0.002414426766335964,0.7013519406318665,-0.0,0.006941001396626234,0.9438140392303467,0.0,-0.004048395901918411
299.0,346.0,-4.5529,0.1651,8.7619,-0.0386,0.0275,-0.1184,-2.211358686486715,0.0,4.334257125854492,-1.5498178005218506,-0.0,1.761601448059082,5.6900930283363245,-0.0,0.22671763598918915,-1.6249731222735804,0.0,0.0085610281676054,0.7012789845466614,-0.0,0.010013673454523087,0.9438620209693909,0.0,-0.019028272479772568
299.0,346.0,-4.5529,0.1651,8.7619,-0.0386,0.0275,-0.1184,-2.211374898950094,0.0,4.355348110198975,-1.5498219728469849,-0.0,1.7720329761505127,5.69008486249999,-0.0,0.2278333604335785,-1.6249688307391565,0.0,0.002268392825499177,0.7012996077537537,-0.0,0.010382565669715405,0.9438338279724121,0.0,0.03624429181218147
299.0,346.0,-4.5529,0.1651,8.7619,-0.0386,0.0275,-0.1184,-2.211395402947897,0.0,4.37779426574707,-1.549853801727295,-0.0,1.7795790433883667,5.690125036030569,-0.0,0.21605253219604492,-1.6249731222735804,0.0,-0.003702246118336916,0.7013317346572876,-0.0,0.008476288057863712,0.9438742995262146,0.0,0.04103659838438034
299.0,346.0,-4.5529,0.1651,8.7619,-0.0386,0.0275,-0.1184,-2.211379190484518,0.0,4.391758441925049,-1.5498497486114502,-0.0,1.759307861328125,5.690141010075369,-0.0,0.22271087765693665,-1.6249969641314905,0.0,-0.014595411717891693,0.7013077139854431,-0.0,0.00540691614151001,0.9438783526420593,0.0,0.0023479918017983437
299.0,346.0,-4.5529,0.1651,8.7619,-0.0386,0.0275,-0.1184,-2.211351057092184,0.0,4.354239463806152,-1.54982590675354,-0.0,1.7780773639678955,5.690173017769613,-0.0,0.2163975089788437,-1.625016991292135,0.0,-0.013162062503397465,0.7013115882873535,-0.0,0.009216975420713425,0.9438456296920776,0.0,0.0353688970208168
299.0,346.0,-4.5529,0.1651,8.7619,-0.0386,0.0275,-0.1184,-2.211362978021139,0.0,4.346634864807129,-1.5498504638671875,-0.0,1.8123865127563477,5.690100896149435,-0.0,0.2109641283750534,-1.6249850432025355,0.0,-0.0033512976951897144,0.7013157606124878,-0.0,0.0018976840656250715,0.9438378810882568,0.0,0.02182241901755333
299.0,346.0,-4.5529,0.1651,8.7619,-0.0386,0.0275,-0.1184,-2.2113753757872523,0.0,4.313838958740234,-1.5498299598693848,-0.0,1.7455856800079346,5.690073418408193,-0.0,0.20728015899658203,-1.6249807516681116,0.0,-0.014034571126103401,0.7012830972671509,-0.0,0.0068149687722325325,0.9438338279724121,0.0,0.010240769013762474
299.0,346.0,-4.5529,0.1651,8.7619,-0.0386,0.0275,-0.1184,-2.2113753757872523,0.0,4.329875469207764,-1.5497899055480957,-0.0,1.7586418390274048,5.69008897522048,-0.0,0.20966415107250214,-1.6249764601336878,0.0,-0.006652530282735825,0.7013317346572876,-0.0,0.0002350026770727709,0.9438338279724121,0.0,0.01461756881326437
299.0,346.0,-4.5529,0.1651,8.7619,-0.0386,0.0275,-0.1184,-2.2113706074156703,0.0,4.292361259460449,-1.5498340129852295,-0.0,1.7546998262405396,5.690104651242056,-0.0,0.22581976652145386,-1.6249926725970667,0.0,0.00274465698748827,0.7013395428657532,-0.0,0.0031776288524270058,0.9438742995262146,0.0,-0.03900779038667679
299.0,346.0,-4.5529,0.1651,8.7619,-0.0386,0.0275,-0.1184,-2.2113996944823207,0.0,4.312318801879883,-1.549858570098877,-0.0,1.7838958501815796,5.690100896149435,-0.0,0.217856764793396,-1.6249688307391565,0.0,-0.000982825644314289,0.7012671232223511,-0.0,0.006104113534092903,0.9438862204551697,0.0,0.03537703678011894
299.0,346.0,-4.5529,0.1651,8.7619,-0.0386,0.0275,-0.1184,-2.2113706074156703,0.0,4.309658527374268,-1.5498058795928955,-0.0,1.7760446071624756,5.690089452057638,-0.0,0.2227335274219513,-1.6249812285052698,0.0,-0.004515938460826874,0.7013034820556641,-0.0,-0.008283069357275963,0.9438018202781677,0.0,0.00540932035073638
299.0,346.0,-4.5529,0.1651,8.7619,-0.0386,0.0275,-0.1184,-2.2113706074156703,0.0,4.364747047424316,-1.549813985824585,-0.0,1.7589914798736572,5.690109002381124,-0.0,0.2040388137102127,-1.624976936970846,0.0,-0.011546150781214237,0.7013354897499084,-0.0,-0.0006961356848478317,0.9438498020172119,0.0,-0.04989233985543251
293.0,348.0,-4.6379,0.1651,8.7123,-0.0388,0.027,-0.1193,-2.211379190484518,0.0,4.385092735290527,-1.5498219728469849,-0.0,1.768448829650879,5.690132844239034,-0.0,0.21754008531570435,-1.624965016041891,0.0,-0.0020174761302769184,0.7012629508972168,-0.0,0.009351581335067749,0.9438378810882568,0.0,0.01319038588553667
293.0,348.0,-4.6379,0.1651,8.7123,-0.0388,0.027,-0.1193,-2.2113706074156703,0.0,4.317440986633301,-1.5497900247573853,-0.0,1.7811496257781982,5.690060722618856,-0.0,0.21433459222316742,-1.62494403520693,0.0,0.0048501091077923775,0.7013477087020874,-0.0,0.008112972602248192,0.9438058733940125,0.0,0.006350846961140633
293.0,348.0,-4.6379,0.1651,8.7123,-0.0388,0.027,-0.1193,-2.2114035091795863,0.0,4.339921951293945,-1.5498299598693848,-0.0,1.8038733005523682,5.690141010075369,-0.0,0.2126062512397766,-1.6250007788287562,0.0,-0.0035559930838644505,0.7012588977813721,-0.0,0.004786237142980099,0.9438661336898804,0.0,-0.01327008567750454
293.0,348.0,-4.6379,0.1651,8.7123,-0.0388,0.027,-0.1193,-2.2113548717894496,0.0,4.346704483032227,-1.5498942136764526,-0.0,1.7371487617492676,5.690100896149435,-0.0,0.21414610743522644,-1.6249764601336878,0.0,-0.0020407582633197308,0.7012789845466614,-0.0,0.0009970469400286674,0.9438338279724121,0.0,0.010170234367251396
293.0,348.0,-4.6379,0.1651,8.7123,-0.0388,0.027,-0.1193,-2.211379190484518,0.0,4.3922529220581055,-1.5498299598693848,-0.0,1.7446041107177734,5.690100896149435,-0.0,0.22307303547859192,-1.6249926725970667,0.0,-0.002744792029261589,0.7013598680496216,-0.0,0.0037519284524023533,0.9437896013259888,0.0,-0.00660798279568553
293.0,348.0,-4.6379,0.1651,8.7123,-0.0388,0.027,-0.1193,-2.211358686486715,0.0,4.3062944412231445,-1.5498380661010742,-0.0,1.7789276838302612,5.69011281707839,-0.0,0.2091025412082672,-1.6249688307391565,0.0,-0.01152251847088337,0.7012748718261719,-0.0,-0.003985056187957525,0.9438538551330566,0.0,0.030391737818717957
293.0,348.0,-4.6379,0.1651,8.7123,-0.0388,0.027,-0.1193,-2.211362978021139,0.0,4.373509407043457,-1.5498303174972534,1.2725276388181328e-09,1.7744994163513184,5.69008486249999,-0.0,0.2135339081287384,-1.624932591115133,0.0,-0.006195671856403351,0.7012789845466614,-0.0,0.0011284505017101765,0.9438456296920776,0.0,0.0022245626896619797
293.0,348.0,-4.6379,0.1651,8.7123,-0.0388,0.027,-0.1193,-2.211334844628805,0.0,4.349967956542969,-1.5498424768447876,0.0012590524274855852,1.777420997619629,5.690109002381124,-0.0,0.2138347327709198,-1.6249564329730433,0.0,-0.010928506962954998,0.7012912034988403,-0.0,0.005786211229860783,0.9438820481300354,0.0,0.012541636824607849
293.0,348.0,-4.6379,0.1651,8.7123,-0.0388,0.027,-0.1193,-2.211367269555563,0.0,4.384794235229492,-1.5498542785644531,0.00123754539526999,1.8124816417694092,5.69011281707839,-0.0,0.21740220487117767,-1.62500507036318,0.0,-0.0034358676057308912,0.7012912034988403,-0.0,-0.0004901917418465018,0.9438661336898804,0.0,-0.044412050396203995
293.0,348.0,-4.6379,0.1651,8.7123,-0.0388,0.027,-0.1193,-2.2114035091795863,0.0,4.3367156982421875,-1.5497543811798096,0.001131032477132976,1.788474202156067,5.690060722618856,-0.0,0.21906954050064087,-1.6249521414386194,0.0,0.0018211244605481625,0.7013317346572876,-0.0,0.020496120676398277,0.9438295960426331,0.0,-0.008584166876971722
293.0,348.0,-4.6379,0.1651,8.7123,-0.0388,0.027,-0.1193,-2.2113830051817835,0.0,4.353750705718994,-1.5497698783874512,0.0014464795822277665,1.79509699344635,5.690085160523214,-0.0,0.21988819539546967,-1.6249483267413538,0.0,-0.004512747749686241,0.7013194561004639,-0.0,0.01678888313472271,0.9438661336898804,0.0,-0.024677256122231483
293.0,348.0,-4.6379,0.1651,8.7123,-0.0388,0.027,-0.1193,-2.211374898950094,0.0,4.317980766296387,-1.5497418642044067,0.0030209142714738846,1.8227901458740234,5.690077054291525,-2.259199494147879e-09,0.20283696055412292,-1.6250246206866663,0.0,-0.004644967149943113,0.7013518810272217,-0.0,1.2322328984737396e-05,0.943881630897522,0.0,-0.07207835465669632
293.0,348.0,-4.6379,0.1651,8.7123,-0.0388,0.027,-0.1193,-2.2114111385741175,3.293890993294468e-10,4.385166168212891,-1.5497426986694336,0.0034702119883149862,1.7933809757232666,5.6900489805038355,-0.0012942799367010593,0.20975524187088013,-1.6250045935260218,0.0,0.004457874223589897,0.7012671828269958,-0.0,0.005331209860742092,0.9439181685447693,0.0020201459992676973,-0.008772971108555794
293.0,348.0,-4.6379,0.1651,8.7123,-0.0388,0.027,-0.1193,-2.2114230595030726,7.954359352723046e-16,4.36404275894165,-1.5496858358383179,0.003945726901292801,1.805652141571045,5.690041112690725,-0.0025741124991327524,0.22799772024154663,-1.6249807516681116,0.0,-0.004345094785094261,0.701299250125885,-0.0,0.011201848275959492,0.9439094662666321,0.004346803762018681,-0.07212653756141663
293.0,348.0,-4.6379,0.1651,8.7123,-0.0388,0.027,-0.1193,-2.2114349804320277,1.431756453263408e-19,4.340614318847656,-1.5496869087219238,0.004006114322692156,1.7973066568374634,5.690048920899191,-0.0020847460255026817,0.23134413361549377,-1.625016991292135,0.0,-0.002967468462884426,0.7013681530952454,-0.0,0.00386669859290123,0.9439536929130554,0.00513150729238987,-0.009142640978097916
293.0,348.0,-4.6379,0.1651,8.7123,-0.0388,0.027,-0.1193,-2.2114154301085414,-0.00017947910237126052,4.371224403381348,-1.5496869087219238,0.0035521253012120724,1.8293282985687256,5.690016972809591,-0.0015157486777752638,0.2188209891319275,-1.6250208059894007,0.0,-0.0019467861857265234,0.7012748718261719,-0.0,0.014107721857726574,0.9440217614173889,0.008554843254387379,-0.006010262295603752
293.0,348.0,-4.6379,0.1651,8.7123,-0.0388,0.027,-0.1193,-2.2114111385741175,-6.914408731972799e-05,4.352016925811768,-1.5495612621307373,0.0034139270428568125,1.754108190536499,5.6900009391601465,-0.0010117710335180163,0.21774742007255554,-1.6249926725970667,0.0,-0.0026886197738349438,0.7012712359428406,-0.0,0.012286171317100525,0.9440417289733887,0.00796152651309967,0.01938309520483017
298.0,338.0,-4.2808,0.341,8.674,-0.0295,0.024,-0.109,-2.2113706074156703,-4.001723397095702e-09,4.370460510253906,-1.5495948791503906,0.003301378572359681,1.7435050010681152,5.690040814667501,-0.0006829585763625801,0.21761462092399597,-1.625000301991598,0.0,0.004420120734721422,0.7013034820556641,-0.0,0.005941764451563358,0.9440779685974121,0.004249726887792349,0.023425748571753502
298.0,338.0,-4.2808,0.341,8.674,-0.0295,0.024,-0.109,-2.211362978021139,-9.663691322040011e-15,4.37702751159668,-1.5495949983596802,0.0020887909922748804,1.7915728092193604,5.6899767992790125,-0.0005151878576725721,0.22276343405246735,-1.6250651518451136,0.0,-0.02048303373157978,0.7013354301452637,-0.0,-0.0011010831221938133,0.9441099762916565,0.0021641526836901903,-0.012296441942453384
298.0,338.0,-4.2808,0.341,8.674,-0.0295,0.024,-0.109,-2.211358686486715,-1.739430340457387e-18,4.357284069061279,-1.5495587587356567,0.0016630279133096337,1.7720954418182373,5.69004516580657,-0.00044272057130001485,0.20888420939445496,-1.625012222920553,-3.040828389089256e-08,0.006796949077397585,0.7013481259346008,-0.0,0.005840471014380455,0.9440490007400513,0.0014243068872019649,0.0012677982449531555
298.0,338.0,-4.2808,0.341,8.674,-0.0295,0.024,-0.109,-2.211419244805807,-4.200519448372697e-24,4.3304853439331055,-1.549498200416565,0.0011129380436614156,1.772200345993042,5.69003705957488,-0.00036560234730131924,0.21168459951877594,-1.625000301991598,-8.464257940377085e-12,0.005585526116192341,0.7013435363769531,-0.0,0.007383739575743675,0.9440977573394775,0.000804223062004894,0.006293401122093201
298.0,338.0,-4.2808,0.341,8.674,-0.0295,0.024,-0.109,-2.2113872967162074,-1.0143760169629892e-29,4.309027194976807,-1.549574613571167,0.0007271603099070489,1.7649073600769043,5.690009104996481,-0.00028239472885616124,0.20856019854545593,-1.6250327269183558,-2.3560575064133843e-15,-0.009156988002359867,0.7013075351715088,-0.0,0.004910374525934458,0.9440411925315857,0.0005557274562306702,-0.000513826496899128
298.0,338.0,-4.2808,0.341,8.674,-0.0295,0.024,-0.109,-2.2114111385741175,-2.449598787559771e-35,4.37968635559082,-1.5496184825897217,0.00019212561892345548,1.787980079650879,5.689981210022726,-0.000796689186245203,0.21319934725761414,-1.6250084082232874,-6.558172756643851e-19,-0.014088191092014313,0.7013394832611084,-0.0,-0.0016144628170877695,0.9440572261810303,0.00028602307429537177,0.020101793110370636
298.0,338.0,-4.2808,0.341,8.674,-0.0295,0.024,-0.109,-2.2113996944823207,-4.409191223191894e-39,4.372519493103027,-1.5495784282684326,0.0001582629483891651,1.7927358150482178,5.69000123718337,-0.002422401448711753,0.22029466927051544,-1.625028435383932,-2.7958514872804103e-21,-0.01270880177617073,0.7013115882873535,-0.0,0.005722204223275185,0.9440376162528992,-0.00019742465519811958,0.0171368345618248
298.0,338.0,-4.2808,0.341,8.674,-0.0295,0.024,-0.109,-2.211391588250631,-1.1210387714598537e-44,4.292613983154297,-1.5496184825897217,0.0001252229994861409,1.78895902633667,5.689993548184194,-0.004551075864583254,0.22385498881340027,-1.6250165144549769,-7.782354418657505e-25,-0.012491706758737564,0.7012952566146851,-0.0,0.009020543657243252,0.943977415561676,-0.002704216167330742,-0.05668795108795166
298.0,338.0,-4.2808,0.341,8.674,-0.0295,0.024,-0.109,-2.211447378198141,0.0,4.344101428985596,-1.5496429204940796,0.00010359777661506087,1.7525625228881836,5.6899210689361475,-0.008223921991884708,0.20428568124771118,-1.6249964872943323,-2.166247001365389e-28,0.004346984438598156,0.7012507319450378,-0.0,-0.006469774525612593,0.9439294338226318,-0.0024791660252958536,-0.009508157148957253
298.0,338.0,-4.2808,0.341,8.674,-0.0295,0.024,-0.109,-2.2113949261107386,0.0,4.371867656707764,-1.54960298538208,8.834266191115603e-05,1.8106051683425903,5.689865636616506,-0.011307324282824993,0.20838192105293274,-1.6250208059894007,-6.02982816466869e-32,-0.00413940055295825,0.7012789845466614,-0.0,-0.006049351301044226,0.9440057277679443,-0.001689618220552802,0.011219853535294533
298.0,338.0,-4.2808,0.341,8.674,-0.0295,0.024,-0.109,-2.2113667927184046,0.0,4.370221138000488,-1.5496103763580322,7.700388960074633e-05,1.7742421627044678,5.689793753414907,-0.010750928893685341,0.20913946628570557,-1.6250084082232874,-1.67842484485524e-35,-0.007646756712347269,0.7012994289398193,-0.0,-0.0027955975383520126,0.9439734220504761,-0.0010798046132549644,-0.026365701109170914
298.0,338.0,-4.2808,0.341,8.674,-0.0295,0.024,-0.109,-2.2113830051817835,0.0,4.317734718322754,-1.5495905876159668,7.093423482729122e-05,1.726827621459961,5.689785885601797,-0.009928544983267784,0.21059057116508484,-1.6250126997577112,-7.155388130729997e-38,-0.007580988574773073,0.7012789845466614,-0.0,0.009968135505914688,0.9440061450004578,-0.0008309213444590569,0.014069446362555027
298.0,338.0,-4.2808,0.341,8.674,-0.0295,0.024,-0.109,-2.211379190484518,0.0,4.363195419311523,-1.5496225357055664,9.515149577055126e-05,1.7654695510864258,5.689741778164663,-0.007449003867805004,0.21244780719280243,-1.6249969641314905,-1.9916655073448625e-41,0.005100608803331852,0.7013036012649536,-0.0,0.002679108176380396,0.9440221190452576,-0.0006171473069116473,-0.02066062204539776
298.0,338.0,-4.2808,0.341,8.674,-0.0295,0.024,-0.109,-2.2113667927184046,0.0,4.332091331481934,-1.5495667457580566,8.605361654190347e-05,1.7632784843444824,5.689681756287374,-0.006196713075041771,0.20938697457313538,-1.6249969641314905,-5.605193857299268e-45,0.0011762604117393494,0.7013115882873535,-0.0,0.008617568761110306,0.9439979791641235,-0.0004199487157166004,0.05273592472076416
298.0,338.0,-4.2808,0.341,8.674,-0.0295,0.024,-0.109,-2.211395402947897,0.0,4.315165042877197,-1.5495946407318115,7.854349678382277e-05,1.7553396224975586,5.689625847130575,-0.005536231677979231,0.20675888657569885,-1.6249850432025355,-0.0,-0.0021917123813182116,0.7012830972671509,-0.0,0.0006979387253522873,0.9439458847045898,-0.00039801650564186275,-0.004388917703181505
298.0,338.0,-4.2808,0.341,8.674,-0.0295,0.024,-0.109,-2.21134676555776,0.0,4.4187140464782715,-1.5495985746383667,7.223916327347979e-05,1.7599564790725708,5.689674663334646,-0.005756261292845011,0.20765334367752075,-1.6249807516681116,-0.0,-0.0030271224677562714,0.7013235092163086,-0.0,0.004639522172510624,0.9440020322799683,-0.000382393627660349,0.012532463297247887
294.0,349.0,-4.7222,0.0179,8.7918,-0.0472,0.0324,-0.1151,-2.211423536340231,0.0,4.341357231140137,-1.5495507717132568,8.874487684806809e-05,1.7661993503570557,5.689562070160665,-0.006678523495793343,0.21554869413375854,-1.6249731222735804,-0.0,-0.003266042098402977,0.7013518214225769,-0.0,-0.009759102016687393,0.944002091884613,-0.00040022534085437655,0.009614091366529465
294.0,349.0,-4.7222,0.0179,8.7918,-0.0472,0.0324,-0.1151,-2.211419244805807,-2.6528554371907376e-05,4.362058639526367,-1.5495985746383667,8.495389920426533e-05,1.7624263763427734,5.689526247769155,-0.008597176522016525,0.20899425446987152,-1.6249688307391565,4.129300941713154e-05,-0.0060735465958714485,0.7012872099876404,-0.0,0.0032574753277003765,0.9439857006072998,-0.0003347046731505543,0.0033908169716596603
294.0,349.0,-4.7222,0.0179,8.7918,-0.0472,0.0324,-0.1151,-2.211431165734762,-2.4400669644819573e-05,4.31866455078125,-1.549562931060791,4.7419343900401145e-05,1.7547732591629028,5.6894545433814905,-0.010354440659284592,0.21853753924369812,-1.624960724507467,3.895833287970163e-05,-0.003914051689207554,0.7013517022132874,-0.0,0.006209412589669228,0.9440061450004578,-0.0003282675170339644,-0.012368458323180676
294.0,349.0,-4.7222,0.0179,8.7918,-0.0472,0.0324,-0.1151,-2.2113834820189417,-2.2565311155631207e-05,4.328728675842285,-1.549574613571167,0.0006574758444912732,1.744694471359253,5.689422595291891,-0.010601569898426533,0.2131233811378479,-1.6249807516681116,3.6582976463250816e-05,0.0018073802348226309,0.7012589573860168,-0.0,0.0008142341393977404,0.9439418315887451,-0.0003237524360883981,-0.011671527288854122
294.0,349.0,-4.7222,0.0179,8.7918,-0.0472,0.0324,-0.1151,-2.211423536340231,-2.098672484862618e-05,4.361359119415283,-1.5495423078536987,0.002256095642223954,1.734683871269226,5.689338671952047,-0.011221005581319332,0.21688663959503174,-1.624976936970846,3.448060306254774e-05,-0.020442215725779533,0.7012712955474854,-0.0,0.019496072083711624,0.9439254999160767,-0.0003191347641404718,-0.042657770216464996
294.0,349.0,-4.7222,0.0179,8.7918,-0.0472,0.0324,-0.1151,-2.2114035091795863,-2.0051606043125503e-05,4.383028984069824,-1.549559235572815,0.003461522050201893,1.8114609718322754,5.689282822399893,-0.011718282476067543,0.2143641859292984,-1.6249406973468226,3.320830364827998e-05,0.011452453210949898,0.7012831568717957,-0.0,0.0070649078115820885,0.943993866443634,-0.00029452532180584967,-0.006419106386601925
294.0,349.0,-4.7222,0.0179,8.7918,-0.0472,0.0324,-0.1151,-2.211407323876852,-3.683802060550079e-05,4.32448148727417,-1.5494983196258545,0.004202760756015778,1.7285518646240234,5.689191090851583,-0.012379718013107777,0.2102031409740448,-1.6249731222735804,3.146669769193977e-05,-0.014472924172878265,0.7013639807701111,-0.0,0.011478960514068604,0.9440061450004578,-0.0002623309555929154,0.009129940532147884
294.0,349.0,-4.7222,0.0179,8.7918,-0.0472,0.0324,-0.1151,-2.211386819879049,-3.537442898959853e-05,4.336270332336426,-1.5494709014892578,0.006398222409188747,1.7894357442855835,5.689107107907095,-0.012534763664007187,0.21108482778072357,-1.624936882649557,2.989866516145412e-05,0.0011127711040899158,0.7013275623321533,-0.0,-0.0018473934615030885,0.9440143704414368,-0.00023648161732126027,-0.03784229978919029
294.0,349.0,-4.7222,0.0179,8.7918,-0.0472,0.0324,-0.1151,-2.211419244805807,-3.3404976420570165e-05,4.369037628173828,-1.5493576526641846,0.00851136539131403,1.7662595510482788,5.6890437481696985,-0.013272696174681187,0.20781520009040833,-1.6249406973468226,2.847947325790301e-05,0.004133310168981552,0.7012912631034851,-0.0,0.004148039501160383,0.943961501121521,-0.0001884887315100059,0.006476386450231075
294.0,349.0,-4.7222,0.0179,8.7918,-0.0472,0.0324,-0.1151,-2.2114631138243617,-3.1643256079405546e-05,4.364086151123047,-1.5493431091308594,0.009574847295880318,1.8098788261413574,5.688979911595144,-0.013570405542850494,0.20371563732624054,-1.6249645392047327,2.7188927560928278e-05,-0.013951008208096027,0.7012789845466614,-0.0,0.015251866541802883,0.9439578056335449,-0.00017285611829720438,0.007951370440423489
294.0,349.0,-4.7222,0.0179,8.7918,-0.0472,0.0324,-0.1151,-2.2114111385741175,-3.056852438021451e-05,4.34723424911499,-1.5492576360702515,0.010257949121296406,1.7828888893127441,5.688847589283743,-0.012793116271495819,0.21043848991394043,-1.6249564329730433,2.6391626306576654e-05,-0.003746483474969864,0.7012872695922852,-0.0,0.016849027946591377,0.9439778923988342,-0.00016386406787205487,-0.022919489070773125
294.0,349.0,-4.7222,0.0179,8.7918,-0.0472,0.0324,-0.1151,-2.211447378198141,-4.362985782790929e-05,4.357726097106934,-1.5491633415222168,0.011823269538581371,1.8159654140472412,5.688836085587301,-0.010580561123788357,0.20137916505336761,-1.6249731222735804,2.527966717025265e-05,-0.00038675637915730476,0.7013354301452637,-0.0,0.0020363572984933853,0.9439857006072998,-5.766894537373446e-05,0.03607618808746338
294.0,349.0,-4.7222,0.0179,8.7918,-0.0472,0.0324,-0.1151,-2.2113830051817835,-4.1612711356719956e-05,4.360223293304443,-1.549187421798706,0.013944565318524837,1.8067350387573242,5.688755917340078,-0.007815754972398281,0.2128746211528778,-1.624936882649557,2.4257624318124726e-05,-0.014192297123372555,0.7012953162193298,-0.0,0.00047304766485467553,0.9440180659294128,-5.2568851970136166e-05,-0.04527755454182625
294.0,349.0,-4.7222,0.0179,8.7918,-0.0472,0.0324,-0.1151,-2.2113987408080042,-3.977375308750197e-05,4.335872650146484,-1.5490875244140625,0.014897440560162067,1.7952723503112793,5.688695716648855,-0.005189481191337109,0.23036709427833557,-1.6249406973468226,2.331503310415428e-05,0.000581902451813221,0.7012789845466614,-0.0,-0.0009276144555769861,0.9440180659294128,-2.4167076844605617e-05,-0.052295420318841934
294.0,349.0,-4.7222,0.0179,8.7918,-0.0472,0.0324,-0.1151,-2.2114273510374964,-5.078700996818952e-05,4.332076072692871,-1.5490031242370605,0.016964327543973923,1.7695214748382568,5.688692080765524,-0.002747063059359789,0.2197510004043579,-1.6249521414386194,2.2442927729571238e-05,-0.011940972879529,0.7012872695922852,-0.0,0.005589642096310854,0.9440057277679443,-1.4510983525894972e-09,-0.050584033131599426
294.0,349.0,-4.7222,0.0179,8.7918,-0.0472,0.0324,-0.1151,-2.211443086663717,-4.9393602239433676e-05,4.3453145027160645,-1.5489120483398438,0.01770617440342903,1.7850449085235596,5.688708114414968,-0.0018514934927225113,0.2129947543144226,-1.6249812285052698,2.1896899852436036e-05,-0.010414546355605125,0.7013557553291321,-0.0,0.007371076382696629,0.9440417885780334,-2.611925703933232e-13,-0.01916729472577572
314.0,343.0,-4.5846,0.39,8.857,-0.0363,0.0379,-0.1197,-2.211403032342428,-4.7440884372917935e-05,4.345675468444824,-1.548844337463379,0.019496578723192215,1.8088914155960083,5.688711988716879,-0.0008089308394119143,0.21394193172454834,-1.6249521414386194,2.1125917555764318e-05,-0.006277282722294331,0.7012593746185303,-0.0,0.0049383919686079025,0.9440180659294128,-6.307494121046008e-19,-0.00720266904681921
314.0,343.0,-4.5846,0.39,8.857,-0.0363,0.0379,-0.1197,-2.2114230595030726,-9.650084393797442e-05,4.3114519119262695,-1.5487077236175537,0.021040942519903183,1.8077815771102905,5.688640701561727,-0.0006295699276961386,0.20461073517799377,-1.6249406973468226,2.0407387637533247e-05,-0.009147528558969498,0.7013034820556641,-0.0,-0.0017736118752509356,0.9439533352851868,-1.5231855880889926e-24,0.006068255286663771
314.0,343.0,-4.5846,0.39,8.857,-0.0363,0.0379,-0.1197,-2.2114035091795863,-9.066901111509651e-05,4.370162487030029,-1.5485484600067139,0.02329874038696289,1.7995116710662842,5.688716041832723,-0.0005440048989839852,0.21115094423294067,-1.6249483267413538,3.688082642838708e-06,-0.0034265180584043264,0.7013115882873535,-0.0,0.00519172428175807,0.9440020322799683,-3.678314416717376e-30,-0.006535268388688564
314.0,343.0,-4.5846,0.39,8.857,-0.0363,0.0379,-0.1197,-2.2114349804320277,-8.715670992387459e-05,4.308123588562012,-1.5484517812728882,0.02332342229783535,1.7482640743255615,5.688652503281393,-0.0004834186693187803,0.22200468182563782,-1.624936882649557,1.5722873669687942e-08,0.0028201541863381863,0.7012830376625061,-0.0,0.009952887892723083,0.9440258145332336,-6.62083555529474e-34,0.012267889454960823
314.0,343.0,-4.5846,0.39,8.857,-0.0363,0.0379,-0.1197,-2.211435457269186,-8.237067959271371e-05,4.32103967666626,-1.5482842922210693,0.02600395493209362,1.8162107467651367,5.688640582352438,-0.0005023737903684378,0.21385875344276428,-1.624976936970846,4.376520413434948e-12,-0.009005971252918243,0.7013198733329773,-0.0,0.0114168431609869,0.9440377354621887,-1.5988535218253298e-39,-0.0072483946569263935
314.0,343.0,-4.5846,0.39,8.857,-0.0363,0.0379,-0.1197,-2.211418767968649,-7.808295777067542e-05,4.380610466003418,-1.5481287240982056,0.026574047282338142,1.857131838798523,5.688684749394216,-0.001083922223187983,0.20805035531520844,-1.624976936970846,1.218220572433027e-15,-0.010849530808627605,0.7013075351715088,-0.0,0.0013264253502711654,0.9440221786499023,-4.203895392974451e-45,0.014159688726067543
314.0,343.0,-4.5846,0.39,8.857,-0.0363,0.0379,-0.1197,-2.2114349804320277,-7.421937334584072e-05,4.325352191925049,-1.5479891300201416,0.027684973552823067,1.815342664718628,5.688636648445883,-0.001663318951614201,0.22091470658779144,-1.6249812285052698,3.390961522193957e-19,-0.0029768822714686394,0.7013194561004639,-0.0,0.010122876614332199,0.9439537525177002,0.0,0.0739336833357811
314.0,343.0,-4.5846,0.39,8.857,-0.0363,0.0379,-0.1197,-2.211414953271383,-7.072021253407001e-05,4.362232685089111,-1.5478254556655884,0.030562574043869972,1.8301674127578735,5.688621032028951,-0.002128611784428358,0.22743141651153564,-1.6249573866473597,9.438867143553415e-23,-0.00472990283742547,0.7013359069824219,-0.0,-0.010324353352189064,0.9439979791641235,0.0,-0.0013367123901844025
314.0,343.0,-4.5846,0.39,8.857,-0.0363,0.0379,-0.1197,-2.211414953271383,-6.856524851173162e-05,4.322929382324219,-1.5476574897766113,0.030236447229981422,1.8491809368133545,5.688676881581106,-0.0022683932911604643,0.20451688766479492,-1.6249645392047327,4.02393658322066e-25,0.005766117479652166,0.7013273239135742,-0.0,0.0032059710938483477,0.9440180659294128,0.0,-0.009522585198283195
314.0,343.0,-4.5846,0.39,8.857,-0.0363,0.0379,-0.1197,-2.2114626369872035,-6.556808511959389e-05,4.352573394775391,-1.5475142002105713,0.03166931867599487,1.8398305177688599,5.688592600613394,-0.003222409402951598,0.21518412232398987,-1.6249492804156702,1.1200775222318677e-28,-0.003374866908416152,0.7013115882873535,-0.0,0.00922073982656002,0.9439816474914551,0.0,0.01973215863108635
314.0,343.0,-4.5846,0.39,8.857,-0.0363,0.0379,-0.1197,-2.2114068470396937,-6.282206595642492e-05,4.374701499938965,-1.5472906827926636,0.032004229724407196,1.820754051208496,5.688556837826528,-0.004128425382077694,0.2169085443019867,-1.6249163786517542,3.1177768909974e-32,0.010671649128198624,0.7013034224510193,-0.0,-0.008359585888683796,0.9439938068389893,0.0,-0.008906405419111252
