ramyac6/ROB537/final_project/csv/all/good_114.csv
tof_0,tof_1,accelx,accely,accelz,gyrox,gyroy,gyroz,shoulder_lift_joint_position,shoulder_lift_joint_velocity,shoulder_lift_joint_effort,elbow_joint_position,elbow_joint_velocity,elbow_joint_effort,wrist_1_joint_position,wrist_1_joint_velocity,wrist_1_joint_effort,wrist_2_joint_position,wrist_2_joint_velocity,wrist_2_joint_effort,wrist_3_joint_position,wrist_3_joint_velocity,wrist_3_joint_effort,shoulder_pan_joint_position,shoulder_pan_joint_velocity,shoulder_pan_joint_effort
330.0,310.0,5.796,0.1651,7.2383,-0.0308,0.0188,-0.1177,-1.6559015713133753,0.0,2.469212055206299,-1.1385411024093628,-0.0,2.082249402999878,3.65560690938916,0.0,0.2786530554294586,-1.5588348547564905,-0.0,-0.019658055156469345,0.7342615723609924,-0.0,-0.0013016730081290007,0.7745116353034973,0.0,0.048135388642549515
330.0,310.0,5.796,0.1651,7.2383,-0.0308,0.0188,-0.1177,-1.6559378109373988,0.0,2.4597842693328857,-1.1385612487792969,-0.0,2.041623592376709,3.6555744844624023,0.0,0.2847442030906677,-1.5588019529925745,-0.0,-0.020129447802901268,0.7342694997787476,-0.0,-0.006603947840631008,0.7745037078857422,0.0,0.017338048666715622
330.0,310.0,5.796,0.1651,7.2383,-0.0308,0.0188,-0.1177,-1.6559425793089808,0.0,2.46746563911438,-1.1385979652404785,-0.0,2.0761101245880127,3.655562563533447,0.0,0.2757951617240906,-1.5588505903827112,-0.0,-0.0050997259095311165,0.7342536449432373,-0.0,-0.00839489046484232,0.7745278477668762,0.0,-0.008340604603290558
330.0,310.0,5.796,0.1651,7.2383,-0.0308,0.0188,-0.1177,-1.6559344730772914,0.0,2.4681320190429688,-1.1385254859924316,-0.0,2.078937292098999,3.655566855067871,0.0,0.27701085805892944,-1.5588305632220667,-0.0,-0.012258654460310936,0.7342694997787476,-0.0,-0.000790368125308305,0.7745319604873657,0.0,0.024626918137073517
330.0,310.0,5.796,0.1651,7.2383,-0.0308,0.0188,-0.1177,-1.655922075311178,0.0,2.4322080612182617,-1.1385653018951416,-0.0,2.0547027587890625,3.6556107240864257,0.0,0.278727263212204,-1.5588424841510218,-0.0,-0.0031330138444900513,0.7342016100883484,-0.0,-0.005731160752475262,0.7744834423065186,0.0,-0.0027868961915373802
330.0,310.0,5.796,0.1651,7.2383,-0.0308,0.0188,-0.1177,-1.6559096775450648,0.0,2.483534336090088,-1.138525128364563,-0.0,2.064913272857666,3.655635042781494,0.0,0.28750166296958923,-1.5588462988482874,-0.0,-0.01511368341743946,0.7342615127563477,-0.0,0.0013060197234153748,0.7745398283004761,0.0,-0.0116698844358325
330.0,310.0,5.796,0.1651,7.2383,-0.0308,0.0188,-0.1177,-1.6559015713133753,0.0,2.4382266998291016,-1.1385374069213867,-0.0,2.065009117126465,3.65560690938916,0.0,0.28167402744293213,-1.558826748524801,-0.0,0.0005321758799254894,0.7342694997787476,-0.0,-0.017342589795589447,0.7744954824447632,0.0,0.051928117871284485
330.0,310.0,5.796,0.1651,7.2383,-0.0308,0.0188,-0.1177,-1.6559421024718226,0.0,2.4448251724243164,-1.1385374069213867,-0.0,2.076946258544922,3.65560690938916,0.0,0.2786121368408203,-1.5588343779193323,-0.0,0.004586857743561268,0.7342294454574585,-0.0,-0.011861462146043777,0.7744872570037842,0.0,-0.00793600082397461
314.0,313.0,5.7757,0.0993,7.1486,-0.0351,0.0273,-0.1235,-1.6559015713133753,0.0,2.430626392364502,-1.1385612487792969,-0.0,2.0734810829162598,3.6556107240864257,0.0,0.2847431004047394,-1.558826748524801,-0.0,0.007570871617645025,0.7342615127563477,-0.0,-0.008578621782362461,0.7744430303573608,0.0,0.037808455526828766
314.0,313.0,5.7757,0.0993,7.1486,-0.0351,0.0273,-0.1235,-1.6559344730772914,0.0,2.4352197647094727,-1.1385493278503418,-0.0,2.094996213912964,3.6556150156208496,0.0,0.2824712097644806,-1.5588625113116663,-0.0,-0.010191647335886955,0.7342135310173035,-0.0,-0.0019052166026085615,0.7745116353034973,0.0,0.018718643113970757
314.0,313.0,5.7757,0.0993,7.1486,-0.0351,0.0273,-0.1235,-1.6559177837767542,0.0,2.4679298400878906,-1.1385337114334106,-0.0,2.1235079765319824,3.6556312280842285,0.0,0.274057537317276,-1.5588424841510218,-0.0,-0.004556939471513033,0.7342654466629028,-0.0,-0.02416856773197651,0.7745037078857422,0.0,0.017916489392518997
314.0,313.0,5.7757,0.0993,7.1486,-0.0351,0.0273,-0.1235,-1.655938287774557,0.0,2.4454617500305176,-1.1384966373443604,-0.0,2.092730760574341,3.6556107240864257,0.0,0.2796885669231415,-1.5588305632220667,-0.0,-0.013436859473586082,0.7342254519462585,-0.0,-0.007494858466088772,0.7745034098625183,0.0,-0.03622187301516533
314.0,313.0,5.7757,0.0993,7.1486,-0.0351,0.0273,-0.1235,-1.6559702358641566,0.0,2.4092183113098145,-1.1385533809661865,-0.0,2.1180918216705322,3.6555706697651367,0.0,0.278886079788208,-1.558854881917135,-0.0,0.0045685674995183945,0.7342575788497925,-0.0,0.0065269507467746735,0.7744632959365845,0.0,-0.051886770874261856
314.0,313.0,5.7757,0.0993,7.1486,-0.0351,0.0273,-0.1235,-1.655938287774557,0.0,2.4615206718444824,-1.1385854482650757,-0.0,2.0619635581970215,3.655566855067871,0.0,0.28124648332595825,-1.5588224569903772,-0.0,-0.011563194915652275,0.7342654466629028,-0.0,-0.00929053220897913,0.7744954824447632,0.0,0.014100936241447926
314.0,313.0,5.7757,0.0993,7.1486,-0.0351,0.0273,-0.1235,-1.655950208703512,0.0,2.461181402206421,-1.1385172605514526,-0.0,2.0792808532714844,3.6555582719990234,0.0,0.2787722945213318,-1.5587981382953089,-0.0,-0.007897542789578438,0.7342294454574585,-0.0,-0.013500094413757324,0.7744429707527161,0.0,0.02632557787001133
314.0,313.0,5.7757,0.0993,7.1486,-0.0351,0.0273,-0.1235,-1.655893465081686,0.0,2.4733386039733887,-1.1385612487792969,-0.0,2.105870246887207,3.6556107240864257,0.0,0.2836938798427582,-1.558826748524801,-0.0,-0.009800604544579983,0.7342497110366821,-0.0,-0.0006516207940876484,0.7744752168655396,0.0,0.01686488464474678
314.0,313.0,5.7757,0.0993,7.1486,-0.0351,0.0273,-0.1235,-1.655910154382223,0.0,2.4756360054016113,-1.1385493278503418,-0.0,2.0613110065460205,3.6555744844624023,0.0,0.2668125331401825,-1.5588668028460901,-0.0,-0.0002796316985040903,0.7342975735664368,-0.0,0.0028503956273198128,0.7744874954223633,0.0,0.05632093548774719
314.0,313.0,5.7757,0.0993,7.1486,-0.0351,0.0273,-0.1235,-1.655954500237936,0.0,2.464846611022949,-1.1385533809661865,-0.0,2.07645845413208,3.655578299159668,0.0,0.2771398723125458,-1.5588424841510218,-0.0,-0.010864201001822948,0.7342535257339478,-0.0,0.0018683942034840584,0.774523913860321,0.0,0.036405861377716064
314.0,313.0,5.7757,0.0993,7.1486,-0.0351,0.0273,-0.1235,-1.6558858356871546,0.0,2.4848453998565674,-1.1385772228240967,-0.0,2.1199071407318115,3.6555988031574707,0.0,0.26591888070106506,-1.5588138739215296,-0.0,0.0004402715712785721,0.7342655062675476,-0.0,0.004835945554077625,0.7744633555412292,0.0,0.011464068666100502
314.0,313.0,5.7757,0.0993,7.1486,-0.0351,0.0273,-0.1235,-1.655893465081686,0.0,2.4083242416381836,-1.1385172605514526,-0.0,2.0595853328704834,3.6555582719990234,0.0,0.2686005234718323,-1.5588505903827112,-0.0,-0.008027907460927963,0.7342215776443481,-0.0,-0.02996300533413887,0.7744995951652527,0.0,-0.005890049040317535
314.0,313.0,5.7757,0.0993,7.1486,-0.0351,0.0273,-0.1235,-1.6559258900084437,0.0,2.455389976501465,-1.138541579246521,-0.0,2.071648120880127,3.655578299159668,0.0,0.2735922336578369,-1.558854881917135,-0.0,-0.024954743683338165,0.7342615127563477,-0.0,-0.009458987042307854,0.7744592428207397,0.0,-0.009994950145483017
314.0,313.0,5.7757,0.0993,7.1486,-0.0351,0.0273,-0.1235,-1.655905386010641,0.0,2.4569756984710693,-1.138545274734497,-0.0,2.075643539428711,3.6556107240864257,0.0,0.2870739698410034,-1.5588138739215296,-0.0,-0.0029273114632815123,0.7342056035995483,-0.0,-0.0032550222240388393,0.7744913697242737,0.0,0.030117038637399673
315.0,323.0,5.7182,0.0491,7.459,-0.0406,0.0202,-0.1213,-1.655950208703512,0.0,2.406334400177002,-1.1385533809661865,-0.0,2.0676679611206055,3.655623121852539,0.0,0.28131115436553955,-1.558826748524801,-0.0,-0.01685558632016182,0.7342374324798584,-0.0,-0.013586476445198059,0.7745198607444763,0.0,0.03755219280719757
315.0,323.0,5.7182,0.0491,7.459,-0.0406,0.0202,-0.1213,-1.6559015713133753,0.0,2.400214433670044,-1.138537049293518,-0.0,2.0783205032348633,3.655578299159668,0.0,0.27430030703544617,-1.5588224569903772,-0.0,-0.005420219618827105,0.7343091368675232,-0.0,-0.0058289747685194016,0.7744913697242737,0.0,-0.004217020235955715
315.0,323.0,5.7182,0.0491,7.459,-0.0406,0.0202,-0.1213,-1.6559258900084437,0.0,2.452971935272217,-1.1385937929153442,-0.0,2.1225762367248535,3.6555544573017578,0.0,0.28038227558135986,-1.558793846760885,-0.0,0.004568812437355518,0.7342773675918579,-0.0,-0.0053068483248353004,0.7745360136032104,0.0,0.00019641220569610596
315.0,323.0,5.7182,0.0491,7.459,-0.0406,0.0202,-0.1213,-1.6559134922423304,0.0,2.423445224761963,-1.1385936737060547,-0.0,2.042266368865967,3.6555825906940917,0.0,0.2816917300224304,-1.5588138739215296,-0.0,-0.005594069138169289,0.7342417240142822,-0.0,0.006146217696368694,0.7744954824447632,0.0,-0.015964185819029808
315.0,323.0,5.7182,0.0491,7.459,-0.0406,0.0202,-0.1213,-1.6559301815428675,0.0,2.4304771423339844,-1.1385090351104736,-0.0,2.0729763507843018,3.65560690938916,0.0,0.28118637204170227,-1.5588343779193323,-0.0,-0.008213570341467857,0.7342294454574585,-0.0,-0.00630551902577281,0.7745236754417419,0.0,-0.004314015619456768
315.0,323.0,5.7182,0.0491,7.459,-0.0406,0.0202,-0.1213,-1.655905386010641,0.0,2.435452938079834,-1.138477087020874,-0.0,2.097878932952881,3.655566855067871,0.0,0.27930212020874023,-1.5588305632220667,-0.0,-0.011211831122636795,0.7342413663864136,-0.0,-0.0012501077726483345,0.7745236754417419,0.0,0.019186530262231827
315.0,323.0,5.7182,0.0491,7.459,-0.0406,0.0202,-0.1213,-1.6559096775450648,0.0,2.4307172298431396,-1.13849675655365,-0.0,2.042924642562866,3.6555706697651367,0.0,0.2938423156738281,-1.5588057676898401,-0.0,-0.006712102331221104,0.7342855930328369,-0.0,0.0004889394040219486,0.7745277881622314,0.0,0.009242122992873192
315.0,323.0,5.7182,0.0491,7.459,-0.0406,0.0202,-0.1213,-1.6559621296324671,0.0,2.432318687438965,-1.1385369300842285,-0.0,2.067061185836792,3.65560690938916,0.0,0.2835925221443176,-1.558826748524801,-0.0,-0.014306099154055119,0.7342456579208374,-0.0,-0.020198795944452286,0.7744872570037842,0.0,-0.027881167829036713
315.0,323.0,5.7182,0.0491,7.459,-0.0406,0.0202,-0.1213,-1.6559177837767542,0.0,2.4887707233428955,-1.138545274734497,-0.0,2.0606637001037598,3.6556107240864257,0.0,0.2932565212249756,-1.5588305632220667,-0.0,-0.02685972861945629,0.7342215180397034,-0.0,-0.00502608111128211,0.7744954824447632,0.0,0.032528989017009735
315.0,323.0,5.7182,0.0491,7.459,-0.0406,0.0202,-0.1213,-1.655938287774557,0.0,2.4488255977630615,-1.1385854482650757,-0.0,2.057257652282715,3.6556312280842285,0.0,0.279957115650177,-1.5588024298297327,-0.0,-0.01393532007932663,0.7342537641525269,-0.0,-0.006946945562958717,0.7745480537414551,0.0,-0.0013687587343156338
315.0,323.0,5.7182,0.0491,7.459,-0.0406,0.0202,-0.1213,-1.6559058628477992,0.0,2.3866307735443115,-1.1385533809661865,-0.0,2.0723588466644287,3.655594511623047,0.0,0.2777421474456787,-1.5588057676898401,-0.0,-0.0012401912827044725,0.7343091368675232,-0.0,-0.005306005012243986,0.7745195627212524,0.0,0.009349091909825802
315.0,323.0,5.7182,0.0491,7.459,-0.0406,0.0202,-0.1213,-1.655954500237936,0.0,2.4647858142852783,-1.1385374069213867,-0.0,2.068704605102539,3.655550642604492,0.0,0.2819228172302246,-1.5588462988482874,-0.0,-0.030550362542271614,0.7342773675918579,-0.0,-0.007216593250632286,0.7745075225830078,0.0,0.003053499385714531
315.0,323.0,5.7182,0.0491,7.459,-0.0406,0.0202,-0.1213,-1.6559421024718226,0.0,2.447312593460083,-1.138545274734497,-0.0,2.124810218811035,3.6555864053913574,0.0,0.29034945368766785,-1.5588586966144007,-0.0,-0.007697343826293945,0.7342096567153931,-0.0,0.012166185304522514,0.7744913697242737,0.0,-0.03508860990405083
315.0,323.0,5.7182,0.0491,7.459,-0.0406,0.0202,-0.1213,-1.6559583149352015,0.0,2.427321434020996,-1.1385653018951416,-0.0,2.045720338821411,3.655590696925781,0.0,0.27356308698654175,-1.5588348547564905,-0.0,-0.02731584571301937,0.7342372536659241,-0.0,-0.006790837273001671,0.774450957775116,0.0,-0.019011937081813812
315.0,323.0,5.7182,0.0491,7.459,-0.0406,0.0202,-0.1213,-1.655893465081686,0.0,2.4134716987609863,-1.138533353805542,-0.0,2.094407320022583,3.655554934138916,0.0,0.28688204288482666,-1.5588348547564905,-0.0,-0.008127251639962196,0.7343136072158813,-0.0,-0.005694545339792967,0.7744913697242737,0.0,-0.01700044795870781
325.0,300.0,5.7517,0.1005,7.185,-0.0354,0.0192,-0.1164,-1.6559301815428675,0.0,2.4490952491760254,-1.1386020183563232,-0.0,2.103213310241699,3.6555463510700683,0.0,0.27138856053352356,-1.558793846760885,-0.0,-0.001402333378791809,0.7342455387115479,-0.0,-0.017007142305374146,0.7744674682617188,0.0,-0.029300551861524582
325.0,300.0,5.7517,0.1005,7.185,-0.0354,0.0192,-0.1164,-1.655938287774557,0.0,2.4699044227600098,-1.138533353805542,-0.0,2.120088815689087,3.655562563533447,0.0,0.28239908814430237,-1.5588138739215296,-0.0,-0.015951072797179222,0.7342655658721924,-0.0,-0.0008989498019218445,0.7744954824447632,0.0,-0.03188818320631981
325.0,300.0,5.7517,0.1005,7.185,-0.0354,0.0192,-0.1164,-1.6559177837767542,0.0,2.457099676132202,-1.1385571956634521,-0.0,2.089195489883423,3.6555825906940917,0.0,0.2724032700061798,-1.5588544050799769,-0.0,-0.00346548855304718,0.7342574000358582,-0.0,-0.008069477044045925,0.7745722532272339,0.0,-0.05204086750745773
325.0,300.0,5.7517,0.1005,7.185,-0.0354,0.0192,-0.1164,-1.655938287774557,0.0,2.466156005859375,-1.138529658317566,-0.0,2.095032215118408,3.655538244838379,0.0,0.27197596430778503,-1.558826748524801,-0.0,0.004535028710961342,0.7343094944953918,-0.0,-0.013178836554288864,0.7745116353034973,0.0,0.03055373765528202
325.0,300.0,5.7517,0.1005,7.185,-0.0354,0.0192,-0.1164,-1.6558896503844203,0.0,2.445613384246826,-1.1385369300842285,-0.0,2.0833494663238525,3.65560690938916,0.0,0.27882933616638184,-1.5588668028460901,-0.0,-0.013402393087744713,0.7342897653579712,-0.0,-0.009777198545634747,0.7744913697242737,0.0,-0.012954283505678177
325.0,300.0,5.7517,0.1005,7.185,-0.0354,0.0192,-0.1164,-1.6558977566161097,0.0,2.4198217391967773,-1.138545274734497,-0.0,2.0840625762939453,3.6556269365498046,0.0,0.2706950306892395,-1.5588305632220667,-0.0,-0.00195943471044302,0.7342574596405029,-0.0,-0.0021445807069540024,0.7744954824447632,0.0,0.0006492035463452339
325.0,300.0,5.7517,0.1005,7.185,-0.0354,0.0192,-0.1164,-1.6559177837767542,0.0,2.4680371284484863,-1.1386020183563232,-0.0,2.0417168140411377,3.655562563533447,0.0,0.2796027362346649,-1.5588586966144007,-0.0,-0.008877452462911606,0.7342414259910583,-0.0,0.008053015917539597,0.7744752168655396,0.0,0.029292447492480278
325.0,300.0,5.7517,0.1005,7.185,-0.0354,0.0192,-0.1164,-1.655922075311178,0.0,2.459848403930664,-1.1385456323623657,-0.0,2.089608907699585,3.6555744844624023,0.0,0.26974356174468994,-1.5588181654559534,-0.0,-0.008433359675109386,0.7342374324798584,-0.0,-0.012908762320876122,0.7745116353034973,0.0,-0.0043477267026901245
325.0,300.0,5.7517,0.1005,7.185,-0.0354,0.0192,-0.1164,-1.6559344730772914,0.0,2.4309465885162354,-1.1385694742202759,-0.0,2.0757646560668945,3.655543013209961,0.0,0.28942492604255676,-1.558826748524801,-0.0,-0.0108510572463274,0.7343255281448364,-0.0,-0.0007926006801426411,0.7745236754417419,0.0,0.0028195809572935104
325.0,300.0,5.7517,0.1005,7.185,-0.0354,0.0192,-0.1164,-1.6559058628477992,0.0,2.452547311782837,-1.1385493278503418,-0.0,2.0909600257873535,3.6555463510700683,0.0,0.2813360393047333,-1.5588825384723108,-0.0,-0.012257073074579239,0.7342332601547241,-0.0,-0.012639968656003475,0.774479329586029,0.0,-0.00027124956250190735
325.0,300.0,5.7517,0.1005,7.185,-0.0354,0.0192,-0.1164,-1.655922075311178,0.0,2.4080398082733154,-1.1385575532913208,-0.0,2.062251329421997,3.6555825906940917,0.0,0.2818240225315094,-1.5588505903827112,-0.0,-0.014572303742170334,0.7341728806495667,-0.0,-0.01645123027265072,0.7745236754417419,0.0,0.037639934569597244
325.0,300.0,5.7517,0.1005,7.185,-0.0354,0.0192,-0.1164,-1.6559702358641566,0.0,2.440800905227661,-1.1385575532913208,-0.0,2.065615653991699,3.655590696925781,0.0,0.2858244776725769,-1.5588701407061976,-0.0,-0.010720716789364815,0.7342291474342346,-0.0,-0.0007773530669510365,0.774531900882721,0.0,0.04532225430011749
325.0,300.0,5.7517,0.1005,7.185,-0.0354,0.0192,-0.1164,-1.6559134922423304,0.0,2.480426788330078,-1.1385575532913208,-0.0,2.056863784790039,3.6556026178547363,0.0,0.27048760652542114,-1.5588343779193323,-0.0,-0.01747334934771061,0.7342128157615662,-0.0,-0.014629555866122246,0.7745075225830078,0.0,-0.0424857921898365
325.0,300.0,5.7517,0.1005,7.185,-0.0354,0.0192,-0.1164,-1.6559177837767542,0.0,2.442629814147949,-1.1385812759399414,-0.0,2.100792169570923,3.6555582719990234,0.0,0.2773587703704834,-1.5588625113116663,-0.0,-0.005202874541282654,0.7342292070388794,-0.0,-0.014661498367786407,0.7744954824447632,0.0,0.010889098048210144
318.0,324.0,5.7829,0.1304,7.2413,-0.0368,0.02,-0.1203,-1.655922075311178,0.0,2.4431488513946533,-1.138541579246521,-0.0,2.036926746368408,3.6555425363728027,0.0,0.2819618880748749,-1.5588305632220667,-0.0,0.0006716279312968254,0.7342374324798584,-0.0,-0.011331591755151749,0.7745154500007629,0.0,-0.03694085776805878
318.0,324.0,5.7829,0.1304,7.2413,-0.0368,0.02,-0.1203,-1.6559134922423304,0.0,2.4267520904541016,-1.138573169708252,-0.0,2.0528221130371094,3.6555706697651367,0.0,0.28924989700317383,-1.5588305632220667,-0.0,-0.015613380819559097,0.7342857718467712,-0.0,-0.002054716693237424,0.7745277881622314,0.0,0.004646693356335163
318.0,324.0,5.7829,0.1304,7.2413,-0.0368,0.02,-0.1203,-1.6559134922423304,0.0,2.4332869052886963,-1.1384851932525635,-0.0,2.092885732650757,3.6556593614765625,0.0,0.28115805983543396,-1.5588586966144007,-0.0,-0.0036247288808226585,0.7342050075531006,-0.0,-0.018755534663796425,0.7745439410209656,0.0,-0.00617713388055563
318.0,324.0,5.7829,0.1304,7.2413,-0.0368,0.02,-0.1203,-1.6559177837767542,0.0,2.427119731903076,-1.1385213136672974,-0.0,2.035696506500244,3.6555544573017578,0.0,0.28146839141845703,-1.5588138739215296,-0.0,-0.010501565411686897,0.7342660427093506,-0.0,-0.012963161803781986,0.7744872570037842,0.0,0.011646019294857979
318.0,324.0,5.7829,0.1304,7.2413,-0.0368,0.02,-0.1203,-1.655905386010641,0.0,2.409975051879883,-1.138533353805542,-0.0,2.094257116317749,3.6556193071552734,0.0,0.2711465358734131,-1.5588224569903772,-0.0,-0.00691597256809473,0.7342574596405029,-0.0,-0.0017075573559850454,0.7744430303573608,0.0,-0.002072686795145273
318.0,324.0,5.7829,0.1304,7.2413,-0.0368,0.02,-0.1203,-1.6559258900084437,0.0,2.4464640617370605,-1.138545274734497,-0.0,2.0878796577453613,3.655594511623047,0.0,0.27287429571151733,-1.5588825384723108,-0.0,-0.017643578350543976,0.7342897653579712,-0.0,-0.000995822250843048,0.774479329586029,0.0,0.010099941864609718
318.0,324.0,5.7829,0.1304,7.2413,-0.0368,0.02,-0.1203,-1.6559096775450648,0.0,2.4178271293640137,-1.138573169708252,-0.0,2.0559630393981934,3.65560690938916,0.0,0.2800305485725403,-1.558838192616598,-0.0,-0.007588015403598547,0.7342857718467712,-0.0,-0.00918256863951683,0.7744954824447632,0.0,-0.02746451087296009
318.0,324.0,5.7829,0.1304,7.2413,-0.0368,0.02,-0.1203,-1.6559621296324671,0.0,2.4753618240356445,-1.1385493278503418,-0.0,2.082146167755127,3.65560690938916,0.0,0.2869536876678467,-1.5588462988482874,-0.0,-0.009575335308909416,0.7342897653579712,-0.0,-0.009386026300489902,0.7744715213775635,0.0,0.002025328576564789
318.0,324.0,5.7829,0.1304,7.2413,-0.0368,0.02,-0.1203,-1.6559344730772914,0.0,2.472956657409668,-1.1385291814804077,-0.0,2.075535535812378,3.655590696925781,0.0,0.2810553014278412,-1.5588305632220667,-0.0,0.006327275652438402,0.7342574000358582,-0.0,0.0020005153492093086,0.7744995951652527,0.0,0.011528370901942253
318.0,324.0,5.7829,0.1304,7.2413,-0.0368,0.02,-0.1203,-1.6558777294554652,0.0,2.415001392364502,-1.1385493278503418,-0.0,2.0989298820495605,3.655635042781494,0.0,0.2740878760814667,-1.5588138739215296,-0.0,-0.01079980656504631,0.734281599521637,-0.0,-0.01953280344605446,0.7744954824447632,0.0,0.0074331751093268394
318.0,324.0,5.7829,0.1304,7.2413,-0.0368,0.02,-0.1203,-1.6559096775450648,0.0,2.4387564659118652,-1.1385493278503418,-0.0,2.0295674800872803,3.6556312280842285,0.0,0.2801159918308258,-1.558821980153219,-0.0,-0.00638369657099247,0.7342615127563477,-0.0,-0.012295357882976532,0.774531900882721,0.0,-0.013835071586072445
318.0,324.0,5.7829,0.1304,7.2413,-0.0368,0.02,-0.1203,-1.6559134922423304,0.0,2.4980928897857666,-1.1384892463684082,-0.0,2.089874267578125,3.655554934138916,0.0,0.2799474895000458,-1.5588138739215296,-0.0,0.0045514483936131,0.7342615127563477,-0.0,-0.014208294451236725,0.7744954824447632,0.0,-0.020552581176161766
318.0,324.0,5.7829,0.1304,7.2413,-0.0368,0.02,-0.1203,-1.6559134922423304,0.0,2.399388313293457,-1.1385172605514526,-0.0,2.099074363708496,3.655594511623047,0.0,0.2801297903060913,-1.5588305632220667,-0.0,-0.010085677728056908,0.7342497110366821,-0.0,-0.015438564121723175,0.7744872570037842,0.0,0.030329588800668716
318.0,324.0,5.7829,0.1304,7.2413,-0.0368,0.02,-0.1203,-1.6558696232237757,0.0,2.4467196464538574,-1.13858962059021,-0.0,2.0858778953552246,3.655566855067871,0.0,0.28160491585731506,-1.558793846760885,-0.0,-0.000764091731980443,0.7342898845672607,-0.0,-0.006767841521650553,0.7744831442832947,0.0,0.0008761733770370483
318.0,324.0,5.7829,0.1304,7.2413,-0.0368,0.02,-0.1203,-1.6559344730772914,0.0,2.408820629119873,-1.1385772228240967,-0.0,2.1106958389282227,3.6555825906940917,0.0,0.27246642112731934,-1.5588906447040003,-0.0,-0.014696218073368073,0.734205424785614,-0.0,-0.012611947022378445,0.7744633555412292,0.0,0.001993279904127121
338.0,300.0,5.7829,0.0867,7.1791,-0.0473,0.0296,-0.1196,-1.655954500237936,0.0,2.399921417236328,-1.1385493278503418,-0.0,2.065552234649658,3.6556269365498046,0.0,0.2792980372905731,-1.5588305632220667,-0.0,-0.0019459439208731055,0.7343102693557739,-0.0,-0.010242034681141376,0.77447110414505,0.0,0.034169651567935944
338.0,300.0,5.7829,0.0867,7.1791,-0.0473,0.0296,-0.1196,-1.6559177837767542,0.0,2.393746852874756,-1.1385291814804077,-0.0,2.089420795440674,3.655550642604492,0.0,0.2912290692329407,-1.5588138739215296,-0.0,-0.015439644455909729,0.7342697978019714,-0.0,-0.013680314645171165,0.7744954824447632,0.0,-0.003641279647126794
338.0,300.0,5.7829,0.0867,7.1791,-0.0473,0.0296,-0.1196,-1.6559463940062464,0.0,2.4496142864227295,-1.1385172605514526,-0.0,2.1044774055480957,3.655550642604492,0.0,0.28406116366386414,-1.5588505903827112,-0.0,-0.019993174821138382,0.7342292070388794,-0.0,-0.0027940371073782444,0.77447110414505,0.0,0.02547794207930565
338.0,300.0,5.7829,0.0867,7.1791,-0.0473,0.0296,-0.1196,-1.6559301815428675,0.0,2.4252419471740723,-1.138533353805542,-0.0,2.1022861003875732,3.6556193071552734,0.0,0.2760608196258545,-1.5588386694537562,-0.0,-0.009709132835268974,0.7342374324798584,-0.0,0.015533027239143848,0.7745278477668762,0.0,-0.014972180128097534
338.0,300.0,5.7829,0.0867,7.1791,-0.0473,0.0296,-0.1196,-1.6558896503844203,0.0,2.441185712814331,-1.1385172605514526,-0.0,2.123077392578125,3.6555988031574707,0.0,0.27868223190307617,-1.5588138739215296,-0.0,-0.010195208713412285,0.7342172861099243,-0.0,0.003322228789329529,0.7745277881622314,0.0,-0.00038896966725587845
338.0,300.0,5.7829,0.0867,7.1791,-0.0473,0.0296,-0.1196,-1.6559344730772914,0.0,2.4549663066864014,-1.1385772228240967,-0.0,2.083136796951294,3.6555988031574707,0.0,0.25480878353118896,-1.5588544050799769,-0.0,-0.01619984582066536,0.7342455983161926,-0.0,-0.009046407416462898,0.7745398283004761,0.0,-0.00914022233337164
338.0,300.0,5.7829,0.0867,7.1791,-0.0473,0.0296,-0.1196,-1.6559463940062464,0.0,2.4585115909576416,-1.138533353805542,-0.0,2.092175006866455,3.655594511623047,0.0,0.2766464352607727,-1.5588625113116663,-0.0,-0.0064297886565327644,0.7342857718467712,-0.0,-0.01020439900457859,0.7744834423065186,0.0,0.014656062237918377
338.0,300.0,5.7829,0.0867,7.1791,-0.0473,0.0296,-0.1196,-1.6559096775450648,0.0,2.4135189056396484,-1.1385254859924316,-0.0,2.0498437881469727,3.655578299159668,0.0,0.2745024561882019,-1.5588462988482874,-0.0,0.0032918627839535475,0.7342537641525269,-0.0,-0.0015676271868869662,0.7744633555412292,0.0,-0.020260056480765343
338.0,300.0,5.7829,0.0867,7.1791,-0.0473,0.0296,-0.1196,-1.6558777294554652,0.0,2.4481992721557617,-1.1385533809661865,-0.0,2.067593574523926,3.6556026178547363,0.0,0.2731357216835022,-1.5588224569903772,-0.0,-0.016237128525972366,0.7342656254768372,-0.0,-0.008833365514874458,0.7744954824447632,0.0,-0.011469024233520031
338.0,300.0,5.7829,0.0867,7.1791,-0.0473,0.0296,-0.1196,-1.655966421166891,0.0,2.442061185836792,-1.1385575532913208,-0.0,2.0680456161499023,3.6555582719990234,0.0,0.28760862350463867,-1.5588706175433558,-0.0,0.0027479531709104776,0.7342291474342346,-0.0,-0.017303120344877243,0.7744430303573608,0.0,-0.00036770664155483246
338.0,300.0,5.7829,0.0867,7.1791,-0.0473,0.0296,-0.1196,-1.6559301815428675,0.0,2.4529881477355957,-1.1385533809661865,-0.0,2.074816942214966,3.6555864053913574,0.0,0.28413403034210205,-1.5588181654559534,-0.0,-0.014837637543678284,0.7342938780784607,-0.0,-0.012343226000666618,0.7745116353034973,0.0,0.013133669272065163
338.0,300.0,5.7829,0.0867,7.1791,-0.0473,0.0296,-0.1196,-1.6559058628477992,0.0,2.4298129081726074,-1.138541579246521,-0.0,2.074488639831543,3.6556150156208496,0.0,0.28579527139663696,-1.5588462988482874,-0.0,-0.004850971978157759,0.7342374324798584,-0.0,-0.014017082750797272,0.7745036482810974,0.0,-0.008899876847863197
338.0,300.0,5.7829,0.0867,7.1791,-0.0473,0.0296,-0.1196,-1.6559583149352015,0.0,2.415260076522827,-1.1385493278503418,-0.0,2.113248348236084,3.655590696925781,0.0,0.2897690236568451,-1.558793846760885,-0.0,-0.014718685299158096,0.7342898845672607,-0.0,-0.01700572669506073,0.7744831442832947,0.0,-0.0236042607575655
338.0,300.0,5.7829,0.0867,7.1791,-0.0473,0.0296,-0.1196,-1.6559096775450648,0.0,2.4468207359313965,-1.1385493278503418,-0.0,2.0935816764831543,3.655623121852539,0.0,0.28317466378211975,-1.5588505903827112,-0.0,-0.01318578701466322,0.7342857718467712,-0.0,0.002305428497493267,0.774531900882721,0.0,0.005811864510178566
328.0,311.0,5.7356,0.146,7.2377,-0.0417,0.0241,-0.119,-1.6559344730772914,0.0,2.4151525497436523,-1.1385575532913208,-0.0,2.09922456741333,3.655550642604492,0.0,0.2796722948551178,-1.5588424841510218,-0.0,-0.007602745667099953,0.7342615127563477,-0.0,-0.008244781754910946,0.7744550704956055,0.0,-0.005179974250495434
328.0,311.0,5.7356,0.146,7.2377,-0.0417,0.0241,-0.119,-1.655893465081686,0.0,2.4433958530426025,-1.1385772228240967,-0.0,2.0819144248962402,3.6555349069782714,0.0,0.284496933221817,-1.558826748524801,-0.0,0.0030763784889131784,0.7342332601547241,-0.0,0.0038719475269317627,0.7745480537414551,0.0,0.0006297100335359573
328.0,311.0,5.7356,0.146,7.2377,-0.0417,0.0241,-0.119,-1.6559421024718226,0.0,2.4539577960968018,-1.1385411024093628,-0.0,2.057154893875122,3.6555825906940917,0.0,0.2828165292739868,-1.5588348547564905,-0.0,-0.011563440784811974,0.734281599521637,-0.0,-0.008287481963634491,0.7744633555412292,0.0,0.0320856086909771
328.0,311.0,5.7356,0.146,7.2377,-0.0417,0.0241,-0.119,-1.655922075311178,0.0,2.4650282859802246,-1.138545274734497,-0.0,2.1153316497802734,3.655578299159668,0.0,0.27572163939476013,-1.5588424841510218,-0.0,-0.007864977233111858,0.7342332601547241,-0.0,-0.00366427400149405,0.7745154500007629,0.0,0.025964025408029556
328.0,311.0,5.7356,0.146,7.2377,-0.0417,0.0241,-0.119,-1.6559463940062464,0.0,2.440446376800537,-1.1385048627853394,-0.0,2.086484432220459,3.655566855067871,0.0,0.2835085093975067,-1.5588386694537562,-0.0,-0.00994783639907837,0.7343054413795471,-0.0,-0.0021556131541728973,0.7744992971420288,0.0,-0.04583520069718361
328.0,311.0,5.7356,0.146,7.2377,-0.0417,0.0241,-0.119,-1.655938287774557,0.0,2.4023873805999756,-1.1385656595230103,-0.0,2.0779056549072266,3.6555463510700683,0.0,0.2733497619628906,-1.5588744322406214,-0.0,0.008800576440989971,0.7342938780784607,-0.0,-0.00010938895866274834,0.7745198607444763,0.0,-0.00913012120872736
328.0,311.0,5.7356,0.146,7.2377,-0.0417,0.0241,-0.119,-1.655893465081686,0.0,2.455641984939575,-1.1385374069213867,-0.0,2.0607991218566895,3.6556107240864257,0.0,0.2822999954223633,-1.5588305632220667,-0.0,-0.00778134074062109,0.7342332601547241,-0.0,-0.005827195942401886,0.7745480537414551,0.0,-0.011469705030322075
328.0,311.0,5.7356,0.146,7.2377,-0.0417,0.0241,-0.119,-1.6558858356871546,0.0,2.4284844398498535,-1.138516902923584,-0.0,2.071402072906494,3.6555544573017578,0.0,0.2682402729988098,-1.5588143507586878,-0.0,-0.016181580722332,0.7342492938041687,-0.0,-0.0025819172151386738,0.774479329586029,0.0,-0.033125340938568115
328.0,311.0,5.7356,0.146,7.2377,-0.0417,0.0241,-0.119,-1.6559134922423304,0.0,2.4357738494873047,-1.1384726762771606,-0.0,2.0358898639678955,3.655594511623047,0.0,0.27126583456993103,-1.5588019529925745,-0.0,-0.012445222586393356,0.734281599521637,-0.0,-0.003366772085428238,0.7745400071144104,0.0,0.0386536568403244
328.0,311.0,5.7356,0.146,7.2377,-0.0417,0.0241,-0.119,-1.655893465081686,0.0,2.470468044281006,-1.1385493278503418,-0.0,2.1282806396484375,3.6555744844624023,0.0,0.2804311513900757,-1.5588138739215296,-0.0,-0.0123512651771307,0.7342250943183899,-0.0,0.0068694911897182465,0.7744592428207397,0.0,-0.004500339273363352
328.0,311.0,5.7356,0.146,7.2377,-0.0417,0.0241,-0.119,-1.6559134922423304,0.0,2.4213449954986572,-1.1385172605514526,-0.0,2.125913143157959,3.655554934138916,0.0,0.2779892683029175,-1.5588348547564905,-0.0,-0.00681303208693862,0.7342454791069031,-0.0,-0.01151270605623722,0.7745641469955444,0.0,-0.037276241928339005
328.0,311.0,5.7356,0.146,7.2377,-0.0417,0.0241,-0.119,-1.6559540234007777,0.0,2.437272071838379,-1.1385533809661865,-0.0,2.069725275039673,3.6555988031574707,0.0,0.29194849729537964,-1.5588462988482874,-0.0,-0.009594088420271873,0.7342332601547241,-0.0,-0.009665099903941154,0.7744710445404053,0.0,-0.002284009475260973
328.0,311.0,5.7356,0.146,7.2377,-0.0417,0.0241,-0.119,-1.6559015713133753,0.0,2.4660556316375732,-1.1385533809661865,-0.0,2.0545504093170166,3.6555544573017578,0.0,0.2806868255138397,-1.5588625113116663,-0.0,-0.002935426076874137,0.7342250943183899,-0.0,-0.0031448551453649998,0.7744831442832947,0.0,0.01889018528163433
328.0,311.0,5.7356,0.146,7.2377,-0.0417,0.0241,-0.119,-1.655966421166891,0.0,2.446655035018921,-1.1385048627853394,-0.0,2.049387216567993,3.6555706697651367,0.0,0.2769894003868103,-1.558810059224264,-0.0,-0.007655091118067503,0.7342332601547241,-0.0,0.0044943904504179955,0.7744992971420288,0.0,-0.014767227694392204
328.0,311.0,5.7356,0.146,7.2377,-0.0417,0.0241,-0.119,-1.6559096775450648,0.0,2.4430840015411377,-1.1385533809661865,-0.0,2.06380558013916,3.6555349069782714,0.0,0.28724631667137146,-1.5588224569903772,-0.0,-0.005123229697346687,0.7342209219932556,-0.0,0.013757922686636448,0.7744995951652527,0.0,0.04179869592189789
327.0,316.0,5.6429,0.0215,7.4501,-0.0379,0.0269,-0.1158,-1.6559421024718226,0.0,2.4427385330200195,-1.1385493278503418,-0.0,2.1000537872314453,3.6555582719990234,0.0,0.2895585298538208,-1.5588305632220667,-0.0,-0.001892137574031949,0.7342292070388794,-0.0,-7.68592581152916e-05,0.7745360732078552,0.0,-0.00529487244784832
327.0,316.0,5.6429,0.0215,7.4501,-0.0379,0.0269,-0.1158,-1.6559096775450648,0.0,2.4460792541503906,-1.1385498046875,-0.0,2.0607290267944336,3.655566378230713,0.0,0.28758400678634644,-1.5588462988482874,-0.0,-0.016496717929840088,0.7342374324798584,-0.0,-0.0022914265282452106,0.7745401859283447,0.0,0.01687520183622837
327.0,316.0,5.6429,0.0215,7.4501,-0.0379,0.0269,-0.1158,-1.6559015713133753,0.0,2.4539361000061035,-1.1385172605514526,-0.0,2.073887586593628,3.65560690938916,0.0,0.2836197018623352,-1.5588186422931116,-0.0,-0.01857205294072628,0.7342414259910583,-0.0,-0.00841110572218895,0.774479329586029,0.0,0.0019026538357138634
327.0,316.0,5.6429,0.0215,7.4501,-0.0379,0.0269,-0.1158,-1.6559134922423304,0.0,2.421703577041626,-1.1385575532913208,-0.0,2.064481496810913,3.655594511623047,0.0,0.2836379110813141,-1.5588138739215296,-0.0,-0.00036650802940130234,0.7342612147331238,-0.0,-0.01651100441813469,0.7745439410209656,0.0,-0.013350844383239746
327.0,316.0,5.6429,0.0215,7.4501,-0.0379,0.0269,-0.1158,-1.6559134922423304,0.0,2.4485511779785156,-1.1385374069213867,-0.0,2.138338327407837,3.655562563533447,0.0,0.2847503423690796,-1.5588424841510218,-0.0,-0.010265916585922241,0.7343020439147949,-0.0,-0.0003054057597182691,0.7745157480239868,0.0,-0.035652726888656616
327.0,316.0,5.6429,0.0215,7.4501,-0.0379,0.0269,-0.1158,-1.6559463940062464,0.0,2.4403762817382812,-1.1385736465454102,-0.0,2.0457046031951904,3.655566855067871,0.0,0.27449166774749756,-1.5587981382953089,-0.0,-0.0034652291797101498,0.7342131733894348,-0.0,-0.004828234203159809,0.7744954824447632,0.0,0.014895439147949219
327.0,316.0,5.6429,0.0215,7.4501,-0.0379,0.0269,-0.1158,-1.6559177837767542,0.0,2.4382901191711426,-1.1385776996612549,-0.0,2.0503029823303223,3.6556388574787597,0.0,0.28053349256515503,-1.558838192616598,-0.0,0.007873804308474064,0.7342938780784607,-0.0,-0.013548402115702629,0.7744992971420288,0.0,0.007121838629245758
327.0,316.0,5.6429,0.0215,7.4501,-0.0379,0.0269,-0.1158,-1.6559134922423304,0.0,2.4192416667938232,-1.1385090351104736,-0.0,2.088785171508789,3.655554934138916,0.0,0.27818629145622253,-1.5587981382953089,-0.0,-0.0016300753923133016,0.7342857718467712,-0.0,-0.004616579040884972,0.7745398283004761,0.0,0.01651833951473236
327.0,316.0,5.6429,0.0215,7.4501,-0.0379,0.0269,-0.1158,-1.6559258900084437,0.0,2.4801900386810303,-1.1385653018951416,-0.0,2.0889060497283936,3.6555864053913574,0.0,0.2873425781726837,-1.5588505903827112,-0.0,-0.012736940756440163,0.7342414259910583,-0.0,-0.018766380846500397,0.7745239734649658,0.0,-0.025062190368771553
327.0,316.0,5.6429,0.0215,7.4501,-0.0379,0.0269,-0.1158,-1.6559258900084437,0.0,2.4304404258728027,-1.1385172605514526,-0.0,2.0968680381774902,3.655590696925781,0.0,0.2845817804336548,-1.558821980153219,-0.0,-0.012270236387848854,0.7342578768730164,-0.0,0.005238205660134554,0.7745198607444763,0.0,-0.04852907359600067
327.0,316.0,5.6429,0.0215,7.4501,-0.0379,0.0269,-0.1158,-1.6559096775450648,0.0,2.4129199981689453,-1.1385048627853394,-0.0,2.0935349464416504,3.655562563533447,0.0,0.28411123156547546,-1.5588062445269983,-0.0,-0.011983686126768589,0.734281599521637,-0.0,-0.01787523739039898,0.7745075225830078,0.0,0.01271813828498125
327.0,316.0,5.6429,0.0215,7.4501,-0.0379,0.0269,-0.1158,-1.6559134922423304,0.0,2.4659535884857178,-1.1385493278503418,-0.0,2.086249828338623,3.655578299159668,0.0,0.2819933593273163,-1.5588305632220667,-0.0,-0.010012170299887657,0.7341811656951904,-0.0,0.010603141039609909,0.7744913697242737,0.0,0.030202973634004593
327.0,316.0,5.6429,0.0215,7.4501,-0.0379,0.0269,-0.1158,-1.6559540234007777,0.0,2.422964096069336,-1.1385210752487183,-0.0,2.0272538661956787,3.6555988031574707,0.0,0.27953314781188965,-1.5588305632220667,-0.0,0.008647364564239979,0.7342495918273926,-0.0,0.007788390852510929,0.7745198607444763,0.0,-0.011347477324306965
327.0,316.0,5.6429,0.0215,7.4501,-0.0379,0.0269,-0.1158,-1.6559177837767542,0.0,2.4110569953918457,-1.1385374069213867,-0.0,2.0694098472595215,3.655566378230713,0.0,0.2740238904953003,-1.558826748524801,-0.0,-0.005620150826871395,0.7342615127563477,-0.0,-0.010303840972483158,0.7744674682617188,0.0,0.013863248750567436
313.0,307.0,5.8941,0.131,7.2024,-0.0405,0.022,-0.1158,-1.6558815441527308,0.0,2.449711799621582,-1.1385048627853394,-0.0,2.05668306350708,3.6556193071552734,0.0,0.2746197283267975,-1.558866326008932,-0.0,-0.0025516143068671227,0.734273374080658,-0.0,-0.008600186556577682,0.7744633555412292,0.0,0.023140976205468178
313.0,307.0,5.8941,0.131,7.2024,-0.0405,0.022,-0.1158,-1.655954500237936,0.0,2.415402889251709,-1.1385337114334106,-0.0,2.0484533309936523,3.655538244838379,0.0,0.2809833586215973,-1.5588386694537562,-0.0,-0.011990446597337723,0.7342250943183899,-0.0,-0.013525225222110748,0.7745075225830078,0.0,0.0013730833306908607
313.0,307.0,5.8941,0.131,7.2024,-0.0405,0.022,-0.1158,-1.6559821567931117,0.0,2.4799256324768066,-1.1385575532913208,-0.0,2.0446910858154297,3.65560690938916,0.0,0.2728145122528076,-1.5588424841510218,-0.0,-0.007590936962515116,0.7342537641525269,-0.0,-0.004123249091207981,0.7744954824447632,0.0,0.01111423596739769
313.0,307.0,5.8941,0.131,7.2024,-0.0405,0.022,-0.1158,-1.6559463940062464,0.0,2.4417011737823486,-1.1385694742202759,-0.0,2.081547260284424,3.655590696925781,0.0,0.2691936194896698,-1.5588305632220667,-0.0,-0.007946922443807125,0.7342292070388794,-0.0,-0.011427070014178753,0.7744715213775635,0.0,-0.05236147716641426
313.0,307.0,5.8941,0.131,7.2024,-0.0405,0.022,-0.1158,-1.6559421024718226,0.0,2.475127935409546,-1.1385530233383179,-0.0,2.068988800048828,3.6556193071552734,0.0,0.27937400341033936,-1.5588138739215296,-0.0,-0.005222258158028126,0.734285831451416,-0.0,0.00867263413965702,0.7745357155799866,0.0,0.029463009908795357
313.0,307.0,5.8941,0.131,7.2024,-0.0405,0.022,-0.1158,-1.655905386010641,0.0,2.390075206756592,-1.1385612487792969,-0.0,2.084808111190796,3.6555701929279785,0.0,0.27008143067359924,-1.5588343779193323,-0.0,-0.016032734885811806,0.7342656254768372,-0.0,-0.0029828506521880627,0.7745277881622314,0.0,-0.015600427985191345
313.0,307.0,5.8941,0.131,7.2024,-0.0405,0.022,-0.1158,-1.6559058628477992,0.0,2.4546403884887695,-1.1385291814804077,-0.0,2.088533878326416,3.6555825906940917,0.0,0.279293417930603,-1.558878246937887,-0.0,0.0021455667447298765,0.7342655658721924,-0.0,-0.005273468792438507,0.7745157480239868,0.0,-0.026461541652679443
313.0,307.0,5.8941,0.131,7.2024,-0.0405,0.022,-0.1158,-1.6559301815428675,0.0,2.389068365097046,-1.1386094093322754,-0.0,2.0675570964813232,3.65560690938916,0.0,0.28620776534080505,-1.5588305632220667,-0.0,-0.0038436679169535637,0.7342574596405029,-0.0,0.004374743904918432,0.7745116353034973,0.0,0.004459653049707413
313.0,307.0,5.8941,0.131,7.2024,-0.0405,0.022,-0.1158,-1.6559301815428675,0.0,2.4165749549865723,-1.1385772228240967,-0.0,2.073052167892456,3.65560690938916,0.0,0.2895311415195465,-1.5588462988482874,-0.0,-0.008942517451941967,0.7342495918273926,-0.0,-0.006646848749369383,0.774479329586029,0.0,-0.023169899359345436
313.0,307.0,5.8941,0.131,7.2024,-0.0405,0.022,-0.1158,-1.6559344730772914,0.0,2.3983192443847656,-1.1385008096694946,-0.0,2.0814976692199707,3.655578299159668,0.0,0.28835225105285645,-1.5588701407061976,-0.0,-0.008996360003948212,0.7342578768730164,-0.0,-0.016560843214392662,0.774531900882721,0.0,0.001648078323341906
313.0,307.0,5.8941,0.131,7.2024,-0.0405,0.022,-0.1158,-1.6558977566161097,0.0,2.4839026927948,-1.13849675655365,-0.0,2.075356960296631,3.655522509212158,0.0,0.2813957631587982,-1.5588386694537562,-0.0,-0.008222276344895363,0.7342775464057922,-0.0,-0.003556420560926199,0.7745036482810974,0.0,0.03691127151250839
313.0,307.0,5.8941,0.131,7.2024,-0.0405,0.022,-0.1158,-1.655910154382223,0.0,2.42315673828125,-1.1385254859924316,6.174240496648054e-08,2.0641796588897705,3.6555864053913574,0.0,0.2724270224571228,-1.5588343779193323,-0.0,-0.003513594623655081,0.7342172265052795,-0.0,-0.008121882565319538,0.7744995951652527,0.0,0.060612861067056656
313.0,307.0,5.8941,0.131,7.2024,-0.0405,0.022,-0.1158,-1.6558777294554652,1.1839760075127437e-11,2.4306764602661133,-1.1385653018951416,1.4910062117248768e-13,2.0792393684387207,3.6556150156208496,0.0,0.28373968601226807,-1.5588224569903772,-0.0,-0.0024847681634128094,0.7342574000358582,-0.0,-0.0017524322029203176,0.7745075225830078,0.0,-0.026441162452101707
313.0,307.0,5.8941,0.131,7.2024,-0.0405,0.022,-0.1158,-1.6558901272215785,2.859162360434851e-17,2.457153081893921,-1.1385533809661865,3.6006047615788105e-19,2.066950559616089,3.6555744844624023,0.0,0.27732688188552856,-1.5588825384723108,-0.0,-0.0067642852663993835,0.7343021035194397,-0.0,-0.00904546957463026,0.7745236754417419,0.0,0.032100677490234375
313.0,307.0,5.8941,0.131,7.2024,-0.0405,0.022,-0.1158,-1.655910154382223,6.90454041391546e-23,2.4535529613494873,-1.1385213136672974,8.695035917638139e-25,2.081120491027832,3.6555825906940917,0.0,0.2765364646911621,-1.5588062445269983,-0.0,-0.02079194039106369,0.7342296242713928,-0.0,-0.00031431764364242554,0.7745640873908997,0.0,-0.03389035910367966
323.0,300.0,6.0431,0.0927,7.0014,-0.029,0.0133,-0.1162,-1.6559421024718226,1.6673653030391212e-28,2.4764373302459717,-1.1384893655776978,2.0997488834501065e-30,2.0631208419799805,3.6555544573017578,0.0,0.27000051736831665,-1.5589025656329554,-0.0,-0.012623111717402935,0.7342374324798584,-0.0,-0.015062088146805763,0.7744831442832947,0.0,0.01921333186328411
323.0,300.0,6.0431,0.0927,7.0014,-0.029,0.0133,-0.1162,-1.6559378109373988,4.026491054026142e-34,2.407808303833008,-1.138545274734497,5.07064705655893e-36,2.037627696990967,3.6556150156208496,0.0,0.27858924865722656,-1.558810059224264,-0.0,-0.0063897958025336266,0.7342779636383057,-0.0,0.002081014681607485,0.7745075225830078,0.0,-0.003163349349051714
323.0,300.0,6.0431,0.0927,7.0014,-0.029,0.0133,-0.1162,-1.6559020481505335,9.72349794007276e-40,2.4250097274780273,-1.1385539770126343,1.2244545981270252e-41,2.0873477458953857,3.6556388574787597,0.0,0.277195543050766,-1.5588505903827112,-0.0,-0.01474921964108944,0.7342495322227478,-0.0,-0.010439382866024971,0.7745113968849182,0.0,-0.006297615356743336
323.0,300.0,6.0431,0.0927,7.0014,-0.029,0.0133,-0.1162,-1.6559702358641566,2.802596928649634e-45,2.42221736907959,-1.1385374069213867,0.0,2.064228057861328,3.655578299159668,0.0,0.2727498412132263,-1.5588625113116663,-0.0,-0.020131926983594894,0.7343095541000366,-0.0,-0.015999604016542435,0.7745192646980286,0.0,-0.0036233069840818644
323.0,300.0,6.0431,0.0927,7.0014,-0.029,0.0133,-0.1162,-1.6559497318663539,-6.682880484731868e-05,2.4812228679656982,-1.1386339664459229,6.816570135015354e-07,2.0355682373046875,3.6556269365498046,0.0,0.2748604714870453,-1.5588424841510218,-0.0,-0.005218107253313065,0.7342214584350586,-0.0,-0.008800853043794632,0.7745357155799866,0.0,-0.020016146823763847
323.0,300.0,6.0431,0.0927,7.0014,-0.029,0.0133,-0.1162,-1.6559459171690882,-9.974779095500708e-05,2.439404010772705,-1.1385772228240967,-6.480043521150947e-05,2.0424671173095703,3.655526323909424,0.0,0.282775342464447,-1.5588462988482874,-0.0,-0.013253258541226387,0.7342454791069031,-0.0,-0.008164891973137856,0.7744872570037842,0.0,-0.001623346470296383
323.0,300.0,6.0431,0.0927,7.0014,-0.029,0.0133,-0.1162,-1.6559978924193324,-0.0001211963826790452,2.4358596801757812,-1.1385653018951416,-7.769327203277498e-05,2.1345605850219727,3.655562563533447,0.0,0.2697896361351013,-1.5588143507586878,-0.0,-0.011750204488635063,0.7342373132705688,-0.0,-0.008343181572854519,0.7744992971420288,0.0,-0.011274310760200024
323.0,300.0,6.0431,0.0927,7.0014,-0.029,0.0133,-0.1162,-1.655961652795309,-0.0004633289354387671,2.4649248123168945,-1.1385653018951416,-7.993430335773155e-05,2.0517995357513428,3.6555864053913574,0.0,0.28968557715415955,-1.5588224569903772,-0.0,-0.013657158240675926,0.7342738509178162,-0.0,-0.00941441673785448,0.7745154500007629,0.0,-0.017421379685401917
323.0,300.0,6.0431,0.0927,7.0014,-0.029,0.0133,-0.1162,-1.6559940777220667,-0.0005413090111687779,2.444408416748047,-1.138556718826294,-0.00011815986363217235,2.0538718700408936,3.65560690938916,0.0,0.2810904383659363,-1.558826748524801,-0.0,-0.01458660140633583,0.7342496514320374,-0.0,-0.005237168166786432,0.7745154500007629,0.0,-0.008716331794857979
323.0,300.0,6.0431,0.0927,7.0014,-0.029,0.0133,-0.1162,-1.6560222111144007,-0.0009227535338141024,2.4468767642974854,-1.1385855674743652,-0.00028223349363543093,2.0649120807647705,3.655554934138916,4.1606611489442e-09,0.2940245270729065,-1.5588505903827112,-0.0,-0.015541397966444492,0.7342414855957031,-0.0,-0.009011621586978436,0.7744872570037842,0.0,-0.055321358144283295
323.0,300.0,6.0431,0.0927,7.0014,-0.029,0.0133,-0.1162,-1.6560141048827113,-0.0012020610738545656,2.422224998474121,-1.1385772228240967,-0.0003637688350863755,2.091539144515991,3.655566855067871,1.1581354365103325e-12,0.28524255752563477,-1.5587781111346644,-0.0,-0.0016629232559353113,0.7342454791069031,-0.0,-0.0046770921908319,0.7745072245597839,0.0,-0.009535225108265877
323.0,300.0,6.0431,0.0927,7.0014,-0.029,0.0133,-0.1162,-1.6561061344542445,-0.002228538040071726,2.419790744781494,-1.1386052370071411,-0.0007977994391694665,2.043459177017212,3.6555425363728027,3.223712900136689e-16,0.28337937593460083,-1.5588019529925745,-0.0,-0.016209876164793968,0.7342979311943054,-0.0,0.006335306912660599,0.7745558619499207,0.0,0.01676424965262413
323.0,300.0,6.0431,0.0927,7.0014,-0.029,0.0133,-0.1162,-1.6560937366881312,-0.0042229024693369865,2.4553849697113037,-1.1386085748672485,-0.0010497673647478223,2.0419623851776123,3.6555024820515136,8.973322493400014e-20,0.28268158435821533,-1.5588138739215296,-0.0,-0.017210733145475388,0.7342250943183899,-0.0,0.001974152633920312,0.7745154500007629,0.0,0.00021073967218399048
323.0,300.0,6.0431,0.0927,7.0014,-0.029,0.0133,-0.1162,-1.6561657390990199,-0.00719992071390152,2.4104552268981934,-1.138641119003296,-0.0010178659576922655,2.0608022212982178,3.65549819051709,2.497757504654625e-23,0.28135061264038086,-1.5588181654559534,-0.0,-0.011152791790664196,0.7342615127563477,-0.0,-0.016230478882789612,0.7745195627212524,0.0,-0.012094173580408096
316.0,307.0,5.5035,0.0491,7.2861,-0.0293,0.011,-0.1213,-1.6562134228148402,-0.011616209521889687,2.4217636585235596,-1.1386492252349854,-0.0010089559946209192,2.063005208969116,3.655566855067871,6.952600165890122e-27,0.28633207082748413,-1.558810059224264,-0.0,-0.02398824132978916,0.7342213988304138,-0.0,-0.0037883520126342773,0.7745316028594971,0.0,0.010894888080656528
316.0,307.0,5.5035,0.0491,7.2861,-0.0293,0.011,-0.1213,-1.6563221416869105,-0.01305228192359209,2.399841070175171,-1.1386451721191406,-0.001163181266747415,2.070708751678467,3.65549819051709,1.935281989363282e-30,0.27123937010765076,-1.558810059224264,-0.0,-0.003122253343462944,0.7342938780784607,-0.0,-0.0055913254618644714,0.7745398283004761,0.0,0.015868116170167923
316.0,307.0,5.5035,0.0491,7.2861,-0.0293,0.011,-0.1213,-1.6563855610289515,-0.011828321032226086,2.442471504211426,-1.1386648416519165,-0.0014789396664127707,2.0711874961853027,3.6555229860493164,5.386929237141162e-34,0.28530922532081604,-1.5588262716876429,-0.0,-0.010987907648086548,0.7341770529747009,-0.0,-0.007873292081058025,0.7745357155799866,0.0,0.015259027481079102
316.0,307.0,5.5035,0.0491,7.2861,-0.0293,0.011,-0.1213,-1.6565214596190394,-0.012538530863821507,2.41752552986145,-1.1386809349060059,-0.0034740190021693707,2.053804397583008,3.6555868822285156,1.4994717531772566e-37,0.2904970943927765,-1.558821980153219,-0.0,-0.01590777188539505,0.7342779636383057,-0.0,-0.005937975365668535,0.7745277881622314,0.0,-0.03657685965299606
316.0,307.0,5.5035,0.0491,7.2861,-0.0293,0.011,-0.1213,-1.6565729580321253,-0.01541981566697359,2.3847544193267822,-1.1387699842453003,-0.005585017614066601,2.0843324661254883,3.655538721675537,4.1737674759914676e-41,0.2914040684700012,-1.558810059224264,-0.0,-0.018965616822242737,0.7342374324798584,-0.0,0.0076582408510148525,0.7744992971420288,0.0,0.011340620927512646
316.0,307.0,5.5035,0.0491,7.2861,-0.0293,0.011,-0.1213,-1.6567288837828578,-0.01886901818215847,2.4249396324157715,-1.1387245655059814,-0.007098127156496048,2.0717039108276367,3.6555229860493164,1.1210387714598537e-44,0.28690892457962036,-1.5588424841510218,-0.0,-0.019001401960849762,0.7342659831047058,-0.0,-0.008146402426064014,0.7745440006256104,0.0,-0.037339501082897186
316.0,307.0,5.5035,0.0491,7.2861,-0.0293,0.011,-0.1213,-1.6568929157652796,-0.02242378517985344,2.4228358268737793,-1.1388208866119385,-0.00537066301330924,2.0441911220550537,3.6555630403706054,0.0,0.2835490107536316,-1.5588062445269983,-0.0,-0.020427167415618896,0.7342296242713928,-0.0,-0.008940933272242546,0.7745116353034973,0.0,-0.008433754555881023
316.0,307.0,5.5035,0.0491,7.2861,-0.0293,0.011,-0.1213,-1.656996866265768,-0.025701003149151802,2.3982574939727783,-1.138801097869873,-0.0027889609336853027,2.0675909519195557,3.655526323909424,0.0,0.2822791635990143,-1.5587785879718226,-0.0,-0.02767077647149563,0.7342172265052795,-0.0,-0.004184123128652573,0.7744995951652527,0.0,-0.014240837655961514
316.0,307.0,5.5035,0.0491,7.2861,-0.0293,0.011,-0.1213,-1.6571728191771449,-0.028402311727404594,2.4271204471588135,-1.1387804746627808,-0.0013065189123153687,2.096315860748291,3.6554905611225585,0.0,0.30093610286712646,-1.5588386694537562,-0.0,-0.02111085131764412,0.734205424785614,-0.0,-0.02010340988636017,0.7744633555412292,0.0,-0.019117914140224457
316.0,307.0,5.5035,0.0491,7.2861,-0.0293,0.011,-0.1213,-1.6573645077147425,-0.032767266035079956,2.4123802185058594,-1.1388249397277832,-0.00013948872219771147,2.0604116916656494,3.655554934138916,0.0,0.28785812854766846,-1.5588062445269983,-0.0,-0.02200913429260254,0.7342414259910583,-0.0,-0.013087189756333828,0.7744995951652527,0.0,-0.02432084083557129
316.0,307.0,5.5035,0.0491,7.2861,-0.0293,0.011,-0.1213,-1.6576692066588343,-0.03926222771406174,2.4310197830200195,-1.1388052701950073,-8.523219003109261e-05,2.0804193019866943,3.6555511194416503,0.0,0.29653581976890564,-1.5588305632220667,-0.0,-0.0455632209777832,0.7342292070388794,-0.0,-0.028020165860652924,0.7745360136032104,0.0,0.02249254658818245
316.0,307.0,5.5035,0.0491,7.2861,-0.0293,0.011,-0.1213,-1.6578837833800257,-0.04532017558813095,2.3660593032836914,-1.1388249397277832,-6.636926264036447e-05,2.106995105743408,3.655522032375,0.0,0.29599761962890625,-1.558810059224264,-0.0,-0.02951180934906006,0.7342374324798584,-0.0,-0.00748379435390234,0.7744834423065186,0.0,0.03704294562339783
316.0,307.0,5.5035,0.0491,7.2861,-0.0293,0.011,-0.1213,-1.6582046947874964,-0.052036918699741364,2.3588223457336426,-1.1388052701950073,-5.434440026874654e-05,2.0829360485076904,3.655554934138916,0.0,0.29852819442749023,-1.5588343779193323,-0.0,-0.032695770263671875,0.734281599521637,-0.0,-0.00024387624580413103,0.7744872570037842,0.0,0.03217432647943497
316.0,307.0,5.5035,0.0491,7.2861,-0.0293,0.011,-0.1213,-1.6584636173644007,-0.0576179102063179,2.4467344284057617,-1.1387728452682495,-2.2438051416884264e-07,2.0673093795776367,3.655510588283203,0.0,0.2993169128894806,-1.5587824026690882,-0.0,-0.03341883048415184,0.7342656254768372,-0.0,0.004015064798295498,0.7745277881622314,0.0,0.04270942509174347
316.0,307.0,5.5035,0.0491,7.2861,-0.0293,0.011,-0.1213,-1.6588674984373988,-0.06247791275382042,2.39670729637146,-1.1387887001037598,-5.418525328947099e-13,2.1295926570892334,3.655543013209961,0.0,0.29164451360702515,-1.5588143507586878,-0.0,-0.03164369985461235,0.7342537641525269,-0.0,-0.009730575606226921,0.7745036482810974,0.0,0.039354950189590454
323.0,306.0,4.9418,-0.3745,7.2682,-0.0623,0.0299,-0.1182,-1.6592589817442835,-0.06970258057117462,2.4276485443115234,-1.1387888193130493,-1.3085100833600043e-18,2.0935826301574707,3.6555587488361816,0.0,0.29304787516593933,-1.5587981382953089,-0.0,-0.02244679257273674,0.7342692613601685,-0.0,-0.0019113828893750906,0.7745158076286316,0.0,0.03943977504968643
323.0,306.0,4.9418,-0.3745,7.2682,-0.0623,0.0299,-0.1182,-1.6597186527647914,-0.0772724524140358,2.418644428253174,-1.1387970447540283,-3.1598983184158303e-24,2.081810712814331,3.6555344301411132,0.0,0.2991432547569275,-1.558810059224264,-0.0,-0.039729099720716476,0.7342779636383057,-0.0,-0.007242455612868071,0.7744715213775635,0.0,0.0009521625470370054
323.0,306.0,4.9418,-0.3745,7.2682,-0.0623,0.0299,-0.1182,-1.6602236233153285,-0.0845264196395874,2.349341630935669,-1.1388176679611206,-7.630781199436353e-30,2.0630602836608887,3.655543013209961,0.0,0.2949618697166443,-1.5588424841510218,-0.0,-0.03486635535955429,0.7342532277107239,-0.0,-0.004617295227944851,0.774479329586029,0.0,-0.007336569018661976
323.0,306.0,4.9418,-0.3745,7.2682,-0.0623,0.0299,-0.1182,-1.6607257328429164,-0.09158632159233093,2.3049850463867188,-1.1388249397277832,-1.8427438022433297e-35,2.0936784744262695,3.6555182176777343,0.0,0.29954662919044495,-1.5587742964373987,-0.0,-0.033190708607435226,0.7342857718467712,-0.0,-0.014672284945845604,0.7745034098625183,0.0,-0.008010976016521454
323.0,306.0,4.9418,-0.3745,7.2682,-0.0623,0.0299,-0.1182,-1.661332746545309,-0.08841448277235031,2.3595330715179443,-1.1388134956359863,-4.449963403309889e-41,2.09368896484375,3.6555587488361816,0.0,0.2910330593585968,-1.5588544050799769,-0.0,-0.034513168036937714,0.7342169284820557,-0.0,-0.009769696742296219,0.7745318412780762,0.0,-0.0037492914125323296
323.0,306.0,4.9418,-0.3745,7.2682,-0.0623,0.0299,-0.1182,-1.6618319950499476,-0.08323981612920761,2.377720355987549,-1.1388936042785645,4.934405296808109e-05,2.0688467025756836,3.655554934138916,0.0,0.303530752658844,-1.55884296098818,-0.0,-0.030760863795876503,0.7342615127563477,-0.0,-0.01504623331129551,0.7744954824447632,0.0,0.025289729237556458
323.0,306.0,4.9418,-0.3745,7.2682,-0.0623,0.0299,-0.1182,-1.6623650989928187,-0.08286133408546448,2.325489044189453,-1.138776421546936,-0.00021595298312604427,2.0646185874938965,3.6554905611225585,0.0,0.29710304737091064,-1.5588024298297327,-0.0,-0.015656976029276848,0.7342574000358582,-0.0,-0.01306711882352829,0.7745116353034973,0.0,0.048284862190485
323.0,306.0,4.9418,-0.3745,7.2682,-0.0623,0.0299,-0.1182,-1.6629368267455042,-0.08944670110940933,2.440122365951538,-1.1389254331588745,-0.002408436266705394,2.1129961013793945,3.655531092281006,0.0,0.3048948645591736,-1.558821980153219,-0.0,-0.034776471555233,0.7342332601547241,-0.0,-0.001001895172521472,0.7745034098625183,0.0,0.016861790791153908
323.0,306.0,4.9418,-0.3745,7.2682,-0.0623,0.0299,-0.1182,-1.6634465656676234,-0.10136643052101135,2.4174675941467285,-1.1388850212097168,-0.00482360040768981,2.0752758979797363,3.6555425363728027,-1.2125937246310059e-05,0.29227495193481445,-1.5588343779193323,-0.0,-0.028726868331432343,0.7342251539230347,-0.0,-0.004160306416451931,0.7745034098625183,0.0,-0.042895615100860596
323.0,306.0,4.9418,-0.3745,7.2682,-0.0623,0.0299,-0.1182,-1.6640459499754847,-0.11473148316144943,2.3722219467163086,-1.138900637626648,-0.003638902213424444,2.1122379302978516,3.6555473047443847,-1.1650495252979454e-05,0.31001290678977966,-1.558821980153219,-0.0,-0.023733720183372498,0.7342652678489685,-0.0,0.0015417063841596246,0.7745277285575867,0.0,-0.006470957305282354
323.0,306.0,4.9418,-0.3745,7.2682,-0.0623,0.0299,-0.1182,-1.6647373638548792,-0.12170083820819855,2.415773391723633,-1.1389409303665161,-0.0010770182125270367,2.0592775344848633,3.6555229860493164,-1.1214968253625557e-05,0.29998692870140076,-1.5588181654559534,-0.0,-0.03639545664191246,0.7343102097511292,-0.0,-0.002327586291357875,0.7744875550270081,0.0,-0.017364665865898132
323.0,306.0,4.9418,-0.3745,7.2682,-0.0623,0.0299,-0.1182,-1.6656457386412562,-0.12142915278673172,2.407336950302124,-1.1388323307037354,0.0024136037100106478,2.125431776046753,3.655583544368408,-1.1992765003299155e-08,0.308184951543808,-1.5588462988482874,-0.0,-0.0388525128364563,0.7342938184738159,-0.0,-0.020517997443675995,0.7744995951652527,0.0,0.04896117001771927
323.0,306.0,4.9418,-0.3745,7.2682,-0.0623,0.0299,-0.1182,-1.6664320431151332,-0.11987077444791794,2.4164090156555176,-1.1388771533966064,0.0018268295098096132,2.1000356674194336,3.655554934138916,-3.338230082985949e-12,0.3036348819732666,-1.5588305632220667,-0.0,-0.021673627197742462,0.7342857718467712,-0.0,0.0018790075555443764,0.7744913697242737,0.0,-0.03149617835879326
323.0,306.0,4.9418,-0.3745,7.2682,-0.0623,0.0299,-0.1182,-1.6670953236021937,-0.11789014935493469,2.405625343322754,-1.1388850212097168,0.0006625298992730677,2.0887274742126465,3.6555587488361816,-9.292084839068867e-16,0.30324968695640564,-1.5587905089007776,-0.0,-0.03679226338863373,0.7343054413795471,-0.0,-0.0007823676569387317,0.7744995355606079,0.0,0.06429649889469147
317.0,325.0,6.3924,0.3607,6.4493,-0.0261,-0.0504,-0.1271,-1.667863508264059,-0.11920555680990219,2.417393207550049,-1.138880968093872,-0.0006118465098552406,2.0611014366149902,3.6555425363728027,-2.586485724985803e-19,0.29943427443504333,-1.5588143507586878,-0.0,-0.029194887727499008,0.7342532873153687,-0.0,-0.026595545932650566,0.7745195627212524,0.0,0.02838362194597721
317.0,325.0,6.3924,0.3607,6.4493,-0.0261,-0.0504,-0.1271,-1.6686293087401332,-0.12959593534469604,2.408795118331909,-1.1389492750167847,-0.002166211372241378,2.1385087966918945,3.6555468279072265,-7.199579441177912e-23,0.3014986515045166,-1.5588143507586878,-0.0,-0.01731991581618786,0.7342697381973267,-0.0,-0.014807859435677528,0.7744992971420288,0.0,0.03319660201668739
317.0,325.0,6.3924,0.3607,6.4493,-0.0261,-0.0504,-0.1271,-1.6694642506041468,-0.14161312580108643,2.4213502407073975,-1.138953447341919,-0.0018688003765419126,2.115903854370117,3.6555468279072265,-2.0040293310456537e-26,0.3092816472053528,-1.5588143507586878,-0.0,-0.03465057909488678,0.7342972755432129,-0.0,-0.019226644188165665,0.7745116353034973,0.0,-0.009127091616392136
317.0,325.0,6.3924,0.3607,6.4493,-0.0261,-0.0504,-0.1271,-1.6702591381468714,-0.1510271579027176,2.3543591499328613,-1.138925313949585,-0.000863684865180403,2.1346333026885986,3.655578775996826,-5.578289069680264e-30,0.29932701587677,-1.5587943235980433,-0.0,-0.03146743029356003,0.7342414855957031,-0.0,-0.006593750324100256,0.7744954824447632,0.0,-0.008913552388548851
317.0,325.0,6.3924,0.3607,6.4493,-0.0261,-0.0504,-0.1271,-1.6711064777769984,-0.15694276988506317,2.4133553504943848,-1.1389658451080322,0.0002766071120277047,2.1069695949554443,3.6555511194416503,-1.5527371202950454e-33,0.3060574531555176,-1.5587900320636194,-0.0,-0.025480281561613083,0.7342170476913452,-0.0,-0.005293002352118492,0.7744992971420288,0.0,0.054293304681777954
317.0,325.0,6.3924,0.3607,6.4493,-0.0261,-0.0504,-0.1271,-1.672006746331686,-0.14953972399234772,2.379516124725342,-1.1389491558074951,0.0005125172319822013,2.0692858695983887,3.6555706697651367,-4.322100859945738e-37,0.2932797372341156,-1.5588143507586878,-0.0,-0.03279810771346092,0.7342332601547241,-0.0,-0.013597038574516773,0.7745075225830078,0.0,0.029315296560525894
317.0,325.0,6.3924,0.3607,6.4493,-0.0261,-0.0504,-0.1271,-1.6729151211180628,-0.14431196451187134,2.404456853866577,-1.1388366222381592,0.0009457846754230559,2.0836126804351807,3.6555825906940917,-1.2030707835614284e-40,0.3041990399360657,-1.5588343779193323,-0.0,-0.02858671545982361,0.7342574596405029,-0.0,-0.00913042388856411,0.7744954824447632,0.0,0.022111468017101288
317.0,325.0,6.3924,0.3607,6.4493,-0.0261,-0.0504,-0.1271,-1.6737939320006312,-0.1431208699941635,2.449502468109131,-1.1388529539108276,0.0003380939888302237,2.066279411315918,3.6555306154438476,-3.363116314379561e-44,0.3049144744873047,-1.5587862173663538,-0.0,-0.0306123998016119,0.7342053651809692,-0.0,-0.00449796486645937,0.7745475769042969,0.0,-0.021236952394247055
317.0,325.0,6.3924,0.3607,6.4493,-0.0261,-0.0504,-0.1271,-1.674668928185934,-0.1457219123840332,2.3788726329803467,-1.138925313949585,5.258579562905652e-07,2.118806838989258,3.6555468279072265,-0.0,0.2972782552242279,-1.5587862173663538,-0.0,-0.022952325642108917,0.7342656254768372,-0.0,-0.008404267020523548,0.7745277881622314,0.0,0.01956906169652939
317.0,325.0,6.3924,0.3607,6.4493,-0.0261,-0.0504,-0.1271,-1.675540109673971,-0.14929306507110596,2.4083054065704346,-1.1388850212097168,1.2698850217901514e-12,2.0929620265960693,3.6555544573017578,-0.0,0.2861293852329254,-1.5587905089007776,-0.0,-0.01785954087972641,0.7342252135276794,-0.0,-0.0018433795776218176,0.7744669914245605,0.0,0.018100988119840622
317.0,325.0,6.3924,0.3607,6.4493,-0.0261,-0.0504,-0.1271,-1.6764069996275843,-0.15033262968063354,2.4315121173858643,-1.1389130353927612,3.0666230217349374e-18,2.1085104942321777,3.6555825906940917,-0.0,0.28284934163093567,-1.5587905089007776,-0.0,-0.04037650674581528,0.7342131733894348,-0.0,-0.0003775721415877342,0.7745357155799866,0.0,0.02066572941839695
317.0,325.0,6.3924,0.3607,6.4493,-0.0261,-0.0504,-0.1271,-1.6772734127440394,-0.14974543452262878,2.433429479598999,-1.1388767957687378,7.405534299679927e-24,2.072017192840576,3.6555463510700683,-0.0,0.291351854801178,-1.5588143507586878,-0.0,-0.02906263992190361,0.7342493534088135,-0.0,-0.00794285163283348,0.7745195627212524,0.0,0.09234076738357544
317.0,325.0,6.3924,0.3607,6.4493,-0.0261,-0.0504,-0.1271,-1.6781078777708949,-0.15306273102760315,2.450596809387207,-1.1388767957687378,1.7883496341771646e-29,2.068790912628174,3.65560690938916,-0.0,0.2880078852176666,-1.5588181654559534,-0.0,-0.018311122432351112,0.7343055009841919,-0.0,-0.011802561581134796,0.7744629383087158,0.0,-0.014247089624404907
317.0,325.0,6.3924,0.3607,6.4493,-0.0261,-0.0504,-0.1271,-1.679075380364889,-0.15790273249149323,2.4344849586486816,-1.1388731002807617,0.00011109621846117079,2.112534999847412,3.6556150156208496,-0.0,0.2922293543815613,-1.5588424841510218,-0.0,-0.03916122764348984,0.7342250943183899,-0.0,-0.007988529279828072,0.7745236754417419,0.0,-0.08221963793039322
317.0,325.0,6.3924,0.3607,6.4493,-0.0261,-0.0504,-0.1271,-1.6803461513915003,-0.1576322615146637,2.4196667671203613,-1.138880968093872,0.0011860420927405357,2.0904157161712646,3.655594511623047,0.00014457774523179978,0.29276061058044434,-1.5587981382953089,-0.0,-0.0211300328373909,0.7342697381973267,-0.0,-0.0076906392350792885,0.7744913697242737,0.0,0.00230040424503386
308.0,284.0,6.3739,-0.7268,6.862,-0.0391,-0.2236,-0.0941,-1.681288858453268,-0.15645936131477356,2.370713949203491,-1.1388813257217407,0.0011418636422604322,2.11436128616333,3.65560690938916,0.0010227835737168789,0.29538291692733765,-1.5588062445269983,-0.0,-0.030824799090623856,0.7342734336853027,-0.0,-0.012759512290358543,0.7745357155799866,0.0,-0.036885619163513184
308.0,284.0,6.3739,-0.7268,6.862,-0.0391,-0.2236,-0.0941,-1.6822358570494593,-0.15122510492801666,2.4680967330932617,-1.1388932466506958,0.000567690352909267,2.115187644958496,3.655635042781494,0.0021366109140217304,0.29131656885147095,-1.558821980153219,-0.0,-0.03011954575777054,0.7342092394828796,-0.0,-0.007156213745474815,0.7745195627212524,0.0,-0.01003162283450365
308.0,284.0,6.3739,-0.7268,6.862,-0.0391,-0.2236,-0.0941,-1.6832195721068324,-0.15624026954174042,2.4680466651916504,-1.138981819152832,-0.00037996566970832646,2.089812755584717,3.655641718501709,0.007462738081812859,0.28825128078460693,-1.5587981382953089,-0.0,-0.037352319806814194,0.7342332601547241,-0.0,-0.01275598630309105,0.7744872570037842,0.0,-0.0004944717511534691
308.0,284.0,6.3739,-0.7268,6.862,-0.0391,-0.2236,-0.0941,-1.6842018566527308,-0.1684989184141159,2.4279513359069824,-1.1388405561447144,-0.0010950862197205424,2.0776543617248535,3.6557561594196777,0.024568811058998108,0.3032482862472534,-1.558810059224264,-0.0,-0.02982892096042633,0.7342615127563477,-0.0,-0.0006218277849256992,0.7745113968849182,0.0,-0.0021356986835598946
308.0,284.0,6.3739,-0.7268,6.862,-0.0391,-0.2236,-0.0941,-1.6853538952269496,-0.18820036947727203,2.4489362239837646,-1.1388890743255615,-0.0006893494282849133,2.0911736488342285,3.6557785707661132,0.016749495640397072,0.2926912307739258,-1.5587742964373987,-0.0,-0.022641057148575783,0.7342251539230347,-0.0,-0.006280397996306419,0.7745316028594971,0.0,0.026869576424360275
308.0,284.0,6.3739,-0.7268,6.862,-0.0391,-0.2236,-0.0941,-1.6865011654295863,-0.19660067558288574,2.438779592514038,-1.1388168334960938,0.0006046488997526467,2.091494560241699,3.6559483247944335,0.0076749324798583984,0.2954210937023163,-1.5588386694537562,-0.0,-0.02223898097872734,0.7342737913131714,-0.0,-0.023428892716765404,0.7745154500007629,0.0,0.018966078758239746
308.0,284.0,6.3739,-0.7268,6.862,-0.0391,-0.2236,-0.0941,-1.6876193485655726,-0.18547433614730835,2.4370999336242676,-1.1388052701950073,0.0026948293671011925,2.161881446838379,3.655918760890625,0.002144771860912442,0.29823821783065796,-1.5588386694537562,-0.0,-0.03215932846069336,0.7342574000358582,-0.0,-0.001266200328245759,0.774531900882721,0.00011401586380088702,0.017644276842474937
308.0,284.0,6.3739,-0.7268,6.862,-0.0391,-0.2236,-0.0941,-1.6887499294676722,-0.1747647225856781,2.468879222869873,-1.1388813257217407,0.002107972279191017,2.0839996337890625,3.655963106746338,0.000493815285153687,0.28542688488960266,-1.5587905089007776,-0.0,-0.019280139356851578,0.7342333197593689,-0.0,-0.008402818813920021,0.7745398283004761,9.591034904588014e-05,0.019355958327651024
308.0,284.0,6.3739,-0.7268,6.862,-0.0391,-0.2236,-0.0941,-1.6898566685118617,-0.17998376488685608,2.468336582183838,-1.138933539390564,0.0005142831359989941,2.1315970420837402,3.6559507089802246,0.0003230478905607015,0.29527467489242554,-1.558866326008932,-0.0,-0.037546999752521515,0.7342778444290161,-0.0,-0.020856276154518127,0.7745316028594971,0.00012396741658449173,0.038540590554475784
308.0,284.0,6.3739,-0.7268,6.862,-0.0391,-0.2236,-0.0941,-1.6910187206664027,-0.19509966671466827,2.451343297958374,-1.1388731002807617,-0.0026685914490371943,2.0865859985351562,3.655918760890625,0.000237619795370847,0.29480981826782227,-1.5588024298297327,-0.0,-0.03674215450882912,0.7342574596405029,-0.0,-0.008024893701076508,0.7745154500007629,0.00010901162022491917,0.02379753068089485
308.0,284.0,6.3739,-0.7268,6.862,-0.0391,-0.2236,-0.0941,-1.6922460995116175,-0.20878306031227112,2.4855875968933105,-1.1389451026916504,-0.0014650627272203565,2.1174566745758057,3.6559311586567382,-7.908643601695076e-05,0.30012989044189453,-1.5587981382953089,-0.0,-0.025069843977689743,0.7342209219932556,-0.0,-0.01665903441607952,0.7744749784469604,9.723380935611203e-05,0.005963170435279608
308.0,284.0,6.3739,-0.7268,6.862,-0.0391,-0.2236,-0.0941,-1.6935254536070765,-0.2045740932226181,2.4497132301330566,-1.1389051675796509,0.00032759434543550014,2.081514358520508,3.6559030252644042,-6.420951103791595e-05,0.28826549649238586,-1.5588424841510218,-0.0,-0.01952928863465786,0.7342574000358582,-0.0,-0.019706955179572105,0.774563729763031,8.775280730333179e-05,-0.002507563680410385
308.0,284.0,6.3739,-0.7268,6.862,-0.0391,-0.2236,-0.0941,-1.6947361431517542,-0.2005760669708252,2.4703807830810547,-1.1388932466506958,0.0005091000348329544,2.148554801940918,3.6559550005146484,-5.288463944452815e-05,0.29628363251686096,-1.5588386694537562,-0.0,-0.024425730109214783,0.7342979311943054,-0.0,-0.01596895605325699,0.7745398283004761,7.995669875526801e-05,0.02295053005218506
308.0,284.0,6.3739,-0.7268,6.862,-0.0391,-0.2236,-0.0941,-1.695913930932516,-0.2075417935848236,2.469421625137329,-1.1388529539108276,0.0002805573749355972,2.064210891723633,3.6559030252644042,-4.49566105089616e-05,0.2920580208301544,-1.5587824026690882,-0.0,-0.023924320936203003,0.7342692613601685,-0.0,-0.0016548752319067717,0.77457195520401,7.343276229221374e-05,-0.03087136521935463
294.0,276.0,4.8503,-0.3117,8.0794,-0.0605,-0.1213,-0.1211,-1.6972018680968226,-0.2139727920293808,2.465414047241211,-1.1388529539108276,9.549385868012905e-05,2.04962158203125,3.655923052425049,-3.9096114051062614e-05,0.2791358530521393,-1.5588062445269983,-0.0,-0.03147395700216293,0.7341853380203247,-0.0,-0.004924264270812273,0.7745398283004761,6.78931683069095e-05,-0.015750404447317123
294.0,276.0,4.8503,-0.3117,8.0794,-0.0605,-0.1213,-0.1211,-1.6988922558226527,-0.2116290181875229,2.470344305038452,-1.1388850212097168,0.00020105611474718899,2.133009910583496,3.6559430795856933,-3.330755862407386e-05,0.28766459226608276,-1.5588181654559534,-0.0,-0.017715394496917725,0.7342496514320374,-0.0,-0.010780463926494122,0.7745154500007629,-3.05303510685917e-05,0.010707082226872444
294.0,276.0,4.8503,-0.3117,8.0794,-0.0605,-0.1213,-0.1211,-1.7001220188536585,-0.2066289335489273,2.489367961883545,-1.1388850212097168,0.00016436392616014928,2.142336845397949,3.655935450191162,-2.9978642487549223e-05,0.3063429892063141,-1.5587981382953089,-0.0,-0.03298430144786835,0.7342537641525269,-0.0,-0.010536103509366512,0.7745357155799866,-2.7710853828466497e-05,0.03669814020395279
294.0,276.0,4.8503,-0.3117,8.0794,-0.0605,-0.1213,-0.1211,-1.7014490566649378,-0.20833517611026764,2.5234577655792236,-1.1389009952545166,0.00013897934695705771,2.1321473121643066,3.655946894282959,-8.344666291293379e-09,0.2889404296875,-1.5588386694537562,-0.0,-0.03231723606586456,0.734281599521637,-0.0,-0.015926029533147812,0.7745154500007629,-5.689763660221558e-10,0.020663226023316383
294.0,276.0,4.8503,-0.3117,8.0794,-0.0605,-0.1213,-0.1211,-1.7026716671385707,-0.21425160765647888,2.525482654571533,-1.1389174461364746,-0.0001049680940923281,2.104703664779663,3.6559225755878906,-2.3227684966403706e-12,0.29080846905708313,-1.5587981382953089,-0.0,-0.03445160761475563,0.7342090606689453,-0.0,-0.005860765930265188,0.7745677828788757,-1.3740108954985375e-15,-0.011264471337199211
294.0,276.0,4.8503,-0.3117,8.0794,-0.0605,-0.1213,-0.1211,-1.703982492486471,-0.2163759022951126,2.481048583984375,-1.138869047164917,-0.0001769788796082139,2.133718729019165,3.655890627498291,-6.465511541884033e-16,0.29261893033981323,-1.5588062445269983,-0.0,-0.020260795950889587,0.7342333197593689,-0.0,-0.008807934820652008,0.7744870781898499,-3.31807447828504e-21,-0.006012819241732359
294.0,276.0,4.8503,-0.3117,8.0794,-0.0605,-0.1213,-0.1211,-1.7052041492857875,-0.22006505727767944,2.51595139503479,-1.1388168334960938,-0.00011671693209791556,2.1058902740478516,3.655934973354004,-1.7996986681892123e-19,0.2939627766609192,-1.558821980153219,-0.0,-0.029577016830444336,0.7342495918273926,-0.0,-0.01033321488648653,0.7745277285575867,-8.012759118657186e-27,0.0243343748152256
294.0,276.0,4.8503,-0.3117,8.0794,-0.0605,-0.1213,-0.1211,-1.7064911327757777,-0.22380678355693817,2.506348133087158,-1.1388890743255615,-0.00015514185361098498,2.1223104000091553,3.6559387880512695,-5.009528334429596e-23,0.2991482615470886,-1.5587862173663538,-0.0,-0.015104556456208229,0.7342454791069031,-0.0,-0.00572346244007349,0.7744992971420288,-1.9349874222339093e-32,0.027728697285056114
294.0,276.0,4.8503,-0.3117,8.0794,-0.0605,-0.1213,-0.1211,-1.7078544102110804,-0.2223985493183136,2.5055391788482666,-1.1388932466506958,-0.0001232700451510027,2.12532901763916,3.655935450191162,-1.394420580575793e-26,0.2923215627670288,-1.5588181654559534,-0.0,-0.031957272440195084,0.7342177033424377,-0.0,-0.009620850905776024,0.7745116353034973,-4.672766215761528e-38,-0.039946265518665314
294.0,276.0,4.8503,-0.3117,8.0794,-0.0605,-0.1213,-0.1211,-1.7091442547240199,-0.21997399628162384,2.5248231887817383,-1.1388529539108276,-0.00010225765436189249,2.089735984802246,3.655891104335449,-3.881420656471662e-30,0.2945863604545593,-1.5587824026690882,-0.0,-0.021802255883812904,0.7342655658721924,-0.0,-0.009669836610555649,0.7745357155799866,-1.1350517561031018e-43,0.03839424252510071
294.0,276.0,4.8503,-0.3117,8.0794,-0.0605,-0.1213,-0.1211,-1.7104302845396937,-0.22542475163936615,2.4986958503723145,-1.138925313949585,-5.8731966419145465e-05,2.0995287895202637,3.6559550005146484,-1.0804076944293111e-33,0.2975492477416992,-1.5588181654559534,-0.0,-0.03356208652257919,0.7342169880867004,-0.0,-0.0027026180177927017,0.7744993567466736,0.0,0.007067708298563957
294.0,276.0,4.8503,-0.3117,8.0794,-0.0605,-0.1213,-0.1211,-1.711820741693014,-0.23046104609966278,2.4930105209350586,-1.138869047164917,-4.512232862907695e-06,2.134441614151001,3.655894919032715,-3.007354436049022e-37,0.3015526533126831,-1.5588062445269983,-0.0,-0.030906405299901962,0.7342697978019714,-0.0,-0.0037686913274228573,0.7745236754417419,0.0,-0.02844611369073391
294.0,276.0,4.8503,-0.3117,8.0794,-0.0605,-0.1213,-0.1211,-1.7132593593993128,-0.22579436004161835,2.545771837234497,-1.1387890577316284,-1.0896510256597214e-11,2.085606575012207,3.6559063631245117,-8.371076766183592e-41,0.2941405773162842,-1.5588586966144007,-0.0,-0.027239948511123657,0.7342049479484558,-0.0,0.002224307507276535,0.7745475769042969,0.0,0.03839303180575371
294.0,276.0,4.8503,-0.3117,8.0794,-0.0605,-0.1213,-0.1211,-1.7145396671690882,-0.2203477919101715,2.5776443481445312,-1.1388455629348755,-2.6313793190504086e-17,2.1074812412261963,3.655923052425049,-2.382207389352189e-44,0.2893916368484497,-1.5588143507586878,-0.0,-0.021294062957167625,0.7342578768730164,-0.0,-0.007634343113750219,0.7745555639266968,0.0,0.030997350811958313
294.0,276.0,4.8503,-0.3117,8.0794,-0.0605,-0.1213,-0.1211,-1.7159706554808558,-0.22607959806919098,2.5168497562408447,-1.1388853788375854,-6.354472122325917e-23,2.1109790802001953,3.6558868128010253,-0.0,0.29248562455177307,-1.558826748524801,-0.0,-0.04072078317403793,0.7342209219932556,-0.0,-0.02579292468726635,0.7745516896247864,0.0,0.00966319814324379
275.0,263.0,5.2762,0.3254,7.1402,-0.0469,-0.1472,-0.1269,-1.7174045048155726,-0.23821285367012024,2.5483570098876953,-1.1388169527053833,-1.5345301832854663e-28,2.12849760055542,3.6559063631245117,-0.0,0.28978052735328674,-1.5588424841510218,-0.0,-0.03450552001595497,0.7342734336853027,-0.0,-0.006538115441799164,0.7745475769042969,0.0,-0.006072269752621651
275.0,263.0,5.2762,0.3254,7.1402,-0.0469,-0.1472,-0.1269,-1.7188178501524867,-0.23239819705486298,2.596245288848877,-1.138865351676941,-3.705709206768798e-34,2.108187675476074,3.655946894282959,-0.0,0.29617244005203247,-1.5587862173663538,-0.0,-0.032197531312704086,0.7342857718467712,-0.0,-0.006854812614619732,0.7745154500007629,0.0,-0.016362544149160385
275.0,263.0,5.2762,0.3254,7.1402,-0.0469,-0.1472,-0.1269,-1.7202149830260218,-0.2271498441696167,2.541574716567993,-1.1388250589370728,-8.948846136009358e-40,2.128077268600464,3.6559273439594726,-0.0,0.2863140404224396,-1.5588343779193323,-0.0,-0.024931110441684723,0.7342172265052795,-0.0,0.0017772192368283868,0.7744832038879395,0.0,0.049205414950847626
275.0,263.0,5.2762,0.3254,7.1402,-0.0469,-0.1472,-0.1269,-1.7221623859801234,-0.2365119606256485,2.5970168113708496,-1.1388771533966064,-0.0,2.1129024028778076,3.6559268671223144,-0.0,0.30000147223472595,-1.5588024298297327,-0.0,-0.017023228108882904,0.7342415452003479,-0.0,-0.005494197830557823,0.774563729763031,0.0,-0.0014458447694778442
275.0,263.0,5.2762,0.3254,7.1402,-0.0469,-0.1472,-0.1269,-1.7235681019225062,-0.24223607778549194,2.5427253246307373,-1.138880968093872,-0.0,2.096364974975586,3.655946894282959,-0.0,0.2895384430885315,-1.5588181654559534,-0.0,-0.028977038338780403,0.7342495918273926,-0.0,-0.0011712608393281698,0.7745195627212524,0.0,0.028697166591882706
275.0,263.0,5.2762,0.3254,7.1402,-0.0469,-0.1472,-0.1269,-1.7250009975829066,-0.2322186976671219,2.596249580383301,-1.13889741897583,-0.0,2.1122870445251465,3.655986948604248,-0.0,0.27900391817092896,-1.558821980153219,-0.0,-0.020980190485715866,0.7342214584350586,-0.0,-0.015177398920059204,0.7745113968849182,0.0,0.028784703463315964
275.0,263.0,5.2762,0.3254,7.1402,-0.0469,-0.1472,-0.1269,-1.7263380489745082,-0.227602019906044,2.6403181552886963,-1.1388890743255615,-0.0,2.0868444442749023,3.6559387880512695,-0.0,0.2992187738418579,-1.5588181654559534,-0.0,-0.022068392485380173,0.7342455387115479,-0.0,-0.0056813787668943405,0.7744993567466736,0.0,-0.009536166675388813
275.0,263.0,5.2762,0.3254,7.1402,-0.0469,-0.1472,-0.1269,-1.7277327976622523,-0.23471099138259888,2.606252670288086,-1.1388850212097168,-0.0,2.1036877632141113,3.655991240138672,-0.0,0.28584355115890503,-1.5588386694537562,-0.0,-0.0312967449426651,0.7342815399169922,-0.0,-0.013422764837741852,0.7745516896247864,0.0,-0.025191623717546463
275.0,263.0,5.2762,0.3254,7.1402,-0.0469,-0.1472,-0.1269,-1.7291299305357875,-0.23928244411945343,2.604109048843384,-1.1388932466506958,-0.0,2.1580581665039062,3.655934973354004,-0.0,0.29232990741729736,-1.5588143507586878,-0.0,-0.029948163777589798,0.7342255115509033,-0.0,-0.0036663913633674383,0.7744954824447632,0.0,0.055400550365448
275.0,263.0,5.2762,0.3254,7.1402,-0.0469,-0.1472,-0.1269,-1.73057283977651,-0.23415076732635498,2.590606689453125,-1.1388084888458252,2.4368384401896037e-05,2.088050365447998,3.6559993463703613,-0.0,0.28513702750205994,-1.5588386694537562,-0.0,-0.041210368275642395,0.7341931462287903,-0.0,0.00013620336540043354,0.7745236754417419,0.0,0.012906072661280632
275.0,263.0,5.2762,0.3254,7.1402,-0.0469,-0.1472,-0.1269,-1.731856485406393,-0.22681604325771332,2.6508636474609375,-1.1388731002807617,4.491989966481924e-05,2.1452200412750244,3.6559344965168457,0.00019849781529046595,0.2897328734397888,-1.5588386694537562,-0.0,-0.014039513655006886,0.7342456579208374,-0.0,-0.007698834873735905,0.774515688419342,0.0,0.06996376812458038
275.0,263.0,5.2762,0.3254,7.1402,-0.0469,-0.1472,-0.1269,-1.7331983051695765,-0.22650286555290222,2.614872455596924,-1.138828992843628,6.26831388217397e-05,2.135812759399414,3.6559950548359375,0.0002552700461819768,0.29410499334335327,-1.5588544050799769,-0.0,-0.025095880031585693,0.7342659831047058,-0.0,-0.024367349222302437,0.7745113968849182,0.0,0.018254730850458145
275.0,263.0,5.2762,0.3254,7.1402,-0.0469,-0.1472,-0.1269,-1.7345854244627894,-0.22465726733207703,2.6672720909118652,-1.1388084888458252,5.860500459675677e-05,2.1360023021698,3.6560112672993164,0.0006933673867024481,0.28812456130981445,-1.5588305632220667,-0.0,-0.046855226159095764,0.73418128490448,-0.0,-0.007160362787544727,0.7745234370231628,0.0,-0.012018504552543163
275.0,263.0,5.2762,0.3254,7.1402,-0.0469,-0.1472,-0.1269,-1.735882421533102,-0.22191506624221802,2.6554007530212402,-1.1388694047927856,0.000136686023324728,2.1233773231506348,3.656015081996582,0.0005896305665373802,0.29992011189460754,-1.5588343779193323,-0.0,-0.0321965217590332,0.7341976165771484,-0.0,-0.0009503563633188605,0.7745316028594971,0.0,0.0320039764046669
259.0,246.0,6.5312,0.2524,6.3051,-0.0147,-0.1927,-0.131,-1.7372333012022914,-0.22207820415496826,2.6268489360809326,-1.1388890743255615,0.00011132130748592317,2.117918014526367,3.6559225755878906,0.0004603436100296676,0.28889667987823486,-1.5588181654559534,-0.0,-0.03589091822504997,0.7342737913131714,-0.0,-0.009965168312191963,0.7745073437690735,0.0,-0.037375353276729584
259.0,246.0,6.5312,0.2524,6.3051,-0.0147,-0.1927,-0.131,-1.7385088406004847,-0.22392582893371582,2.6746654510498047,-1.1388291120529175,9.389746992383152e-05,2.100569725036621,3.655975027675293,0.00037753378273919225,0.2842191755771637,-1.558770481740133,-0.0,-0.015003123320639133,0.7342578172683716,-0.0,-0.0071387202478945255,0.7745154500007629,0.0,0.03031686693429947
259.0,246.0,6.5312,0.2524,6.3051,-0.0147,-0.1927,-0.131,-1.7398034534850062,-0.21825967729091644,2.6555335521698,-1.1388487815856934,8.11904901638627e-05,2.1299996376037598,3.6560074526020507,0.00031998392660170794,0.29086658358573914,-1.5587905089007776,-0.0,-0.02362111583352089,0.734197199344635,-0.0,0.004743589088320732,0.7745275497436523,0.0,-0.0011250954121351242
259.0,246.0,6.5312,0.2524,6.3051,-0.0147,-0.1927,-0.131,-1.7410761318602503,-0.21919624507427216,2.632009983062744,-1.1388850212097168,7.151281897677109e-05,2.1123046875,3.656031294459961,0.00031203150865621865,0.2967669367790222,-1.5588181654559534,-0.0,-0.024124272167682648,0.7342495918273926,-0.0,-0.021150853484869003,0.7745596766471863,0.0,-0.005638532340526581
259.0,246.0,6.5312,0.2524,6.3051,-0.0147,-0.1927,-0.131,-1.7424146137633265,-0.22123989462852478,2.6749110221862793,-1.13889741897583,9.583905193721876e-05,2.105057716369629,3.656003161067627,0.0002802638045977801,0.28902897238731384,-1.5587900320636194,-0.0,-0.02398356795310974,0.7342455983161926,-0.0,-0.0056336261332035065,0.7745557427406311,0.0,0.029325826093554497
259.0,246.0,6.5312,0.2524,6.3051,-0.0147,-0.1927,-0.131,-1.7441607914366664,-0.2154533416032791,2.6575915813446045,-1.138865351676941,0.00020169535127934068,2.130302906036377,3.656019373531006,0.0002774827880784869,0.26984143257141113,-1.558810059224264,-0.0,-0.029609739780426025,0.7342738509178162,-0.0,-0.007042204029858112,0.7746078968048096,0.0,0.007166373077780008
259.0,246.0,6.5312,0.2524,6.3051,-0.0147,-0.1927,-0.131,-1.7454506359496058,-0.2059294879436493,2.6829419136047363,-1.1388291120529175,0.0016361072193831205,2.1368091106414795,3.656080408687256,0.0014908850425854325,0.28531527519226074,-1.5588305632220667,-0.0,-0.018863026052713394,0.7342296242713928,-0.0,-0.01174268126487732,0.7745718955993652,0.0,-0.009439127519726753
259.0,246.0,6.5312,0.2524,6.3051,-0.0147,-0.1927,-0.131,-1.7466579876341761,-0.20701463520526886,2.7042994499206543,-1.1388052701950073,0.0009524956694804132,2.105314254760742,3.6560346323200683,0.001529924338683486,0.2901805639266968,-1.5588024298297327,-0.0,-0.00624509621411562,0.734289824962616,-0.0,-0.008783700875937939,0.7745473980903625,0.0,-0.036347173154354095
259.0,246.0,6.5312,0.2524,6.3051,-0.0147,-0.1927,-0.131,-1.747984071771139,-0.21489346027374268,2.724466323852539,-1.1388332843780518,0.00041516334749758244,2.161273241043091,3.656015081996582,0.0011642435565590858,0.27805274724960327,-1.5587862173663538,-0.0,-0.016803113743662834,0.734197199344635,-0.0,-0.007605553139001131,0.7745312452316284,0.0,-0.03586145117878914
259.0,246.0,6.5312,0.2524,6.3051,-0.0147,-0.1927,-0.131,-1.749322076837057,-0.21451804041862488,2.6903367042541504,-1.1388895511627197,0.0003083704796154052,2.1352295875549316,3.656015081996582,0.0007860815385356545,0.291276752948761,-1.5587981382953089,-0.0,-0.02920733205974102,0.7342938780784607,-0.0,-0.010471073910593987,0.7745394110679626,0.0,0.033875972032547
259.0,246.0,6.5312,0.2524,6.3051,-0.0147,-0.1927,-0.131,-1.750620504418844,-0.2021092176437378,2.7026851177215576,-1.1388776302337646,7.256764365592971e-05,2.1073384284973145,3.6560026842304687,0.0005919421091675758,0.28929439187049866,-1.5588505903827112,-0.0,-0.031158942729234695,0.7342819571495056,-0.0,-0.0008510976331308484,0.7745195627212524,0.0,0.021604491397738457
259.0,246.0,6.5312,0.2524,6.3051,-0.0147,-0.1927,-0.131,-1.7519103489317835,-0.19941659271717072,2.7399377822875977,-1.1388167142868042,5.840720041305758e-05,2.137209415435791,3.6560513216206054,0.00047475763130933046,0.28717148303985596,-1.5588062445269983,-0.0,-0.03249195218086243,0.7342578172683716,-0.0,-0.019084230065345764,0.7745113968849182,0.0,0.009408297017216682
259.0,246.0,6.5312,0.2524,6.3051,-0.0147,-0.1927,-0.131,-1.7530981502928675,-0.20496448874473572,2.720081329345703,-1.1388568878173828,1.410464939288758e-10,2.112509250640869,3.656014605159424,0.0003963206254411489,0.28429722785949707,-1.5588305632220667,-0.0,-0.005513641983270645,0.7342090606689453,-0.0,-0.012842903845012188,0.7745357155799866,0.0,0.02605089172720909
259.0,246.0,6.5312,0.2524,6.3051,-0.0147,-0.1927,-0.131,-1.7543889484801234,-0.21184247732162476,2.7545721530914307,-1.1388694047927856,3.4061074163447137e-16,2.114997386932373,3.656015081996582,0.0003401344292797148,0.28596457839012146,-1.5587862173663538,-0.0,-0.03524167463183403,0.7342292070388794,-0.0,-0.0045572081580758095,0.7745357155799866,0.0,-0.054289817810058594
259.0,246.0,6.5312,0.2524,6.3051,-0.0147,-0.1927,-0.131,-1.755651136437887,-0.20299631357192993,2.742379903793335,-1.1388776302337646,8.225348402882256e-22,2.1267786026000977,3.656010790462158,0.000297904247418046,0.27421990036964417,-1.5587981382953089,-0.0,-0.01896566152572632,0.7342373728752136,-0.0,0.0014640094013884664,0.7745475769042969,0.0,-0.034760426729917526
233.0,223.0,6.8692,0.3236,6.3715,-0.0195,-0.1713,-0.1355,-1.756843706170553,-0.19026793539524078,2.7715673446655273,-1.1388413906097412,1.9863249889202807e-27,2.140624523162842,3.656043215388916,0.0002650039386935532,0.27453866600990295,-1.5587781111346644,-0.0,-0.02118026092648506,0.7342332005500793,-0.0,-0.014842645265161991,0.7745234370231628,0.0,0.008879871107637882
233.0,223.0,6.8692,0.3236,6.3715,-0.0195,-0.1713,-0.1355,-1.757984300652975,-0.19305463135242462,2.751589298248291,-1.1388732194900513,4.7967409824066426e-33,2.115393877029419,3.656038923854492,0.00022402239846996963,0.28761225938796997,-1.558810059224264,-0.0,-0.040898069739341736,0.7341936230659485,-0.0,-0.0076333386823534966,0.7745357155799866,0.0,0.047185018658638
233.0,223.0,6.8692,0.3236,6.3715,-0.0195,-0.1713,-0.1355,-1.7591577968993128,-0.2019382119178772,2.7922322750091553,-1.1388850212097168,-0.00012852610961999744,2.106926679611206,3.6559902864643554,0.00019043340580537915,0.2743915915489197,-1.5588343779193323,-0.0,-0.03383753448724747,0.7341894507408142,-0.0,-0.007802375592291355,0.7745516896247864,0.0,0.0038148416206240654
233.0,223.0,6.8692,0.3236,6.3715,-0.0195,-0.1713,-0.1355,-1.7603842220702113,-0.20413435995578766,2.8153672218322754,-1.1388044357299805,-0.0005959338741376996,2.174220085144043,3.656027002925537,5.347566548152827e-05,0.2844523787498474,-1.5588343779193323,-0.0,-0.012178213335573673,0.7342619299888611,-0.0,-0.0019854502752423286,0.7745516896247864,0.0,-0.017663773149251938
233.0,223.0,6.8692,0.3236,6.3715,-0.0195,-0.1713,-0.1355,-1.7615443668761195,-0.1964067667722702,2.8012216091156006,-1.1388895511627197,0.0004301333101466298,2.140655279159546,3.656031294459961,4.906842514174059e-05,0.2822609543800354,-1.5587981382953089,-0.0,-0.029089562594890594,0.7342255115509033,-0.0,-0.009248965419828892,0.7745195031166077,0.0,0.0031927693635225296
233.0,223.0,6.8692,0.3236,6.3715,-0.0195,-0.1713,-0.1355,-1.7627021274962367,-0.1892322450876236,2.7898035049438477,-1.1388331651687622,0.00040499240276403725,2.1590678691864014,3.656043215388916,6.803120777476579e-05,0.29074886441230774,-1.5588305632220667,-0.0,-0.030536852777004242,0.7342697381973267,-0.0,-0.002487604273483157,0.7745516896247864,0.0,-0.012994067743420601
233.0,223.0,6.8692,0.3236,6.3715,-0.0195,-0.1713,-0.1355,-1.7641998730101527,-0.18869765102863312,2.797074794769287,-1.13883638381958,0.0002425748825771734,2.1486449241638184,3.6559950548359375,8.236354915425181e-05,0.2779524028301239,-1.5588586966144007,-0.0,-0.028725195676088333,0.7342456579208374,-0.0,-0.005706409458070993,0.7745113968849182,0.0,0.015053430572152138
233.0,223.0,6.8692,0.3236,6.3715,-0.0195,-0.1713,-0.1355,-1.765391012231344,-0.19145606458187103,2.772247076034546,-1.1388208866119385,8.478994277538732e-05,2.121272087097168,3.656027002925537,7.711422222200781e-05,0.28286927938461304,-1.5588181654559534,-0.0,-0.020982570946216583,0.7342135906219482,-0.0,-0.0005289481487125158,0.7745318412780762,0.0,0.024456176906824112
233.0,223.0,6.8692,0.3236,6.3715,-0.0195,-0.1713,-0.1355,-1.766430517236227,-0.1917121559381485,2.7622275352478027,-1.1388126611709595,7.685393029532861e-06,2.146153688430786,3.65607134878125,7.245782035170123e-05,0.2767914831638336,-1.5588343779193323,-0.0,-0.01475115679204464,0.7342456579208374,-0.0,-0.011592462658882141,0.7745195627212524,0.0,-0.028571924194693565
233.0,223.0,6.8692,0.3236,6.3715,-0.0195,-0.1713,-0.1355,-1.7675477466978968,-0.19141672551631927,2.798938274383545,-1.1388373374938965,1.8559320746902586e-11,2.1516196727752686,3.6560227113911132,6.833179213572294e-05,0.2825762629508972,-1.5588386694537562,-0.0,-0.010952658951282501,0.734221875667572,-0.0,0.0019700629636645317,0.7744993567466736,0.0,0.003183085471391678
233.0,223.0,6.8692,0.3236,6.3715,-0.0195,-0.1713,-0.1355,-1.7687093220152796,-0.189250648021698,2.837520122528076,-1.1388529539108276,4.4818577882033963e-17,2.1317992210388184,3.656038923854492,6.46503031020984e-05,0.2851904034614563,-1.5588262716876429,-0.0,-0.02934125065803528,0.734205424785614,-0.0,-0.01531654316931963,0.774479329586029,0.0,0.0014236080460250378
233.0,223.0,6.8692,0.3236,6.3715,-0.0195,-0.1713,-0.1355,-1.769811292687887,-0.18907611072063446,2.799008369445801,-1.138852834701538,1.082315773568035e-22,2.1228432655334473,3.6560112672993164,6.134528666734695e-05,0.2760584354400635,-1.5587862173663538,-0.0,-0.008378768339753151,0.7342296242713928,-0.0,0.00023150467313826084,0.7744670510292053,0.0,0.0320403054356575
233.0,223.0,6.8692,0.3236,6.3715,-0.0195,-0.1713,-0.1355,-1.7708879909911097,-0.18215300142765045,2.80478572845459,-1.138852834701538,2.613665323794578e-28,2.1343417167663574,3.656067057246826,5.836174386786297e-05,0.28701260685920715,-1.5588262716876429,-0.0,-0.02776191383600235,0.734205424785614,-0.0,-0.01921670511364937,0.7745277285575867,0.0,0.021288666874170303
233.0,223.0,6.8692,0.3236,6.3715,-0.0195,-0.1713,-0.1355,-1.7719837627806605,-0.18030110001564026,2.8467600345611572,-1.1388487815856934,6.31169339799794e-34,2.1615591049194336,3.6560303407856445,5.5710814194753766e-05,0.2821120619773865,-1.5587981382953089,-0.0,-0.04131641983985901,0.7342578172683716,-0.0,-0.014385277405381203,0.7745236754417419,0.0,-0.03532351553440094
215.0,218.0,7.7539,0.1813,5.7434,-0.0043,-0.1857,-0.1371,-1.7729741535582484,-0.181638702750206,2.8098089694976807,-1.1387971639633179,1.524199346138425e-39,2.1095268726348877,3.6560227113911132,4.875687955063768e-05,0.29176434874534607,-1.5588181654559534,-0.0,-0.03646338731050491,0.7341648936271667,-0.0,-0.005349983461201191,0.7745195627212524,0.0,-0.035000648349523544
215.0,218.0,7.7539,0.1813,5.7434,-0.0043,-0.1857,-0.1371,-1.7740513286986292,-0.18270760774612427,2.8082869052886963,-1.1388731002807617,4.203895392974451e-45,2.1413416862487793,3.656043215388916,4.5091743231751025e-05,0.2874779999256134,-1.5588181654559534,-0.0,-0.02117302082479,0.7341529726982117,-0.0,-0.0028036730363965034,0.774487316608429,0.0,0.009500907734036446
215.0,218.0,7.7539,0.1813,5.7434,-0.0043,-0.1857,-0.1371,-1.7751618824400843,-0.1775311827659607,2.877790927886963,-1.138792872428894,-0.0,2.1319169998168945,3.6560556131550292,8.093825454125181e-05,0.27662259340286255,-1.558810059224264,-0.0,-0.028406217694282532,0.734217643737793,-0.0,-0.008919168263673782,0.7745075225830078,0.0,0.007216376252472401
215.0,218.0,7.7539,0.1813,5.7434,-0.0043,-0.1857,-0.1371,-1.7762724361815394,-0.16690994799137115,2.8429245948791504,-1.1388331651687622,-0.0,2.1255648136138916,3.6560632425495605,0.0005768302944488823,0.29265275597572327,-1.5587862173663538,-0.0,-0.04258646070957184,0.7342172265052795,-0.0,0.001229571644216776,0.7744914293289185,0.0,0.06099766865372658
215.0,218.0,7.7539,0.1813,5.7434,-0.0043,-0.1857,-0.1371,-1.777210374871725,-0.16269251704216003,2.869049549102783,-1.1388250589370728,-0.0,2.2091422080993652,3.656066580409668,0.001845778082497418,0.2759521007537842,-1.558810059224264,-0.0,-0.023865249007940292,0.7342016696929932,-0.0,-0.018012812361121178,0.7744513154029846,0.0,0.003630978288128972
215.0,218.0,7.7539,0.1813,5.7434,-0.0043,-0.1857,-0.1371,-1.7782594166197718,-0.16742146015167236,2.838207244873047,-1.138792872428894,-0.0,2.135218620300293,3.656122847194336,0.0012945681810379028,0.2858247756958008,-1.5588024298297327,-0.0,-0.025327647104859352,0.7342619299888611,-0.0,8.000782690942287e-05,0.7744993567466736,0.0,-0.026959698647260666
215.0,218.0,7.7539,0.1813,5.7434,-0.0043,-0.1857,-0.1371,-1.7792550526061,-0.17479947209358215,2.8826704025268555,-1.1388609409332275,-0.0,2.08566951751709,3.6561309534260253,0.0008376817568205297,0.28235530853271484,-1.5587862173663538,-0.0,-0.036765310913324356,0.7342619299888611,-0.0,-0.013857925310730934,0.7744954824447632,0.0,-0.025964319705963135
215.0,218.0,7.7539,0.1813,5.7434,-0.0043,-0.1857,-0.1371,-1.7802640400328578,-0.17260412871837616,2.863154888153076,-1.1388134956359863,0.0002837208448909223,2.1492905616760254,3.6560985284992675,0.0007155187195166945,0.27477505803108215,-1.558821980153219,-0.0,-0.013237720355391502,0.7342259287834167,-0.0,-0.016558678820729256,0.7745358347892761,0.0,-0.04989559203386307
215.0,218.0,7.7539,0.1813,5.7434,-0.0043,-0.1857,-0.1371,-1.7812982998290003,-0.15651898086071014,2.9232287406921387,-1.1387648582458496,0.001748615992255509,2.1630630493164062,3.656171961421631,0.0030138904694467783,0.2733268439769745,-1.5588062445269983,-0.0,-0.01921594887971878,0.734217643737793,-0.0,-0.0161011703312397,0.7745116353034973,0.0,-0.02060408517718315
215.0,218.0,7.7539,0.1813,5.7434,-0.0043,-0.1857,-0.1371,-1.7825714550414027,-0.15025785565376282,2.8394904136657715,-1.1387488842010498,0.0013247960014268756,2.107431411743164,3.656163378352783,0.005186577793210745,0.28338199853897095,-1.5588343779193323,-0.0,-0.009788820520043373,0.7342012524604797,-0.0,-0.013033056631684303,0.7745115756988525,0.0,-0.036920372396707535
215.0,218.0,7.7539,0.1813,5.7434,-0.0043,-0.1857,-0.1371,-1.783567567864889,-0.1584949642419815,2.9085559844970703,-1.1388217210769653,-0.000574753968976438,2.1363561153411865,3.6562234598347167,0.005216754507273436,0.2800820469856262,-1.5588343779193323,-0.0,-0.018416155129671097,0.7342058420181274,-0.0,-0.02562161535024643,0.7745157480239868,0.0,0.01405787467956543
215.0,218.0,7.7539,0.1813,5.7434,-0.0043,-0.1857,-0.1371,-1.784506460229391,-0.16942676901817322,2.9584312438964844,-1.138828992843628,-0.0006085505592636764,2.143711566925049,3.6562434869953613,0.00531466631218791,0.2942865788936615,-1.5588544050799769,-0.0,-0.025945058092474937,0.7341735363006592,-0.0,-0.014591904357075691,0.7744874954223633,0.0,0.03684191405773163
215.0,218.0,7.7539,0.1813,5.7434,-0.0043,-0.1857,-0.1371,-1.785544057885641,-0.17249780893325806,2.874728202819824,-1.138801097869873,-4.76176428492181e-05,2.1294612884521484,3.656275911922119,0.0042930482886731625,0.27526068687438965,-1.558821980153219,-0.0,-0.01839090697467327,0.7342579960823059,-0.0,-0.016752559691667557,0.7745115756988525,0.0,0.028534840792417526
215.0,218.0,7.7539,0.1813,5.7434,-0.0043,-0.1857,-0.1371,-1.7865125141539515,-0.16120858490467072,2.885664224624634,-1.138780951499939,-1.1499098895306759e-10,2.097106456756592,3.656283064479492,0.004555054474622011,0.2756939232349396,-1.5587824026690882,-0.0,-0.017155250534415245,0.7342259287834167,-0.0,-0.01238996721804142,0.7744831442832947,-7.142224058043212e-05,0.002585739828646183
215.0,218.0,7.7539,0.1813,5.7434,-0.0043,-0.1857,-0.1371,-1.787469049493307,-0.14799794554710388,2.930088996887207,-1.138761281967163,0.0013121459633111954,2.1972968578338623,3.656327410335205,0.004531536251306534,0.2713879346847534,-1.5588544050799769,-0.0,-0.027914350852370262,0.7342538237571716,-0.0,-0.008974257856607437,0.7744954824447632,-8.065562724368647e-05,-0.012472566217184067
203.0,202.0,7.3131,0.0281,6.3649,-0.0409,-0.1617,-0.1252,-1.7883836231627406,-0.14171743392944336,2.933438777923584,-1.1388453245162964,0.0005056698573753238,2.1480953693389893,3.6563102441975097,0.00405268045142293,0.2882344126701355,-1.5588305632220667,-0.0,-0.019610527902841568,0.7342336773872375,-0.0,-0.014798683114349842,0.7744954824447632,-7.767826173221692e-05,-0.01860639452934265
203.0,202.0,7.3131,0.0281,6.3649,-0.0409,-0.1617,-0.1252,-1.7893053493895472,-0.15218570828437805,2.9012677669525146,-1.138861060142517,9.836177206068442e-09,2.1859726905822754,3.6563679414936523,0.002100624842569232,0.279824435710907,-1.5588062445269983,-0.0,-0.01646823063492775,0.7342095375061035,-0.0,-0.021175675094127655,0.7744876742362976,-7.49089231248945e-05,0.044689640402793884
203.0,202.0,7.3131,0.0281,6.3649,-0.0409,-0.1617,-0.1252,-1.7902351818480433,-0.16506068408489227,2.9085638523101807,-1.1388332843780518,-0.001773446798324585,2.1383767127990723,3.6563517290302734,0.0007294858805835247,0.2689734101295471,-1.558821980153219,-0.0,-0.029386136680841446,0.7342135906219482,-0.0,-0.01140013337135315,0.7745277285575867,-0.00012354302452877164,0.009709975682199001
203.0,202.0,7.3131,0.0281,6.3649,-0.0409,-0.1617,-0.1252,-1.791192194024557,-0.16887935996055603,2.8721117973327637,-1.1387767791748047,-0.00010702024155762047,2.132537841796875,3.656326933498047,0.00015023765445221215,0.2839422821998596,-1.5587981382953089,-0.0,-0.01992674171924591,0.7342295050621033,-0.0,-0.021818984299898148,0.774515688419342,-0.0001536379277240485,-0.0020576585084199905
203.0,202.0,7.3131,0.0281,6.3649,-0.0409,-0.1617,-0.1252,-1.7921353779234828,-0.15996156632900238,2.9730474948883057,-1.1387534141540527,0.00317194196395576,2.163902521133423,3.656311197871826,0.00025806366465985775,0.2741747200489044,-1.5587981382953089,-0.0,-0.03333441540598869,0.7342095375061035,-0.0,-0.005202171392738819,0.7745157480239868,-0.0001312547392444685,-0.00547800725325942
203.0,202.0,7.3131,0.0281,6.3649,-0.0409,-0.1617,-0.1252,-1.7930714092650355,-0.1454152911901474,2.948457717895508,-1.1387327909469604,0.003214706666767597,2.1540956497192383,3.656407518977783,0.0017092073103412986,0.2736106216907501,-1.5588181654559534,-0.0,-0.039345793426036835,0.7342455983161926,-0.0,-0.001168395858258009,0.7744793891906738,-0.00011454815103206784,0.08471596986055374
203.0,202.0,7.3131,0.0281,6.3649,-0.0409,-0.1617,-0.1252,-1.7938910923399867,-0.13933950662612915,2.965369462966919,-1.138704776763916,0.0017528864555060863,2.1556015014648438,3.6564275461384277,0.00457980390638113,0.2830513119697571,-1.5587781111346644,-0.0,-0.03628773242235184,0.7341935038566589,-0.0,-0.018425479531288147,0.7745236754417419,-0.00010161432874156162,-0.030352666974067688
203.0,202.0,7.3131,0.0281,6.3649,-0.0409,-0.1617,-0.1252,-1.794777055779928,-0.14140376448631287,2.958746910095215,-1.1387653350830078,1.1291364216958755e-06,2.1929068565368652,3.6564432817646484,0.005491309799253941,0.2882038950920105,-1.5587943235980433,-0.0,-0.027140412479639053,0.7342737913131714,-0.0,-0.003360761096701026,0.7745034098625183,5.035312642576173e-05,-0.03786139190196991
203.0,202.0,7.3131,0.0281,6.3649,-0.0409,-0.1617,-0.1252,-1.7956458530821742,-0.14787058532238007,2.9306178092956543,-1.1387572288513184,2.726731600927179e-12,2.1474509239196777,3.6564833360859375,0.004445883445441723,0.2909240126609802,-1.558821980153219,-0.0,-0.027761418372392654,0.7342738509178162,-0.0,-0.021016523241996765,0.7744832634925842,4.31227199442219e-05,0.022074248641729355
203.0,202.0,7.3131,0.0281,6.3649,-0.0409,-0.1617,-0.1252,-1.7965718708434046,-0.14872080087661743,2.95963191986084,-1.1387615203857422,6.584736111052343e-18,2.138122320175171,3.6564718919941406,0.0017657179851084948,0.29431939125061035,-1.5588062445269983,-0.0,-0.03620660677552223,0.7342537641525269,-0.0,-0.0066824560053646564,0.7745154500007629,3.770284092752263e-05,0.0035988546442240477
203.0,202.0,7.3131,0.0281,6.3649,-0.0409,-0.1617,-0.1252,-1.7977177105345667,-0.14882846176624298,2.9627227783203125,-1.1387451887130737,-0.0001838123134803027,2.170820951461792,3.6564876276203613,0.0006825985619798303,0.3008989095687866,-1.5588343779193323,-0.0,-0.043164730072021484,0.7342656254768372,-0.0,0.0046707321889698505,0.7744954824447632,3.2291485695168376e-05,0.007814009673893452
203.0,202.0,7.3131,0.0281,6.3649,-0.0409,-0.1617,-0.1252,-1.798521181146139,-0.14395523071289062,2.9125990867614746,-1.1387255191802979,-7.034440932329744e-05,2.174682140350342,3.6564876276203613,0.0006309242453426123,0.30109676718711853,-1.5588305632220667,-0.0,-0.02552303485572338,0.7341971397399902,-0.0,-0.002028494607657194,0.7745195627212524,2.9153397917980328e-05,0.023714512586593628
203.0,202.0,7.3131,0.0281,6.3649,-0.0409,-0.1617,-0.1252,-1.7993995151915492,-0.13875381648540497,2.9424571990966797,-1.1387245655059814,-5.698008681065403e-05,2.193347930908203,3.6565157610126953,0.0004538640787359327,0.29179129004478455,-1.5588305632220667,-0.0,-0.04273903742432594,0.7341971397399902,-0.0,-0.015326442196965218,0.7744834423065186,2.657123695826158e-05,0.041909296065568924
203.0,202.0,7.3131,0.0281,6.3649,-0.0409,-0.1617,-0.1252,-1.8002125225462855,-0.13378342986106873,3.022244930267334,-1.1387732028961182,-4.78839865536429e-05,2.1551740169525146,3.6565000253864746,0.0004824652278330177,0.2970256507396698,-1.5588343779193323,-0.0,-0.03755610063672066,0.7342820763587952,-0.0,-0.011093523353338242,0.774543821811676,2.4409237084910274e-05,0.07844143360853195
191.0,194.0,7.7689,0.0269,5.4251,-0.0182,-0.1127,-0.1258,-1.8010055027403773,-0.133206307888031,3.001664638519287,-1.138777256011963,-8.256137516582385e-05,2.165820598602295,3.6564957338520507,0.0008313250145874918,0.3054931163787842,-1.558770481740133,-0.0,-0.04132275655865669,0.7342091798782349,-0.0,-0.013082817196846008,0.7744832038879395,2.2572621674044058e-05,-0.03275742754340172
