ramyac6/ROB537/final_project/csv/all/good_124.csv
tof_0,tof_1,accelx,accely,accelz,gyrox,gyroy,gyroz,shoulder_lift_joint_position,shoulder_lift_joint_velocity,shoulder_lift_joint_effort,elbow_joint_position,elbow_joint_velocity,elbow_joint_effort,wrist_1_joint_position,wrist_1_joint_velocity,wrist_1_joint_effort,wrist_2_joint_position,wrist_2_joint_velocity,wrist_2_joint_effort,wrist_3_joint_position,wrist_3_joint_velocity,wrist_3_joint_effort,shoulder_pan_joint_position,shoulder_pan_joint_velocity,shoulder_pan_joint_effort
310.0,328.0,2.0907,0.1723,9.6592,-0.0266,0.024,-0.1162,-1.5142722700587292,0.0,1.9812266826629639,-1.7235502004623413,-0.0,2.1875874996185303,4.502889319057129,0.0,0.2856414318084717,-1.5000422636615198,-0.0,-0.029147081077098846,0.44961902499198914,0.0,0.00014473090413957834,0.7765334248542786,0.0,-0.02680661901831627
310.0,328.0,2.0907,0.1723,9.6592,-0.0266,0.024,-0.1162,-1.5142681498876591,0.0,1.9531992673873901,-1.7235264778137207,-0.0,2.1594221591949463,4.502813025111816,0.0,0.2796137034893036,-1.5000222365008753,-0.0,-0.019534654915332794,0.4496108293533325,0.0,-0.011348290368914604,0.7765049338340759,0.0,0.029403146356344223
310.0,328.0,2.0907,0.1723,9.6592,-0.0266,0.024,-0.1162,-1.5143004854074498,0.0,1.9273133277893066,-1.7235461473464966,-0.0,2.1596298217773438,4.502792997951172,0.0,0.28309425711631775,-1.5000422636615198,-0.0,-0.013410776853561401,0.4496673345565796,0.0,-0.0029140175320208073,0.7765130996704102,0.0,0.06205637753009796
310.0,328.0,2.0907,0.1723,9.6592,-0.0266,0.024,-0.1162,-1.5143046279302617,0.0,1.977594256401062,-1.7235262393951416,-0.0,2.1837544441223145,4.502840681666992,0.0,0.2882334887981415,-1.500037972127096,-0.0,-0.020648125559091568,0.44959884881973267,0.0,-0.0068261162377893925,0.7765089869499207,0.0,-0.026949521154165268
310.0,328.0,2.0907,0.1723,9.6592,-0.0266,0.024,-0.1162,-1.5142523993602772,0.0,1.9639530181884766,-1.7235379219055176,-0.0,2.206364631652832,4.502857370967529,0.0,0.2813419997692108,-1.5000422636615198,-0.0,-0.023774288594722748,0.4496750831604004,0.0,0.0008511114865541458,0.7765007019042969,0.0,-0.03298359736800194
310.0,328.0,2.0907,0.1723,9.6592,-0.0266,0.024,-0.1162,-1.5143128794482728,0.0,1.9554939270019531,-1.723530650138855,-0.0,2.2015390396118164,4.502792997951172,0.0,0.3006656765937805,-1.5000579992877405,-0.0,-0.02695528045296669,0.44962677359580994,0.0,-0.00763707235455513,0.7765292525291443,0.0,-0.009067520499229431
310.0,328.0,2.0907,0.1723,9.6592,-0.0266,0.024,-0.1162,-1.514280480598547,0.0,1.9559993743896484,-1.7234934568405151,-0.0,2.1863462924957275,4.502804918880127,0.0,0.2807804048061371,-1.5000384489642542,-0.0,-0.027060125023126602,0.4496713876724243,0.0,-0.009212241508066654,0.7765370607376099,0.0,-0.0014199800789356232
313.0,334.0,2.2612,0.1675,9.2997,-0.0397,0.0209,-0.1203,-1.5142884452692051,0.0,1.9775009155273438,-1.7235181331634521,-0.0,2.2133607864379883,4.502833052272461,0.0,0.28435778617858887,-1.5000465551959437,-0.0,-0.013827191665768623,0.44962313771247864,0.0,0.0031235888600349426,0.7765089869499207,0.0,0.0007125292904675007
313.0,334.0,2.2612,0.1675,9.2997,-0.0397,0.0209,-0.1203,-1.5142805141261597,0.0,1.8936724662780762,-1.7235534191131592,-0.0,2.186072826385498,4.502824946040771,0.0,0.28718817234039307,-1.500054661427633,-0.0,-0.013132411986589432,0.4496910870075226,0.0,-0.005488400813192129,0.7765450477600098,0.0,0.0017269914969801903
313.0,334.0,2.2612,0.1675,9.2997,-0.0397,0.0209,-0.1203,-1.5143249121359368,0.0,1.939815878868103,-1.7235338687896729,-0.0,2.1808042526245117,4.502824946040771,0.0,0.2882574200630188,-1.500094238911764,-0.0,-0.02664588764309883,0.4497034549713135,0.0,-0.005854718387126923,0.7765049338340759,0.0,0.04073717072606087
313.0,334.0,2.2612,0.1675,9.2997,-0.0397,0.0209,-0.1203,-1.5142681312612076,0.0,1.9704573154449463,-1.723557472229004,-0.0,2.2199316024780273,4.502853079433105,0.0,0.2926846742630005,-1.5000622908221644,-0.0,-0.02285657823085785,0.44961482286453247,0.0,-0.0007791919633746147,0.7765452861785889,0.0,-0.011295538395643234
313.0,334.0,2.2612,0.1675,9.2997,-0.0397,0.0209,-0.1203,-1.5142805066755791,0.0,1.9147099256515503,-1.723522424697876,-0.0,2.206376314163208,4.502844973201416,0.0,0.28666362166404724,-1.500054661427633,-0.0,-0.01807720772922039,0.4496350586414337,0.0,-0.008005909621715546,0.7765535116195679,0.0,-0.032035067677497864
313.0,334.0,2.2612,0.1675,9.2997,-0.0397,0.0209,-0.1203,-1.5142482866397877,0.0,1.93845796585083,-1.723557472229004,-0.0,2.2192130088806152,4.502821131343506,0.0,0.2722981572151184,-1.5000579992877405,-0.0,-0.011864535510540009,0.44963908195495605,0.0,-0.009125196374952793,0.7764846682548523,0.0,0.006337372586131096
313.0,334.0,2.2612,0.1675,9.2997,-0.0397,0.0209,-0.1203,-1.5142925207367917,0.0,1.944233775138855,-1.7235379219055176,-0.0,2.1864964962005615,4.502792997951172,0.0,0.29587385058403015,-1.5000579992877405,-0.0,-0.03308515623211861,0.4496673345565796,0.0,-0.016659846529364586,0.7765733003616333,0.0,0.012675913982093334
313.0,334.0,2.2612,0.1675,9.2997,-0.0397,0.0209,-0.1203,-1.5142201867750664,0.0,1.970418930053711,-1.7235140800476074,-0.0,2.151367664337158,4.502797289485596,0.0,0.29457178711891174,-1.500054661427633,-0.0,-0.02307915687561035,0.4496508836746216,0.0,-0.0015058116987347603,0.776512861251831,0.0,-0.0023491722531616688
313.0,334.0,2.2612,0.1675,9.2997,-0.0397,0.0209,-0.1203,-1.5143007238260289,0.0,1.9180939197540283,-1.7235183715820312,-0.0,2.157975912094116,4.502864523524902,0.0,0.28418225049972534,-1.5000823179828089,-0.0,-0.0006113196723163128,0.44963908195495605,0.0,-0.002668003086000681,0.7765008211135864,0.0,0.00596630061045289
313.0,334.0,2.2612,0.1675,9.2997,-0.0397,0.0209,-0.1203,-1.5142562736621876,0.0,1.938579797744751,-1.7234811782836914,-0.0,2.2029361724853516,4.502848787898682,0.0,0.2833523750305176,-1.50006610551943,-0.0,-0.00584376510232687,0.44961071014404297,0.0,-0.010285547003149986,0.7765251398086548,0.0,0.018304938450455666
313.0,334.0,2.2612,0.1675,9.2997,-0.0397,0.0209,-0.1203,-1.51426816106353,0.0,1.938887357711792,-1.7235379219055176,-0.0,2.241572856903076,4.502861185664795,0.0,0.28974801301956177,-1.5000823179828089,-0.0,-0.018849793821573257,0.44964274764060974,0.0,0.007928892970085144,0.7765048742294312,0.0,0.014473131857812405
313.0,334.0,2.2612,0.1675,9.2997,-0.0397,0.0209,-0.1203,-1.5142523807338257,0.0,1.9578309059143066,-1.7235264778137207,-0.0,2.206362724304199,4.502840681666992,0.0,0.28418052196502686,-1.5000699202166956,-0.0,-0.01161932572722435,0.44964683055877686,0.0,-0.010370835661888123,0.7765210866928101,0.0,0.002706795698031783
313.0,334.0,2.2612,0.1675,9.2997,-0.0397,0.0209,-0.1203,-1.5142763827792187,0.0,1.9676438570022583,-1.7235502004623413,-0.0,2.173004150390625,4.502857370967529,0.0,0.2895214557647705,-1.5000622908221644,-0.0,-0.02267271652817726,0.44969889521598816,0.0,-0.012303421273827553,0.776581346988678,0.0,0.0036927026230841875
313.0,334.0,2.2612,0.1675,9.2997,-0.0397,0.0209,-0.1203,-1.514256202881672,0.0,1.962467908859253,-1.7234739065170288,-0.0,2.1754183769226074,4.502828760738037,0.0,0.2913092374801636,-1.5000579992877405,-0.0,-0.015536969527602196,0.44963085651397705,0.0,-0.009842487052083015,0.7765655517578125,0.0,-0.012283725664019585
316.0,342.0,2.3115,0.2423,9.1956,-0.0327,0.0211,-0.1168,-1.5142562848380585,0.0,1.9389913082122803,-1.723557472229004,-0.0,2.1736135482788086,4.502824946040771,0.0,0.29207974672317505,-1.5000460783587855,-0.0,-0.021760152652859688,0.44962719082832336,0.0,-0.0026255357079207897,0.7765411138534546,0.0,-0.007174184080213308
316.0,342.0,2.3115,0.2423,9.1956,-0.0327,0.0211,-0.1168,-1.5142805141261597,0.0,1.9219162464141846,-1.7235461473464966,-0.0,2.2242071628570557,4.502769156093262,0.0,0.2810126543045044,-1.5001023451434534,-0.0,-0.010975327342748642,0.44965916872024536,0.0,-0.008168519474565983,0.7765210866928101,0.0,-0.025245292112231255
316.0,342.0,2.3115,0.2423,9.1956,-0.0327,0.0211,-0.1168,-1.514252172117569,0.0,1.9105234146118164,-1.7234976291656494,-0.0,2.2150959968566895,4.502804918880127,0.0,0.2858133912086487,-1.5000503698932093,-0.0,-0.012671157717704773,0.44964689016342163,0.0,-0.001378062181174755,0.7765370607376099,0.0,-0.00041619036346673965
316.0,342.0,2.3115,0.2423,9.1956,-0.0327,0.0211,-0.1168,-1.514264528905489,0.0,1.959570288658142,-1.7234976291656494,-0.0,2.1989636421203613,4.502828760738037,0.0,0.2805875539779663,-1.5000465551959437,-0.0,-0.03257720172405243,0.4496833384037018,0.0,-0.0023168926127254963,0.776505172252655,0.0,-0.039296381175518036
316.0,342.0,2.3115,0.2423,9.1956,-0.0327,0.0211,-0.1168,-1.5143289876035233,0.0,1.9426908493041992,-1.723530650138855,-0.0,2.18764591217041,4.502816839809082,0.0,0.2854997515678406,-1.500094238911764,-0.0,-0.018861180171370506,0.4496956169605255,0.0,-0.0008049524622038007,0.7765370607376099,0.0,-0.042054131627082825
316.0,342.0,2.3115,0.2423,9.1956,-0.0327,0.0211,-0.1168,-1.5142966744354744,0.0,1.9644498825073242,-1.7235419750213623,-0.0,2.208000659942627,4.502801104182861,0.0,0.27644407749176025,-1.500037972127096,-0.0,-0.011604990810155869,0.4496914744377136,0.0,0.001429316122084856,0.7765089869499207,0.0,-0.013640016317367554
316.0,342.0,2.3115,0.2423,9.1956,-0.0327,0.0211,-0.1168,-1.5142764088562508,0.0,1.951309323310852,-1.7235264778137207,-0.0,2.183687686920166,4.502840681666992,0.0,0.30701592564582825,-1.50006610551943,-0.0,-0.010972760617733002,0.4496508836746216,0.0,-0.0035221197176724672,0.7765333652496338,0.0,0.006379579193890095
316.0,342.0,2.3115,0.2423,9.1956,-0.0327,0.0211,-0.1168,-1.5142681834152718,0.0,1.938901424407959,-1.723554253578186,-0.0,2.1960484981536865,4.502857370967529,0.0,0.28039300441741943,-1.5000703970538538,-0.0,-0.023650091141462326,0.4496837556362152,0.0,0.004225260112434626,0.7765650749206543,0.0,-0.0290234312415123
316.0,342.0,2.3115,0.2423,9.1956,-0.0327,0.0211,-0.1168,-1.51430073872719,0.0,1.9236057996749878,-1.7235183715820312,-0.0,2.1685051918029785,4.502876444453857,0.0,0.2994684875011444,-1.500037972127096,-0.0,-0.019040973857045174,0.4496386647224426,0.0,0.002776332199573517,0.7765293121337891,0.0,0.0144423209130764
316.0,342.0,2.3115,0.2423,9.1956,-0.0327,0.0211,-0.1168,-1.5142603416791935,0.0,1.9575531482696533,-1.723470687866211,-0.0,2.205517530441284,4.502833052272461,0.0,0.2855253219604492,-1.5000742117511194,-0.0,-0.015216320753097534,0.44964319467544556,0.0,0.002113417722284794,0.776561439037323,0.0,0.01845761574804783
316.0,342.0,2.3115,0.2423,9.1956,-0.0327,0.0211,-0.1168,-1.514288668786623,0.0,1.990606427192688,-1.7235183715820312,-0.0,2.191056251525879,4.502801104182861,0.0,0.288268506526947,-1.5000579992877405,-0.0,-0.006485099904239178,0.44965508580207825,0.0,-0.006102334707975388,0.7765251398086548,0.0,0.009050849825143814
316.0,342.0,2.3115,0.2423,9.1956,-0.0327,0.0211,-0.1168,-1.5142644804767151,0.0,1.9646315574645996,-1.7235534191131592,-0.0,2.1950364112854004,4.502801104182861,0.0,0.2943096160888672,-1.5000785032855433,-0.0,-0.011218121275305748,0.44962671399116516,0.0,-0.009297489188611507,0.7765411138534546,0.0,0.024479346349835396
316.0,342.0,2.3115,0.2423,9.1956,-0.0327,0.0211,-0.1168,-1.5143005077591916,0.0,1.8885499238967896,-1.7235616445541382,-0.0,2.2013516426086426,4.502804918880127,0.0,0.2829741835594177,-1.5000622908221644,-0.0,-0.01426903996616602,0.4496714174747467,0.0,-0.006275854539126158,0.7764805555343628,0.0,0.06450676172971725
316.0,342.0,2.3115,0.2423,9.1956,-0.0327,0.0211,-0.1168,-1.514280529027321,0.0,1.9522242546081543,-1.7235658168792725,-0.0,2.19765567779541,4.502797289485596,0.0,0.2892129719257355,-1.5000904242144983,-0.0,-0.017178062349557877,0.44963082671165466,0.0,0.0024878301192075014,0.7765572667121887,0.0,0.04197487235069275
310.0,335.0,2.3755,0.2495,9.1298,-0.0464,0.0228,-0.1202,-1.5142925542644043,0.0,1.953873634338379,-1.7234739065170288,-0.0,2.208092451095581,4.502869291896484,0.0,0.2962725758552551,-1.5000618139850062,-0.0,-0.015307527966797352,0.44963499903678894,0.0,-0.0032289051450788975,0.7765370607376099,0.0,-0.015764769166707993
310.0,335.0,2.3755,0.2495,9.1298,-0.0464,0.0228,-0.1202,-1.5143046018532296,0.0,1.957696557044983,-1.7235140800476074,-0.0,2.2219247817993164,4.5028368669697265,0.0,0.2793962359428406,-1.5000579992877405,-0.0,-0.008684909902513027,0.44966742396354675,0.0,-0.007368315476924181,0.7765774130821228,0.0,0.017035501077771187
310.0,335.0,2.3755,0.2495,9.1298,-0.0464,0.0228,-0.1202,-1.5143168804100533,0.0,1.9435710906982422,-1.7235183715820312,-0.0,2.204359292984009,4.502824946040771,0.0,0.2997398376464844,-1.5000503698932093,-0.0,-0.018075652420520782,0.4496026039123535,0.0,0.004033578094094992,0.7765333652496338,0.0,-0.014893653802573681
310.0,335.0,2.3755,0.2495,9.1298,-0.0464,0.0228,-0.1202,-1.5142845821431656,0.0,1.963348150253296,-1.7234894037246704,-0.0,2.207690715789795,4.502844973201416,0.0,0.28618013858795166,-1.5000579992877405,-0.0,-0.017047561705112457,0.44964316487312317,0.0,-0.006101951003074646,0.7765691876411438,0.0,0.013820972293615341
310.0,335.0,2.3755,0.2495,9.1298,-0.0464,0.0228,-0.1202,-1.5142442484251042,0.0,1.9187569618225098,-1.7235099077224731,-0.0,2.2219862937927246,4.502816839809082,0.0,0.28516340255737305,-1.5000947157489222,-0.0,-0.02277221903204918,0.4497033953666687,0.0,-0.001901342999190092,0.7765452265739441,0.0,-0.0403689406812191
310.0,335.0,2.3755,0.2495,9.1298,-0.0464,0.0228,-0.1202,-1.5142843176475544,0.0,1.968957781791687,-1.7235534191131592,-0.0,2.2352075576782227,4.502832575435303,0.0,0.2793999910354614,-1.5000823179828089,-0.0,-0.027047542855143547,0.4496833086013794,0.0,0.009302433580160141,0.7765491008758545,0.0,0.0029910989105701447
310.0,335.0,2.3755,0.2495,9.1298,-0.0464,0.0228,-0.1202,-1.5142318730107327,0.0,1.9713194370269775,-1.7235140800476074,-0.0,2.2565524578094482,4.502857370967529,0.0,0.2874144911766052,-1.5000785032855433,-0.0,-0.012927670031785965,0.4496915340423584,0.0,0.0006852730875834823,0.7765010595321655,0.0,0.009272266179323196
310.0,335.0,2.3755,0.2495,9.1298,-0.0464,0.0228,-0.1202,-1.5143087108484288,0.0,1.9181487560272217,-1.723530650138855,-0.0,2.2209787368774414,4.502816839809082,0.0,0.30897057056427,-1.5000742117511194,-0.0,-0.017513079568743706,0.44963908195495605,0.0,-0.005518936086446047,0.7765007615089417,0.0,-0.014489407651126385
310.0,335.0,2.3755,0.2495,9.1298,-0.0464,0.0228,-0.1202,-1.5142887097648163,0.0,1.9734795093536377,-1.7235534191131592,-0.0,2.209521770477295,4.502792997951172,0.0,0.2854321002960205,-1.5000460783587855,-0.0,-0.012227751314640045,0.44964316487312317,0.0,-0.010259374976158142,0.776569664478302,0.0,0.02207552082836628
310.0,335.0,2.3755,0.2495,9.1298,-0.0464,0.0228,-0.1202,-1.514276423757412,0.0,1.9593989849090576,-1.7235264778137207,-0.0,2.171372175216675,4.502828760738037,0.0,0.2971579134464264,-1.5000579992877405,-0.0,-0.019880732521414757,0.4496431350708008,0.0,-0.01354638859629631,0.7765210866928101,0.0,0.01616496965289116
310.0,335.0,2.3755,0.2495,9.1298,-0.0464,0.0228,-0.1202,-1.5143128310194989,0.0,1.9425795078277588,-1.723462462425232,-0.0,2.1973536014556885,4.502853079433105,0.0,0.2879149317741394,-1.5000622908221644,-0.0,-0.004138749558478594,0.4497276842594147,0.0,0.005277530290186405,0.7765251398086548,0.0,0.0009156074374914169
310.0,335.0,2.3755,0.2495,9.1298,-0.0464,0.0228,-0.1202,-1.5142603752068062,0.0,1.9805659055709839,-1.723530650138855,-0.0,2.211482048034668,4.502828760738037,0.0,0.28931987285614014,-1.5000103155719202,-0.0,-0.013715430162847042,0.44965508580207825,0.0,-0.003909016028046608,0.7765169739723206,0.0,0.016226081177592278
310.0,335.0,2.3755,0.2495,9.1298,-0.0464,0.0228,-0.1202,-1.5143210564604779,0.0,1.9681695699691772,-1.7234810590744019,-0.0,2.189967155456543,4.502813025111816,0.0,0.2895476818084717,-1.5000785032855433,-0.0,-0.011151847429573536,0.44963082671165466,0.0,-0.009673375636339188,0.7765329480171204,0.0,0.022941777482628822
310.0,335.0,2.3755,0.2495,9.1298,-0.0464,0.0228,-0.1202,-1.5142727133682747,0.0,1.9304242134094238,-1.723557472229004,-0.0,2.217582941055298,4.502809210414551,0.0,0.2857920825481415,-1.5000465551959437,-0.0,-0.022018928080797195,0.44961482286453247,0.0,0.008157970383763313,0.7765089869499207,0.0,-0.0320637971162796
316.0,336.0,2.3737,0.2477,9.0855,-0.0324,0.0264,-0.1228,-1.5142645177296181,0.0,1.941904067993164,-1.7235616445541382,-0.0,2.2063872814178467,4.502809210414551,0.0,0.30769088864326477,-1.5000579992877405,-0.0,-0.01604648306965828,0.44966331124305725,0.0,0.0006202676449902356,0.7765089869499207,0.0,-0.012739451602101326
316.0,336.0,2.3737,0.2477,9.0855,-0.0324,0.0264,-0.1228,-1.514300749903061,0.0,1.953902244567871,-1.7235379219055176,-0.0,2.172051429748535,4.502784891719482,0.0,0.29971206188201904,-1.5000579992877405,-0.0,-0.012486331164836884,0.4496271312236786,0.0,0.003548575798049569,0.7765856385231018,0.0,0.006030323915183544
316.0,336.0,2.3737,0.2477,9.0855,-0.0324,0.0264,-0.1228,-1.51425655305896,0.0,2.000373601913452,-1.7234852313995361,-0.0,2.2304563522338867,4.502813025111816,0.0,0.28892242908477783,-1.5000904242144983,-0.0,-0.021021902561187744,0.44960707426071167,0.0,-0.0021497439593076706,0.7765251398086548,0.0,0.0035338057205080986
316.0,336.0,2.3737,0.2477,9.0855,-0.0324,0.0264,-0.1228,-1.5142805141261597,0.0,1.9419891834259033,-1.7235379219055176,-0.0,2.1939339637756348,4.502857370967529,0.0,0.28210800886154175,-1.5000785032855433,-0.0,-0.015350528061389923,0.44965916872024536,0.0,0.0032080011442303658,0.7765169739723206,0.0,0.044231075793504715
316.0,336.0,2.3737,0.2477,9.0855,-0.0324,0.0264,-0.1228,-1.5142925542644043,0.0,1.9723906517028809,-1.723522424697876,-0.0,2.1901211738586426,4.502821131343506,0.0,0.2900581657886505,-1.5000341574298304,-0.0,-0.0317319855093956,0.4496631622314453,0.0,-0.011604797095060349,0.7765450477600098,0.0,0.039487071335315704
316.0,336.0,2.3737,0.2477,9.0855,-0.0324,0.0264,-0.1228,-1.5142884601703663,0.0,1.9488273859024048,-1.7235575914382935,-0.0,2.1829636096954346,4.502777262324951,0.0,0.2977665066719055,-1.500054184590475,-0.0,-0.002440005075186491,0.44966691732406616,0.0,-0.002667183056473732,0.7765007615089417,0.0,0.008418602868914604
316.0,336.0,2.3737,0.2477,9.0855,-0.0324,0.0264,-0.1228,-1.5142805141261597,0.0,1.9608898162841797,-1.7235140800476074,-0.0,2.1939618587493896,4.5028368669697265,0.0,0.2846524715423584,-1.5000985304461878,-0.0,-0.01979878358542919,0.4497074484825134,0.0,-0.002666563494130969,0.7765130996704102,0.0,-0.03715706616640091
316.0,336.0,2.3737,0.2477,9.0855,-0.0324,0.0264,-0.1228,-1.5142805141261597,0.0,1.9814488887786865,-1.7235347032546997,-0.0,2.2120842933654785,4.50289694845166,0.0,0.2794908881187439,-1.5000785032855433,-0.0,-0.014664954505860806,0.44958657026290894,0.0,-0.009219673462212086,0.7765049338340759,0.0,0.002865627408027649
316.0,336.0,2.3737,0.2477,9.0855,-0.0324,0.0264,-0.1228,-1.51427639768038,0.0,1.9697307348251343,-1.7235140800476074,-0.0,2.199429988861084,4.502813025111816,0.0,0.30166178941726685,-1.5000460783587855,-0.0,-0.024791456758975983,0.44964683055877686,0.0,0.004846249241381884,0.7765288949012756,0.0,-0.002818625420331955
316.0,336.0,2.3737,0.2477,9.0855,-0.0324,0.0264,-0.1228,-1.514292561714985,0.0,1.9497754573822021,-1.7235575914382935,-0.0,2.189091682434082,4.502816839809082,0.0,0.2994536757469177,-1.5000742117511194,-0.0,-0.025565342977643013,0.44961485266685486,0.0,-0.005082970950752497,0.776561439037323,0.0,-0.03431544825434685
316.0,336.0,2.3737,0.2477,9.0855,-0.0324,0.0264,-0.1228,-1.51430897534404,0.0,1.9476678371429443,-1.7235379219055176,-0.0,2.182436227798462,4.502828760738037,0.0,0.284995436668396,-1.500110928212301,-0.0,-0.02490394562482834,0.44961899518966675,0.0,-0.0006179823540151119,0.7765089869499207,0.0,-0.02236960083246231
316.0,336.0,2.3737,0.2477,9.0855,-0.0324,0.0264,-0.1228,-1.5142805141261597,0.0,1.9135465621948242,-1.7234934568405151,-0.0,2.195338726043701,4.502816839809082,0.0,0.2858950197696686,-1.5000579992877405,-0.0,-0.019779197871685028,0.44963499903678894,0.0,-0.006036386825144291,0.7765251398086548,0.0,-0.018557658419013023
316.0,336.0,2.3737,0.2477,9.0855,-0.0324,0.0264,-0.1228,-1.5142845895937462,0.0,1.933607816696167,-1.7234933376312256,-0.0,2.183532953262329,4.50284926473584,0.0,0.2914055585861206,-1.5000303427325647,-0.0,-0.025213370099663734,0.44962310791015625,0.0,-0.0013225157745182514,0.7765329480171204,0.0,0.015910886228084564
316.0,336.0,2.3737,0.2477,9.0855,-0.0324,0.0264,-0.1228,-1.5142805141261597,0.0,1.9515596628189087,-1.7235183715820312,-0.0,2.192322254180908,4.502824946040771,0.0,0.29106250405311584,-1.5000703970538538,-0.0,-0.04128943383693695,0.44964683055877686,0.0,-0.005011727102100849,0.7765130996704102,0.0,0.003964729607105255
321.0,337.0,2.3892,0.2363,9.201,-0.0469,0.0194,-0.111,-1.514304594402649,0.0,1.9510408639907837,-1.7235419750213623,-0.0,2.1853275299072266,4.502801104182861,0.0,0.28704968094825745,-1.5000866095172327,-0.0,-0.016470521688461304,0.4496713876724243,0.0,0.004008432384580374,0.7765650749206543,0.0,-0.024689465761184692
321.0,337.0,2.3892,0.2363,9.201,-0.0469,0.0194,-0.111,-1.5142645177296181,0.0,1.9959561824798584,-1.7235305309295654,-0.0,2.2165446281433105,4.502813025111816,0.0,0.2930484712123871,-1.5000579992877405,-0.0,-0.01091735903173685,0.4496632516384125,0.0,-0.00135329132899642,0.7764644026756287,0.0,-0.004875669255852699
321.0,337.0,2.3892,0.2363,9.201,-0.0469,0.0194,-0.111,-1.5142884452692051,0.0,1.9623000621795654,-1.7235058546066284,-0.0,2.1786983013153076,4.502809210414551,0.0,0.2755422592163086,-1.5000384489642542,-0.0,-0.015719007700681686,0.4496631920337677,0.0,-0.006403255742043257,0.7765169739723206,0.0,0.017324378713965416
321.0,337.0,2.3892,0.2363,9.201,-0.0469,0.0194,-0.111,-1.5142727096429844,0.0,1.9539320468902588,-1.7234976291656494,-0.0,2.2041900157928467,4.502824946040771,0.0,0.2882485091686249,-1.50006610551943,-0.0,-0.013029612600803375,0.4496755301952362,0.0,0.00985447783023119,0.7765411138534546,0.0,0.01605520211160183
321.0,337.0,2.3892,0.2363,9.201,-0.0469,0.0194,-0.111,-1.5142925542644043,0.0,1.947167158126831,-1.7235419750213623,-0.0,2.1861252784729004,4.502840681666992,0.0,0.30057239532470703,-1.5000785032855433,-0.0,-0.014629518613219261,0.4497235417366028,0.0,0.009657938964664936,0.7765411138534546,0.0,0.003571075387299061
321.0,337.0,2.3892,0.2363,9.201,-0.0469,0.0194,-0.111,-1.5142884378186245,0.0,1.9206064939498901,-1.72359037399292,-0.0,2.205118179321289,4.502804918880127,0.0,0.29542019963264465,-1.5001023451434534,-0.0,-0.007824710570275784,0.44962263107299805,0.0,-0.007383505813777447,0.7765130996704102,0.0,-0.005194537807255983
321.0,337.0,2.3892,0.2363,9.201,-0.0469,0.0194,-0.111,-1.5143048663488408,0.0,1.9803805351257324,-1.7235183715820312,-0.0,2.2065443992614746,4.5028368669697265,0.0,0.2962228059768677,-1.500094238911764,-0.0,-0.019728008657693863,0.44963499903678894,0.0,-0.0008356007747352123,0.7765452265739441,0.0,0.003072507679462433
321.0,337.0,2.3892,0.2363,9.201,-0.0469,0.0194,-0.111,-1.5142727096429844,0.0,1.9551323652267456,-1.7235461473464966,-0.0,2.194976806640625,4.502813025111816,0.0,0.28888317942619324,-1.5000861326800745,-0.0,-0.016729366034269333,0.4496152400970459,0.0,-0.0015098124276846647,0.7765251398086548,0.0,-0.01614382676780224
321.0,337.0,2.3892,0.2363,9.201,-0.0469,0.0194,-0.111,-1.5142966707101841,0.0,1.9362231492996216,-1.7235379219055176,-0.0,2.177610158920288,4.5028368669697265,0.0,0.2889198660850525,-1.5000823179828089,-0.0,-0.0058591789565980434,0.44965100288391113,0.0,-0.003992521204054356,0.7765329480171204,0.0,0.01239483617246151
321.0,337.0,2.3892,0.2363,9.201,-0.0469,0.0194,-0.111,-1.5142884378186245,0.0,1.9547767639160156,-1.7235338687896729,-0.0,2.2150232791900635,4.502816839809082,0.0,0.28689441084861755,-1.5000866095172327,-0.0,-0.016201511025428772,0.4496955871582031,0.0,-0.0017878229264169931,0.7765210270881653,0.0,0.01860308088362217
321.0,337.0,2.3892,0.2363,9.201,-0.0469,0.0194,-0.111,-1.5143089418164273,0.0,1.9411084651947021,-1.723522424697876,-0.0,2.2164969444274902,4.502821131343506,0.0,0.2973567247390747,-1.5000985304461878,-0.0,-0.01962253637611866,0.44963499903678894,0.0,-0.00685037299990654,0.776553213596344,0.0,-0.019699085503816605
321.0,337.0,2.3892,0.2363,9.201,-0.0469,0.0194,-0.111,-1.5143128310194989,0.0,1.9182771444320679,-1.7235387563705444,-0.0,2.210970163345337,4.5028368669697265,0.0,0.2889801561832428,-1.5000465551959437,-0.0,-0.03353580832481384,0.44965100288391113,0.0,-0.015238046646118164,0.7765049338340759,0.0,0.003565877676010132
321.0,337.0,2.3892,0.2363,9.201,-0.0469,0.0194,-0.111,-1.5142966707101841,0.0,1.9334347248077393,-1.7235347032546997,-0.0,2.2000327110290527,4.502861185664795,0.0,0.29931119084358215,-1.5000465551959437,-0.0,-0.013179095461964607,0.4496673047542572,0.0,-0.0006902655586600304,0.7764928340911865,0.0,-0.03234236687421799
321.0,337.0,2.3892,0.2363,9.201,-0.0469,0.0194,-0.111,-1.5142845895937462,0.0,1.926127552986145,-1.7235740423202515,-0.0,2.2370362281799316,4.502821131343506,0.0,0.29901960492134094,-1.5000622908221644,-0.0,-0.017835963517427444,0.44964683055877686,0.0,0.011080601252615452,0.7765130996704102,0.0,0.030491115525364876
316.0,339.0,2.3862,0.2483,9.1567,-0.0397,0.0232,-0.1199,-1.514304594402649,0.0,1.9473681449890137,-1.7234770059585571,-0.0,2.199615716934204,4.502872629756592,0.0,0.2891217768192291,-1.5000503698932093,-0.0,-0.028560657054185867,0.44964683055877686,0.0,-0.0005187476053833961,0.7765089869499207,0.0,-0.04391618072986603
316.0,339.0,2.3862,0.2483,9.1567,-0.0397,0.0232,-0.1199,-1.5142805141261597,0.0,1.962918996810913,-1.7235379219055176,-0.0,2.2207205295562744,4.502813025111816,0.0,0.29401203989982605,-1.5000465551959437,-0.0,-0.014050589874386787,0.4496874213218689,0.0,0.004881898872554302,0.7765251398086548,0.0,0.013110932894051075
316.0,339.0,2.3862,0.2483,9.1567,-0.0397,0.0232,-0.1199,-1.5142966707101841,0.0,1.954859733581543,-1.7235461473464966,-0.0,2.1759848594665527,4.502809210414551,0.0,0.2845839858055115,-1.50006610551943,-0.0,-0.015831081196665764,0.4496750235557556,0.0,-0.017285946756601334,0.7765169739723206,0.0,-0.02103511616587639
316.0,339.0,2.3862,0.2483,9.1567,-0.0397,0.0232,-0.1199,-1.514316850607731,0.0,1.9361218214035034,-1.7235099077224731,-0.0,2.212240219116211,4.502821131343506,0.0,0.2914048731327057,-1.5000823179828089,-0.0,-0.023128483444452286,0.4496590793132782,0.0,-0.010506190359592438,0.7765007615089417,0.0,0.012070681899785995
316.0,339.0,2.3862,0.2483,9.1567,-0.0397,0.0232,-0.1199,-1.5142360043576737,0.0,1.9549823999404907,-1.7235461473464966,-0.0,2.1598846912384033,4.502824946040771,0.0,0.2931630313396454,-1.5000579992877405,-0.0,-0.024783635511994362,0.4496631920337677,0.0,0.0001604610006324947,0.7765490412712097,0.0,0.002611924195662141
316.0,339.0,2.3862,0.2483,9.1567,-0.0397,0.0232,-0.1199,-1.5143128310194989,0.0,1.9661734104156494,-1.7235140800476074,-0.0,2.1986083984375,4.502828760738037,0.0,0.29380232095718384,-1.5000823179828089,-0.0,-0.015018422156572342,0.44961076974868774,0.0,0.0008225771598517895,0.7765452265739441,0.0,0.05556443706154823
316.0,339.0,2.3862,0.2483,9.1567,-0.0397,0.0232,-0.1199,-1.5142805141261597,0.0,1.9693180322647095,-1.7235264778137207,-0.0,2.2099814414978027,4.502824946040771,0.0,0.29526180028915405,-1.500094238911764,-0.0,-0.020587876439094543,0.44963085651397705,0.0,0.006808578036725521,0.7765370607376099,0.0,0.0022691849153488874
316.0,339.0,2.3862,0.2483,9.1567,-0.0397,0.0232,-0.1199,-1.5142966707101841,0.0,1.9657214879989624,-1.7234739065170288,-0.0,2.1842782497406006,4.502840681666992,0.0,0.28062960505485535,-1.5000622908221644,-0.0,-0.012657949700951576,0.44965100288391113,0.0,-0.0016663222340866923,0.7764887809753418,0.0,-0.004369447473436594
316.0,339.0,2.3862,0.2483,9.1567,-0.0397,0.0232,-0.1199,-1.5142722775093098,0.0,1.9824035167694092,-1.723530650138855,-0.0,2.2325985431671143,4.502857370967529,0.0,0.29191040992736816,-1.5000622908221644,-0.0,-0.006070445757359266,0.4496631622314453,0.0,-0.00882725976407528,0.776569664478302,0.0,0.015370413661003113
316.0,339.0,2.3862,0.2483,9.1567,-0.0397,0.0232,-0.1199,-1.514260397558548,0.0,1.9118518829345703,-1.7235018014907837,-0.0,2.1615519523620605,4.502840681666992,0.0,0.294208288192749,-1.5000503698932093,-0.0,-0.0313846729695797,0.4496549963951111,0.0,-0.008830948732793331,0.776561439037323,0.0,0.003501472994685173
316.0,339.0,2.3862,0.2483,9.1567,-0.0397,0.0232,-0.1199,-1.5143087108484288,0.0,1.982357144355774,-1.7235461473464966,-0.0,2.173187255859375,4.502885027522705,0.0,0.28354716300964355,-1.5000622908221644,-0.0,-0.02939966507256031,0.4496993124485016,0.0,0.001186528243124485,0.7765288949012756,0.0,0.0294698104262352
316.0,339.0,2.3862,0.2483,9.1567,-0.0397,0.0232,-0.1199,-1.5142524366131802,0.0,1.9640158414840698,-1.7235347032546997,-0.0,2.187892436981201,4.5028368669697265,0.0,0.31467679142951965,-1.5000985304461878,-0.0,-0.0061321621760725975,0.4496873915195465,0.0,-0.004913405980914831,0.776553213596344,0.0,-0.03216954320669174
316.0,339.0,2.3862,0.2483,9.1567,-0.0397,0.0232,-0.1199,-1.5142925542644043,0.0,1.9383203983306885,-1.7235419750213623,-0.0,2.2112979888916016,4.502828760738037,0.0,0.2909511625766754,-1.5001028219806116,-0.0,-0.005266071762889624,0.4496230185031891,0.0,-0.0035506756976246834,0.7765692472457886,0.0,-0.023514140397310257
316.0,339.0,2.3862,0.2483,9.1567,-0.0397,0.0232,-0.1199,-1.5142966967872162,0.0,1.9647104740142822,-1.7235502004623413,-0.0,2.1749074459075928,4.5028368669697265,0.0,0.3051868975162506,-1.5000584761248987,-0.0,-0.024549022316932678,0.4495948553085327,0.0,0.002723989775404334,0.7765169143676758,0.0,0.03596348315477371
308.0,335.0,2.464,0.253,8.939,-0.0423,0.0292,-0.1277,-1.5142805141261597,0.0,1.969076156616211,-1.7235099077224731,-0.0,2.1899871826171875,4.502824946040771,0.0,0.2930760979652405,-1.5000422636615198,-0.0,-0.02398555353283882,0.44960296154022217,0.0,-0.006373460870236158,0.7765129208564758,0.0,0.028512369841337204
308.0,335.0,2.464,0.253,8.939,-0.0423,0.0292,-0.1277,-1.5143087033978482,0.0,1.9337830543518066,-1.7235140800476074,-0.0,2.206803321838379,4.502816839809082,0.0,0.3020777404308319,-1.50006610551943,-0.0,-0.003395837265998125,0.44964316487312317,0.0,0.002661831444129348,0.7765452265739441,0.0,-0.004917555022984743
308.0,335.0,2.464,0.253,8.939,-0.0423,0.0292,-0.1277,-1.5142887097648163,0.0,1.962595820426941,-1.723530650138855,-0.0,2.224534273147583,4.502816839809082,0.0,0.28495216369628906,-1.500094238911764,-0.0,-0.036777298897504807,0.44964274764060974,0.0,-0.0010215783258900046,0.7765411734580994,0.0,0.03895190730690956
308.0,335.0,2.464,0.253,8.939,-0.0423,0.0292,-0.1277,-1.5142442409745236,0.0,1.9835588932037354,-1.7234894037246704,-0.0,2.1821911334991455,4.502801104182861,0.0,0.2944552004337311,-1.5000622908221644,-0.0,-0.014508925378322601,0.44962307810783386,0.0,0.007630562409758568,0.7765292525291443,0.0,-0.01658821478486061
308.0,335.0,2.464,0.253,8.939,-0.0423,0.0292,-0.1277,-1.5142645177296181,0.0,1.9680283069610596,-1.7235575914382935,-0.0,2.21689510345459,4.502844973201416,0.0,0.28724050521850586,-1.5000622908221644,-0.0,-0.005811142735183239,0.4496878683567047,0.0,-0.003639289177954197,0.7765292525291443,0.0,-0.020974669605493546
308.0,335.0,2.464,0.253,8.939,-0.0423,0.0292,-0.1277,-1.5143210229328652,0.0,1.9737446308135986,-1.7235139608383179,-0.0,2.200612783432007,4.502769156093262,0.0,0.28332096338272095,-1.5000579992877405,-0.0,-0.028952164575457573,0.44967514276504517,0.0,0.003305025864392519,0.7765169739723206,0.0,-0.008714750409126282
308.0,335.0,2.464,0.253,8.939,-0.0423,0.0292,-0.1277,-1.5142442409745236,0.0,1.934975504875183,-1.723565697669983,-0.0,2.1607820987701416,4.502832575435303,0.0,0.2868357300758362,-1.5000465551959437,-0.0,-0.012004682794213295,0.44960707426071167,0.0,-0.0070965527556836605,0.7765370607376099,0.0,0.021091803908348083
308.0,335.0,2.464,0.253,8.939,-0.0423,0.0292,-0.1277,-1.51427639768038,0.0,1.945216178894043,-1.7235461473464966,-0.0,2.1633546352386475,4.502809210414551,0.0,0.2903522253036499,-1.50006610551943,-0.0,-0.019250961020588875,0.44961488246917725,0.0,0.0023872973397374153,0.7765732407569885,0.0,0.017138779163360596
308.0,335.0,2.464,0.253,8.939,-0.0423,0.0292,-0.1277,-1.5142722775093098,0.0,1.9733140468597412,-1.723574161529541,-0.0,2.207254409790039,4.502816839809082,0.0,0.2969188988208771,-1.5000785032855433,-0.0,-0.017307419329881668,0.44968369603157043,0.0,-0.007672171574085951,0.7765329480171204,0.0,0.024690404534339905
308.0,335.0,2.464,0.253,8.939,-0.0423,0.0292,-0.1277,-1.5142925542644043,0.0,1.9808645248413086,-1.7235181331634521,-0.0,2.2512409687042236,4.502857370967529,0.0,0.2997254729270935,-1.50006610551943,-0.0,-0.019677167758345604,0.44963908195495605,0.0,0.009816253557801247,0.7765370607376099,0.0,-0.025457728654146194
308.0,335.0,2.464,0.253,8.939,-0.0423,0.0292,-0.1277,-1.5142805141261597,0.0,1.9662935733795166,-1.7235058546066284,-0.0,2.1899361610412598,4.502857370967529,0.0,0.292235404253006,-1.5000703970538538,-0.0,-0.015277684666216373,0.4495866894721985,0.0,-0.000776467495597899,0.7765251398086548,0.0,-0.008686661720275879
308.0,335.0,2.464,0.253,8.939,-0.0423,0.0292,-0.1277,-1.5142805141261597,0.0,1.9103388786315918,-1.723522424697876,-0.0,2.1913108825683594,4.502828760738037,0.0,0.30975231528282166,-1.5000985304461878,-0.0,-0.02202134020626545,0.4496510326862335,0.0,5.244740532361902e-05,0.7765493988990784,0.0,-0.03920293599367142
308.0,335.0,2.464,0.253,8.939,-0.0423,0.0292,-0.1277,-1.5142722775093098,0.0,1.9271414279937744,-1.7235264778137207,-0.0,2.210930824279785,4.502828760738037,0.0,0.2984759509563446,-1.500110928212301,-0.0,-0.02166179195046425,0.44964683055877686,0.0,-0.0074835484847426414,0.7764846086502075,0.0,-0.025755660608410835
308.0,335.0,2.464,0.253,8.939,-0.0423,0.0292,-0.1277,-1.5142966707101841,0.0,1.903904676437378,-1.7234697341918945,-0.0,2.178736686706543,4.502824946040771,0.0,0.30044907331466675,-1.5000622908221644,-0.0,-0.03495671972632408,0.4496631622314453,0.0,-0.0009347437298856676,0.7765370607376099,0.0,-0.03218002989888191
322.0,347.0,2.4114,0.1848,9.0455,-0.0292,0.0266,-0.1106,-1.5142442409745236,0.0,1.943983554840088,-1.7235419750213623,-0.0,2.2175748348236084,4.502801104182861,0.0,0.29187285900115967,-1.50006610551943,-0.0,-0.012320339679718018,0.449699342250824,0.0,0.002782815136015415,0.7764766812324524,0.0,0.01696343719959259
322.0,347.0,2.4114,0.1848,9.0455,-0.0292,0.0266,-0.1106,-1.5142884378186245,0.0,1.9746637344360352,-1.7235140800476074,-0.0,2.2159032821655273,4.502804918880127,0.0,0.3013782799243927,-1.5000579992877405,-0.0,-0.022841164842247963,0.44965100288391113,0.0,0.010016605257987976,0.7764764428138733,0.0,0.008791321888566017
322.0,347.0,2.4114,0.1848,9.0455,-0.0292,0.0266,-0.1106,-1.5142925542644043,0.0,1.9063968658447266,-1.7234853506088257,-0.0,2.2021801471710205,4.50284926473584,0.0,0.2939056158065796,-1.5000622908221644,-0.0,-0.026550929993391037,0.4496631622314453,0.0,-0.010064971633255482,0.7765493392944336,0.0,-0.00699623953551054
322.0,347.0,2.4114,0.1848,9.0455,-0.0292,0.0266,-0.1106,-1.5142805141261597,0.0,1.9434854984283447,-1.7235461473464966,-0.0,2.1623761653900146,4.502840681666992,0.0,0.29056599736213684,-1.500054661427633,-0.0,-0.031870413571596146,0.44962307810783386,0.0,0.006601060274988413,0.7765411138534546,0.0,0.061442483216524124
322.0,347.0,2.4114,0.1848,9.0455,-0.0292,0.0266,-0.1106,-1.5142845895937462,0.0,1.9640852212905884,-1.7235099077224731,-0.0,2.2258169651031494,4.502821131343506,0.0,0.2933909296989441,-1.5000141302691858,-0.0,-0.017396805807948112,0.44964686036109924,0.0,-8.365488611161709e-05,0.7765333652496338,0.0,-0.0026605422608554363
322.0,347.0,2.4114,0.1848,9.0455,-0.0292,0.0266,-0.1106,-1.51427639768038,0.0,1.9339711666107178,-1.7235338687896729,-0.0,2.1956679821014404,4.502853079433105,0.0,0.29096245765686035,-1.500094238911764,-0.0,-0.018830042332410812,0.4496873617172241,0.0,0.0010764764156192541,0.7765210866928101,0.0,0.02424772083759308
322.0,347.0,2.4114,0.1848,9.0455,-0.0292,0.0266,-0.1106,-1.5142966707101841,0.0,1.9374117851257324,-1.723522424697876,-0.0,2.1849942207336426,4.502868815059326,0.0,0.2922835648059845,-1.5000742117511194,-0.0,-0.010218371637165546,0.44961076974868774,0.0,0.002232199301943183,0.7765251398086548,0.0,-0.028641676530241966
322.0,347.0,2.4114,0.1848,9.0455,-0.0292,0.0266,-0.1106,-1.5142805141261597,0.0,1.976172685623169,-1.7234902381896973,-0.0,2.2114410400390625,4.502828760738037,0.0,0.29677969217300415,-1.500054184590475,-0.0,-0.01144368201494217,0.44963085651397705,0.0,0.003946383483707905,0.7765411734580994,0.0,-0.030040182173252106
322.0,347.0,2.4114,0.1848,9.0455,-0.0292,0.0266,-0.1106,-1.5142442409745236,0.0,1.9726505279541016,-1.7235419750213623,-0.0,2.2119646072387695,4.50284926473584,0.0,0.2938050627708435,-1.5000985304461878,-0.0,-0.013224766589701176,0.44963085651397705,0.0,0.0003222923551220447,0.7764806151390076,0.0,0.007892036810517311
322.0,347.0,2.4114,0.1848,9.0455,-0.0292,0.0266,-0.1106,-1.5143490631929417,0.0,1.9511034488677979,-1.7234976291656494,-0.0,2.1575472354888916,4.502828760738037,0.0,0.2791826128959656,-1.500049893056051,-0.0,-0.005941338371485472,0.44965508580207825,0.0,-0.005502060055732727,0.7765210866928101,0.0,0.002484110649675131
322.0,347.0,2.4114,0.1848,9.0455,-0.0292,0.0266,-0.1106,-1.514235982005932,0.0,1.938765287399292,-1.7235181331634521,-0.0,2.200620651245117,4.502832575435303,0.0,0.3003161549568176,-1.5000503698932093,-0.0,-0.02435731329023838,0.44961485266685486,0.0,-0.008521259762346745,0.7764887809753418,1.5064391791289045e-12,-0.004415002651512623
322.0,347.0,2.4114,0.1848,9.0455,-0.0292,0.0266,-0.1106,-1.514345036154129,0.0,1.9132912158966064,-1.723514199256897,-0.0,2.190375566482544,4.502865477199219,0.0,0.29351112246513367,-1.5000699202166956,-0.0,-0.006146075204014778,0.4496549963951111,0.0,-0.0009296438656747341,0.7765733003616333,3.6378741595592115e-18,0.01087288185954094
322.0,347.0,2.4114,0.1848,9.0455,-0.0292,0.0266,-0.1106,-1.5142606285265465,0.0,1.9518420696258545,-1.7235462665557861,-0.0,2.1789159774780273,4.50287310659375,0.0,0.2855207622051239,-1.500042740498678,-0.0,-0.00926029309630394,0.449638694524765,0.0,-0.01267455704510212,0.7765370607376099,8.785038241606162e-24,0.03572501614689827
322.0,347.0,2.4114,0.1848,9.0455,-0.0292,0.0266,-0.1106,-1.5142521646669884,0.0,1.9680949449539185,-1.7234779596328735,-0.0,2.208726644515991,4.502876921291016,0.0,0.29709750413894653,-1.500094238911764,-0.0,-0.008886504918336868,0.44963538646698,0.0,0.0029184736777096987,0.7765251398086548,2.1214833037990703e-29,-0.014938155189156532
316.0,329.0,2.4257,0.3643,8.9414,-0.0237,0.0327,-0.1232,-1.5142925691655655,0.0,1.967360019683838,-1.7235182523727417,-0.0,2.196486473083496,4.50284926473584,0.0,0.29599642753601074,-1.5000422636615198,-0.0,-0.013510213233530521,0.44973573088645935,0.0,0.00022670376347377896,0.7765691876411438,6.873334887934575e-37,-0.006856155581772327
316.0,329.0,2.4257,0.3643,8.9414,-0.0237,0.0327,-0.1232,-1.51427639768038,0.0,1.930220127105713,-1.7235182523727417,-0.0,2.2250709533691406,4.502816839809082,0.0,0.2809630036354065,-1.5000465551959437,-0.0,-0.013309994712471962,0.4496914744377136,0.0,-0.010226118378341198,0.7765613794326782,1.6591373817605834e-42,0.030072350054979324
316.0,329.0,2.4257,0.3643,8.9414,-0.0237,0.0327,-0.1232,-1.5142764088562508,0.0,1.9404327869415283,-1.723530650138855,-0.0,2.1881163120269775,4.502864523524902,0.0,0.28691723942756653,-1.5000579992877405,-0.0,-0.030380120500922203,0.4496673345565796,0.0,0.003865067148581147,0.7764887809753418,0.0,-0.03263958916068077
316.0,329.0,2.4257,0.3643,8.9414,-0.0237,0.0327,-0.1232,-1.5142843511751671,0.0,1.9637489318847656,-1.7235502004623413,-0.0,2.1975114345550537,4.502833052272461,0.0,0.29201459884643555,-1.500054661427633,-0.0,-0.0072283316403627396,0.4496346116065979,0.0,0.0015422190772369504,0.7765493392944336,0.0,-0.007789647206664085
316.0,329.0,2.4257,0.3643,8.9414,-0.0237,0.0327,-0.1232,-1.5143048663488408,0.0,1.9872205257415771,-1.7234933376312256,-0.0,2.2250096797943115,4.502824946040771,0.0,0.29374969005584717,-1.5000785032855433,-0.0,-0.026463419198989868,0.44965097308158875,0.0,-0.006567448377609253,0.7765049338340759,0.0,0.01389787532389164
316.0,329.0,2.4257,0.3643,8.9414,-0.0237,0.0327,-0.1232,-1.5142483574203034,0.0,1.9326388835906982,-1.7235181331634521,-0.0,2.2315750122070312,4.502821131343506,0.0,0.2822526693344116,-1.5000699202166956,-0.0,-0.02754347398877144,0.44964683055877686,0.0,0.008388102985918522,0.7765169739723206,0.0,0.01877456158399582
316.0,329.0,2.4257,0.3643,8.9414,-0.0237,0.0327,-0.1232,-1.5142764088562508,0.0,1.9477587938308716,-1.7235099077224731,-0.0,2.213660478591919,4.502824946040771,0.0,0.28446656465530396,-1.5000622908221644,-0.0,-0.01030653528869152,0.4496108591556549,0.0,-0.01741521991789341,0.7765732407569885,0.0,-0.0156722329556942
316.0,329.0,2.4257,0.3643,8.9414,-0.0237,0.0327,-0.1232,-1.5142966744354744,0.0,1.9510807991027832,-1.7235099077224731,-0.0,2.202033519744873,4.502821131343506,0.0,0.2957789897918701,-1.5000503698932093,-0.0,-0.02014293149113655,0.4496591091156006,0.0,-0.0007748657371848822,0.7765691876411438,0.0,0.017827458679676056
316.0,329.0,2.4257,0.3643,8.9414,-0.0237,0.0327,-0.1232,-1.514296693061926,0.0,1.9720218181610107,-1.7235182523727417,-0.0,2.205247640609741,4.502821131343506,0.0,0.2819174528121948,-1.5000465551959437,-0.0,-0.01465760450810194,0.4496873617172241,0.0,-0.011056097224354744,0.7765169739723206,0.0,-0.0523909330368042
316.0,329.0,2.4257,0.3643,8.9414,-0.0237,0.0327,-0.1232,-1.5143289615264912,0.0,1.936445951461792,-1.7235461473464966,-0.0,2.185786485671997,4.502853079433105,0.0,0.2990384101867676,-1.5000579992877405,-0.0,-0.008973488584160805,0.44965505599975586,0.0,-0.004046105779707432,0.7765370607376099,0.0,0.015228843316435814
316.0,329.0,2.4257,0.3643,8.9414,-0.0237,0.0327,-0.1232,-1.514272255157568,0.0,1.9568973779678345,-1.7234934568405151,-0.0,2.139194965362549,4.502828760738037,0.0,0.2878569960594177,-1.5000904242144983,-0.0,-0.010196343064308167,0.4496791362762451,0.0,-0.0008259890601038933,0.7765370607376099,0.0,-0.010778309777379036
316.0,329.0,2.4257,0.3643,8.9414,-0.0237,0.0327,-0.1232,-1.5143048961511631,0.0,1.9490549564361572,-1.7235182523727417,-0.0,2.2136693000793457,4.502848787898682,0.0,0.28265634179115295,-1.5000465551959437,-0.0,-0.029430579394102097,0.449627161026001,0.0,-0.005308289080858231,0.7765089869499207,0.0,0.013229227624833584
316.0,329.0,2.4257,0.3643,8.9414,-0.0237,0.0327,-0.1232,-1.5142804992249985,0.0,2.0010409355163574,-1.7234976291656494,-0.0,2.231839895248413,4.502784891719482,0.0,0.2972005605697632,-1.5000622908221644,-0.0,-0.02854057028889656,0.4496791362762451,0.0,-0.0021370449103415012,0.7765370607376099,0.0,0.02551012858748436
307.0,325.0,2.2666,0.1693,9.1041,-0.0319,0.0405,-0.1194,-1.5142523993602772,0.0,1.9533010721206665,-1.7235221862792969,-0.0,2.19435453414917,4.502821131343506,0.0,0.2986505627632141,-1.50006610551943,-0.0,-0.0037502842023968697,0.4496833086013794,0.0,-0.005340639967471361,0.7765089869499207,2.1113686671014875e-05,0.04342222958803177
307.0,325.0,2.2666,0.1693,9.1041,-0.0319,0.0405,-0.1194,-1.5142966744354744,0.0,1.9707489013671875,-1.7235461473464966,-0.0,2.2068088054656982,4.502804918880127,0.0,0.29019248485565186,-1.5000422636615198,-0.0,-0.02602553181350231,0.4497111141681671,0.0,0.0027229913976043463,0.7765408754348755,2.8976779503864236e-05,-0.025563465431332588
307.0,325.0,2.2666,0.1693,9.1041,-0.0319,0.0405,-0.1194,-1.5142966856113453,0.0,1.9513285160064697,-1.7235740423202515,-0.0,2.237600564956665,4.502881212825439,0.0,0.29541173577308655,-1.5000866095172327,-0.0,-0.016093721613287926,0.4496631920337677,0.0,-0.01239272952079773,0.7765411138534546,2.7641870474326424e-05,-0.017996976152062416
307.0,325.0,2.2666,0.1693,9.1041,-0.0319,0.0405,-0.1194,-1.51424020275984,0.0,1.937849998474121,-1.7235428094863892,-0.0,2.2078065872192383,4.502824946040771,0.0,0.28599363565444946,-1.5000579992877405,-0.0,-0.004370443988591433,0.4496268033981323,0.0,-0.003667280077934265,0.7765411138534546,2.6424502721056342e-05,0.002406185492873192
307.0,325.0,2.2666,0.1693,9.1041,-0.0319,0.0405,-0.1194,-1.5142523993602772,0.0,1.9631930589675903,-1.7235419750213623,-0.0,2.2022976875305176,4.502784891719482,0.0,0.29403772950172424,-1.5000465551959437,-0.0,-0.027083709836006165,0.4496713876724243,0.0,-0.00904671661555767,0.7764806151390076,2.4958928406704217e-05,-0.012277853675186634
307.0,325.0,2.2666,0.1693,9.1041,-0.0319,0.0405,-0.1194,-1.5143129018000145,0.0,1.9525578022003174,-1.7235018014907837,1.5771335626357796e-11,2.1759824752807617,4.502821131343506,8.765635470808775e-07,0.2884196639060974,-1.5000303427325647,-0.0,-0.01801081746816635,0.44966694712638855,0.0,0.00045094703091308475,0.7765089869499207,2.3962173145264387e-05,-0.02840305119752884
307.0,325.0,2.2666,0.1693,9.1041,-0.0319,0.0405,-0.1194,-1.5142524068108578,0.0,1.9639196395874023,-1.7235058546066284,3.8085916648448456e-17,2.207362174987793,4.50284115850415,2.439946855670172e-10,0.2940559983253479,-1.5001066366778772,-0.0,-0.012336365878582,0.44964683055877686,0.0,0.001204094965942204,0.7765008211135864,3.450948861427605e-05,-0.0031662099063396454
307.0,325.0,2.2666,0.1693,9.1041,-0.0319,0.0405,-0.1194,-1.514248301540949,1.6035043515216785e-08,1.9554815292358398,-1.723462462425232,1.233935143262962e-24,2.2422842979431152,4.502816839809082,4.4344830237052265e-15,0.284663587808609,-1.500122372304098,-0.0,-0.002798324218019843,0.4497070908546448,0.0,-0.010810693725943565,0.7765330076217651,3.2879397622309625e-05,-0.037943366914987564
307.0,325.0,2.2666,0.1693,9.1041,-0.0319,0.0405,-0.1194,-1.5142685931972046,3.87227413762431e-14,1.955924391746521,-1.7234852313995361,2.9798078377525456e-30,2.1851916313171387,4.502872629756592,1.2343549958058505e-18,0.3024633526802063,-1.50006610551943,-4.342613522112515e-07,-0.015331871807575226,0.44965100288391113,0.0,-0.00576271815225482,0.7765251398086548,3.8684916944475845e-05,-0.005651860497891903
307.0,325.0,2.2666,0.1693,9.1041,-0.0319,0.0405,-0.1194,-1.5142483350685616,9.351088770569593e-20,1.9810564517974854,-1.7235264778137207,7.195886530759226e-36,2.1545705795288086,4.502889319057129,3.4358724393108266e-22,0.29879042506217957,-1.5000861326800745,-1.2087823797468644e-10,-0.022743478417396545,0.44964686036109924,0.0,0.00821787677705288,0.7765491008758545,5.905873331357725e-05,-0.0015327157452702522
307.0,325.0,2.2666,0.1693,9.1041,-0.0319,0.0405,-0.1194,-1.514248364870884,2.2581779431056297e-25,1.9461991786956787,-1.7234737873077393,-3.1018331355880946e-05,2.159104347229004,4.502840681666992,9.563877211368213e-26,0.29935896396636963,-1.500122372304098,-3.364690999234886e-14,-0.017345799133181572,0.4496791660785675,0.0,-0.01290658675134182,0.7765933275222778,0.00011050578177673742,0.005115699954330921
307.0,325.0,2.2666,0.1693,9.1041,-0.0319,0.0405,-0.1194,-1.5142446060529728,7.316209983276714e-33,1.937795639038086,-1.7235140800476074,-3.966164877056144e-05,2.190500259399414,4.502868815059326,1.7381873217586492e-30,0.2954029142856598,-1.5001347700702112,-6.115158602003061e-19,-0.02736314758658409,0.44964686036109924,0.0,-0.008087338879704475,0.7765406370162964,0.0009058791329152882,-0.048863135278224945
307.0,325.0,2.2666,0.1693,9.1041,-0.0319,0.0405,-0.1194,-1.514316951190569,1.7667785436872335e-38,1.9842137098312378,-1.7235099077224731,-3.503016341710463e-05,2.2284603118896484,4.50284115850415,4.8383081156906496e-34,0.2958103120326996,-1.500134293233053,-1.7021770506885045e-22,-0.02501913718879223,0.44964686036109924,0.0,-0.0007623290293850005,0.7765891551971436,0.0017023045802488923,-0.01779188960790634
307.0,325.0,2.2666,0.1693,9.1041,-0.0319,0.0405,-0.1194,-1.51427639768038,4.203895392974451e-44,1.9308310747146606,-1.7235419750213623,-3.136737359454855e-05,2.209071636199951,4.502853556270264,1.3467610491320667e-37,0.2870215177536011,-1.5000737349139612,-4.7380723926755784e-26,-0.014125465415418148,0.4496631622314453,0.0,-0.0037011592648923397,0.7766373753547668,0.0021685934625566006,0.03483198210597038
316.0,327.0,2.3892,0.1424,9.0562,-0.0235,0.0157,-0.1064,-1.5143007722548028,0.0,1.9449448585510254,-1.7234770059585571,-2.7529418730409816e-05,2.2126834392547607,4.502828760738037,2.4480684171754554e-42,0.27279388904571533,-1.5001099745379847,-8.611212701129517e-31,-0.009455215185880661,0.4496673345565796,0.0,-0.008420693688094616,0.776641845703125,0.005081667564809322,0.004818690940737724
316.0,327.0,2.3892,0.1424,9.0562,-0.0235,0.0157,-0.1064,-1.5142805141261597,0.0,1.9534704685211182,-1.7235658168792725,-2.5215453206328675e-05,2.2306642532348633,4.502824946040771,0.0,0.27739569544792175,-1.50006610551943,-2.396962469376227e-34,-0.02448670193552971,0.44963908195495605,0.0,0.00726478174328804,0.7766328454017639,0.007431650999933481,0.03262198716402054
316.0,327.0,2.3892,0.1424,9.0562,-0.0235,0.0157,-0.1064,-1.5142645065537472,0.0,1.919067621231079,-1.7235534191131592,-2.3260396119439974e-05,2.16500186920166,4.50284115850415,0.0,0.2845841944217682,-1.500049893056051,-6.672032646236581e-38,-0.01172309834510088,0.4496549963951111,0.0,-0.006001967936754227,0.7767212390899658,0.007532232906669378,-0.04485654458403587
316.0,327.0,2.3892,0.1424,9.0562,-0.0235,0.0157,-0.1064,-1.5142722775093098,0.0,1.9662961959838867,-1.7235264778137207,-2.158668576157652e-05,2.172184467315674,4.502824946040771,0.0,0.2978702783584595,-1.5000861326800745,-1.85714085476968e-41,-0.030053213238716125,0.4496673345565796,0.0,0.00021491694496944547,0.7767251133918762,0.0076887584291398525,0.016476329416036606
316.0,327.0,2.3892,0.1424,9.0562,-0.0235,0.0157,-0.1064,-1.5142966707101841,0.0,1.9486594200134277,-1.723470687866211,-1.9697043171618134e-05,2.1835474967956543,4.50284926473584,0.0,0.2918272614479065,-1.5000742117511194,-0.0,-0.011825929395854473,0.4496750831604004,0.0,-0.002045430475845933,0.7768538594245911,0.007220071274787188,0.014262998476624489
316.0,327.0,2.3892,0.1424,9.0562,-0.0235,0.0157,-0.1064,-1.514280242179968,-4.4960233935853466e-05,1.9931809902191162,-1.7235140800476074,-3.6713772715302184e-05,2.2222177982330322,4.502804918880127,0.0,0.2895612418651581,-1.5001261870013636,-0.0,-0.009439247660338879,0.44972747564315796,0.0,-0.00187615305185318,0.7768332362174988,0.007236743811517954,0.0559992678463459
316.0,327.0,2.3892,0.1424,9.0562,-0.0235,0.0157,-0.1064,-1.5143570725670834,-6.27388508291915e-05,1.944885492324829,-1.7235140800476074,-3.482142710709013e-05,2.188084840774536,4.502840681666992,0.0,0.30302298069000244,-1.5000699202166956,-0.0,-0.016085762530565262,0.44968292117118835,0.0,-0.006536498665809631,0.7768768668174744,0.006648369133472443,0.011982563883066177
316.0,327.0,2.3892,0.1424,9.0562,-0.0235,0.0157,-0.1064,-1.5143447269550343,-9.542603220324963e-05,1.962259292602539,-1.7235182523727417,-4.847965465160087e-05,2.1683077812194824,4.502801104182861,0.0,0.300270140171051,-1.5000861326800745,-0.0,-0.025584600865840912,0.4496910870075226,0.0,-0.012035714462399483,0.7769864201545715,0.0071098096668720245,0.0078554293140769
316.0,327.0,2.3892,0.1424,9.0562,-0.0235,0.0157,-0.1064,-1.5143405881575127,-0.0005172202363610268,1.9163036346435547,-1.723574161529541,-4.600269312504679e-05,2.177543878555298,4.502804918880127,0.0,0.28543853759765625,-1.5000699202166956,-0.0,-0.01634017378091812,0.4496910870075226,0.0,-0.0002629348309710622,0.7770095467567444,0.006978083401918411,0.016506915912032127
316.0,327.0,2.3892,0.1424,9.0562,-0.0235,0.0157,-0.1064,-1.514352523987629,-0.0006830215570516884,1.9307060241699219,-1.7235535383224487,-4.3765674490714446e-05,2.2271432876586914,4.502828760738037,0.0,0.3050134479999542,-1.5000699202166956,-0.0,-0.020615866407752037,0.44964268803596497,0.0,-0.011544511653482914,0.7770259976387024,0.007836129516363144,0.006672761403024197
316.0,327.0,2.3892,0.1424,9.0562,-0.0235,0.0157,-0.1064,-1.5144046519747754,-0.0008211878011934459,1.8892892599105835,-1.7235660552978516,-9.227344708051533e-05,2.196258544921875,4.502789183253906,0.0,0.285273015499115,-1.5001028219806116,-0.0,-0.017865698784589767,0.44969478249549866,0.0,-0.0030060489661991596,0.7770739793777466,0.008071176707744598,0.022340849041938782
316.0,327.0,2.3892,0.1424,9.0562,-0.0235,0.0157,-0.1064,-1.5143761684051533,-0.0015591108240187168,1.9767343997955322,-1.7235864400863647,-0.00012515745765995234,2.204209089279175,4.502781077022217,0.0,0.2810623049736023,-1.500054184590475,-0.0,-0.023112677037715912,0.4497152268886566,0.0,-0.0034659337252378464,0.7771169543266296,0.009104223921895027,0.0014578721020370722
316.0,327.0,2.3892,0.1424,9.0562,-0.0235,0.0157,-0.1064,-1.5144245040467759,-0.0026258614379912615,1.9463648796081543,-1.7236061096191406,-0.000589188770391047,2.189183235168457,4.502792997951172,0.0,0.28470760583877563,-1.5000904242144983,-0.0,-0.02323051542043686,0.4496627748012543,0.0,-0.0016162029933184385,0.7771975994110107,0.009927503764629364,-0.023872267454862595
316.0,327.0,2.3892,0.1424,9.0562,-0.0235,0.0157,-0.1064,-1.5144888770631333,-0.004147519823163748,1.9654784202575684,-1.7235617637634277,-0.0005120433052070439,2.2041969299316406,4.502809210414551,-2.484298966010101e-05,0.28328701853752136,-1.500054184590475,-0.0,-0.013622263446450233,0.44968703389167786,0.0,-0.002843602327629924,0.7772414088249207,0.010301630944013596,-0.014189035631716251
312.0,341.0,2.19,0.0395,9.0814,-0.0237,-0.0049,-0.11,-1.5145165410688897,-0.007044999394565821,1.9602866172790527,-1.723602056503296,-0.00043309907778166234,2.2236595153808594,4.502785368556641,-3.5264765756437555e-05,0.29489219188690186,-1.500054184590475,-0.0,-0.017689373344182968,0.44975948333740234,7.388941902775059e-09,0.007238543592393398,0.7773740291595459,0.013794648461043835,0.01631265878677368
312.0,341.0,2.19,0.0395,9.0814,-0.0237,-0.0049,-0.11,-1.5145765592208882,-0.007825865410268307,1.9187850952148438,-1.7236300706863403,-0.00035904295509681106,2.2233786582946777,4.502765341395996,-3.4121290809707716e-05,0.29653358459472656,-1.500049893056051,-0.0,-0.02012202888727188,0.4497595429420471,2.056739327460644e-12,-0.008752677589654922,0.7774744629859924,0.015345728024840355,0.06490445137023926
312.0,341.0,2.19,0.0395,9.0814,-0.0237,-0.0049,-0.11,-1.5146567237428208,-0.008455934934318066,1.9123600721359253,-1.7235535383224487,-0.0003066107747144997,2.192138433456421,4.502801104182861,-4.378542143967934e-05,0.29104697704315186,-1.5001028219806116,-0.0,-0.010298579931259155,0.4496627151966095,5.7250099284059065e-16,0.008305005729198456,0.777546226978302,0.016026204451918602,0.007021607831120491
312.0,341.0,2.19,0.0395,9.0814,-0.0237,-0.0049,-0.11,-1.514672466819622,-0.00913492776453495,1.885850429534912,-1.7235660552978516,-0.00026754484861157835,2.211916446685791,4.502813025111816,-4.2288611439289525e-05,0.2910551428794861,-1.5000456015216272,-0.0,-0.015514064580202103,0.44967469573020935,1.5935775380032154e-19,-0.014463597908616066,0.7776221632957458,0.01573832705616951,0.05359344184398651
312.0,341.0,2.19,0.0395,9.0814,-0.0237,-0.0049,-0.11,-1.5147561331144352,-0.01108628697693348,1.907250165939331,-1.7235980033874512,-0.0002161703014280647,2.157118558883667,4.502757235164307,-4.039077612105757e-05,0.29653817415237427,-1.5000985304461878,-0.0,-0.014071807265281677,0.44974347949028015,2.8962483821164846e-24,-0.003957266919314861,0.7777543067932129,0.015579457394778728,0.04640745371580124
312.0,341.0,2.19,0.0395,9.0814,-0.0237,-0.0049,-0.11,-1.5148398664644738,-0.013612041249871254,1.9643443822860718,-1.723593831062317,-0.00029998208628967404,2.176424980163574,4.502781077022217,-6.627241191381472e-07,0.2910621166229248,-1.5001066366778772,-0.0,-0.013826776295900345,0.44966691732406616,8.061813228416209e-28,0.005263924598693848,0.7778666019439697,0.015453612431883812,-0.010531775653362274
312.0,341.0,2.19,0.0395,9.0814,-0.0237,-0.0049,-0.11,-1.514968191539385,-0.016385698691010475,1.9433138370513916,-1.723625898361206,-0.0010439219186082482,2.1286020278930664,4.502725763911865,-1.8447170180291295e-10,0.2975732684135437,-1.5000742117511194,-0.0,-0.02001366764307022,0.44969889521598816,2.2440354077395285e-31,0.009664220735430717,0.7779421806335449,0.014296039938926697,0.07378499209880829
312.0,341.0,2.19,0.0395,9.0814,-0.0237,-0.0049,-0.11,-1.5151359190097828,-0.019311130046844482,1.92228102684021,-1.7236497402191162,-0.0009074222762137651,2.1877973079681396,4.502813025111816,-3.352682189625188e-15,0.28637126088142395,-1.5000699202166956,-0.0,-0.01618500053882599,0.4497110843658447,0.0001745092449709773,-0.0162019245326519,0.7780102491378784,0.012416785582900047,0.01000714860856533
312.0,341.0,2.19,0.0395,9.0814,-0.0237,-0.0049,-0.11,-1.5153044176152726,-0.02141660265624523,1.9168345928192139,-1.723662257194519,-0.000865534006152302,2.195204496383667,4.502765341395996,-9.332314743344965e-19,0.2943805754184723,-1.5000818411456507,-0.0,-0.013115816749632359,0.4497070014476776,0.00019347708439454436,0.013640269637107849,0.7781392931938171,0.011823269538581371,0.09149466454982758
312.0,341.0,2.19,0.0395,9.0814,-0.0237,-0.0049,-0.11,-1.5153955978206177,-0.023715514689683914,1.8989615440368652,-1.7236579656600952,-0.0007942374795675278,2.2132956981658936,4.5027734476276855,-2.5976841247952173e-22,0.29467475414276123,-1.5000861326800745,-0.0,-0.0164226982742548,0.4497349262237549,0.00022543012164533138,0.001790529233403504,0.7782145142555237,0.010486382991075516,-0.019035842269659042
312.0,341.0,2.19,0.0395,9.0814,-0.0237,-0.0049,-0.11,-1.5155556549182911,-0.02516692690551281,1.9505517482757568,-1.723662257194519,-0.0009382820571772754,2.2142796516418457,4.502765341395996,-7.230749593657535e-26,0.29339951276779175,-1.500122372304098,-0.0,-0.01654139906167984,0.4497430920600891,0.00037988496478646994,0.004996235016733408,0.7782344818115234,0.00942923128604889,-0.01629355549812317
312.0,341.0,2.19,0.0395,9.0814,-0.0237,-0.0049,-0.11,-1.5157837693444272,-0.02735808864235878,1.8948622941970825,-1.7236137390136719,-0.0010209257015958428,2.1926472187042236,4.502789183253906,-1.3141530313379387e-30,0.29629507660865784,-1.5001099745379847,-0.0,-0.024325691163539886,0.4497110843658447,0.0003183478256687522,0.005041609983891249,0.7782862782478333,0.008195961825549603,-0.020384302362799644
312.0,341.0,2.19,0.0395,9.0814,-0.0237,-0.0049,-0.11,-1.5159598377398034,-0.028804296627640724,1.9490355253219604,-1.7236735820770264,-0.0010111690498888493,2.1961851119995117,4.502720995540283,-3.657993319675029e-34,0.2760770916938782,-1.5000818411456507,-0.0,-0.015973752364516258,0.4496987462043762,0.00031485105864703655,-0.00302090123295784,0.7783628106117249,0.007193544879555702,-0.03464550897479057
312.0,341.0,2.19,0.0395,9.0814,-0.0237,-0.0049,-0.11,-1.5161315773478528,-0.030556613579392433,1.9518755674362183,-1.723689079284668,-0.0008411580929532647,2.2233808040618896,4.50276152669873,-9.29209272726439e-05,0.2983502745628357,-1.5001180807696741,-0.0,-0.020250333473086357,0.44966238737106323,0.0003011256630998105,0.012616601772606373,0.7783867120742798,0.005953219253569841,0.023881901055574417
311.0,334.0,1.55,-0.1663,9.2004,-0.0258,-0.0173,-0.1199,-1.5163750138929863,-0.03230082988739014,1.89642333984375,-1.7237375974655151,-0.0005791680887341499,2.191934585571289,4.502729101771973,-8.694345888216048e-05,0.3026265501976013,-1.5001142660724085,-0.0,-0.024689119309186935,0.44977959990501404,0.0002609849034342915,0.0016754630487412214,0.7784385681152344,0.0048897708766162395,-0.016141127794981003
311.0,334.0,1.55,-0.1663,9.2004,-0.0258,-0.0173,-0.1199,-1.5165550907007237,-0.03676791116595268,1.8716368675231934,-1.723713994026184,-0.0005111515638418496,2.208794116973877,4.5027734476276855,-9.026945190271363e-05,0.2839060425758362,-1.5001028219806116,-0.0,-0.005250445567071438,0.4497230052947998,0.00023213036183733493,0.01109573245048523,0.7784671187400818,0.004482444375753403,0.05290301516652107
311.0,334.0,1.55,-0.1663,9.2004,-0.0258,-0.0173,-0.1199,-1.5167705503157158,-0.0419565811753273,1.9047174453735352,-1.7236809730529785,-0.0004697955446317792,2.161764621734619,4.502741499538086,-9.349147148896009e-05,0.29836374521255493,-1.5001066366778772,-0.0,-0.015393827110528946,0.44976308941841125,0.00020902164396829903,-0.001742696389555931,0.7784788012504578,0.004013548139482737,0.03431929647922516
311.0,334.0,1.55,-0.1663,9.2004,-0.0258,-0.0173,-0.1199,-1.5170305383256455,-0.04716269671916962,1.8846888542175293,-1.723713994026184,-0.00039287854451686144,2.2088723182678223,4.502789183253906,-8.887732838047668e-05,0.2913799285888672,-1.5000737349139612,-0.0,-0.011019270867109299,0.449715256690979,0.0001900983916129917,0.013455286622047424,0.7785314321517944,0.0036492240615189075,0.003371960949152708
311.0,334.0,1.55,-0.1663,9.2004,-0.0258,-0.0173,-0.1199,-1.5174302396229287,-0.05173853784799576,1.8845281600952148,-1.723662257194519,-0.0003224845859222114,2.1906442642211914,4.502712889308594,-8.3387472841423e-05,0.276519238948822,-1.5001466909991663,-0.0,-0.018105510622262955,0.44968247413635254,0.0001938000350492075,0.011100709438323975,0.7785429358482361,0.0032796277664601803,0.012261442840099335
311.0,334.0,1.55,-0.1663,9.2004,-0.0258,-0.0173,-0.1199,-1.5177580688944836,-0.05613890662789345,1.8871655464172363,-1.7236499786376953,-0.00028428350924514234,2.159292221069336,4.50276152669873,-7.969548460096121e-05,0.2970370650291443,-1.5000618139850062,-0.0,-0.022133339196443558,0.4497312605381012,0.00017936652875505388,0.012117341160774231,0.7785346508026123,0.003072416177019477,0.02123119682073593
311.0,334.0,1.55,-0.1663,9.2004,-0.0258,-0.0173,-0.1199,-1.5181142215481778,-0.05798830837011337,1.9167461395263672,-1.7236769199371338,-0.000254175130976364,2.226266384124756,4.502720995540283,-7.631655898876488e-05,0.28492188453674316,-1.5001028219806116,-0.0,-0.012460799887776375,0.4497029185295105,0.00016689278709236532,0.01273675449192524,0.7785627245903015,0.003575029317289591,0.04149749130010605
311.0,334.0,1.55,-0.1663,9.2004,-0.0258,-0.0173,-0.1199,-1.518568941657879,-0.06538879126310349,1.9110727310180664,-1.7237459421157837,-0.0001940583752002567,2.2285943031311035,4.502729101771973,-8.425841951975599e-05,0.28723955154418945,-1.5001056830035608,-5.101852025291009e-07,-0.02155352011322975,0.4497230052947998,0.00015273119788616896,0.012326949276030064,0.7786350250244141,0.005135699175298214,0.046617887914180756
311.0,334.0,1.55,-0.1663,9.2004,-0.0258,-0.0173,-0.1199,-1.5190574762276192,-0.07227452844381332,1.8512029647827148,-1.7236769199371338,-0.0009540844475850463,2.2209315299987793,4.5027734476276855,-8.102071296889335e-05,0.2989216446876526,-1.5001142660724085,-1.4201194387108984e-10,-0.00791388563811779,0.4497430920600891,0.0001435929152648896,0.02646244503557682,0.7786592245101929,0.0060203419998288155,-0.004896167665719986
311.0,334.0,1.55,-0.1663,9.2004,-0.0258,-0.0173,-0.1199,-1.5194688749364396,-0.0771121010184288,1.8690147399902344,-1.7236530780792236,-0.0014426190173253417,2.1917266845703125,4.502741499538086,-7.801096944604069e-05,0.28633517026901245,-1.5001142660724085,-3.952954364663461e-14,-0.015277095139026642,0.4497110843658447,0.00013548637798521668,-0.01754654571413994,0.778718888759613,0.007383071351796389,0.03729211166501045
311.0,334.0,1.55,-0.1663,9.2004,-0.0258,-0.0173,-0.1199,-1.5199484539083024,-0.08290109783411026,1.8832001686096191,-1.7236891984939575,-0.0010342110181227326,2.2091784477233887,4.502737208003662,-7.521685620304197e-05,0.2785623073577881,-1.5001056830035608,-1.1003193731307939e-17,-0.020519142970442772,0.4497230052947998,0.00012824637815356255,0.021065864711999893,0.7786937355995178,0.008893501944839954,0.01682279258966446
311.0,334.0,1.55,-0.1663,9.2004,-0.0258,-0.0173,-0.1199,-1.5206440661898633,-0.08999930322170258,1.8825457096099854,-1.723705768585205,-0.0005397526547312737,2.1859750747680664,4.50273768484082,-7.178851228673011e-05,0.29134246706962585,-1.500094238911764,-1.999776152469452e-22,-0.020777098834514618,0.4497266709804535,0.00011971675849054009,-0.0014001962263137102,0.7788107395172119,0.010322126559913158,0.009304863400757313
311.0,334.0,1.55,-0.1663,9.2004,-0.0258,-0.0173,-0.1199,-1.5211308796754857,-0.09127797931432724,1.8456385135650635,-1.723725438117981,-0.0003968678938690573,2.2034173011779785,4.502693338985107,-3.518594894558191e-05,0.28594091534614563,-1.5001466909991663,-5.566450915165087e-26,-0.021904263645410538,0.44977959990501404,0.00011402850213926286,0.02349143661558628,0.7788668870925903,0.01097380556166172,0.003220654558390379
311.0,334.0,1.55,-0.1663,9.2004,-0.0258,-0.0173,-0.1199,-1.5217025850764294,-0.09126695245504379,1.882094383239746,-1.7236976623535156,-0.0003138147003483027,2.1826443672180176,4.502769156093262,-9.794138833285615e-09,0.293218731880188,-1.5001586119281214,-1.5494419366211275e-29,-0.017665833234786987,0.4497189223766327,0.00010885657684411854,0.020940855145454407,0.7789550423622131,0.012339741922914982,0.07788307219743729
309.0,322.0,1.544,0.1436,8.9898,0.0348,-0.1342,-0.1219,-1.5224577759257336,-0.09998171031475067,1.9123852252960205,-1.723705768585205,-0.0003432650992181152,2.20167875289917,4.502725287074707,-1.7800364860483947e-13,0.30842021107673645,-1.5001099745379847,-2.8160337818728055e-34,-0.018889356404542923,0.44969475269317627,0.00010264869342790917,0.022163353860378265,0.7791078090667725,0.014001940377056599,-0.0065626464784145355
309.0,322.0,1.544,0.1436,8.9898,0.0348,-0.1342,-0.1219,-1.5231132109514256,-0.11213404685258865,1.8803369998931885,-1.7236851453781128,-0.00035059149377048016,2.1859612464904785,4.502781553859375,-4.954796649069365e-17,0.29996418952941895,-1.5001142660724085,-7.838534024034217e-38,-0.02475021779537201,0.449715256690979,9.843848965829238e-05,0.003800563048571348,0.779163122177124,0.015127075836062431,0.04368416219949722
309.0,322.0,1.544,0.1436,8.9898,0.0348,-0.1342,-0.1219,-1.5238612455180665,-0.12470316141843796,1.8661381006240845,-1.7236891984939575,-0.0011055751238018274,2.1825244426727295,4.50276963293042,-1.3791858618496526e-20,0.2871699631214142,-1.5000904242144983,-2.1818217089537402e-41,-0.01657247543334961,0.4497513771057129,9.45599313126877e-05,0.009530679322779179,0.7792193293571472,0.015736810863018036,0.06416640430688858
309.0,322.0,1.544,0.1436,8.9898,0.0348,-0.1342,-0.1219,-1.5248283718577404,-0.13145984709262848,1.8603252172470093,-1.7236891984939575,-0.00041937371133826673,2.1548678874969482,4.5027734476276855,-2.5066023215923376e-25,0.28670886158943176,-1.500094238911764,-0.0,-0.02339344285428524,0.4497270882129669,8.984034502645954e-05,0.020694226026535034,0.7793796062469482,0.015027093701064587,0.031187139451503754
309.0,322.0,1.544,0.1436,8.9898,0.0348,-0.1342,-0.1219,-1.5256559339216729,-0.13017216324806213,1.854896068572998,-1.7236850261688232,-0.00022822406026534736,2.2002696990966797,4.502741499538086,-6.977218678367867e-29,0.2989419102668762,-1.5000904242144983,-0.0,-0.019545309245586395,0.449715256690979,8.659864397486672e-05,-0.007966889999806881,0.7794279456138611,0.01400723122060299,0.024267155677080154
309.0,322.0,1.544,0.1436,8.9898,0.0348,-0.1342,-0.1219,-1.5264948990992089,-0.12464407086372375,1.8721562623977661,-1.7237131595611572,-0.000239885674091056,2.187682628631592,4.502741499538086,-1.9421344278869088e-32,0.2888011038303375,-1.5001180807696741,-0.0,-0.019129324704408646,0.44972750544548035,8.358275226783007e-05,0.0003014143439941108,0.7795113325119019,0.01405715849250555,0.005091908387839794
309.0,322.0,1.544,0.1436,8.9898,0.0348,-0.1342,-0.1219,-1.5273020279458542,-0.12951472401618958,1.8957762718200684,-1.7237575054168701,-0.00012077339488314465,2.1994941234588623,4.50276963293042,-5.4060019486677716e-36,0.286220520734787,-1.5001180807696741,-0.0,-0.024925947189331055,0.449714720249176,8.076988160610199e-05,0.006794963497668505,0.7796235084533691,0.013867441564798355,0.0056631071493029594
309.0,322.0,1.544,0.1436,8.9898,0.0348,-0.1342,-0.1219,-1.5285016012242814,-0.15214847028255463,1.8441753387451172,-1.7237534523010254,-0.0027320056688040495,2.1849608421325684,4.502749605769775,-4.4679109123535454e-05,0.2841624915599823,-1.5001099745379847,-0.0,-0.03403652831912041,0.4496987760066986,8.652993699342915e-08,-0.0008222482865676284,0.7797350883483887,0.014122163876891136,0.03133409842848778
309.0,322.0,1.544,0.1436,8.9898,0.0348,-0.1342,-0.1219,-1.529384122495987,-0.16995364427566528,1.8560843467712402,-1.7237815856933594,-0.0037741418927907944,2.213331460952759,4.502685232753418,-5.8076631830772385e-05,0.27760815620422363,-1.500094238911764,-0.0,-0.015686159953475,0.44972705841064453,2.4085927696759768e-11,0.004602076951414347,0.7798599004745483,0.013167657889425755,0.02198212593793869
309.0,322.0,1.544,0.1436,8.9898,0.0348,-0.1342,-0.1219,-1.5304600571146985,-0.1828702986240387,1.902414083480835,-1.7237566709518433,-0.0016348588978871703,2.177640438079834,4.502732916469238,-5.5915963457664475e-05,0.2951797544956207,-1.500122372304098,-0.0,-0.023253966122865677,0.4497307240962982,6.704407232019979e-15,0.006230346858501434,0.7798835635185242,0.010976395569741726,0.07318836450576782
309.0,322.0,1.544,0.1436,8.9898,0.0348,-0.1342,-0.1219,-1.5318784464946766,-0.17265695333480835,1.852699637413025,-1.7237130403518677,0.001695058075711131,2.189305305480957,4.502720995540283,-5.3268355259206146e-05,0.284006804227829,-1.5001266638385218,-0.0,-0.010373972356319427,0.44969892501831055,1.218492876981957e-19,-0.0068068779073655605,0.7799562811851501,0.0053246645256876945,0.014323918148875237
309.0,322.0,1.544,0.1436,8.9898,0.0348,-0.1342,-0.1219,-1.5329573352685948,-0.1665765941143036,1.8470847606658936,-1.7237699031829834,0.000990315224044025,2.215230703353882,4.502765341395996,-4.117601929465309e-05,0.2913258373737335,-1.500146214162008,-0.0,-0.01120389997959137,0.4497312307357788,3.3917191371391375e-23,-0.01184418797492981,0.7799801826477051,0.002737870207056403,-0.0012114089913666248
309.0,322.0,1.544,0.1436,8.9898,0.0348,-0.1342,-0.1219,-1.5340961714139958,-0.17707251012325287,1.8663978576660156,-1.7237287759780884,-0.00037352158688008785,2.166063070297241,4.502697153682373,-5.500047336681746e-05,0.28386467695236206,-1.5001056830035608,-0.0,-0.0089561827480793,0.4496627151966095,9.440974839376317e-27,-0.008981206454336643,0.7799676060676575,0.001836826908402145,0.022613000124692917
309.0,322.0,1.544,0.1436,8.9898,0.0348,-0.1342,-0.1219,-1.5352758330157776,-0.20016543567180634,1.8537815809249878,-1.7238258123397827,-0.002647820394486189,2.166778802871704,4.502741499538086,-4.7394350985996425e-05,0.28271782398223877,-1.5001300016986292,-0.0,-0.012510654516518116,0.44972339272499084,2.6279299044836143e-30,0.009756213054060936,0.7799796462059021,0.0022452580742537975,-0.015181388705968857
308.0,318.0,2.0656,0.2638,8.9222,0.0655,-0.2303,-0.1364,-1.5369423639825364,-0.22148321568965912,1.8700129985809326,-1.7238456010818481,-0.003431954886764288,2.158470630645752,4.502729101771973,-3.9146321796579286e-05,0.3016657829284668,-1.5001056830035608,-0.0,0.0006928371731191874,0.44971930980682373,4.7761337054789515e-35,-0.0031354730017483234,0.7800120115280151,0.0013006300432607532,-0.014464614912867546
308.0,318.0,2.0656,0.2638,8.9222,0.0655,-0.2303,-0.1364,-1.5382734474590798,-0.2214629352092743,1.854428768157959,-1.723785638809204,-0.001609049504622817,2.1463711261749268,4.5027453142353515,-3.462706081336364e-05,0.2881816327571869,-1.5001099745379847,-0.0,-0.017456434667110443,0.4497353434562683,1.3294544525782694e-38,-0.0037560872733592987,0.7799755334854126,0.0005609093350358307,0.003477632300928235
308.0,318.0,2.0656,0.2638,8.9222,0.0655,-0.2303,-0.1364,-1.5395679057440539,-0.22256730496883392,1.8638601303100586,-1.7237411737442017,-2.5789145183807705e-06,2.197506904602051,4.502709551448486,-3.1043375201988965e-05,0.28703850507736206,-1.5000699202166956,-0.0,-0.02464352175593376,0.44967469573020935,3.700829244281842e-42,0.003476344980299473,0.7799557447433472,0.0003792528004851192,0.014204881154000759
308.0,318.0,2.0656,0.2638,8.9222,0.0655,-0.2303,-0.1364,-1.541414863695838,-0.23179017007350922,1.8073146343231201,-1.723797082901001,-8.355355930788136e-14,2.1660666465759277,4.502705736751221,-2.727918945311103e-05,0.2868526875972748,-1.500122372304098,-0.0,-0.020892582833766937,0.4497193694114685,0.0,0.0013595944037660956,0.7799796462059021,0.0002667872468009591,-0.0233888179063797
308.0,318.0,2.0656,0.2638,8.9222,0.0655,-0.2303,-0.1364,-1.5428374291262408,-0.238392636179924,1.8328642845153809,-1.7238372564315796,-2.0177202132034623e-19,2.208927869796753,4.502725287074707,-2.5005276256706566e-05,0.28596755862236023,-1.5001385847674769,-0.0,-0.010566165670752525,0.4497270882129669,0.0,-0.008638451807200909,0.7800160050392151,0.00021825415024068207,-0.014656312763690948
308.0,318.0,2.0656,0.2638,8.9222,0.0655,-0.2303,-0.1364,-1.5442437709173937,-0.24095338582992554,1.8395025730133057,-1.7237929105758667,-4.872557153278624e-25,2.1544692516326904,4.502749605769775,-2.3081294784788042e-05,0.28792431950569153,-1.500150505696432,-0.0,-0.02312386967241764,0.4497595727443695,0.0,-0.011006055399775505,0.7800238132476807,0.00018466323672328144,-0.031177431344985962
308.0,318.0,2.0656,0.2638,8.9222,0.0655,-0.2303,-0.1364,-1.5457264718464394,-0.2518632709980011,1.8847999572753906,-1.7237930297851562,-1.1766652372352546e-30,2.188465118408203,4.502757712001465,-2.1432249923236668e-05,0.2743513584136963,-1.500134293233053,-0.0,-0.022654391825199127,0.44969069957733154,0.0,-0.01199051458388567,0.779987633228302,0.00016003442578949034,0.038554638624191284
308.0,318.0,2.0656,0.2638,8.9222,0.0655,-0.2303,-0.1364,-1.547809326355793,-0.2626914083957672,1.8964927196502686,-1.7238094806671143,-3.8122453641415366e-38,2.1707603931427,4.502769156093262,-1.9568225980037823e-05,0.2782612144947052,-1.500146214162008,-0.0,-0.011083472520112991,0.44969475269317627,0.0,-0.0009633840527385473,0.7800160050392151,3.81586687581148e-05,-0.03303452953696251
308.0,318.0,2.0656,0.2638,8.9222,0.0655,-0.2303,-0.1364,-1.5493401561728497,-0.26603877544403076,1.876863718032837,-1.7238496541976929,-9.248569864543793e-44,2.1795167922973633,4.502725287074707,-1.8369952158536762e-05,0.2866767346858978,-1.500122372304098,-0.0,-0.02110474929213524,0.44967877864837646,0.0,-0.00037638680078089237,0.78003990650177,3.385245872777887e-05,0.01728990115225315
308.0,318.0,2.0656,0.2638,8.9222,0.0655,-0.2303,-0.1364,-1.550946808685996,-0.26856809854507446,1.8356597423553467,-1.7237930297851562,-0.0,2.17704176902771,4.50279347478833,-1.7309972463408485e-05,0.3020452857017517,-1.5001705328570765,-0.0,-0.017998071387410164,0.44969069957733154,0.0,-0.010981953702867031,0.7800078392028809,3.0419711038121022e-05,0.040991414338350296
308.0,318.0,2.0656,0.2638,8.9222,0.0655,-0.2303,-0.1364,-1.5529968452504654,-0.263969749212265,1.9082226753234863,-1.7238093614578247,-0.0,2.194890022277832,4.502785368556641,-1.3992951153340982e-07,0.2973717153072357,-1.500150505696432,-0.0,-0.007781220134347677,0.4497153162956238,0.0,0.0018262723460793495,0.7799916863441467,2.6796769816428423e-05,-0.02950058877468109
308.0,318.0,2.0656,0.2638,8.9222,0.0655,-0.2303,-0.1364,-1.5546159514090796,-0.26661252975463867,1.865274429321289,-1.7237731218338013,-0.0,2.2227354049682617,4.502769156093262,-3.8949895392326184e-11,0.2945728302001953,-1.5001099745379847,-0.0,-0.02049862965941429,0.4497110843658447,0.0,-0.0011141649447381496,0.7800077795982361,2.459944698784966e-05,-0.011423645541071892
308.0,318.0,2.0656,0.2638,8.9222,0.0655,-0.2303,-0.1364,-1.556241988470294,-0.27184468507766724,1.8578413724899292,-1.7237772941589355,-0.0,2.1513943672180176,4.502753420467041,-1.0841845542002015e-14,0.2982117533683777,-1.500150505696432,-0.0,-0.020983155816793442,0.4497111439704895,0.0,0.003395482199266553,0.779987633228302,2.273517930007074e-05,-0.02308770641684532
308.0,318.0,2.0656,0.2638,8.9222,0.0655,-0.2303,-0.1364,-1.557892871355154,-0.2694900631904602,1.902052879333496,-1.7237567901611328,-0.0,2.17287540435791,4.502749605769775,-3.017867342069837e-18,0.2868155837059021,-1.5001266638385218,-0.0,-0.024585964158177376,0.44970300793647766,0.0,-0.0013258717954158783,0.7800278663635254,2.1133579139132053e-05,-0.04025817662477493
293.0,301.0,2.988,0.3793,8.8965,0.0707,-0.2602,-0.1494,-1.5601348562962194,-0.27422818541526794,1.871010661125183,-1.7238011360168457,-0.0,2.1469497680664062,4.50276152669873,-5.484824287345584e-23,0.2910318672657013,-1.500122372304098,-0.0,-0.022493751719594002,0.44973939657211304,0.0,-0.0019211859907954931,0.7799635529518127,1.9319020793773234e-05,0.011056051589548588
293.0,301.0,2.988,0.3793,8.8965,0.0707,-0.2602,-0.1494,-1.561741460380592,-0.28230974078178406,1.847110629081726,-1.7237731218338013,-0.0,2.2002813816070557,4.502813025111816,-1.526721028473112e-26,0.29170265793800354,-1.500150505696432,-0.0,-0.012555724009871483,0.4496627748012543,0.0,0.00518885999917984,0.7799594402313232,3.62992323061917e-05,0.013605350628495216
293.0,301.0,2.988,0.3793,8.8965,0.0707,-0.2602,-0.1494,-1.5634997694617887,-0.2772971987724304,1.9119465351104736,-1.7237979173660278,-0.0,2.209135055541992,4.502789183253906,-4.2496840405955756e-30,0.30010873079299927,-1.5001543203936976,-0.0,-0.009076436050236225,0.44969895482063293,0.0,0.003998642321676016,0.779951274394989,3.4229531593155116e-05,-0.04588291794061661
293.0,301.0,2.988,0.3793,8.8965,0.0707,-0.2602,-0.1494,-1.5657663897475977,-0.2756773829460144,1.9128930568695068,-1.7237608432769775,-0.0,2.1977601051330566,4.502789183253906,-7.72359137179635e-35,0.29499053955078125,-1.5001466909991663,-0.0,-0.027072817087173462,0.44968289136886597,0.0,-0.007935389876365662,0.7800040245056152,3.180993007845245e-05,0.02283608354628086
293.0,301.0,2.988,0.3793,8.8965,0.0707,-0.2602,-0.1494,-1.567428538841643,-0.28603559732437134,1.895015001296997,-1.7238094806671143,-0.0,2.1358041763305664,4.502789183253906,-2.1498900405874777e-38,0.29236334562301636,-1.5001543203936976,-0.0,-0.010298073291778564,0.4496951699256897,0.0,0.0008354824967682362,0.7800037860870361,4.524214455159381e-05,0.027014462277293205
293.0,301.0,2.988,0.3793,8.8965,0.0707,-0.2602,-0.1494,-1.569082337697484,-0.28207287192344666,1.9219036102294922,-1.7237492799758911,-0.0,2.1837821006774902,4.5027734476276855,-5.984945741131294e-42,0.2854748070240021,-1.5001423994647425,-0.0,-0.016195135191082954,0.4497275650501251,0.0,-0.009425284340977669,0.7800156474113464,5.751816934207454e-05,0.03259965777397156
293.0,301.0,2.988,0.3793,8.8965,0.0707,-0.2602,-0.1494,-1.5708171329894007,-0.2822798192501068,1.8881781101226807,-1.723760962486267,-0.0,2.210142135620117,4.502777262324951,-1.401298464324817e-45,0.300321489572525,-1.5001142660724085,-0.0,-0.017292162403464317,0.44969895482063293,0.0,-0.0007131276652216911,0.7799996733665466,9.953795233741403e-05,0.01538334134966135
293.0,301.0,2.988,0.3793,8.8965,0.0707,-0.2602,-0.1494,-1.5730592213072718,-0.28998029232025146,1.8723185062408447,-1.7237772941589355,-0.0,2.1633479595184326,4.502792997951172,-0.0,0.2981339395046234,-1.5001142660724085,-0.0,-0.010003667324781418,0.4496710002422333,0.0,-0.0027887006290256977,0.7799591422080994,0.00012177218741271645,-0.005102165043354034
293.0,301.0,2.988,0.3793,8.8965,0.0707,-0.2602,-0.1494,-1.5747858486571253,-0.28610727190971375,1.9343595504760742,-1.7237411737442017,-0.0,2.185391902923584,4.502813025111816,-0.0,0.2892863154411316,-1.5001018683062952,-0.0,-0.013187057338654995,0.4496508836746216,0.0,-0.000612109899520874,0.7800479531288147,0.0001358949375571683,-0.0444767139852047
293.0,301.0,2.988,0.3793,8.8965,0.0707,-0.2602,-0.1494,-1.5764929256834925,-0.2839326858520508,1.9450225830078125,-1.723745346069336,-0.0,2.1713268756866455,4.502777262324951,-0.0,0.27866318821907043,-1.500078026448385,-0.0,-0.035249240696430206,0.44968292117118835,0.0,0.001105905743315816,0.7800318002700806,0.00013041710190009326,-0.026957793161273003
293.0,301.0,2.988,0.3793,8.8965,0.0707,-0.2602,-0.1494,-1.5786978207030238,-0.28174346685409546,1.9610501527786255,-1.723728895187378,6.540981848957017e-05,2.2212865352630615,4.502781077022217,-0.0,0.2808893322944641,-1.500078026448385,-0.0,-0.026562372222542763,0.4496951699256897,0.0,-0.0030121691524982452,0.7800238132476807,0.0002745008678175509,0.00043165023089386523
293.0,301.0,2.988,0.3793,8.8965,0.0707,-0.2602,-0.1494,-1.5803681812682093,-0.2821767330169678,2.001108407974243,-1.7238011360168457,5.8648420235840604e-05,2.1799545288085938,4.502801104182861,-0.0,0.28741732239723206,-1.500094238911764,-0.0,-0.015662677586078644,0.44971930980682373,0.0,-0.01254251878708601,0.7800399661064148,0.0003215775650460273,0.017061466351151466
293.0,301.0,2.988,0.3793,8.8965,0.0707,-0.2602,-0.1494,-1.5821072063841761,-0.2879856526851654,1.972190022468567,-1.7237855195999146,5.342607983038761e-05,2.147252082824707,4.502757235164307,-0.0,0.2928488254547119,-1.5001304785357874,-0.0,-0.016633328050374985,0.44972747564315796,0.0,-0.005923032760620117,0.7800318002700806,0.0003234541218262166,-0.013649385422468185
293.0,301.0,2.988,0.3793,8.8965,0.0707,-0.2602,-0.1494,-1.5837656460204066,-0.2900720238685608,1.9971165657043457,-1.723785638809204,4.90576567244716e-05,2.159092664718628,4.502769156093262,-0.0,0.2855057418346405,-1.500122372304098,-5.395313110057032e-06,-0.01622948795557022,0.4496549963951111,0.0,-0.004029422998428345,0.7800078392028809,0.0002850542950909585,0.045201633125543594
284.0,347.0,2.8397,0.4229,8.4873,0.0724,-0.2796,-0.15,-1.5860563717284144,-0.29154470562934875,1.9586094617843628,-1.7238051891326904,6.634878809563816e-05,2.184551239013672,4.502816839809082,-0.0,0.30039575695991516,-1.5000618139850062,-9.80571596143065e-11,-0.022033536806702614,0.4496833086013794,0.0,-0.015148118138313293,0.7799835801124573,0.000215322375879623,0.005937864538282156
284.0,347.0,2.8397,0.4229,8.4873,0.0724,-0.2796,-0.15,-1.5877896747984828,-0.29255321621894836,1.9813878536224365,-1.7237608432769775,9.809077891986817e-05,2.203383684158325,4.502801104182861,-0.0,0.2949506938457489,-1.5000699202166956,-2.7294571157822183e-14,-0.01489628292620182,0.44959476590156555,0.0,-0.006559588015079498,0.7799796462059021,0.00010718580597313121,0.0035279677249491215
284.0,347.0,2.8397,0.4229,8.4873,0.0724,-0.2796,-0.15,-1.5896254978575648,-0.283047080039978,1.9972705841064453,-1.7237493991851807,0.0001758185971993953,2.148665189743042,4.502792997951172,-0.0,0.27459388971328735,-1.500054184590475,-7.597544738458702e-18,-0.01876392960548401,0.4496750831604004,0.0,-0.006990738213062286,0.7800119519233704,4.5671597035834566e-05,-0.03994888812303543
284.0,347.0,2.8397,0.4229,8.4873,0.0724,-0.2796,-0.15,-1.591902872125143,-0.2890925705432892,1.995542287826538,-1.723785400390625,0.00015237218758556992,2.163891315460205,4.502781077022217,-0.0,0.2891938090324402,-1.5000622908221644,-1.380816070047107e-22,-0.006584197748452425,0.4496590793132782,0.0,-0.017585312947630882,0.7800197601318359,3.752419070224278e-05,-0.021831320598721504
284.0,347.0,2.8397,0.4229,8.4873,0.0724,-0.2796,-0.15,-1.5937696895995082,-0.2972624599933624,2.0285847187042236,-1.7237608432769775,0.00017685200145933777,2.15877366065979,4.502816839809082,-0.0,0.28569498658180237,-1.5001266638385218,-3.843552505515154e-26,-0.014047408476471901,0.4496590495109558,0.0,-0.006463674828410149,0.7800156474113464,6.669804133707657e-05,-0.04161852225661278
284.0,347.0,2.8397,0.4229,8.4873,0.0724,-0.2796,-0.15,-1.595628400842184,-0.2969959080219269,1.9534341096878052,-1.7238340377807617,0.0001365882344543934,2.185967206954956,4.50276152669873,-0.0,0.29105353355407715,-1.5000699202166956,-1.0698668734856465e-29,-0.020158272236585617,0.4496106803417206,0.0,-0.013999979011714458,0.7800399661064148,6.003044472890906e-05,0.015049532055854797
284.0,347.0,2.8397,0.4229,8.4873,0.0724,-0.2796,-0.15,-1.59745516399526,-0.30586469173431396,1.992457628250122,-1.723732829093933,0.00011125586024718359,2.186678886413574,4.502789183253906,-0.0,0.2856592535972595,-1.5001028219806116,-2.978014102433484e-33,-0.0150894895195961,0.44964268803596497,0.0,-0.010772190988063812,0.7799874544143677,8.075507503235713e-05,-0.0035169958136975765
284.0,347.0,2.8397,0.4229,8.4873,0.0724,-0.2796,-0.15,-1.5998808346190394,-0.30864569544792175,2.036728858947754,-1.7237648963928223,0.00013358225987758487,2.096043825149536,4.502805395717285,-0.0,0.2924201190471649,-1.5000904242144983,-5.412393685747903e-38,-0.021418973803520203,0.44966691732406616,0.0,-0.000733711349312216,0.7800520062446594,7.300276774913073e-05,0.0040850164368748665
284.0,347.0,2.8397,0.4229,8.4873,0.0724,-0.2796,-0.15,-1.6017476520934046,-0.3043242394924164,2.082441568374634,-1.723768949508667,0.0001164816421805881,2.1746721267700195,4.502792997951172,-0.0,0.28306737542152405,-1.5000818411456507,-1.5065359789956108e-41,-0.008494403213262558,0.44969478249549866,0.0,0.0011178066488355398,0.78003990650177,9.003242303151637e-05,0.00019404059275984764
284.0,347.0,2.8397,0.4229,8.4873,0.0724,-0.2796,-0.15,-1.6035744152464808,-0.30762726068496704,2.0305747985839844,-1.7237566709518433,0.00010313273378415033,2.189155101776123,4.5027734476276855,-0.0,0.2872637212276459,-1.5001142660724085,-4.203895392974451e-45,-0.014707444235682487,0.44969475269317627,0.0,0.009619150310754776,0.7800077795982361,8.84211840457283e-05,0.00734328106045723
284.0,347.0,2.8397,0.4229,8.4873,0.0724,-0.2796,-0.15,-1.606060644189352,-0.30919891595840454,2.0558063983917236,-1.7237813472747803,8.946343587012962e-05,2.205307960510254,4.502821131343506,-0.0,0.2910468578338623,-1.5001099745379847,-0.0,-0.017713522538542747,0.44969475269317627,0.0,-0.00838303193449974,0.7800718545913696,0.00014565653691533953,0.013773861341178417
284.0,347.0,2.8397,0.4229,8.4873,0.0724,-0.2796,-0.15,-1.6078750095763148,-0.30586564540863037,2.0541281700134277,-1.7237977981567383,8.137416443787515e-05,2.2086479663848877,4.502821131343506,-0.0,0.27846860885620117,-1.5000699202166956,-0.0,-0.01095532812178135,0.4497029185295105,0.0,-0.007462336681783199,0.7800438404083252,0.0008387339184992015,-0.014232637360692024
284.0,347.0,2.8397,0.4229,8.4873,0.0724,-0.2796,-0.15,-1.609729906121725,-0.31058868765830994,2.0730607509613037,-1.7237451076507568,7.462665962520987e-05,2.1716928482055664,4.502804918880127,7.806808571331203e-05,0.3013877272605896,-1.5000975767718714,-0.0,-0.014675794169306755,0.4497312307357788,0.0,0.007091194856911898,0.7800558805465698,0.0023418948985636234,-0.00015085097402334213
284.0,347.0,2.8397,0.4229,8.4873,0.0724,-0.2796,-0.15,-1.6115290127196253,-0.30858078598976135,2.0693678855895996,-1.7237451076507568,6.89125299686566e-05,2.156153678894043,4.502809210414551,7.445594383170828e-05,0.2870738208293915,-1.5001180807696741,-0.0,-0.019566047936677933,0.44968244433403015,0.0,-0.015070966444909573,0.7800793647766113,0.0035915598273277283,0.03324909880757332
282.0,463.0,2.9593,0.4869,8.7948,0.066,-0.2648,-0.1382,-1.6139379940428675,-0.30823004245758057,2.0600709915161133,-1.7237008810043335,8.092921052593738e-05,2.114896297454834,4.502876921291016,8.367995906155556e-05,0.28462815284729004,-1.500094238911764,-0.0,-0.02213829755783081,0.44970300793647766,0.0,0.0017309528775513172,0.7801440358161926,0.0039799874648451805,0.016895629465579987
282.0,463.0,2.9593,0.4869,8.7948,0.066,-0.2648,-0.1382,-1.6157614193358363,-0.3060230314731598,2.099081039428711,-1.7237533330917358,5.784759923699312e-05,2.1359200477600098,4.502861185664795,9.319090895587578e-05,0.29091835021972656,-1.5001466909991663,-0.0,-0.016621191054582596,0.44969069957733154,0.0,-0.0008836677297949791,0.7800954580307007,0.004197537433356047,0.0646003931760788
282.0,463.0,2.9593,0.4869,8.7948,0.066,-0.2648,-0.1382,-1.6175438366331996,-0.3084861934185028,2.0872297286987305,-1.7237533330917358,8.685921056894585e-05,2.1629812717437744,4.502868815059326,8.943984721554443e-05,0.28407546877861023,-1.5000861326800745,-0.0,-0.024156823754310608,0.449739009141922,0.0,0.012545676901936531,0.7801558375358582,0.003919067792594433,-0.007183280307799578
282.0,463.0,2.9593,0.4869,8.7948,0.066,-0.2648,-0.1382,-1.6200696430602015,-0.3061973750591278,2.162949323654175,-1.723713994026184,0.0008629958028905094,2.145094633102417,4.50284115850415,9.671741281636059e-05,0.28740236163139343,-1.500122372304098,-0.0,-0.010714001022279263,0.44975125789642334,0.0,-0.007997299544513226,0.780171811580658,0.003138796892017126,0.02121598646044731
282.0,463.0,2.9593,0.4869,8.7948,0.066,-0.2648,-0.1382,-1.6219178638853968,-0.3052327632904053,2.141077995300293,-1.7236613035202026,0.0012686639092862606,2.166346549987793,4.50284926473584,0.00020651072554755956,0.2961708903312683,-1.500094238911764,-0.0,-0.023355063050985336,0.4496987760066986,0.0,0.00706113176420331,0.7802077531814575,0.003026713849976659,0.03835253044962883
282.0,463.0,2.9593,0.4869,8.7948,0.066,-0.2648,-0.1382,-1.6237756214537562,-0.31273773312568665,2.1308529376983643,-1.7236933708190918,0.0010537460912019014,2.1786041259765625,4.50284926473584,0.00020848251006100327,0.2816423773765564,-1.5000818411456507,-0.0,-0.017521370202302933,0.44980740547180176,2.209205973713324e-07,0.013140419498085976,0.7802077531814575,0.0026694247499108315,-0.009058253839612007
282.0,463.0,2.9593,0.4869,8.7948,0.066,-0.2648,-0.1382,-1.6263576946654261,-0.310663104057312,2.135225772857666,-1.7236933708190918,0.000592437107115984,2.143855333328247,4.502845450038574,0.00018765486311167479,0.2952122390270233,-1.500122372304098,-0.0,-0.019854072481393814,0.4497753977775574,4.015122869599486e-12,0.011036066338419914,0.7802482843399048,0.0022006325889378786,-0.02873305417597294
282.0,463.0,2.9593,0.4869,8.7948,0.066,-0.2648,-0.1382,-1.6282960377135218,-0.3160325288772583,2.1069021224975586,-1.7236934900283813,0.00044568016892299056,2.142537832260132,4.502853079433105,0.0001699364511296153,0.2812051475048065,-1.5001347700702112,-0.0,-0.022711722180247307,0.44978734850883484,1.1176242926391462e-15,0.010339348576962948,0.780247688293457,0.0021340823732316494,0.03334245830774307
282.0,463.0,2.9593,0.4869,8.7948,0.066,-0.2648,-0.1382,-1.630202432672018,-0.32496514916419983,2.123648166656494,-1.7236770391464233,0.0002976902178488672,2.1770129203796387,4.502853556270264,0.00015527567302342504,0.2978518009185791,-1.5000737349139612,-0.0,-0.017002366483211517,0.44981563091278076,0.00047349382657557726,0.018807195127010345,0.7802761197090149,0.0017815158935263753,0.033846624195575714
282.0,463.0,2.9593,0.4869,8.7948,0.066,-0.2648,-0.1382,-1.6321503124632777,-0.31889402866363525,2.1600449085235596,-1.7237180471420288,0.00029805453959852457,2.166656732559204,4.502856894130371,0.0001429438852937892,0.2900606393814087,-1.5000904242144983,-0.0,-0.0191021841019392,0.44977501034736633,0.0004420631448738277,0.016342535614967346,0.7802638411521912,0.001560565666295588,0.01184568740427494
282.0,463.0,2.9593,0.4869,8.7948,0.066,-0.2648,-0.1382,-1.6347071133055628,-0.3285597264766693,2.149902582168579,-1.7236614227294922,0.0002441464166622609,2.1637020111083984,4.502845450038574,0.0001452279248042032,0.2933005690574646,-1.5000818411456507,1.0282457878929563e-05,-0.02870149537920952,0.4498113691806793,0.0004771954263560474,0.015089585445821285,0.78028404712677,0.0012272478779777884,0.04051899164915085
282.0,463.0,2.9593,0.4869,8.7948,0.066,-0.2648,-0.1382,-1.6365977726378382,-0.32757654786109924,2.1761116981506348,-1.7236417531967163,0.00023849784338381141,2.1695847511291504,4.5028368669697265,0.0001603861601324752,0.28676554560661316,-1.5001180807696741,1.0452325113874394e-05,-0.018976815044879913,0.4497867822647095,0.000425575184635818,0.034332167357206345,0.7802678942680359,0.0010073439916595817,0.06344106793403625
282.0,463.0,2.9593,0.4869,8.7948,0.066,-0.2648,-0.1382,-1.6385561428465785,-0.3204042911529541,2.1361093521118164,-1.72365403175354,0.00023874205362517387,2.1544933319091797,4.502924605006836,0.001297442358918488,0.2982251048088074,-1.5000818411456507,1.0100573490490206e-05,-0.01421656459569931,0.44976645708084106,0.0003569666587281972,0.024233099073171616,0.7802274823188782,0.0007638128590770066,0.08502006530761719
264.0,803.0,3.6838,0.7609,8.4514,0.0699,-0.244,-0.1487,-1.641078611413473,-0.3144252896308899,2.1562023162841797,-1.7235898971557617,0.0031716537196189165,2.1631641387939453,4.5029331880756835,0.0022348070051521063,0.29495441913604736,-1.5000904242144983,1.409344529967882e-09,-0.008939612656831741,0.449770987033844,0.00032928260043263435,0.033435847610235214,0.7802799940109253,0.00065458012977615,0.0001964271068572998
264.0,803.0,3.6838,0.7609,8.4514,0.0699,-0.244,-0.1487,-1.6428848705687464,-0.31309324502944946,2.181966543197632,-1.7236210107803345,0.003782951971516013,2.125990629196167,4.50295273839917,0.0020215322729200125,0.28501924872398376,-1.5001347700702112,3.9229619444407227e-13,-0.009720934554934502,0.44980737566947937,0.0003246216510888189,0.031731098890304565,0.7803202867507935,0.0007683431613259017,0.051265962421894073
264.0,803.0,3.6838,0.7609,8.4514,0.0699,-0.244,-0.1487,-1.6447555027403773,-0.3092314898967743,2.1800386905670166,-1.7236250638961792,0.0023052673786878586,2.1510798931121826,4.502960844630859,0.00163871212862432,0.2885655462741852,-1.5000699202166956,1.0919709866241535e-16,-0.02291746996343136,0.4498351514339447,0.00028650255990214646,0.050337839871644974,0.780316174030304,0.0012022031005471945,-0.013015336357057095
264.0,803.0,3.6838,0.7609,8.4514,0.0699,-0.244,-0.1487,-1.6465298138060511,-0.30650657415390015,2.222036838531494,-1.7236104011535645,0.0013535370817407966,2.134571075439453,4.503021402949951,0.0018941755406558514,0.2944672405719757,-1.5000618139850062,3.039540753663736e-20,-0.007545672357082367,0.449770987033844,0.00025255506625398993,0.030477911233901978,0.7803200483322144,0.0015005888417363167,-0.05995813012123108
264.0,803.0,3.6838,0.7609,8.4514,0.0699,-0.244,-0.1487,-1.6489759884276332,-0.30503368377685547,2.211230993270874,-1.723610281944275,0.0009922507451847196,2.117457389831543,4.50303237020459,0.005907384678721428,0.29489511251449585,-1.50006610551943,5.524215918597137e-25,-0.0011777575127780437,0.44980284571647644,0.00026706900098361075,0.043028976768255234,0.7803481817245483,0.0014676408609375358,0.022856051102280617
264.0,803.0,3.6838,0.7609,8.4514,0.0699,-0.244,-0.1487,-1.6507984600462855,-0.30176278948783875,2.2269201278686523,-1.723565936088562,0.0017145387828350067,2.140899658203125,4.503088636989258,0.0128366993740201,0.2939995527267456,-1.500122372304098,1.5376858194993448e-28,-0.0061428179033100605,0.44980692863464355,0.00043738484964706004,0.051010407507419586,0.7803080081939697,0.0012795674847438931,0.007126898039132357
264.0,803.0,3.6838,0.7609,8.4514,0.0699,-0.244,-0.1487,-1.652632852593893,-0.28933557868003845,2.2510087490081787,-1.7235338687896729,0.0031953132711350918,2.175227642059326,4.503176375026367,0.015391473658382893,0.28360530734062195,-1.5001028219806116,4.2802047404895346e-32,-0.020851390436291695,0.44983115792274475,0.0004929601564072073,0.04676341265439987,0.7803482413291931,0.0010500292992219329,0.02836705558001995
264.0,803.0,3.6838,0.7609,8.4514,0.0699,-0.244,-0.1487,-1.6549693546690882,-0.2952991724014282,2.237903594970703,-1.723530650138855,0.00387179316021502,2.159210205078125,4.50332419454541,0.01378207840025425,0.301270455121994,-1.5001304785357874,7.779062020377255e-37,-0.027195166796445847,0.44980284571647644,0.0009214540477842093,0.048202451318502426,0.7803840637207031,0.0022040868643671274,0.04111235588788986
264.0,803.0,3.6838,0.7609,8.4514,0.0699,-0.244,-0.1487,-1.65679993251943,-0.2889164388179779,2.254556179046631,-1.723470687866211,0.0026642116717994213,2.117854356765747,4.5033556657978515,0.010255785658955574,0.3012920916080475,-1.5000737349139612,2.165328426028637e-40,-0.017029594630002975,0.44981104135513306,0.0018026321195065975,0.045435793697834015,0.7803926467895508,0.0034569657873362303,0.10191822797060013
264.0,803.0,3.6838,0.7609,8.4514,0.0699,-0.244,-0.1487,-1.658581872979635,-0.2880689799785614,2.2739720344543457,-1.7235221862792969,0.0017709352541714907,2.1491219997406006,4.503407641048096,0.007422105874866247,0.3020091652870178,-1.500150505696432,6.025583396596713e-44,-0.01776040345430374,0.44988322257995605,0.003633890300989151,0.054356686770915985,0.7803840041160583,0.003791471477597952,0.0533919483423233
264.0,803.0,3.6838,0.7609,8.4514,0.0699,-0.244,-0.1487,-1.6603275738158167,-0.2937391698360443,2.2355027198791504,-1.723494291305542,0.0010280869901180267,2.130486011505127,4.503415270442627,0.0036530476063489914,0.29864612221717834,-1.500078026448385,0.0,-0.014279806055128574,0.4499110281467438,0.009359676390886307,0.07284528017044067,0.7804442048072815,0.0045363642275333405,0.04834888130426407
264.0,803.0,3.6838,0.7609,8.4514,0.0699,-0.244,-0.1487,-1.6626492939391078,-0.2832389771938324,2.3106722831726074,-1.7234704494476318,0.00048251281259581447,2.1303069591522217,4.503467722530029,0.0012128280941396952,0.301729291677475,-1.5001466909991663,0.0,-0.01043367013335228,0.4499506950378418,0.011046378873288631,0.07498320192098618,0.7804760932922363,0.004814485087990761,0.07334431260824203
264.0,803.0,3.6838,0.7609,8.4514,0.0699,-0.244,-0.1487,-1.664335390130514,-0.2793128192424774,2.2809038162231445,-1.7234984636306763,0.0004363433690741658,2.161921501159668,4.5035034853168945,0.0009760942193679512,0.2971268594264984,-1.5001018683062952,0.0,-0.007319696247577667,0.449918270111084,0.004767917562276125,0.05714268237352371,0.7804962992668152,0.005603436846286058,0.06953416019678116
264.0,803.0,3.6838,0.7609,8.4514,0.0699,-0.244,-0.1487,-1.665985723535055,-0.28284183144569397,2.257641315460205,-1.7234622240066528,0.00029966412694193423,2.1430792808532715,4.503467722530029,0.0006410785135813057,0.3050759434700012,-1.5000904242144983,0.0,-0.00632884819060564,0.4499785602092743,0.0014869767474010587,0.05421251058578491,0.7805320620536804,0.006242061965167522,0.06126299500465393
257.0,941.0,4.5482,0.6951,8.5322,0.0502,-0.2272,-0.1457,-1.6682268581786097,-0.2774648070335388,2.291801691055298,-1.7234220504760742,0.0003244685067329556,2.122346878051758,4.5035034853168945,0.0007509812130592763,0.29776936769485474,-1.5001142660724085,0.0,-0.008222037926316261,0.4500309228897095,0.0008620228618383408,0.0702308714389801,0.7806047201156616,0.007525603286921978,0.06299865990877151
257.0,941.0,4.5482,0.6951,8.5322,0.0502,-0.2272,-0.1457,-1.66986145595693,-0.2700917720794678,2.3045802116394043,-1.723442554473877,0.00038690082146786153,2.1281838417053223,4.503487272853516,0.002249648794531822,0.30373647809028625,-1.5001304785357874,0.0,-0.019627952948212624,0.45003053545951843,0.0006340024992823601,0.06321612000465393,0.7806684374809265,0.008413349278271198,0.06907708942890167
257.0,941.0,4.5482,0.6951,8.5322,0.0502,-0.2272,-0.1457,-1.6714235744872035,-0.26771244406700134,2.3479220867156982,-1.7234385013580322,0.0013566064881160855,2.1057136058807373,4.503479166621826,0.0037573417648673058,0.2974255084991455,-1.500150505696432,0.0,-0.015026812441647053,0.4501190185546875,0.000501425820402801,0.050346821546554565,0.7806680202484131,0.009395197033882141,0.02630707621574402
257.0,941.0,4.5482,0.6951,8.5322,0.0502,-0.2272,-0.1457,-1.6730100117125453,-0.2612401247024536,2.377502679824829,-1.723450779914856,0.0013586964923888445,2.1330790519714355,4.503523035640381,0.0042526195757091045,0.29451921582221985,-1.500122372304098,0.0,0.00010795448906719685,0.45002269744873047,0.00027495427639223635,0.06450269371271133,0.7807602286338806,0.010743379592895508,0.029592398554086685
257.0,941.0,4.5482,0.6951,8.5322,0.0502,-0.2272,-0.1457,-1.6750160656371058,-0.25797170400619507,2.2996151447296143,-1.7234580516815186,0.0008572384831495583,2.1316676139831543,4.503602667445801,0.0027782057877629995,0.30409520864486694,-1.5001466909991663,0.0,-0.010178825818002224,0.4500022232532501,0.0003420517314225435,0.08704695105552673,0.780803918838501,0.013193191960453987,0.07310359179973602
