ramyac6/ROB537/final_project/csv/all/good_115.csv
tof_0,tof_1,accelx,accely,accelz,gyrox,gyroy,gyroz,shoulder_lift_joint_position,shoulder_lift_joint_velocity,shoulder_lift_joint_effort,elbow_joint_position,elbow_joint_velocity,elbow_joint_effort,wrist_1_joint_position,wrist_1_joint_velocity,wrist_1_joint_effort,wrist_2_joint_position,wrist_2_joint_velocity,wrist_2_joint_effort,wrist_3_joint_position,wrist_3_joint_velocity,wrist_3_joint_effort,shoulder_pan_joint_position,shoulder_pan_joint_velocity,shoulder_pan_joint_effort
292.0,440.0,6.5683,-0.7155,6.396,-0.0376,0.022,-0.1112,-1.686380525628561,0.0,2.6316566467285156,-1.2316163778305054,-0.0,2.1630334854125977,3.6669980722614746,0.0,0.26285749673843384,-1.6180794874774378,0.0,-0.016024703159928322,0.9294143319129944,-0.0,-0.015790406614542007,0.637485921382904,0.0,-0.017791111022233963
292.0,440.0,6.5683,-0.7155,6.396,-0.0376,0.022,-0.1112,-1.686397214929098,0.0,2.6237292289733887,-1.231603980064392,-0.0,2.1430790424346924,3.6669770914265136,0.0,0.27105987071990967,-1.6180995146380823,0.0,-0.003779294900596142,0.9293331503868103,-0.0,-0.012647921219468117,0.6374415755271912,0.0,0.0017865072004497051
292.0,440.0,6.5683,-0.7155,6.396,-0.0376,0.022,-0.1112,-1.6864048443236292,0.0,2.6577515602111816,-1.2315316200256348,-0.0,2.1479392051696777,3.667006178493164,0.0,0.27542734146118164,-1.6180914084063929,0.0,0.0019702017307281494,0.9293413162231445,-0.0,0.0008336681639775634,0.6374982595443726,0.0,-0.008788342587649822
292.0,440.0,6.5683,-0.7155,6.396,-0.0376,0.022,-0.1112,-1.6864162884154261,0.0,2.6283507347106934,-1.231535792350769,-0.0,2.102426290512085,3.666968985194824,0.0,0.2586926221847534,-1.6180995146380823,0.0,0.007121460512280464,0.9293413162231445,-0.0,-0.004249001853168011,0.6374980211257935,0.0,0.04375402629375458
292.0,440.0,6.5683,-0.7155,6.396,-0.0376,0.022,-0.1112,-1.6864687405028285,0.0,2.64678955078125,-1.2315477132797241,-0.0,2.1566126346588135,3.6670266824909667,0.0,0.2643073797225952,-1.6180837790118616,0.0,-0.001318034715950489,0.9293491840362549,-0.0,-0.010239978320896626,0.6374456882476807,0.0,0.00021293992176651955
292.0,440.0,6.5683,-0.7155,6.396,-0.0376,0.022,-0.1112,-1.6864124737181605,0.0,2.651876926422119,-1.2315720319747925,-0.0,2.1304800510406494,3.6669813829609375,0.0,0.272580087184906,-1.6181157271014612,0.0,-0.0037869883235543966,0.9293573498725891,-0.0,-0.012912645936012268,0.6374659538269043,0.0,0.022020168602466583
293.0,419.0,6.5773,-0.7316,6.4415,-0.0344,0.0241,-0.1161,-1.6864124737181605,0.0,2.623040199279785,-1.2316081523895264,-0.0,2.148758888244629,3.6670467096516113,0.0,0.26000362634658813,-1.6180995146380823,0.0,0.006335258483886719,0.9293864369392395,-0.0,-0.0002919288817793131,0.6374374628067017,0.0,0.04860546812415123
293.0,419.0,6.5773,-0.7316,6.4415,-0.0344,0.0241,-0.1161,-1.6864162884154261,0.0,2.643533706665039,-1.2315926551818848,-0.0,2.187335968017578,3.6669770914265136,0.0,0.2640448808670044,-1.618103329335348,0.0,-0.0012317138025537133,0.9293491840362549,-0.0,-0.005779442377388477,0.6374738812446594,0.0,-0.003698779037222266
293.0,419.0,6.5773,-0.7316,6.4415,-0.0344,0.0241,-0.1161,-1.6864086590208949,0.0,2.5751781463623047,-1.2315762042999268,-0.0,2.1422200202941895,3.6670099931904296,0.0,0.2614499032497406,-1.6181157271014612,0.0,-0.022080078721046448,0.9293372631072998,-0.0,0.004080667160451412,0.637485921382904,0.0,0.026741139590740204
293.0,419.0,6.5773,-0.7316,6.4415,-0.0344,0.0241,-0.1161,-1.6864086590208949,0.0,2.6324663162231445,-1.2315760850906372,-0.0,2.1152663230895996,3.6670185762592773,0.0,0.2650356888771057,-1.6180952231036585,0.0,0.007099299691617489,0.929381787776947,-0.0,-0.0007801773026585579,0.6374659538269043,0.0,-0.000736563466489315
293.0,419.0,6.5773,-0.7316,6.4415,-0.0344,0.0241,-0.1161,-1.6864286861815394,0.0,2.633918046951294,-1.2315678596496582,-0.0,2.1502580642700195,3.6670500475117187,0.0,0.2735448181629181,-1.618091885243551,0.0,-0.003578322706744075,0.9293537139892578,-0.0,-0.011997816152870655,0.6374941468238831,0.0,-0.0006574764847755432
293.0,419.0,6.5773,-0.7316,6.4415,-0.0344,0.0241,-0.1161,-1.6864286861815394,0.0,2.661578416824341,-1.2315998077392578,-0.0,2.146272659301758,3.666949434871338,0.0,0.26563185453414917,-1.6181157271014612,0.0,-0.0014911163598299026,0.9293859004974365,-0.0,-0.008733079768717289,0.6374741196632385,0.0,0.0015752012841403484
293.0,419.0,6.5773,-0.7316,6.4415,-0.0344,0.0241,-0.1161,-1.686397214929098,0.0,2.6201157569885254,-1.2315475940704346,-0.0,2.180746555328369,3.666961832637451,0.0,0.2726116478443146,-1.618127171193258,0.0,-0.004821499343961477,0.9293573498725891,-0.0,-0.014262087643146515,0.6374539136886597,0.0,0.0004925164394080639
293.0,419.0,6.5773,-0.7316,6.4415,-0.0344,0.0241,-0.1161,-1.68642057994985,0.0,2.643857002258301,-1.2315843105316162,-0.0,2.0809743404388428,3.66697279989209,0.0,0.2824759781360626,-1.6181157271014612,0.0,0.00115411845035851,0.9293496608734131,-0.0,-0.008008976466953754,0.6375144124031067,0.0,0.014432120136916637
293.0,419.0,6.5773,-0.7316,6.4415,-0.0344,0.0241,-0.1161,-1.686397214929098,0.0,2.617136240005493,-1.2315638065338135,-0.0,2.1629838943481445,3.666989489192627,0.0,0.2608964741230011,-1.6181157271014612,0.0,-0.001429205178283155,0.9293537735939026,-0.0,-0.007729918230324984,0.6374577283859253,0.0,0.00221199169754982
293.0,419.0,6.5773,-0.7316,6.4415,-0.0344,0.0241,-0.1161,-1.6863848171629847,0.0,2.6356053352355957,-1.2316484451293945,-0.0,2.1233162879943848,3.6669813829609375,0.0,0.27098119258880615,-1.6180914084063929,0.0,-0.00551861897110939,0.9293942451477051,-0.0,-0.0011593657545745373,0.6374577283859253,0.0,0.020184747874736786
293.0,419.0,6.5773,-0.7316,6.4415,-0.0344,0.0241,-0.1161,-1.6864367924132289,0.0,2.6480302810668945,-1.2315843105316162,-0.0,2.1456332206726074,3.66700188695874,0.0,0.2674737572669983,-1.6180513540851038,0.0,0.0020072085317224264,0.9294344186782837,-0.0,-0.012715552002191544,0.6374900341033936,0.0,0.01682182215154171
293.0,419.0,6.5773,-0.7316,6.4415,-0.0344,0.0241,-0.1161,-1.686380525628561,0.0,2.6314573287963867,-1.2315917015075684,-0.0,2.1218740940093994,3.6669937807270507,0.0,0.2737540006637573,-1.618103329335348,0.0,0.006106322631239891,0.9293658137321472,-0.0,0.0009373445063829422,0.6374899744987488,0.0,0.0157350804656744
288.0,426.0,6.612,-0.6993,6.2824,-0.0258,0.0223,-0.1158,-1.6864086590208949,0.0,2.6767168045043945,-1.2315317392349243,-0.0,2.1555373668670654,3.6670266824909667,0.0,0.2652047276496887,-1.6180995146380823,0.0,-0.009795859456062317,0.929390013217926,-0.0,-0.017022639513015747,0.6374577879905701,0.0,0.04632111266255379
288.0,426.0,6.612,-0.6993,6.2824,-0.0258,0.0223,-0.1158,-1.686380525628561,0.0,2.6350860595703125,-1.2315638065338135,-0.0,2.161376476287842,3.666989489192627,0.0,0.2656073570251465,-1.618103329335348,0.0,-0.00938403233885765,0.9293496608734131,-0.0,0.005613967776298523,0.6374577879905701,0.0,-0.029139108955860138
288.0,426.0,6.612,-0.6993,6.2824,-0.0258,0.0223,-0.1158,-1.6864530048766078,0.0,2.639192581176758,-1.2315884828567505,-0.0,2.12145733833313,3.666989489192627,0.0,0.2761031687259674,-1.6180995146380823,0.0,-0.004040532745420933,0.9293252825737,-0.0,-0.0006473087705671787,0.6374940872192383,0.0,-0.0206744484603405
288.0,426.0,6.612,-0.6993,6.2824,-0.0258,0.0223,-0.1158,-1.6863647900023402,0.0,2.62841534614563,-1.2314997911453247,-0.0,2.1519007682800293,3.667017622584961,0.0,0.2753070890903473,-1.6180914084063929,0.0,0.013587512075901031,0.9293532371520996,-0.0,-0.005184343084692955,0.6374861598014832,0.0,-0.012092502787709236
288.0,426.0,6.612,-0.6993,6.2824,-0.0258,0.0223,-0.1158,-1.6863609753050746,0.0,2.6332225799560547,-1.2315517663955688,-0.0,2.1525487899780273,3.6669575411030273,0.0,0.26340439915657043,-1.6181157271014612,0.0,-0.012856900691986084,0.9293336868286133,-0.0,-0.005380092654377222,0.6374539136886597,0.0,0.0037332004867494106
288.0,426.0,6.612,-0.6993,6.2824,-0.0258,0.0223,-0.1158,-1.686385294000143,0.0,2.6339457035064697,-1.2316163778305054,-0.0,2.140165328979492,3.6669856744953613,0.0,0.26929470896720886,-1.6180995146380823,0.0,0.0031192766036838293,0.9293372631072998,-0.0,-0.018192486837506294,0.6375143527984619,0.0,0.0034663169644773006
288.0,426.0,6.612,-0.6993,6.2824,-0.0258,0.0223,-0.1158,-1.6864124737181605,0.0,2.6381654739379883,-1.2315720319747925,-0.0,2.1858925819396973,3.667017622584961,0.0,0.26423531770706177,-1.6181157271014612,0.0,-0.0009195446036756039,0.929329514503479,-0.0,-0.013816973194479942,0.6374577283859253,0.0,0.040575060993433
288.0,426.0,6.612,-0.6993,6.2824,-0.0258,0.0223,-0.1158,-1.6863767109312953,0.0,2.649941921234131,-1.2315597534179688,-0.0,2.0776283740997314,3.6669770914265136,0.0,0.27614477276802063,-1.6180995146380823,0.0,0.004882072098553181,0.9293295741081238,-0.0,-0.018238184973597527,0.6374900341033936,0.0,-0.007160944864153862
288.0,426.0,6.612,-0.6993,6.2824,-0.0258,0.0223,-0.1158,-1.6863886318602503,0.0,2.6289584636688232,-1.2315398454666138,-0.0,2.1769771575927734,3.6670219141193847,0.0,0.2692752778530121,-1.6180995146380823,0.0,-0.013929749839007854,0.9293656349182129,-0.0,-0.01599171943962574,0.6374496817588806,0.0,-0.005812891758978367
288.0,426.0,6.612,-0.6993,6.2824,-0.0258,0.0223,-0.1158,-1.6864286861815394,0.0,2.638120174407959,-1.2316081523895264,-0.0,2.1087162494659424,3.6669813829609375,0.0,0.26854148507118225,-1.6180995146380823,0.0,-0.0079907001927495,0.9293537735939026,-0.0,-0.006252560764551163,0.6374618411064148,0.0,0.0024661067873239517
288.0,426.0,6.612,-0.6993,6.2824,-0.0258,0.0223,-0.1158,-1.686380525628561,0.0,2.6207170486450195,-1.2315436601638794,-0.0,2.1643226146698,3.66700188695874,0.0,0.2672307789325714,-1.6181157271014612,0.0,-0.013597629964351654,0.9293093085289001,-0.0,-0.013387363404035568,0.6374941468238831,0.0,-0.0017128698527812958
288.0,426.0,6.612,-0.6993,6.2824,-0.0258,0.0223,-0.1158,-1.6864124737181605,0.0,2.579185962677002,-1.2315843105316162,-0.0,2.102301836013794,3.6669937807270507,0.0,0.2694198191165924,-1.6180914084063929,0.0,0.006174678448587656,0.9293455481529236,-0.0,-0.010134020820260048,0.637506365776062,0.0,-0.00857811514288187
285.0,438.0,6.6012,-0.6945,6.3787,-0.0341,0.027,-0.1196,-1.686380525628561,0.0,2.639075756072998,-1.2315597534179688,-0.0,2.089998245239258,3.667010470027588,0.0,0.2712465226650238,-1.618131462727682,0.0,-0.011038381606340408,0.9293252825737,-0.0,-0.011264203116297722,0.6374861598014832,0.0,-0.05187821015715599
285.0,438.0,6.6012,-0.6945,6.3787,-0.0341,0.027,-0.1196,-1.6864243946471156,0.0,2.6461923122406006,-1.2315760850906372,-0.0,2.13808536529541,3.6669937807270507,0.0,0.26922696828842163,-1.618131462727682,0.0,0.010598021559417248,0.9293899536132812,-0.0,-0.017507953569293022,0.6374698281288147,0.0,0.02179533801972866
285.0,438.0,6.6012,-0.6945,6.3787,-0.0341,0.027,-0.1196,-1.6864162884154261,0.0,2.6229352951049805,-1.2316040992736816,-0.0,2.1392107009887695,3.667034311885498,0.0,0.26801955699920654,-1.618103329335348,0.0,0.00537493173032999,0.929337203502655,-0.0,-0.016907166689634323,0.6374818682670593,0.0,0.008919076062738895
285.0,438.0,6.6012,-0.6945,6.3787,-0.0341,0.027,-0.1196,-1.6864086590208949,0.0,2.617903709411621,-1.2315559387207031,-0.0,2.1623735427856445,3.666949434871338,0.0,0.26402774453163147,-1.6180995146380823,0.0,0.00872126966714859,0.9293496608734131,-0.0,-0.005702071823179722,0.6374579668045044,0.0,-0.03332609683275223
285.0,438.0,6.6012,-0.6945,6.3787,-0.0341,0.027,-0.1196,-1.6864010296263636,0.0,2.64361834526062,-1.2315638065338135,-0.0,2.1279549598693848,3.6669608789631347,0.0,0.2688186764717102,-1.6180594603167933,0.0,0.00498544005677104,0.9293252825737,-0.0,-0.0052104489877820015,0.6374536752700806,0.0,-0.050504833459854126
285.0,438.0,6.6012,-0.6945,6.3787,-0.0341,0.027,-0.1196,-1.6864406071104945,0.0,2.642627716064453,-1.2315394878387451,-0.0,2.1255552768707275,3.6670142847248535,0.0,0.2625119090080261,-1.6180995146380823,0.0,-0.013257787562906742,0.9293016791343689,-0.0,-0.0038577383384108543,0.6374818682670593,0.0,0.07274170964956284
285.0,438.0,6.6012,-0.6945,6.3787,-0.0341,0.027,-0.1196,-1.6864286861815394,0.0,2.6459577083587646,-1.2315678596496582,-0.0,2.0872530937194824,3.66697279989209,0.0,0.2763460874557495,-1.6180914084063929,0.0,-0.0022411576937884092,0.9293982982635498,-0.0,-0.0117314662784338,0.6374618411064148,0.0,0.02258581854403019
285.0,438.0,6.6012,-0.6945,6.3787,-0.0341,0.027,-0.1196,-1.686397214929098,0.0,2.650477409362793,-1.2315316200256348,-0.0,2.1603925228118896,3.6669532495686035,0.0,0.26060694456100464,-1.6180837790118616,0.0,-0.0030393050983548164,0.929406464099884,-0.0,-0.001499862875789404,0.6374821066856384,0.0,0.017275886610150337
285.0,438.0,6.6012,-0.6945,6.3787,-0.0341,0.027,-0.1196,-1.686397214929098,0.0,2.6399052143096924,-1.2315999269485474,-0.0,2.133211135864258,3.667010470027588,0.0,0.27601948380470276,-1.618091885243551,0.0,-0.013805944472551346,0.9293573498725891,-0.0,-0.008851994760334492,0.6374659538269043,0.0,-0.013874359428882599
285.0,438.0,6.6012,-0.6945,6.3787,-0.0341,0.027,-0.1196,-1.68642057994985,0.0,2.596778154373169,-1.2315802574157715,-0.0,2.154599666595459,3.666989489192627,0.0,0.26335886120796204,-1.6180914084063929,0.0,-0.005882399156689644,0.9293615818023682,-0.0,-0.0071378652937710285,0.6374861598014832,0.0,0.05019382759928703
285.0,438.0,6.6012,-0.6945,6.3787,-0.0341,0.027,-0.1196,-1.6864644489684046,0.0,2.6367592811584473,-1.2316163778305054,-0.0,2.1009035110473633,3.667006178493164,0.0,0.2712745666503906,-1.6180837790118616,0.0,-0.005906851962208748,0.9293171763420105,-0.0,-0.003034819383174181,0.6374579668045044,0.0,-0.03641381859779358
290.0,443.0,6.5689,-0.7543,6.3661,-0.0363,0.0212,-0.1242,-1.6864162884154261,0.0,2.638536214828491,-1.2316205501556396,-0.0,2.1247501373291016,3.6669980722614746,0.0,0.2609969973564148,-1.6180914084063929,0.0,-0.0015572330448776484,0.9293983578681946,-0.0,-0.014205661602318287,0.6374659538269043,0.0,0.003143145702779293
290.0,443.0,6.5689,-0.7543,6.3661,-0.0363,0.0212,-0.1242,-1.6864086590208949,0.0,2.6239209175109863,-1.2315762042999268,-0.0,2.1566050052642822,3.6669813829609375,0.0,0.26105207204818726,-1.6180995146380823,0.0,0.005968267098069191,0.9293295741081238,-0.0,0.0048896498046815395,0.6375102996826172,0.0,0.03776273876428604
290.0,443.0,6.5689,-0.7543,6.3661,-0.0363,0.0212,-0.1242,-1.6864010296263636,0.0,2.6338911056518555,-1.231595754623413,-0.0,2.108761787414551,3.666973276729248,0.0,0.26888811588287354,-1.6180675665484827,0.0,-0.00597592256963253,0.9293451309204102,-0.0,0.000481592258438468,0.6374981999397278,0.0,0.009092832915484905
290.0,443.0,6.5689,-0.7543,6.3661,-0.0363,0.0212,-0.1242,-1.6864367924132289,0.0,2.6345319747924805,-1.2315720319747925,-0.0,2.0987188816070557,3.667030020351074,0.0,0.2728024125099182,-1.6180837790118616,0.0,0.0031366024632006884,0.92938232421875,-0.0,-0.0051951357163488865,0.6374415755271912,0.0,0.003418098669499159
290.0,443.0,6.5689,-0.7543,6.3661,-0.0363,0.0212,-0.1242,-1.6864124737181605,0.0,2.654531478881836,-1.231640338897705,-0.0,2.1733765602111816,3.66700188695874,0.0,0.2667709290981293,-1.6180952231036585,0.0,0.00558255473151803,0.9293418526649475,-0.0,-0.01064993254840374,0.6374821066856384,0.0,-0.03680019825696945
290.0,443.0,6.5689,-0.7543,6.3661,-0.0363,0.0212,-0.1242,-1.68642057994985,0.0,2.6803064346313477,-1.2315802574157715,-0.0,2.1459639072418213,3.6669813829609375,0.0,0.2678627073764801,-1.6180875937091272,0.0,-0.0045668440870940685,0.9293656945228577,-0.0,-0.005309383850544691,0.6374338269233704,0.0,-0.0022599545773118734
290.0,443.0,6.5689,-0.7543,6.3661,-0.0363,0.0212,-0.1242,-1.6863728962340296,0.0,2.647030830383301,-1.2315680980682373,-0.0,2.097606658935547,3.666973276729248,0.0,0.27510806918144226,-1.6181157271014612,0.0,-0.01009043026715517,0.9293417930603027,-0.0,-8.061272092163563e-05,0.6375143527984619,0.0,0.025738343596458435
290.0,443.0,6.5689,-0.7543,6.3661,-0.0363,0.0212,-0.1242,-1.6864367924132289,0.0,2.648862838745117,-1.2315638065338135,-0.0,2.167158365249634,3.667006178493164,0.0,0.2735830247402191,-1.6180995146380823,0.0,-0.009283370338380337,0.9293456077575684,-0.0,-0.005656785797327757,0.6374700665473938,0.0,0.04849531874060631
290.0,443.0,6.5689,-0.7543,6.3661,-0.0363,0.0212,-0.1242,-1.6864367924132289,0.0,2.6564488410949707,-1.2315435409545898,-0.0,2.106386661529541,3.6669575411030273,0.0,0.2772981822490692,-1.618103329335348,0.0,-0.0002626738278195262,0.929390013217926,-0.0,0.007108413614332676,0.6374659538269043,0.0,0.00456141447648406
290.0,443.0,6.5689,-0.7543,6.3661,-0.0363,0.0212,-0.1242,-1.6864005527892054,0.0,2.661829948425293,-1.2315477132797241,-0.0,2.1954092979431152,3.666989489192627,0.0,0.2655256688594818,-1.618131462727682,0.0,-0.0005036769434809685,0.9294184446334839,-0.0,-0.0014428294962272048,0.6374738812446594,0.0,0.004348749294877052
290.0,443.0,6.5689,-0.7543,6.3661,-0.0363,0.0212,-0.1242,-1.6864367924132289,0.0,2.6837990283966064,-1.2316123247146606,-0.0,2.1050992012023926,3.6669856744953613,0.0,0.2765669822692871,-1.6180995146380823,0.0,-0.005834863521158695,0.9293413162231445,-0.0,-0.020124834030866623,0.6375143527984619,0.0,-0.011417461559176445
290.0,443.0,6.5689,-0.7543,6.3661,-0.0363,0.0212,-0.1242,-1.6864406071104945,0.0,2.622011661529541,-1.2315517663955688,-0.0,2.1354432106018066,3.6669537264057617,0.0,0.278301477432251,-1.6180952231036585,0.0,-0.009710017591714859,0.9293455481529236,-0.0,-0.017101682722568512,0.63746577501297,0.0,0.023853011429309845
281.0,460.0,6.6126,-0.7161,6.3966,-0.0432,0.0159,-0.122,-1.6864329777159632,0.0,2.6249377727508545,-1.231535792350769,-0.0,2.1296329498291016,3.666961832637451,0.0,0.26426833868026733,-1.618103329335348,0.0,0.007413649465888739,0.9293739795684814,-0.0,-0.012870462611317635,0.6374821066856384,0.0,-0.0065299756824970245
281.0,460.0,6.6126,-0.7161,6.3966,-0.0432,0.0159,-0.122,-1.6864329777159632,0.0,2.6380953788757324,-1.231595754623413,-0.0,2.1800670623779297,3.6670142847248535,0.0,0.2814599871635437,-1.6180995146380823,0.0,0.007635166868567467,0.9292809963226318,-0.0,0.0019197450019419193,0.6374536752700806,0.0,-0.0031366171315312386
281.0,460.0,6.6126,-0.7161,6.3966,-0.0432,0.0159,-0.122,-1.6864124737181605,0.0,2.6379036903381348,-1.2315559387207031,-0.0,2.1248183250427246,3.6669937807270507,0.0,0.2647455930709839,-1.618131462727682,0.0,-0.0070246984250843525,0.929337739944458,-0.0,-0.0003613122971728444,0.6374136209487915,0.0,-0.0062117185443639755
281.0,460.0,6.6126,-0.7161,6.3966,-0.0432,0.0159,-0.122,-1.6863891086974085,0.0,2.6374881267547607,-1.2316447496414185,-0.0,2.18338680267334,3.6669575411030273,0.0,0.2837888300418854,-1.6180837790118616,0.0,-8.510192856192589e-06,0.9293413162231445,-0.0,-0.002096569398418069,0.6375464797019958,0.0,-0.022357448935508728
281.0,460.0,6.6126,-0.7161,6.3966,-0.0432,0.0159,-0.122,-1.686448713342184,0.0,2.6297426223754883,-1.2315998077392578,-0.0,2.1040992736816406,3.66700188695874,0.0,0.25536128878593445,-1.6180995146380823,0.0,-0.006781248841434717,0.9293983578681946,-0.0,-0.002007723320275545,0.6375143527984619,0.0,0.028052514418959618
281.0,460.0,6.6126,-0.7161,6.3966,-0.0432,0.0159,-0.122,-1.6864086590208949,0.0,2.609795331954956,-1.2316081523895264,-0.0,2.200120210647583,3.6669770914265136,0.0,0.27252131700515747,-1.6180995146380823,0.0,-0.00131594343110919,0.929361879825592,-0.0,-0.003511187620460987,0.6374498009681702,0.0,0.00494198314845562
281.0,460.0,6.6126,-0.7161,6.3966,-0.0432,0.0159,-0.122,-1.6864286861815394,0.0,2.6680898666381836,-1.2316081523895264,-0.0,2.165891647338867,3.6670185762592773,0.0,0.26482897996902466,-1.6180875937091272,0.0,-0.0035958688240498304,0.9293738007545471,-0.0,-0.0022774955723434687,0.6374981999397278,0.0,0.01770183816552162
281.0,460.0,6.6126,-0.7161,6.3966,-0.0432,0.0159,-0.122,-1.686380525628561,0.0,2.597315788269043,-1.2315399646759033,-0.0,2.157656192779541,3.666961832637451,0.0,0.2641651928424835,-1.6181076208697718,0.0,-0.016136568039655685,0.9293491244316101,-0.0,-0.005903289653360844,0.6374700665473938,0.0,-0.011454304680228233
281.0,460.0,6.6126,-0.7161,6.3966,-0.0432,0.0159,-0.122,-1.6864248714842738,0.0,2.617396831512451,-1.2315678596496582,-0.0,2.099165201187134,3.6669131952473144,0.0,0.2677009105682373,-1.6180837790118616,0.0,-0.008592232130467892,0.9294097423553467,-0.0,-0.015231107361614704,0.6374698281288147,0.0,0.028629852458834648
281.0,460.0,6.6126,-0.7161,6.3966,-0.0432,0.0159,-0.122,-1.6864086590208949,0.0,2.629234790802002,-1.2315762042999268,-0.0,2.1709487438201904,3.667010470027588,0.0,0.27595967054367065,-1.6180952231036585,0.0,0.0012423926964402199,0.9293982982635498,-0.0,-0.017510250210762024,0.6374577879905701,0.0,0.062037575989961624
281.0,460.0,6.6126,-0.7161,6.3966,-0.0432,0.0159,-0.122,-1.686380525628561,0.0,2.6647133827209473,-1.2315762042999268,-0.0,2.157227039337158,3.6669856744953613,0.0,0.272487610578537,-1.6180713812457483,0.0,-0.0144001180306077,0.9293859004974365,-0.0,-0.0009146933443844318,0.6374821066856384,0.0,0.0031626159325242043
279.0,449.0,6.536,-0.6999,6.3787,-0.0368,0.0231,-0.1182,-1.686448713342184,0.0,2.6165475845336914,-1.231595754623413,-0.0,2.1414785385131836,3.6670467096516113,0.0,0.2560628354549408,-1.6181514898883265,0.0,0.006922123953700066,0.9293578267097473,-0.0,-0.018121421337127686,0.6374577879905701,0.0,0.010044915601611137
279.0,449.0,6.536,-0.6999,6.3787,-0.0368,0.0231,-0.1182,-1.6863891086974085,0.0,2.5670313835144043,-1.2315876483917236,-0.0,2.1337733268737793,3.6669813829609375,0.0,0.26277050375938416,-1.618115250264303,0.0,-0.004842917434871197,0.9293496608734131,-0.0,-0.012330736964941025,0.6375061869621277,0.0,-0.01296711154282093
279.0,449.0,6.536,-0.6999,6.3787,-0.0368,0.0231,-0.1182,-1.6864367924132289,0.0,2.6248154640197754,-1.2316163778305054,-0.0,2.1513710021972656,3.667017622584961,0.0,0.26783472299575806,-1.6180956999408167,0.0,0.001362660899758339,0.9293332099914551,-0.0,0.004956431686878204,0.6375102400779724,0.0,-0.018283769488334656
279.0,449.0,6.536,-0.6999,6.3787,-0.0368,0.0231,-0.1182,-1.6864286861815394,0.0,2.6603055000305176,-1.231595754623413,-0.0,2.126645565032959,3.6670381265827636,0.0,0.26992785930633545,-1.6181195417987269,0.0,-0.0019934838637709618,0.9294261932373047,-0.0,-0.012268900871276855,0.6374618411064148,0.0,0.03588052839040756
279.0,449.0,6.536,-0.6999,6.3787,-0.0368,0.0231,-0.1182,-1.6864162884154261,0.0,2.601226329803467,-1.2315802574157715,-0.0,2.151834487915039,3.6669980722614746,0.0,0.25953638553619385,-1.618131462727682,0.0,-0.0016887658275663853,0.9293413162231445,-0.0,-0.001097270054742694,0.6374741196632385,0.0,-0.0027943761087954044
279.0,449.0,6.536,-0.6999,6.3787,-0.0368,0.0231,-0.1182,-1.6864010296263636,0.0,2.6393308639526367,-1.2315638065338135,-0.0,2.151918411254883,3.666961832637451,0.0,0.2616472542285919,-1.618103329335348,0.0,-0.003413860686123371,0.9293659925460815,-0.0,0.003090384416282177,0.6375262141227722,0.0,-0.01933964714407921
279.0,449.0,6.536,-0.6999,6.3787,-0.0368,0.0231,-0.1182,-1.6864367924132289,0.0,2.6693406105041504,-1.231603980064392,-0.0,2.1360416412353516,3.666989489192627,0.0,0.27894625067710876,-1.6180837790118616,0.0,0.020095430314540863,0.92938232421875,-0.0,-0.005883995909243822,0.6374981999397278,0.0,-0.014026939868927002
279.0,449.0,6.536,-0.6999,6.3787,-0.0368,0.0231,-0.1182,-1.68642057994985,0.0,2.63443922996521,-1.2315843105316162,-0.0,2.1180646419525146,3.666968985194824,0.0,0.2820739150047302,-1.6180995146380823,0.0,0.003478236496448517,0.9293417930603027,-0.0,0.007329861633479595,0.6374659538269043,0.0,0.03519222140312195
279.0,449.0,6.536,-0.6999,6.3787,-0.0368,0.0231,-0.1182,-1.6864162884154261,0.0,2.607862949371338,-1.2315678596496582,-0.0,2.1422781944274902,3.667010470027588,0.0,0.26172739267349243,-1.6180995146380823,0.0,0.004463797900825739,0.9293615818023682,-0.0,-0.0009061634773388505,0.6374659538269043,0.0,0.010403716005384922
279.0,449.0,6.536,-0.6999,6.3787,-0.0368,0.0231,-0.1182,-1.686380525628561,0.0,2.6143946647644043,-1.2315802574157715,-0.0,2.138881206512451,3.666973276729248,0.0,0.26777955889701843,-1.6180875937091272,0.0,-0.0053982422687113285,0.9294102191925049,-0.0,-0.008308966644108295,0.6374577879905701,0.0,-0.037575069814920425
279.0,449.0,6.536,-0.6999,6.3787,-0.0368,0.0231,-0.1182,-1.686404367486471,0.0,2.620718479156494,-1.2315517663955688,-0.0,2.169355630874634,3.666989489192627,0.0,0.2695907950401306,-1.6180995146380823,0.0,-0.008425572887063026,0.9293413162231445,-0.0,-0.009363917633891106,0.6374900341033936,0.0,0.03700883686542511
279.0,449.0,6.536,-0.6999,6.3787,-0.0368,0.0231,-0.1182,-1.6864124737181605,0.0,2.6333415508270264,-1.2315762042999268,-0.0,2.1034765243530273,3.666973276729248,0.0,0.26448845863342285,-1.6180995146380823,0.0,-0.010734849609434605,0.9293697476387024,-0.0,-0.011406272649765015,0.6374940872192383,0.0,-0.041102755814790726
286.0,423.0,6.5151,-0.7478,6.5695,-0.0313,0.0186,-0.1187,-1.6864124737181605,0.0,2.621269702911377,-1.2315762042999268,-0.0,2.1239326000213623,3.6670381265827636,0.0,0.2665756046772003,-1.6180837790118616,0.0,0.0031313830986618996,0.92938232421875,-0.0,-0.006684723775833845,0.6374618411064148,0.0,0.018903948366642
286.0,423.0,6.5151,-0.7478,6.5695,-0.0313,0.0186,-0.1187,-1.6863929233946742,0.0,2.647756576538086,-1.2315762042999268,-0.0,2.095994234085083,3.6670467096516113,0.0,0.26964616775512695,-1.618115250264303,0.0,-0.0014971275813877583,0.92938232421875,-0.0,-0.014355113729834557,0.6374779939651489,0.0,-0.007507732603698969
286.0,423.0,6.5151,-0.7478,6.5695,-0.0313,0.0186,-0.1187,-1.686448713342184,0.0,2.6516480445861816,-1.2315038442611694,-0.0,2.124786853790283,3.6669856744953613,0.0,0.26843827962875366,-1.6180875937091272,0.0,-0.0007903859950602055,0.9293496608734131,-0.0,-0.013543808832764626,0.6375184059143066,0.0,0.048761531710624695
286.0,423.0,6.5151,-0.7478,6.5695,-0.0313,0.0186,-0.1187,-1.6864243946471156,0.0,2.6561338901519775,-1.231580138206482,-0.0,2.1110739707946777,3.6670219141193847,0.0,0.2719654142856598,-1.618103329335348,0.0,0.0006588101387023926,0.9293782114982605,-0.0,-0.00233112508431077,0.6374982595443726,0.0,-0.016185931861400604
286.0,423.0,6.5151,-0.7478,6.5695,-0.0313,0.0186,-0.1187,-1.6864086590208949,0.0,2.6144070625305176,-1.2315760850906372,-0.0,2.1708521842956543,3.6669532495686035,0.0,0.2716299593448639,-1.618103329335348,0.0,0.013308174908161163,0.92938232421875,-0.0,-0.003522490616887808,0.6374416947364807,0.0,-0.00761246494948864
286.0,423.0,6.5151,-0.7478,6.5695,-0.0313,0.0186,-0.1187,-1.686448713342184,0.0,2.6443123817443848,-1.2315720319747925,-0.0,2.1533095836639404,3.6669656473347167,0.0,0.2782145142555237,-1.618115250264303,0.0,-0.006528256461024284,0.9293295741081238,-0.0,-0.0065250275656580925,0.6375144124031067,0.0,-0.011729395017027855
286.0,423.0,6.5151,-0.7478,6.5695,-0.0313,0.0186,-0.1187,-1.6863609753050746,0.0,2.6519463062286377,-1.2315640449523926,-0.0,2.138868808746338,3.666968985194824,0.0,0.2676340937614441,-1.6180995146380823,0.0,-0.004451718181371689,0.9293295741081238,-0.0,-0.015915539115667343,0.6374577879905701,0.0,-0.02177976816892624
286.0,423.0,6.5151,-0.7478,6.5695,-0.0313,0.0186,-0.1187,-1.686385294000143,0.0,2.6227903366088867,-1.231595754623413,-0.0,2.1459836959838867,3.6669937807270507,0.0,0.27079522609710693,-1.6180756727801722,0.0,-0.011453201062977314,0.9293335676193237,-0.0,-0.005224850028753281,0.6375020742416382,0.0,0.023427557200193405
286.0,423.0,6.5151,-0.7478,6.5695,-0.0313,0.0186,-0.1187,-1.6864162884154261,0.0,2.608943223953247,-1.2315917015075684,-0.0,2.1395583152770996,3.6669770914265136,0.0,0.26790952682495117,-1.6180952231036585,0.0,-0.0050057643093168736,0.9293212890625,-0.0,0.00267126620747149,0.6374498605728149,0.0,-0.012711073271930218
286.0,423.0,6.5151,-0.7478,6.5695,-0.0313,0.0186,-0.1187,-1.686380525628561,0.0,2.6115660667419434,-1.2315843105316162,-0.0,2.156872034072876,3.66700188695874,0.0,0.27265116572380066,-1.6180995146380823,0.0,-0.005151804536581039,0.929365873336792,-0.0,3.507407382130623e-05,0.6374820470809937,0.0,0.005424942821264267
286.0,423.0,6.5151,-0.7478,6.5695,-0.0313,0.0186,-0.1187,-1.6863891086974085,0.0,2.6438069343566895,-1.2315762042999268,-0.0,2.1284122467041016,3.6669937807270507,0.0,0.26395514607429504,-1.6180995146380823,0.0,-0.002643819432705641,0.929337739944458,-0.0,0.007060974836349487,0.6374779939651489,0.0,0.004915657453238964
286.0,423.0,6.5151,-0.7478,6.5695,-0.0313,0.0186,-0.1187,-1.6864162884154261,0.0,2.624162435531616,-1.2315917015075684,-0.0,2.136962413787842,3.6669656473347167,0.0,0.2664399743080139,-1.6181195417987269,0.0,0.005272379145026207,0.9294101595878601,-0.0,-0.019769251346588135,0.6374779939651489,0.0,0.023839790374040604
282.0,427.0,6.6215,-0.7119,6.32,-0.0386,0.033,-0.1272,-1.6863767109312953,0.0,2.6344876289367676,-1.231535792350769,-0.0,2.1290669441223145,3.666949434871338,0.0,0.269368976354599,-1.618103329335348,0.0,0.006863127462565899,0.9293413758277893,-0.0,-0.009082544595003128,0.6374619007110596,0.0,-0.013872865587472916
282.0,427.0,6.6215,-0.7119,6.32,-0.0386,0.033,-0.1272,-1.6864286861815394,0.0,2.648505687713623,-1.231535792350769,-0.0,2.1693999767303467,3.6670142847248535,0.0,0.2621961236000061,-1.6180995146380823,0.0,0.0035282601602375507,0.9293132424354553,-0.0,0.002430449705570936,0.6374982595443726,0.0,0.030913274735212326
282.0,427.0,6.6215,-0.7119,6.32,-0.0386,0.033,-0.1272,-1.6864124737181605,0.0,2.6316823959350586,-1.2315762042999268,-0.0,2.1863338947296143,3.667006178493164,0.0,0.27390071749687195,-1.618103329335348,0.0,-0.005148839671164751,0.9293492436408997,-0.0,-0.005912855267524719,0.6374859809875488,0.0,-0.0036010092590004206
282.0,427.0,6.6215,-0.7119,6.32,-0.0386,0.033,-0.1272,-1.6864124737181605,0.0,2.656606435775757,-1.2316163778305054,-0.0,2.1546401977539062,3.667017622584961,0.0,0.26583266258239746,-1.618131462727682,0.0,0.004865441471338272,0.9293253421783447,-0.0,-0.00960784126073122,0.6374900341033936,0.0,-1.0604038834571838e-05
282.0,427.0,6.6215,-0.7119,6.32,-0.0386,0.033,-0.1272,-1.686364313165182,0.0,2.649916887283325,-1.2315120697021484,-0.0,2.1442625522613525,3.666977568263672,0.0,0.2742291986942291,-1.6180956999408167,0.0,-0.00873766653239727,0.9293254017829895,-0.0,-0.004130472894757986,0.6374940872192383,0.0,-0.02323378622531891
282.0,427.0,6.6215,-0.7119,6.32,-0.0386,0.033,-0.1272,-1.6863767109312953,0.0,2.5842785835266113,-1.2315599918365479,-0.0,2.1192948818206787,3.666945143336914,0.0,0.2685205638408661,-1.618103329335348,0.0,0.0012814942747354507,0.9293456077575684,-0.0,0.004594393074512482,0.6374940872192383,0.0,-0.011693843640387058
282.0,427.0,6.6215,-0.7119,6.32,-0.0386,0.033,-0.1272,-1.686409135858053,0.0,2.642127752304077,-1.2316160202026367,-0.0,2.127923011779785,3.6669770914265136,0.0,0.2670752704143524,-1.618103329335348,0.0,0.010781683027744293,0.929361879825592,-0.0,-0.006646215450018644,0.6374940872192383,0.0,0.032430265098810196
282.0,427.0,6.6215,-0.7119,6.32,-0.0386,0.033,-0.1272,-1.6864010296263636,0.0,2.6382100582122803,-1.2315802574157715,-0.0,2.146544933319092,3.6669813829609375,0.0,0.2650044560432434,-1.6180956999408167,0.0,0.010469299741089344,0.9293373227119446,-0.0,0.00107851205393672,0.6374338865280151,0.0,-0.030793681740760803
282.0,427.0,6.6215,-0.7119,6.32,-0.0386,0.033,-0.1272,-1.6864048443236292,0.0,2.692408561706543,-1.2315926551818848,-0.0,2.116304874420166,3.667010470027588,0.0,0.27804049849510193,-1.618103329335348,0.0,-0.006904354318976402,0.9293413758277893,-0.0,-0.007092363201081753,0.6374779939651489,0.0,0.007240659091621637
282.0,427.0,6.6215,-0.7119,6.32,-0.0386,0.033,-0.1272,-1.6864286861815394,0.0,2.64815354347229,-1.231595754623413,-0.0,2.129885673522949,3.6669937807270507,0.0,0.26035118103027344,-1.618155304585592,0.0,1.3712793588638306e-05,0.9294018745422363,-0.0,-3.013061359524727e-06,0.6374738812446594,0.0,-0.017572686076164246
282.0,427.0,6.6215,-0.7119,6.32,-0.0386,0.033,-0.1272,-1.6864167652525843,0.0,2.6576461791992188,-1.2315802574157715,-0.0,2.146984100341797,3.6669294077106933,0.0,0.26162585616111755,-1.6180875937091272,0.0,0.002653059083968401,0.9293615818023682,-0.0,-0.013063401915133,0.6375063061714172,0.0,-0.04515441507101059
278.0,408.0,6.4953,-0.7669,6.5647,-0.0373,0.0293,-0.1242,-1.6864210567870082,0.0,2.62648868560791,-1.2315638065338135,-0.0,2.126258611679077,3.6669856744953613,0.0,0.2705346643924713,-1.6180995146380823,0.0,-0.004759667441248894,0.9294183254241943,-0.0,-0.00682024285197258,0.6374457478523254,0.0,-0.0066444952972233295
278.0,408.0,6.4953,-0.7669,6.5647,-0.0373,0.0293,-0.1242,-1.6864406071104945,0.0,2.6629762649536133,-1.2316242456436157,-0.0,2.1267240047454834,3.667006178493164,0.0,0.26070544123649597,-1.618115250264303,0.0,-0.007098148576915264,0.9293537139892578,-0.0,-0.01757304184138775,0.6374496817588806,0.0,-0.0499739833176136
278.0,408.0,6.4953,-0.7669,6.5647,-0.0373,0.0293,-0.1242,-1.6864162884154261,0.0,2.63466739654541,-1.2315597534179688,-0.0,2.1300811767578125,3.666989489192627,0.0,0.27162185311317444,-1.6180995146380823,0.0,0.004766546189785004,0.9293696880340576,-0.0,-0.016679199412465096,0.6374779939651489,0.0,0.0021348316222429276
278.0,408.0,6.4953,-0.7669,6.5647,-0.0373,0.0293,-0.1242,-1.6864124737181605,0.0,2.633042335510254,-1.2315999269485474,-0.0,2.1291184425354004,3.6669937807270507,0.0,0.2736194133758545,-1.6180995146380823,0.0,-0.004778265953063965,0.9294063448905945,-0.0,0.0011268509551882744,0.6374416947364807,0.0,-0.01341119036078453
278.0,408.0,6.4953,-0.7669,6.5647,-0.0373,0.0293,-0.1242,-1.6864124737181605,0.0,2.615013599395752,-1.2316081523895264,-0.0,2.154203414916992,3.6670185762592773,0.0,0.2589609622955322,-1.6180995146380823,0.0,-0.006276736967265606,0.9293537139892578,-0.0,-0.010107729583978653,0.6374537348747253,0.0,0.007529465481638908
278.0,408.0,6.4953,-0.7669,6.5647,-0.0373,0.0293,-0.1242,-1.6864048443236292,0.0,2.64693284034729,-1.2316040992736816,-0.0,2.1250956058502197,3.66700188695874,0.0,0.26257550716400146,-1.6180995146380823,0.0,-0.004030860029160976,0.9294219017028809,-0.0,-0.005627077538520098,0.6374779939651489,0.0,0.02560489997267723
278.0,408.0,6.4953,-0.7669,6.5647,-0.0373,0.0293,-0.1242,-1.6864086590208949,0.0,2.654644250869751,-1.2315559387207031,-0.0,2.1612703800201416,3.6669937807270507,0.0,0.25876396894454956,-1.6180956999408167,0.0,-0.010814875364303589,0.9293213486671448,-0.0,-0.003948502242565155,0.63746577501297,0.0,-0.038872815668582916
278.0,408.0,6.4953,-0.7669,6.5647,-0.0373,0.0293,-0.1242,-1.6864248714842738,0.0,2.634915351867676,-1.2315720319747925,-0.0,2.121636152267456,3.6670381265827636,0.0,0.2661556005477905,-1.6180995146380823,0.0,-0.006355827674269676,0.9293496608734131,-0.0,-0.013481518253684044,0.6374619007110596,0.0,0.05302475392818451
278.0,408.0,6.4953,-0.7669,6.5647,-0.0373,0.0293,-0.1242,-1.6864086590208949,0.0,2.606696844100952,-1.231595754623413,-0.0,2.1490402221679688,3.667030020351074,0.0,0.262288898229599,-1.618131462727682,0.0,-0.0035660769790410995,0.9293656349182129,-0.0,-0.01178178284317255,0.6374779939651489,0.0,-0.028835557401180267
278.0,408.0,6.4953,-0.7669,6.5647,-0.0373,0.0293,-0.1242,-1.6864329777159632,0.0,2.617927074432373,-1.231595754623413,-0.0,2.110750198364258,3.667006178493164,0.0,0.2637653946876526,-1.618103329335348,0.0,0.003938848618417978,0.9293537139892578,-0.0,-0.0016019288450479507,0.6375020742416382,0.0,0.025686640292406082
278.0,408.0,6.4953,-0.7669,6.5647,-0.0373,0.0293,-0.1242,-1.6863929233946742,0.0,2.6441664695739746,-1.2315354347229004,-0.0,2.1533992290496826,3.6669537264057617,0.0,0.27548322081565857,-1.6180995146380823,0.0,-0.0029556681402027607,0.9293782114982605,-0.0,0.009437876753509045,0.6375022530555725,0.0,0.0063121565617620945
278.0,408.0,6.4953,-0.7669,6.5647,-0.0373,0.0293,-0.1242,-1.6864124737181605,0.0,2.6390252113342285,-1.2316246032714844,-0.0,2.121323347091675,3.666961832637451,0.0,0.26741933822631836,-1.6180995146380823,0.0,0.00682624988257885,0.9293656349182129,-0.0,-0.01139424741268158,0.6374820470809937,0.0,-0.0009773941710591316
291.0,450.0,6.5414,-0.7208,6.4606,-0.0319,0.0197,-0.1127,-1.686392446557516,0.0,2.6254935264587402,-1.2315678596496582,-0.0,2.1548659801483154,3.666989489192627,0.0,0.2612978219985962,-1.6180956999408167,0.0,0.017728695645928383,0.9293296337127686,-0.0,0.000504358671605587,0.6374577879905701,0.0,-0.01000253763049841
291.0,450.0,6.5414,-0.7208,6.4606,-0.0319,0.0197,-0.1127,-1.6864329777159632,0.0,2.6358494758605957,-1.2315559387207031,-0.0,2.0905070304870605,3.6669980722614746,0.0,0.26932692527770996,-1.6180995146380823,0.0,0.003668420482426882,0.9293859004974365,-0.0,-0.013181494548916817,0.6374375820159912,0.0,-0.011045264080166817
291.0,450.0,6.5414,-0.7208,6.4606,-0.0319,0.0197,-0.1127,-1.6864282093443812,0.0,2.6094095706939697,-1.2315678596496582,-0.0,2.1775975227355957,3.6669856744953613,0.0,0.27198904752731323,-1.6180995146380823,0.0,-0.006930124945938587,0.9293573498725891,-0.0,-0.0033236267045140266,0.6374014616012573,0.0,0.026557758450508118
291.0,450.0,6.5414,-0.7208,6.4606,-0.0319,0.0197,-0.1127,-1.6864162884154261,0.0,2.621375560760498,-1.2315477132797241,-0.0,2.1503357887268066,3.6670214372822265,0.0,0.2685641348361969,-1.618115250264303,0.0,-0.0023294109851121902,0.9294222593307495,-0.0,-0.005279889330267906,0.6374940872192383,0.0,0.003175713587552309
291.0,450.0,6.5414,-0.7208,6.4606,-0.0319,0.0197,-0.1127,-1.6864010296263636,0.0,2.6464195251464844,-1.2315958738327026,-0.0,2.1137073040008545,3.667006178493164,0.0,0.2580820918083191,-1.6180794874774378,0.0,0.00862524751573801,0.9293537139892578,-0.0,-0.004664857871830463,0.6374659538269043,0.0,0.06402329355478287
291.0,450.0,6.5414,-0.7208,6.4606,-0.0319,0.0197,-0.1127,-1.686437269250387,0.0,2.596919536590576,-1.2315802574157715,-0.0,2.103884220123291,3.6669813829609375,0.0,0.2610549330711365,-1.6180995146380823,0.0,-0.0001557432988192886,0.9294301271438599,-0.0,-0.022378811612725258,0.6374619007110596,0.0,0.003873078618198633
291.0,450.0,6.5414,-0.7208,6.4606,-0.0319,0.0197,-0.1127,-1.6863929233946742,0.0,2.6416690349578857,-1.2316040992736816,-0.0,2.167355537414551,3.6669937807270507,0.0,0.26979774236679077,-1.618115250264303,0.0,-0.006896695122122765,0.9293739795684814,-0.0,-0.007256611716002226,0.6374779939651489,0.0,-0.0005936520174145699
291.0,450.0,6.5414,-0.7208,6.4606,-0.0319,0.0197,-0.1127,-1.6863647900023402,0.0,2.639153003692627,-1.2315720319747925,-0.0,2.1402506828308105,3.66700188695874,0.0,0.25786033272743225,-1.6180914084063929,0.0,-0.0115060331299901,0.9293822646141052,-0.0,-0.004009885247796774,0.6374659538269043,0.0,0.007079542614519596
291.0,450.0,6.5414,-0.7208,6.4606,-0.0319,0.0197,-0.1127,-1.68642057994985,0.0,2.652397632598877,-1.2315926551818848,-0.0,2.155661106109619,3.6669856744953613,0.0,0.2715575098991394,-1.6181114355670374,0.0,0.0008458825177513063,0.9293615818023682,-0.0,-0.012423558160662651,0.6374981999397278,0.0,-0.005728496704250574
291.0,450.0,6.5414,-0.7208,6.4606,-0.0319,0.0197,-0.1127,-1.686404367486471,0.0,2.6309046745300293,-1.2315802574157715,-0.0,2.1488656997680664,3.6669813829609375,0.0,0.2715650200843811,-1.618115250264303,0.0,0.0032550585456192493,0.9293414354324341,-0.0,-0.0074850753881037235,0.6374659538269043,0.0,-0.01940436288714409
291.0,450.0,6.5414,-0.7208,6.4606,-0.0319,0.0197,-0.1127,-1.686380525628561,0.0,2.6423182487487793,-1.231588363647461,-0.0,2.164705276489258,3.6670381265827636,0.0,0.2718028128147125,-1.6180956999408167,0.0,0.0011159323621541262,0.9293496608734131,-0.0,-0.0183069109916687,0.6374619007110596,0.0,0.00933763012290001
291.0,450.0,6.5414,-0.7208,6.4606,-0.0319,0.0197,-0.1127,-1.6864162884154261,0.0,2.646146535873413,-1.231544017791748,-0.0,2.154508590698242,3.6669646936604003,0.0,0.27191975712776184,-1.618103329335348,0.0,-0.006841481197625399,0.9293859004974365,-0.0,-0.005149927455931902,0.6374779939651489,0.0,0.012329666875302792
286.0,438.0,6.4319,-0.7579,6.4828,-0.0383,0.0301,-0.113,-1.6863967380919398,0.0,2.6139919757843018,-1.2315917015075684,-0.0,2.1161327362060547,3.6670424181171875,0.0,0.26667433977127075,-1.6180914084063929,0.0,0.0016159818042069674,0.9293414354324341,-0.0,-0.006051260977983475,0.6375063061714172,0.0,-0.027967438101768494
286.0,438.0,6.4319,-0.7579,6.4828,-0.0383,0.0301,-0.113,-1.6863848171629847,0.0,2.6547458171844482,-1.2315999269485474,-0.0,2.1385881900787354,3.66700188695874,0.0,0.27837327122688293,-1.6180995146380823,0.0,-0.008475174196064472,0.9293296337127686,-0.0,-0.0062709227204322815,0.6374577879905701,0.0,-0.019797446206212044
286.0,438.0,6.4319,-0.7579,6.4828,-0.0383,0.0301,-0.113,-1.6864124737181605,0.0,2.6411709785461426,-1.2316163778305054,-0.0,2.114414930343628,3.6669937807270507,0.0,0.2618793249130249,-1.6180513540851038,0.0,-0.003608877770602703,0.9293177127838135,-0.0,-0.015578712336719036,0.6375061273574829,0.0,0.019842928275465965
286.0,438.0,6.4319,-0.7579,6.4828,-0.0383,0.0301,-0.113,-1.686404367486471,0.0,2.649559497833252,-1.2315638065338135,-0.0,2.168895721435547,3.6669937807270507,0.0,0.2641219198703766,-1.6180794874774378,0.0,0.003693957347422838,0.9293573498725891,-0.0,-0.014000935479998589,0.6374739408493042,0.0,-0.0020920848473906517
286.0,438.0,6.4319,-0.7579,6.4828,-0.0383,0.0301,-0.113,-1.6863843403258265,0.0,2.661166191101074,-1.2315678596496582,-0.0,2.13519287109375,3.6669532495686035,0.0,0.2613060176372528,-1.6181114355670374,0.0,0.001865361351519823,0.9293254017829895,-0.0,-0.007630250416696072,0.6374820470809937,0.0,0.06159280240535736
286.0,438.0,6.4319,-0.7579,6.4828,-0.0383,0.0301,-0.113,-1.6864649258055628,0.0,2.59853458404541,-1.2315596342086792,-0.0,2.1717329025268555,3.666961832637451,0.0,0.2819922864437103,-1.6180995146380823,0.0,0.009018365293741226,0.9293574094772339,-0.0,-0.009364748373627663,0.6374900341033936,0.0,0.007534530013799667
286.0,438.0,6.4319,-0.7579,6.4828,-0.0383,0.0301,-0.113,-1.6864329777159632,0.0,2.6370925903320312,-1.231535792350769,-0.0,2.117917537689209,3.6669770914265136,0.0,0.26601266860961914,-1.6181471983539026,0.0,-0.002021044259890914,0.9293095469474792,-0.0,-0.00987968873232603,0.6374779939651489,0.0,0.015240407548844814
286.0,438.0,6.4319,-0.7579,6.4828,-0.0383,0.0301,-0.113,-1.6864081821837367,0.0,2.627708673477173,-1.23159658908844,-0.0,2.144728422164917,3.666961832637451,0.0,0.26806801557540894,-1.618103329335348,0.0,-0.006786974146962166,0.9293336868286133,-0.0,-0.000393569003790617,0.6374416947364807,0.0,-0.003474264405667782
286.0,438.0,6.4319,-0.7579,6.4828,-0.0383,0.0301,-0.113,-1.6864124737181605,0.0,2.6081013679504395,-1.2315884828567505,-0.0,2.1261861324310303,3.666989489192627,0.0,0.2689904272556305,-1.6181076208697718,0.0,-0.010541090741753578,0.9293456077575684,-0.0,-0.0021806915756314993,0.6374940872192383,0.0,-0.008149581961333752
286.0,438.0,6.4319,-0.7579,6.4828,-0.0383,0.0301,-0.113,-1.6864010296263636,0.0,2.659236431121826,-1.2315080165863037,-0.0,2.128236770629883,3.666949434871338,0.0,0.2753564715385437,-1.6180718580829065,0.0,-0.0035292250104248524,0.9293537139892578,-0.0,0.004088619723916054,0.6375343799591064,0.0,0.05800524726510048
286.0,438.0,6.4319,-0.7579,6.4828,-0.0383,0.0301,-0.113,-1.686380525628561,0.0,2.6052932739257812,-1.231535792350769,-0.0,2.1425180435180664,3.6670185762592773,0.0,0.27391085028648376,-1.6180914084063929,0.0,0.0013905330561101437,0.9293981790542603,-0.0,-0.008550782687962055,0.6374779939651489,0.0,-0.03449006751179695
285.0,439.0,6.6592,-0.6287,6.3924,-0.0383,0.036,-0.1185,-1.6864248714842738,0.0,2.606748580932617,-1.231595754623413,-0.0,2.1081960201263428,3.6669742304035644,0.0,0.2677077054977417,-1.618063751851217,0.0,0.006806625984609127,0.9293414354324341,-0.0,-0.016770392656326294,0.6374859809875488,0.0,0.029611947014927864
285.0,439.0,6.6592,-0.6287,6.3924,-0.0383,0.036,-0.1185,-1.686376234094137,0.0,2.6630468368530273,-1.2316526174545288,-0.0,2.1999411582946777,3.6670142847248535,0.0,0.26588577032089233,-1.6180675665484827,0.0,-0.0001894023735076189,0.9293736815452576,-0.0,0.004075999837368727,0.6374416947364807,0.0,-0.03807016462087631
285.0,439.0,6.6592,-0.6287,6.3924,-0.0383,0.036,-0.1185,-1.6864010296263636,0.0,2.6325573921203613,-1.2315555810928345,-0.0,2.1296911239624023,3.667034311885498,0.0,0.2699005901813507,-1.618115250264303,0.0,-0.002634267322719097,0.9293334484100342,-0.0,0.008204842917621136,0.6374940872192383,0.0,0.011008094996213913
285.0,439.0,6.6592,-0.6287,6.3924,-0.0383,0.036,-0.1185,-1.6864448986449183,0.0,2.6616742610931396,-1.2315802574157715,-0.0,2.1395554542541504,3.6670381265827636,0.0,0.27777090668678284,-1.618115250264303,0.0,0.00021284195827320218,0.9293496608734131,-0.0,-0.006545949261635542,0.6374739408493042,0.0,0.02219700627028942
285.0,439.0,6.6592,-0.6287,6.3924,-0.0383,0.036,-0.1185,-1.6863886318602503,0.0,2.6681671142578125,-1.2315517663955688,-0.0,2.140007972717285,3.66700188695874,0.0,0.2725157141685486,-1.6180875937091272,0.0,-0.004899901337921619,0.9293414354324341,-0.0,-0.009460209868848324,0.6374900341033936,0.0,0.044763293117284775
285.0,439.0,6.6592,-0.6287,6.3924,-0.0383,0.036,-0.1185,-1.6864291630186976,0.0,2.667668342590332,-1.2315514087677002,-0.0,2.1440157890319824,3.6670219141193847,0.0,0.26628443598747253,-1.6180914084063929,0.0,0.009442707523703575,0.9293493032455444,-0.0,-0.006966808810830116,0.6374739408493042,0.0,0.067825548350811
285.0,439.0,6.6592,-0.6287,6.3924,-0.0383,0.036,-0.1185,-1.686437269250387,0.0,2.6474571228027344,-1.2315802574157715,-0.0,2.1387815475463867,3.667010470027588,0.0,0.2706718146800995,-1.6180794874774378,0.0,-0.004216413479298353,0.9293822050094604,-0.0,0.009754931554198265,0.6374900341033936,0.0,-0.0068812984973192215
285.0,439.0,6.6592,-0.6287,6.3924,-0.0383,0.036,-0.1185,-1.686404367486471,0.0,2.6470961570739746,-1.2315884828567505,-0.0,2.1807146072387695,3.6669575411030273,0.0,0.27191975712776184,-1.6181114355670374,0.0,0.008962957188487053,0.9293456077575684,-0.0,-0.002690439810976386,0.6374779939651489,0.0,-0.014289943501353264
285.0,439.0,6.6592,-0.6287,6.3924,-0.0383,0.036,-0.1185,-1.6863929233946742,0.0,2.6336231231689453,-1.2315399646759033,-0.0,2.1157898902893066,3.667010470027588,0.0,0.2594200074672699,-1.6180837790118616,0.0,-0.0016499371267855167,0.9293898940086365,-0.0,-0.02151741273701191,0.6374900341033936,0.0,-0.016663838177919388
285.0,439.0,6.6592,-0.6287,6.3924,-0.0383,0.036,-0.1185,-1.6863967380919398,0.0,2.659590005874634,-1.2315599918365479,-0.0,2.11361026763916,3.66700188695874,0.0,0.2609863877296448,-1.6181076208697718,0.0,-0.00038860004860907793,0.9293215274810791,-0.0,-0.007357998751103878,0.6375102400779724,0.0,0.01812783069908619
285.0,439.0,6.6592,-0.6287,6.3924,-0.0383,0.036,-0.1185,-1.6864611111082972,0.0,2.5969958305358887,-1.2315316200256348,-0.0,2.1230688095092773,3.667046232814453,0.0,0.26404356956481934,-1.6180995146380823,0.0,0.00016962666995823383,0.9293861985206604,-0.0,-0.007056030444800854,0.6375101804733276,-2.4549104069016003e-12,-0.003943197429180145
285.0,439.0,6.6592,-0.6287,6.3924,-0.0383,0.036,-0.1185,-1.6864530048766078,0.0,2.636807441711426,-1.231512188911438,-0.0,2.1174230575561523,3.666977568263672,0.0,0.27221980690956116,-1.6181157271014612,0.0,0.010512029752135277,0.9292978644371033,-0.0,-0.010932841338217258,0.6375139951705933,-5.928319491335375e-18,0.0013010287657380104
290.0,417.0,6.7651,-0.8171,6.4582,0.0079,-0.025,-0.1208,-1.686509748498434,2.3647128699622044e-10,2.6118581295013428,-1.2315517663955688,1.2712026986605451e-09,2.157254219055176,3.6669770914265136,0.0,0.27141743898391724,-1.6180837790118616,0.0,-0.01055394858121872,0.9293899536132812,-0.0,-0.008657636120915413,0.6375260353088379,-1.920699919845137e-25,-0.0905349925160408
290.0,417.0,6.7651,-0.8171,6.4582,0.0079,-0.025,-0.1208,-1.6864649258055628,-0.0010126068955287337,2.6204466819763184,-1.2315477132797241,4.118534916879485e-17,2.1502652168273926,3.6670500475117187,0.0,0.2602372467517853,-1.6181076208697718,0.0,0.002860164502635598,0.9293696284294128,-0.0,-0.017042377963662148,0.6376102566719055,0.0014912831829860806,0.017292682081460953
290.0,417.0,6.7651,-0.8171,6.4582,0.0079,-0.025,-0.1208,-1.6864682636656703,-0.001649263664148748,2.626065731048584,-1.2315514087677002,1.3343530935854575e-24,2.183490753173828,3.667058153743408,0.0,0.27990439534187317,-1.6180995146380823,0.0,-0.007509958930313587,0.9293414950370789,-0.0,-0.01924593187868595,0.6375859975814819,0.002370275789871812,-0.013642938807606697
290.0,417.0,6.7651,-0.8171,6.4582,0.0079,-0.025,-0.1208,-1.6865250072874964,-0.0012432944495230913,2.63889217376709,-1.231620192527771,4.32313438192874e-32,2.1167964935302734,3.667010470027588,0.0,0.27501046657562256,-1.618131462727682,0.0,-0.002006388967856765,0.9293416738510132,-0.0,-0.008480248972773552,0.6376137137413025,0.0033959192223846912,-0.018841754645109177
290.0,417.0,6.7651,-0.8171,6.4582,0.0079,-0.025,-0.1208,-1.6865126095213832,-0.0008171214140020311,2.6338748931884766,-1.2315884828567505,1.4006412553450487e-39,2.147329807281494,3.667030020351074,0.0,0.26884031295776367,-1.6180956999408167,0.0,-0.012092544697225094,0.929337739944458,-0.0,0.0004233825020492077,0.6376700401306152,0.004074804484844208,0.054575301706790924
290.0,417.0,6.7651,-0.8171,6.4582,0.0079,-0.025,-0.1208,-1.6864801845946253,-0.000703951925970614,2.6246092319488525,-1.2315399646759033,0.0,2.130800485610962,3.6669532495686035,0.0,0.2610025107860565,-1.6180995146380823,0.0,0.0043390789069235325,0.9293496608734131,-0.0,-0.0182826966047287,0.6376742720603943,0.003102892776951194,-0.0072053768672049046
290.0,417.0,6.7651,-0.8171,6.4582,0.0079,-0.025,-0.1208,-1.686540266076559,-0.001630932791158557,2.6166763305664062,-1.2315917015075684,-0.0,2.1396422386169434,3.6670257288166503,0.0,0.2695116400718689,-1.618115250264303,0.0,-0.0038857320323586464,0.9293456673622131,-0.0,-0.01625996083021164,0.6376740336418152,0.0018571451073512435,-0.02904941886663437
290.0,417.0,6.7651,-0.8171,6.4582,0.0079,-0.025,-0.1208,-1.6865760288634242,-0.003715517232194543,2.6181020736694336,-1.231595754623413,-0.0,2.1150388717651367,3.6669575411030273,0.0,0.26755204796791077,-1.618115250264303,0.0,-0.007793748285621405,0.9293414354324341,-0.0,-0.002039241138845682,0.6376900672912598,0.0010074645979329944,-0.006071143783628941
290.0,417.0,6.7651,-0.8171,6.4582,0.0079,-0.025,-0.1208,-1.6866971455016078,-0.006929662078619003,2.6233201026916504,-1.2315917015075684,-0.0,2.124154567718506,3.6670257288166503,0.0,0.2554641366004944,-1.6180995146380823,0.0,5.032261833548546e-05,0.9293099045753479,-0.0,-0.0003320523537695408,0.6377265453338623,0.0006358504761010408,0.015487486496567726
290.0,417.0,6.7651,-0.8171,6.4582,0.0079,-0.025,-0.1208,-1.686716695825094,-0.006961118429899216,2.6732544898986816,-1.23162841796875,-0.0,2.1182918548583984,3.6669575411030273,0.0,0.2702198028564453,-1.618131462727682,0.0,-0.0011195410043001175,0.9293940663337708,-0.0,-0.010012033395469189,0.6376700401306152,0.00043219164945185184,-0.012637191452085972
290.0,417.0,6.7651,-0.8171,6.4582,0.0079,-0.025,-0.1208,-1.6868282757201136,-0.007863574661314487,2.622303009033203,-1.2315917015075684,-0.0,2.13698410987854,3.6669856744953613,1.2637484114730313e-10,0.2702171504497528,-1.6180837790118616,0.0,-0.004240407608449459,0.929321825504303,-0.0,-0.004425921943038702,0.6376700401306152,0.00032736407592892647,0.007149304263293743
286.0,451.0,6.3709,-0.9595,6.6114,-0.0258,0.0292,-0.1127,-1.6868483028807582,-0.01064694207161665,2.6035103797912598,-1.2315999269485474,-0.0,2.107802391052246,3.667010470027588,2.2968001402146575e-15,0.2683040201663971,-1.6180914084063929,0.0,0.002863954519852996,0.9293296933174133,-0.0,-0.006270489189773798,0.6377061605453491,0.0002634674892760813,0.018069671466946602
286.0,451.0,6.3709,-0.9595,6.6114,-0.0258,0.0292,-0.1127,-1.6870080433287562,-0.011443759314715862,2.6010773181915283,-1.2315999269485474,-0.0,2.1431808471679688,3.6670142847248535,4.174320755456825e-20,0.27004989981651306,-1.6181076208697718,0.0,0.007593833841383457,0.9293577075004578,-0.0,-0.007561562582850456,0.637686014175415,0.0002571216318756342,-0.009460198692977428
286.0,451.0,6.3709,-0.9595,6.6114,-0.0258,0.0292,-0.1127,-1.6870600185790003,-0.010667169466614723,2.6140475273132324,-1.2316930294036865,-0.0,2.097684383392334,3.667013331050537,7.586621264777936e-25,0.2649393379688263,-1.6180995146380823,0.0,-0.0018435288220643997,0.9293781518936157,-0.0,-0.0029163965955376625,0.6376980543136597,0.00021378103701863438,0.028893224895000458
286.0,451.0,6.3709,-0.9595,6.6114,-0.0258,0.0292,-0.1127,-1.6871596775450648,-0.009154565632343292,2.614647388458252,-1.2316040992736816,-0.0,2.1397581100463867,3.6670381265827636,4.630258263205178e-05,0.2605230510234833,-1.6180956999408167,0.0,0.008383448235690594,0.9294260144233704,-0.0,-0.009923582896590233,0.6376898884773254,0.0018631306011229753,0.007534140720963478
286.0,451.0,6.3709,-0.9595,6.6114,-0.0258,0.0292,-0.1127,-1.6871959171690882,-0.00826265662908554,2.6090338230133057,-1.2315834760665894,-0.0,2.115480899810791,3.667085810298584,0.00011569464550120756,0.2647087275981903,-1.6180875937091272,0.0,0.003225127700716257,0.929333508014679,-0.0,-0.0007440473418682814,0.6377416253089905,0.0029149302281439304,0.025596600025892258
286.0,451.0,6.3709,-0.9595,6.6114,-0.0258,0.0292,-0.1127,-1.6873160801329554,-0.00854889489710331,2.6019668579101562,-1.231611967086792,-0.0,2.144667148590088,3.667034311885498,0.00016895169392228127,0.28138649463653564,-1.618127171193258,0.0,0.005095767788589001,0.9293574094772339,-0.0,-0.003238120349124074,0.6378104090690613,0.003465506015345454,0.024808265268802643
286.0,451.0,6.3709,-0.9595,6.6114,-0.0258,0.0292,-0.1127,-1.6874000034727992,-0.00924010667949915,2.635891914367676,-1.2316361665725708,-0.0,2.133118152618408,3.6670819956013183,0.0004436438612174243,0.25607913732528687,-1.618131462727682,0.0,0.0014449090231209993,0.9293695688247681,-0.0,-0.013037603348493576,0.6377981901168823,0.0038055051118135452,0.03341320902109146
286.0,451.0,6.3709,-0.9595,6.6114,-0.0258,0.0292,-0.1127,-1.6874638996519984,-0.010731291025876999,2.6104013919830322,-1.2315999269485474,-0.0,2.1548895835876465,3.667130632991455,0.0004085495602339506,0.26662498712539673,-1.6180914084063929,0.0,0.005870135501027107,0.9294258952140808,-0.0,0.00038488185964524746,0.6378381252288818,0.0037161519285291433,0.03281271085143089
286.0,451.0,6.3709,-0.9595,6.6114,-0.0258,0.0292,-0.1127,-1.6875516376891078,-0.012119297869503498,2.597409248352051,-1.2315958738327026,-0.0,2.123448610305786,3.6670901018330078,0.0003294506168458611,0.2715698480606079,-1.618115250264303,0.0,-0.002144902478903532,0.9293781518936157,-0.0,0.0007514196331612766,0.6378539800643921,0.003265283303335309,-0.017368914559483528
286.0,451.0,6.3709,-0.9595,6.6114,-0.0258,0.0292,-0.1127,-1.6876713238158167,-0.014411418698728085,2.595540761947632,-1.231620192527771,-4.1857951146084815e-05,2.121377468109131,3.6670734125324707,0.00031135414610616863,0.269133985042572,-1.6181233564959925,0.0,0.01405320968478918,0.9293819069862366,-0.0,-0.004138295538723469,0.6379022598266602,0.002934603951871395,0.026539333164691925
286.0,451.0,6.3709,-0.9595,6.6114,-0.0258,0.0292,-0.1127,-1.687847753564352,-0.01813248172402382,2.6093649864196777,-1.2316242456436157,-3.828295666608028e-05,2.1165430545806885,3.6670572000690917,0.000265440990915522,0.27364957332611084,-1.6180995146380823,0.0,0.013626666739583015,0.9293980598449707,-0.0,-0.007592679467052221,0.6379303336143494,0.0030930873472243547,0.006885293871164322
286.0,451.0,6.3709,-0.9595,6.6114,-0.0258,0.0292,-0.1127,-1.687935014764303,-0.02219686098396778,2.600940704345703,-1.2316163778305054,-3.528149682097137e-05,2.1169254779815674,3.66705767690625,0.0002313240838702768,0.2725280225276947,-1.6181076208697718,0.0,0.004061766900122166,0.9293135404586792,-0.0,-0.0176488496363163,0.6379624009132385,0.0034646079875528812,-0.03768456354737282
279.0,414.0,5.9689,-0.6491,6.3948,-0.0258,0.014,-0.1225,-1.6881991825499476,-0.02907242812216282,2.5991485118865967,-1.2315917015075684,-3.271643436164595e-05,2.1895101070404053,3.667102499599121,0.0002049790637101978,0.271724134683609,-1.6181076208697718,0.0,-7.230381015688181e-05,0.9294217824935913,-0.0,-0.016379909589886665,0.6380025148391724,0.004541262984275818,-0.0016955784521996975
279.0,414.0,5.9689,-0.6491,6.3948,-0.0258,0.014,-0.1225,-1.6883307896056117,-0.03265015035867691,2.597048759460449,-1.2316081523895264,-1.5724150216556154e-05,2.159165382385254,3.667098208064697,0.00018884887685999274,0.2775048017501831,-1.618131462727682,0.0,0.006970721296966076,0.9293978214263916,-0.0,-0.02588159590959549,0.6379781365394592,0.005618326831609011,0.023507647216320038
279.0,414.0,5.9689,-0.6491,6.3948,-0.0258,0.014,-0.1225,-1.688690801660055,-0.038544684648513794,2.5924017429351807,-1.2316205501556396,-1.9788626559602562e-07,2.118898868560791,3.667126341457031,0.00013367729843594134,0.2719079554080963,-1.618155304585592,0.0,0.01287135761231184,0.9293940663337708,-0.0,-0.008009903132915497,0.638119101524353,0.00764593156054616,-0.008284260518848896
279.0,414.0,5.9689,-0.6491,6.3948,-0.0258,0.014,-0.1225,-1.6890188656248988,-0.044038619846105576,2.5846314430236816,-1.2315917015075684,-6.411263528535369e-15,2.125786066055298,3.6670901018330078,0.00013714897795580328,0.27042990922927856,-1.6181076208697718,0.0,0.012136027216911316,0.9293819069862366,-0.0,-0.0030404983554035425,0.6382033228874207,0.01056231465190649,0.009977255016565323
279.0,414.0,5.9689,-0.6491,6.3948,-0.0258,0.014,-0.1225,-1.6894103489317835,-0.05152587592601776,2.5445311069488525,-1.2315436601638794,-2.0771679511104473e-22,2.1316542625427246,3.667102022761963,0.0001483322848798707,0.27344274520874023,-1.6181195417987269,0.0,0.006807208992540836,0.9293940663337708,-8.287572086373984e-07,-0.002996531082317233,0.6383283734321594,0.013861255720257759,-0.0042014578357338905
279.0,414.0,5.9689,-0.6491,6.3948,-0.0258,0.014,-0.1225,-1.6897932491698207,-0.059151679277420044,2.5561609268188477,-1.231535792350769,-6.72975894907909e-30,2.135634183883667,3.667142077083252,0.00015746548888273537,0.27409809827804565,-1.6180914084063929,0.0,0.00890399795025587,0.9294177293777466,-1.506225352776447e-11,-0.0007852660492062569,0.638410747051239,0.017476879060268402,0.04970566928386688
279.0,414.0,5.9689,-0.6491,6.3948,-0.0258,0.014,-0.1225,-1.690341135064596,-0.07003498822450638,2.4916868209838867,-1.2315760850906372,-2.180356287071688e-37,2.079314947128296,3.6670901018330078,0.00014494414790533483,0.282787024974823,-1.6181114355670374,0.0,0.012823270633816719,0.9293534159660339,-2.737489783330915e-16,0.006102498155087233,0.638534665107727,0.0201476588845253,0.07778904587030411
279.0,414.0,5.9689,-0.6491,6.3948,-0.0258,0.014,-0.1225,-1.6908918819823207,-0.07835595309734344,2.500399351119995,-1.2315678596496582,-7.006492321624085e-45,2.1243441104888916,3.6671015459248046,0.0002008886367548257,0.2824310064315796,-1.6180914084063929,0.0,-0.0031402395106852055,0.9293819069862366,-4.975252277610645e-21,-0.008047652430832386,0.6387713551521301,0.023616379126906395,0.050952523946762085
279.0,414.0,5.9689,-0.6491,6.3948,-0.0258,0.014,-0.1225,-1.6916195354857386,-0.08918366581201553,2.5323688983917236,-1.231528639793396,-0.0,2.079981565475464,3.6671339708515625,0.00020453581237234175,0.27083420753479004,-1.618103329335348,0.0,0.013642898760735989,0.9294058084487915,-9.042273752669929e-26,-0.008054775185883045,0.6389189958572388,0.027453625574707985,0.10186292231082916
279.0,414.0,5.9689,-0.6491,6.3948,-0.0258,0.014,-0.1225,-1.6921478710570277,-0.08913848549127579,2.539297103881836,-1.2314960956573486,-0.0,2.145516872406006,3.667170687312744,0.00021424240549094975,0.27670249342918396,-1.6181076208697718,0.0,0.020256096497178078,0.929354190826416,-2.5169501474608996e-29,-0.013785731047391891,0.6390995979309082,0.030637377873063087,0.1059567779302597
279.0,414.0,5.9689,-0.6491,6.3948,-0.0258,0.014,-0.1225,-1.6928745708861292,-0.08471641689538956,2.520848274230957,-1.2316361665725708,-0.0,2.0917813777923584,3.667130156154297,0.00018861473654396832,0.2762812674045563,-1.6181195417987269,0.0,0.01203995756804943,0.9294018149375916,-4.574433051982566e-34,-0.0016324212774634361,0.6394085884094238,0.037255581468343735,0.11652281880378723
279.0,414.0,5.9689,-0.6491,6.3948,-0.0258,0.014,-0.1225,-1.6937061748900355,-0.08845806866884232,2.523092031478882,-1.2316081523895264,1.6448478845632053e-07,2.101317882537842,3.6671058374592285,0.00010263107105856761,0.2834828197956085,-1.6181591192828577,0.0,0.0025164636317640543,0.9294139742851257,-8.313807099245101e-39,-0.01972675696015358,0.6396999955177307,0.045936278998851776,0.15513189136981964
280.0,500.0,6.3087,-1.4231,5.4802,0.0049,-0.0702,-0.0669,-1.6944529018797816,-0.10225663334131241,2.486976385116577,-1.2316319942474365,-0.0012157898163422942,2.0911824703216553,3.6670777040668945,8.051843178691342e-05,0.2650028467178345,-1.6181233564959925,0.0,0.0011883936822414398,0.9294449687004089,-1.5134023414708024e-43,-0.009105737321078777,0.6401485204696655,0.053214479237794876,0.1834557056427002
280.0,500.0,6.3087,-1.4231,5.4802,0.0049,-0.0702,-0.0669,-1.6953002415099085,-0.1261637657880783,2.392104387283325,-1.2315802574157715,-0.000606302754022181,2.0523455142974854,3.6670490938374023,3.4148550184909254e-05,0.26640334725379944,-1.618115250264303,0.0,-0.004112981725484133,0.9293819069862366,-0.0,-0.005301699973642826,0.6406373381614685,0.05934971198439598,0.21819783747196198
280.0,500.0,6.3087,-1.4231,5.4802,0.0049,-0.0702,-0.0669,-1.6963473759093226,-0.1407114565372467,2.4294519424438477,-1.2316040992736816,0.0003670091100502759,2.0560755729675293,3.667113943690918,5.87749200349208e-05,0.2699633538722992,-1.618131462727682,0.0,-0.00420483248308301,0.929405927658081,-0.0,0.0005354194436222315,0.6410694718360901,0.0675484910607338,0.21415594220161438
280.0,500.0,6.3087,-1.4231,5.4802,0.0049,-0.0702,-0.0669,-1.697430273095602,-0.1381072849035263,2.398310661315918,-1.2315245866775513,0.0024048087652772665,2.0973763465881348,3.667186422938965,0.00010388099326519296,0.27250993251800537,-1.6180956999408167,0.0,-0.010815786197781563,0.9294289946556091,-0.0,-0.007478244602680206,0.6416823267936707,0.07638192176818848,0.23014649748802185
280.0,500.0,6.3087,-1.4231,5.4802,0.0049,-0.0702,-0.0669,-1.6984645328917445,-0.12916098535060883,2.469719409942627,-1.2315521240234375,0.0015458674170076847,2.054957866668701,3.667194052333496,0.0012077887076884508,0.2803484797477722,-1.618127171193258,0.0,0.0035307742655277252,0.9294018149375916,-0.0,-0.0055827852338552475,0.6423560976982117,0.08992703258991241,0.24062876403331757
280.0,500.0,6.3087,-1.4231,5.4802,0.0049,-0.0702,-0.0669,-1.6996437511839808,-0.13391843438148499,2.4463019371032715,-1.2315559387207031,8.490918048664753e-07,2.1020078659057617,3.6671573358723144,0.0006209787679836154,0.2779678702354431,-1.618155304585592,0.0,0.008824324235320091,0.9294217228889465,-0.0,-0.005177421495318413,0.6431288123130798,0.09863143414258957,0.2169182002544403
280.0,500.0,6.3087,-1.4231,5.4802,0.0049,-0.0702,-0.0669,-1.700554986993307,-0.14630882441997528,2.4734725952148438,-1.2315876483917236,-0.002085329033434391,2.0821692943573,3.6671501833149414,0.0001226913882419467,0.28144022822380066,-1.6181352774249476,0.0,-0.00036910572089254856,0.9294528961181641,-0.0,-0.006176960654556751,0.6437080502510071,0.09921419620513916,0.32347509264945984
280.0,500.0,6.3087,-1.4231,5.4802,0.0049,-0.0702,-0.0669,-1.701733728448385,-0.16677996516227722,2.427436351776123,-1.2315843105316162,-0.0013376462738960981,2.0938234329223633,3.6671740251728515,5.525595497601898e-06,0.2714537978172302,-1.618131462727682,0.0,0.006478030700236559,0.9293534159660339,-0.0,-0.014351128600537777,0.6445126533508301,0.10140416026115417,0.28693854808807373
280.0,500.0,6.3087,-1.4231,5.4802,0.0049,-0.0702,-0.0669,-1.7030960522093714,-0.17541469633579254,2.401289701461792,-1.2315161228179932,0.0006314743077382445,2.078049421310425,3.6671334940144042,1.004249808311819e-10,0.2714706361293793,-1.618127171193258,0.0,0.0068308510817587376,0.9293659925460815,-0.0,-0.008444604463875294,0.6452978849411011,0.10327617824077606,0.28807318210601807
280.0,500.0,6.3087,-1.4231,5.4802,0.0049,-0.0702,-0.0669,-1.704419275323385,-0.16954343020915985,2.4485247135162354,-1.2315120697021484,0.0023719954770058393,2.0667943954467773,3.6671978670307617,1.825174524524068e-15,0.27195417881011963,-1.6181233564959925,0.0,0.006920972373336554,0.9293819069862366,-0.0,-0.008669697679579258,0.6461825966835022,0.10055544227361679,0.25300055742263794
280.0,500.0,6.3087,-1.4231,5.4802,0.0049,-0.0702,-0.0669,-1.7057415447630824,-0.16361157596111298,2.4837207794189453,-1.2315161228179932,0.0016173183685168624,2.0846004486083984,3.6671692568012695,0.0015857074176892638,0.2897787094116211,-1.6181233564959925,0.0,-0.004830397665500641,0.9294219613075256,-0.0,-0.012527460232377052,0.6469560265541077,0.10853086411952972,0.25817251205444336
293.0,476.0,8.4867,-2.4078,5.7165,0.058,-0.1926,0.0066,-1.7070237598814906,-0.16235332190990448,2.497798442840576,-1.231544017791748,0.00035065546398982406,2.1106059551239014,3.6672584253498535,0.0031254119239747524,0.28468284010887146,-1.6181233564959925,0.0,-0.0003804215230047703,0.9293699860572815,-0.0,-0.008864914998412132,0.6478878259658813,0.12320344150066376,0.30598539113998413
293.0,476.0,8.4867,-2.4078,5.7165,0.058,-0.1926,0.0066,-1.7083426914610804,-0.1594078540802002,2.505857467651367,-1.23149573802948,9.134617721429095e-05,2.156033992767334,3.6672746378132324,0.007861041463911533,0.29918813705444336,-1.6180875937091272,0.0,-0.0038241203874349594,0.9293898940086365,-0.0,-0.0005210955860093236,0.6488285660743713,0.13037577271461487,0.28422126173973083
293.0,476.0,8.4867,-2.4078,5.7165,0.058,-0.1926,0.0066,-1.7096134624876917,-0.16284580528736115,2.618155002593994,-1.2315244674682617,1.0950162021572396e-07,2.105123519897461,3.667313738460205,0.014521068893373013,0.29629337787628174,-1.6180914084063929,0.0,0.015865560621023178,0.9294298887252808,-0.0,-0.0009655430912971497,0.649954080581665,0.1287606656551361,0.2783867120742798
293.0,476.0,8.4867,-2.4078,5.7165,0.058,-0.1926,0.0066,-1.7105399570860804,-0.17167171835899353,2.5620765686035156,-1.231544017791748,2.6443354884247983e-13,2.1804239749908447,3.6674343782612304,0.012187556363642216,0.299195796251297,-1.6180675665484827,0.0,0.0038615879602730274,0.929378092288971,-0.0,-0.019071200862526894,0.6506221890449524,0.12005411088466644,0.2089616060256958
293.0,476.0,8.4867,-2.4078,5.7165,0.058,-0.1926,0.0066,-1.711886545220846,-0.167944997549057,2.592319965362549,-1.231492280960083,8.56730993701631e-21,2.1820993423461914,3.66752211629834,0.007756800856441259,0.29815247654914856,-1.6180914084063929,0.0,0.004054606892168522,0.929394006729126,-0.0,-0.00370638445019722,0.6515589356422424,0.11275457590818405,0.2039312720298767
293.0,476.0,8.4867,-2.4078,5.7165,0.058,-0.1926,0.0066,-1.713224550286764,-0.15185867249965668,2.6254138946533203,-1.2314363718032837,0.005901668220758438,2.16632342338562,3.667682333583496,0.007382068783044815,0.31191375851631165,-1.6180914084063929,0.0,0.01385855209082365,0.9293496608734131,-0.0,-0.018081996589899063,0.6524719595909119,0.11625950038433075,0.17061039805412292
293.0,476.0,8.4867,-2.4078,5.7165,0.058,-0.1926,0.0066,-1.7143689594664515,-0.1393621563911438,2.6777424812316895,-1.2314000129699707,0.01006140187382698,2.2838869094848633,3.6676947313496093,0.008835230953991413,0.3239997625350952,-1.6180914084063929,0.0,0.00886710174381733,0.9293615818023682,-0.0,-0.004169398918747902,0.6534727811813354,0.12451393157243729,0.22186055779457092
293.0,476.0,8.4867,-2.4078,5.7165,0.058,-0.1926,0.0066,-1.7155219517149867,-0.14453792572021484,2.7635111808776855,-1.2314050197601318,0.005718461237847805,2.2397146224975586,3.6677424150654296,0.008850710466504097,0.3364664912223816,-1.6180756727801722,0.0,-0.0033052880316972733,0.929394006729126,-0.0,0.015197396278381348,0.6544932126998901,0.1352142095565796,0.22520095109939575
293.0,476.0,8.4867,-2.4078,5.7165,0.058,-0.1926,0.0066,-1.7168203792967738,-0.16117213666439056,2.7459423542022705,-1.2312923669815063,0.0017241121968254447,2.318917989730835,3.6677986818500976,0.008686242625117302,0.33761900663375854,-1.6180837790118616,0.0,0.010372537188231945,0.9293860793113708,-0.0,-0.0017933504423126578,0.6555543541908264,0.1413256824016571,0.257798969745636
293.0,476.0,8.4867,-2.4078,5.7165,0.058,-0.1926,0.0066,-1.718057771722311,-0.15485914051532745,2.7787845134735107,-1.2312848567962646,0.0010491223074495792,2.2725272178649902,3.667914553279541,0.008234456181526184,0.3431849181652069,-1.618103329335348,0.0,0.0024635358713567257,0.9293415546417236,-0.0,0.005199922248721123,0.6566594243049622,0.12849470973014832,0.25626900792121887
293.0,476.0,8.4867,-2.4078,5.7165,0.058,-0.1926,0.0066,-1.7192751369872035,-0.13148845732212067,2.802523374557495,-1.231300950050354,0.005613237153738737,2.287799119949341,3.6679550844379882,0.011547996662557125,0.35161861777305603,-1.618115250264303,0.0,-0.00063328817486763,0.929429829120636,-0.0,-0.016350556164979935,0.6577743887901306,0.12921181321144104,0.2524035573005676
293.0,476.0,8.4867,-2.4078,5.7165,0.058,-0.1926,0.0066,-1.7203928432860316,-0.12958519160747528,2.8265790939331055,-1.2312248945236206,0.003146312665194273,2.3591606616973877,3.668099566096924,0.013816749677062035,0.35333526134490967,-1.618127171193258,0.0,-0.00614624610170722,0.9293375611305237,-0.0,-0.007870510220527649,0.6588658094406128,0.14165295660495758,0.26048702001571655
323.0,545.0,7.6684,-0.9805,5.0758,0.0217,-0.1116,0.004,-1.7211934528746546,-0.14084884524345398,2.872105121612549,-1.231261134147644,9.776269143912941e-05,2.303399085998535,3.6680990892597656,0.014727449975907803,0.3598862886428833,-1.618103329335348,0.0,0.008627464063465595,0.929321825504303,-0.0,-0.011205357499420643,0.6597482562065125,0.15061648190021515,0.2733834981918335
323.0,545.0,7.6684,-0.9805,5.0758,0.0217,-0.1116,0.004,-1.7223507366576136,-0.1531246453523636,2.8475775718688965,-1.2312648296356201,3.1673864919756767e-12,2.3262178897857666,3.668162985438965,0.012711303308606148,0.3633579909801483,-1.6180995146380823,0.0,0.002451756037771702,0.9293940663337708,-0.0,0.010138075798749924,0.6609249711036682,0.16014695167541504,0.2655183970928192
323.0,545.0,7.6684,-0.9805,5.0758,0.0217,-0.1116,0.004,-1.7235328159727992,-0.1495305448770523,2.7993392944335938,-1.2312371730804443,0.002079395344480872,2.324526309967041,3.6683074670979003,0.012182457372546196,0.3571781814098358,-1.618115250264303,0.0,0.022056836634874344,0.9294179081916809,-0.0,-0.006366320885717869,0.662117600440979,0.1521044373512268,0.2971934676170349
323.0,545.0,7.6684,-0.9805,5.0758,0.0217,-0.1116,0.004,-1.724621435204977,-0.12419096380472183,2.8181867599487305,-1.2311886548995972,0.00447364104911685,2.341855525970459,3.668459578151367,0.021645961329340935,0.3423108458518982,-1.6180995146380823,0.0,0.009283764287829399,0.9293216466903687,-0.0,-0.007841046899557114,0.6634367108345032,0.14403723180294037,0.261085569858551
323.0,545.0,7.6684,-0.9805,5.0758,0.0217,-0.1116,0.004,-1.7256628475584925,-0.11397416889667511,2.845881700515747,-1.2312166690826416,0.0011524471919983625,2.3454742431640625,3.668680353755615,0.03706794232130051,0.34837764501571655,-1.6180756727801722,0.0,0.005516587756574154,0.9293695688247681,-0.0,-0.002638623584061861,0.6645681262016296,0.1413782238960266,0.20285949110984802
323.0,545.0,7.6684,-0.9805,5.0758,0.0217,-0.1116,0.004,-1.726635595361227,-0.12918196618556976,2.8485851287841797,-1.2313491106033325,-0.0055183907970786095,2.3447210788726807,3.669032259578369,0.060327474027872086,0.3431946039199829,-1.6181076208697718,0.0,0.011037462390959263,0.9293337464332581,-0.0,-0.011410496197640896,0.665765106678009,0.14749903976917267,0.23497861623764038
323.0,545.0,7.6684,-0.9805,5.0758,0.0217,-0.1116,0.004,-1.7277256451048792,-0.14714419841766357,2.7649035453796387,-1.2313088178634644,-0.002824024297297001,2.2921981811523438,3.6696173387714843,0.08600007742643356,0.37677258253097534,-1.618103329335348,0.0,0.011750118806958199,0.9293980002403259,-0.0,-0.0038492020685225725,0.6669498085975647,0.15313799679279327,0.20590752363204956
323.0,545.0,7.6684,-0.9805,5.0758,0.0217,-0.1116,0.004,-1.7287661037840785,-0.14386701583862305,2.766083240509033,-1.2312002182006836,0.004804176744073629,2.3021204471588135,3.6703459459492187,0.09185080975294113,0.36740046739578247,-1.618103329335348,0.0,0.025423511862754822,0.9292938113212585,-0.0,-0.017186783254146576,0.6681796312332153,0.1539839804172516,0.2216867208480835
323.0,545.0,7.6684,-0.9805,5.0758,0.0217,-0.1116,0.004,-1.729567667047018,-0.12866921722888947,2.7608866691589355,-1.2312175035476685,0.006449191831052303,2.3439583778381348,3.6709467607685546,0.0899631455540657,0.3684971332550049,-1.6180995146380823,0.0,0.015569789335131645,0.9293735027313232,-0.0,-0.016065284609794617,0.6690877676010132,0.14869967103004456,0.23606683313846588
323.0,545.0,7.6684,-0.9805,5.0758,0.0217,-0.1116,0.004,-1.7305971584715785,-0.11158113181591034,2.7623348236083984,-1.2311570644378662,0.004716869443655014,2.2977077960968018,3.671671076411865,0.0941508486866951,0.36725252866744995,-1.6180995146380823,0.0,0.01596747897565365,0.9293415546417236,-0.0,-0.007645145524293184,0.6702648997306824,0.13787034153938293,0.2084161341190338
323.0,545.0,7.6684,-0.9805,5.0758,0.0217,-0.1116,0.004,-1.7314969501891078,-0.11159561574459076,2.7741401195526123,-1.2312371730804443,-0.000991370528936386,2.3112502098083496,3.672520800227783,0.11991765350103378,0.38004305958747864,-1.618115250264303,0.0,0.013796644285321236,0.9293574690818787,-0.0,-0.009545229375362396,0.6714059710502625,0.13986557722091675,0.16797028481960297
323.0,545.0,7.6684,-0.9805,5.0758,0.0217,-0.1116,0.004,-1.732462545434469,-0.12646232545375824,2.7551231384277344,-1.2312290668487549,-0.0059297215193510056,2.2485198974609375,3.673586054439209,0.14823660254478455,0.3930171728134155,-1.618131462727682,0.0,0.023879261687397957,0.9293178915977478,-0.0,-0.014997856691479683,0.6725106835365295,0.14270304143428802,0.1843881905078888
393.0,574.0,8.9163,-0.3464,6.3135,0.0939,0.0661,-0.0418,-1.733472009698385,-0.13979794085025787,2.757112503051758,-1.2312413454055786,-0.0018281375523656607,2.260223388671875,3.6747867304035644,0.14471927285194397,0.3858591914176941,-1.6180995146380823,0.0,0.020238101482391357,0.929337739944458,-0.0,-0.029367253184318542,0.6736392378807068,0.15356147289276123,0.20085978507995605
393.0,574.0,8.9163,-0.3464,6.3135,0.0939,0.0661,-0.0418,-1.7345215282835902,-0.1337679922580719,2.766758441925049,-1.2311127185821533,0.0059515503235161304,2.2981925010681152,3.6759955125996093,0.14744646847248077,0.3851437568664551,-1.6180995146380823,0.0,0.008999684825539589,0.9293695092201233,-7.423631043224077e-09,-0.002522200345993042,0.6748569011688232,0.14571605622768402,0.19395431876182556
393.0,574.0,8.9163,-0.3464,6.3135,0.0939,0.0661,-0.0418,-1.7354942760863246,-0.1201549842953682,2.7634003162384033,-1.2311047315597534,0.004973272327333689,2.2458651065826416,3.6774493890949707,0.1839696317911148,0.41249942779541016,-1.6180594603167933,6.48748596177029e-07,0.008445240557193756,0.9293820858001709,-1.3492084240205454e-13,-0.02278548665344715,0.6758934855461121,0.1287427842617035,0.15552163124084473
393.0,574.0,8.9163,-0.3464,6.3135,0.0939,0.0661,-0.0418,-1.7365042171873988,-0.11741960048675537,2.740471124649048,-1.2311733961105347,0.0016824068734422326,2.2673585414886475,3.6790682512470703,0.19959397614002228,0.4092550277709961,-1.6180594603167933,1.1790686482715529e-11,0.017855066806077957,0.9293258190155029,-2.452119436860878e-18,-0.01805206760764122,0.6769227981567383,0.11600565910339355,0.2084026038646698
393.0,574.0,8.9163,-0.3464,6.3135,0.0939,0.0661,-0.0418,-1.737465044061178,-0.12383244186639786,2.7822842597961426,-1.2311369180679321,-0.002801892114803195,2.2369301319122314,3.6807610231586914,0.23295579850673676,0.42841607332229614,-1.6180551687823694,2.1428991241379978e-16,-0.0019165853736922145,0.9293735027313232,-4.4566062596293264e-23,-0.023479990661144257,0.6777749061584473,0.10919153690338135,0.138428196310997
393.0,574.0,8.9163,-0.3464,6.3135,0.0939,0.0661,-0.0418,-1.7382222614684046,-0.12948210537433624,2.778782844543457,-1.231184959411621,-0.002810157835483551,2.293907642364502,3.682239218349121,0.23083707690238953,0.4216092824935913,-1.6180480162249964,5.96483881744595e-20,0.0026366603560745716,0.9293496608734131,-1.2405127394464046e-26,-0.01928846538066864,0.6784030199050903,0.11116501688957214,0.15871694684028625
393.0,574.0,8.9163,-0.3464,6.3135,0.0939,0.0661,-0.0418,-1.7391592464842738,-0.12564079463481903,2.767347812652588,-1.2311369180679321,-3.878501956933178e-06,2.260298490524292,3.684168978328369,0.26068755984306335,0.4412626624107361,-1.6180556456195276,0.00027438366669230163,0.01706087216734886,0.929293155670166,-2.254570423210468e-31,-0.01908865198493004,0.6792881488800049,0.1163308396935463,0.15621793270111084
393.0,574.0,8.9163,-0.3464,6.3135,0.0939,0.0661,-0.0418,-1.740152498284811,-0.11868204176425934,2.8016648292541504,-1.231173038482666,0.0012539966264739633,2.229043960571289,3.686415358180664,0.28417524695396423,0.44724828004837036,-1.6180561224566858,0.0003386569151189178,0.00810230802744627,0.9293337464332581,-4.097570336170689e-36,-0.015525244176387787,0.6801976561546326,0.10771112889051437,0.11023448407649994
393.0,574.0,8.9163,-0.3464,6.3135,0.0939,0.0661,-0.0418,-1.7410732708373011,-0.12301399558782578,2.7528293132781982,-1.2311811447143555,0.0003587475512176752,2.3014862537384033,3.6888701158710937,0.31393924355506897,0.47739726305007935,-1.6180394331561487,0.0005832146853208542,0.02464951202273369,0.9293298125267029,-7.44720068865424e-41,-0.016885176301002502,0.6809330582618713,0.09621838480234146,0.11642387509346008
393.0,574.0,8.9163,-0.3464,6.3135,0.0939,0.0661,-0.0418,-1.74212708095693,-0.13177862763404846,2.8327181339263916,-1.2311491966247559,0.00017599422426428646,2.2414731979370117,3.6914731699177246,0.33699163794517517,0.479460209608078,-1.618051830922262,0.0004830099642276764,0.022538963705301285,0.9293457269668579,-1.401298464324817e-45,-0.025117315351963043,0.6816826462745667,0.07925575226545334,0.10771998018026352
393.0,574.0,8.9163,-0.3464,6.3135,0.0939,0.0661,-0.0418,-1.7432123623290003,-0.13126079738140106,2.781217575073242,-1.2312214374542236,0.00012846934259869158,2.323664903640747,3.6942598062702636,0.3682221472263336,0.47413384914398193,-1.6180394331561487,0.0003696492640301585,0.005937265232205391,0.9293456673622131,-0.0,-0.02043774351477623,0.6822620034217834,0.06967877596616745,0.08564327657222748
471.0,472.0,8.6207,0.2369,5.6806,0.0015,0.3233,-0.0556,-1.7442289791502894,-0.12609349191188812,2.8031842708587646,-1.231137752532959,9.993411367759109e-05,2.2576675415039062,3.697319193477295,0.39634832739830017,0.4983114004135132,-1.6180837790118616,0.0002993639500346035,0.023793071508407593,0.9293734431266785,-0.0,-0.023050811141729355,0.6828469634056091,0.07150984555482864,0.08502849191427231
471.0,472.0,8.6207,0.2369,5.6806,0.0015,0.3233,-0.0556,-1.7452541790404261,-0.12620270252227783,2.75933837890625,-1.2311532497406006,4.095456097275019e-05,2.280320882797241,3.700643225307129,0.4282141923904419,0.520290195941925,-1.6180556456195276,0.00025154155446216464,0.01915978640317917,0.9293298125267029,-0.0,-0.02841613069176674,0.6834235191345215,0.07803399860858917,0.07590579241514206
471.0,472.0,8.6207,0.2369,5.6806,0.0015,0.3233,-0.0556,-1.7461277447142542,-0.13184134662151337,2.8205819129943848,-1.231133222579956,2.869759985202336e-10,2.234375238418579,3.70321433126416,0.4433024823665619,0.5209686160087585,-1.6180194059955042,0.0002403522958047688,0.013944059610366821,0.9293218851089478,-0.0,-0.004298747051507235,0.683863639831543,0.08213276416063309,0.11523301154375076
471.0,472.0,8.6207,0.2369,5.6806,0.0015,0.3233,-0.0556,-1.747209211389059,-0.14423850178718567,2.783803939819336,-1.2311689853668213,9.297657323245066e-18,2.230165958404541,3.7069050508686523,0.47653716802597046,0.5287011861801147,-1.6180313269244593,0.00022467304370366037,0.005825961474329233,0.929337739944458,-0.0,-0.026684068143367767,0.6845207810401917,0.08127141743898392,0.10147006064653397
471.0,472.0,8.6207,0.2369,5.6806,0.0015,0.3233,-0.0556,-1.748423238793844,-0.15502314269542694,2.748180389404297,-1.2311290502548218,3.012322805521095e-25,2.217090129852295,3.711012049312256,0.4991718828678131,0.5523812770843506,-1.6180074850665491,0.0001803482446121052,0.020090308040380478,0.9293416738510132,-0.0,-0.009489107877016068,0.6851282119750977,0.07816560566425323,0.08355362713336945
471.0,472.0,8.6207,0.2369,5.6806,0.0015,0.3233,-0.0556,-1.7496119938292445,-0.1430259346961975,2.7997515201568604,-1.2311372756958008,9.759542582386011e-33,2.2376554012298584,3.715284510249756,0.5364987254142761,0.5610359311103821,-1.6180194059955042,0.0001892639702418819,0.011491075158119202,0.9293338060379028,-0.0,-0.007176315877586603,0.685777485370636,0.07546304166316986,0.09835217148065567
471.0,472.0,8.6207,0.2369,5.6806,0.0015,0.3233,-0.0556,-1.7508212528624476,-0.131057471036911,2.828000068664551,-1.231161117553711,3.1619739328103767e-40,2.256312847137451,3.719698114986084,0.5701790452003479,0.5484585165977478,-1.6180155912982386,0.00019309681374579668,0.004567733965814114,0.9292622208595276,-0.0,-0.013799058273434639,0.6864176988601685,0.07540261000394821,0.054433636367321014
471.0,472.0,8.6207,0.2369,5.6806,0.0015,0.3233,-0.0556,-1.752002855340475,-0.14747020602226257,2.8275198936462402,-1.2312132120132446,-0.0029946223367005587,2.211076259613037,3.7242509561726074,0.5844453573226929,0.5421810746192932,-1.6180194059955042,0.00017441097588744015,0.02050534263253212,0.9293456673622131,-0.0,-0.008018112741410732,0.6870437264442444,0.0723927915096283,0.11768219619989395
471.0,472.0,8.6207,0.2369,5.6806,0.0015,0.3233,-0.0556,-1.7532040081419886,-0.1703225076198578,2.8188388347625732,-1.2312092781066895,-0.0013299895217642188,2.2364234924316406,3.728996916408203,0.6051775217056274,0.5467119216918945,-1.6180275122271937,0.00015900358266662806,0.028087008744478226,0.9293615221977234,-0.0,-0.02086637169122696,0.687531054019928,0.06346151977777481,0.11839869618415833
471.0,472.0,8.6207,0.2369,5.6806,0.0015,0.3233,-0.0556,-1.7546264133849085,-0.1792190968990326,2.844942092895508,-1.231161117553711,0.0024310227017849684,2.2267229557037354,3.7338124948688964,0.6117212772369385,0.5361332297325134,-1.6180475393878382,0.00014609767822548747,0.018779519945383072,0.9294058680534363,-0.0,-0.014502771198749542,0.6879790425300598,0.054172415286302567,0.06825805455446243
471.0,472.0,8.6207,0.2369,5.6806,0.0015,0.3233,-0.0556,-1.7560087643065394,-0.16075783967971802,2.818467617034912,-1.2311005592346191,0.0027300806250423193,2.279493808746338,3.738812132472656,0.6345287561416626,0.5409237146377563,-1.6180036703692835,0.00013512946316041052,0.025964099913835526,0.9293218851089478,-0.0,-0.022478636354207993,0.6884354948997498,0.05108144134283066,0.04539867118000984
471.0,472.0,8.6207,0.2369,5.6806,0.0015,0.3233,-0.0556,-1.7570134601988734,-0.15179598331451416,2.832714080810547,-1.2312172651290894,0.0003469062503427267,2.1910297870635986,3.742729826564453,0.6521345376968384,0.5377451181411743,-1.6180675665484827,0.00012792662892024964,0.021962206810712814,0.9292901158332825,-0.0,-0.021844014525413513,0.6887434720993042,0.05334167554974556,0.018948784098029137
335.0,304.0,7.5571,-1.3196,5.2594,0.0525,0.4525,-0.0768,-1.7582546673216761,-0.16468855738639832,2.7977447509765625,-1.2312216758728027,-0.0026036316994577646,2.264371871948242,3.748023195857666,0.6652135848999023,0.5455072522163391,-1.6180313269244593,0.00012877631525043398,0.02669520676136017,0.9293218851089478,-0.0,-0.017377566546201706,0.6892203688621521,0.06042463332414627,0.06773793697357178
335.0,304.0,7.5571,-1.3196,5.2594,0.0525,0.4525,-0.0768,-1.7596446476378382,-0.18318969011306763,2.8374288082122803,-1.231224775314331,-0.0011395288165658712,2.2106945514678955,3.7533537584492187,0.6706187725067139,0.5489842295646667,-1.6180313269244593,0.00011682471813401207,0.009674244560301304,0.9292901158332825,-0.0,-0.027096940204501152,0.689672589302063,0.06714004278182983,0.08233393728733063
335.0,304.0,7.5571,-1.3196,5.2594,0.0525,0.4525,-0.0768,-1.7610622845091761,-0.18064546585083008,2.8405792713165283,-1.2311770915985107,0.0007329387008212507,2.162214756011963,3.758742495174072,0.6723583936691284,0.5344648361206055,-1.6180112997638147,0.0001477950718253851,0.01507006585597992,0.929337739944458,-0.0,-0.01455347053706646,0.6901931762695312,0.0648786872625351,0.03359508886933327
335.0,304.0,7.5571,-1.3196,5.2594,0.0525,0.4525,-0.0768,-1.762411733666891,-0.17006535828113556,2.8395605087280273,-1.2311127185821533,0.0012428887421265244,2.2084414958953857,3.7641641336628417,0.6871199011802673,0.5579240322113037,-1.618011776600973,0.00035550681059248745,0.019053397700190544,0.9293735027313232,-0.0,-0.024435605853796005,0.6907182931900024,0.06194650009274483,0.10318432748317719
335.0,304.0,7.5571,-1.3196,5.2594,0.0525,0.4525,-0.0768,-1.7638427219786585,-0.16646239161491394,2.8668408393859863,-1.2312380075454712,0.00023793207947164774,2.1866345405578613,3.76967637121167,0.6950404047966003,0.5510696172714233,-1.6180513540851038,0.0003269602020736784,0.006361417472362518,0.9293376803398132,-0.0,-0.025095336139202118,0.6911820769309998,0.05945070832967758,0.05569269508123398
335.0,304.0,7.5571,-1.3196,5.2594,0.0525,0.4525,-0.0768,-1.7651592693724574,-0.17148509621620178,2.9141693115234375,-1.2311644554138184,7.349684749691221e-10,2.255558967590332,3.7752205568500976,0.6907859444618225,0.5275634527206421,-1.6180036703692835,0.00034792706719599664,0.018275167793035507,0.9293860197067261,-0.0,-0.005006210878491402,0.6916422843933105,0.05695169419050217,0.06351056694984436
335.0,304.0,7.5571,-1.3196,5.2594,0.0525,0.4525,-0.0768,-1.766513010064596,-0.17960289120674133,2.842881679534912,-1.231144666671753,2.3812046639202783e-17,2.1399755477905273,3.7806450563618164,0.6880056262016296,0.5367584228515625,-1.6179841200457972,0.000366094900527969,0.008271811529994011,0.9293338060379028,-0.0,-0.01242073904722929,0.6921108365058899,0.05351262912154198,0.024302475154399872
335.0,304.0,7.5571,-1.3196,5.2594,0.0525,0.4525,-0.0768,-1.7675658665099085,-0.1797265112400055,2.841613292694092,-1.2311606407165527,5.750328993405285e-23,2.2177493572235107,3.7847916322895507,0.6829012036323547,0.5374564528465271,-1.6179874579059046,0.0003276098577771336,0.014433097094297409,0.9293217658996582,-0.0,-0.021615656092762947,0.6924470663070679,0.050699036568403244,0.09092185646295547
335.0,304.0,7.5571,-1.3196,5.2594,0.0525,0.4525,-0.0768,-1.7689439258971156,-0.17609558999538422,2.8599836826324463,-1.231144666671753,-0.0002413257461739704,2.2003583908081055,3.7902509409138183,0.6726717948913574,0.5438637137413025,-1.6179798285113733,0.00030755504849366844,0.01363322976976633,0.9293820261955261,-0.0,-0.01339341513812542,0.692851185798645,0.047418463975191116,0.030120765790343285
335.0,304.0,7.5571,-1.3196,5.2594,0.0525,0.4525,-0.0768,-1.7703219852843226,-0.17180606722831726,2.8808627128601074,-1.2312257289886475,-0.00010969138384098187,2.2297089099884033,3.7955543237873535,0.663213312625885,0.5231534242630005,-1.6179879347430628,0.00025729966000653803,0.006351956631988287,0.9293416142463684,-0.0,-0.013524952344596386,0.6931909918785095,0.04797663912177086,0.06764963269233704
335.0,304.0,7.5571,-1.3196,5.2594,0.0525,0.4525,-0.0768,-1.7716552219786585,-0.16708318889141083,2.8688206672668457,-1.2311689853668213,-7.408489466342871e-08,2.190131664276123,3.8008195596882324,0.6557760834693909,0.5272884964942932,-1.6179917494403284,0.00022116310719866306,0.014246929436922073,0.9293938875198364,-0.0,-0.006616012658923864,0.693595826625824,0.05282707139849663,0.04016393423080444
335.0,304.0,7.5571,-1.3196,5.2594,0.0525,0.4525,-0.0768,-1.7729808292784632,-0.17392608523368835,2.8541831970214844,-1.2311688661575317,-2.400256320875824e-15,2.174285411834717,3.806044264430664,0.6430361866950989,0.5304044485092163,-1.6179679075824183,0.0002216318534919992,0.019108658656477928,0.9293574690818787,-0.0,-0.021835915744304657,0.6940732598304749,0.05416622757911682,0.0832633450627327
229.0,223.0,5.2672,-0.5007,7.2724,0.0363,0.5052,-0.0945,-1.7743216953673304,-0.1766304224729538,2.871339797973633,-1.2311491966247559,-7.776525801530144e-23,2.2155728340148926,3.811044378871582,0.6273325085639954,0.5446105599403381,-1.6180036703692835,0.00019733297813218087,0.015336651355028152,0.929317831993103,-0.0,0.004357203375548124,0.6944766640663147,0.05548178404569626,0.07099325954914093
229.0,223.0,5.2672,-0.5007,7.2724,0.0363,0.5052,-0.0945,-1.775708337823385,-0.16872239112854004,2.8674864768981934,-1.231173038482666,-2.5194955347163057e-30,2.1803855895996094,3.816023512477539,0.6159735918045044,0.5375604033470154,-1.6179998556720179,0.00015339032688643783,0.026627978309988976,0.9293376803398132,-0.0,-0.004261096939444542,0.6949294209480286,0.05400175601243973,0.06353920698165894
229.0,223.0,5.2672,-0.5007,7.2724,0.0363,0.5052,-0.0945,-1.777102609673971,-0.1626669317483902,2.8802456855773926,-1.2311570644378662,-8.16284437490431e-38,2.180664539337158,3.820910616511963,0.6035199165344238,0.5276568531990051,-1.618011776600973,0.00016197470540646464,0.014899615198373795,0.9293496012687683,-0.0,-0.007172103505581617,0.6953045129776001,0.05117599666118622,0.09892186522483826
229.0,223.0,5.2672,-0.5007,7.2724,0.0363,0.5052,-0.0945,-1.7784644565977992,-0.1734423190355301,2.9057469367980957,-1.2311809062957764,-8.115536911645904e-05,2.202100992202759,3.8256699281879882,0.5939202904701233,0.5297729969024658,-1.618023697529928,0.0001687270705588162,0.025901174172759056,0.9293615818023682,-0.0,-0.00458574527874589,0.695766031742096,0.051972515881061554,-0.005540749058127403
229.0,223.0,5.2672,-0.5007,7.2724,0.0363,0.5052,-0.0945,-1.7794939480223597,-0.1865275353193283,2.8770880699157715,-1.2311651706695557,-7.414372521452606e-05,2.1928634643554688,3.8291303354450683,0.5810678601264954,0.5229188203811646,-1.6180036703692835,0.00017846492119133472,0.021061357110738754,0.9293898344039917,-0.0,-0.01904970221221447,0.6960815191268921,0.053122419863939285,0.04800087958574295
229.0,223.0,5.2672,-0.5007,7.2724,0.0363,0.5052,-0.0945,-1.7809473476805628,-0.17626559734344482,2.9364914894104004,-1.2311570644378662,-1.9244392537864918e-11,2.168654203414917,3.8337628084370117,0.564800500869751,0.5222263336181641,-1.6180394331561487,0.0002923976571764797,0.030347391963005066,0.9293819665908813,-0.0,-0.01565522514283657,0.6964698433876038,0.05350179970264435,0.07588757574558258
229.0,223.0,5.2672,-0.5007,7.2724,0.0363,0.5052,-0.0945,-1.782422205010885,-0.16560521721839905,2.87034273147583,-1.2311369180679321,-6.2349395245795675e-19,2.1907544136047363,3.838174505824707,0.5329951047897339,0.5218037962913513,-1.6179598013507288,0.00032067426946014166,0.020172713324427605,0.929421603679657,-0.0,-0.009997140616178513,0.6969465613365173,0.05337875708937645,0.08139361441135406
229.0,223.0,5.2672,-0.5007,7.2724,0.0363,0.5052,-0.0945,-1.7837721310057582,-0.17765313386917114,2.9124836921691895,-1.2311890125274658,-2.0200407422313115e-26,2.162539005279541,3.842348738307617,0.5163662433624268,0.5279979705810547,-1.6179998556720179,0.0004849799151998013,0.021608494222164154,0.9293574690818787,-0.0,-0.0060101281851530075,0.6973986625671387,0.05751794949173927,0.08611643314361572
229.0,223.0,5.2672,-0.5007,7.2724,0.0363,0.5052,-0.0945,-1.785318513909811,-0.19489794969558716,2.9066457748413086,-1.231173038482666,-6.544675459975956e-34,2.1702215671539307,3.846362276668213,0.4983798563480377,0.5308305025100708,-1.6179559866534632,0.00041644377051852643,0.02534686028957367,0.9293978214263916,-0.0,0.0007185381837189198,0.6978145837783813,0.060390036553144455,0.10691386461257935
229.0,223.0,5.2672,-0.5007,7.2724,0.0363,0.5052,-0.0945,-1.7867757282652796,-0.1869266927242279,2.8722872734069824,-1.231161117553711,-2.1204448362163132e-41,2.184706211090088,3.850228949184082,0.475991427898407,0.5214131474494934,-1.6179717222796839,0.0003830190689768642,0.023058855906128883,0.9293298721313477,-0.0,-0.00940713007003069,0.6983482241630554,0.06119103357195854,0.13120189309120178
229.0,223.0,5.2672,-0.5007,7.2724,0.0363,0.5052,-0.0945,-1.788262506524557,-0.17249856889247894,2.885586738586426,-1.2311651706695557,-0.0,2.181488037109375,3.853924437160156,0.45915448665618896,0.5109595060348511,-1.6179760138141077,0.0004003658250439912,0.04308818280696869,0.9293176531791687,-0.0,-0.0021059392020106316,0.6988364458084106,0.06403074413537979,0.1440596580505371
190.0,192.0,5.2397,-0.9918,6.7143,0.0165,0.217,-0.0822,-1.7897163830199183,-0.18073613941669464,2.923480987548828,-1.231184959411621,-0.0,2.1766231060028076,3.8573881822773437,0.42717817425727844,0.5026189684867859,-1.6179559866534632,0.0005978323169983923,0.017512435093522072,0.9293694496154785,-0.0,-0.008233188651502132,0.6993973851203918,0.06619906425476074,0.12382462620735168
190.0,192.0,5.2397,-0.9918,6.7143,0.0165,0.217,-0.0822,-1.790769716302389,-0.19168269634246826,2.913595676422119,-1.231164813041687,-0.0,2.2053940296173096,3.859860582942627,0.4074755311012268,0.4778967499732971,-1.6179478804217737,0.0008064939174801111,0.03784662112593651,0.9293898344039917,-0.0,-0.004674216266721487,0.6998127698898315,0.06332019716501236,0.10139159858226776
190.0,192.0,5.2397,-0.9918,6.7143,0.0165,0.217,-0.0822,-1.7923242054381312,-0.19023826718330383,2.914158344268799,-1.2311286926269531,-0.0,2.178851366043091,3.8629447656818847,0.38305166363716125,0.4678087532520294,-1.6179359594928187,0.0014771234709769487,0.022434284910559654,0.9293418526649475,-0.0,-0.0018514436669647694,0.700204610824585,0.05582389608025551,0.10607604682445526
190.0,192.0,5.2397,-0.9918,6.7143,0.0165,0.217,-0.0822,-1.793819089929098,-0.18183353543281555,2.943793296813965,-1.231192708015442,-0.0,2.1490116119384766,3.865926905269287,0.3580053746700287,0.4603864550590515,-1.6179607550250452,0.002203923650085926,0.029539763927459717,0.9293982982635498,-0.0,-0.005758697632700205,0.7006688117980957,0.04774162545800209,0.019943436607718468
190.0,192.0,5.2397,-0.9918,6.7143,0.0165,0.217,-0.0822,-1.795300622979635,-0.18469876050949097,2.9128246307373047,-1.2311930656433105,-0.0,2.176455497741699,3.8687378603168945,0.3236475884914398,0.4497828781604767,-1.6179607550250452,0.0018739259103313088,0.034852154552936554,0.9293983578681946,-0.0,-0.004713556729257107,0.7011052370071411,0.043556004762649536,-0.027812087908387184
190.0,192.0,5.2397,-0.9918,6.7143,0.0165,0.217,-0.0822,-1.7967468700804652,-0.18631364405155182,2.942328453063965,-1.2311688661575317,-0.0,2.149895429611206,3.871180697078369,0.30496498942375183,0.42896220088005066,-1.6179121176349085,0.0011772887082770467,0.042493417859077454,0.9293093681335449,-0.0,0.0047643776051700115,0.7014128565788269,0.04377620667219162,0.043249525129795074
190.0,192.0,5.2397,-0.9918,6.7143,0.0165,0.217,-0.0822,-1.7982050381102503,-0.18468837440013885,2.9502358436584473,-1.2311451435089111,-0.0,2.1937694549560547,3.8734370905109863,0.2802564799785614,0.42705559730529785,-1.6178801695453089,0.0006678457139059901,0.0251312293112278,0.9293659925460815,-0.0,0.002554788254201412,0.7017608284950256,0.04500191658735275,0.04063881188631058
190.0,192.0,5.2397,-0.9918,6.7143,0.0165,0.217,-0.0822,-1.7997237644591273,-0.18136057257652283,2.9548864364624023,-1.2311086654663086,-0.0,2.166757106781006,3.8755366045185546,0.23801685869693756,0.4083116948604584,-1.617892090474264,0.0005996357649564743,0.03546572104096413,0.9293863773345947,-0.0,-0.0038043386302888393,0.7021366357803345,0.043704550713300705,0.004852280952036381
190.0,192.0,5.2397,-0.9918,6.7143,0.0165,0.217,-0.0822,-1.8011533222594203,-0.17889899015426636,2.9979941844940186,-1.2311770915985107,-0.0,2.1780471801757812,3.877210779781006,0.20913398265838623,0.3959670662879944,-1.6179121176349085,0.0005440518725663424,0.02464369311928749,0.9294143319129944,-0.0,-0.013551250100135803,0.7024848461151123,0.04259967431426048,0.04287688806653023
190.0,192.0,5.2397,-0.9918,6.7143,0.0165,0.217,-0.0822,-1.8025108776488246,-0.1763494461774826,2.982760429382324,-1.2311451435089111,-0.0,2.1521248817443848,3.87877003728833,0.16632044315338135,0.3875160813331604,-1.6178997198687952,0.0006168438703753054,0.030032793059945107,0.9293946027755737,-0.0,-0.008733781054615974,0.7027685046195984,0.04089193418622017,0.09239102900028229
190.0,192.0,5.2397,-0.9918,6.7143,0.0165,0.217,-0.0822,-1.8035804233946742,-0.18095792829990387,2.992750644683838,-1.2311409711837769,-0.0,2.199808120727539,3.8797098833271484,0.14480708539485931,0.36628270149230957,-1.617847744618551,0.0006627178518101573,0.03253401070833206,0.9294224977493286,-0.0,-0.001482086256146431,0.7029922008514404,0.03913868963718414,0.07390110939741135
190.0,192.0,5.2397,-0.9918,6.7143,0.0165,0.217,-0.0822,-1.8049866161742152,-0.1826755255460739,2.9462203979492188,-1.2311373949050903,-0.0,2.1855270862579346,3.880810423488281,0.135652095079422,0.3681790828704834,-1.6178877989398401,0.0006586830131709576,0.02995067834854126,0.9294019341468811,-0.0,-0.0055758170783519745,0.7033444046974182,0.03963072970509529,0.02349964529275894
170.0,187.0,4.4955,-0.9206,7.9298,-0.0396,-0.047,-0.0834,-1.806380411187643,-0.17348572611808777,3.008911371231079,-1.2311410903930664,-0.0,2.169461727142334,3.8817621904560546,0.10535592585802078,0.3572492003440857,-1.61786395708193,0.0005297918687574565,0.03652390092611313,0.9293738603591919,-0.0,-0.013705714605748653,0.7036125659942627,0.03991461172699928,0.024581819772720337
170.0,187.0,4.4955,-0.9206,7.9298,-0.0396,-0.047,-0.0834,-1.807770391503805,-0.16379724442958832,3.0491232872009277,-1.2311291694641113,0.001058001653291285,2.2105677127838135,3.8823558527180175,0.05369182676076889,0.34417012333869934,-1.6178720633136194,0.00044398492900654674,0.038158614188432693,0.9294262528419495,-0.0,-0.009482895955443382,0.7039682269096375,0.042688142508268356,0.031039973720908165
170.0,187.0,4.4955,-0.9206,7.9298,-0.0396,-0.047,-0.0834,-1.8091651401915492,-0.16956737637519836,2.9730844497680664,-1.2311574220657349,0.000290355586912483,2.1643457412719727,3.8825666147419433,0.010130662471055984,0.32768213748931885,-1.617852036152975,0.0003685917181428522,0.023652512580156326,0.9293295741081238,-0.0,-0.006241222843527794,0.7043402791023254,0.04616198688745499,0.07425357401371002
170.0,187.0,4.4955,-0.9206,7.9298,-0.0396,-0.047,-0.0834,-1.8105031452574671,-0.17583245038986206,3.0256495475769043,-1.2311455011367798,0.00024034695525188,2.2579116821289062,3.8825108247944335,-0.014626589603722095,0.3040763735771179,-1.6178963820086878,0.0003677231725305319,0.022397005930542946,0.9293176531791687,-0.0,-0.00534797552973032,0.7047044038772583,0.04524190351366997,0.03965297341346741
170.0,187.0,4.4955,-0.9206,7.9298,-0.0396,-0.047,-0.0834,-1.8118564091124476,-0.16729559004306793,3.042830467224121,-1.2311692237854004,0.00023630534997209907,2.2122466564178467,3.882415457362793,-0.016389600932598114,0.3063417375087738,-1.617852036152975,0.00037335490924306214,0.0275693591684103,0.9293459057807922,-0.0,-0.014671584591269493,0.70499587059021,0.04028726741671562,0.04986979067325592
170.0,187.0,4.4955,-0.9206,7.9298,-0.0396,-0.047,-0.0834,-1.8132063351073207,-0.15126192569732666,3.063760280609131,-1.2310932874679565,0.00021465931786224246,2.2554078102111816,3.882303400630615,-0.010700318962335587,0.30860018730163574,-1.6178601423846644,0.0002810283622238785,0.02808968722820282,0.9293212890625,-0.0,-0.0068639181554317474,0.7053318619728088,0.034893862903118134,0.011248191818594933
