ramyac6/ROB537/final_project/csv/all/good_198.csv
tof_0,tof_1,accelx,accely,accelz,gyrox,gyroy,gyroz,shoulder_lift_joint_position,shoulder_lift_joint_velocity,shoulder_lift_joint_effort,elbow_joint_position,elbow_joint_velocity,elbow_joint_effort,wrist_1_joint_position,wrist_1_joint_velocity,wrist_1_joint_effort,wrist_2_joint_position,wrist_2_joint_velocity,wrist_2_joint_effort,wrist_3_joint_position,wrist_3_joint_velocity,wrist_3_joint_effort,shoulder_pan_joint_position,shoulder_pan_joint_velocity,shoulder_pan_joint_effort
267.0,278.0,-0.2058,0.1041,9.7053,-0.0319,0.0264,-0.1173,-1.8031183681883753,0.0,2.993783712387085,-1.7585234642028809,-0.0,2.0514965057373047,5.041748511582174,0.0,0.29795369505882263,-1.5966737906085413,-0.0,0.006621741224080324,0.8781536817550659,-0.0,0.0011182494927197695,0.8098989725112915,0.0,0.007237788289785385
267.0,278.0,-0.2058,0.1041,9.7053,-0.0319,0.0264,-0.1173,-1.803098817864889,0.0,3.0131051540374756,-1.7585234642028809,-0.0,2.00343656539917,5.0417964337165735,0.0,0.28819864988327026,-1.5966418425189417,-0.0,-0.00366277527064085,0.8781088590621948,-0.0,-0.01706680655479431,0.8099270462989807,0.0,0.018039075657725334
267.0,278.0,-0.2058,0.1041,9.7053,-0.0319,0.0264,-0.1173,-1.8031064472594203,0.0,3.0057015419006348,-1.7585358619689941,-0.0,2.0190062522888184,5.041756468802252,0.0,0.2857199013233185,-1.5966656843768519,-0.0,-0.01584017463028431,0.8781251907348633,-0.0,0.0013687808532267809,0.8099516034126282,0.0,-0.014354825019836426
267.0,278.0,-0.2058,0.1041,9.7053,-0.0319,0.0264,-0.1173,-1.8031546078123988,0.0,3.023064613342285,-1.7585315704345703,-0.0,2.061152458190918,5.041744577675619,0.0,0.2801686227321625,-1.59666616121401,-0.0,-0.011367108672857285,0.8781896829605103,-0.0,-0.01452485378831625,0.8098788857460022,0.0,0.02730458788573742
267.0,278.0,-0.2058,0.1041,9.7053,-0.0319,0.0264,-0.1173,-1.8031588993468226,0.0,3.0230727195739746,-1.758447289466858,-0.0,2.0186543464660645,5.04171251037673,0.0,0.282709538936615,-1.5966337362872522,-0.0,-0.01849832572042942,0.8781211376190186,-0.0,-0.01214020885527134,0.8098989725112915,0.0,-0.003212323412299156
267.0,278.0,-0.2058,0.1041,9.7053,-0.0319,0.0264,-0.1173,-1.8031226597227992,0.0,3.002915620803833,-1.7585029602050781,-0.0,2.0187082290649414,5.041760432511129,0.0,0.27738475799560547,-1.5966499487506312,-0.0,-0.006714758463203907,0.8781577348709106,-0.0,0.007385351229459047,0.8099433779716492,0.0,0.0199168398976326
267.0,278.0,-0.2058,0.1041,9.7053,-0.0319,0.0264,-0.1173,-1.8031226597227992,0.0,3.0635128021240234,-1.7584915161132812,-0.0,2.032301425933838,5.041764366417684,0.0,0.290321946144104,-1.5966056028949183,-0.0,-0.0027571581304073334,0.878165602684021,-0.0,0.013339387252926826,0.8098829388618469,0.0,0.06553430110216141
263.0,287.0,-0.1621,0.1107,9.5868,-0.0399,0.0296,-0.1147,-1.8031064472594203,0.0,3.0005974769592285,-1.7585194110870361,-0.0,2.0110371112823486,5.041752475291052,0.0,0.27865204215049744,-1.5966618696795862,-0.0,0.003340158611536026,0.8780810236930847,-0.0,-0.004742586053907871,0.8099110126495361,0.0,-0.003872135654091835
263.0,287.0,-0.1621,0.1107,9.5868,-0.0399,0.0296,-0.1147,-1.8031064472594203,0.0,3.0659561157226562,-1.7585110664367676,-0.0,2.0654525756835938,5.041784512787618,0.0,0.28948184847831726,-1.5966575781451624,-0.0,-0.008395240642130375,0.878033459186554,-0.0,-0.0036795344203710556,0.8099192380905151,0.0,-0.03075249306857586
263.0,287.0,-0.1621,0.1107,9.5868,-0.0399,0.0296,-0.1147,-1.8031426868834437,0.0,2.9828948974609375,-1.758535623550415,-0.0,2.0657811164855957,5.041764366417684,0.0,0.2783847451210022,-1.5966537634478968,-0.0,-0.0022598006762564182,0.8781211376190186,-0.0,-0.010125291533768177,0.8099352717399597,0.0,0.053335778415203094
263.0,287.0,-0.1621,0.1107,9.5868,-0.0399,0.0296,-0.1147,-1.803110738793844,0.0,2.9728856086730957,-1.7585318088531494,-0.0,2.0483200550079346,5.041748511582174,0.0,0.2859123647212982,-1.5966418425189417,-0.0,-0.009741547517478466,0.878145158290863,-0.0,0.011807668022811413,0.8098871111869812,0.0,-0.033581823110580444
263.0,287.0,-0.1621,0.1107,9.5868,-0.0399,0.0296,-0.1147,-1.8030897579588832,0.0,2.9726240634918213,-1.7585399150848389,-0.0,2.0250136852264404,5.041732656746664,0.0,0.28531622886657715,-1.5966656843768519,-0.0,-0.008165921084582806,0.8780972957611084,-0.0,0.0015233239391818643,0.8099352121353149,0.0,0.02377619780600071
263.0,287.0,-0.1621,0.1107,9.5868,-0.0399,0.0296,-0.1147,-1.8030902347960414,0.0,3.0562775135040283,-1.7585554122924805,-0.0,2.0381054878234863,5.041700291424551,0.0,0.27437639236450195,-1.5966337362872522,-0.0,-0.0028922308702021837,0.8781170845031738,-0.0,0.0003442999441176653,0.809894859790802,0.0,-0.005283207166939974
263.0,287.0,-0.1621,0.1107,9.5868,-0.0399,0.0296,-0.1147,-1.8030864200987757,0.0,3.0130319595336914,-1.758547306060791,-0.0,2.0149717330932617,5.041736590653219,0.0,0.27029380202293396,-1.5966375509845179,-0.0,-0.00662567000836134,0.8781816959381104,-0.0,0.006029290147125721,0.8098507523536682,0.0,0.0335124135017395
263.0,287.0,-0.1621,0.1107,9.5868,-0.0399,0.0296,-0.1147,-1.8030945263304652,0.0,3.067131996154785,-1.7585194110870361,-0.0,2.0612545013427734,5.041732656746664,0.0,0.2896127700805664,-1.5966699759112757,-0.0,-0.016761327162384987,0.8781372308731079,-0.0,-0.008320968598127365,0.8098949193954468,0.0,-0.013769056648015976
263.0,287.0,-0.1621,0.1107,9.5868,-0.0399,0.0296,-0.1147,-1.8031021557249964,0.0,2.9865617752075195,-1.7585275173187256,-0.0,2.0597779750823975,5.041732656746664,0.0,0.2642876207828522,-1.5966981093036097,-0.0,0.01343267410993576,0.8781736493110657,-0.0,-0.007750805467367172,0.8099474310874939,0.0,0.03755545988678932
263.0,287.0,-0.1621,0.1107,9.5868,-0.0399,0.0296,-0.1147,-1.8030983410277308,0.0,3.006340980529785,-1.758479356765747,-0.0,2.0142831802368164,5.0417445478732965,0.0,0.2814652621746063,-1.5966299215899866,-0.0,-0.0001478127669543028,0.878069281578064,-0.0,-0.012574361637234688,0.8099191784858704,0.0,-0.012685882858932018
263.0,287.0,-0.1621,0.1107,9.5868,-0.0399,0.0296,-0.1147,-1.8031226597227992,0.0,3.0301032066345215,-1.7585399150848389,-0.0,2.0239579677581787,5.041764396220007,0.0,0.28345105051994324,-1.5966656843768519,-0.0,-0.005112514365464449,0.8781288862228394,-0.0,-0.008589880540966988,0.8098911643028259,0.0,5.3427647799253464e-05
263.0,287.0,-0.1621,0.1107,9.5868,-0.0399,0.0296,-0.1147,-1.8031145534911097,0.0,3.036766529083252,-1.758467674255371,-0.0,2.053103446960449,5.041784512787618,0.0,0.29761040210723877,-1.5966780821429651,-0.0,0.0030115151312202215,0.8781454563140869,-0.0,-0.008235442452132702,0.8098949193954468,0.0,0.012561076320707798
271.0,271.0,-0.1627,0.1226,9.5839,-0.0318,0.0232,-0.1199,-1.8031426868834437,0.0,2.971802234649658,-1.7585399150848389,-0.0,1.9773750305175781,5.041748511582174,0.0,0.2964754104614258,-1.5966737906085413,-0.0,-0.0023028268478810787,0.8781170845031738,-0.0,-0.008474316447973251,0.8098908066749573,0.0,-0.00535579863935709
271.0,271.0,-0.1627,0.1226,9.5839,-0.0318,0.0232,-0.1199,-1.8031226597227992,0.0,2.9710988998413086,-1.7584989070892334,-0.0,2.0266313552856445,5.041748511582174,0.0,0.290843665599823,-1.5967024008380335,-0.0,-0.009870730340480804,0.8781574368476868,-0.0,-0.005457266233861446,0.8099151253700256,0.0,-0.0092835808172822
271.0,271.0,-0.1627,0.1226,9.5839,-0.0318,0.0232,-0.1199,-1.8031426868834437,0.0,3.0052592754364014,-1.7585594654083252,-0.0,2.0032711029052734,5.0417683003242395,0.0,0.28848350048065186,-1.5966656843768519,-0.0,-0.006619860418140888,0.8780773282051086,-0.0,-0.005709161050617695,0.8099269866943359,0.0,-0.01938304491341114
271.0,271.0,-0.1627,0.1226,9.5839,-0.0318,0.0232,-0.1199,-1.8031345806517542,0.0,3.009505271911621,-1.758479118347168,-0.0,2.0078959465026855,5.041784512787618,0.0,0.2928435206413269,-1.5966418425189417,-0.0,-0.015129122883081436,0.8781251311302185,-0.0,-0.008817271329462528,0.8099634647369385,0.0,0.015568498522043228
271.0,271.0,-0.1627,0.1226,9.5839,-0.0318,0.0232,-0.1199,-1.8031140766539515,0.0,3.02486515045166,-1.7585318088531494,-0.0,2.0329675674438477,5.041756498604574,0.0,0.2808784544467926,-1.5966656843768519,-0.0,-0.007070060819387436,0.8781251907348633,-0.0,-0.0068564219400286674,0.8099151253700256,0.0,0.017531245946884155
271.0,271.0,-0.1627,0.1226,9.5839,-0.0318,0.0232,-0.1199,-1.8031226597227992,0.0,2.994777202606201,-1.7585318088531494,-0.0,1.996616244316101,5.041748511582174,0.0,0.2965838313102722,-1.5966461340533655,-0.0,-0.014403209090232849,0.8781735897064209,-0.0,0.00236309552565217,0.8099552392959595,0.0,-0.03079206496477127
271.0,271.0,-0.1627,0.1226,9.5839,-0.0318,0.0232,-0.1199,-1.8031183681883753,0.0,3.0255088806152344,-1.7585153579711914,-0.0,2.05470609664917,5.041752534895696,0.0,0.2841910421848297,-1.5966418425189417,-0.0,0.006413954775780439,0.8781251311302185,-0.0,0.004389611072838306,0.8099110126495361,0.0,-0.02664383128285408
271.0,271.0,-0.1627,0.1226,9.5839,-0.0318,0.0232,-0.1199,-1.8031064472594203,0.0,2.9939770698547363,-1.7585480213165283,-0.0,1.987823486328125,5.0417445478732965,0.0,0.27980145812034607,-1.5966461340533655,-0.0,-0.01624479703605175,0.8781613707542419,-0.0,0.0026371264830231667,0.8099269866943359,0.0,-0.029480529949069023
271.0,271.0,-0.1627,0.1226,9.5839,-0.0318,0.0232,-0.1199,-1.803110738793844,0.0,3.0197062492370605,-1.7585153579711914,-0.0,2.0322158336639404,5.041756498604574,0.0,0.28758901357650757,-1.5966337362872522,-0.0,-0.013535521924495697,0.8780930042266846,-0.0,0.006899874657392502,0.8099474310874939,0.0,0.04571555554866791
271.0,271.0,-0.1627,0.1226,9.5839,-0.0318,0.0232,-0.1199,-1.8031064472594203,0.0,3.032698154449463,-1.7585399150848389,-0.0,1.995614767074585,5.041764694243231,0.0,0.2784556746482849,-1.5966375509845179,-0.0,-0.014259516261518002,0.8781536221504211,-0.0,-0.012104535475373268,0.8098747730255127,0.0,0.01708119362592697
271.0,271.0,-0.1627,0.1226,9.5839,-0.0318,0.0232,-0.1199,-1.803150316277975,0.0,3.027599811553955,-1.758495569229126,-0.0,2.011354923248291,5.041680472880163,0.0,0.28263673186302185,-1.5966418425189417,-0.0,-0.00285480753518641,0.8781171441078186,-0.0,-0.0006575339939445257,0.8099151253700256,0.0,-0.01774621568620205
271.0,271.0,-0.1627,0.1226,9.5839,-0.0318,0.0232,-0.1199,-1.8030864200987757,0.0,2.9932992458343506,-1.7585110664367676,-0.0,2.012759208679199,5.041760492115774,0.0,0.28392264246940613,-1.5966737906085413,-0.0,-0.0023206141777336597,0.8781531453132629,-0.0,0.0014875319320708513,0.8099069595336914,0.0,0.026581887155771255
271.0,271.0,-0.1627,0.1226,9.5839,-0.0318,0.0232,-0.1199,-1.8030864200987757,0.0,3.0138840675354004,-1.7585114240646362,-0.0,2.021343469619751,5.041736560850897,0.0,0.28253573179244995,-1.59666616121401,-0.0,-0.008463563397526741,0.8781251311302185,-0.0,0.003906296566128731,0.8099151253700256,0.0,0.015575398690998554
271.0,277.0,-0.1328,0.1496,9.6006,-0.0313,0.024,-0.122,-1.8031383953490199,0.0,3.02671480178833,-1.7584832906723022,-0.0,2.023409366607666,5.041780608683386,0.0,0.2926320433616638,-1.5966375509845179,-0.0,-0.011278798803687096,0.878153383731842,-0.0,0.005243340041488409,0.8099229335784912,0.0,0.03391261398792267
271.0,277.0,-0.1328,0.1496,9.6006,-0.0313,0.024,-0.122,-1.8030945263304652,0.0,3.039041042327881,-1.7584996223449707,-0.0,2.0152502059936523,5.041748511582174,0.0,0.28761354088783264,-1.5966580549823206,-0.0,-0.0036852052435278893,0.8781576752662659,-0.0,0.011444004252552986,0.8098544478416443,0.0,0.011638941243290901
271.0,277.0,-0.1328,0.1496,9.6006,-0.0313,0.024,-0.122,-1.8031140766539515,0.0,3.0241501331329346,-1.7585554122924805,-0.0,2.0273470878601074,5.041760551720419,0.0,0.2883947193622589,-1.5966418425189417,-0.0,0.0031962604261934757,0.8781129717826843,-0.0,0.0025015200953930616,0.8099069595336914,0.0,0.012927358038723469
271.0,277.0,-0.1328,0.1496,9.6006,-0.0313,0.024,-0.122,-1.8031264744200648,0.0,2.977820873260498,-1.758479356765747,-0.0,2.040093421936035,5.041760402708807,0.0,0.28841066360473633,-1.596609894429342,-0.0,-0.00030032615177333355,0.8780969977378845,-0.0,0.005687080789357424,0.8098989725112915,0.0,-0.008274542167782784
271.0,277.0,-0.1328,0.1496,9.6006,-0.0313,0.024,-0.122,-1.8030864200987757,0.0,3.0205845832824707,-1.7584831714630127,-0.0,2.0463931560516357,5.041736620455541,0.0,0.2792508006095886,-1.5966256300555628,-0.0,-0.0016453098505735397,0.8781695365905762,-0.0,0.004958974663168192,0.809894859790802,0.0,0.04919866472482681
271.0,277.0,-0.1328,0.1496,9.6006,-0.0313,0.024,-0.122,-1.8031140766539515,0.0,3.0075366497039795,-1.7585234642028809,-0.0,2.076598882675171,5.041780578881063,0.0,0.2855755090713501,-1.596649471913473,-0.0,-0.008458930999040604,0.8781496286392212,-0.0,0.004671645816415548,0.8098986744880676,0.0,0.019676469266414642
271.0,277.0,-0.1328,0.1496,9.6006,-0.0313,0.024,-0.122,-1.803110738793844,0.0,3.022820472717285,-1.7585707902908325,-0.0,1.9880053997039795,5.041780578881063,0.0,0.290839821100235,-1.5966780821429651,-0.0,-0.022688889876008034,0.8781171441078186,-0.0,-0.001299344701692462,0.8099270462989807,0.0,0.01829674281179905
271.0,277.0,-0.1328,0.1496,9.6006,-0.0313,0.024,-0.122,-1.8031021557249964,0.0,3.0142998695373535,-1.7585194110870361,-0.0,2.016885280609131,5.041792499810018,0.0,0.28151261806488037,-1.5966737906085413,-0.0,-0.0014475196367129683,0.8780893087387085,-0.0,-0.009035313501954079,0.8099310398101807,0.0,-0.01801655814051628
271.0,277.0,-0.1328,0.1496,9.6006,-0.0313,0.024,-0.122,-1.8031426868834437,0.0,3.02398681640625,-1.7585194110870361,-0.0,2.0273666381835938,5.041760432511129,0.0,0.27678629755973816,-1.5966218153582972,-0.0,0.0008051935583353043,0.8781288862228394,-0.0,-0.009376355446875095,0.8098829984664917,0.0,0.0025386656634509563
271.0,277.0,-0.1328,0.1496,9.6006,-0.0313,0.024,-0.122,-1.8031183681883753,0.0,2.999105453491211,-1.7585554122924805,-0.0,2.0265166759490967,5.041764396220007,0.0,0.28674009442329407,-1.5966461340533655,-0.0,-0.02500462904572487,0.8780853748321533,-0.0,-0.0035082523245364428,0.8099229335784912,0.0,0.03417767956852913
271.0,277.0,-0.1328,0.1496,9.6006,-0.0313,0.024,-0.122,-1.8031307659544886,0.0,2.960752487182617,-1.758591651916504,-0.0,2.0422475337982178,5.041752445488729,0.0,0.27815043926239014,-1.5966861883746546,-0.0,-0.014003753662109375,0.8780970573425293,-0.0,-0.01573958806693554,0.8099796772003174,0.0,0.04062890633940697
271.0,277.0,-0.1328,0.1496,9.6006,-0.0313,0.024,-0.122,-1.8031021557249964,0.0,2.9773778915405273,-1.758552074432373,-0.0,1.9976167678833008,5.041728663235464,0.0,0.27781543135643005,-1.5966861883746546,-0.0,-0.009934017434716225,0.8780893087387085,-0.0,0.0031000927556306124,0.8099151253700256,0.0,-0.03264855220913887
269.0,279.0,-0.146,0.1322,9.4804,-0.0432,0.0269,-0.1231,-1.803110738793844,0.0,3.052327871322632,-1.7585110664367676,-0.0,2.0499253273010254,5.041804301529684,0.0,0.29085201025009155,-1.5966175238238733,-0.0,0.0028398139402270317,0.8780972957611084,-0.0,-0.006268893368542194,0.8099311590194702,0.0,-0.022915925830602646
269.0,279.0,-0.146,0.1322,9.4804,-0.0432,0.0269,-0.1231,-1.8031021557249964,0.0,3.031052589416504,-1.7585110664367676,-0.0,2.0223629474639893,5.0417204079921625,0.0,0.2903723120689392,-1.5966299215899866,-0.0,-0.002829962410032749,0.8781330585479736,-0.0,-0.0015052997041493654,0.8098829388618469,0.0,-0.013167615048587322
269.0,279.0,-0.146,0.1322,9.4804,-0.0432,0.0269,-0.1231,-1.8031226597227992,0.0,3.0315327644348145,-1.7585275173187256,-0.0,2.0137901306152344,5.041716444283285,0.0,0.2866952419281006,-1.5966418425189417,-0.0,-0.01955326646566391,0.8781089782714844,-0.0,-0.001974922837689519,0.80991131067276,0.0,0.0598955973982811
269.0,279.0,-0.146,0.1322,9.4804,-0.0432,0.0269,-0.1231,-1.803082128564352,0.0,3.0298590660095215,-1.7585707902908325,-0.0,2.0130085945129395,5.041716712504186,0.0,0.2811833620071411,-1.5966656843768519,-0.0,-0.0010010793339461088,0.8781654834747314,-0.0,-0.003217455465346575,0.8098706007003784,0.0,0.025494402274489403
269.0,279.0,-0.146,0.1322,9.4804,-0.0432,0.0269,-0.1231,-1.803094049493307,0.0,3.0268208980560303,-1.7585594654083252,-0.0,2.014362096786499,5.0417445478732965,0.0,0.29185348749160767,-1.5966337362872522,-0.0,-0.015685932710766792,0.8781370520591736,-0.0,-0.00402009068056941,0.8099755048751831,0.0,0.023745182901620865
269.0,279.0,-0.146,0.1322,9.4804,-0.0432,0.0269,-0.1231,-1.8031226597227992,0.0,3.028289794921875,-1.7584750652313232,-0.0,2.0603442192077637,5.041712480574407,0.0,0.29083365201950073,-1.5966656843768519,-0.0,-0.01243525929749012,0.8780933022499084,-0.0,-0.0019735326059162617,0.8099392652511597,0.0,0.0018412638455629349
269.0,279.0,-0.146,0.1322,9.4804,-0.0432,0.0269,-0.1231,-1.8030740223326625,0.0,3.009467124938965,-1.7585594654083252,-0.0,2.035844564437866,5.041728663235464,0.0,0.28324395418167114,-1.5966132322894495,-0.0,-0.0029215014073997736,0.8781211376190186,-0.0,0.01024348009377718,0.8099147081375122,0.0,0.00786806084215641
269.0,279.0,-0.146,0.1322,9.4804,-0.0432,0.0269,-0.1231,-1.8031264744200648,0.0,3.050238609313965,-1.7584595680236816,-0.0,1.97369384765625,5.041712480574407,0.0,0.279094934463501,-1.5966737906085413,-0.0,0.012110864743590355,0.8781251311302185,-0.0,-0.003739182837307453,0.8098747730255127,0.0,0.013759037479758263
269.0,279.0,-0.146,0.1322,9.4804,-0.0432,0.0269,-0.1231,-1.8031345806517542,0.0,3.01393461227417,-1.7585070133209229,-0.0,2.013448715209961,5.041756409197607,0.0,0.29027312994003296,-1.5966537634478968,-0.0,-0.004670940805226564,0.8781011700630188,-0.0,0.002554129110649228,0.8099352121353149,0.0,0.012272318825125694
269.0,279.0,-0.146,0.1322,9.4804,-0.0432,0.0269,-0.1231,-1.803110738793844,0.0,2.9700376987457275,-1.758552074432373,-0.0,2.014371156692505,5.041748511582174,0.0,0.28406772017478943,-1.5966375509845179,-0.0,-0.015792369842529297,0.878161609172821,-0.0,0.008202265948057175,0.8099027872085571,0.0,0.0017373058944940567
269.0,279.0,-0.146,0.1322,9.4804,-0.0432,0.0269,-0.1231,-1.8030983410277308,0.0,2.9753870964050293,-1.7585315704345703,-0.0,2.0305817127227783,5.041764396220007,0.0,0.2856942117214203,-1.596649471913473,-0.0,-0.005995610728859901,0.8781211376190186,-0.0,-0.008701806887984276,0.8099474310874939,0.0,-0.004428725689649582
269.0,279.0,-0.146,0.1322,9.4804,-0.0432,0.0269,-0.1231,-1.8030864200987757,0.0,3.0221171379089355,-1.7585234642028809,-0.0,2.0183231830596924,5.041740524559774,0.0,0.2958488464355469,-1.5966218153582972,-0.0,-0.0034962748177349567,0.8781090378761292,-0.0,0.0018723192624747753,0.8099229335784912,0.0,0.03200747072696686
269.0,279.0,-0.146,0.1322,9.4804,-0.0432,0.0269,-0.1231,-1.803110738793844,0.0,3.0303378105163574,-1.7585480213165283,-0.0,1.990396499633789,5.0417445478732965,0.0,0.2795948386192322,-1.5966737906085413,-0.0,-0.007418997120112181,0.8781049847602844,-0.0,0.0037926877848803997,0.8099392652511597,0.0,0.0045366184785962105
263.0,282.0,-0.149,0.1178,9.5707,-0.042,0.0296,-0.1194,-1.803082128564352,0.0,3.0075230598449707,-1.7584915161132812,-0.0,1.9689972400665283,5.041752475291052,0.0,0.2966753840446472,-1.5966580549823206,-0.0,-0.005953671410679817,0.8781410455703735,-0.0,0.005436012987047434,0.8099068999290466,0.0,0.005981954280287027
263.0,282.0,-0.149,0.1178,9.5707,-0.042,0.0296,-0.1194,-1.803065916100973,0.0,3.0105810165405273,-1.7585234642028809,-0.0,2.036332845687866,5.041756409197607,0.0,0.26946836709976196,-1.5966861883746546,-0.0,-0.0063702561892569065,0.8781490325927734,-0.0,-0.010856866836547852,0.8099311590194702,0.0,0.004194077104330063
263.0,282.0,-0.149,0.1178,9.5707,-0.042,0.0296,-0.1194,-1.803077837029928,0.0,3.009167194366455,-1.7585315704345703,-0.0,2.056727886199951,5.0417445478732965,0.0,0.28637397289276123,-1.5966418425189417,-0.0,0.0008723230566829443,0.8781132102012634,-0.0,-0.0035954671911895275,0.8099151253700256,0.0,0.03897574543952942
263.0,282.0,-0.149,0.1178,9.5707,-0.042,0.0296,-0.1194,-1.8031183681883753,0.0,3.009136199951172,-1.7585396766662598,-0.0,2.00363826751709,5.041752445488729,0.0,0.28767067193984985,-1.5966461340533655,-0.0,-0.0015523447655141354,0.8781450390815735,-0.0,-0.0034910240210592747,0.8098709583282471,0.0,0.03133183717727661
263.0,282.0,-0.149,0.1178,9.5707,-0.042,0.0296,-0.1194,-1.8031064472594203,0.0,2.9831466674804688,-1.758495569229126,-0.0,2.0169665813446045,5.041780578881063,0.0,0.2963418662548065,-1.5966780821429651,-0.0,-0.005636966321617365,0.8781409859657288,-0.0,-0.012532472610473633,0.8098908066749573,0.0,0.006920292042195797
263.0,282.0,-0.149,0.1178,9.5707,-0.042,0.0296,-0.1194,-1.8030697307982386,0.0,2.992204189300537,-1.758467674255371,-0.0,2.0515518188476562,5.041740524559774,0.0,0.30188268423080444,-1.5966537634478968,-0.0,-0.011711867526173592,0.8781251311302185,-0.0,-0.0028397501446306705,0.8099713921546936,0.0,-0.0680588111281395
263.0,282.0,-0.149,0.1178,9.5707,-0.042,0.0296,-0.1194,-1.803110738793844,0.0,3.0343284606933594,-1.7585480213165283,-0.0,2.0331883430480957,5.041748511582174,0.0,0.2840922474861145,-1.5966256300555628,-0.0,-0.0037010624073445797,0.878169596195221,-0.0,0.007505586836487055,0.8099796175956726,0.0,0.002820571418851614
263.0,282.0,-0.149,0.1178,9.5707,-0.042,0.0296,-0.1194,-1.8031021557249964,0.0,3.0625267028808594,-1.7585358619689941,-0.0,2.0286216735839844,5.041736590653219,0.0,0.28629669547080994,-1.5966580549823206,-8.355800673598424e-07,-0.0003224862739443779,0.878041684627533,-0.0,0.002434757072478533,0.8099068999290466,0.0,-0.018878543749451637
263.0,282.0,-0.149,0.1178,9.5707,-0.042,0.0296,-0.1194,-1.8031064472594203,0.0,3.0595498085021973,-1.7584996223449707,-0.0,2.038728713989258,5.041752475291052,0.0,0.2893103063106537,-1.5966737906085413,-1.5186253296550767e-11,-0.007938042283058167,0.8781092166900635,-0.0,-0.007947362959384918,0.8098989725112915,0.0,0.057283662259578705
263.0,282.0,-0.149,0.1178,9.5707,-0.042,0.0296,-0.1194,-1.8030902347960414,0.0,2.9922828674316406,-1.7585399150848389,-0.0,1.9875156879425049,5.041724431305685,0.0,0.28030264377593994,-1.5966418425189417,-4.227148839975161e-15,-0.0013296843972057104,0.8781330585479736,-0.0,0.005094141699373722,0.809886634349823,0.0,0.017704391852021217
263.0,282.0,-0.149,0.1178,9.5707,-0.042,0.0296,-0.1194,-1.8030654392638148,0.0,2.9805662631988525,-1.7585595846176147,-0.0,1.9965362548828125,5.041732597142019,0.0,0.28291624784469604,-1.5966699759112757,-7.682633163307458e-20,-0.006755657494068146,0.8781012296676636,-0.0,0.009032142348587513,0.8099392652511597,0.0,-0.02469167485833168
263.0,282.0,-0.149,0.1178,9.5707,-0.042,0.0296,-0.1194,-1.8031226597227992,0.0,3.0102691650390625,-1.7585594654083252,-0.0,2.0026087760925293,5.041756498604574,0.0,0.2864396274089813,-1.5966218153582972,-1.39628064679757e-24,-0.010061278939247131,0.8780853748321533,-0.0,0.001879376359283924,0.8098870515823364,0.0,-0.011257377453148365
266.0,280.0,-0.1932,0.1095,9.603,-0.0405,0.0191,-0.1133,-1.8031064472594203,0.0,3.0013442039489746,-1.7585234642028809,-0.0,2.0453076362609863,5.041772621660986,0.0,0.285025954246521,-1.5966904799090784,-3.8865986094051134e-28,-0.018406730145215988,0.8781495690345764,-0.0,-0.015015047043561935,0.809894859790802,0.0,0.015715206041932106
266.0,280.0,-0.1932,0.1095,9.603,-0.0405,0.0191,-0.1133,-1.8030740223326625,0.0,3.0144705772399902,-1.7585036754608154,-0.0,2.0700104236602783,5.041732626944341,0.0,0.2872360944747925,-1.5966537634478968,-7.06370130709261e-33,-0.013901308178901672,0.8781092166900635,-0.0,-0.004836932756006718,0.8099310994148254,0.0,0.03293297812342644
266.0,280.0,-0.1932,0.1095,9.603,-0.0405,0.0191,-0.1133,-1.8031140766539515,0.0,3.013105869293213,-1.7585399150848389,-0.0,2.0344669818878174,5.041728693037786,0.0,0.29347342252731323,-1.5966618696795862,-1.9662072997851704e-36,-0.0032504312694072723,0.8780891299247742,-0.0,-0.009791960939764977,0.8099147081375122,0.0,0.008301629684865475
266.0,280.0,-0.1932,0.1095,9.603,-0.0405,0.0191,-0.1133,-1.8031383953490199,0.0,2.9749512672424316,-1.7585748434066772,-0.0,2.0278780460357666,5.041748511582174,0.0,0.285210520029068,-1.5966780821429651,-3.573451213874716e-41,-0.0012322253314778209,0.8780613541603088,-0.0,0.002014345023781061,0.8099151253700256,0.0,-0.015120754018425941
266.0,280.0,-0.1932,0.1095,9.603,-0.0405,0.0191,-0.1133,-1.8031021557249964,0.0,3.0226640701293945,-1.7585594654083252,-0.0,1.9673919677734375,5.041768330126562,0.0,0.281745046377182,-1.5966780821429651,-0.0,-0.002363822655752301,0.8781774640083313,-0.0,0.004588060546666384,0.8099030256271362,0.0,-0.014511970803141594
266.0,280.0,-0.1932,0.1095,9.603,-0.0405,0.0191,-0.1133,-1.8030983410277308,0.0,3.0069026947021484,-1.7585275173187256,-0.0,2.016998052597046,5.041772621660986,0.0,0.28476476669311523,-1.596661392842428,-0.0,-0.006840674672275782,0.8781050443649292,-0.0,-0.007358586881309748,0.8098989725112915,0.0,-0.00042943935841321945
266.0,280.0,-0.1932,0.1095,9.603,-0.0405,0.0191,-0.1133,-1.8031226597227992,0.0,3.052089214324951,-1.7585594654083252,-0.0,2.071390151977539,5.041708427458563,0.0,0.27597877383232117,-1.596649471913473,-0.0,-0.0021507814526557922,0.8781092166900635,-0.0,-0.006052151322364807,0.8099515438079834,0.0,-0.00293007493019104
266.0,280.0,-0.1932,0.1095,9.603,-0.0405,0.0191,-0.1133,-1.8030864200987757,0.0,2.985715389251709,-1.7584831714630127,-0.0,1.9551119804382324,5.041752475291052,0.0,0.2808127999305725,-1.59666616121401,-0.0,-0.006339144892990589,0.8781495690345764,-0.0,0.00477701285853982,0.8099192380905151,0.0,0.040266986936330795
266.0,280.0,-0.1932,0.1095,9.603,-0.0405,0.0191,-0.1133,-1.8031140766539515,0.0,3.037271499633789,-1.758479118347168,-0.0,1.9998869895935059,5.041732597142019,0.0,0.2988150119781494,-1.5966499487506312,-0.0,-0.014568925835192204,0.8781455159187317,-0.0,0.0029148708563297987,0.8098788857460022,0.0,0.01247190311551094
266.0,280.0,-0.1932,0.1095,9.603,-0.0405,0.0191,-0.1133,-1.8031145534911097,0.0,2.999255657196045,-1.7584831714630127,-0.0,2.002715826034546,5.041744607477941,0.0,0.2813974618911743,-1.5966256300555628,-0.0,-0.007874350994825363,0.8780535459518433,-0.0,0.005454726051539183,0.8099229335784912,0.0,0.032990824431180954
266.0,280.0,-0.1932,0.1095,9.603,-0.0405,0.0191,-0.1133,-1.8031183681883753,0.0,3.027116298675537,-1.7585275173187256,-0.0,2.051192283630371,5.041776615172186,0.0,0.28442537784576416,-1.5966337362872522,-0.0,-0.005938531365245581,0.8781330585479736,-0.0,-0.0043084388598799706,0.8099110126495361,0.0,-0.01893901638686657
266.0,280.0,-0.1932,0.1095,9.603,-0.0405,0.0191,-0.1133,-1.8030902347960414,0.0,3.0266435146331787,-1.7585399150848389,-0.0,2.0676136016845703,5.041772383242407,0.0,0.2773708701133728,-1.5966337362872522,-0.0,-0.007416416425257921,0.8780971169471741,-0.0,0.001963068498298526,0.8099069595336914,0.0,-0.02674611657857895
266.0,280.0,-0.1932,0.1095,9.603,-0.0405,0.0191,-0.1133,-1.8031140766539515,0.0,3.076085329055786,-1.7584915161132812,-0.0,1.9668498039245605,5.041740494757452,0.0,0.2925729751586914,-1.5966375509845179,-0.0,-0.0023424222599714994,0.8781409859657288,-0.0,-0.0015263007953763008,0.8099474906921387,0.0,0.0034810621291399
272.0,282.0,-0.1693,0.1328,9.5874,-0.038,0.0269,-0.1258,-1.8031021557249964,0.0,3.011946678161621,-1.7585480213165283,-0.0,2.0104265213012695,5.041728693037786,0.0,0.2795286476612091,-1.5966256300555628,-0.0,-0.013254282996058464,0.8780972957611084,-0.0,-0.0005319416522979736,0.8099270462989807,0.0,-0.03781323507428169
272.0,282.0,-0.1693,0.1328,9.5874,-0.038,0.0269,-0.1258,-1.8030945263304652,0.0,2.98614764213562,-1.7585070133209229,-0.0,2.021317958831787,5.041764396220007,0.0,0.29782000184059143,-1.5966094175921839,-0.0,-0.004872457589954138,0.8781052231788635,-0.0,-0.0040413024835288525,0.8099229335784912,0.0,-0.028917904943227768
272.0,282.0,-0.1693,0.1328,9.5874,-0.038,0.0269,-0.1258,-1.8031426868834437,0.0,3.0311479568481445,-1.7584750652313232,-0.0,2.043644428253174,5.041768359928884,0.0,0.28569766879081726,-1.5966337362872522,-0.0,-0.003707809839397669,0.8781330585479736,-0.0,0.003496682969853282,0.809903085231781,0.0,0.024912860244512558
272.0,282.0,-0.1693,0.1328,9.5874,-0.038,0.0269,-0.1258,-1.803098817864889,0.0,2.9771952629089355,-1.7585872411727905,-0.0,2.0237574577331543,5.041752475291052,0.0,0.27877673506736755,-1.5966861883746546,-0.0,-0.011416064575314522,0.8781614899635315,-0.0,-0.0006509600207209587,0.8099352121353149,0.0,-0.024831868708133698
272.0,282.0,-0.1693,0.1328,9.5874,-0.038,0.0269,-0.1258,-1.8031264744200648,0.0,3.006381034851074,-1.7585110664367676,-0.0,2.018477439880371,5.041752475291052,0.0,0.283590704202652,-1.5966499487506312,-0.0,-0.011565200984477997,0.8781694173812866,-0.0,-0.002805940341204405,0.8098989725112915,0.0,0.029512889683246613
272.0,282.0,-0.1693,0.1328,9.5874,-0.038,0.0269,-0.1258,-1.8031345806517542,0.0,3.02435302734375,-1.7585275173187256,-0.0,2.0410690307617188,5.041780608683386,0.0,0.295202374458313,-1.5966699759112757,-0.0,0.002599296858534217,0.8781535625457764,-0.0,-0.0074274600483477116,0.8099110126495361,0.0,0.005931290797889233
272.0,282.0,-0.1693,0.1328,9.5874,-0.038,0.0269,-0.1258,-1.803110261956686,0.0,3.0194106101989746,-1.758479118347168,-0.0,2.0203664302825928,5.041768330126562,0.0,0.2820306420326233,-1.5966737906085413,-0.0,-0.0014453767798841,0.8781132102012634,-0.0,0.003408917225897312,0.8098989725112915,0.0,-0.0044888947159051895
272.0,282.0,-0.1693,0.1328,9.5874,-0.038,0.0269,-0.1258,-1.8031383953490199,0.0,3.0074269771575928,-1.7585194110870361,-0.0,2.053189754486084,5.041724669724264,0.0,0.28250160813331604,-1.5966699759112757,-0.0,-0.014028256759047508,0.8781251311302185,-0.0,-0.002324778353795409,0.8099311590194702,0.0,0.0022454317659139633
272.0,282.0,-0.1693,0.1328,9.5874,-0.038,0.0269,-0.1258,-1.8030864200987757,0.0,3.0421910285949707,-1.758547306060791,-0.0,2.076509475708008,5.041744577675619,0.0,0.2774859666824341,-1.5966337362872522,-0.0,-0.007554684765636921,0.8780653476715088,-0.0,0.004395926836878061,0.8099310994148254,0.0,-0.011937485076487064
272.0,282.0,-0.1693,0.1328,9.5874,-0.038,0.0269,-0.1258,-1.803110738793844,0.0,3.023991584777832,-1.7585114240646362,-0.0,2.013611316680908,5.041780608683386,0.0,0.2752948999404907,-1.5966218153582972,-0.0,-0.00016484642401337624,0.8781091570854187,-0.0,-0.008256062865257263,0.8098825216293335,0.0,0.022049447521567345
272.0,282.0,-0.1693,0.1328,9.5874,-0.038,0.0269,-0.1258,-1.8031226597227992,0.0,3.0309886932373047,-1.7584915161132812,-0.0,1.9834868907928467,5.041756409197607,0.0,0.2802875339984894,-1.5966218153582972,-0.0,-0.008740713819861412,0.8781613707542419,-0.0,0.0026121968403458595,0.8098989725112915,0.0,0.057497333735227585
272.0,282.0,-0.1693,0.1328,9.5874,-0.038,0.0269,-0.1258,-1.8031307659544886,0.0,3.028836250305176,-1.758595585823059,-0.0,1.997645378112793,5.041772442847051,0.0,0.2759179174900055,-1.5966337362872522,-0.0,-0.012949425727128983,0.8781370520591736,-0.0,0.000927479297388345,0.8099110126495361,0.0,-0.021064583212137222
269.0,274.0,-0.2405,0.1167,9.7268,-0.0321,0.0325,-0.1235,-1.8031145534911097,0.0,3.007368564605713,-1.7585275173187256,-0.0,2.006232500076294,5.041780638485708,0.0,0.2850094437599182,-1.5966294447528284,-0.0,-0.008176421746611595,0.8780893683433533,-0.0,-0.02264038845896721,0.8098829984664917,0.0,0.016576465219259262
269.0,274.0,-0.2405,0.1167,9.7268,-0.0321,0.0325,-0.1235,-1.8031345806517542,0.0,2.9689087867736816,-1.7585829496383667,-0.0,1.9898805618286133,5.041756498604574,0.0,0.2869948744773865,-1.5966418425189417,-0.0,-0.012690299190580845,0.8780893683433533,-0.0,0.0006657002959400415,0.8098748326301575,0.0,0.009890376590192318
269.0,274.0,-0.2405,0.1167,9.7268,-0.0321,0.0325,-0.1235,-1.8031345806517542,0.0,3.0037765502929688,-1.7585194110870361,-0.0,2.033696174621582,5.041776644974508,0.0,0.28898924589157104,-1.5966375509845179,-0.0,-0.01868460699915886,0.8780854344367981,-0.0,-0.007403436582535505,0.809903085231781,0.0,0.030122987926006317
269.0,274.0,-0.2405,0.1167,9.7268,-0.0321,0.0325,-0.1235,-1.8030864200987757,0.0,3.0689597129821777,-1.7585234642028809,-0.0,2.0218143463134766,5.0417604623134515,0.0,0.2710264325141907,-1.5966737906085413,-0.0,0.0013701191637665033,0.8781092166900635,-0.0,-0.004237720742821693,0.809894859790802,0.0,-0.006165429018437862
269.0,274.0,-0.2405,0.1167,9.7268,-0.0321,0.0325,-0.1235,-1.803082128564352,0.0,3.0140037536621094,-1.7584996223449707,-0.0,2.0213124752044678,5.041716444283285,0.0,0.2843368649482727,-1.5966737906085413,-0.0,-0.005166713614016771,0.8781535029411316,-0.0,-0.0026077567599713802,0.8098747730255127,0.0,-0.01139405183494091
269.0,274.0,-0.2405,0.1167,9.7268,-0.0321,0.0325,-0.1235,-1.8031145534911097,0.0,2.980020523071289,-1.7585749626159668,-0.0,2.03558611869812,5.041752475291052,0.0,0.295256108045578,-1.5966461340533655,-0.0,-0.004263680428266525,0.8781415224075317,-0.0,0.0023139468394219875,0.8099147081375122,0.0,-0.040748484432697296
269.0,274.0,-0.2405,0.1167,9.7268,-0.0321,0.0325,-0.1235,-1.8031307659544886,0.0,2.991387367248535,-1.758543848991394,-0.0,2.0258307456970215,5.041732388525762,0.0,0.2849276065826416,-1.596649471913473,-0.0,-0.009013823233544827,0.8781574964523315,-0.0,0.005511573050171137,0.8099310994148254,0.0,0.0541854128241539
269.0,274.0,-0.2405,0.1167,9.7268,-0.0321,0.0325,-0.1235,-1.8030535183348597,0.0,3.01188063621521,-1.7585318088531494,-0.0,2.0242691040039062,5.041752475291052,0.0,0.2888653576374054,-1.5966375509845179,-0.0,-0.006049592047929764,0.8781172037124634,-0.0,-0.001946576638147235,0.8099151849746704,0.0,0.008693600073456764
269.0,274.0,-0.2405,0.1167,9.7268,-0.0321,0.0325,-0.1235,-1.8031183681883753,0.0,2.944138526916504,-1.7585514783859253,-0.0,2.006810188293457,5.041752475291052,0.0,0.2796381711959839,-1.5966418425189417,-0.0,-0.000523794034961611,0.8781535029411316,-0.0,0.002122917678207159,0.809894859790802,0.0,-0.01677527278661728
269.0,274.0,-0.2405,0.1167,9.7268,-0.0321,0.0325,-0.1235,-1.8031021557249964,0.0,3.0652318000793457,-1.7585110664367676,-0.0,2.0424203872680664,5.041748511582174,0.0,0.28549373149871826,-1.5966294447528284,-0.0,-0.011236492544412613,0.8781773447990417,-0.0,-0.0017219013534486294,0.8099151253700256,0.0,-0.03504003584384918
269.0,274.0,-0.2405,0.1167,9.7268,-0.0321,0.0325,-0.1235,-1.8030654392638148,0.0,3.030825614929199,-1.7584954500198364,-0.0,2.045657157897949,5.041724669724264,0.0,0.2810969054698944,-1.5966375509845179,-0.0,-0.010414120741188526,0.8781171441078186,-0.0,0.002083297586068511,0.8099433183670044,0.0,0.028709672391414642
269.0,274.0,-0.2405,0.1167,9.7268,-0.0321,0.0325,-0.1235,-1.8031183681883753,0.0,3.0128917694091797,-1.7585029602050781,-0.0,2.048879861831665,5.041760432511129,0.0,0.27886152267456055,-1.596649471913473,-0.0,-0.015613600611686707,0.878125011920929,-0.0,-0.010042380541563034,0.8099310994148254,0.0,-0.016330178827047348
269.0,274.0,-0.2405,0.1167,9.7268,-0.0321,0.0325,-0.1235,-1.8031426868834437,0.0,3.0354137420654297,-1.7585514783859253,-0.0,2.011834144592285,5.041724610119619,0.0,0.27690958976745605,-1.5967062155352991,-0.0,-0.016755295917391777,0.8781369924545288,-0.0,0.009083975106477737,0.8099392652511597,0.0,-0.0021824100986123085
271.0,284.0,-0.1406,0.1597,9.5169,-0.0373,0.0298,-0.1275,-1.803082128564352,0.0,2.9962944984436035,-1.7585676908493042,-0.0,2.0203027725219727,5.041772621660986,0.0,0.29235410690307617,-1.596649471913473,-0.0,-0.018398631364107132,0.8781250715255737,-0.0,-0.005594809073954821,0.8099310994148254,0.0,-0.010307002812623978
271.0,284.0,-0.1406,0.1597,9.5169,-0.0373,0.0298,-0.1275,-1.8030864200987757,0.0,3.007276773452759,-1.758579134941101,-0.0,1.991383671760559,5.041728663235464,0.0,0.27100884914398193,-1.5966337362872522,-0.0,-0.01027238555252552,0.8781574368476868,-0.0,-0.007466823793947697,0.8099310994148254,0.0,-0.011244306340813637
271.0,284.0,-0.1406,0.1597,9.5169,-0.0373,0.0298,-0.1275,-1.8031264744200648,0.0,2.981877326965332,-1.7585439682006836,-0.0,2.0457332134246826,5.041796493321218,0.0,0.2881914973258972,-1.5966461340533655,-0.0,-0.0053460984490811825,0.8781172037124634,-0.0,-0.005350520834326744,0.8099877834320068,0.0,-0.035742394626140594
271.0,284.0,-0.1406,0.1597,9.5169,-0.0373,0.0298,-0.1275,-1.8031021557249964,0.0,3.023566722869873,-1.758570909500122,-0.0,2.0301389694213867,5.041796493321218,0.0,0.2765098214149475,-1.5966780821429651,-0.0,-0.007508412003517151,0.8781369924545288,-0.0,0.0045668696984648705,0.8099269866943359,0.0,0.02843918465077877
271.0,284.0,-0.1406,0.1597,9.5169,-0.0373,0.0298,-0.1275,-1.8031383953490199,0.0,2.9929990768432617,-1.7585029602050781,-0.0,2.033046007156372,5.04170839765624,0.0,0.26838645339012146,-1.5966218153582972,-0.0,-0.005400685127824545,0.878125011920929,-0.0,-0.012317845597863197,0.8099069595336914,0.0,-0.039366286247968674
271.0,284.0,-0.1406,0.1597,9.5169,-0.0373,0.0298,-0.1275,-1.8030983410277308,0.0,3.0343260765075684,-1.7585153579711914,-0.0,2.0313453674316406,5.041740613966741,0.0,0.28831979632377625,-1.5966375509845179,-0.0,-0.006521782372146845,0.8781653642654419,-0.0,0.0009368583559989929,0.8099069595336914,0.0,0.004604576155543327
271.0,284.0,-0.1406,0.1597,9.5169,-0.0373,0.0298,-0.1275,-1.8031546078123988,0.0,3.001466989517212,-1.7585601806640625,-0.0,2.028569221496582,5.0417445478732965,0.0,0.28024622797966003,-1.5966375509845179,-0.0,-0.006281441543251276,0.8781130909919739,-0.0,0.005388871766626835,0.8099310994148254,0.0,-0.008561540395021439
271.0,284.0,-0.1406,0.1597,9.5169,-0.0373,0.0298,-0.1275,-1.8030945263304652,0.0,3.0084428787231445,-1.7584556341171265,-0.0,1.9919962882995605,5.041756379395284,0.0,0.30399322509765625,-1.5966256300555628,-0.0,-0.0038960622623562813,0.8781131505966187,-0.0,-0.003656189888715744,0.8099191784858704,0.0,0.013169814832508564
271.0,284.0,-0.1406,0.1597,9.5169,-0.0373,0.0298,-0.1275,-1.8031426868834437,0.0,3.0011792182922363,-1.7585277557373047,-0.0,1.9620940685272217,5.041760432511129,0.0,0.2873217761516571,-1.5966818968402308,-0.0,-0.006079212762415409,0.878125011920929,-0.0,-0.010676944628357887,0.8099557161331177,0.0,0.007082062307745218
271.0,284.0,-0.1406,0.1597,9.5169,-0.0373,0.0298,-0.1275,-1.8031264744200648,0.0,2.958423614501953,-1.7585396766662598,-0.0,2.050138235092163,5.041772413044729,0.0,0.2736324965953827,-1.5966699759112757,-0.0,-0.013152701780200005,0.8780813813209534,-0.0,0.0074599506333470345,0.8099552392959595,0.0,-0.005070889368653297
271.0,284.0,-0.1406,0.1597,9.5169,-0.0373,0.0298,-0.1275,-1.8031383953490199,0.0,2.997568130493164,-1.7585029602050781,-0.0,2.0409371852874756,5.041740673571386,0.0,0.2831295132637024,-1.5966461340533655,-0.0,0.0022893701680004597,0.8781289458274841,-0.0,0.0013330492656677961,0.8099229335784912,0.0,0.03320108354091644
271.0,284.0,-0.1406,0.1597,9.5169,-0.0373,0.0298,-0.1275,-1.8030945263304652,0.0,3.004697799682617,-1.7585594654083252,-0.0,2.0212478637695312,5.041800457030096,0.0,0.2770485579967499,-1.5966337362872522,-0.0,0.003489662893116474,0.8781330585479736,-0.0,-0.010683117434382439,0.809894859790802,0.0,0.03456499055027962
268.0,281.0,-0.1813,0.0999,9.6335,-0.0388,0.0278,-0.1248,-1.803094049493307,0.0,3.0427374839782715,-1.7585275173187256,-0.0,2.016059398651123,5.041764396220007,0.0,0.2833138704299927,-1.596649471913473,-0.0,-0.012140266597270966,0.878089427947998,-0.0,-0.009796813130378723,0.8099310994148254,0.0,0.03322087973356247
268.0,281.0,-0.1813,0.0999,9.6335,-0.0388,0.0278,-0.1248,-1.803110261956686,0.0,2.9838335514068604,-1.7585151195526123,-0.0,2.010458469390869,5.0417284844215295,0.0,0.2788722813129425,-1.5966656843768519,-0.0,0.016029883176088333,0.8781653642654419,-0.0,0.006642234046012163,0.8098544478416443,0.0,0.02206970751285553
268.0,281.0,-0.1813,0.0999,9.6335,-0.0388,0.0278,-0.1248,-1.8030859432616175,0.0,3.032170534133911,-1.7584832906723022,-0.0,2.033167600631714,5.041728663235464,0.0,0.282225638628006,-1.5966175238238733,-0.0,0.0004909252747893333,0.8781534433364868,-0.0,0.006098369602113962,0.8099552989006042,0.0,-0.006955438759177923
268.0,281.0,-0.1813,0.0999,9.6335,-0.0388,0.0278,-0.1248,-1.8031021557249964,0.0,2.991934061050415,-1.7585194110870361,-0.0,2.012833595275879,5.041764396220007,0.0,0.2807118594646454,-1.5966218153582972,-0.0,0.00453915074467659,0.8781409859657288,-0.0,0.0039319489151239395,0.8099110126495361,0.0,0.017232613638043404
268.0,281.0,-0.1813,0.0999,9.6335,-0.0388,0.0278,-0.1248,-1.8031264744200648,0.0,3.031303882598877,-1.7585234642028809,-0.0,1.99836266040802,5.041732626944341,0.0,0.2720722258090973,-1.5966175238238733,-0.0,-0.0075651491060853004,0.8781013488769531,-0.0,-0.008745670318603516,0.8098989725112915,0.0,-0.0022169891744852066
268.0,281.0,-0.1813,0.0999,9.6335,-0.0388,0.0278,-0.1248,-1.8031064472594203,0.0,3.0098581314086914,-1.7585514783859253,-0.0,2.025986671447754,5.041760551720419,0.0,0.2721306085586548,-1.5966056028949183,-0.0,0.0013204868882894516,0.8780854344367981,-0.0,-0.00643148273229599,0.8099229335784912,0.0,0.004284667782485485
268.0,281.0,-0.1813,0.0999,9.6335,-0.0388,0.0278,-0.1248,-1.8031183681883753,0.0,3.008678436279297,-1.7585110664367676,-0.0,2.049990653991699,5.04172037818984,0.0,0.2803727388381958,-1.5966537634478968,-0.0,-0.0031486358493566513,0.8781613111495972,-0.0,-0.01418075617402792,0.809894859790802,0.0,-0.01804898865520954
268.0,281.0,-0.1813,0.0999,9.6335,-0.0388,0.0278,-0.1248,-1.8031226597227992,0.0,3.082566738128662,-1.7584513425827026,-0.0,2.0286569595336914,5.041752475291052,0.0,0.2873256206512451,-1.5967024008380335,-0.0,-0.005200139246881008,0.8781852722167969,-0.0,-0.00916057638823986,0.8098788857460022,0.0,-0.023806994780898094
268.0,281.0,-0.1813,0.0999,9.6335,-0.0388,0.0278,-0.1248,-1.8031145534911097,0.0,3.0355401039123535,-1.7585194110870361,-0.0,2.0377438068389893,5.041756528406896,0.0,0.2900162935256958,-1.596633259450094,-0.0,-0.007169017568230629,0.8780932426452637,-0.0,-0.006460705306380987,0.8099515438079834,0.0,-0.002853022888302803
268.0,281.0,-0.1813,0.0999,9.6335,-0.0388,0.0278,-0.1248,-1.8031145534911097,0.0,3.0225448608398438,-1.7585439682006836,-0.0,2.0614352226257324,5.041740643769064,0.0,0.2809290885925293,-1.5966861883746546,-0.0,-0.0003814557858277112,0.8781211376190186,-0.0,0.0024326073471456766,0.809894859790802,0.0,0.0016257197130471468
268.0,281.0,-0.1813,0.0999,9.6335,-0.0388,0.0278,-0.1248,-1.8031426868834437,0.0,3.0139060020446777,-1.7585036754608154,-0.0,2.0892488956451416,5.041768359928884,0.0,0.28940069675445557,-1.59660512605776,-0.0,-0.01700872927904129,0.8780814409255981,-0.0,0.006853824015706778,0.8099027276039124,0.0,0.0223980899900198
268.0,281.0,-0.1813,0.0999,9.6335,-0.0388,0.0278,-0.1248,-1.8031183681883753,0.0,2.996713161468506,-1.7585480213165283,-0.0,2.028874397277832,5.0417445478732965,0.0,0.28674548864364624,-1.596661392842428,-0.0,-0.016465332359075546,0.8781211376190186,-0.0,0.0072347186505794525,0.8099311590194702,0.0,0.05197584629058838
268.0,281.0,-0.1813,0.0999,9.6335,-0.0388,0.0278,-0.1248,-1.8031021557249964,0.0,2.9863386154174805,-1.758535623550415,-0.0,1.9951401948928833,5.0417485413844965,0.0,0.27215614914894104,-1.5966737906085413,-0.0,-0.022795047610998154,0.8781574368476868,-0.0,0.00528066186234355,0.80995112657547,0.0,-0.024919632822275162
272.0,287.0,-0.0802,0.1932,9.5557,-0.0354,0.0278,-0.1206,-1.8031465015807093,0.0,2.9856858253479004,-1.7584874629974365,-0.0,2.0142621994018555,5.041764396220007,0.0,0.27807289361953735,-1.596654240285055,-0.0,-0.013390774838626385,0.8781131505966187,-0.0,0.005388953723013401,0.809894859790802,0.0,-0.02379046007990837
272.0,287.0,-0.0802,0.1932,9.5557,-0.0354,0.0278,-0.1206,-1.8031021557249964,0.0,3.0358457565307617,-1.7584996223449707,-0.0,2.0012259483337402,5.041796493321218,0.0,0.2892339825630188,-1.596661392842428,-0.0,-0.0025158002972602844,0.8781409859657288,-0.0,-0.001866145757958293,0.8099110126495361,0.0,-0.01261739619076252
272.0,287.0,-0.0802,0.1932,9.5557,-0.0354,0.0278,-0.1206,-1.8031383953490199,0.0,3.027704954147339,-1.7585480213165283,-0.0,2.0524702072143555,5.0417765257652185,0.0,0.28071725368499756,-1.5967024008380335,-0.0,-0.01359193678945303,0.8781495690345764,-0.0,-0.007091912906616926,0.8099270462989807,0.0,-0.011270797811448574
272.0,287.0,-0.0802,0.1932,9.5557,-0.0354,0.0278,-0.1206,-1.8031226597227992,0.0,3.014291763305664,-1.758479356765747,-0.0,2.0015084743499756,5.041756558209219,0.0,0.29237255454063416,-1.5966537634478968,-0.0,-0.008780835196375847,0.8780972957611084,-0.0,0.0027812165208160877,0.8099433779716492,0.0,0.009976307861506939
272.0,287.0,-0.0802,0.1932,9.5557,-0.0354,0.0278,-0.1206,-1.8031183681883753,0.0,2.9838356971740723,-1.7585315704345703,-0.0,1.99016273021698,5.041776644974508,0.0,0.29666703939437866,-1.5966575781451624,-0.0,-0.004665921442210674,0.8781495690345764,-0.0,0.0033717832993716,0.80995112657547,0.0,-0.004838716704398394
272.0,287.0,-0.0802,0.1932,9.5557,-0.0354,0.0278,-0.1206,-1.803138872186178,0.0,3.0134212970733643,-1.7585275173187256,-0.0,2.0387659072875977,5.041760432511129,0.0,0.2821195125579834,-1.5966575781451624,-0.0,-0.004707199987024069,0.8781013488769531,-0.0,-0.012155560776591301,0.809894859790802,0.0,0.02424602024257183
272.0,287.0,-0.0802,0.1932,9.5557,-0.0354,0.0278,-0.1206,-1.8031426868834437,0.0,3.023312568664551,-1.7585668563842773,-0.0,2.0662808418273926,5.041780608683386,0.0,0.2783016860485077,-1.5966256300555628,-0.0,-0.010563874617218971,0.8781211376190186,-0.0,0.012005321681499481,0.8099474906921387,9.62576199303733e-11,0.004699035547673702
272.0,287.0,-0.0802,0.1932,9.5557,-0.0354,0.0278,-0.1206,-1.8031383953490199,0.0,3.0286507606506348,-1.7585275173187256,-0.0,2.038156032562256,5.041760432511129,0.0,0.2779085636138916,-1.5967062155352991,-0.0,-0.0014416546327993274,0.8781092762947083,-0.0,0.003642628900706768,0.8099229335784912,2.324508546683036e-16,0.011203750036656857
272.0,287.0,-0.0802,0.1932,9.5557,-0.0354,0.0278,-0.1206,-1.803150316277975,0.0,3.0288357734680176,-1.7585036754608154,-0.0,2.0867159366607666,5.041736531048574,0.0,0.28787243366241455,-1.5966580549823206,-0.0,-0.0102536054328084,0.8781010508537292,-0.0,-0.004062811844050884,0.8098871111869812,7.531110700599344e-24,-0.04501684755086899
272.0,287.0,-0.0802,0.1932,9.5557,-0.0354,0.0278,-0.1206,-1.8031183681883753,0.0,3.048809766769409,-1.7585234642028809,-0.0,2.0251784324645996,5.041744577675619,0.0,0.2790358066558838,-1.5966580549823206,-0.0,-0.012074251659214497,0.8781538009643555,-0.0,-0.003967415541410446,0.8098747730255127,2.4399839683521094e-31,-0.050419364124536514
272.0,287.0,-0.0802,0.1932,9.5557,-0.0354,0.0278,-0.1206,-1.803150316277975,0.0,3.0435404777526855,-1.7584989070892334,-0.0,2.043410062789917,5.041760432511129,0.0,0.28237277269363403,-1.5966294447528284,-0.0,-0.009760399349033833,0.8780730962753296,-0.0,-0.003870215732604265,0.8099311590194702,5.8922739500497934e-37,-0.0246055256575346
272.0,287.0,-0.0802,0.1932,9.5557,-0.0354,0.0278,-0.1206,-1.8031021557249964,0.0,2.9955554008483887,-1.7585439682006836,-0.0,2.0343379974365234,5.041748511582174,0.0,0.2753826081752777,-1.5966337362872522,-0.0,-0.005476821679621935,0.8781330585479736,-0.0,0.006111226975917816,0.8099068999290466,1.961817850054744e-44,-0.026169756427407265
271.0,276.0,-0.1226,0.2387,9.5946,-0.0368,0.025,-0.1214,-1.8031064472594203,0.0,3.05812406539917,-1.7585234642028809,-0.0,1.9867677688598633,5.041732626944341,0.0,0.2886640131473541,-1.5966175238238733,-0.0,-0.0063199372962117195,0.8781051635742188,-0.0,-0.005338782910257578,0.8099069595336914,0.0,0.007463804911822081
271.0,276.0,-0.1226,0.2387,9.5946,-0.0368,0.025,-0.1214,-1.8031350574889125,0.0,2.995281457901001,-1.7585318088531494,-0.0,2.0084657669067383,5.041792559414663,0.0,0.2991142272949219,-1.5966656843768519,-0.0,0.0004213489592075348,0.8781371116638184,-0.0,-0.0035737049765884876,0.8099229335784912,0.0,0.04365798830986023
271.0,276.0,-0.1226,0.2387,9.5946,-0.0368,0.025,-0.1214,-1.8031183681883753,0.0,3.0489554405212402,-1.7585636377334595,-0.0,2.044100761413574,5.041748511582174,0.0,0.2907329797744751,-1.5966580549823206,-0.0,-0.016315294429659843,0.8781333565711975,-0.0,0.0008754332666285336,0.8099110126495361,0.0,0.005802054423838854
271.0,276.0,-0.1226,0.2387,9.5946,-0.0368,0.025,-0.1214,-1.8031302891173304,0.0,2.9883484840393066,-1.758547306060791,-0.0,2.0366435050964355,5.041768628149786,0.0,0.2780877947807312,-1.5966537634478968,-0.0,0.002559532644227147,0.8781010508537292,-0.0,-0.014389494433999062,0.8099433183670044,0.0,-0.03032252937555313
271.0,276.0,-0.1226,0.2387,9.5946,-0.0368,0.025,-0.1214,-1.8030902347960414,0.0,2.9760236740112305,-1.7585595846176147,-0.0,2.0013890266418457,5.04171239116744,0.0,0.2856779098510742,-1.5966575781451624,-0.0,-0.001794698997400701,0.8780767917633057,-0.0,-0.01600201241672039,0.8099552989006042,0.0,-0.014587690122425556
271.0,276.0,-0.1226,0.2387,9.5946,-0.0368,0.025,-0.1214,-1.8031064472594203,0.0,3.007162570953369,-1.758552074432373,-0.0,2.0052099227905273,5.041780608683386,0.0,0.28984013199806213,-1.596649471913473,-0.0,-0.0018367012962698936,0.8780612349510193,-0.0,-0.012533733621239662,0.8099027872085571,4.354840348241851e-05,-0.03916458413004875
271.0,276.0,-0.1226,0.2387,9.5946,-0.0368,0.025,-0.1214,-1.8031140766539515,0.0,3.0341014862060547,-1.7585036754608154,-0.0,2.059642791748047,5.041768389731207,0.0,0.2857722342014313,-1.596722427998678,-0.0,-0.005316701252013445,0.8780891299247742,-0.0,0.0015636282041668892,0.8099750280380249,0.0005977535038255155,-0.008174764923751354
271.0,276.0,-0.1226,0.2387,9.5946,-0.0368,0.025,-0.1214,-1.8030945263304652,0.0,3.0007290840148926,-1.758571743965149,-0.0,1.999945044517517,5.041736590653219,0.0,0.2870674431324005,-1.5966575781451624,-0.0,-0.009282724931836128,0.8781817555427551,-0.0,0.004632673691958189,0.8099466562271118,0.0016699994448572397,-0.00447001401335001
271.0,276.0,-0.1226,0.2387,9.5946,-0.0368,0.025,-0.1214,-1.8031259975829066,0.0,3.0222327709198,-1.7585554122924805,-0.0,2.013700246810913,5.041728663235464,0.0,0.2933444380760193,-1.5966456572162073,-0.0,-0.008647730574011803,0.8780927658081055,-0.0,-5.7614874094724655e-05,0.8099747896194458,0.002491890685632825,0.03158094733953476
271.0,276.0,-0.1226,0.2387,9.5946,-0.0368,0.025,-0.1214,-1.8031226597227992,0.0,3.0242366790771484,-1.7585070133209229,-0.0,2.0346734523773193,5.041752534895696,0.0,0.2904546558856964,-1.5967024008380335,-0.0,-0.006569364108145237,0.8781697750091553,-0.0,0.0003934017149731517,0.8100232481956482,0.006049228832125664,0.0121216531842947
271.0,276.0,-0.1226,0.2387,9.5946,-0.0368,0.025,-0.1214,-1.803150316277975,0.0,2.9984378814697266,-1.7585275173187256,-0.0,2.0038599967956543,5.041712420969763,0.0,0.28696775436401367,-1.5967024008380335,-0.0,-0.01515098474919796,0.878089189529419,-0.0,-0.012578900903463364,0.8100754618644714,0.007719448301941156,-0.011100566945970058
271.0,276.0,-0.1226,0.2387,9.5946,-0.0368,0.025,-0.1214,-1.8030902347960414,0.0,3.022897720336914,-1.7584750652313232,-0.0,2.0154662132263184,5.0417286334331415,0.0,0.2825629413127899,-1.596649471913473,-0.0,-0.011421848088502884,0.8781657218933105,-0.0,-0.010358765721321106,0.810147762298584,0.007061124313622713,3.440910950303078e-05
271.0,276.0,-0.1226,0.2387,9.5946,-0.0368,0.025,-0.1214,-1.8031021557249964,0.0,3.0928361415863037,-1.7585232257843018,-0.0,2.0289688110351562,5.041712420969763,0.0,0.27349308133125305,-1.596649471913473,-0.0,-0.01464783027768135,0.8781454563140869,-0.0,0.003004551399499178,0.8101794123649597,0.00658206082880497,0.049917493015527725
277.0,283.0,-0.1729,0.0383,9.548,-0.0374,0.0206,-0.1072,-1.8031259975829066,0.0,2.9919090270996094,-1.7585234642028809,-0.0,2.0197367668151855,5.0417485413844965,0.0,0.28237980604171753,-1.596661392842428,-0.0,-0.00953306257724762,0.8781330585479736,-0.0,-0.008654456585645676,0.8102070093154907,0.006230327300727367,0.01207615528255701
277.0,283.0,-0.1729,0.0383,9.548,-0.0374,0.0206,-0.1072,-1.803122182885641,0.0,2.9949212074279785,-1.7585358619689941,-0.0,2.0483953952789307,5.041760581522741,0.0,0.28474754095077515,-1.5967143217669886,-0.0,-0.0056693232618272305,0.8781497478485107,-0.0,0.0011397656053304672,0.8102473020553589,0.004968174733221531,-0.062315963208675385
277.0,283.0,-0.1729,0.0383,9.548,-0.0374,0.0206,-0.1072,-1.803167005578512,0.0,3.0366108417510986,-1.7585514783859253,-0.0,2.0266990661621094,5.041732626944341,0.0,0.2823253870010376,-1.5966456572162073,-0.0,-0.0035030667204409838,0.8781170845031738,-0.0,-0.005734279751777649,0.8102468252182007,0.0035426209215074778,0.0704694464802742
277.0,283.0,-0.1729,0.0383,9.548,-0.0374,0.0206,-0.1072,-1.8031140766539515,0.0,3.0268898010253906,-1.75858736038208,-0.0,2.0282418727874756,5.0416921255882166,0.0,0.29576992988586426,-1.5967024008380335,-0.0,-0.013113594613969326,0.8781087398529053,-0.0,0.002447371371090412,0.8103436827659607,0.0020444944966584444,-0.028066318482160568
277.0,283.0,-0.1729,0.0383,9.548,-0.0374,0.0206,-0.1072,-1.8031588993468226,0.0,3.0040736198425293,-1.7585554122924805,-0.0,2.0444815158843994,5.04178066828803,0.0,0.28952181339263916,-1.5967062155352991,-0.0,0.0071567753329873085,0.8781010508537292,-0.0,-0.002992431167513132,0.8102912306785583,0.00075794622534886,0.008623290807008743
277.0,283.0,-0.1729,0.0383,9.548,-0.0374,0.0206,-0.1072,-1.8031627140440882,0.0,3.0362839698791504,-1.758479118347168,-0.0,2.0838377475738525,5.041752475291052,0.0,0.27772074937820435,-1.5967024008380335,-0.0,-0.001928752870298922,0.878173828125,-0.0,-0.014222100377082825,0.8102912306785583,0.0005033426568843424,-0.026778820902109146
277.0,283.0,-0.1729,0.0383,9.548,-0.0374,0.0206,-0.1072,-1.8031665287413539,0.0,2.985445261001587,-1.7585153579711914,-0.0,2.0096702575683594,5.04171638467864,0.0,0.2812609374523163,-1.5966699759112757,-0.0,-0.018282877281308174,0.878157377243042,-0.0,0.007547521963715553,0.8103077411651611,0.0003477070131339133,-0.011144474148750305
277.0,283.0,-0.1729,0.0383,9.548,-0.0374,0.0206,-0.1072,-1.8031546078123988,-0.00021353633201215416,3.047919988632202,-1.7584987878799438,-0.0,1.9589054584503174,5.041708218842306,0.0,0.28671953082084656,-1.596682373677389,-0.0,-0.01063467375934124,0.8781211972236633,-0.0,-0.006207205355167389,0.8102267384529114,0.00016963659436441958,0.04868745058774948
277.0,283.0,-0.1729,0.0383,9.548,-0.0374,0.0206,-0.1072,-1.8031422100462855,-0.00021546659991145134,3.01566219329834,-1.7585152387619019,-0.0,2.008262872695923,5.041692364006796,0.0,0.2960759997367859,-1.5966418425189417,-0.0,0.0016571901505813003,0.8780972957611084,-0.0,-0.014185156673192978,0.810303807258606,-0.00020370019774418324,0.03378014266490936
277.0,283.0,-0.1729,0.0383,9.548,-0.0374,0.0206,-0.1072,-1.8031422100462855,-0.00021677759650629014,3.037001132965088,-1.7585399150848389,-0.0,2.006422519683838,5.041708248644628,0.0,0.28331708908081055,-1.5966013113604944,-0.0,-0.0029559298418462276,0.8781371712684631,-0.0,-0.011278248392045498,0.8102555274963379,-0.0009300037636421621,-0.01000959426164627
277.0,283.0,-0.1729,0.0383,9.548,-0.0374,0.0206,-0.1072,-1.8031708202757777,-0.00022492928837891668,3.0247082710266113,-1.7585636377334595,-0.0,2.0200724601745605,5.041708367853918,0.0,0.2849133610725403,-1.5966461340533655,-0.0,-0.01189827173948288,0.8781656622886658,-0.0,-0.0027653337456285954,0.8102715015411377,-0.001382429851219058,-0.03039734438061714
277.0,283.0,-0.1729,0.0383,9.548,-0.0374,0.0206,-0.1072,-1.8032027683653773,-0.00032300379825755954,3.042999744415283,-1.758583426475525,-0.0,2.0368173122406006,5.04170839765624,0.0,0.29376861453056335,-1.5966175238238733,-0.0,-0.014690488576889038,0.8780807852745056,-0.0,0.00021794310305267572,0.8102233409881592,-0.0008666273206472397,0.01823086477816105
272.0,279.0,-0.2788,-0.2979,9.5486,-0.0466,0.0267,-0.1184,-1.8031860790648402,-0.0006104708882048726,3.0609889030456543,-1.7585153579711914,-0.0,2.0687496662139893,5.041692453413763,0.0,0.2907693684101105,-1.5966418425189417,-0.0,-0.001935007981956005,0.8781252503395081,-0.0,-0.008044678717851639,0.8102233409881592,-0.0006823167786933482,-0.006435155402868986
272.0,279.0,-0.2788,-0.2979,9.5486,-0.0466,0.0267,-0.1184,-1.803202291528219,-0.0011411658488214016,3.024749755859375,-1.758507251739502,-0.0,2.0132908821105957,5.04170041063384,0.0,0.2818761467933655,-1.5966580549823206,-0.0,-0.006029495969414711,0.8781977295875549,-0.0,0.003081483067944646,0.8101869225502014,-0.0004760163719765842,-0.015569789335131645
272.0,279.0,-0.2788,-0.2979,9.5486,-0.0466,0.0267,-0.1184,-1.8032342396178187,-0.0015041253063827753,3.0429773330688477,-1.7585399150848389,-0.0,1.9706013202667236,5.041712361365118,0.0,0.27343642711639404,-1.5966461340533655,-0.0,-0.01180120836943388,0.87811279296875,-0.0,-0.010988892987370491,0.810231626033783,-7.188022573245689e-05,-0.010335240513086319
272.0,279.0,-0.2788,-0.2979,9.5486,-0.0466,0.0267,-0.1184,-1.8032385311522425,-0.0023639558348804712,2.9987940788269043,-1.7585399150848389,-0.0,2.0561554431915283,5.041684466391363,0.0,0.29664289951324463,-1.5966418425189417,-0.0,-0.02820052206516266,0.8781372904777527,-0.0,-0.008907697163522243,0.8102473020553589,-3.1173168935083595e-08,0.0017107371240854263
272.0,279.0,-0.2788,-0.2979,9.5486,-0.0466,0.0267,-0.1184,-1.8032990894713343,-0.004760124254971743,3.0114824771881104,-1.7585433721542358,-0.0,2.0399155616760254,5.041684466391363,0.0,0.28372517228126526,-1.596638027821676,-0.0,-0.017667630687355995,0.8781853318214417,-0.0,-0.005343843251466751,0.8102473020553589,-1.0099710637243345e-15,-0.062039997428655624
272.0,279.0,-0.2788,-0.2979,9.5486,-0.0466,0.0267,-0.1184,-1.8033348522581996,-0.00664776423946023,2.9991211891174316,-1.758562684059143,-4.426895611686632e-05,2.03149151802063,5.041732448130407,-7.104825635906309e-05,0.2903435230255127,-1.5966180006610315,-0.0,-0.0010753958486020565,0.8781774640083313,-0.0,0.006414756644517183,0.8102390766143799,0.0008580582798458636,-0.014686004258692265
272.0,279.0,-0.2788,-0.2979,9.5486,-0.0466,0.0267,-0.1184,-1.8033629856505335,-0.008592761121690273,3.0236504077911377,-1.7584874629974365,-2.0278255760786124e-05,2.033775806427002,5.0417284844215295,-6.515364657389e-05,0.2730228304862976,-1.5966375509845179,-0.0,-0.002850094111636281,0.8781697750091553,-0.0,0.016292622312903404,0.8102754354476929,0.0010395079152658582,0.018167171627283096
272.0,279.0,-0.2788,-0.2979,9.5486,-0.0466,0.0267,-0.1184,-1.803478857079977,-0.008798930794000626,3.0313334465026855,-1.7585234642028809,-1.8601742340251803e-05,2.0010013580322266,5.041716265469351,-5.691255864803679e-05,0.28175610303878784,-1.5966461340533655,-0.0,-0.008223092183470726,0.8781372904777527,-0.0,0.005784878507256508,0.8103519082069397,0.0012310609454289079,0.01731347292661667
272.0,279.0,-0.2788,-0.2979,9.5486,-0.0466,0.0267,-0.1184,-1.8035351238646449,-0.010346867144107819,2.9941208362579346,-1.758562684059143,-1.751566924212966e-05,2.0019948482513428,5.0416844365890405,-7.454067963408306e-05,0.2757076621055603,-1.5966418425189417,-0.0,-0.003082456300035119,0.8781692981719971,-0.0,0.0007415115833282471,0.8103516697883606,0.001387271797284484,0.026357941329479218
272.0,279.0,-0.2788,-0.2979,9.5486,-0.0466,0.0267,-0.1184,-1.8036638698973597,-0.012751379050314426,2.9996085166931152,-1.7585068941116333,-1.418840045452896e-11,2.020902633666992,5.041740524559774,-6.989734538365155e-05,0.2794584035873413,-1.5966418425189417,-0.0,0.0007495157769881189,0.8781166076660156,-0.0,0.002486931160092354,0.8103113770484924,0.0017450640443712473,-0.014675132930278778
272.0,279.0,-0.2788,-0.2979,9.5486,-0.0466,0.0267,-0.1184,-1.8037272892394007,-0.013806231319904327,2.984468936920166,-1.7585439682006836,-3.426331982321635e-17,2.0046095848083496,5.041668373137274,-8.574413368478417e-05,0.2831711769104004,-1.596654240285055,-0.0,-0.014821765944361687,0.8782254457473755,-0.0,0.013311843387782574,0.8103474974632263,0.0012699698563665152,-0.017673887312412262
272.0,279.0,-0.2788,-0.2979,9.5486,-0.0466,0.0267,-0.1184,-1.8037954769530238,-0.012471478432416916,2.9644670486450195,-1.758503794670105,0.0016580176306888461,2.0657408237457275,5.041680264263906,-0.00015532830730080605,0.2738988995552063,-1.5965893904315394,-0.0,-0.009466535411775112,0.878197193145752,-0.0,0.008238820359110832,0.8103516697883606,0.0006908026407472789,-0.02913070097565651
272.0,279.0,-0.2788,-0.2979,9.5486,-0.0466,0.0267,-0.1184,-1.803875585595602,-0.012332500889897346,3.014944553375244,-1.758459210395813,0.002474037930369377,2.0628514289855957,5.041660356312551,-0.0009005067986436188,0.2729596197605133,-1.596593205128805,-0.0,-0.006719781085848808,0.8781852722167969,-0.0,0.005698267836123705,0.8103553652763367,0.00042785017285495996,0.008915104903280735
256.0,284.0,-0.2148,0.2279,9.4953,-0.048,0.0009,-0.118,-1.803983827630514,-0.01209874078631401,2.967647075653076,-1.7584561109542847,0.0033411660697311163,2.020051956176758,5.041660475521841,-0.0009668348939158022,0.27629950642585754,-1.59658128419985,-0.0,0.004900150001049042,0.8781453967094421,-0.0,0.021340325474739075,0.8103433847427368,0.00033286988036707044,-0.011460697278380394
256.0,284.0,-0.2148,0.2279,9.4953,-0.048,0.0009,-0.118,-1.804108282128805,-0.013992413878440857,2.970522403717041,-1.7584116458892822,0.004847539123147726,2.010136127471924,5.041608381062307,-0.0010191083420068026,0.27866214513778687,-1.596576992665426,-0.0,-0.006703078746795654,0.8781651854515076,-0.0,0.010998177342116833,0.8103755116462708,0.0002568566706031561,-0.01917630061507225
256.0,284.0,-0.2148,0.2279,9.4953,-0.048,0.0009,-0.118,-1.8042403660216273,-0.016398107632994652,2.945791482925415,-1.758359670639038,0.00479002995416522,2.026287317276001,5.04162426570014,-0.0008674048585817218,0.2786162495613098,-1.596609894429342,-0.0,0.006141566671431065,0.8782013058662415,-0.0,0.017019163817167282,0.8103837966918945,0.0002631592215038836,-0.02531393989920616
256.0,284.0,-0.2148,0.2279,9.4953,-0.048,0.0009,-0.118,-1.80436434368276,-0.019390065222978592,2.9083547592163086,-1.7583037614822388,0.005342836491763592,2.059055805206299,5.041628348618307,-0.0005418836371973157,0.27305513620376587,-1.596609894429342,6.103381383582018e-05,0.00314024044200778,0.8782782554626465,-0.0,0.024476613849401474,0.8103511333465576,0.0002569237258285284,-0.04288153722882271
256.0,284.0,-0.2148,0.2279,9.4953,-0.048,0.0009,-0.118,-1.804516931573385,-0.01978411339223385,2.9382004737854004,-1.7582716941833496,0.0056280759163200855,2.058319330215454,5.041648554592886,-0.00036285846726968884,0.2644197642803192,-1.5965617338763636,5.812062954646535e-05,0.01044216938316822,0.8782172799110413,-0.0,0.020215952768921852,0.8103029131889343,0.0002208945224992931,-0.08351253718137741
256.0,284.0,-0.2148,0.2279,9.4953,-0.048,0.0009,-0.118,-1.8046733341612757,-0.019902102649211884,2.818024158477783,-1.7582393884658813,0.005293877795338631,2.0537891387939453,5.041652428894796,-0.00034948336542584,0.24822722375392914,-1.5965736548053187,6.709422450512648e-05,0.02750314772129059,0.8781611919403076,-0.0,0.021707138046622276,0.8103351593017578,6.69941000523977e-05,-0.07674650102853775
256.0,284.0,-0.2148,0.2279,9.4953,-0.048,0.0009,-0.118,-1.804805418054098,-0.02222456783056259,2.808993339538574,-1.758211612701416,0.005794620607048273,2.046665668487549,5.041628348618307,-0.0003242198727093637,0.2535792291164398,-1.596597973500387,6.396199023583904e-05,0.010048105381429195,0.8782373666763306,-0.0,0.016220614314079285,0.8103190064430237,2.9559314498328604e-05,-0.10883866250514984
256.0,284.0,-0.2148,0.2279,9.4953,-0.048,0.0009,-0.118,-1.8049332104124964,-0.02277836762368679,2.782520055770874,-1.7581928968429565,0.006162355653941631,2.0251123905181885,5.0416763601596735,-0.00028116890462115407,0.22550591826438904,-1.596597973500387,7.171698234742507e-05,0.034711308777332306,0.8782336115837097,-0.0,0.0318475067615509,0.8103433847427368,4.3208121525140086e-08,-0.1066465824842453
256.0,284.0,-0.2148,0.2279,9.4953,-0.048,0.0009,-0.118,-1.8051215610899867,-0.024705495685338974,2.788203716278076,-1.7581360340118408,0.006576821208000183,2.0460264682769775,5.04160441735343,-0.0002724955265875906,0.23592470586299896,-1.596569840108053,4.549004188447725e-06,0.035802457481622696,0.8782336115837097,-0.0,0.03355614095926285,0.8103313446044922,1.3998882814327484e-15,-0.09244632720947266
256.0,284.0,-0.2148,0.2279,9.4953,-0.048,0.0009,-0.118,-1.8052813015379847,-0.023534854874014854,2.817418098449707,-1.7580968141555786,0.00772641459479928,2.0699076652526855,5.041624295502462,-0.00023678132856730372,0.22017449140548706,-1.5966017881976526,8.267589390875685e-11,0.030147230252623558,0.8781647682189941,-0.0,0.02157890610396862,0.810258686542511,-0.0007118614157661796,-0.13734710216522217
256.0,284.0,-0.2148,0.2279,9.4953,-0.048,0.0009,-0.118,-1.8054501018919886,-0.021846888586878777,2.7859883308410645,-1.7579834461212158,0.008060256950557232,2.0372304916381836,5.041688221483984,-0.00021551657118834555,0.2340928316116333,-1.5965455214129847,2.3013139787905756e-14,0.031744685024023056,0.8781690001487732,0.00011003378313034773,0.028075385838747025,0.8103031516075134,-0.000614501244854182,-0.11872968822717667
256.0,284.0,-0.2148,0.2279,9.4953,-0.048,0.0009,-0.118,-1.8055860004820765,-0.01794048212468624,2.804070472717285,-1.7579411268234253,0.009655418805778027,2.0500783920288086,5.041624295502462,-0.00019246996089350432,0.22374451160430908,-1.5965779463397425,0.00014429712609853595,0.04750567674636841,0.8781611323356628,0.00010043285874417052,0.029289482161402702,0.8102953433990479,-0.0005619431613013148,-0.17171061038970947
263.0,279.0,0.0568,0.195,9.6042,-0.0365,0.024,-0.1269,-1.8057061634459437,-0.015243015252053738,2.8162484169006348,-1.7579377889633179,0.010320032015442848,2.007810354232788,5.0416405377681635,-0.0001781798928277567,0.21034997701644897,-1.5965412298785608,0.00013246481830719858,0.043978627771139145,0.8781967759132385,9.412716462975368e-05,0.03870365768671036,0.8102750778198242,-0.00042539837886579335,-0.16034334897994995
263.0,279.0,0.0568,0.195,9.6042,-0.0365,0.024,-0.1269,-1.8058349094786585,-0.0137006975710392,2.828120231628418,-1.7578542232513428,0.010743877850472927,2.0479331016540527,5.041628348618307,-0.000162130017997697,0.22869695723056793,-1.5965622107135218,0.0001421979395672679,0.060177095234394073,0.8782132267951965,8.68612842168659e-05,0.02853110246360302,0.8102912306785583,-0.0003081370668951422,-0.159525066614151
263.0,279.0,0.0568,0.195,9.6042,-0.0365,0.024,-0.1269,-1.8059107265868128,-0.010660190135240555,2.7643048763275146,-1.7576892375946045,0.011186418123543262,2.0752623081207275,5.0416763601596735,-0.00011081678530899808,0.21716204285621643,-1.5965173880206507,0.000128657920868136,0.062367722392082214,0.8781893849372864,8.063294808380306e-05,0.025692954659461975,0.8102912306785583,-0.00029025113326497376,-0.21235531568527222
263.0,279.0,0.0568,0.195,9.6042,-0.0365,0.024,-0.1269,-1.8059665165343226,-0.008755718357861042,2.774430990219116,-1.7576175928115845,0.011803476139903069,2.1381726264953613,5.041624295502462,-0.00012347169104032218,0.21282604336738586,-1.596529785786764,0.0001400817563990131,0.03449489176273346,0.8782132267951965,9.08069996512495e-05,0.04192248731851578,0.8103031516075134,-0.0002499432011973113,-0.12610328197479248
263.0,279.0,0.0568,0.195,9.6042,-0.0365,0.024,-0.1269,-1.8060270748534144,-0.006105497945100069,2.739304542541504,-1.7575336694717407,0.012612978927791119,2.0479626655578613,5.041616338282385,-0.00013106742699164897,0.207031711935997,-1.5965536276446741,0.00012864485324826092,0.04976236820220947,0.8782013058662415,8.59755600686185e-05,0.03841337934136391,0.8103193044662476,-0.00021089494111947715,-0.22064253687858582
263.0,279.0,0.0568,0.195,9.6042,-0.0365,0.024,-0.1269,-1.80603088955068,-0.005022907163947821,2.7813429832458496,-1.7574622631072998,0.014718581922352314,2.104950428009033,5.041616338282385,-0.00014218795695342124,0.20344838500022888,-1.596529785786764,0.0001384969218634069,0.06548428535461426,0.8782013058662415,8.205627091228962e-05,0.04206039756536484,0.8102912306785583,-0.00015731426537968218,-0.27837851643562317
263.0,279.0,0.0568,0.195,9.6042,-0.0365,0.024,-0.1269,-1.8060337505736292,-0.0046096136793494225,2.7526581287384033,-1.7573670148849487,0.01597517542541027,2.0817413330078125,5.041660445719518,-0.0004060192150063813,0.20421412587165833,-1.5965455214129847,0.00012863523443229496,0.05889589712023735,0.8781611323356628,7.735427061561495e-05,0.02724597230553627,0.8103474974632263,-0.00013801391469314694,-0.22212865948677063
263.0,279.0,0.0568,0.195,9.6042,-0.0365,0.024,-0.1269,-1.8061472378172816,-0.004850774072110653,2.720595359802246,-1.7572230100631714,0.0181508157402277,2.0692477226257324,5.041600513249197,-0.0010680167470127344,0.19686350226402283,-1.596529785786764,0.000120055592560675,0.06925564259290695,0.8782453536987305,8.532877109246328e-05,0.03507700562477112,0.8103474974632263,-9.834589582169428e-05,-0.22363995015621185
263.0,279.0,0.0568,0.195,9.6042,-0.0365,0.024,-0.1269,-1.8061748943724574,-0.005599272903054953,2.749624729156494,-1.7570703029632568,0.020237712189555168,2.092349052429199,5.041636305838384,-0.0010062215151265264,0.20386332273483276,-1.5965216795550745,0.00012374916695989668,0.0718507319688797,0.8782010078430176,8.202196477213874e-05,0.030711274594068527,0.8103272318840027,-9.089649392990395e-05,-0.21872979402542114
263.0,279.0,0.0568,0.195,9.6042,-0.0365,0.024,-0.1269,-1.8061701260008753,-0.006139280274510384,2.731642723083496,-1.7568943500518799,0.02377214841544628,2.077387571334839,5.041592585831442,-0.0008841902017593384,0.19946332275867462,-1.5965455214129847,0.0001196443336084485,0.0716453343629837,0.8782010078430176,7.79618785600178e-05,0.05320459604263306,0.8102871179580688,-6.201578071340919e-05,-0.18539151549339294
263.0,279.0,0.0568,0.195,9.6042,-0.0365,0.024,-0.1269,-1.8062473736205042,-0.007029564585536718,2.7350902557373047,-1.7567079067230225,0.028237484395503998,2.134498357772827,5.041596638947286,-0.0006400896236300468,0.19560103118419647,-1.5965259710894983,0.0001081426307791844,0.06868726015090942,0.8782169818878174,8.489655010635033e-05,0.048835597932338715,0.8103354573249817,-5.671609687851742e-05,-0.24424341320991516
263.0,279.0,0.0568,0.195,9.6042,-0.0365,0.024,-0.1269,-1.8063270054259242,-0.008516261354088783,2.6766858100891113,-1.7565972805023193,0.031763918697834015,2.144312858581543,5.041604506760397,-0.0005386527045629919,0.19396311044692993,-1.5965259710894983,0.00012086706556146964,0.08202236145734787,0.8782009482383728,8.199646254070103e-05,0.03887021914124489,0.8102989792823792,-5.33538986928761e-05,-0.22387641668319702
263.0,279.0,0.0568,0.195,9.6042,-0.0365,0.024,-0.1269,-1.8064319096007289,-0.010673456825315952,2.6370105743408203,-1.7562487125396729,0.03740017116069794,2.1398274898529053,5.041608500271597,-0.0006063877954147756,0.1800781637430191,-1.5965054670916956,0.00011108373291790485,0.0778866708278656,0.8782293796539307,8.482699922751635e-05,0.047424331307411194,0.8103313446044922,-4.944558531860821e-05,-0.2101411521434784
264.0,280.0,-0.125,0.2028,9.7669,-0.0293,0.0548,-0.1147,-1.80643953899526,-0.011495578102767467,2.6646580696105957,-1.7559891939163208,0.04092865809798241,2.144636392593384,5.041528332024374,-0.000685793929733336,0.18293628096580505,-1.59650165239443,0.00012090343079762533,0.07199537754058838,0.8782454133033752,8.029086166061461e-05,0.0422961562871933,0.8103474974632263,-4.6870572987245396e-05,-0.27453529834747314
264.0,280.0,-0.125,0.2028,9.7669,-0.0293,0.0548,-0.1147,-1.806591650048727,-0.01408368069678545,2.660828113555908,-1.755634069442749,0.04443098232150078,2.1802680492401123,5.041552352696218,-0.001899856491945684,0.1733573079109192,-1.5965259710894983,0.00011328452819725499,0.08401091396808624,0.8782050609588623,8.942533895606175e-05,0.042456112802028656,0.8102990388870239,-5.823716492159292e-05,-0.2869495153427124
264.0,280.0,-0.125,0.2028,9.7669,-0.0293,0.0548,-0.1147,-1.8066593609251917,-0.01638285629451275,2.6279821395874023,-1.755210041999817,0.04796808585524559,2.1519272327423096,5.041524338513174,-0.004737534560263157,0.17975817620754242,-1.596546475087301,0.000120763317681849,0.08665404468774796,0.8782656788825989,8.431386231677607e-05,0.03947054594755173,0.8103031516075134,-5.48735806660261e-05,-0.3395552933216095
264.0,280.0,-0.125,0.2028,9.7669,-0.0293,0.0548,-0.1147,-1.8067594967284144,-0.017281221225857735,2.640166759490967,-1.7549552917480469,0.0494147390127182,2.1615915298461914,5.041492539435186,-0.010258986614644527,0.18918007612228394,-1.5965340773211878,0.00014433047908823937,0.0876513123512268,0.8782816529273987,8.054123463807628e-05,0.05930182337760925,0.810306966304779,-5.2474060794338584e-05,-0.32055288553237915
264.0,280.0,-0.125,0.2028,9.7669,-0.0293,0.0548,-0.1147,-1.80690397838735,-0.019256364554166794,2.6317272186279297,-1.7546292543411255,0.047082193195819855,2.200737953186035,5.041408288269796,-0.010313714854419231,0.176789790391922,-1.5965421835528772,0.00013622980623040348,0.08964546024799347,0.8782292008399963,8.864615665515885e-05,0.06342927366495132,0.8103474974632263,-4.958319914294407e-05,-0.29830044507980347
264.0,280.0,-0.125,0.2028,9.7669,-0.0293,0.0548,-0.1147,-1.8070322475829066,-0.020870154723525047,2.621016263961792,-1.754325270652771,0.04277763143181801,2.141359567642212,5.041352230101385,-0.005014882422983646,0.17753353714942932,-1.5965140501605433,0.00014984940935391933,0.09448786079883575,0.8782050609588623,8.508170139975846e-05,0.048744261264801025,0.8103354573249817,-1.5038867786643095e-05,-0.28288301825523376
264.0,280.0,-0.125,0.2028,9.7669,-0.0293,0.0548,-0.1147,-1.807188173333639,-0.024261627346277237,2.623012065887451,-1.7539700269699097,0.03829651698470116,2.1620137691497803,5.04132832863883,-0.0004915805766358972,0.16918215155601501,-1.5965259710894983,0.00015731915482319891,0.10200411081314087,0.8782252073287964,8.072113996604457e-05,0.05454675853252411,0.8103110194206238,-1.2903707101941109e-05,-0.3129858672618866
264.0,280.0,-0.125,0.2028,9.7669,-0.0293,0.0548,-0.1147,-1.8073727093138636,-0.026316609233617783,2.5782198905944824,-1.7536505460739136,0.0331445038318634,2.1273951530456543,5.041352259903707,0.0001693528756732121,0.16860157251358032,-1.5964978376971644,0.0001608276361366734,0.11005519330501556,0.8782413005828857,7.678572728764266e-05,0.04919353127479553,0.8103598952293396,-2.4406883312622085e-05,-0.31700921058654785
264.0,280.0,-0.125,0.2028,9.7669,-0.0293,0.0548,-0.1147,-1.8075572452940882,-0.02736648917198181,2.541752576828003,-1.7535361051559448,0.030730081722140312,2.139113664627075,5.0413644192512415,2.3096818040357903e-06,0.16468963027000427,-1.5964978376971644,0.0001530825684312731,0.1276213526725769,0.8782212138175964,8.465351857012138e-05,0.04874591901898384,0.8103031516075134,-3.517965160426684e-05,-0.36563730239868164
264.0,280.0,-0.125,0.2028,9.7669,-0.0293,0.0548,-0.1147,-1.8077932796873988,-0.029859580099582672,2.557904005050659,-1.7532885074615479,0.028946487233042717,2.1064610481262207,5.041316526919164,4.197732439426005e-11,0.16727909445762634,-1.5965216795550745,0.0002019730454776436,0.10486125200986862,0.8782458901405334,8.085657464107499e-05,0.04143621399998665,0.8103436827659607,-0.0002845123817678541,-0.35907936096191406
264.0,280.0,-0.125,0.2028,9.7669,-0.0293,0.0548,-0.1147,-1.808009763757223,-0.03402433171868324,2.5321857929229736,-1.7530767917633057,0.0280974879860878,2.188937187194824,5.041356253414907,1.1684542527599321e-14,0.16778481006622314,-1.5964816252337855,0.00021328392904251814,0.1071522980928421,0.8781886100769043,1.3266582072901656e-06,0.05197888985276222,0.8103154897689819,-0.0002416220959275961,-0.3506103754043579
264.0,280.0,-0.125,0.2028,9.7669,-0.0293,0.0548,-0.1147,-1.8083631000914515,-0.040381647646427155,2.5668654441833496,-1.7528821229934692,0.02783149853348732,2.1154181957244873,5.04134829619483,2.1236078619103168e-19,0.1727106273174286,-1.5965021292315882,0.0001994869380723685,0.11118561029434204,0.8782169818878174,2.411136221236454e-11,0.03500521928071976,0.810339629650116,-0.0002782729279715568,-0.3772234320640564
266.0,274.0,-0.536,0.131,9.6431,-0.0344,0.0179,-0.128,-1.8086749515929164,-0.04752923920750618,2.5076112747192383,-1.7526146173477173,0.02880861982703209,2.1553940773010254,5.04135628321723,3.859552860322187e-24,0.1594545841217041,-1.5965059439288538,0.00018929544603452086,0.11429987847805023,0.8782127499580383,4.3821207174553865e-16,0.05086692422628403,0.8103072643280029,-0.0003733050834853202,-0.36702677607536316
266.0,274.0,-0.536,0.131,9.6431,-0.0344,0.0179,-0.128,-1.8089591465392054,-0.05301613360643387,2.5837316513061523,-1.7524467706680298,0.030775316059589386,2.098269462585449,5.041364449053564,1.0743207008341324e-27,0.14406718313694,-1.5964534918414515,0.00019678272656165063,0.11309149861335754,0.8782291412353516,1.2197792720814478e-19,0.04641938582062721,0.8103072643280029,-0.00042033466161228716,-0.2952328026294708
266.0,274.0,-0.536,0.131,9.6431,-0.0344,0.0179,-0.128,-1.8094521961607875,-0.06119140237569809,2.4885358810424805,-1.7521626949310303,0.033888623118400574,2.1519880294799805,5.041404354363241,1.9525244755170331e-32,0.16804665327072144,-1.5965054670916956,0.00017874075274448842,0.1322670727968216,0.8782497048377991,2.216889061933975e-24,0.04182145744562149,0.8102507591247559,-0.0005861162790097296,-0.33860838413238525
266.0,274.0,-0.536,0.131,9.6431,-0.0344,0.0179,-0.128,-1.8099733791747035,-0.06709969788789749,2.5305166244506836,-1.7518433332443237,0.03767269849777222,2.1601145267486572,5.041356253414907,3.548616841970566e-37,0.15733344852924347,-1.596461598073141,0.00016259435506071895,0.11172766983509064,0.8781405687332153,4.0290863696694156e-29,0.0502818301320076,0.8102633357048035,-0.000462584343040362,-0.34671396017074585
266.0,274.0,-0.536,0.131,9.6431,-0.0344,0.0179,-0.128,-1.8105141125121058,-0.07277330011129379,2.510561227798462,-1.7515525817871094,0.04370323196053505,2.1640753746032715,5.041344243078985,6.448775532822808e-42,0.16618508100509644,-1.5964658896075647,0.00014912360347807407,0.13289867341518402,0.8782376646995544,7.322665375808148e-34,0.045843079686164856,0.8103519678115845,-0.0004019244515802711,-0.36703866720199585
266.0,274.0,-0.536,0.131,9.6431,-0.0344,0.0179,-0.128,-1.8112198315062464,-0.07165484875440598,2.518791913986206,-1.7512065172195435,0.049520935863256454,2.1755831241607666,5.0414044735725305,0.0,0.1613633632659912,-1.5964692274676722,0.00013482195208780468,0.1345830261707306,0.8782132267951965,1.33085827337983e-38,0.04555962234735489,0.8103113770484924,-0.0003202010993845761,-0.32281947135925293
266.0,274.0,-0.536,0.131,9.6431,-0.0344,0.0179,-0.128,-1.8115993938841761,-0.0696263238787651,2.5104031562805176,-1.7508819103240967,0.05267191305756569,2.1455154418945312,5.041276412993231,0.0,0.17541566491127014,-1.5964978376971644,0.0001237029500771314,0.11281648278236389,0.8781808018684387,3.7050331396748163e-42,0.050471145659685135,0.8103316426277161,-0.0002778341877274215,-0.30094027519226074
266.0,274.0,-0.536,0.131,9.6431,-0.0344,0.0179,-0.128,-1.8122040234007777,-0.06786931306123734,2.545668125152588,-1.7504322528839111,0.055560946464538574,2.133815288543701,5.041292446642675,-0.0006675843615084887,0.15451094508171082,-1.5965173880206507,0.0001114476690418087,0.11779126524925232,0.8781726956367493,0.0,0.031538225710392,0.8102994561195374,-0.00023617023543920368,-0.359738290309906
266.0,274.0,-0.536,0.131,9.6431,-0.0344,0.0179,-0.128,-1.81264128307485,-0.07037513703107834,2.5330700874328613,-1.750080943107605,0.056866664439439774,2.1293649673461914,5.041292446642675,-0.002515080850571394,0.1663585752248764,-1.5964935461627405,0.00010373956320108846,0.11953219771385193,0.87818443775177,0.0,0.039682310074567795,0.8103113174438477,-0.000212294195080176,-0.36184221506118774
266.0,274.0,-0.536,0.131,9.6431,-0.0344,0.0179,-0.128,-1.813213964501852,-0.07700222730636597,2.5427281856536865,-1.7495646476745605,0.056942690163850784,2.1583619117736816,5.0412639556224725,-0.0022209566086530685,0.15954448282718658,-1.5964859167682093,0.00011397547496017069,0.13547292351722717,0.878209114074707,0.0,0.0492822527885437,0.810242772102356,-0.00018707747221924365,-0.3448476195335388
266.0,274.0,-0.536,0.131,9.6431,-0.0344,0.0179,-0.128,-1.8138023815550746,-0.08300501853227615,2.534405469894409,-1.7491110563278198,0.0586085170507431,2.18951416015625,5.041352438717642,-0.0007766258204355836,0.17567479610443115,-1.5965021292315882,0.0001226101885549724,0.12284567952156067,0.8782127499580383,0.0,0.02552066370844841,0.8102994561195374,-0.00019110296852886677,-0.3203212022781372
266.0,274.0,-0.536,0.131,9.6431,-0.0344,0.0179,-0.128,-1.8142873249449671,-0.08375018835067749,2.5564911365509033,-1.7486307621002197,0.06119108200073242,2.1768929958343506,5.04134829619483,-0.0005059086834080517,0.1757921576499939,-1.5964697043048304,0.00011585529136937112,0.11399032175540924,0.8782377243041992,0.0,0.041012972593307495,0.8102874159812927,-0.00015584324137307703,-0.36083465814590454
266.0,274.0,-0.536,0.131,9.6431,-0.0344,0.0179,-0.128,-1.8149200878539027,-0.08211122453212738,2.523266077041626,-1.7481846809387207,0.06456898897886276,2.150308609008789,5.041364240437307,-0.0002790682192426175,0.1680750995874405,-1.5964816252337855,0.00012332899495959282,0.12350304424762726,0.8782253265380859,0.0,0.0386405847966671,0.8102671504020691,-0.00014056049985811114,-0.3605625331401825
263.0,277.0,-0.4899,-0.0508,8.9264,-0.0272,0.0254,-0.12,-1.81544890026235,-0.08527689427137375,2.544245481491089,-1.7477657794952393,0.06735532730817795,2.1829097270965576,5.041316497116842,-0.00022638386872131377,0.16690222918987274,-1.5965059439288538,0.00011730522965081036,0.13564559817314148,0.8782293796539307,0.0,0.04344239830970764,0.8102753758430481,-0.00013037917960900813,-0.3626824617385864
263.0,277.0,-0.4899,-0.0508,8.9264,-0.0272,0.0254,-0.12,-1.816226144830221,-0.0938589796423912,2.5397603511810303,-1.7472351789474487,0.07338039577007294,2.1869730949401855,5.041316526919164,-0.00018086926138494164,0.17331351339817047,-1.5965102354632776,0.0001101281595765613,0.11779272556304932,0.8781607747077942,0.0,0.029793385416269302,0.8102994561195374,-9.908053471008316e-05,-0.3664100468158722
263.0,277.0,-0.4899,-0.0508,8.9264,-0.0272,0.0254,-0.12,-1.81703581432485,-0.09332968294620514,2.5450005531311035,-1.7466570138931274,0.07467351853847504,2.184828996658325,5.041296440153875,-0.00015059649012982845,0.1682751178741455,-1.5964697043048304,0.00010377878788858652,0.12200488150119781,0.878221333026886,0.0,0.03757907450199127,0.8102833032608032,-0.00010927160474238917,-0.41259121894836426
263.0,277.0,-0.4899,-0.0508,8.9264,-0.0272,0.0254,-0.12,-1.817576070825094,-0.09180331230163574,2.5216891765594482,-1.746198058128357,0.0767071396112442,2.1505424976348877,5.041328537255087,-8.608905045548454e-05,0.1578853726387024,-1.596490208302633,9.947779471985996e-05,0.11073069274425507,0.8781967163085938,0.0,0.03875119611620903,0.8103477954864502,-0.00010301885777153075,-0.34163898229599
263.0,277.0,-0.4899,-0.0508,8.9264,-0.0272,0.0254,-0.12,-1.8183495006956996,-0.09139063954353333,2.5227699279785156,-1.7455192804336548,0.08186223357915878,2.185671806335449,5.0412639556224725,-6.023394234944135e-05,0.15902452170848846,-1.596490208302633,9.954044071491808e-05,0.11876488476991653,0.8781806230545044,0.0,0.042224518954753876,0.8102390766143799,-0.00011144950258312747,-0.3762563169002533
263.0,277.0,-0.4899,-0.0508,8.9264,-0.0272,0.0254,-0.12,-1.8189426861205042,-0.09105980396270752,2.5131027698516846,-1.7450121641159058,0.08173844963312149,2.212564468383789,5.041296410351553,-5.647243597195484e-05,0.1716783493757248,-1.596445385609762,9.334587230114266e-05,0.12646014988422394,0.8782127499580383,0.0,0.04168456047773361,0.8103237152099609,-0.00010602934344206005,-0.3473539352416992
263.0,277.0,-0.4899,-0.0508,8.9264,-0.0272,0.0254,-0.12,-1.819639345208639,-0.09266672283411026,2.543280839920044,-1.7443585395812988,0.0845244750380516,2.179677724838257,5.041304337769308,-5.017564762965776e-05,0.16074448823928833,-1.596478287373678,0.00010343198664486408,0.1239176094532013,0.8782376646995544,0.0,0.032783299684524536,0.8102709650993347,-0.00011353307490935549,-0.36621612310409546
263.0,277.0,-0.4899,-0.0508,8.9264,-0.0272,0.0254,-0.12,-1.820320268670553,-0.09747618436813354,2.495487689971924,-1.7436280250549316,0.08613499253988266,2.2130565643310547,5.0413206098373315,-4.514194370131008e-05,0.16925546526908875,-1.596461598073141,0.00010795542038977146,0.1281365156173706,0.8782253265380859,0.0,0.03439159318804741,0.8102712631225586,-0.00012497151328716427,-0.40727293491363525
263.0,277.0,-0.4899,-0.0508,8.9264,-0.0272,0.0254,-0.12,-1.820885797540182,-0.09831812977790833,2.535574197769165,-1.743073582649231,0.08952146768569946,2.2149715423583984,5.041296261339941,-2.3751208573230542e-05,0.16902683675289154,-1.596457306538717,0.0001064033349393867,0.12032562494277954,0.8781967163085938,0.0,0.04635470360517502,0.8102671504020691,-0.00011604258907027543,-0.3775126338005066
263.0,277.0,-0.4899,-0.0508,8.9264,-0.0272,0.0254,-0.12,-1.8215981922545375,-0.09027014672756195,2.546489953994751,-1.7423515319824219,0.0979868471622467,2.1839280128479004,5.041324573546209,-1.2810135103791254e-06,0.16742482781410217,-1.5964534918414515,9.967081859940663e-05,0.11347676813602448,0.8782009482383728,0.0,0.038458533585071564,0.8102349638938904,-0.00012621899077203125,-0.408275306224823
263.0,277.0,-0.4899,-0.0508,8.9264,-0.0272,0.0254,-0.12,-1.8221022091307582,-0.08321980386972427,2.553072929382324,-1.7417773008346558,0.10659752041101456,2.2076854705810547,5.041316526919164,-3.5657479746653564e-10,0.1662590503692627,-1.5964329878436487,9.515457350062206e-05,0.10792605578899384,0.8781730532646179,0.0,0.020414220169186592,0.8102390766143799,-0.00011795821774285287,-0.3415108323097229
263.0,277.0,-0.4899,-0.0508,8.9264,-0.0272,0.0254,-0.12,-1.8228799305357875,-0.08120368421077728,2.573747158050537,-1.740886926651001,0.10495614260435104,2.214576005935669,5.041292297631063,-6.480570305378557e-15,0.16171114146709442,-1.5964940229998987,8.973324293037876e-05,0.12262905389070511,0.8781690001487732,0.0,0.026680784299969673,0.8102468252182007,-0.00010847962403204292,-0.3821755051612854
255.0,275.0,-0.2937,0.3517,10.3107,-0.0368,0.0504,-0.1248,-1.8235050640501917,-0.08447639644145966,2.5471291542053223,-1.7400779724121094,0.10904748737812042,2.240832805633545,5.041316497116842,-1.1778118759626578e-19,0.16526484489440918,-1.5964329878436487,9.699748625280336e-05,0.12602829933166504,0.8782210350036621,0.0,0.02651960216462612,0.8102874159812927,-0.00010041129280580208,-0.37449902296066284
255.0,275.0,-0.2937,0.3517,10.3107,-0.0368,0.0504,-0.1248,-1.8240095577635707,-0.08820805698633194,2.544724225997925,-1.7393300533294678,0.11091659963130951,2.1981821060180664,5.0412518856819055,-3.2784825718157305e-23,0.1738051176071167,-1.5964258352862757,0.00011726759112207219,0.11554715037345886,0.8781890869140625,0.0,0.03456364572048187,0.8103036284446716,-0.00011093151988461614,-0.3688109517097473
255.0,275.0,-0.2937,0.3517,10.3107,-0.0368,0.0504,-0.1248,-1.824658533135885,-0.08611071109771729,2.600402355194092,-1.7384570837020874,0.11145567148923874,2.262545108795166,5.041344481497564,-5.95847913609666e-28,0.1629665493965149,-1.5964296499835413,0.0001357713044853881,0.12522774934768677,0.8781766891479492,0.0,0.03713768720626831,0.8102431893348694,-0.00020923915144521743,-0.38018935918807983
255.0,275.0,-0.2937,0.3517,10.3107,-0.0368,0.0504,-0.1248,-1.8251387081541957,-0.08053156733512878,2.5741000175476074,-1.7378145456314087,0.11439760774374008,2.178687572479248,5.041336494475164,-1.6585646946881872e-31,0.1497633457183838,-1.5964134375201624,0.00016567338025197387,0.1259482204914093,0.8782292604446411,0.0,0.01912965625524521,0.8102629780769348,-0.0010540641378611326,-0.37068384885787964
255.0,275.0,-0.2937,0.3517,10.3107,-0.0368,0.0504,-0.1248,-1.8257557354369105,-0.07670359313488007,2.594726800918579,-1.7368499040603638,0.12565653026103973,2.201403856277466,5.041372316866674,-3.0143598970149765e-36,0.1688801348209381,-1.5964496771441858,0.00015424488810822368,0.11812977492809296,0.8782819509506226,0.0,0.025388285517692566,0.8102352619171143,-0.0010859717149287462,-0.3821878135204315
255.0,275.0,-0.2937,0.3517,10.3107,-0.0368,0.0504,-0.1248,-1.8264171085753382,-0.0780373066663742,2.582221031188965,-1.7358193397521973,0.1338072419166565,2.228458881378174,5.041280495911398,-5.478516476124305e-41,0.17430156469345093,-1.5964697043048304,0.00029400389757938683,0.13147179782390594,0.8781250715255737,0.0,0.020248543471097946,0.8102393746376038,-0.001016378402709961,-0.3876945972442627
255.0,275.0,-0.2937,0.3517,10.3107,-0.0368,0.0504,-0.1248,-1.8268610439696253,-0.08073047548532486,2.5501132011413574,-1.7350425720214844,0.13859784603118896,2.2547030448913574,5.041296410351553,-1.5414283107572988e-44,0.15866364538669586,-1.596445385609762,0.00024580518947914243,0.12018981575965881,0.8782013058662415,0.0,0.008501565083861351,0.8102431893348694,-0.0008684674394316971,-0.3645167946815491
255.0,275.0,-0.2937,0.3517,10.3107,-0.0368,0.0504,-0.1248,-1.8275305233397425,-0.08086121082305908,2.6075146198272705,-1.733887791633606,0.14332698285579681,2.2642159461975098,5.0412639556224725,-0.0,0.1673372983932495,-1.5964539686786097,0.00023666894412599504,0.11891379952430725,0.8781771659851074,0.0,0.025051172822713852,0.8102352619171143,-0.0006300268578343093,-0.39984065294265747
255.0,275.0,-0.2937,0.3517,10.3107,-0.0368,0.0504,-0.1248,-1.8279949627318324,-0.08305376768112183,2.551574468612671,-1.7330186367034912,0.1402178406715393,2.2577006816864014,5.041272091656484,-0.00020103676069993526,0.15790361166000366,-1.596461598073141,0.00021336047211661935,0.11921332776546478,0.8781446814537048,0.0,0.022229721769690514,0.8101869225502014,-0.0009874209063127637,-0.3319757878780365
255.0,275.0,-0.2937,0.3517,10.3107,-0.0368,0.0504,-0.1248,-1.8286243877806605,-0.08438809961080551,2.6372318267822266,-1.731918454170227,0.14417937397956848,2.1952128410339355,5.041240262776174,-0.0014217384159564972,0.15331953763961792,-1.5964496771441858,0.00021487430785782635,0.130433589220047,0.8782013058662415,0.0,0.02967897430062294,0.8102357387542725,-0.0022855994757264853,-0.3251303434371948
255.0,275.0,-0.2937,0.3517,10.3107,-0.0368,0.0504,-0.1248,-1.8292609653868617,-0.0763150304555893,2.589756488800049,-1.7307085990905762,0.15455682575702667,2.2766265869140625,5.041260170727529,-0.0007675298838876188,0.16705700755119324,-1.5964496771441858,0.00021433147776406258,0.11578316986560822,0.878205418586731,0.0,0.009349736385047436,0.8101872205734253,-0.0038327358197420835,-0.4167158603668213
255.0,275.0,-0.2937,0.3517,10.3107,-0.0368,0.0504,-0.1248,-1.8297177753844203,-0.0735485628247261,2.617293119430542,-1.7297273874282837,0.1633460968732834,2.299325704574585,5.041240262776174,-0.0005901649710722268,0.15374404191970825,-1.5964296499835413,0.0001982895191758871,0.12521201372146606,0.8781690001487732,0.0,0.01281195878982544,0.8101550340652466,-0.0033478750847280025,-0.3824392557144165
255.0,275.0,-0.2937,0.3517,10.3107,-0.0368,0.0504,-0.1248,-1.8303543529906214,-0.07726512849330902,2.615572929382324,-1.7283530235290527,0.16685497760772705,2.2534120082855225,5.041232335358419,-0.0020841932855546474,0.15400782227516174,-1.5964420477496546,0.00015588001406285912,0.11557728797197342,0.8781571388244629,0.0,0.009494248777627945,0.8101591467857361,-0.0011070879409089684,-0.3790261745452881
250.0,270.0,-0.1352,0.2297,10.0552,-0.0111,0.1213,-0.1278,-1.8308636150755824,-0.08032532781362534,2.5780367851257324,-1.7274163961410522,0.16525231301784515,2.296158790588379,5.041224139719763,-0.0027974213007837534,0.15280230343341827,-1.5964420477496546,0.00015503728354815394,0.12478943169116974,0.878209114074707,0.0,0.018241513520479202,0.8102033734321594,-0.0005091294297017157,-0.42880070209503174
250.0,270.0,-0.1352,0.2297,10.0552,-0.0111,0.1213,-0.1278,-1.8314844570555628,-0.08540786057710648,2.5771987438201904,-1.7260828018188477,0.1693418174982071,2.290462017059326,5.041196334152975,-0.0028629228472709656,0.15774500370025635,-1.5964420477496546,0.00017393354210071266,0.12095961719751358,0.8782495856285095,0.0,0.028463585302233696,0.8101794123649597,-9.724027768243104e-05,-0.3919045329093933
250.0,270.0,-0.1352,0.2297,10.0552,-0.0111,0.1213,-0.1278,-1.832064767877096,-0.08246248215436935,2.602950096130371,-1.7247638702392578,0.17738032341003418,2.3067452907562256,5.041156190424719,-0.003525458974763751,0.15449488162994385,-1.5964258352862757,0.0001807465887395665,0.1177908182144165,0.8782458305358887,0.0,0.028066178783774376,0.8101469278335571,-0.0001353812258457765,-0.41365671157836914
250.0,270.0,-0.1352,0.2297,10.0552,-0.0111,0.1213,-0.1278,-1.832585950891012,-0.07767551392316818,2.581730842590332,-1.723642349243164,0.18568424880504608,2.339362144470215,5.04113649108962,-0.0034070720430463552,0.14690348505973816,-1.5964420477496546,0.0003560417681001127,0.127822607755661,0.878241777420044,0.0,0.0349537655711174,0.8101876974105835,-0.0001656802196521312,-0.3926604986190796
250.0,270.0,-0.1352,0.2297,10.0552,-0.0111,0.1213,-0.1278,-1.833198686639303,-0.07722876220941544,2.621400833129883,-1.7221378087997437,0.18427975475788116,2.3063340187072754,5.041144656925955,-0.0022677616216242313,0.1362398862838745,-1.5964377562152308,0.0009602727368474007,0.11745460331439972,0.8782050609588623,0.0,0.035871364176273346,0.8101304769515991,-0.00014541416021529585,-0.39822155237197876
250.0,270.0,-0.1352,0.2297,10.0552,-0.0111,0.1213,-0.1278,-1.833686967889303,-0.08198811113834381,2.6270830631256104,-1.7209603786468506,0.18689002096652985,2.3538637161254883,5.041108327894964,-0.0017506525618955493,0.16095606982707977,-1.5964096228228968,0.002633525524288416,0.12841713428497314,0.8781890869140625,0.0,0.012536437250673771,0.8101954460144043,-6.095622302382253e-05,-0.3798362910747528
250.0,270.0,-0.1352,0.2297,10.0552,-0.0111,0.1213,-0.1278,-1.8343359432616175,-0.09008431434631348,2.6467695236206055,-1.7195093631744385,0.19054830074310303,2.363067626953125,5.041044312506475,-0.002722555072978139,0.15349391102790833,-1.5963900724994105,0.010192658752202988,0.1379716694355011,0.8781771659851074,0.0,0.02534443885087967,0.8102115988731384,-9.288413275498897e-05,-0.41054433584213257
250.0,270.0,-0.1352,0.2297,10.0552,-0.0111,0.1213,-0.1278,-1.8350616894164027,-0.09593406319618225,2.5762462615966797,-1.7179138660430908,0.19645629823207855,2.3281474113464355,5.041051763087072,-0.003221383085474372,0.15399719774723053,-1.5962813536273401,0.01269367802888155,0.1336408257484436,0.8782291412353516,0.0,0.017290998250246048,0.8101794123649597,-0.00011549616465345025,-0.3715817928314209
250.0,270.0,-0.1352,0.2297,10.0552,-0.0111,0.1213,-0.1278,-1.8356062374510707,-0.09530335664749146,2.5942487716674805,-1.716665267944336,0.19871468842029572,2.3192522525787354,5.041068273573675,-0.0016658175736665726,0.1506904661655426,-1.596245590840475,0.006109760142862797,0.127508744597435,0.8782292008399963,0.0,0.017313171178102493,0.8101752996444702,-0.0001364787167403847,-0.41073670983314514
250.0,270.0,-0.1352,0.2297,10.0552,-0.0111,0.1213,-0.1278,-1.8363353214659632,-0.0902712345123291,2.588730812072754,-1.7150834798812866,0.2101982980966568,2.3717849254608154,5.041028100043096,-0.0007443082286044955,0.15921995043754578,-1.5962579886065882,0.0006236505578272045,0.12506403028964996,0.8781850337982178,0.0,0.025110814720392227,0.810183584690094,-0.00011850783630507067,-0.4334235191345215
250.0,270.0,-0.1352,0.2297,10.0552,-0.0111,0.1213,-0.1278,-1.837095399896139,-0.08435262739658356,2.666672706604004,-1.7133325338363647,0.21658629179000854,2.334641218185425,5.041032272368231,-0.0006007784395478666,0.14733673632144928,-1.5962947050677698,0.00023050466552376747,0.11684934794902802,0.8782777786254883,0.0,0.023358387872576714,0.8101309537887573,-0.00010471858695382252,-0.3666002154350281
250.0,270.0,-0.1352,0.2297,10.0552,-0.0111,0.1213,-0.1278,-1.8376642666258753,-0.08364281803369522,2.642036199569702,-1.7120163440704346,0.21282456815242767,2.3339736461639404,5.040996271162786,-0.005065606907010078,0.15564416348934174,-1.5962336699115198,0.00016644173592794687,0.14023077487945557,0.8781771659851074,0.0,0.02739766240119934,0.8101308941841125,-7.22486583981663e-05,-0.3558054566383362
246.0,259.0,-0.3757,0.3302,10.3627,-0.005,0.1443,-0.1338,-1.838346620599264,-0.09214503318071365,2.609544277191162,-1.7103444337844849,0.21178069710731506,2.3583641052246094,5.040948110609808,-0.007380747701972723,0.14550381898880005,-1.5962660948382776,0.00012147262168582529,0.14004963636398315,0.8782417178153992,0.0,0.0250854454934597,0.8101831078529358,2.9414561140583828e-05,-0.3916066288948059
246.0,259.0,-0.3757,0.3302,10.3627,-0.005,0.1443,-0.1338,-1.8388945064940394,-0.09799053519964218,2.626030921936035,-1.7090888023376465,0.21089525520801544,2.3676352500915527,5.040848094015875,-0.011094683781266212,0.13789187371730804,-1.5962417761432093,0.00010101193038281053,0.12440018355846405,0.8782091736793518,0.0,0.03770739957690239,0.8101793527603149,2.678858618310187e-05,-0.35298293828964233
246.0,259.0,-0.3757,0.3302,10.3627,-0.005,0.1443,-0.1338,-1.8395983181395472,-0.09933774173259735,2.617828845977783,-1.7074251174926758,0.2127722203731537,2.323432445526123,5.0407641408737085,-0.012156437151134014,0.1402340531349182,-1.5962541739093226,0.00012354025966487825,0.12735235691070557,0.8781571984291077,0.0,0.020961029455065727,0.8101632595062256,2.531117026041696e-12,-0.39868447184562683
246.0,259.0,-0.3757,0.3302,10.3627,-0.005,0.1443,-0.1338,-1.8404981098570765,-0.09896308928728104,2.6152119636535645,-1.7056766748428345,0.2235756367444992,2.3492298126220703,5.040759998350897,-0.007506772875785828,0.13852274417877197,-1.5962255636798304,0.00010456240852363408,0.1264592409133911,0.878169059753418,0.0,0.006300590466707945,0.8101227283477783,8.200497340614524e-20,-0.4027448892593384
246.0,259.0,-0.3757,0.3302,10.3627,-0.005,0.1443,-0.1338,-1.8410736523070277,-0.10175934433937073,2.6530823707580566,-1.7042876482009888,0.23711475729942322,2.362902879714966,5.040688174753942,-0.00481126643717289,0.15678119659423828,-1.596217457448141,9.367725579068065e-05,0.1347302794456482,0.8782291412353516,0.0,0.027005575597286224,0.8101715445518494,1.9803237526949712e-25,-0.4474790692329407
246.0,259.0,-0.3757,0.3302,10.3627,-0.005,0.1443,-0.1338,-1.8419610462584437,-0.10611306875944138,2.6280441284179688,-1.7024561166763306,0.24114744365215302,2.3935647010803223,5.040648239641943,-0.005926079116761684,0.14331680536270142,-1.5962579886065882,8.22598158265464e-05,0.13006138801574707,0.8782210350036621,0.0,0.027377013117074966,0.8101835250854492,6.415997307633806e-33,-0.38878965377807617
246.0,259.0,-0.3757,0.3302,10.3627,-0.005,0.1443,-0.1338,-1.8426605663695277,-0.1120699867606163,2.645677089691162,-1.7009999752044678,0.2382708638906479,2.3961098194122314,5.04054011681632,-0.009486068971455097,0.1474601924419403,-1.5962541739093226,7.537032797699794e-05,0.12689533829689026,0.8781931400299072,0.0,0.013056890107691288,0.8101752996444702,1.5493876860346637e-38,-0.41527578234672546
246.0,259.0,-0.3757,0.3302,10.3627,-0.005,0.1443,-0.1338,-1.8436643085875453,-0.1119321659207344,2.6017489433288574,-1.6990559101104736,0.24694904685020447,2.3876283168792725,5.040476071625509,-0.015642719343304634,0.14039474725723267,-1.596217457448141,6.77993957651779e-05,0.14530900120735168,0.8782169818878174,0.0,0.010638311505317688,0.8101913332939148,0.0,-0.3928740918636322
246.0,259.0,-0.3757,0.3302,10.3627,-0.005,0.1443,-0.1338,-1.844595571557516,-0.12118254601955414,2.6243972778320312,-1.6971125602722168,0.2466234266757965,2.412257194519043,5.040284144669332,-0.02887919172644615,0.13161496818065643,-1.5962379614459437,6.161069177323952e-05,0.14093680679798126,0.8781931400299072,0.0,0.015895413234829903,0.8101591467857361,0.0,-0.38910627365112305
246.0,259.0,-0.3757,0.3302,10.3627,-0.005,0.1443,-0.1338,-1.845278879205221,-0.12956489622592926,2.643038749694824,-1.695580005645752,0.2451646327972412,2.3653557300567627,5.040071862726965,-0.04241180419921875,0.1283176839351654,-1.5962584654437464,5.7663160987431183e-05,0.12899458408355713,0.8781968355178833,0.0,0.023057101294398308,0.8101509213447571,0.0,-0.407792329788208
