ramyac6/ROB537/final_project/csv/all/good_208.csv
tof_0,tof_1,accelx,accely,accelz,gyrox,gyroy,gyroz,shoulder_lift_joint_position,shoulder_lift_joint_velocity,shoulder_lift_joint_effort,elbow_joint_position,elbow_joint_velocity,elbow_joint_effort,wrist_1_joint_position,wrist_1_joint_velocity,wrist_1_joint_effort,wrist_2_joint_position,wrist_2_joint_velocity,wrist_2_joint_effort,wrist_3_joint_position,wrist_3_joint_velocity,wrist_3_joint_effort,shoulder_pan_joint_position,shoulder_pan_joint_velocity,shoulder_pan_joint_effort
133.0,202.0,5.9815,-3.8662,5.8887,-0.0252,0.0224,-0.126,-1.8316241703429164,0.0,3.268702745437622,-1.070704460144043,-0.0,2.1230220794677734,3.577481432552002,-0.0,0.26402547955513,-1.4587143103228968,0.0,-0.006357240490615368,1.1195342540740967,0.0,-0.005812513176351786,1.0962255001068115,0.0,-0.01281429361552
133.0,202.0,5.9815,-3.8662,5.8887,-0.0252,0.0224,-0.126,-1.8316241703429164,0.0,3.2600369453430176,-1.0706276893615723,-0.0,2.115673303604126,3.577553911800049,-0.0,0.26531481742858887,-1.4586613813983362,0.0,-0.011501596309244633,1.1195502281188965,0.0,-0.002373004797846079,1.0962255001068115,0.0,-0.010533031076192856
133.0,202.0,5.9815,-3.8662,5.8887,-0.0252,0.0224,-0.126,-1.831611772576803,0.0,3.21821928024292,-1.0706031322479248,-0.0,2.1351070404052734,3.5774614053913574,-0.0,0.25433921813964844,-1.4587176481830042,0.0,-0.01613488979637623,1.1194608211517334,0.0,-0.003987693227827549,1.0962214469909668,0.0,-0.0005402405513450503
133.0,202.0,5.9815,-3.8662,5.8887,-0.0252,0.0224,-0.126,-1.8315712414183558,0.0,3.2367606163024902,-1.0706156492233276,-0.0,2.145648717880249,3.5774494844624023,-0.0,0.26173245906829834,-1.458738152180807,0.0,-0.02230854146182537,1.1194612979888916,0.0,-0.0010075755417346954,1.0962295532226562,0.0,-0.056456178426742554
133.0,202.0,5.9815,-3.8662,5.8887,-0.0252,0.0224,-0.126,-1.8315793476500453,0.0,3.220388174057007,-1.070631742477417,-0.0,2.109600067138672,3.5774170595356445,-0.0,0.25676771998405457,-1.458721939717428,0.0,-0.018239159137010574,1.1195182800292969,0.0,-0.010574053972959518,1.0961931943893433,0.0,-0.030542293563485146
133.0,202.0,5.9815,-3.8662,5.8887,-0.0252,0.0224,-0.126,-1.8315712414183558,0.0,3.2054214477539062,-1.070639967918396,-0.0,2.101001739501953,3.577481432552002,-0.0,0.25101473927497864,-1.4587181250201624,0.0,-0.022779017686843872,1.1195182800292969,0.0,-0.013636726886034012,1.096222162246704,0.0,-0.008687525987625122
133.0,202.0,5.9815,-3.8662,5.8887,-0.0252,0.0224,-0.126,-1.8315955601134242,0.0,3.2458090782165527,-1.0706281661987305,-0.0,2.1112184524536133,3.577441378230713,-0.0,0.270873099565506,-1.4586899916278284,0.0,-0.003687395714223385,1.1194570064544678,0.0,-0.02337225340306759,1.0962095260620117,0.0,-0.015177221968770027
134.0,205.0,5.9928,-3.8303,5.86,-0.037,0.0229,-0.1271,-1.8315793476500453,0.0,3.2254395484924316,-1.0706156492233276,-0.0,2.091008424758911,3.5774571138569335,-0.0,0.25098854303359985,-1.4587019125567835,0.0,0.0019365474581718445,1.119480848312378,0.0,0.0032189879566431046,1.0962214469909668,0.0,0.014350960962474346
134.0,205.0,5.9928,-3.8303,5.86,-0.037,0.0229,-0.1271,-1.8316198788084925,0.0,3.2632737159729004,-1.0707168579101562,-0.0,2.109992504119873,3.577469511623047,-0.0,0.25318604707717896,-1.4587343374835413,0.0,-0.018453000113368034,1.1195425987243652,0.0,-0.002508074976503849,1.0962095260620117,0.0,-0.02292267605662346
134.0,205.0,5.9928,-3.8303,5.86,-0.037,0.0229,-0.1271,-1.8316041431822718,0.0,3.2376606464385986,-1.070587158203125,-0.0,2.130459785461426,3.577497645015381,-0.0,0.2593725323677063,-1.4586699644671839,0.0,-0.008540714159607887,1.1195383071899414,0.0,-0.01610749214887619,1.0962218046188354,0.0,-0.0011314935982227325
134.0,205.0,5.9928,-3.8303,5.86,-0.037,0.0229,-0.1271,-1.831611772576803,0.0,3.2132179737091064,-1.070619821548462,-0.0,2.1108627319335938,3.577497645015381,-0.0,0.25231266021728516,-1.4586494604693812,0.0,-0.020752064883708954,1.1195223331451416,0.0,-0.0028513562865555286,1.0962135791778564,0.0,0.005888115614652634
134.0,205.0,5.9928,-3.8303,5.86,-0.037,0.0229,-0.1271,-1.8315392933287562,0.0,3.1851253509521484,-1.0705912113189697,-0.0,2.1156187057495117,3.5774332719990234,-0.0,0.24977809190750122,-1.4587300459491175,0.0,-0.01314456108957529,1.1195017099380493,0.0,-0.007894400507211685,1.0962214469909668,0.0,0.013281647115945816
134.0,205.0,5.9928,-3.8303,5.86,-0.037,0.0229,-0.1271,-1.8316241703429164,0.0,3.236140727996826,-1.070619821548462,-0.0,2.107362747192383,3.577465220088623,-0.0,0.2556961178779602,-1.458710018788473,0.0,-0.013841166161000729,1.119489073753357,0.0,-0.004112669732421637,1.0962417125701904,0.0,0.012895760126411915
134.0,205.0,5.9928,-3.8303,5.86,-0.037,0.0229,-0.1271,-1.8315674267210902,0.0,3.1927943229675293,-1.0706441402435303,-0.0,2.101752281188965,3.577437563533447,-0.0,0.26103055477142334,-1.4587586561786097,0.0,-0.004740138538181782,1.1195662021636963,0.0,0.0021070840302854776,1.0962417125701904,0.0,-0.05192502588033676
134.0,205.0,5.9928,-3.8303,5.86,-0.037,0.0229,-0.1271,-1.8316198788084925,0.0,3.229362964630127,-1.0706197023391724,-0.0,2.124279022216797,3.577497645015381,-0.0,0.24943411350250244,-1.458721939717428,0.0,-0.016753580421209335,1.1195544004440308,0.0,-0.01120646670460701,1.096217393875122,0.0,-0.012124339118599892
134.0,205.0,5.9928,-3.8303,5.86,-0.037,0.0229,-0.1271,-1.8315793476500453,0.0,3.2361197471618652,-1.0706281661987305,-0.0,2.1631386280059814,3.5774575906940917,-0.0,0.2650626003742218,-1.4587419668780726,0.0,-0.00744131114333868,1.1194648742675781,0.0,-0.007338092662394047,1.096205472946167,0.0,-0.03097333386540413
134.0,205.0,5.9928,-3.8303,5.86,-0.037,0.0229,-0.1271,-1.8316122494139613,0.0,3.259554386138916,-1.0706357955932617,-0.0,2.115417242050171,3.577477141017578,-0.0,0.2616775631904602,-1.458710018788473,0.0,-0.0053728679195046425,1.1195141077041626,0.0,0.0013822983019053936,1.0962095260620117,0.0,0.03034237027168274
134.0,205.0,5.9928,-3.8303,5.86,-0.037,0.0229,-0.1271,-1.8315512142577113,0.0,3.2209692001342773,-1.0706238746643066,-0.0,2.096035957336426,3.577465220088623,-0.0,0.26402416825294495,-1.458766285573141,0.0,-0.008410648442804813,1.1195307970046997,0.0,-0.0121918935328722,1.0962014198303223,0.0,0.010001566261053085
134.0,205.0,5.9928,-3.8303,5.86,-0.037,0.0229,-0.1271,-1.831616064111227,0.0,3.2854766845703125,-1.0706071853637695,-0.0,2.1027140617370605,3.5774494844624023,-0.0,0.27296411991119385,-1.4587658087359827,0.0,-0.020491866394877434,1.1194528341293335,0.0,-0.015525393187999725,1.096205472946167,0.0,0.009947661310434341
135.0,203.0,6.1089,-3.8495,5.8259,-0.0344,0.024,-0.1274,-1.8315674267210902,0.0,3.2001142501831055,-1.0705795288085938,-0.0,2.0861849784851074,3.577465220088623,-0.0,0.2631343603134155,-1.4586980978595179,0.0,-0.01574845053255558,1.119558572769165,0.0,-0.008140604011714458,1.0961894989013672,0.0,-0.021782705560326576
135.0,203.0,6.1089,-3.8495,5.8259,-0.0344,0.024,-0.1274,-1.8315750561156214,0.0,3.1503427028656006,-1.0706636905670166,-0.0,2.114147424697876,3.577481432552002,-0.0,0.25743454694747925,-1.4587300459491175,0.0,-0.03052395023405552,1.1195461750030518,0.0,-0.006144586484879255,1.0961976051330566,0.0,0.02297966741025448
135.0,203.0,6.1089,-3.8495,5.8259,-0.0344,0.024,-0.1274,-1.8316284618773402,0.0,3.2428083419799805,-1.070619821548462,-0.0,2.144092082977295,3.5774895387836914,-0.0,0.24671217799186707,-1.4587057272540491,0.0,0.004111544229090214,1.1195383071899414,0.0,0.006221288815140724,1.0962172746658325,0.0,0.0064770616590976715
135.0,203.0,6.1089,-3.8495,5.8259,-0.0344,0.024,-0.1274,-1.8316198788084925,0.0,3.220245122909546,-1.0706322193145752,-0.0,2.109647035598755,3.5774857240864257,-0.0,0.2561071813106537,-1.4587581793414515,0.0,-0.007042742799967527,1.119489073753357,0.0,-0.0014439831720665097,1.096245527267456,0.0,-0.03004305437207222
135.0,203.0,6.1089,-3.8495,5.8259,-0.0344,0.024,-0.1274,-1.8316079578795375,0.0,3.290053367614746,-1.0706477165222168,-0.0,2.131042718887329,3.577481432552002,-0.0,0.2639615535736084,-1.4586737791644495,0.0,-0.014559797011315823,1.1194769144058228,0.0,-0.006667960900813341,1.0962172746658325,0.0,-0.004532240331172943
135.0,203.0,6.1089,-3.8495,5.8259,-0.0344,0.024,-0.1274,-1.8315955601134242,0.0,3.192636728286743,-1.070619821548462,-0.0,2.1331028938293457,3.5774738031574707,-0.0,0.2552463412284851,-1.4587262312518519,0.0,-0.028629794716835022,1.1195390224456787,0.0,0.008498741313815117,1.0962457656860352,0.0,-0.001199332531541586
135.0,203.0,6.1089,-3.8495,5.8259,-0.0344,0.024,-0.1274,-1.8315955601134242,0.0,3.204679489135742,-1.07059907913208,-0.0,2.12812876701355,3.577493353480957,-0.0,0.250489741563797,-1.4587300459491175,0.0,-0.022785281762480736,1.1195101737976074,0.0,0.00880101602524519,1.0962457656860352,0.0,0.036042314022779465
135.0,203.0,6.1089,-3.8495,5.8259,-0.0344,0.024,-0.1274,-1.8315955601134242,0.0,3.211881160736084,-1.0706031322479248,-0.0,2.1184043884277344,3.5774332719990234,-0.0,0.25237491726875305,-1.4587057272540491,0.0,-0.01992504671216011,1.1195905208587646,0.0,-0.0008402549428865314,1.096169352531433,0.0,-0.016177140176296234
135.0,203.0,6.1089,-3.8495,5.8259,-0.0344,0.024,-0.1274,-1.8316041431822718,0.0,3.2491495609283447,-1.070688009262085,-0.0,2.1086416244506836,3.5774494844624023,-0.0,0.2674219608306885,-1.458721939717428,0.0,-0.01714208535850048,1.119558572769165,0.0,-0.005526054184883833,1.096193552017212,0.0,0.010714055970311165
135.0,203.0,6.1089,-3.8495,5.8259,-0.0344,0.024,-0.1274,-1.831616064111227,0.0,3.2611398696899414,-1.0705671310424805,-0.0,2.1125693321228027,3.5774895387836914,-0.0,0.2630513906478882,-1.458693806325094,0.0,-0.020253483206033707,1.1195467710494995,0.0,-0.007561283186078072,1.0962777137756348,0.0,-0.04275498539209366
135.0,203.0,6.1089,-3.8495,5.8259,-0.0344,0.024,-0.1274,-1.8316317997374476,0.0,3.26234769821167,-1.0706477165222168,-0.0,2.0927882194519043,3.5774494844624023,-0.0,0.25702059268951416,-1.4587257544146937,0.0,-0.007852314971387386,1.1195015907287598,0.0,-0.00936631765216589,1.0962255001068115,0.0,0.05519535019993782
135.0,203.0,6.1089,-3.8495,5.8259,-0.0344,0.024,-0.1274,-1.8316360912718714,0.0,3.1908836364746094,-1.0706394910812378,-0.0,2.1292128562927246,3.5774409013935546,-0.0,0.25957003235816956,-1.4587581793414515,0.0,-0.005597786512225866,1.1195223331451416,0.0,-0.0024841302074491978,1.096217393875122,0.0,0.039829738438129425
135.0,203.0,6.1089,-3.8495,5.8259,-0.0344,0.024,-0.1274,-1.8315955601134242,0.0,3.172743797302246,-1.07066011428833,-0.0,2.1334731578826904,3.577469511623047,-0.0,0.2553652226924896,-1.4587462584124964,0.0,-0.007418643683195114,1.1195542812347412,0.0,-0.008369849063456059,1.096245527267456,0.0,0.025677349418401718
140.0,209.0,6.0168,-3.8506,5.9157,-0.0292,0.0276,-0.1164,-1.831583162347311,0.0,3.2317757606506348,-1.0705671310424805,-0.0,2.131141185760498,3.5774895387836914,-0.0,0.25926822423934937,-1.4587262312518519,0.0,-0.010326370596885681,1.1195182800292969,0.0,-0.013272899203002453,1.0962214469909668,0.0,-0.02245357632637024
140.0,209.0,6.0168,-3.8506,5.9157,-0.0292,0.0276,-0.1164,-1.8315755329527796,0.0,3.235373020172119,-1.0706517696380615,-0.0,2.1675291061401367,3.577453299159668,-0.0,0.26939043402671814,-1.4587176481830042,0.0,-0.014345621690154076,1.119489073753357,0.0,-0.001389297074638307,1.0962536334991455,0.0,-0.006612998899072409
140.0,209.0,6.0168,-3.8506,5.9157,-0.0292,0.0276,-0.1164,-1.831599851647848,0.0,3.2653446197509766,-1.070590853691101,-0.0,2.0951573848724365,3.5774575906940917,-0.0,0.2576639950275421,-1.45866567293276,0.0,-0.013716453686356544,1.1194288730621338,0.0,-0.011173667386174202,1.0962536334991455,0.0,-0.01794913411140442
140.0,209.0,6.0168,-3.8506,5.9157,-0.0292,0.0276,-0.1164,-1.8316198788084925,0.0,3.22212553024292,-1.0706677436828613,-0.0,2.1756014823913574,3.577481432552002,-0.0,0.2651500105857849,-1.4587143103228968,0.0,-0.00882270559668541,1.1195056438446045,0.0,-0.002125786617398262,1.0962376594543457,0.0,0.03197862207889557
140.0,209.0,6.0168,-3.8506,5.9157,-0.0292,0.0276,-0.1164,-1.8316317997374476,0.0,3.2381107807159424,-1.0706357955932617,-0.0,2.104224920272827,3.5774451929279785,-0.0,0.25975459814071655,-1.4587143103228968,0.0,-0.032502543181180954,1.1195542812347412,0.0,-0.0038443116936832666,1.0962135791778564,0.0,-0.026626061648130417
140.0,209.0,6.0168,-3.8506,5.9157,-0.0292,0.0276,-0.1164,-1.8316360912718714,0.0,3.2473771572113037,-1.070631742477417,-0.0,2.11544132232666,3.5774738031574707,-0.0,0.25605636835098267,-1.4587095419513147,0.0,-0.0017031640745699406,1.1195056438446045,0.0,-0.00531343650072813,1.096233606338501,0.0,0.07508470118045807
140.0,209.0,6.0168,-3.8506,5.9157,-0.0292,0.0276,-0.1164,-1.8316041431822718,0.0,3.2419989109039307,-1.070631742477417,-0.0,2.1368634700775146,3.577481432552002,-0.0,0.24222302436828613,-1.4587419668780726,0.0,-0.015298762358725071,1.1195383071899414,0.0,-0.019007105380296707,1.0962698459625244,0.0,-0.011938279494643211
140.0,209.0,6.0168,-3.8506,5.9157,-0.0292,0.0276,-0.1164,-1.8315636120238246,0.0,3.2265753746032715,-1.0706114768981934,-0.0,2.157609462738037,3.577469511623047,-0.0,0.25169306993484497,-1.458750073109762,0.0,-0.012823289260268211,1.1195182800292969,0.0,0.0024758768267929554,1.0961894989013672,0.0,-0.013512862846255302
140.0,209.0,6.0168,-3.8506,5.9157,-0.0292,0.0276,-0.1164,-1.8315712414183558,0.0,3.224520683288574,-1.070631742477417,-0.0,2.0961766242980957,3.577453299159668,-0.0,0.2532167434692383,-1.458710018788473,0.0,-0.002186885103583336,1.1195142269134521,0.0,-0.009023772552609444,1.0962214469909668,0.0,0.012038970366120338
140.0,209.0,6.0168,-3.8506,5.9157,-0.0292,0.0276,-0.1164,-1.8315955601134242,0.0,3.215712070465088,-1.0705629587173462,-0.0,2.1005494594573975,3.5774332719990234,-0.0,0.2667425274848938,-1.4587462584124964,0.0,0.0002423413097858429,1.1195508241653442,0.0,-0.002936747157946229,1.0962457656860352,0.0,0.006823219824582338
140.0,209.0,6.0168,-3.8506,5.9157,-0.0292,0.0276,-0.1164,-1.8316241703429164,0.0,3.246009349822998,-1.0706157684326172,-0.0,2.142585515975952,3.577453299159668,-0.0,0.26092469692230225,-1.4587419668780726,0.0,-0.019916387274861336,1.1195544004440308,0.0,-0.007341489195823669,1.0962295532226562,0.0,0.017732778564095497
140.0,209.0,6.0168,-3.8506,5.9157,-0.0292,0.0276,-0.1164,-1.8316079578795375,0.0,3.2195067405700684,-1.0706157684326172,-0.0,2.110914707183838,3.577453299159668,-0.0,0.24862825870513916,-1.4586899916278284,0.0,-0.014947408810257912,1.1194772720336914,0.0,-0.0019974091555923223,1.0962176322937012,0.0,0.010572096332907677
128.0,203.0,6.0969,-3.8345,5.7948,-0.0328,0.0229,-0.1246,-1.831616064111227,0.0,3.2208878993988037,-1.070619821548462,-0.0,2.149770498275757,3.577497645015381,-0.0,0.24523019790649414,-1.4587176481830042,0.0,-0.016054881736636162,1.1195142269134521,0.0,-0.004474253859370947,1.0962657928466797,0.0,-0.009698458015918732
128.0,203.0,6.0969,-3.8345,5.7948,-0.0328,0.0229,-0.1246,-1.8315588436522425,0.0,3.2428836822509766,-1.0706398487091064,-0.0,2.0988783836364746,3.577477141017578,-0.0,0.2507553696632385,-1.4587424437152308,0.0,-0.010576009750366211,1.1195662021636963,0.0,-0.012032564729452133,1.096205472946167,0.0,-0.012250840663909912
128.0,203.0,6.0969,-3.8345,5.7948,-0.0328,0.0229,-0.1246,-1.8315712414183558,0.0,3.242908000946045,-1.0705950260162354,-0.0,2.107271194458008,3.5775224405476074,-0.0,0.2614142894744873,-1.4587262312518519,0.0,-0.009750709868967533,1.119558572769165,0.0,0.0019010340329259634,1.096205472946167,0.0,-0.015005520544946194
128.0,203.0,6.0969,-3.8345,5.7948,-0.0328,0.0229,-0.1246,-1.8315712414183558,0.0,3.2392282485961914,-1.0706194639205933,-0.0,2.1549344062805176,3.5774690347858886,-0.0,0.25115078687667847,-1.4587143103228968,0.0,-0.01969532109797001,1.1195099353790283,0.0,-0.005160856992006302,1.096193552017212,0.0,-0.018221309408545494
128.0,203.0,6.0969,-3.8345,5.7948,-0.0328,0.0229,-0.1246,-1.8316041431822718,0.0,3.230262279510498,-1.070611596107483,-0.0,2.1556899547576904,3.577469511623047,-0.0,0.25562217831611633,-1.4587343374835413,0.0,-0.005142577458173037,1.1194648742675781,0.0,-0.010738905519247055,1.0962536334991455,0.0,0.0020703505724668503
128.0,203.0,6.0969,-3.8345,5.7948,-0.0328,0.0229,-0.1246,-1.8315593204894007,0.0,3.211111307144165,-1.070648193359375,-0.0,2.0676610469818115,3.577477141017578,-0.0,0.26671501994132996,-1.4586699644671839,0.0,-0.017533035948872566,1.1195502281188965,0.0,-0.011764360591769218,1.096269965171814,0.0,-0.007607043720781803
128.0,203.0,6.0969,-3.8345,5.7948,-0.0328,0.0229,-0.1246,-1.8316074810423792,0.0,3.252748489379883,-1.0706238746643066,-0.0,2.1057000160217285,3.5775138574787597,-0.0,0.2505858242511749,-1.4587181250201624,0.0,-0.010590830817818642,1.1195142269134521,0.0,-0.009935693815350533,1.0962133407592773,0.0,-0.04480701684951782
128.0,203.0,6.0969,-3.8345,5.7948,-0.0328,0.0229,-0.1246,-1.8315478763976039,0.0,3.2011759281158447,-1.070651888847351,-0.0,2.153891086578369,3.577469511623047,-0.0,0.25234293937683105,-1.4586899916278284,0.0,-0.02879834920167923,1.1196023225784302,0.0,0.004206162411719561,1.0962295532226562,0.0,-0.023655787110328674
128.0,203.0,6.0969,-3.8345,5.7948,-0.0328,0.0229,-0.1246,-1.8315955601134242,0.0,3.2616801261901855,-1.0706357955932617,-0.0,2.1367030143737793,3.577465220088623,-0.0,0.2598315477371216,-1.458733860646383,0.0,-0.01260142307728529,1.119489073753357,0.0,-0.008298278786242008,1.0961854457855225,0.0,0.023137640208005905
128.0,203.0,6.0969,-3.8345,5.7948,-0.0328,0.0229,-0.1246,-1.8315955601134242,0.0,3.2132725715637207,-1.070639967918396,-0.0,2.083624839782715,3.577521963710449,-0.0,0.26103854179382324,-1.4586899916278284,0.0,-0.0012526698410511017,1.1195788383483887,0.0,-0.009772256948053837,1.0962376594543457,0.0,-0.06355639547109604
128.0,203.0,6.0969,-3.8345,5.7948,-0.0328,0.0229,-0.1246,-1.8316041431822718,0.0,3.229386329650879,-1.0706554651260376,-0.0,2.081566333770752,3.577437563533447,-0.0,0.254364937543869,-1.45866567293276,0.0,-0.015365182422101498,1.1195627450942993,0.0,-0.013519815169274807,1.096205472946167,0.0,-0.007418500725179911
128.0,203.0,6.0969,-3.8345,5.7948,-0.0328,0.0229,-0.1246,-1.8316041431822718,0.0,3.263317108154297,-1.0706398487091064,-0.0,2.1283366680145264,3.5774289804645996,-0.0,0.26124107837677,-1.4587419668780726,0.0,-0.0025583901442587376,1.1195182800292969,0.0,-0.00974658876657486,1.0962295532226562,0.0,-0.006420624442398548
128.0,203.0,6.0969,-3.8345,5.7948,-0.0328,0.0229,-0.1246,-1.8316074810423792,0.0,3.19071364402771,-1.070631742477417,-0.0,2.111144781112671,3.5774895387836914,-0.0,0.2536494731903076,-1.458710018788473,0.0,-0.015215450897812843,1.1195223331451416,0.0,-0.005437745247036219,1.096233606338501,0.0,0.004639432765543461
132.0,208.0,6.1358,-3.8285,5.723,-0.0394,0.0279,-0.119,-1.831583162347311,0.0,3.195838451385498,-1.0706281661987305,-0.0,2.1575350761413574,3.5775343614765625,-0.0,0.2766839265823364,-1.458721939717428,0.0,-0.010486479848623276,1.119497537612915,0.0,-0.00702215451747179,1.0961813926696777,0.0,0.0020110527984797955
132.0,208.0,6.1358,-3.8285,5.723,-0.0394,0.0279,-0.119,-1.831583162347311,0.0,3.25924015045166,-1.0706554651260376,-0.0,2.164771556854248,3.5774575906940917,-0.0,0.2555282711982727,-1.4587143103228968,0.0,-0.01671498641371727,1.119497537612915,0.0,0.008087574504315853,1.0962214469909668,0.0,0.023508328944444656
132.0,208.0,6.1358,-3.8285,5.723,-0.0394,0.0279,-0.119,-1.8316041431822718,0.0,3.262702465057373,-1.0706031322479248,-0.0,2.0869526863098145,3.577453299159668,-0.0,0.2631516456604004,-1.4586532751666468,0.0,-0.01128414273262024,1.1195223331451416,0.0,-0.0031693079508841038,1.0962295532226562,0.0,-0.009820520877838135
132.0,208.0,6.1358,-3.8285,5.723,-0.0394,0.0279,-0.119,-1.8315793476500453,0.0,3.2075257301330566,-1.070688009262085,-0.0,2.1071128845214844,3.577477141017578,-0.0,0.26169437170028687,-1.458681885396139,0.0,-0.006812810432165861,1.119558572769165,0.0,-0.0038553860504180193,1.096245527267456,0.0,-0.011828952468931675
132.0,208.0,6.1358,-3.8285,5.723,-0.0394,0.0279,-0.119,-1.8315712414183558,0.0,3.2221360206604004,-1.0706071853637695,-0.0,2.1359589099884033,3.5774494844624023,-0.0,0.24673941731452942,-1.4587176481830042,0.0,-0.006102879531681538,1.1195461750030518,0.0,-0.01163031067699194,1.0962214469909668,0.0,0.03637582063674927
132.0,208.0,6.1358,-3.8285,5.723,-0.0394,0.0279,-0.119,-1.8315755329527796,0.0,3.2256698608398438,-1.0706477165222168,-0.0,2.0722861289978027,3.5774857240864257,-0.0,0.26449447870254517,-1.4587138334857386,0.0,-0.0104043148458004,1.1195307970046997,0.0,0.0011575163807719946,1.096217393875122,0.0,-0.008068723604083061
132.0,208.0,6.1358,-3.8285,5.723,-0.0394,0.0279,-0.119,-1.831599851647848,0.0,3.2282509803771973,-1.070688009262085,-0.0,2.1259617805480957,3.577469511623047,-0.0,0.25776445865631104,-1.4587143103228968,0.0,-0.003507226938381791,1.1195266246795654,0.0,-0.0033742340747267008,1.0962495803833008,0.0,-0.012389510869979858
132.0,208.0,6.1358,-3.8285,5.723,-0.0394,0.0279,-0.119,-1.831526895562643,0.0,3.237499713897705,-1.07066011428833,-0.0,2.1179769039154053,3.5775057512470703,-0.0,0.2527419328689575,-1.4587019125567835,0.0,-0.017136801034212112,1.1195502281188965,0.0,-0.001988143427297473,1.0962294340133667,0.0,-0.01314145140349865
132.0,208.0,6.1358,-3.8285,5.723,-0.0394,0.0279,-0.119,-1.831616064111227,0.0,3.2735562324523926,-1.0706398487091064,-0.0,2.0709714889526367,3.577481432552002,-0.0,0.2563132345676422,-1.458693806325094,0.0,-0.019247571006417274,1.1195056438446045,0.0,-0.00851951353251934,1.0962377786636353,0.0,-0.011084727942943573
132.0,208.0,6.1358,-3.8285,5.723,-0.0394,0.0279,-0.119,-1.8316079578795375,0.0,3.223362922668457,-1.0706477165222168,-0.0,2.126344919204712,3.5774618822285156,-0.0,0.25039973855018616,-1.4587176481830042,0.0,-0.010047445073723793,1.1195703744888306,0.0,0.001194443553686142,1.0961973667144775,0.0,0.0002160361036658287
132.0,208.0,6.1358,-3.8285,5.723,-0.0394,0.0279,-0.119,-1.8315917454161585,0.0,3.209470748901367,-1.0706071853637695,-0.0,2.0983972549438477,3.5775582033344726,-0.0,0.2553603947162628,-1.4587581793414515,0.0,-0.02503487840294838,1.119489073753357,0.0,-0.002137757372111082,1.0961933135986328,0.0,-0.0702957734465599
132.0,208.0,6.1358,-3.8285,5.723,-0.0394,0.0279,-0.119,-1.8316036663451136,0.0,3.2411603927612305,-1.0706157684326172,-0.0,2.168067693710327,3.577465220088623,-0.0,0.2635670304298401,-1.4587019125567835,0.0,-0.005477442406117916,1.1195056438446045,0.0,-0.006347851362079382,1.096205234527588,0.0,-0.004680598620325327
134.0,203.0,6.0855,-3.8148,5.8642,-0.0385,0.0249,-0.1252,-1.831599851647848,0.0,3.2215843200683594,-1.0706477165222168,-0.0,2.1466994285583496,3.5774170595356445,-0.0,0.24397331476211548,-1.4587057272540491,0.0,-0.014865240082144737,1.1195223331451416,0.0,-0.004109436180442572,1.0962294340133667,0.0,-0.019780993461608887
134.0,203.0,6.0855,-3.8148,5.8642,-0.0385,0.0249,-0.1252,-1.8315917454161585,0.0,3.240718364715576,-1.0706558227539062,-0.0,2.1171183586120605,3.5774409013935546,-0.0,0.25086426734924316,-1.4587019125567835,0.0,-0.00637431163340807,1.1195182800292969,0.0,-0.006476735230535269,1.096205472946167,0.0,-0.01294239703565836
134.0,203.0,6.0855,-3.8148,5.8642,-0.0385,0.0249,-0.1252,-1.8315631351866664,0.0,3.2578954696655273,-1.070643663406372,-0.0,2.1039979457855225,3.577497645015381,-0.0,0.2611074149608612,-1.4587181250201624,0.0,-0.010595886036753654,1.119558572769165,0.0,0.0037013734690845013,1.096261739730835,0.0,0.03755653649568558
134.0,203.0,6.0855,-3.8148,5.8642,-0.0385,0.0249,-0.1252,-1.831599851647848,0.0,3.2574362754821777,-1.0706031322479248,-0.0,2.1304638385772705,3.577525778407715,-0.0,0.26878437399864197,-1.458710018788473,0.0,0.0015344740822911263,1.119530200958252,0.0,0.005464112386107445,1.0962095260620117,0.0,0.003925686236470938
134.0,203.0,6.0855,-3.8148,5.8642,-0.0385,0.0249,-0.1252,-1.8315917454161585,0.0,3.1933984756469727,-1.070611596107483,-0.0,2.106067180633545,3.5774857240864257,-0.0,0.2531469166278839,-1.458738152180807,0.0,-0.015584839507937431,1.1195307970046997,0.0,-0.0062535773031413555,1.0962095260620117,0.0,-0.0018617884488776326
134.0,203.0,6.0855,-3.8148,5.8642,-0.0385,0.0249,-0.1252,-1.8315750561156214,0.0,3.234811305999756,-1.0706114768981934,-0.0,2.1095008850097656,3.57748190938916,-0.0,0.2598242163658142,-1.458761994038717,0.0,-0.00507153058424592,1.1195015907287598,0.0,-0.010096858255565166,1.0962088108062744,0.0,-0.04862523823976517
134.0,203.0,6.0855,-3.8148,5.8642,-0.0385,0.0249,-0.1252,-1.831583162347311,0.0,3.224789619445801,-1.0706677436828613,-0.0,2.0909695625305176,3.577481432552002,-0.0,0.25461792945861816,-1.4587300459491175,0.0,-0.0014259018935263157,1.1195266246795654,0.0,-0.009059869684278965,1.0961655378341675,0.0,0.00208463566377759
134.0,203.0,6.0855,-3.8148,5.8642,-0.0385,0.0249,-0.1252,-1.831616064111227,0.0,3.250495433807373,-1.0706157684326172,-0.0,2.1201703548431396,3.57748190938916,-0.0,0.25479385256767273,-1.4586980978595179,0.0,-0.0032782861962914467,1.1195182800292969,0.0,-0.0020263749174773693,1.0962255001068115,0.0,0.011116157285869122
134.0,203.0,6.0855,-3.8148,5.8642,-0.0385,0.0249,-0.1252,-1.8315712414183558,0.0,3.2102482318878174,-1.0706157684326172,-0.0,2.1234564781188965,3.577493830318115,-0.0,0.2701718211174011,-1.4587143103228968,0.0,-0.006683792918920517,1.1195542812347412,0.0,-0.012049558572471142,1.0962053537368774,0.0,-0.009969701990485191
134.0,203.0,6.0855,-3.8148,5.8642,-0.0385,0.0249,-0.1252,-1.8316241703429164,0.0,3.2595062255859375,-1.0706197023391724,-0.0,2.0859529972076416,3.5775014597126464,-0.0,0.26319533586502075,-1.4586980978595179,0.0,-0.010168232023715973,1.119489073753357,0.0,-0.004141547251492739,1.0961815118789673,0.0,-0.0027056094259023666
134.0,203.0,6.0855,-3.8148,5.8642,-0.0385,0.0249,-0.1252,-1.8316360912718714,0.0,3.240175247192383,-1.0706398487091064,-0.0,2.139461040496826,3.5774776178547363,-0.0,0.2520070970058441,-1.4586899916278284,0.0,-0.01844748482108116,1.1195542812347412,0.0,-0.015343181788921356,1.0962536334991455,0.0,-0.004103966988623142
134.0,203.0,6.0855,-3.8148,5.8642,-0.0385,0.0249,-0.1252,-1.8315712414183558,0.0,3.239382743835449,-1.070615530014038,-0.0,2.087430477142334,3.5774857240864257,-0.0,0.25751742720603943,-1.458710018788473,0.0,-0.008688963949680328,1.1195662021636963,0.0,0.001012254972010851,1.0962214469909668,0.0,0.0097645353525877
134.0,203.0,6.0855,-3.8148,5.8642,-0.0385,0.0249,-0.1252,-1.8315955601134242,0.0,3.249683380126953,-1.0706238746643066,-0.0,2.0937044620513916,3.5775014597126464,-0.0,0.2625354528427124,-1.4587343374835413,0.0,-0.00994541123509407,1.1195425987243652,0.0,-0.0061940839514136314,1.0962417125701904,0.0,0.011632225476205349
136.0,207.0,5.9803,-3.8518,5.9192,-0.0373,0.033,-0.1246,-1.831611772576803,0.0,3.2401599884033203,-1.070619821548462,-0.0,2.100736618041992,3.5774494844624023,-0.0,0.2651751935482025,-1.4587257544146937,0.0,-0.013850521296262741,1.1195263862609863,0.0,-0.010685250163078308,1.0962376594543457,0.0,-0.013147405348718166
136.0,207.0,5.9803,-3.8518,5.9192,-0.0373,0.033,-0.1246,-1.831583639184469,0.0,3.262369155883789,-1.070643663406372,-0.0,2.0913102626800537,3.5774614053913574,-0.0,0.26225584745407104,-1.4586780706988733,0.0,-0.016227465122938156,1.1195467710494995,0.0,-0.00956148561090231,1.0962376594543457,0.0,0.02906913124024868
136.0,207.0,5.9803,-3.8518,5.9192,-0.0373,0.033,-0.1246,-1.8316241703429164,0.0,3.2587952613830566,-1.0707002878189087,-0.0,2.066159725189209,3.5774738031574707,-0.0,0.2579834461212158,-1.4587300459491175,0.0,-0.022395681589841843,1.1195100545883179,0.0,-0.006627164781093597,1.0962214469909668,0.0,-0.013695456087589264
136.0,207.0,5.9803,-3.8518,5.9192,-0.0373,0.033,-0.1246,-1.831616064111227,0.0,3.266902446746826,-1.0706558227539062,-0.0,2.125399112701416,3.5774776178547363,-0.0,0.25340887904167175,-1.4586780706988733,0.0,-0.0029512629844248295,1.1195142269134521,0.0,-0.0035841441713273525,1.0961936712265015,0.0,-0.047799065709114075
136.0,207.0,5.9803,-3.8518,5.9192,-0.0373,0.033,-0.1246,-1.831599851647848,0.0,3.235652446746826,-1.0706398487091064,-0.0,2.1548240184783936,3.5774170595356445,-0.0,0.2601167559623718,-1.4587462584124964,0.0,0.002594034420326352,1.1195307970046997,0.0,-0.00960622914135456,1.0962095260620117,0.0,-0.0132024846971035
136.0,207.0,5.9803,-3.8518,5.9192,-0.0373,0.033,-0.1246,-1.831583162347311,0.0,3.2093629837036133,-1.0706477165222168,-0.0,2.148815155029297,3.577497645015381,-0.0,0.26986414194107056,-1.4586942831622522,0.0,-0.011251459829509258,1.1195100545883179,0.0,-0.007356174290180206,1.0961815118789673,0.0,0.018665077164769173
136.0,207.0,5.9803,-3.8518,5.9192,-0.0373,0.033,-0.1246,-1.831555028954977,0.0,3.1940560340881348,-1.0706238746643066,-0.0,2.1270151138305664,3.5774494844624023,-0.0,0.2538594603538513,-1.4587019125567835,0.0,-0.007047048769891262,1.119489073753357,0.0,-0.0058580138720571995,1.0962135791778564,0.0,-0.011762425303459167
136.0,207.0,5.9803,-3.8518,5.9192,-0.0373,0.033,-0.1246,-1.8316036663451136,0.0,3.238600730895996,-1.0706719160079956,-0.0,2.138775110244751,3.5774857240864257,-0.0,0.2536080777645111,-1.458710018788473,0.0,-0.006787615828216076,1.1195015907287598,0.0,-0.009749596938490868,1.0962133407592773,0.0,-0.014975945465266705
136.0,207.0,5.9803,-3.8518,5.9192,-0.0373,0.033,-0.1246,-1.831599851647848,0.0,3.246525764465332,-1.0706276893615723,-0.0,2.1059231758117676,3.577481432552002,-0.0,0.2496035099029541,-1.4586780706988733,0.0,-0.019628066569566727,1.1195307970046997,0.0,-0.008002898655831814,1.0962133407592773,0.0,0.029515160247683525
136.0,207.0,5.9803,-3.8518,5.9192,-0.0373,0.033,-0.1246,-1.831583162347311,0.0,3.228285789489746,-1.0706477165222168,-0.0,2.1127357482910156,3.577453299159668,-0.0,0.26591089367866516,-1.4587300459491175,0.0,-0.012028934434056282,1.119505763053894,0.0,-0.004140002187341452,1.096261739730835,0.0,-0.0014703981578350067
136.0,207.0,5.9803,-3.8518,5.9192,-0.0373,0.033,-0.1246,-1.8315955601134242,0.0,3.2085673809051514,-1.0706477165222168,-0.0,2.1421546936035156,3.5774895387836914,-0.0,0.27139562368392944,-1.4587143103228968,0.0,-0.002389515284448862,1.1195142269134521,0.0,-1.0702060535550117e-06,1.096217393875122,0.0,-0.009325521998107433
136.0,207.0,5.9803,-3.8518,5.9192,-0.0373,0.033,-0.1246,-1.8316041431822718,0.0,3.1917920112609863,-1.070631742477417,-0.0,2.1563961505889893,3.5774494844624023,-0.0,0.25238388776779175,-1.458710018788473,0.0,-0.019137030467391014,1.1195015907287598,0.0,-0.007330852095037699,1.0962657928466797,0.0,0.018398357555270195
130.0,208.0,6.0144,-3.9045,6.0036,-0.0269,0.0154,-0.1179,-1.8316437206664027,0.0,3.2299818992614746,-1.07059907913208,-0.0,2.0887866020202637,3.577481432552002,-0.0,0.2639492154121399,-1.4586980978595179,0.0,-0.021341528743505478,1.1195383071899414,0.0,-0.0016425128560513258,1.096261739730835,0.0,-0.0011621881276369095
130.0,208.0,6.0144,-3.9045,6.0036,-0.0269,0.0154,-0.1179,-1.8316074810423792,0.0,3.2330760955810547,-1.0706678628921509,-0.0,2.1145904064178467,3.5775014597126464,-0.0,0.255657434463501,-1.4586699644671839,0.0,-0.011163456365466118,1.1195182800292969,0.0,-0.01090829074382782,1.096217393875122,0.0,0.00822929386049509
130.0,208.0,6.0144,-3.9045,6.0036,-0.0269,0.0154,-0.1179,-1.831583162347311,0.0,3.258880138397217,-1.0705995559692383,-0.0,2.1382906436920166,3.5774332719990234,-0.0,0.2577784061431885,-1.4586980978595179,0.0,0.0027670031413435936,1.119497537612915,0.0,0.0015157272573560476,1.0962417125701904,0.0,0.007464608643203974
130.0,208.0,6.0144,-3.9045,6.0036,-0.0269,0.0154,-0.1179,-1.831599851647848,0.0,3.2444396018981934,-1.07066011428833,-0.0,2.1245510578155518,3.577477141017578,-0.0,0.25787097215652466,-1.4587262312518519,0.0,-0.013541230000555515,1.1195265054702759,0.0,-0.004690145142376423,1.0962698459625244,0.0,-0.02266106568276882
130.0,208.0,6.0144,-3.9045,6.0036,-0.0269,0.0154,-0.1179,-1.831599851647848,0.0,3.2603507041931152,-1.0706477165222168,-0.0,2.1568474769592285,3.5774857240864257,-0.0,0.26308029890060425,-1.458693806325094,0.0,-0.023277027532458305,1.1195182800292969,0.0,0.006723129190504551,1.0962817668914795,0.0,-0.04187620431184769
130.0,208.0,6.0144,-3.9045,6.0036,-0.0269,0.0154,-0.1179,-1.831583162347311,0.0,3.201864719390869,-1.0706719160079956,-0.0,2.10038685798645,3.5774451929279785,-0.0,0.2695627212524414,-1.458738152180807,0.0,-0.003968164324760437,1.1195621490478516,0.0,-0.005733022000640631,1.0961655378341675,0.0,-0.02092624269425869
130.0,208.0,6.0144,-3.9045,6.0036,-0.0269,0.0154,-0.1179,-1.8315674267210902,0.0,3.255669116973877,-1.0705671310424805,-0.0,2.1084043979644775,3.5774733263203125,-0.0,0.257130891084671,-1.4586780706988733,0.0,-0.013209897093474865,1.1195099353790283,0.0,-0.008403242565691471,1.0962417125701904,0.0,-0.013437708839774132
130.0,208.0,6.0144,-3.9045,6.0036,-0.0269,0.0154,-0.1179,-1.831627985040182,0.0,3.1936895847320557,-1.0705912113189697,-0.0,2.1113619804382324,3.5774895387836914,-0.0,0.2334194928407669,-1.458710018788473,0.0,-0.014514239504933357,1.1194933652877808,0.0,-0.0017945165745913982,1.096233606338501,0.0,0.013716058805584908
130.0,208.0,6.0144,-3.9045,6.0036,-0.0269,0.0154,-0.1179,-1.831583162347311,0.0,3.2382290363311768,-1.0706517696380615,-0.0,2.0828893184661865,3.577437563533447,-0.0,0.2588520348072052,-1.4586976210223597,0.0,-0.019050700590014458,1.1195142269134521,0.0,-0.008741110563278198,1.0961933135986328,0.0,0.02495015785098076
130.0,208.0,6.0144,-3.9045,6.0036,-0.0269,0.0154,-0.1179,-1.8316041431822718,0.0,3.2205071449279785,-1.070643663406372,-0.0,2.141775131225586,3.577469511623047,-0.0,0.25774040818214417,-1.4587176481830042,0.0,-0.0030849138274788857,1.1195502281188965,0.0,-0.013422640971839428,1.0962738990783691,0.0,0.01218351349234581
130.0,208.0,6.0144,-3.9045,6.0036,-0.0269,0.0154,-0.1179,-1.8315874538817347,0.0,3.202937126159668,-1.0706477165222168,-0.0,2.1263763904571533,3.577481432552002,-0.0,0.2656498849391937,-1.4587057272540491,0.0,-0.015855221077799797,1.1195099353790283,0.0,-0.010224522091448307,1.0962295532226562,0.0,0.00472297752276063
130.0,208.0,6.0144,-3.9045,6.0036,-0.0269,0.0154,-0.1179,-1.8316556415953578,0.0,3.240969181060791,-1.0706760883331299,-0.0,2.073392391204834,3.5774494844624023,-0.0,0.27472156286239624,-1.4587023893939417,0.0,-0.0007966728881001472,1.1195261478424072,0.0,-0.010172352194786072,1.096233606338501,0.0,-0.02614576369524002
130.0,208.0,6.0144,-3.9045,6.0036,-0.0269,0.0154,-0.1179,-1.8315755329527796,0.0,3.2073440551757812,-1.0706357955932617,-0.0,2.171884059906006,3.5775014597126464,-0.0,0.261466920375824,-1.4586899916278284,0.0,-0.007167099043726921,1.1195101737976074,0.0,0.002808223245665431,1.0962417125701904,0.0,-0.002256941981613636
134.0,208.0,6.1089,-3.8231,5.7535,-0.0399,0.0252,-0.1206,-1.831616064111227,0.0,3.2303483486175537,-1.07066011428833,-0.0,2.0756783485412598,3.577481432552002,-0.0,0.25430431962013245,-1.458738152180807,0.0,-0.02248143032193184,1.1194933652877808,0.0,-0.010363866575062275,1.096245527267456,0.0,-0.033468097448349
134.0,208.0,6.1089,-3.8231,5.7535,-0.0399,0.0252,-0.1206,-1.831583162347311,0.0,3.2594146728515625,-1.0706157684326172,-0.0,2.1370351314544678,3.5774456697651367,-0.0,0.2659260630607605,-1.4587181250201624,0.0,-0.015417102724313736,1.1194976568222046,0.0,-0.017874009907245636,1.096261739730835,0.0,0.006590679287910461
134.0,208.0,6.1089,-3.8231,5.7535,-0.0399,0.0252,-0.1206,-1.8316036663451136,0.0,3.241058111190796,-1.07066011428833,-0.0,2.114751100540161,3.5774494844624023,-0.0,0.25770312547683716,-1.4587343374835413,0.0,-0.008937748149037361,1.1195424795150757,0.0,-0.007902971468865871,1.0962175130844116,0.0,0.008765073493123055
134.0,208.0,6.1089,-3.8231,5.7535,-0.0399,0.0252,-0.1206,-1.8315674267210902,0.0,3.259159564971924,-1.0707284212112427,-0.0,2.0955209732055664,3.577481432552002,-0.0,0.2628738582134247,-1.4587581793414515,0.0,-0.010194067843258381,1.1194690465927124,0.0,-0.013230787590146065,1.096245527267456,0.0,-0.009977083653211594
134.0,208.0,6.1089,-3.8231,5.7535,-0.0399,0.0252,-0.1206,-1.8315874538817347,0.0,3.23746395111084,-1.0706394910812378,-0.0,2.1513900756835938,3.577481432552002,-0.0,0.2555883526802063,-1.4587300459491175,0.0,-0.013973291963338852,1.1195223331451416,0.0,-0.0021720235235989094,1.0962495803833008,0.0,-0.004412214737385511
134.0,208.0,6.1089,-3.8231,5.7535,-0.0399,0.0252,-0.1206,-1.8316041431822718,0.0,3.195819616317749,-1.0706322193145752,-0.0,2.084606170654297,3.577481432552002,-0.0,0.25985187292099,-1.4587143103228968,0.0,-0.013070043176412582,1.1195265054702759,0.0,-0.00029637175612151623,1.0962095260620117,0.0,-0.05627964437007904
134.0,208.0,6.1089,-3.8231,5.7535,-0.0399,0.0252,-0.1206,-1.8315588436522425,0.0,3.238858699798584,-1.07066011428833,-0.0,2.099114179611206,3.5774895387836914,-0.0,0.2699679136276245,-1.458710018788473,0.0,-0.011521270498633385,1.1195348501205444,0.0,-0.006482725031673908,1.0962014198303223,0.0,0.02995595708489418
134.0,208.0,6.1089,-3.8231,5.7535,-0.0399,0.0252,-0.1206,-1.831566949883932,0.0,3.2641799449920654,-1.0705591440200806,-0.0,2.164454460144043,3.5774571138569335,-0.0,0.25375038385391235,-1.458693806325094,0.0,-0.014218103140592575,1.1194850206375122,0.0,0.0006669068243354559,1.0962536334991455,0.0,0.007099048234522343
134.0,208.0,6.1089,-3.8231,5.7535,-0.0399,0.0252,-0.1206,-1.8316236935057582,0.0,3.2118425369262695,-1.0706477165222168,-0.0,2.082101583480835,3.577510042781494,-0.0,0.2566014230251312,-1.4586857000934046,0.0,-0.0065622334368526936,1.1195467710494995,0.0,-0.00517713837325573,1.0962536334991455,0.0,-0.016060251742601395
134.0,208.0,6.1089,-3.8231,5.7535,-0.0399,0.0252,-0.1206,-1.831611772576803,0.0,3.2496328353881836,-1.070631742477417,-0.0,2.1604065895080566,3.577437563533447,-0.0,0.2520829439163208,-1.458738152180807,0.0,-0.005982719827443361,1.1195467710494995,0.0,-0.009777200408279896,1.0961655378341675,0.0,-0.009497441351413727
134.0,208.0,6.1089,-3.8231,5.7535,-0.0399,0.0252,-0.1206,-1.8316523037352503,0.0,3.236055850982666,-1.0705589056015015,-0.0,2.100252628326416,3.5774332719990234,-0.0,0.2600211501121521,-1.4587419668780726,0.0,-0.007209841161966324,1.1195142269134521,0.0,-0.00948210060596466,1.0961973667144775,0.0,0.00016010785475373268
134.0,208.0,6.1089,-3.8231,5.7535,-0.0399,0.0252,-0.1206,-1.831583162347311,0.0,3.255119800567627,-1.070611596107483,-0.0,2.073920726776123,3.577489061946533,-0.0,0.2621157765388489,-1.4587419668780726,0.0,-0.014970052056014538,1.1195223331451416,0.0,0.0021394481882452965,1.0962376594543457,0.0,-0.010719455778598785
136.0,214.0,6.07,-3.7986,5.7829,-0.0411,0.0215,-0.1206,-1.831599851647848,0.0,3.192747116088867,-1.070631742477417,-0.0,2.112943649291992,3.5774895387836914,-0.0,0.250027596950531,-1.4587462584124964,0.0,-0.028366640210151672,1.1195223331451416,0.0,-0.010169273242354393,1.0962214469909668,0.0,0.02053859457373619
136.0,214.0,6.07,-3.7986,5.7829,-0.0411,0.0215,-0.1206,-1.831510683099264,0.0,3.238877773284912,-1.070696234703064,-0.0,2.112926483154297,3.5774451929279785,-0.0,0.24033284187316895,-1.4586976210223597,0.0,-0.011605274863541126,1.119505763053894,0.0,0.003936387598514557,1.0962376594543457,0.0,-0.03869914263486862
136.0,214.0,6.07,-3.7986,5.7829,-0.0411,0.0215,-0.1206,-1.8315712414183558,0.0,3.2367942333221436,-1.0706281661987305,-0.0,2.158895492553711,3.577465220088623,-0.0,0.24737036228179932,-1.4587143103228968,0.0,-0.016972852870821953,1.1195181608200073,0.0,0.004261688329279423,1.0962095260620117,0.0,0.014587230049073696
136.0,214.0,6.07,-3.7986,5.7829,-0.0411,0.0215,-0.1206,-1.8315874538817347,0.0,3.225322723388672,-1.0706682205200195,-0.0,2.085314989089966,3.5774857240864257,-0.0,0.2697448134422302,-1.458681885396139,0.0,-0.022480428218841553,1.1194655895233154,0.0,-0.006105039268732071,1.0961815118789673,0.0,-0.001131055410951376
136.0,214.0,6.07,-3.7986,5.7829,-0.0411,0.0215,-0.1206,-1.831583162347311,0.0,3.2188796997070312,-1.070603370666504,-0.0,2.111495018005371,3.5774738031574707,-0.0,0.2659747898578644,-1.458750073109762,0.0,-0.009970832616090775,1.1194729804992676,0.0,-0.015025397762656212,1.0962457656860352,0.0,0.0008063053828664124
136.0,214.0,6.07,-3.7986,5.7829,-0.0411,0.0215,-0.1206,-1.8316642246642054,0.0,3.2130990028381348,-1.070619821548462,-0.0,2.1382110118865967,3.577481432552002,-0.0,0.26813405752182007,-1.458710018788473,0.0,-0.012121850624680519,1.1194851398468018,0.0,-0.0039690290577709675,1.0962014198303223,0.0,0.006620986387133598
136.0,214.0,6.07,-3.7986,5.7829,-0.0411,0.0215,-0.1206,-1.8315712414183558,0.0,3.1958208084106445,-1.070619821548462,-0.0,2.118729591369629,3.5774776178547363,-0.0,0.27213701605796814,-1.458693806325094,0.0,-0.021585581824183464,1.119489073753357,0.0,-0.01328220497816801,1.0963060855865479,0.0,0.026935167610645294
136.0,214.0,6.07,-3.7986,5.7829,-0.0411,0.0215,-0.1206,-1.8315874538817347,0.0,3.224684000015259,-1.0706558227539062,-0.0,2.1173529624938965,3.57742087423291,-0.0,0.26282888650894165,-1.4587419668780726,0.0,-0.014143389649689198,1.1195101737976074,0.0,-0.001672165235504508,1.096217393875122,0.0,-0.0007412144914269447
136.0,214.0,6.07,-3.7986,5.7829,-0.0411,0.0215,-0.1206,-1.8316241703429164,0.0,3.1941184997558594,-1.0706559419631958,-0.0,2.1475319862365723,3.5774165826984863,-0.0,0.2556420564651489,-1.4587143103228968,0.0,-0.004622681997716427,1.1195180416107178,0.0,-0.003650509752333164,1.0962698459625244,0.0,-0.03856136277318001
136.0,214.0,6.07,-3.7986,5.7829,-0.0411,0.0215,-0.1206,-1.8316437206664027,0.0,3.258478879928589,-1.070619821548462,-0.0,2.100654125213623,3.5775224405476074,-0.0,0.2528795003890991,-1.4586699644671839,0.0,-0.011285390704870224,1.1195142269134521,0.0,0.007189125753939152,1.0962576866149902,0.0,0.006535164080560207
136.0,214.0,6.07,-3.7986,5.7829,-0.0411,0.0215,-0.1206,-1.8315631351866664,0.0,3.2377188205718994,-1.0706071853637695,-0.0,2.1069819927215576,3.5775458055683593,-0.0,0.26308202743530273,-1.458693806325094,0.0,-0.006932264659553766,1.1195099353790283,0.0,0.0022328312043100595,1.0962417125701904,0.0,-0.023180952295660973
136.0,214.0,6.07,-3.7986,5.7829,-0.0411,0.0215,-0.1206,-1.8315755329527796,0.0,3.2248806953430176,-1.070688009262085,-0.0,2.110088586807251,3.5774895387836914,-0.0,0.2697523236274719,-1.4587138334857386,0.0,-0.010824592784047127,1.1195017099380493,0.0,-0.014586149714887142,1.0962214469909668,0.0,-0.05002981796860695
136.0,214.0,6.07,-3.7986,5.7829,-0.0411,0.0215,-0.1206,-1.8316360912718714,0.0,3.2096188068389893,-1.0706838369369507,-0.0,2.1465468406677246,3.577437563533447,-0.0,0.25552594661712646,-1.4587143103228968,0.0,-0.016500255092978477,1.1195099353790283,0.0,0.0023438804782927036,1.0961973667144775,0.0,0.03257007524371147
137.0,202.0,6.1962,-3.7675,5.5406,-0.0327,0.0299,-0.1301,-1.8315674267210902,0.0,3.22721266746521,-1.0706394910812378,-0.0,2.1229302883148193,3.5775019365498046,-0.0,0.25807303190231323,-1.458721939717428,0.0,-0.014772296883165836,1.119469165802002,0.0,0.0007124945987015963,1.0962738990783691,0.0,0.030824678018689156
137.0,202.0,6.1962,-3.7675,5.5406,-0.0327,0.0299,-0.1301,-1.8315593204894007,0.0,3.2508740425109863,-1.0706238746643066,-0.0,2.0855016708374023,3.577469511623047,-0.0,0.25886672735214233,-1.458710018788473,0.0,-0.019970403984189034,1.1195424795150757,0.0,-0.013508418574929237,1.0962575674057007,0.0,-0.004231450147926807
137.0,202.0,6.1962,-3.7675,5.5406,-0.0327,0.0299,-0.1301,-1.831599851647848,0.0,3.187788963317871,-1.0706441402435303,-0.0,2.1197617053985596,3.5774165826984863,-0.0,0.2648972272872925,-1.4586613813983362,0.0,-0.006330347154289484,1.1195307970046997,0.0,-0.0067787193693220615,1.0962214469909668,0.0,0.07264654338359833
137.0,202.0,6.1962,-3.7675,5.5406,-0.0327,0.0299,-0.1301,-1.8316241703429164,0.0,3.2468912601470947,-1.070648193359375,-0.0,2.1002860069274902,3.577481432552002,-0.0,0.262868732213974,-1.4586857000934046,0.0,-0.012417673133313656,1.1195542812347412,0.0,0.0004366657231003046,1.0962495803833008,0.0,-0.02322053350508213
137.0,202.0,6.1962,-3.7675,5.5406,-0.0327,0.0299,-0.1301,-1.831583162347311,0.0,3.2401716709136963,-1.0705912113189697,-0.0,2.140519142150879,3.577465696925781,-0.0,0.26466402411460876,-1.4587143103228968,0.0,-0.005093317478895187,1.1195182800292969,0.0,-0.004569903016090393,1.0962095260620117,0.0,-0.032874152064323425
137.0,202.0,6.1962,-3.7675,5.5406,-0.0327,0.0299,-0.1301,-1.8315712414183558,0.0,3.237532377243042,-1.070587158203125,-0.0,2.1453466415405273,3.5774857240864257,-0.0,0.25333619117736816,-1.458710018788473,0.0,-0.014480591751635075,1.1195662021636963,0.0,-0.02066035196185112,1.096245527267456,0.0,-0.006432479713112116
137.0,202.0,6.1962,-3.7675,5.5406,-0.0327,0.0299,-0.1301,-1.8315674267210902,0.0,3.249483585357666,-1.0706357955932617,-0.0,2.1506898403167725,3.577481432552002,-0.0,0.2584940493106842,-1.4586780706988733,0.0,-0.0075761545449495316,1.1194932460784912,0.0,0.004726722836494446,1.0962214469909668,0.0,0.020328719168901443
137.0,202.0,6.1962,-3.7675,5.5406,-0.0327,0.0299,-0.1301,-1.8315636120238246,0.0,3.221935272216797,-1.070611596107483,-0.0,2.113201141357422,3.5774451929279785,-0.0,0.2550683319568634,-1.4586980978595179,0.0,-0.024658819660544395,1.1194891929626465,0.0,-0.007498803082853556,1.096245527267456,0.0,-0.011605078354477882
137.0,202.0,6.1962,-3.7675,5.5406,-0.0327,0.0299,-0.1301,-1.8316194019713343,0.0,3.2118444442749023,-1.070619821548462,-0.0,2.079880714416504,3.5774494844624023,-0.0,0.2512395977973938,-1.458710018788473,0.0,-0.021858567371964455,1.1195182800292969,0.0,-0.010583283379673958,1.0962457656860352,0.0,0.005583355203270912
137.0,202.0,6.1962,-3.7675,5.5406,-0.0327,0.0299,-0.1301,-1.8315750561156214,0.0,3.2285799980163574,-1.0706238746643066,-0.0,2.1303529739379883,3.5774614053913574,-0.0,0.2432132363319397,-1.458710018788473,0.0,-0.023355642333626747,1.1195017099380493,0.0,-0.0062586842104792595,1.096217393875122,0.0,-0.0007730198558419943
137.0,202.0,6.1962,-3.7675,5.5406,-0.0327,0.0299,-0.1301,-1.831616064111227,0.0,3.235380172729492,-1.0706559419631958,-0.0,2.1302199363708496,3.577453299159668,-0.0,0.25580698251724243,-1.4586370627032679,0.0,-0.01649114489555359,1.1195182800292969,0.0,-0.004997819662094116,1.096217393875122,0.0,-0.03729651868343353
137.0,202.0,6.1962,-3.7675,5.5406,-0.0327,0.0299,-0.1301,-1.8315631351866664,0.0,3.196068286895752,-1.0706195831298828,-0.0,2.1253600120544434,3.577425165767334,-0.0,0.26371392607688904,-1.4587262312518519,0.0,0.0012471338268369436,1.1195265054702759,0.0,0.0024861174169927835,1.0962214469909668,0.0,0.04547777399420738
132.0,200.0,6.1286,-3.8022,5.7338,-0.0351,0.0308,-0.1263,-1.831583162347311,0.0,3.183074474334717,-1.0706071853637695,-0.0,2.1212756633758545,3.577497645015381,-0.0,0.2579672038555145,-1.4586899916278284,0.0,-0.023671817034482956,1.1194454431533813,0.0,-0.00305952038615942,1.0962457656860352,0.0,0.018937334418296814
132.0,200.0,6.1286,-3.8022,5.7338,-0.0351,0.0308,-0.1263,-1.831555505792135,0.0,3.236659526824951,-1.0706156492233276,-0.0,2.119992256164551,3.5774895387836914,-0.0,0.25802168250083923,-1.4586699644671839,0.0,-0.016593875363469124,1.1195223331451416,0.0,-0.011651119217276573,1.0962657928466797,0.0,-0.04318787530064583
132.0,200.0,6.1286,-3.8022,5.7338,-0.0351,0.0308,-0.1263,-1.831583162347311,0.0,3.2128677368164062,-1.0706156492233276,-0.0,2.1185126304626465,3.577469511623047,-0.0,0.2707470655441284,-1.4587019125567835,0.0,-0.017185386270284653,1.1195223331451416,0.0,0.004934304393827915,1.0962698459625244,0.0,-0.04214675724506378
132.0,200.0,6.1286,-3.8022,5.7338,-0.0351,0.0308,-0.1263,-1.8315755329527796,0.0,3.2407312393188477,-1.0706071853637695,-0.0,2.1135966777801514,3.5774571138569335,-0.0,0.2671172618865967,-1.4587143103228968,0.0,-0.007917298004031181,1.1194976568222046,0.0,-0.013199510052800179,1.096233606338501,0.0,-0.03667686879634857
132.0,200.0,6.1286,-3.8022,5.7338,-0.0351,0.0308,-0.1263,-1.8315707645811976,0.0,3.2365634441375732,-1.070615530014038,-0.0,2.174259662628174,3.5774618822285156,-0.0,0.2467910647392273,-1.4587181250201624,0.0,-0.024104043841362,1.1194531917572021,0.0,-0.0016278231050819159,1.0962294340133667,0.0,-0.014847655780613422
132.0,200.0,6.1286,-3.8022,5.7338,-0.0351,0.0308,-0.1263,-1.8315712414183558,0.0,3.2619848251342773,-1.070648193359375,-0.0,2.1141867637634277,3.5774738031574707,-0.0,0.25828126072883606,-1.458693806325094,0.0,-0.013811817392706871,1.1195181608200073,0.0,-0.006729726679623127,1.0962294340133667,0.0,-0.003424375783652067
132.0,200.0,6.1286,-3.8022,5.7338,-0.0351,0.0308,-0.1263,-1.8315755329527796,0.0,3.2000598907470703,-1.070619821548462,-0.0,2.1125237941741943,3.577493830318115,-0.0,0.24869436025619507,-1.4587176481830042,0.0,-0.018539853394031525,1.1195143461227417,0.0,-0.0012005316093564034,1.0962495803833008,0.0,0.010358196683228016
132.0,200.0,6.1286,-3.8022,5.7338,-0.0351,0.0308,-0.1263,-1.8316122494139613,0.0,3.21891450881958,-1.0706477165222168,-0.0,2.1261255741119385,3.5775014597126464,-0.0,0.2553228437900543,-1.4586980978595179,0.0,-0.011197201907634735,1.1194851398468018,0.0,-0.011112798005342484,1.096245527267456,0.0,-0.005133158061653376
132.0,200.0,6.1286,-3.8022,5.7338,-0.0351,0.0308,-0.1263,-1.8316437206664027,0.0,3.2213621139526367,-1.0706838369369507,-0.0,2.0976929664611816,3.5774900156208496,-0.0,0.24299407005310059,-1.4587419668780726,0.0,-0.013155986554920673,1.1195461750030518,0.0,0.0015212057624012232,1.0962214469909668,0.0,-0.010076071135699749
132.0,200.0,6.1286,-3.8022,5.7338,-0.0351,0.0308,-0.1263,-1.8315874538817347,0.0,3.217055320739746,-1.0706071853637695,-0.0,2.0999789237976074,3.5774289804645996,-0.0,0.2538412809371948,-1.4587376753436487,0.0,0.007576234173029661,1.1194812059402466,0.0,-0.00219148606993258,1.096245527267456,0.0,-0.0505889356136322
132.0,200.0,6.1286,-3.8022,5.7338,-0.0351,0.0308,-0.1263,-1.831627985040182,0.0,3.2275490760803223,-1.0706838369369507,-0.0,2.12571120262146,3.5774571138569335,-0.0,0.25114721059799194,-1.4587262312518519,0.0,-0.0021436947863548994,1.1194770336151123,0.0,-0.014810883440077305,1.096245527267456,0.0,-0.020359838381409645
132.0,200.0,6.1286,-3.8022,5.7338,-0.0351,0.0308,-0.1263,-1.8315793476500453,0.0,3.2037534713745117,-1.0706441402435303,-0.0,2.1258490085601807,3.5774738031574707,-0.0,0.25648778676986694,-1.4587300459491175,0.0,-0.008116047829389572,1.1195182800292969,0.0,-0.00012655893806368113,1.096205472946167,0.0,-0.001454072305932641
132.0,200.0,6.1286,-3.8022,5.7338,-0.0351,0.0308,-0.1263,-1.8315674267210902,0.0,3.23234224319458,-1.0706357955932617,-0.0,2.11374568939209,3.577493830318115,-0.0,0.25517651438713074,-1.458721939717428,0.0,0.001012999564409256,1.1195383071899414,0.0,0.0072203511372208595,1.0962133407592773,0.0,0.031029844656586647
132.0,212.0,6.0407,-3.9206,5.8887,-0.0414,0.0304,-0.1242,-1.8315712414183558,0.0,3.268120527267456,-1.0706357955932617,-0.0,2.097423791885376,3.577497645015381,-0.0,0.26750698685646057,-1.458721939717428,0.0,-0.0008610812947154045,1.11948561668396,0.0,-0.010895391926169395,1.0962657928466797,0.0,-0.024651220068335533
132.0,212.0,6.0407,-3.9206,5.8887,-0.0414,0.0304,-0.1242,-1.8316360912718714,0.0,3.2369332313537598,-1.0706440210342407,-0.0,2.1382505893707275,3.577510042781494,-0.0,0.25205758213996887,-1.458710018788473,0.0,-0.00016167666763067245,1.1194977760314941,0.0,-0.0029560565017163754,1.096261739730835,0.0,0.0007140007801353931
132.0,212.0,6.0407,-3.9206,5.8887,-0.0414,0.0304,-0.1242,-1.8315955601134242,0.0,3.205779552459717,-1.070648193359375,-0.0,2.0771589279174805,3.5774575906940917,-0.0,0.2547608017921448,-1.4586780706988733,0.0,-0.017535990104079247,1.1195099353790283,0.0,-0.0035216580145061016,1.0962133407592773,0.0,-0.029789965599775314
132.0,212.0,6.0407,-3.9206,5.8887,-0.0414,0.0304,-0.1242,-1.8315350017943324,0.0,3.194042682647705,-1.0706398487091064,-0.0,2.054730176925659,3.577481432552002,-0.0,0.25174543261528015,-1.4586857000934046,0.0,-0.007986586540937424,1.1194937229156494,0.0,0.0011731877457350492,1.096217393875122,0.0,0.026881635189056396
132.0,212.0,6.0407,-3.9206,5.8887,-0.0414,0.0304,-0.1242,-1.8315631351866664,0.0,3.2713816165924072,-1.070648193359375,-0.0,2.1386895179748535,3.5774776178547363,-0.0,0.2630307972431183,-1.4587138334857386,0.0,-0.009719747118651867,1.1194692850112915,0.0,-0.01578018255531788,1.096205472946167,0.0,0.007870109751820564
132.0,212.0,6.0407,-3.9206,5.8887,-0.0414,0.0304,-0.1242,-1.831583162347311,0.0,3.24524188041687,-1.070619821548462,-0.0,2.0734410285949707,3.5774857240864257,-0.0,0.24294990301132202,-1.4587419668780726,0.0,-0.014408783055841923,1.1195541620254517,0.0,-0.012590119615197182,1.0962495803833008,0.0,0.02756981924176216
132.0,212.0,6.0407,-3.9206,5.8887,-0.0414,0.0304,-0.1242,-1.8316122494139613,0.0,3.2257699966430664,-1.0706157684326172,-0.0,2.1255857944488525,3.5774733263203125,-0.0,0.24919116497039795,-1.4587143103228968,0.0,-0.012728980742394924,1.1195424795150757,0.0,-0.00964321382343769,1.096173644065857,0.0,-0.011495992541313171
132.0,212.0,6.0407,-3.9206,5.8887,-0.0414,0.0304,-0.1242,-1.831599851647848,0.0,3.2255778312683105,-1.070631742477417,-0.0,2.0917036533355713,3.5774895387836914,-0.0,0.25289011001586914,-1.4587138334857386,0.0,-0.010994667187333107,1.1194896697998047,0.0,-0.015587754547595978,1.0962255001068115,0.0,0.031988732516765594
132.0,212.0,6.0407,-3.9206,5.8887,-0.0414,0.0304,-0.1242,-1.8315874538817347,0.0,3.2570815086364746,-1.070619821548462,-0.0,2.127272605895996,3.577469511623047,-0.0,0.25957033038139343,-1.4586737791644495,0.0,-0.020056508481502533,1.1195306777954102,0.0,-0.003202434629201889,1.0962014198303223,0.0,0.01625039242208004
132.0,212.0,6.0407,-3.9206,5.8887,-0.0414,0.0304,-0.1242,-1.8315793476500453,0.0,3.246170997619629,-1.070590853691101,-0.0,2.154938220977783,3.5774895387836914,-0.0,0.26718375086784363,-1.4587176481830042,0.0,-0.004979840945452452,1.1195306777954102,0.0,-0.0089497622102499,1.0962536334991455,0.0,0.051600754261016846
132.0,212.0,6.0407,-3.9206,5.8887,-0.0414,0.0304,-0.1242,-1.8315674267210902,0.0,3.2204723358154297,-1.0706884860992432,-0.0,2.0990476608276367,3.5774614053913574,-0.0,0.25718939304351807,-1.4587138334857386,0.0,-0.015796875581145287,1.1195265054702759,0.0,-0.005641220137476921,1.0962616205215454,0.0,0.004988070577383041
132.0,212.0,6.0407,-3.9206,5.8887,-0.0414,0.0304,-0.1242,-1.8315955601134242,0.0,3.268476963043213,-1.0706031322479248,-0.0,2.124819040298462,3.5774738031574707,-0.0,0.2551138699054718,-1.458721939717428,0.0,-0.01338927075266838,1.1195701360702515,0.0,0.001010962761938572,1.096217393875122,0.0,0.014911879785358906
133.0,210.0,6.2327,-4.1563,5.6339,-0.056,0.0127,-0.122,-1.8315712414183558,0.0,3.233720064163208,-1.0705876350402832,-0.0,2.0825746059417725,3.577465220088623,-0.0,0.2544240355491638,-1.458733860646383,0.0,-0.015082626603543758,1.1194851398468018,0.0,0.00014843199460301548,1.0962536334991455,0.0,0.01749030500650406
133.0,210.0,6.2327,-4.1563,5.6339,-0.056,0.0127,-0.122,-1.8315516910948695,0.0,3.2181777954101562,-1.0706878900527954,-0.0,2.144362688064575,3.5775057512470703,-0.0,0.2628716230392456,-1.458693806325094,0.0,-0.0022754583042114973,1.1194815635681152,0.0,-0.008286548778414726,1.0962014198303223,0.0,-0.010820509865880013
133.0,210.0,6.2327,-4.1563,5.6339,-0.056,0.0127,-0.122,-1.8315516910948695,0.0,3.2490382194519043,-1.0706114768981934,-0.0,2.1557295322418213,3.5774127680012207,-0.0,0.25655558705329895,-1.4586899916278284,0.0,-0.01008366048336029,1.119469165802002,0.0,-0.0035360988695174456,1.0962255001068115,0.0,-0.003970476798713207
133.0,210.0,6.2327,-4.1563,5.6339,-0.056,0.0127,-0.122,-1.8315798244872035,0.0,3.2414698600769043,-1.070623755455017,-0.0,2.077920913696289,3.5774690347858886,-0.0,0.258051335811615,-1.458710018788473,0.0,-0.012194117531180382,1.119522213935852,0.0,-0.006701793987303972,1.0961695909500122,0.0,-0.048273347318172455
133.0,210.0,6.2327,-4.1563,5.6339,-0.056,0.0127,-0.122,-1.8315679035582484,0.0,3.2261500358581543,-1.070615530014038,-0.0,2.115861177444458,3.5775057512470703,-0.0,0.24981921911239624,-1.4587023893939417,0.0,-0.01057341881096363,1.1194733381271362,0.0,-0.016596650704741478,1.0962095260620117,0.0,0.0013819001615047455
133.0,210.0,6.2327,-4.1563,5.6339,-0.056,0.0127,-0.122,-1.8315636120238246,0.0,3.2106969356536865,-1.0706238746643066,-0.0,2.0980896949768066,3.5774857240864257,-0.0,0.2529241740703583,-1.458738152180807,0.0,-0.010279757902026176,1.1195143461227417,0.0,-0.00023841694928705692,1.0962214469909668,0.0,0.030542492866516113
133.0,210.0,6.2327,-4.1563,5.6339,-0.056,0.0127,-0.122,-1.8315679035582484,0.0,3.256401538848877,-1.0705711841583252,-0.0,2.126194477081299,3.5774857240864257,-0.0,0.25908708572387695,-1.4586780706988733,0.0,-0.005849937442690134,1.1194815635681152,0.0,-0.003206762718036771,1.0962133407592773,0.0,-0.06741426885128021
133.0,210.0,6.2327,-4.1563,5.6339,-0.056,0.0127,-0.122,-1.8315392933287562,0.0,3.242691993713379,-1.0706838369369507,-0.0,2.108819007873535,3.577497645015381,-0.0,0.25725361704826355,-1.458648983632223,0.0,-0.014524240046739578,1.119530200958252,0.0,-0.019616110250353813,1.0962536334991455,0.0,-0.007794763892889023
133.0,210.0,6.2327,-4.1563,5.6339,-0.056,0.0127,-0.122,-1.8315917454161585,0.0,3.2527318000793457,-1.070623755455017,-0.0,2.123115062713623,3.5774575906940917,-0.0,0.2616505026817322,-1.4587300459491175,0.0,-0.024020686745643616,1.119505763053894,0.0,-0.009013927541673183,1.0962334871292114,0.0,0.020882684737443924
133.0,210.0,6.2327,-4.1563,5.6339,-0.056,0.0127,-0.122,-1.8315473995604457,0.0,3.2072248458862305,-1.070587158203125,-0.0,2.108180284500122,3.5774494844624023,-0.0,0.25358572602272034,-1.4586575667010706,0.0,-0.012320904061198235,1.1194852590560913,0.0,-0.003119024680927396,1.0962214469909668,0.0,-0.0336039662361145
133.0,210.0,6.2327,-4.1563,5.6339,-0.056,0.0127,-0.122,-1.8315230808653773,0.0,3.1956143379211426,-1.070628046989441,-0.0,2.0902140140533447,3.5775138574787597,-0.0,0.2571237087249756,-1.4587181250201624,0.0,-0.011967701837420464,1.1195383071899414,0.0,-0.011408952996134758,1.096193552017212,0.0,-0.054322250187397
133.0,210.0,6.2327,-4.1563,5.6339,-0.056,0.0127,-0.122,-1.8316079578795375,0.0,3.2110471725463867,-1.070648193359375,-0.0,2.0572118759155273,3.5774738031574707,-0.0,0.2600136697292328,-1.4586857000934046,0.0,-0.019896026700735092,1.119522213935852,0.0,-0.005693717859685421,1.0961894989013672,0.0,0.01058253739029169
133.0,210.0,6.2327,-4.1563,5.6339,-0.056,0.0127,-0.122,-1.8315512142577113,0.0,3.227609634399414,-1.0705831050872803,-0.0,2.126979351043701,3.577465220088623,-0.0,0.2603261172771454,-1.458693806325094,0.0,-0.0126316137611866,1.1195381879806519,0.0,-0.00740407407283783,1.0962777137756348,0.0,0.010705308057367802
132.0,207.0,6.1866,-3.8865,6.2225,-0.0941,0.0228,-0.1097,-1.8315593204894007,0.0,3.1980795860290527,-1.070619821548462,-0.0,2.153183937072754,3.5774571138569335,-0.0,0.25476545095443726,-1.4586899916278284,0.0,-0.0075256358832120895,1.1194733381271362,0.0,-0.0021036313846707344,1.0961815118789673,0.0,-0.01228470541536808
132.0,207.0,6.1866,-3.8865,6.2225,-0.0941,0.0228,-0.1097,-1.8315755329527796,0.0,3.187558174133301,-1.0706281661987305,-0.0,2.153107166290283,3.577465220088623,-0.0,0.24968832731246948,-1.4587462584124964,0.0,0.0006882620509713888,1.1195182800292969,0.0,-0.0036998391151428223,1.0962095260620117,0.0,0.012718509882688522
132.0,207.0,6.1866,-3.8865,6.2225,-0.0941,0.0228,-0.1097,-1.8315469227232875,0.0,3.268425941467285,-1.070631742477417,-0.0,2.08206844329834,3.5774294573017578,-0.0,0.25263386964797974,-1.458693806325094,0.0,-0.009594419971108437,1.1194653511047363,0.0,-0.006663085427135229,1.0962536334991455,0.0,-0.004663430154323578
132.0,207.0,6.1866,-3.8865,6.2225,-0.0941,0.0228,-0.1097,-1.8316122494139613,0.0,3.180853843688965,-1.0705634355545044,-0.0,2.0954973697662354,3.577481432552002,-0.0,0.2547184228897095,-1.4587300459491175,0.0,-0.02501111663877964,1.119510293006897,0.0,-0.004607240669429302,1.0962495803833008,0.0,-0.012274712324142456
132.0,207.0,6.1866,-3.8865,6.2225,-0.0941,0.0228,-0.1097,-1.8315674267210902,2.7134088668390177e-05,3.221705913543701,-1.07057523727417,-0.0,2.1244256496429443,3.5775057512470703,-0.0,0.257451593875885,-1.4587419668780726,0.0,-0.005394585430622101,1.1195422410964966,0.0,-0.0012493075337260962,1.096245527267456,0.0,0.03142744302749634
132.0,207.0,6.1866,-3.8865,6.2225,-0.0941,0.0228,-0.1097,-1.8316403828062953,1.7413369278074242e-05,3.199687957763672,-1.0706636905670166,-0.0,2.1499218940734863,3.5775014597126464,-0.0,0.26040324568748474,-1.458738152180807,0.0,-0.008195099420845509,1.1194852590560913,0.0,-0.012625087983906269,1.096261739730835,0.0,-0.02785688452422619
132.0,207.0,6.1866,-3.8865,6.2225,-0.0941,0.0228,-0.1097,-1.831627985040182,1.2272107596800197e-05,3.220609664916992,-1.0705912113189697,-0.0,2.11922550201416,3.5775181490131835,-0.0,0.25512591004371643,-1.4587538878070276,0.0,-0.004195388872176409,1.1194573640823364,0.0,0.015468680299818516,1.0962214469909668,0.00045130017679184675,-0.0033335890620946884
132.0,207.0,6.1866,-3.8865,6.2225,-0.0941,0.0228,-0.1097,-1.8316317997374476,1.163738124887459e-05,3.20141339302063,-1.0706157684326172,-0.0,2.110354423522949,3.577437563533447,-0.0,0.25226202607154846,-1.4587138334857386,0.0,-0.016408175230026245,1.1195423603057861,0.0,-0.011707307770848274,1.0963096618652344,0.0006008452037349343,0.014528805390000343
132.0,207.0,6.1866,-3.8865,6.2225,-0.0941,0.0228,-0.1097,-1.831627985040182,1.1202822861378081e-05,3.2180404663085938,-1.0706517696380615,-0.0,2.1093149185180664,3.577441378230713,-0.0,0.2536088824272156,-1.458710018788473,0.0,-0.0035724376793950796,1.1195943355560303,0.0,-0.015334734693169594,1.0962576866149902,0.0005148146883584559,0.042226165533065796
132.0,207.0,6.1866,-3.8865,6.2225,-0.0941,0.0228,-0.1097,-1.8316360912718714,1.0671498785086442e-05,3.24855899810791,-1.0706322193145752,-0.0,2.120210886001587,3.577465220088623,-0.0,0.24779297411441803,-1.458721939717428,0.0,-0.006799362599849701,1.1195505857467651,0.0,0.0013049079570919275,1.0962576866149902,0.0004347664362285286,0.02789052203297615
132.0,207.0,6.1866,-3.8865,6.2225,-0.0941,0.0228,-0.1097,-1.8315674267210902,1.6293604687689367e-08,3.243041753768921,-1.070631742477417,-0.0,2.080878734588623,3.577465220088623,-0.0,0.2557682394981384,-1.4586775938617151,0.0,-0.0029338111635297537,1.1195783615112305,0.0,-0.013106154277920723,1.0962939262390137,0.0001771281531546265,0.018622474744915962
132.0,207.0,6.1866,-3.8865,6.2225,-0.0941,0.0228,-0.1097,-1.8315674267210902,5.278920556130021e-16,3.2193498611450195,-1.0705795288085938,-0.0,2.1268045902252197,3.577477141017578,-0.0,0.27042943239212036,-1.458733860646383,0.0,-0.02210978977382183,1.1195104122161865,0.0,-0.003030046820640564,1.0962896347045898,0.0001683912705630064,-0.03439624607563019
131.0,210.0,6.058,-3.344,5.7829,-0.0452,0.0593,-0.1257,-1.8316041431822718,1.7103032961998034e-23,3.197273015975952,-1.070631980895996,0.00018809721223078668,2.143065929412842,3.577497645015381,-0.0,0.25809246301651,-1.4587581793414515,0.0,-0.007851872593164444,1.1194852590560913,0.0,-0.011366898193955421,1.0962817668914795,0.00020049631712026894,-0.007048039231449366
131.0,210.0,6.058,-3.344,5.7829,-0.0452,0.0593,-0.1257,-1.8315674267210902,4.13018144171584e-29,3.188971996307373,-1.0705678462982178,0.0002852219913620502,2.131998300552368,3.5775014597126464,-0.0,0.26477256417274475,-1.458721939717428,0.0,-0.005632869899272919,1.1195465326309204,0.0,-0.004688063636422157,1.0962737798690796,0.0010036518797278404,-0.02296510897576809
131.0,210.0,6.058,-3.344,5.7829,-0.0452,0.0593,-0.1257,-1.8316198788084925,1.3381262255741217e-36,3.2233543395996094,-1.0705835819244385,0.0006612823926843703,2.092146396636963,3.5775138574787597,-0.0,0.27165231108665466,-1.4587414900409144,0.0,-0.0185270793735981,1.119505763053894,0.0,-0.004646758548915386,1.0963577032089233,0.00428987480700016,0.0373058021068573
131.0,210.0,6.058,-3.344,5.7829,-0.0452,0.0593,-0.1257,-1.8315593204894007,4.344025239406933e-44,3.2160301208496094,-1.0705554485321045,0.000856324506457895,2.129587411880493,3.5775057512470703,-0.0,0.24940380454063416,-1.458801571522848,0.0,-0.027203815057873726,1.1195858716964722,0.0,0.004060238599777222,1.0963895320892334,0.008822153322398663,0.030672578141093254
131.0,210.0,6.058,-3.344,5.7829,-0.0452,0.0593,-0.1257,-1.8315593204894007,0.0,3.259983539581299,-1.0705513954162598,0.0009718241053633392,2.1522016525268555,3.5775858598896484,-0.0,0.26527148485183716,-1.4587414900409144,0.0,-0.015509326942265034,1.1195783615112305,0.0,-0.005585058592259884,1.096449375152588,0.010837392881512642,0.011550365015864372
131.0,210.0,6.058,-3.344,5.7829,-0.0452,0.0593,-0.1257,-1.831599851647848,0.0,3.2324252128601074,-1.0705718994140625,0.0005227418150752783,2.1169650554656982,3.5775133806416015,-0.0,0.2734232544898987,-1.4587653318988245,0.0,-0.018318401649594307,1.119558334350586,0.0,-0.018103517591953278,1.0965335369110107,0.009302995167672634,0.020505834370851517
131.0,210.0,6.058,-3.344,5.7829,-0.0452,0.0593,-0.1257,-1.831616064111227,0.0,3.2204456329345703,-1.0705431699752808,0.0003875979164149612,2.1072540283203125,3.577521486873291,-0.0,0.25674140453338623,-1.4587858358966272,0.0,-0.02318866178393364,1.1195621490478516,0.0,-0.006368506699800491,1.0965856313705444,0.0078112659975886345,-0.045288000255823135
131.0,210.0,6.058,-3.344,5.7829,-0.0452,0.0593,-0.1257,-1.8315874538817347,0.0,3.2619247436523438,-1.0705839395523071,0.0002306407695868984,2.1490304470062256,3.5775415140339355,-0.0,0.2527647614479065,-1.4587658087359827,0.0,-0.005302381236106157,1.1195223331451416,0.0,-0.0012856407556682825,1.0966534614562988,0.005088720470666885,0.01950518786907196
131.0,210.0,6.058,-3.344,5.7829,-0.0452,0.0593,-0.1257,-1.8315793476500453,0.0,3.2513718605041504,-1.0705794095993042,0.0001385565847158432,2.1034469604492188,3.5775419908710937,-0.0,0.2624012231826782,-1.4587534109698694,0.0,-0.027862312272191048,1.1195265054702759,0.0,-0.006338218227028847,1.0966293811798096,0.0024516829289495945,-0.01011725328862667
131.0,210.0,6.058,-3.344,5.7829,-0.0452,0.0593,-0.1257,-1.8316074810423792,0.0,3.2299423217773438,-1.0705350637435913,-9.454919199924916e-05,2.1382999420166016,3.5775176721760253,-0.0,0.2674507796764374,-1.458761994038717,0.0,-0.0044303168542683125,1.1195461750030518,0.0,-0.002106059342622757,1.0966134071350098,0.0010750761721283197,0.01869695819914341
131.0,210.0,6.058,-3.344,5.7829,-0.0452,0.0593,-0.1257,-1.831616064111227,0.0,3.1519675254821777,-1.070623755455017,-7.81321432441473e-05,2.128091335296631,3.57753769933667,-0.0,0.263263463973999,-1.4587457815753382,0.0,-0.012536337599158287,1.119550108909607,0.0,-0.000828795600682497,1.0966252088546753,0.00032959767850115895,-0.00310802785679698
131.0,210.0,6.058,-3.344,5.7829,-0.0452,0.0593,-0.1257,-1.8316074810423792,0.0,3.265111207962036,-1.070510983467102,-6.657270569121465e-05,2.171473503112793,3.577553911800049,-0.0,0.2605523467063904,-1.4587538878070276,0.0,-0.022263318300247192,1.1195141077041626,0.0,0.003341789124533534,1.096665620803833,-0.0003740892861969769,-0.0008650897070765495
131.0,210.0,6.058,-3.344,5.7829,-0.0452,0.0593,-0.1257,-1.8316360912718714,0.0,3.2352471351623535,-1.0705794095993042,-5.9923710068687797e-05,2.097708225250244,3.5775133806416015,-0.0,0.26101765036582947,-1.458761994038717,0.0,-9.93744470179081e-06,1.119497537612915,0.0,-0.002896308433264494,1.0965936183929443,-0.0010943453526124358,-0.008173191919922829
132.0,206.0,5.6931,-4.2365,5.6782,-0.0348,0.0452,-0.1257,-1.831599851647848,-6.25460670562461e-05,3.231945753097534,-1.070623755455017,-7.932250446174294e-05,2.150254249572754,3.577497645015381,-0.0,0.25559186935424805,-1.4587534109698694,0.0,-0.0191640667617321,1.119550108909607,0.0,-0.0059151966124773026,1.0965816974639893,-0.0019635327626019716,-0.016583647578954697
132.0,206.0,5.6931,-4.2365,5.6782,-0.0348,0.0452,-0.1257,-1.8316036663451136,-0.0001777898141881451,3.233238697052002,-1.0705431699752808,-0.00011819016799563542,2.112854480743408,3.5774728494831542,-0.0,0.24737027287483215,-1.458750073109762,0.0,-0.011551182717084885,1.1195623874664307,0.0,-0.008959708735346794,1.0965536832809448,-0.0010357957798987627,-0.021583905443549156
132.0,206.0,5.6931,-4.2365,5.6782,-0.0348,0.0452,-0.1257,-1.8316599331297816,-0.0008270482067018747,3.231106996536255,-1.0706477165222168,-0.0002154127141693607,2.1036500930786133,3.577538176173828,-0.0,0.26149600744247437,-1.458761994038717,0.0,-0.014457839541137218,1.1195183992385864,0.0,2.034509088844061e-05,1.0964854955673218,-0.0008512034546583891,0.03296444192528725
132.0,206.0,5.6931,-4.2365,5.6782,-0.0348,0.0452,-0.1257,-1.8316956959166468,-0.001551426132209599,3.235456705093384,-1.0706398487091064,-0.0002489122562110424,2.1119463443756104,3.5775300699421386,-0.0,0.25317442417144775,-1.458733383809225,0.0,0.007117306813597679,1.1194775104522705,0.0,-0.010702736675739288,1.0965495109558105,-0.0006609214469790459,0.009245534427464008
132.0,206.0,5.6931,-4.2365,5.6782,-0.0348,0.0452,-0.1257,-1.8317119083800257,-0.0015810499899089336,3.2344350814819336,-1.0706031322479248,-0.0005498105892911553,2.1071887016296387,3.5774332719990234,-0.0,0.2614283561706543,-1.458750073109762,0.0,-0.018266618251800537,1.1195305585861206,0.0,-0.006067638285458088,1.0965535640716553,-0.0011462811380624771,0.0008650696836411953
132.0,206.0,5.6931,-4.2365,5.6782,-0.0348,0.0452,-0.1257,-1.8317514858641566,-0.0011367846745997667,3.244901657104492,-1.070631742477417,-0.00046244097757153213,2.1225767135620117,3.577465220088623,-0.0,0.25843489170074463,-1.4587777296649378,0.0,0.006291439291089773,1.1195018291473389,0.0,-0.007036456372588873,1.0965096950531006,-0.0012204151134938002,0.03753925859928131
132.0,206.0,5.6931,-4.2365,5.6782,-0.0348,0.0452,-0.1257,-1.8317481480040492,-0.0009069106308743358,3.2425665855407715,-1.0705950260162354,-0.0003574733855202794,2.1191277503967285,3.577525778407715,-0.0,0.26544490456581116,-1.4587176481830042,0.0,-0.005574044771492481,1.119489312171936,0.0,-0.003903069067746401,1.0965415239334106,-0.0010383387561887503,0.0013093624729663134
132.0,206.0,5.6931,-4.2365,5.6782,-0.0348,0.0452,-0.1257,-1.8317557773985804,-0.0008119223057292402,3.2371397018432617,-1.0706157684326172,-0.0003054685366805643,2.1066620349884033,3.577521963710449,-0.0,0.2552911043167114,-1.4587577025042933,0.0,-0.013183580711483955,1.1195305585861206,0.0,-0.010028115473687649,1.0964975357055664,-0.0007972537423484027,-0.008451753295958042
132.0,206.0,5.6931,-4.2365,5.6782,-0.0348,0.0452,-0.1257,-1.8317514858641566,-0.0006608375697396696,3.2725071907043457,-1.0706157684326172,-0.0002558452542871237,2.098999500274658,3.5774733263203125,-0.0,0.26188281178474426,-1.458738152180807,0.0,-0.011938802897930145,1.1194852590560913,0.0,0.0006943927146494389,1.0965137481689453,-0.000476439279736951,-0.01983061246573925
132.0,206.0,5.6931,-4.2365,5.6782,-0.0348,0.0452,-0.1257,-1.831736227075094,-0.00046554915024898946,3.1942663192749023,-1.0705711841583252,-0.00012925060582347214,2.114102602005005,3.5774733263203125,-0.0,0.2558324635028839,-1.4587577025042933,0.0,-0.0016063867369666696,1.1195018291473389,0.0,-0.013904299587011337,1.0965495109558105,-0.0002677262818906456,-0.00500975176692009
132.0,206.0,5.6931,-4.2365,5.6782,-0.0348,0.0452,-0.1257,-1.8317276440062464,-0.0003810559865087271,3.216731548309326,-1.0706157684326172,-7.177954103099182e-05,2.0806875228881836,3.5774690347858886,-0.0,0.26116371154785156,-1.4587696234332483,0.0,-0.010558634996414185,1.1194852590560913,0.0,-0.005922796204686165,1.096501350402832,-0.00016482365026604384,0.02309552952647209
132.0,206.0,5.6931,-4.2365,5.6782,-0.0348,0.0452,-0.1257,-1.8317557773985804,-0.000348853413015604,3.1925265789031982,-1.0706238746643066,-6.190481508383527e-05,2.1411523818969727,3.5775415140339355,-0.0,0.25599467754364014,-1.4587534109698694,0.0,-0.026528384536504745,1.1195346117019653,0.0,-0.011104198172688484,1.0965577363967896,0.000844801776111126,-0.029661692678928375
134.0,213.0,5.7751,-3.8255,5.8774,-0.0194,0.031,-0.1242,-1.831731458703512,-0.00022416636056732386,3.229893445968628,-1.0705913305282593,-2.7209225663682446e-05,2.090379476547241,3.5775696474262695,-0.0,0.26349392533302307,-1.4587534109698694,0.0,-0.010063019581139088,1.1195223331451416,0.0,-0.0032156992238014936,1.0965214967727661,0.0030915222596377134,-0.02580844983458519
134.0,213.0,5.7751,-3.8255,5.8774,-0.0194,0.031,-0.1242,-1.8317719898619593,-0.0003069608355872333,3.242331027984619,-1.0706031322479248,-2.494662840035744e-05,2.160276412963867,3.5775534349628906,-0.0,0.2579376995563507,-1.4587815443622034,0.0,0.003621468786150217,1.1194939613342285,0.0,-0.0013967780396342278,1.0966460704803467,0.003272897331044078,0.055598918348550797
134.0,213.0,5.7751,-3.8255,5.8774,-0.0194,0.031,-0.1242,-1.8318282566466273,-0.0014590151840820909,3.231513500213623,-1.0706238746643066,-2.245676841994282e-05,2.0723326206207275,3.577517195338867,-0.0,0.266124963760376,-1.4587777296649378,0.0,-0.005763256456702948,1.119562029838562,0.0,-0.0013196893269196153,1.0966132879257202,0.0017742195632308722,-0.057581234723329544
134.0,213.0,5.7751,-3.8255,5.8774,-0.0194,0.031,-0.1242,-1.8317634067931117,-0.001837531803175807,3.233715534210205,-1.0706157684326172,-2.0892792235827073e-05,2.136765480041504,3.5775577264973144,-0.0,0.2603709101676941,-1.4587653318988245,0.0,-0.00046345533337444067,1.119550108909607,0.0,0.0038365498185157776,1.0966978073120117,0.001443281420506537,-0.05113522708415985
134.0,213.0,5.7751,-3.8255,5.8774,-0.0194,0.031,-0.1242,-1.8318358860411585,-0.0026231096126139164,3.26412034034729,-1.070615530014038,-1.9117580450256355e-05,2.1056385040283203,3.577521486873291,-0.0,0.2783452272415161,-1.4587858358966272,0.0,-0.008941244333982468,1.119570016860962,0.0,0.00831668172031641,1.096701979637146,0.0014573601074516773,-0.028739403933286667
134.0,213.0,5.7751,-3.8255,5.8774,-0.0194,0.031,-0.1242,-1.831860204736227,-0.0024189921095967293,3.2146875858306885,-1.0705795288085938,-1.7620464859646745e-05,2.129988431930542,3.5775815683552246,-0.0,0.26717936992645264,-1.4587896505938929,0.0,-0.007981045171618462,1.1195582151412964,0.0,0.0065629747696220875,1.096693754196167,0.0018711220473051071,0.028178013861179352
134.0,213.0,5.7751,-3.8255,5.8774,-0.0194,0.031,-0.1242,-1.831872125665182,-0.0020923721604049206,3.245943069458008,-1.0705955028533936,-3.320812902529724e-05,2.1152544021606445,3.57758538305249,-0.0,0.27019762992858887,-1.4587772528277796,0.0,-0.002367751207202673,1.1195141077041626,0.0,-0.010585197247564793,1.0966817140579224,0.001494353055022657,-0.024241551756858826
134.0,213.0,5.7751,-3.8255,5.8774,-0.0194,0.031,-0.1242,-1.8318640194334925,-0.0016031886916607618,3.2561097145080566,-1.0705955028533936,-3.099338209722191e-05,2.1240181922912598,3.5775133806416015,-0.0,0.2622700333595276,-1.4587534109698694,0.0,-0.00649248156696558,1.1195381879806519,0.0,0.00012230928405188024,1.0966817140579224,0.0008010251331143081,-0.004988363943994045
134.0,213.0,5.7751,-3.8255,5.8774,-0.0194,0.031,-0.1242,-1.8318921528258265,-0.0011946855811402202,3.236527919769287,-1.0705747604370117,-2.8996350010856986e-05,2.1284687519073486,3.5776054102131347,-0.0,0.2671700417995453,-1.4587658087359827,0.0,0.002457189606502652,1.1195940971374512,0.0,-0.0036001873668283224,1.0967175960540771,0.0006699726800434291,-0.018898770213127136
134.0,213.0,5.7751,-3.8255,5.8774,-0.0194,0.031,-0.1242,-1.831827779809469,-0.000993708148598671,3.22200870513916,-1.0706114768981934,-2.7659645638777874e-05,2.1051297187805176,3.57758538305249,-0.0,0.2570652365684509,-1.4587534109698694,0.0,0.009394022636115551,1.1195582151412964,0.0,-0.013956076465547085,1.0966771841049194,0.00047193659702315927,-0.004528104327619076
134.0,213.0,5.7751,-3.8255,5.8774,-0.0194,0.031,-0.1242,-1.831912179986471,-0.0008887145668268204,3.245861530303955,-1.0706281661987305,-1.3029018191446085e-05,2.1359872817993164,3.577561064357422,-0.0,0.2562740445137024,-1.4587696234332483,0.0,0.0051516881212592125,1.119562029838562,0.0,-0.00733266631141305,1.0967496633529663,0.0004862996283918619,-0.010364217683672905
134.0,213.0,5.7751,-3.8255,5.8774,-0.0194,0.031,-0.1242,-1.8319164715208949,-0.0009088129736483097,3.239323139190674,-1.070587158203125,-1.2315848834987264e-05,2.1279385089874268,3.577629728908203,-0.0,0.265184611082077,-1.4587252775775355,0.0,0.009308143518865108,1.1195660829544067,0.0,-0.009782552719116211,1.0967135429382324,0.0005268976674415171,-0.012160846032202244
134.0,213.0,5.7751,-3.8255,5.8774,-0.0194,0.031,-0.1242,-1.8319045505919398,-0.0009672262822277844,3.2577567100524902,-1.070611596107483,-1.1830189578176942e-05,2.147723436355591,3.5775577264973144,-0.0,0.2842075526714325,-1.4587739149676722,0.0,0.006106427405029535,1.1195223331451416,0.0,-0.010441597551107407,1.0966975688934326,0.0004755182599183172,0.0075010876171290874
133.0,204.0,6.1448,-3.7256,5.671,-0.0286,0.0165,-0.1248,-1.8318997822203578,-0.0013659007381647825,3.1969153881073,-1.0706195831298828,-1.1239264495088719e-05,2.0951943397521973,3.5776378351398925,6.673467578366399e-05,0.2662162780761719,-1.4587815443622034,0.0,0.0001254701055586338,1.1195183992385864,0.0,-0.009839033707976341,1.0967214107513428,0.00036522879963740706,0.018695784732699394
133.0,204.0,6.1448,-3.7256,5.671,-0.0286,0.0165,-0.1248,-1.83195223430776,-0.001591106178238988,3.271317958831787,-1.0705876350402832,-1.0833408850885462e-05,2.088702917098999,3.5776092249104003,8.045211870921776e-05,0.2683841586112976,-1.4587615172015589,0.0,0.006744678132236004,1.1194933652877808,0.0,-0.0009529807139188051,1.0967135429382324,0.00035554927308112383,0.00523774791508913
133.0,204.0,6.1448,-3.7256,5.671,-0.0286,0.0165,-0.1248,-1.831980367700094,-0.0015912000089883804,3.2687344551086426,-1.070628046989441,-1.0335762453905772e-05,2.145379066467285,3.5775372224995117,7.50870822230354e-05,0.2597231864929199,-1.4587457815753382,0.0,0.005556677468121052,1.1195143461227417,0.0,-0.009304908104240894,1.0967135429382324,0.00025991120492108166,0.004914313089102507
133.0,204.0,6.1448,-3.7256,5.671,-0.0286,0.0165,-0.1248,-1.8319722614684046,-0.0014350172132253647,3.2595207691192627,-1.0706641674041748,-1.1509185924296617e-06,2.1208913326263428,3.577557249660156,7.038907642709091e-05,0.27514976263046265,-1.4587896505938929,0.0,0.0020266915671527386,1.1194939613342285,0.0,-0.003910308703780174,1.0967215299606323,0.00021112441027071327,-0.018568580970168114
133.0,204.0,6.1448,-3.7256,5.671,-0.0286,0.0165,-0.1248,-1.8319436512389125,-0.0012213786831125617,3.238769054412842,-1.070615530014038,-2.779333187208355e-12,2.1563148498535156,3.5775529581257324,6.723399565089494e-05,0.2799239158630371,-1.4587896505938929,0.0,0.008211606182157993,1.1195144653320312,0.0,0.0008775368332862854,1.0967535972595215,0.00022208814334589988,0.008808527141809464
133.0,204.0,6.1448,-3.7256,5.671,-0.0286,0.0165,-0.1248,-1.8319479427733363,-0.0010038999607786536,3.2825489044189453,-1.0705795288085938,-9.004685563312845e-20,2.141007900238037,3.5776540476032714,7.613069465151057e-05,0.26918941736221313,-1.458761994038717,0.0,-0.0019675935618579388,1.1195342540740967,0.0,-0.013818918727338314,1.0966776609420776,0.0002542318543419242,-0.04524504020810127
133.0,204.0,6.1448,-3.7256,5.671,-0.0286,0.0165,-0.1248,-1.8319603405394496,-0.0008815035689622164,3.218491554260254,-1.0706076622009277,-2.9174036871756403e-27,2.181067943572998,3.57758538305249,7.206692680483684e-05,0.27640190720558167,-1.4587777296649378,0.0,0.009049645625054836,1.1195622682571411,0.0,-0.0019291790667921305,1.0967254638671875,0.00031795218819752336,0.012904671020805836
133.0,204.0,6.1448,-3.7256,5.671,-0.0286,0.0165,-0.1248,-1.831979890862936,-0.0008897793013602495,3.2501466274261475,-1.0706641674041748,-7.045186536383189e-33,2.1420254707336426,3.5776335436054687,7.787130016367882e-05,0.2631102502346039,-1.4587414900409144,0.0,0.011668755672872066,1.119554042816162,0.0,-0.00959734059870243,1.096773624420166,0.00035518172080628574,-0.02666480466723442
133.0,204.0,6.1448,-3.7256,5.671,-0.0286,0.0165,-0.1248,-1.8320003948607386,-0.0009884898317977786,3.274644374847412,-1.07059907913208,-2.282547042569408e-40,2.1258020401000977,3.5775372224995117,7.689457561355084e-05,0.2746078372001648,-1.4587214628802698,0.0,-0.007510294672101736,1.119554042816162,0.0,-0.006860365625470877,1.0967656373977661,0.0004966609994880855,0.022083697840571404
133.0,204.0,6.1448,-3.7256,5.671,-0.0286,0.0165,-0.1248,-1.832024713555807,-0.0012500811135396361,3.2691614627838135,-1.0705955028533936,-0.0,2.1521944999694824,3.577629728908203,8.378815982723609e-05,0.2645846903324127,-1.4587577025042933,0.0,-0.009903797879815102,1.1195342540740967,0.0,-0.013057173229753971,1.0967535972595215,0.0009021944715641439,0.023739876225590706
133.0,204.0,6.1448,-3.7256,5.671,-0.0286,0.0165,-0.1248,-1.8320280514159144,-0.0016558009665459394,3.220150947570801,-1.0705795288085938,-0.0,2.120316505432129,3.577629728908203,0.00012401795538607985,0.2716811001300812,-1.4587577025042933,0.0,-0.003775806864723563,1.1195141077041626,0.0,-0.0029969820752739906,1.096809983253479,0.0012167090317234397,-0.016067512333393097
133.0,204.0,6.1448,-3.7256,5.671,-0.0286,0.0165,-0.1248,-1.8320723972716273,-0.0024054385721683502,3.26809024810791,-1.0706238746643066,-0.0,2.1504099369049072,3.5776054102131347,0.00011172582890139893,0.28231415152549744,-1.4587214628802698,0.0,-0.005143274553120136,1.1194933652877808,0.0,-0.009691099636256695,1.0967494249343872,0.0014463361585512757,-0.025438502430915833
132.0,202.0,6.2345,-4.0451,5.7081,-0.0377,0.0197,-0.1231,-1.832104822198385,-0.0032354306895285845,3.2473812103271484,-1.0706404447555542,-0.0,2.1326100826263428,3.5776092249104003,0.00010398071026429534,0.2817872166633606,-1.4587820211993616,0.0,-0.0072745466604828835,1.119489312171936,0.0,-0.014289040118455887,1.0968096256256104,0.00141519692260772,0.00630307849496603
132.0,202.0,6.2345,-4.0451,5.7081,-0.0377,0.0197,-0.1231,-1.832104345361227,-0.003720124950632453,3.2691540718078613,-1.0705912113189697,-0.0,2.1395463943481445,3.577601118678711,9.518291335552931e-05,0.28068897128105164,-1.4587577025042933,0.0,-0.008036969229578972,1.1195461750030518,0.0,-0.003021721262484789,1.0967895984649658,0.0011323291109874845,0.020846396684646606
132.0,202.0,6.2345,-4.0451,5.7081,-0.0377,0.0197,-0.1231,-1.8321081600584925,-0.004404434002935886,3.2583863735198975,-1.0706322193145752,-0.0,2.120239496231079,3.577645941371582,8.775774040259421e-05,0.27056023478507996,-1.458761994038717,0.0,0.0045303236693143845,1.1194978952407837,0.0,-0.004439763259142637,1.096785545349121,0.0007121734088286757,-0.03769095987081528
132.0,202.0,6.2345,-4.0451,5.7081,-0.0377,0.0197,-0.1231,-1.83217253307485,-0.004700459539890289,3.3151330947875977,-1.0706197023391724,-0.0,2.1458399295806885,3.577629728908203,8.2907106843777e-05,0.2941545248031616,-1.4587414900409144,0.0,-0.007035296410322189,1.1195582151412964,0.0,0.000790734775364399,1.096793532371521,0.0005103017902001739,0.0021368490997701883
132.0,202.0,6.2345,-4.0451,5.7081,-0.0377,0.0197,-0.1231,-1.8321801624693812,-0.0054057505913078785,3.280810832977295,-1.0706322193145752,-0.0,2.1512057781219482,3.5776216226765136,7.721655128989369e-05,0.2903505563735962,-1.4587696234332483,0.0,-0.0010691575007513165,1.1195099353790283,0.0,-0.005285510793328285,1.0967814922332764,0.00030857513775117695,-0.01586925983428955
132.0,202.0,6.2345,-4.0451,5.7081,-0.0377,0.0197,-0.1231,-1.832296987573141,-0.006033690180629492,3.285433053970337,-1.0706158876419067,-0.0,2.1932225227355957,3.577596827144287,7.22570694051683e-05,0.27779120206832886,-1.458733860646383,0.0,0.00540523137897253,1.1195305585861206,0.0,-0.016346508637070656,1.0968255996704102,0.00024214541190303862,0.00779327005147934
132.0,202.0,6.2345,-4.0451,5.7081,-0.0377,0.0197,-0.1231,-1.8322965107359828,-0.006168763153254986,3.190028667449951,-1.0705629587173462,-0.0,2.119647979736328,3.5775529581257324,6.893635872984305e-05,0.2909996807575226,-1.458761994038717,0.0,-0.013337994925677776,1.1195582151412964,0.0,-0.011765905655920506,1.0967776775360107,0.00020848623535130173,-0.014651053585112095
132.0,202.0,6.2345,-4.0451,5.7081,-0.0377,0.0197,-0.1231,-1.8323646984496058,-0.006509327795356512,3.3150384426116943,-1.0706760883331299,-0.0,2.1661205291748047,3.5776054102131347,6.495601701317355e-05,0.2920130789279938,-1.4587414900409144,0.0,-0.012125460430979729,1.1194934844970703,0.0,-0.007698859088122845,1.096785545349121,0.0001407106756232679,-0.011276493780314922
132.0,202.0,6.2345,-4.0451,5.7081,-0.0377,0.0197,-0.1231,-1.832388540307516,-0.006353496108204126,3.2520179748535156,-1.0706357955932617,-0.0,2.12369966506958,3.577645464534424,7.369148806901649e-05,0.3003111481666565,-1.458750073109762,0.0,-0.0024905719328671694,1.119469404220581,0.0,-0.011799949221313,1.0967334508895874,0.00012168489047326148,-0.022476771846413612
132.0,202.0,6.2345,-4.0451,5.7081,-0.0377,0.0197,-0.1231,-1.8324243030943812,-0.005940986797213554,3.210275173187256,-1.0706238746643066,-0.0,2.1839702129364014,3.5776211458393554,8.249116217484698e-05,0.29278871417045593,-1.4586976210223597,0.0,-0.000930091249756515,1.1194576025009155,0.0,-0.011074578389525414,1.0967895984649658,8.286284719360992e-05,-0.007518336176872253
132.0,202.0,6.2345,-4.0451,5.7081,-0.0377,0.0197,-0.1231,-1.8324886761107386,-0.004628792405128479,3.253772735595703,-1.07057523727417,-0.0,2.1397438049316406,3.577645464534424,8.968247129814699e-05,0.3028911054134369,-1.4587777296649378,0.0,0.004724977537989616,1.1195099353790283,0.0,-0.003980741836130619,1.0967614650726318,7.380131864920259e-05,-0.03707713633775711
132.0,202.0,6.2345,-4.0451,5.7081,-0.0377,0.0197,-0.1231,-1.8324843845763148,-0.004021119326353073,3.281724214553833,-1.0706477165222168,-0.0,2.136775255203247,3.5776535707661132,9.941862663254142e-05,0.30454081296920776,-1.4587257544146937,0.0,-0.0019488038960844278,1.1194417476654053,0.0,-0.0075019607320427895,1.096773624420166,6.820806447649375e-05,0.017883701249957085
132.0,202.0,6.2345,-4.0451,5.7081,-0.0377,0.0197,-0.1231,-1.8324929676451625,-0.0030162474140524864,3.279036521911621,-1.070583462715149,-0.0,2.1325736045837402,3.5775930124470214,0.00011509092291817069,0.29159998893737793,-1.4587057272540491,0.0,-0.009657766669988632,1.1195058822631836,0.0,-0.004180075600743294,1.096785545349121,8.259769674623385e-05,-0.040692299604415894
133.0,201.0,5.7918,-3.8841,5.9844,-0.022,0.0241,-0.124,-1.8325325451292933,-0.0020541297271847725,3.2370409965515137,-1.0706441402435303,-0.0,2.141472339630127,3.5776211458393554,0.00012479888391681015,0.30898216366767883,-1.4587701002704065,0.0,0.001095192157663405,1.1195014715194702,0.0,-0.017425261437892914,1.096805453300476,7.565454870928079e-05,0.016710544005036354
133.0,201.0,5.7918,-3.8841,5.9844,-0.022,0.0241,-0.124,-1.832508226434225,-0.001595936482772231,3.2848193645477295,-1.070607304573059,-0.0,2.171956777572632,3.577641649837158,0.00039550746441818774,0.3038010895252228,-1.4587538878070276,0.0,-0.01472069788724184,1.1194536685943604,0.0,-0.019694004207849503,1.0967293977737427,1.9359409634489566e-05,-0.04675411432981491
133.0,201.0,5.7918,-3.8841,5.9844,-0.022,0.0241,-0.124,-1.8325649700560511,-0.0012410616036504507,3.2917912006378174,-1.0706359148025513,-0.0,2.182424306869507,3.5776492792316894,0.0004080292128492147,0.2977122962474823,-1.4587777296649378,0.0,-0.004438245669007301,1.119489312171936,0.0,-0.0023735184222459793,1.096801519393921,1.7824686437961645e-05,-0.0046394867822527885
133.0,201.0,5.7918,-3.8841,5.9844,-0.022,0.0241,-0.124,-1.832553049127096,-0.0009345136350020766,3.285125732421875,-1.070607304573059,-0.0,2.2027087211608887,3.5777017313190917,0.0005716289742849767,0.31367433071136475,-1.4587577025042933,0.0,-0.000474792905151844,1.119505763053894,0.0,-0.010457530617713928,1.0967814922332764,3.110173565801233e-05,-0.022711750119924545
133.0,201.0,5.7918,-3.8841,5.9844,-0.022,0.0241,-0.124,-1.8326050243773402,-0.0007186901057139039,3.280848503112793,-1.0706114768981934,-0.0,2.163193464279175,3.5776735979267578,0.0007146248244680464,0.3170461058616638,-1.4587939421283167,0.0,-0.0008977414108812809,1.119489312171936,0.0,0.00011328700929880142,1.096805453300476,3.1308903999160975e-05,-0.052692312747240067
133.0,201.0,5.7918,-3.8841,5.9844,-0.022,0.0241,-0.124,-1.8325168095030726,-0.0005024516140110791,3.3098983764648438,-1.0705630779266357,-0.0,2.159752607345581,3.5776850420185546,0.0006307565490715206,0.3036707639694214,-1.4587739149676722,0.0,-0.011537733487784863,1.1195462942123413,0.0,-0.008489742875099182,1.0967533588409424,4.3907526560360566e-05,-0.037922248244285583
133.0,201.0,5.7918,-3.8841,5.9844,-0.022,0.0241,-0.124,-1.8325687847533167,-0.00048513998626731336,3.279625654220581,-1.0706195831298828,-0.0,2.1939284801483154,3.5776778894611816,0.0005208441871218383,0.3145034611225128,-1.4586857000934046,0.0,0.014908368699252605,1.1195223331451416,0.0,-0.02010682411491871,1.0968010425567627,0.0002355984615860507,-0.019371777772903442
133.0,201.0,5.7918,-3.8841,5.9844,-0.022,0.0241,-0.124,-1.8325568638243617,-0.0004511272709351033,3.273578643798828,-1.0705795288085938,-0.0,2.150369167327881,3.577697439784668,0.0005322708748281002,0.30964386463165283,-1.4587577025042933,0.0,-0.003572678193449974,1.1195144653320312,0.0,-0.009382798336446285,1.0968495607376099,0.00029114726930856705,-0.018927184864878654
133.0,201.0,5.7918,-3.8841,5.9844,-0.022,0.0241,-0.124,-1.8325807056822718,-0.0005529843620024621,3.2761709690093994,-1.0706119537353516,-0.0,2.1745996475219727,3.5777413088032226,0.0007621406111866236,0.3168923854827881,-1.4587777296649378,0.0,-0.0027553357649594545,1.1194615364074707,0.0,-0.009166283532977104,1.0968495607376099,0.0014177627163007855,-0.04200800508260727
133.0,201.0,5.7918,-3.8841,5.9844,-0.022,0.0241,-0.124,-1.8325768909850062,-0.000880671082995832,3.3505537509918213,-1.070623755455017,-0.0,2.1666698455810547,3.577773256892822,0.0008605450275354087,0.3315494954586029,-1.4587653318988245,0.0,-0.017429297789931297,1.1194695234298706,0.0,0.0031633605249226093,1.0968613624572754,0.0018511826638132334,0.02685883268713951
133.0,201.0,5.7918,-3.8841,5.9844,-0.022,0.0241,-0.124,-1.8326050243773402,-0.0011813354212790728,3.260725498199463,-1.0706281661987305,-0.0,2.1830248832702637,3.577681227321289,0.0007829878595657647,0.3257765769958496,-1.4587376753436487,0.0,-0.007317148149013519,1.1195263862609863,0.0,-0.02362970821559429,1.0968655347824097,0.0028056444134563208,-0.026967626065015793
133.0,201.0,5.7918,-3.8841,5.9844,-0.022,0.0241,-0.124,-1.832649370233053,-0.0015356068033725023,3.312157154083252,-1.070547342300415,-0.0,2.1328117847442627,3.577693148250244,0.0007029080879874527,0.32564178109169006,-1.4587414900409144,0.0,-0.009454313665628433,1.1194814443588257,0.0,-0.009261822327971458,1.0969178676605225,0.0033554951660335064,-0.055194608867168427
135.0,209.0,6.2668,-3.9882,5.4772,-0.0342,-0.0021,-0.1136,-1.8326450786986292,-0.00176858133636415,3.298910140991211,-1.0705676078796387,-0.0,2.19811749458313,3.577737017268799,0.0009534694836474955,0.3280719518661499,-1.458733383809225,0.0,-0.0038139589596539736,1.1195014715194702,0.0,0.00022751791402697563,1.0968973636627197,0.003719339845702052,-0.04419795051217079
135.0,209.0,6.2668,-3.9882,5.4772,-0.0342,-0.0021,-0.1136,-1.8326612911620082,-0.0020345072261989117,3.2981786727905273,-1.070607304573059,-0.0,2.1995980739593506,3.5776888567158203,0.002343715401366353,0.32963091135025024,-1.4587538878070276,0.0,0.0025210417807102203,1.119554042816162,0.0,-0.007405729964375496,1.0969536304473877,0.004556634463369846,-0.0015151682309806347
135.0,209.0,6.2668,-3.9882,5.4772,-0.0342,-0.0021,-0.1136,-1.8326569996275843,-0.0020568324252963066,3.308401584625244,-1.070607304573059,-0.0,2.1860387325286865,3.577845259303711,0.00963671412318945,0.32861828804016113,-1.4587577025042933,0.0,0.0011405921541154385,1.1194934844970703,0.0,-0.013654356822371483,1.0969696044921875,0.005190302152186632,-0.007524188607931137
135.0,209.0,6.2668,-3.9882,5.4772,-0.0342,-0.0021,-0.1136,-1.8326646290221156,-0.0020863742101937532,3.2805986404418945,-1.0705795288085938,-0.0,2.1477622985839844,3.577925367946289,0.015252368524670601,0.34334659576416016,-1.45874530473818,0.0,-0.003888733685016632,1.1195423603057861,0.0,-0.03151838853955269,1.0970373153686523,0.0058706384152174,0.03132971003651619
135.0,209.0,6.2668,-3.9882,5.4772,-0.0342,-0.0021,-0.1136,-1.832688947717184,-0.002277689753100276,3.3195831775665283,-1.0705876350402832,-0.0,2.2089715003967285,3.577993078822754,0.008683769032359123,0.33345258235931396,-1.4587696234332483,0.0,-0.000749951577745378,1.1195223331451416,0.0,-0.0052951909601688385,1.0970975160598755,0.005813210271298885,0.029145589098334312
135.0,209.0,6.2668,-3.9882,5.4772,-0.0342,-0.0021,-0.1136,-1.8327657184996546,-0.002873712219297886,3.2658162117004395,-1.070603609085083,-0.0,2.1490607261657715,3.5780369478413085,0.004903560969978571,0.3372514545917511,-1.4587653318988245,0.0,-0.006768091581761837,1.1195099353790283,0.0,-0.010477888397872448,1.0971012115478516,0.005447656847536564,-0.040768351405858994
135.0,209.0,6.2668,-3.9882,5.4772,-0.0342,-0.0021,-0.1136,-1.8327657184996546,-0.0031755741219967604,3.274489402770996,-1.070555567741394,-0.0,2.2511582374572754,3.578113241786621,0.0014053058112040162,0.3284076452255249,-1.4587739149676722,0.0,-0.004305047914385796,1.1195015907287598,0.0,-0.005151253193616867,1.0971335172653198,0.005604560021311045,-0.03389187902212143
135.0,209.0,6.2668,-3.9882,5.4772,-0.0342,-0.0021,-0.1136,-1.8327814541258753,-0.0033433770295232534,3.2675046920776367,-1.0705958604812622,-0.0,2.200915575027466,3.5780889230915527,0.0007450726698152721,0.33660024404525757,-1.4587457815753382,0.0,0.0005128981429152191,1.1195266246795654,0.0,-0.004087897948920727,1.097197413444519,0.006040363106876612,0.0335654579102993
135.0,209.0,6.2668,-3.9882,5.4772,-0.0342,-0.0021,-0.1136,-1.8328296146788539,-0.0036614916753023863,3.3147404193878174,-1.070620059967041,-0.0,2.18365740776062,3.57804457723584,0.000602161802817136,0.3341308832168579,-1.4587696234332483,0.0,0.002182525582611561,1.1194689273834229,0.0,-0.01135028712451458,1.097205400466919,0.005746344570070505,0.015802569687366486
135.0,209.0,6.2668,-3.9882,5.4772,-0.0342,-0.0021,-0.1136,-1.832841535607809,-0.004542082082480192,3.3016200065612793,-1.070555567741394,-0.0,2.14395809173584,3.578073187465332,0.0005026984144933522,0.33193251490592957,-1.4587896505938929,0.0,-0.0031677193474024534,1.119480848312378,0.0,-0.01380140334367752,1.0972692966461182,0.006518152076750994,0.006979897618293762
135.0,209.0,6.2668,-3.9882,5.4772,-0.0342,-0.0021,-0.1136,-1.8328496418394984,-0.006406113505363464,3.3114352226257324,-1.070603609085083,-0.0,2.177525520324707,3.5780646043964843,0.00029402156360447407,0.33671343326568604,-1.4587696234332483,0.0,-0.01068461686372757,1.1194778680801392,0.0,-0.014264287427067757,1.0973414182662964,0.007038583047688007,0.03657332807779312
135.0,209.0,6.2668,-3.9882,5.4772,-0.0342,-0.0021,-0.1136,-1.83290495494985,-0.006921217776834965,3.3017544746398926,-1.0705676078796387,-0.0,2.2064075469970703,3.5780202585407714,0.00023470142332371324,0.33979541063308716,-1.4587577025042933,0.0,-0.006134522147476673,1.1195223331451416,0.0,-0.006585101131349802,1.097353458404541,0.008031250908970833,-0.018343273550271988
135.0,209.0,6.2668,-3.9882,5.4772,-0.0342,-0.0021,-0.1136,-1.832977911035055,-0.007859570905566216,3.264652729034424,-1.0706032514572144,-0.0,2.1427698135375977,3.578097029323242,0.0001941767695825547,0.3418923616409302,-1.4587739149676722,0.0,-0.0012826640158891678,1.1195461750030518,0.0,-0.007952761836349964,1.0974935293197632,0.008368917740881443,-0.0018466589972376823
132.0,213.0,5.3306,-3.6891,5.7266,-0.0359,-0.0116,-0.1188,-1.833034177819723,-0.009605309925973415,3.271592140197754,-1.0706077814102173,-0.0,2.203409194946289,3.578085108394287,0.0001655901432968676,0.33255571126937866,-1.4587858358966272,0.0,-0.002685064449906349,1.1195017099380493,0.0,-0.005665414035320282,1.0974974632263184,0.009227612055838108,0.04708629101514816
132.0,213.0,5.3306,-3.6891,5.7266,-0.0359,-0.0116,-0.1188,-1.833085676232809,-0.010953769087791443,3.2894039154052734,-1.0705713033676147,-0.0,2.102236747741699,3.5780245500751953,0.00014912555343471467,0.34921640157699585,-1.458761994038717,0.0,-0.002502963412553072,1.1195056438446045,0.0,-0.008853200823068619,1.0975615978240967,0.008777166716754436,0.0028594275936484337
132.0,213.0,5.3306,-3.6891,5.7266,-0.0359,-0.0116,-0.1188,-1.8332463703551234,-0.012119142338633537,3.3103349208831787,-1.070591688156128,-0.0,2.1902060508728027,3.5780812936970214,0.00013167032739147544,0.34443098306655884,-1.4587214628802698,0.0,-0.013288445770740509,1.1195425987243652,0.0,-0.005402269307523966,1.0976293087005615,0.008159872144460678,-0.0015535512939095497
132.0,213.0,5.3306,-3.6891,5.7266,-0.0359,-0.0116,-0.1188,-1.833278318444723,-0.014888578094542027,3.2588820457458496,-1.070539116859436,-0.0,2.2072057723999023,3.57804457723584,0.00012104413326596841,0.33371567726135254,-1.4587577025042933,0.0,-0.006325075402855873,1.1195182800292969,0.0,-0.006784280762076378,1.0976171493530273,0.007907189428806305,-0.04856099560856819
132.0,213.0,5.3306,-3.6891,5.7266,-0.0359,-0.0116,-0.1188,-1.8334266148009242,-0.018493739888072014,3.30670166015625,-1.0705716609954834,3.995521621891207e-11,2.160809278488159,3.5780045229145507,0.00010928499978035688,0.3311226963996887,-1.4587414900409144,0.0,-0.00023789258557371795,1.1194850206375122,0.0,-0.010090900585055351,1.0977416038513184,0.0083007188513875,-0.07731759548187256
132.0,213.0,5.3306,-3.6891,5.7266,-0.0359,-0.0116,-0.1188,-1.8335753879942835,-0.02196747250854969,3.2554430961608887,-1.070591688156128,1.294498160771239e-18,2.2060959339141846,3.5780488687702636,9.96083181235008e-05,0.34549957513809204,-1.4587653318988245,0.0,-0.008084614761173725,1.1195628643035889,0.0,-0.007915547117590904,1.0977939367294312,0.008160238154232502,0.05897926539182663
132.0,213.0,5.3306,-3.6891,5.7266,-0.0359,-0.0116,-0.1188,-1.8337270222105921,-0.024379244074225426,3.289163112640381,-1.0705955028533936,3.1260603271016013e-24,2.1396431922912598,3.578028364772461,9.340562246507034e-05,0.35198974609375,-1.4587739149676722,0.0,-0.01693137176334858,1.1194767951965332,0.0,-0.009446685202419758,1.097825527191162,0.008404809981584549,0.035325273871421814
132.0,213.0,5.3306,-3.6891,5.7266,-0.0359,-0.0116,-0.1188,-1.8339435062804164,-0.030418893322348595,3.2121644020080566,-1.0706197023391724,1.0128039343280865e-31,2.185922861099243,3.5781051355549316,0.0001034740125760436,0.343710720539093,-1.458761994038717,0.0,-0.0084358099848032,1.1195056438446045,0.0,-0.01005014218389988,1.0978978872299194,0.008303331211209297,-0.049031902104616165
132.0,213.0,5.3306,-3.6891,5.7266,-0.0359,-0.0116,-0.1188,-1.8342119656004847,-0.03945235535502434,3.2317960262298584,-1.07057523727417,3.281356154180065e-39,2.14688777923584,3.578085108394287,0.00010801468306453899,0.3268183469772339,-1.4587414900409144,0.0,-0.00863195676356554,1.1195307970046997,0.0,-0.002107166452333331,1.0979654788970947,0.008364668115973473,0.053022898733615875
132.0,213.0,5.3306,-3.6891,5.7266,-0.0359,-0.0116,-0.1188,-1.8344603977599085,-0.046437330543994904,3.1980297565460205,-1.070591688156128,8.407790785948902e-45,2.1981801986694336,3.578056498164795,0.00010763498721644282,0.3405773639678955,-1.458761994038717,0.0,-0.01411170233041048,1.1195223331451416,0.0,0.002867490518838167,1.0979893207550049,0.009670712985098362,0.003117620013654232
132.0,213.0,5.3306,-3.6891,5.7266,-0.0359,-0.0116,-0.1188,-1.8347679577269496,-0.052242159843444824,3.1878485679626465,-1.070539116859436,-0.0,2.1666109561920166,3.5780927377888183,0.001485244370996952,0.34626641869544983,-1.4587138334857386,0.0,-0.030454836785793304,1.1195223331451416,0.0,-0.007795325014740229,1.0981061458587646,0.00957964826375246,-0.00047877710312604904
