ramyac6/ROB537/final_project/csv/all/good_189.csv
tof_0,tof_1,accelx,accely,accelz,gyrox,gyroy,gyroz,shoulder_lift_joint_position,shoulder_lift_joint_velocity,shoulder_lift_joint_effort,elbow_joint_position,elbow_joint_velocity,elbow_joint_effort,wrist_1_joint_position,wrist_1_joint_velocity,wrist_1_joint_effort,wrist_2_joint_position,wrist_2_joint_velocity,wrist_2_joint_effort,wrist_3_joint_position,wrist_3_joint_velocity,wrist_3_joint_effort,shoulder_pan_joint_position,shoulder_pan_joint_velocity,shoulder_pan_joint_effort
501.0,741.0,2.6471,0.2177,9.0066,-0.0414,0.0296,-0.1184,-1.508697659974434,0.0,1.8735791444778442,-1.868462085723877,-0.0,2.150571823120117,4.57595078527417,0.0,0.30343812704086304,-1.5970895926104944,-0.0,-0.0008073418866842985,0.7881600260734558,0.0,-0.006130964495241642,0.8159640431404114,0.0,0.022531483322381973
501.0,741.0,2.6471,0.2177,9.0066,-0.0414,0.0296,-0.1184,-1.5086895574680348,0.0,1.8812081813812256,-1.868434190750122,-0.0,2.166431427001953,4.575943155879639,0.0,0.29405108094215393,-1.5970538298236292,-0.0,0.001257546478882432,0.7881439924240112,0.0,0.0028338045813143253,0.8158996105194092,0.0,0.04493483155965805
501.0,741.0,2.6471,0.2177,9.0066,-0.0414,0.0296,-0.1184,-1.5087055538645764,0.0,1.8725593090057373,-1.8684663772583008,-0.0,2.1340150833129883,4.575902147884033,0.0,0.29475730657577515,-1.5970576445208948,-0.0,-0.010389840230345726,0.7881677746772766,0.0,-0.002452355343848467,0.8159036636352539,0.0,0.03689592704176903
501.0,741.0,2.6471,0.2177,9.0066,-0.0414,0.0296,-0.1184,-1.508669690494873,0.0,1.861255407333374,-1.868462085723877,-0.0,2.156576633453369,4.575966044063232,0.0,0.2888331711292267,-1.5970538298236292,-0.0,-0.0035842405632138252,0.7881236672401428,0.0,-0.008102361112833023,0.8159196376800537,0.0,-0.009794158861041069
501.0,741.0,2.6471,0.2177,9.0066,-0.0414,0.0296,-0.1184,-1.5086816188744088,0.0,1.855560064315796,-1.8684868812561035,-0.0,2.1549956798553467,4.575935049647949,0.0,0.2988244295120239,-1.597070042287008,-0.0,-0.020208822563290596,0.7881920337677002,0.0,-0.007459105923771858,0.81587153673172,0.0,0.0036391490139067173
501.0,741.0,2.6471,0.2177,9.0066,-0.0414,0.0296,-0.1184,-1.508669690494873,0.0,1.9156029224395752,-1.8684744834899902,-0.0,2.103783130645752,4.5758983331867675,0.0,0.2975904941558838,-1.5970380941974085,-0.0,-0.00575645687058568,0.7881194353103638,0.0,0.00023440778022632003,0.8159319162368774,0.0,0.0008598697022534907
501.0,741.0,2.6471,0.2177,9.0066,-0.0414,0.0296,-0.1184,-1.508609914486744,0.0,1.8804023265838623,-1.8684464693069458,-0.0,2.1234359741210938,4.575966520900391,0.0,0.29869288206100464,-1.597058121358053,-0.0,0.0020837155170738697,0.788067638874054,0.0,-0.0019049437250941992,0.8159478902816772,0.0,-0.020501065999269485
501.0,741.0,2.6471,0.2177,9.0066,-0.0414,0.0296,-0.1184,-1.5086657379618664,0.0,1.8736201524734497,-1.868485927581787,-0.0,2.12056040763855,4.5758983331867675,0.0,0.29316213726997375,-1.5970738569842737,-0.0,-0.004210826009511948,0.788144052028656,0.0,-0.004163391888141632,0.8158512711524963,0.0,-0.026848385110497475
501.0,741.0,2.6471,0.2177,9.0066,-0.0414,0.0296,-0.1184,-1.5086657230607052,0.0,1.885192632675171,-1.8684546947479248,-0.0,2.1581926345825195,4.575886889094971,0.0,0.2842314839363098,-1.5970538298236292,-0.0,-0.00735405832529068,0.7881719470024109,0.0,-0.008854798972606659,0.8158996105194092,0.0,-0.007190163247287273
500.0,685.0,2.5992,0.1902,9.0879,-0.0438,0.025,-0.119,-1.5086657677641888,0.0,1.8687894344329834,-1.8684827089309692,-0.0,2.1859328746795654,4.575923128718994,0.0,0.30540040135383606,-1.5970938841449183,-0.0,-0.01106858067214489,0.7881399393081665,0.0,-0.009615355171263218,0.8159441351890564,0.0,0.0060956887900829315
500.0,685.0,2.5992,0.1902,9.0879,-0.0438,0.025,-0.119,-1.508657657807209,0.0,1.8910043239593506,-1.8684744834899902,-0.0,2.147747755050659,4.575946970576904,0.0,0.29477375745773315,-1.5970295111285608,-0.0,-0.00546007975935936,0.7881277203559875,0.0,-0.00862806010991335,0.8158875107765198,0.0,-0.012721248902380466
500.0,685.0,2.5992,0.1902,9.0879,-0.0438,0.025,-0.119,-1.508681596522667,0.0,1.8943586349487305,-1.8684744834899902,-0.0,2.1248221397399902,4.575946970576904,0.0,0.2919791042804718,-1.5970500151263636,-0.0,-0.002735238755121827,0.7881276607513428,0.0,-0.004006887320429087,0.815879225730896,0.0,-0.02546653524041176
500.0,685.0,2.5992,0.1902,9.0879,-0.0438,0.025,-0.119,-1.5085978482714673,0.0,1.8615083694458008,-1.868462085723877,-0.0,2.1574196815490723,4.575946970576904,0.0,0.29667431116104126,-1.597046200429098,-0.0,-0.012089922092854977,0.7881194949150085,0.0,-0.005116520915180445,0.8159520030021667,0.0,0.05844207480549812
500.0,685.0,2.5992,0.1902,9.0879,-0.0438,0.025,-0.119,-1.5086976301721116,0.0,1.907273292541504,-1.868417739868164,-0.0,2.1386666297912598,4.575962229365967,0.0,0.29611533880233765,-1.5970500151263636,-0.0,0.003073769621551037,0.788123607635498,0.0,-0.01294729020446539,0.8159278631210327,0.0,0.02064197137951851
500.0,685.0,2.5992,0.1902,9.0879,-0.0438,0.025,-0.119,-1.5086895015886803,0.0,1.8259246349334717,-1.8684661388397217,-0.0,2.140908718109131,4.57592694341626,0.0,0.28877750039100647,-1.5970619360553187,-0.0,-0.02202613279223442,0.7881276607513428,0.0,-0.0012324145063757896,0.8158953785896301,0.0,-0.021056603640317917
500.0,685.0,2.5992,0.1902,9.0879,-0.0438,0.025,-0.119,-1.5086576987854023,0.0,1.8727810382843018,-1.8684093952178955,-0.0,2.120851993560791,4.575918360347412,0.0,0.30450114607810974,-1.5970857779132288,-0.0,-0.0022967932745814323,0.7881436347961426,0.0,-0.005111832171678543,0.8158592581748962,0.0,0.05122949928045273
500.0,685.0,2.5992,0.1902,9.0879,-0.0438,0.025,-0.119,-1.508593914364912,0.0,1.899679183959961,-1.868485927581787,-0.0,2.1948599815368652,4.575966044063232,0.0,0.30031025409698486,-1.597070042287008,-0.0,-0.00793519802391529,0.788115382194519,0.0,-0.00717650493606925,0.8158674240112305,0.0,0.023105453699827194
500.0,685.0,2.5992,0.1902,9.0879,-0.0438,0.025,-0.119,-1.5086377759328862,0.0,1.8892481327056885,-1.8684465885162354,-0.0,2.167914628982544,4.575935049647949,0.0,0.290432870388031,-1.5970380941974085,-0.0,3.438885323703289e-05,0.7881157398223877,0.0,-0.00203729048371315,0.8159118294715881,0.0,-0.008879357948899269
500.0,685.0,2.5992,0.1902,9.0879,-0.0438,0.025,-0.119,-1.5086737138083954,0.0,1.8763779401779175,-1.8684136867523193,-0.0,2.1566762924194336,4.5759264665791015,0.0,0.29165327548980713,-1.597046200429098,-0.0,-0.002361538354307413,0.7881076335906982,0.0,-0.00948010291904211,0.8159641027450562,0.0,0.022317450493574142
500.0,685.0,2.5992,0.1902,9.0879,-0.0438,0.025,-0.119,-1.5086617183736344,0.0,1.9070916175842285,-1.8684465885162354,-0.0,2.151914596557617,4.57591883718457,0.0,0.3054424524307251,-1.5970619360553187,-0.0,0.004047068767249584,0.7881800532341003,0.0,-0.015764420852065086,0.8158996105194092,0.0,0.0012286697747185826
500.0,685.0,2.5992,0.1902,9.0879,-0.0438,0.025,-0.119,-1.5086895202151318,0.0,1.869702696800232,-1.8684020042419434,-0.0,2.1574454307556152,4.575890226955078,0.0,0.29277777671813965,-1.5970819632159632,-0.0,-0.01933455653488636,0.7881157398223877,0.0,-0.010515058413147926,0.8158875107765198,0.0,-0.014306747354567051
500.0,685.0,2.5992,0.1902,9.0879,-0.0438,0.025,-0.119,-1.50870160505686,0.0,1.883561134338379,-1.8684465885162354,-0.0,2.1560168266296387,4.575922651881836,0.0,0.2973390817642212,-1.5970295111285608,-0.0,-0.0034916172735393047,0.7881439924240112,0.0,0.008738219738006592,0.8159196376800537,0.0,0.019406989216804504
500.0,685.0,2.5992,0.1902,9.0879,-0.0438,0.025,-0.119,-1.5087095697275181,0.0,1.8836662769317627,-1.868453860282898,-0.0,2.1817331314086914,4.575923128718994,0.0,0.3003857731819153,-1.5970538298236292,-0.0,0.0013196357758715749,0.7881481051445007,0.0,-0.008269429206848145,0.8158957362174988,0.0,-0.013628602027893066
500.0,685.0,2.5992,0.1902,9.0879,-0.0438,0.025,-0.119,-1.5086934876492997,0.0,1.8507652282714844,-1.8684216737747192,-0.0,2.139251232147217,4.575930758113525,0.0,0.29871106147766113,-1.5970538298236292,-0.0,-0.00044186972081661224,0.7881072163581848,0.0,-0.000890128081664443,0.8159072995185852,0.0,-0.015426309779286385
500.0,685.0,2.5992,0.1902,9.0879,-0.0438,0.025,-0.119,-1.5086576429060479,0.0,1.879974365234375,-1.8684909343719482,-0.0,2.154940128326416,4.575886889094971,0.0,0.2918699383735657,-1.5970738569842737,-0.0,-0.002298366278409958,0.7881760001182556,0.0,-0.0035379778128117323,0.8159077763557434,0.0,-0.014782059006392956
500.0,685.0,2.5992,0.1902,9.0879,-0.0438,0.025,-0.119,-1.5086816114238282,0.0,1.8715219497680664,-1.8685065507888794,-0.0,2.1777822971343994,4.575906916255615,0.0,0.29645565152168274,-1.5970857779132288,-0.0,-0.0050951046869158745,0.7880595922470093,0.0,-0.009870395064353943,0.8159400224685669,0.0,-0.0332210510969162
500.0,685.0,2.5992,0.1902,9.0879,-0.0438,0.025,-0.119,-1.508665708159544,0.0,1.8706610202789307,-1.868470311164856,-0.0,2.159055233001709,4.575966044063232,0.0,0.29409220814704895,-1.5970619360553187,-0.0,-0.0031345393508672714,0.7881357669830322,0.0,-0.007232560310512781,0.8158954381942749,0.0,0.033206090331077576
453.0,8190.0,2.6142,0.2177,8.9647,-0.0336,0.022,-0.1159,-1.508633815949299,0.0,1.8627009391784668,-1.8684900999069214,-0.0,2.177302122116089,4.5759827333637695,0.0,0.3030136823654175,-1.597058121358053,-0.0,-0.019100479781627655,0.788119375705719,0.0,-0.004229074344038963,0.8158916234970093,0.0,0.002678905613720417
453.0,8190.0,2.6142,0.2177,8.9647,-0.0336,0.022,-0.1159,-1.5086976301721116,0.0,1.8593990802764893,-1.8684464693069458,-0.0,2.1336276531219482,4.575946016902588,0.0,0.2914978563785553,-1.597070042287008,-0.0,-0.018154338002204895,0.7881317734718323,0.0,0.0018238681368529797,0.8159520626068115,0.0,-0.008566692471504211
453.0,8190.0,2.6142,0.2177,8.9647,-0.0336,0.022,-0.1159,-1.5086855565062542,0.0,1.892848253250122,-1.8684176206588745,-0.0,2.1561391353607178,4.57594267904248,0.0,0.3020484447479248,-1.5970538298236292,-0.0,-0.009741744957864285,0.7880874872207642,0.0,-0.008589766919612885,0.8158756494522095,0.0,0.04451863095164299
453.0,8190.0,2.6142,0.2177,8.9647,-0.0336,0.022,-0.1159,-1.5086457406035443,0.0,1.8966763019561768,-1.8684868812561035,-0.0,2.1264495849609375,4.575923128718994,0.0,0.2989605665206909,-1.5970619360553187,-0.0,-0.0031870659440755844,0.7881194353103638,0.0,-0.008060527965426445,0.815875232219696,0.0,0.012756489217281342
453.0,8190.0,2.6142,0.2177,8.9647,-0.0336,0.022,-0.1159,-1.5086736691049119,0.0,1.9180521965026855,-1.8684909343719482,-0.0,2.1651101112365723,4.575886889094971,0.0,0.30306506156921387,-1.5970419088946741,-0.0,-0.014422304928302765,0.788151741027832,0.0,-0.012427309527993202,0.8159319162368774,0.0,-0.0037131309509277344
453.0,8190.0,2.6142,0.2177,8.9647,-0.0336,0.022,-0.1159,-1.508665745412447,0.0,1.891242504119873,-1.8684176206588745,-0.0,2.1850533485412598,4.575946970576904,0.0,0.27751919627189636,-1.597046200429098,-0.0,-0.014132477343082428,0.7881357669830322,0.0,-0.010075030848383904,0.8159118890762329,0.0,0.041005246341228485
453.0,8190.0,2.6142,0.2177,8.9647,-0.0336,0.022,-0.1159,-1.508673684006073,0.0,1.892213225364685,-1.8684661388397217,-0.0,2.1402816772460938,4.575910730952881,0.0,0.29948991537094116,-1.5970895926104944,-0.0,0.002520725131034851,0.7880915999412537,0.0,0.0011040586978197098,0.8158916234970093,0.0,0.012455607764422894
453.0,8190.0,2.6142,0.2177,8.9647,-0.0336,0.022,-0.1159,-1.5086536568454285,0.0,1.8835539817810059,-1.868462085723877,-0.0,2.127276659011841,4.575946970576904,0.0,0.30251163244247437,-1.597058121358053,-0.0,-0.005955295637249947,0.7881276607513428,0.0,0.0023107416927814484,0.8158954381942749,0.0,0.053451355546712875
453.0,8190.0,2.6142,0.2177,8.9647,-0.0336,0.022,-0.1159,-1.5087095026722928,0.0,1.8334414958953857,-1.8685065507888794,-0.0,2.165820598602295,4.575918360347412,0.0,0.30583348870277405,-1.597109619771139,-0.0,-0.00812431052327156,0.7881357073783875,0.0,-0.008945117704570293,0.815895676612854,0.0,-0.001815931056626141
453.0,8190.0,2.6142,0.2177,8.9647,-0.0336,0.022,-0.1159,-1.5086657342365761,0.0,1.9063389301300049,-1.8684217929840088,-0.0,2.1539132595062256,4.57597462713208,0.0,0.29688024520874023,-1.5970938841449183,-0.0,-0.010980711318552494,0.7881076335906982,0.0,-0.014046942815184593,0.8159196972846985,0.0,-0.020988166332244873
453.0,8190.0,2.6142,0.2177,8.9647,-0.0336,0.022,-0.1159,-1.5086855490556736,0.0,1.9174244403839111,-1.8684300184249878,-0.0,2.139923572540283,4.575914545650146,0.0,0.28894302248954773,-1.5970857779132288,-0.0,-0.008768551051616669,0.7881681323051453,0.0,0.0039983647875487804,0.8159360289573669,0.0,-0.02388768270611763
453.0,8190.0,2.6142,0.2177,8.9647,-0.0336,0.022,-0.1159,-1.5086617370000859,0.0,1.9385595321655273,-1.8684258460998535,-0.0,2.13956356048584,4.575978918666504,0.0,0.2888181209564209,-1.597046200429098,-0.0,-0.008851687423884869,0.7881600260734558,0.0,-0.003312820103019476,0.8158875107765198,0.0,0.016101937741041183
453.0,8190.0,2.6142,0.2177,8.9647,-0.0336,0.022,-0.1159,-1.5086536717465897,0.0,1.9217005968093872,-1.8684300184249878,-0.0,2.1159169673919678,4.57594267904248,0.0,0.2974086403846741,-1.5970619360553187,-0.0,-0.010804316028952599,0.7880915999412537,0.0,-0.00017124135047197342,0.8158995509147644,0.0,-0.008441325277090073
453.0,8190.0,2.6142,0.2177,8.9647,-0.0336,0.022,-0.1159,-1.5087095287493248,0.0,1.8864431381225586,-1.8684258460998535,-0.0,2.1235861778259277,4.575938864345215,0.0,0.28375187516212463,-1.5970776716815394,-0.0,-0.012641020119190216,0.788127601146698,0.0,0.004054998978972435,0.8159159421920776,0.0,0.020087311044335365
453.0,8190.0,2.6142,0.2177,8.9647,-0.0336,0.022,-0.1159,-1.5086536531201382,0.0,1.8737592697143555,-1.868425965309143,-0.0,2.169769287109375,4.575922651881836,0.0,0.29928484559059143,-1.5970619360553187,-0.0,-0.008191227912902832,0.7881677746772766,0.0,-0.0064011504873633385,0.8158553838729858,0.0,-0.02489510178565979
453.0,8190.0,2.6142,0.2177,8.9647,-0.0336,0.022,-0.1159,-1.5086696606925507,0.0,1.8837330341339111,-1.8684546947479248,-0.0,2.1362955570220947,4.575962229365967,0.0,0.29896050691604614,-1.5970657507525843,-0.0,-0.013908525928854942,0.7881357669830322,0.0,-0.0025250145699828863,0.8159359693527222,0.0,0.00011854851618409157
453.0,8190.0,2.6142,0.2177,8.9647,-0.0336,0.022,-0.1159,-1.508657657807209,0.0,1.8578099012374878,-1.868442416191101,-0.0,2.185260534286499,4.575954123134277,0.0,0.3121403157711029,-1.5970619360553187,-0.0,-0.008153180591762066,0.7881317138671875,0.0,-0.006241495721042156,0.8159160017967224,0.0,0.01222022995352745
509.0,814.0,2.6399,0.21,8.9611,-0.0255,0.0241,-0.126,-1.508697648798563,0.0,1.9100459814071655,-1.8685147762298584,-0.0,2.1356098651885986,4.575918360347412,0.0,0.2949035167694092,-1.5970657507525843,-0.0,-0.004333983641117811,0.7880599498748779,0.0,-0.001988994888961315,0.8158996105194092,0.0,-0.011964580044150352
509.0,814.0,2.6399,0.21,8.9611,-0.0255,0.0241,-0.126,-1.5086258624545117,0.0,1.882828950881958,-1.868470311164856,-0.0,2.2017178535461426,4.575902624721191,0.0,0.28190529346466064,-1.5970419088946741,-0.0,-0.0015266311820596457,0.788084089756012,0.0,0.009115367196500301,0.8159114122390747,0.0,-0.01043866015970707
509.0,814.0,2.6399,0.21,8.9611,-0.0255,0.0241,-0.126,-1.50870160505686,0.0,1.8509867191314697,-1.8683937788009644,-0.0,2.1415281295776367,4.575910730952881,0.0,0.29385673999786377,-1.5970099608050745,-0.0,-0.005195038393139839,0.788123607635498,0.0,0.0015237642219290137,0.8159319758415222,0.0,-0.00011097360402345657
509.0,814.0,2.6399,0.21,8.9611,-0.0255,0.0241,-0.126,-1.5086617593518277,0.0,1.8971079587936401,-1.8684743642807007,-0.0,2.1804466247558594,4.575938864345215,0.0,0.29907509684562683,-1.597046200429098,-0.0,-0.009493157267570496,0.7881112694740295,0.0,0.000246615381911397,0.8158833980560303,0.0,0.022571465000510216
509.0,814.0,2.6399,0.21,8.9611,-0.0255,0.0241,-0.126,-1.5086855676821251,0.0,1.8989989757537842,-1.8684743642807007,-0.0,2.137007236480713,4.57591883718457,0.0,0.30284175276756287,-1.597070042287008,-0.0,-0.009913546964526176,0.7881439924240112,0.0,-0.006024179980158806,0.8159077763557434,0.0,0.020640593022108078
509.0,814.0,2.6399,0.21,8.9611,-0.0255,0.0241,-0.126,-1.5086417992464085,0.0,1.8798046112060547,-1.868462085723877,-0.0,2.1478824615478516,4.575906439418457,0.0,0.29781782627105713,-1.5970619360553187,-0.0,0.006291194818913937,0.7881194353103638,0.0,-0.002097002463415265,0.8159437775611877,0.0,0.03425948694348335
509.0,814.0,2.6399,0.21,8.9611,-0.0255,0.0241,-0.126,-1.508669690494873,0.0,1.9155871868133545,-1.8684498071670532,-0.0,2.1307733058929443,4.57591883718457,0.0,0.2959912419319153,-1.5970538298236292,-0.0,-0.01072082482278347,0.7881276607513428,0.0,-0.004674975760281086,0.8159118890762329,0.0,0.05985485017299652
509.0,814.0,2.6399,0.21,8.9611,-0.0255,0.0241,-0.126,-1.5086816114238282,0.0,1.8841843605041504,-1.8685106039047241,-0.0,2.140852928161621,4.575966044063232,0.0,0.28203386068344116,-1.5970576445208948,-0.0,-0.009030628018081188,0.7880997061729431,0.0,0.002364684594795108,0.8159196376800537,0.0,0.0227732565253973
509.0,814.0,2.6399,0.21,8.9611,-0.0255,0.0241,-0.126,-1.5086536531201382,0.0,1.8851540088653564,-1.8684744834899902,-0.0,2.155635356903076,4.575914545650146,0.0,0.2861288785934448,-1.5970419088946741,-0.0,0.00974222645163536,0.7881076335906982,0.0,-0.005181109998375177,0.8159319162368774,0.0,0.005277697928249836
509.0,814.0,2.6399,0.21,8.9611,-0.0255,0.0241,-0.126,-1.50870160505686,0.0,1.8788537979125977,-1.8684258460998535,-0.0,2.1763038635253906,4.575966044063232,0.0,0.29692378640174866,-1.5970776716815394,-0.0,0.0059158820658922195,0.7880994081497192,0.0,-0.01942513883113861,0.8158995509147644,0.0,0.030703311786055565
509.0,814.0,2.6399,0.21,8.9611,-0.0255,0.0241,-0.126,-1.508669690494873,0.0,1.8796231746673584,-1.868453860282898,-0.0,2.1519417762756348,4.575946970576904,0.0,0.2894743084907532,-1.5970776716815394,-0.0,-0.007819203659892082,0.7880957126617432,0.0,0.0020380800124257803,0.8159197568893433,0.0,-0.0333792120218277
509.0,814.0,2.6399,0.21,8.9611,-0.0255,0.0241,-0.126,-1.5086776179126282,0.0,1.8888864517211914,-1.868434190750122,-0.0,2.1270809173583984,4.575894041652344,0.0,0.2911854684352875,-1.5970419088946741,-0.0,-0.008016734384000301,0.7881637215614319,0.0,-0.00026444043032824993,0.8158954381942749,0.0,0.020664909854531288
509.0,814.0,2.6399,0.21,8.9611,-0.0255,0.0241,-0.126,-1.508685578857996,0.0,1.8996307849884033,-1.868470311164856,-0.0,2.1297786235809326,4.57597462713208,0.0,0.2958374321460724,-1.5970419088946741,-0.0,-0.014284067787230015,0.7881194353103638,0.0,0.007602914702147245,0.8158998489379883,0.0,0.0008661532774567604
509.0,814.0,2.6399,0.21,8.9611,-0.0255,0.0241,-0.126,-1.5086816114238282,0.0,1.8813413381576538,-1.8684868812561035,-0.0,2.1773030757904053,4.575946970576904,0.0,0.2914358973503113,-1.597058121358053,-0.0,-0.005484201479703188,0.788151741027832,0.0,0.00962647795677185,0.8159036636352539,0.0,-0.01462966576218605
509.0,814.0,2.6399,0.21,8.9611,-0.0255,0.0241,-0.126,-1.5086736877313633,0.0,1.8309142589569092,-1.8685023784637451,-0.0,2.179579973220825,4.57591883718457,0.0,0.29753121733665466,-1.5970538298236292,-0.0,-0.010196641087532043,0.788119375705719,0.0,-0.014821511693298817,0.8158875107765198,0.0,0.017794765532016754
509.0,814.0,2.6399,0.21,8.9611,-0.0255,0.0241,-0.126,-1.5087174859694024,0.0,1.9069992303848267,-1.8684630393981934,-0.0,2.157480478286743,4.5759264665791015,0.0,0.30750688910484314,-1.5970500151263636,-0.0,-0.01520494930446148,0.7881396412849426,0.0,-0.002709408989176154,0.815923810005188,0.0,0.03164980933070183
509.0,814.0,2.6399,0.21,8.9611,-0.0255,0.0241,-0.126,-1.50870160505686,0.0,1.9160048961639404,-1.8684661388397217,-0.0,2.1369011402130127,4.575930758113525,0.0,0.29900091886520386,-1.597109619771139,-0.0,-0.013825148344039917,0.788103461265564,0.0,-0.00791948102414608,0.8158634901046753,0.0,-0.023464974015951157
509.0,814.0,2.6399,0.21,8.9611,-0.0255,0.0241,-0.126,-1.5086457517794152,0.0,1.9500614404678345,-1.8684629201889038,-0.0,2.1303019523620605,4.575955076808594,0.0,0.2975417971611023,-1.5970619360553187,-0.0,-0.015371914021670818,0.7880874276161194,0.0,0.00044178368989378214,0.8159036636352539,0.0,-0.06861907243728638
495.0,704.0,2.5364,0.1615,9.1633,-0.0363,0.0304,-0.1176,-1.5086935249022027,0.0,1.9139516353607178,-1.8684704303741455,-0.0,2.1554622650146484,4.575938864345215,0.0,0.29221755266189575,-1.597109619771139,-0.0,0.013154568150639534,0.7881520390510559,0.0,-0.004351820796728134,0.8158916234970093,0.0,0.0067628053948283195
495.0,704.0,2.5364,0.1615,9.1633,-0.0363,0.0304,-0.1176,-1.5086816263249894,0.0,1.865100383758545,-1.868434190750122,-0.0,2.071916341781616,4.5759264665791015,0.0,0.2930677533149719,-1.5970619360553187,-0.0,-0.009898198768496513,0.7881317138671875,0.0,-0.0005400555673986673,0.815871000289917,0.0,0.046020980924367905
495.0,704.0,2.5364,0.1615,9.1633,-0.0363,0.0304,-0.1176,-1.5087056022933503,0.0,1.8516687154769897,-1.8684382438659668,-0.0,2.1261467933654785,4.575957937831543,0.0,0.2932009696960449,-1.5970619360553187,-0.0,-0.003936281427741051,0.7881677746772766,0.0,-0.0016996770864352584,0.815879225730896,0.0,0.011269444599747658
495.0,704.0,2.5364,0.1615,9.1633,-0.0363,0.0304,-0.1176,-1.5087214832058926,0.0,1.9132869243621826,-1.868462085723877,-0.0,2.1362521648406982,4.575957937831543,0.0,0.2779753804206848,-1.5970500151263636,-0.0,-0.005286604631692171,0.7881194353103638,0.0,0.00059552863240242,0.8158388137817383,0.0,-0.0016982383094727993
495.0,704.0,2.5364,0.1615,9.1633,-0.0363,0.0304,-0.1176,-1.5086776179126282,0.0,1.8872127532958984,-1.8684135675430298,-0.0,2.164930820465088,4.575954123134277,0.0,0.30761465430259705,-1.5970619360553187,-0.0,-0.007331881206482649,0.7880993485450745,0.0,0.0036200713366270065,0.8158916234970093,0.0,-0.008309805765748024
495.0,704.0,2.5364,0.1615,9.1633,-0.0363,0.0304,-0.1176,-1.5086895500174542,0.0,1.8862484693527222,-1.8684465885162354,-0.0,2.1882762908935547,4.5759264665791015,0.0,0.2987619936466217,-1.5970142523394983,-0.0,-0.008383730426430702,0.7880717515945435,0.0,0.008190769702196121,0.8159156441688538,0.0,-0.004812164697796106
495.0,704.0,2.5364,0.1615,9.1633,-0.0363,0.0304,-0.1176,-1.5086576838842412,0.0,1.886072039604187,-1.8684580326080322,-0.0,2.169590473175049,4.575962229365967,0.0,0.30869176983833313,-1.597058121358053,-0.0,-0.01593889854848385,0.7880874276161194,0.0,-0.001844793208874762,0.8159278035163879,0.0,-0.011954866349697113
495.0,704.0,2.5364,0.1615,9.1633,-0.0363,0.0304,-0.1176,-1.50864568844948,0.0,1.8900108337402344,-1.8684258460998535,-0.0,2.1341474056243896,4.575957937831543,0.0,0.2887576222419739,-1.5970538298236292,-0.0,-0.016327708959579468,0.788123607635498,0.0,-0.004098484292626381,0.81587153673172,0.0,-0.03355206921696663
495.0,704.0,2.5364,0.1615,9.1633,-0.0363,0.0304,-0.1176,-1.5086855565062542,0.0,1.9161819219589233,-1.8684827089309692,-0.0,2.1485652923583984,4.57597462713208,0.0,0.29530516266822815,-1.5970857779132288,-0.0,-0.005316628143191338,0.7880759239196777,0.0,-0.011001498438417912,0.8158755898475647,0.0,0.0577307865023613
495.0,704.0,2.5364,0.1615,9.1633,-0.0363,0.0304,-0.1176,-1.5087294367006798,0.0,1.8912291526794434,-1.868470311164856,-0.0,2.168581962585449,4.575930758113525,0.0,0.3003058433532715,-1.5970657507525843,-0.0,-0.0158443171530962,0.7880922555923462,0.0,0.002563213463872671,0.815895676612854,0.0,-0.003751202020794153
495.0,704.0,2.5364,0.1615,9.1633,-0.0363,0.0304,-0.1176,-1.5086657640388985,0.0,1.8069941997528076,-1.8684941530227661,-0.0,2.12723445892334,4.57594267904248,0.0,0.2970603108406067,-1.5970619360553187,-0.0,-0.010408304631710052,0.7881037592887878,0.0,-0.00666223606094718,0.8158995509147644,0.0,-0.02431180141866207
495.0,704.0,2.5364,0.1615,9.1633,-0.0363,0.0304,-0.1176,-1.508689535116293,0.0,1.9035327434539795,-1.8684093952178955,-0.0,2.1387603282928467,4.57594267904248,0.0,0.30291008949279785,-1.5970776716815394,-0.0,-0.007185455411672592,0.7882124185562134,0.0,-3.657187335193157e-06,0.8158833980560303,0.0,-0.003703975584357977
495.0,704.0,2.5364,0.1615,9.1633,-0.0363,0.0304,-0.1176,-1.5087134812823315,0.0,1.8918890953063965,-1.86845064163208,-0.0,2.169435501098633,4.575966044063232,0.0,0.299335777759552,-1.597046200429098,-0.0,-0.0016724711749702692,0.7881399393081665,0.0,-0.003006841754540801,0.8158913254737854,0.0,-0.02710079774260521
495.0,704.0,2.5364,0.1615,9.1633,-0.0363,0.0304,-0.1176,-1.50869761154566,0.0,1.8994309902191162,-1.8684579133987427,-0.0,2.1726205348968506,4.575915022487305,0.0,0.3076956272125244,-1.597058121358053,-0.0,-0.011296533048152924,0.7880759239196777,0.0,-0.009327162057161331,0.8159114122390747,0.0,0.04648792743682861
495.0,704.0,2.5364,0.1615,9.1633,-0.0363,0.0304,-0.1176,-1.5086816114238282,0.0,1.9060449600219727,-1.8684465885162354,-0.0,2.158214807510376,4.575966044063232,0.0,0.2872732877731323,-1.5970938841449183,-0.0,-0.018429288640618324,0.7881476879119873,0.0,-0.0022415220737457275,0.8159154653549194,0.0,0.02286185324192047
495.0,704.0,2.5364,0.1615,9.1633,-0.0363,0.0304,-0.1176,-1.5086736877313633,0.0,1.8639955520629883,-1.8684868812561035,-0.0,2.175546646118164,4.575906916255615,0.0,0.30171331763267517,-1.597070042287008,-0.0,0.0003092952538281679,0.7880833745002747,0.0,-0.0028376635164022446,0.8158916234970093,0.0,-0.01267489604651928
495.0,704.0,2.5364,0.1615,9.1633,-0.0363,0.0304,-0.1176,-1.5086736728302022,0.0,1.8455171585083008,-1.8684661388397217,-0.0,2.1539862155914307,4.57595078527417,0.0,0.3003554344177246,-1.5970776716815394,-0.0,-0.004011483397334814,0.7880554795265198,0.0,0.004836347419768572,0.8159036636352539,0.0,0.0017930343747138977
531.0,699.0,2.6818,0.2309,8.9228,-0.0374,0.0276,-0.1232,-1.5087056022933503,0.0,1.8544197082519531,-1.8684743642807007,-0.0,2.17148756980896,4.575906916255615,0.0,0.29617297649383545,-1.5970619360553187,-0.0,-0.001380072790198028,0.7881357073783875,0.0,-0.0005235616117715836,0.8159441947937012,0.0,0.004948455840349197
531.0,699.0,2.6818,0.2309,8.9228,-0.0374,0.0276,-0.1232,-1.5086578142694016,0.0,1.901641607284546,-1.868434190750122,-0.0,2.2004904747009277,4.5759264665791015,0.0,0.3026849329471588,-1.5970657507525843,-0.0,-0.0048487065359950066,0.7881596684455872,0.0,-0.008760440163314342,0.8158792853355408,0.0,-0.007768462412059307
531.0,699.0,2.6818,0.2309,8.9228,-0.0374,0.0276,-0.1232,-1.5086816039732476,0.0,1.8871593475341797,-1.8683979511260986,-0.0,2.146744728088379,4.575922651881836,0.0,0.29389575123786926,-1.5970776716815394,-0.0,0.004865127615630627,0.7880874276161194,0.0,-0.0056303758174180984,0.8159478902816772,0.0,0.02870921790599823
531.0,699.0,2.6818,0.2309,8.9228,-0.0374,0.0276,-0.1232,-1.508641743367054,0.0,1.8752609491348267,-1.8684786558151245,-0.0,2.1221885681152344,4.575957937831543,0.0,0.29275116324424744,-1.5970500151263636,-0.0,-0.008063144981861115,0.788144052028656,0.0,-0.0025395387783646584,0.8158833980560303,0.0,-0.04276900365948677
531.0,699.0,2.6818,0.2309,8.9228,-0.0374,0.0276,-0.1232,-1.5086776365390797,0.0,1.8725674152374268,-1.8684382438659668,-0.0,2.167269468307495,4.57595078527417,0.0,0.3010556101799011,-1.5970819632159632,-0.0,-0.014193996787071228,0.788115382194519,0.0,0.0018027639016509056,0.8159196376800537,0.0,-0.014232674613595009
531.0,699.0,2.6818,0.2309,8.9228,-0.0374,0.0276,-0.1232,-1.5086855676821251,0.0,1.8788731098175049,-1.868385672569275,-0.0,2.1431143283843994,4.575966044063232,0.0,0.3091058135032654,-1.5970538298236292,-0.0,-0.004787132143974304,0.788111686706543,0.0,0.0016173082403838634,0.8158997893333435,0.0,-0.0007223598659038544
531.0,699.0,2.6818,0.2309,8.9228,-0.0374,0.0276,-0.1232,-1.5086855676821251,0.0,1.9255139827728271,-1.8684786558151245,-0.0,2.1645846366882324,4.575966044063232,0.0,0.27980318665504456,-1.5971539656268519,-0.0,-0.016421526670455933,0.7881637215614319,0.0,-0.013877547346055508,0.8159237504005432,0.0,0.01307864673435688
531.0,699.0,2.6818,0.2309,8.9228,-0.0374,0.0276,-0.1232,-1.508697648798563,0.0,1.8649662733078003,-1.8684579133987427,-0.0,2.188624382019043,4.575962229365967,0.0,0.2974887490272522,-1.5970500151263636,-0.0,-0.00411188043653965,0.7881157398223877,0.0,-0.003383555682376027,0.8158875107765198,0.0,-0.0030371928587555885
531.0,699.0,2.6818,0.2309,8.9228,-0.0374,0.0276,-0.1232,-1.5087014597705384,0.0,1.8741350173950195,-1.8684465885162354,-0.0,2.135470390319824,4.575914545650146,0.0,0.30284354090690613,-1.597046200429098,-0.0,-0.004586882423609495,0.7881640791893005,0.0,-0.0023223930038511753,0.815915584564209,0.0,-0.016364313662052155
531.0,699.0,2.6818,0.2309,8.9228,-0.0374,0.0276,-0.1232,-1.508669690494873,0.0,1.8907915353775024,-1.8684786558151245,-0.0,2.151554584503174,4.575962229365967,0.0,0.285452276468277,-1.5970619360553187,-0.0,-0.014102047309279442,0.788111686706543,0.0,-0.003392200917005539,0.8158875107765198,0.0,-0.004906118847429752
531.0,699.0,2.6818,0.2309,8.9228,-0.0374,0.0276,-0.1232,-1.5086496707848092,0.0,1.8774375915527344,-1.8685022592544556,-0.0,2.1640625,4.575906916255615,0.0,0.28116339445114136,-1.5970938841449183,-0.0,-0.017219411209225655,0.7881439924240112,0.0,-0.012507591396570206,0.8159237504005432,0.0,-0.0649184063076973
531.0,699.0,2.6818,0.2309,8.9228,-0.0374,0.0276,-0.1232,-1.5086855304292222,0.0,1.8921711444854736,-1.8684422969818115,-0.0,2.115514039993286,4.575954123134277,0.0,0.29949384927749634,-1.597058121358053,-0.0,-0.008971134200692177,0.7881641387939453,0.0,0.0011146310716867447,0.8159036636352539,0.0,0.03384425491094589
531.0,699.0,2.6818,0.2309,8.9228,-0.0374,0.0276,-0.1232,-1.5086855639568348,0.0,1.8743669986724854,-1.8684661388397217,-0.0,2.1413958072662354,4.575882597560547,0.0,0.2905593812465668,-1.5970657507525843,-0.0,-0.0035455594770610332,0.7881317734718323,0.0,-0.0021163111086934805,0.8159078359603882,0.0,-0.02385297790169716
531.0,699.0,2.6818,0.2309,8.9228,-0.0374,0.0276,-0.1232,-1.50870160505686,0.0,1.8961427211761475,-1.868453860282898,-0.0,2.1516940593719482,4.575935049647949,0.0,0.2940866947174072,-1.5970738569842737,-0.0,-0.005488659720867872,0.7881439924240112,0.0,-0.0027555704582482576,0.815883457660675,0.0,-0.04559920355677605
531.0,699.0,2.6818,0.2309,8.9228,-0.0374,0.0276,-0.1232,-1.5086895276657124,0.0,1.8977546691894531,-1.86845064163208,-0.0,2.091111183166504,4.575990839595459,0.0,0.304573655128479,-1.5970419088946741,-0.0,-0.0010349771473556757,0.7881722450256348,0.0,-0.0006232488667592406,0.8158996105194092,0.0,-0.009861567988991737
531.0,699.0,2.6818,0.2309,8.9228,-0.0374,0.0276,-0.1232,-1.5086536456695576,0.0,1.8416802883148193,-1.8684744834899902,-0.0,2.1783201694488525,4.575906916255615,0.0,0.29658007621765137,-1.597058121358053,-0.0,-0.023921899497509003,0.7880957126617432,0.0,0.0024229942355304956,0.8158954381942749,0.0,0.0026638894341886044
531.0,699.0,2.6818,0.2309,8.9228,-0.0374,0.0276,-0.1232,-1.508637798284628,0.0,1.8644721508026123,-1.868442416191101,-0.0,2.143056869506836,4.575902624721191,0.0,0.2942740023136139,-1.5970857779132288,-0.0,0.00014563434524461627,0.7880792617797852,0.0,-0.0030102364253252745,0.8159196376800537,0.0,0.011645607650279999
531.0,699.0,2.6818,0.2309,8.9228,-0.0374,0.0276,-0.1232,-1.5086736877313633,0.0,1.8312941789627075,-1.8684701919555664,-0.0,2.1647331714630127,4.575954123134277,0.0,0.29710206389427185,-1.5970657507525843,-0.0,0.00037626433186233044,0.7881357669830322,0.0,-0.015689639374613762,0.8159036636352539,0.0,-0.03032149374485016
467.0,630.0,2.5352,0.186,9.003,-0.038,0.0339,-0.119,-1.5086895127645512,0.0,1.8572520017623901,-1.8684909343719482,-0.0,2.1349971294403076,4.575938864345215,0.0,0.298391193151474,-1.597046200429098,-0.0,-0.0035615412052720785,0.7881357669830322,0.0,-0.0030580544844269753,0.8159360289573669,0.0,-0.014444414526224136
467.0,630.0,2.5352,0.186,9.003,-0.038,0.0339,-0.119,-1.5086536531201382,0.0,1.8684937953948975,-1.868486762046814,-0.0,2.144577980041504,4.575962229365967,0.0,0.30486947298049927,-1.5970500151263636,-0.0,-0.006217228248715401,0.7881435751914978,0.0,0.0017901529790833592,0.8159359693527222,0.0,0.02500586397945881
467.0,630.0,2.5352,0.186,9.003,-0.038,0.0339,-0.119,-1.5086536531201382,0.0,1.9118179082870483,-1.8684217929840088,-0.0,2.1714956760406494,4.57597462713208,0.0,0.2928718328475952,-1.5970776716815394,-0.0,-0.0024380392860621214,0.7881197929382324,0.0,-0.004849661141633987,0.8159036636352539,0.0,0.0030883466824889183
467.0,630.0,2.5352,0.186,9.003,-0.038,0.0339,-0.119,-1.5086217646351834,0.0,1.86253023147583,-1.8684908151626587,-0.0,2.154045581817627,4.575954123134277,0.0,0.29756876826286316,-1.597046200429098,-0.0,-0.00400529894977808,0.788148045539856,0.0,-0.008963340893387794,0.8159037232398987,0.0,-0.03763072192668915
467.0,630.0,2.5352,0.186,9.003,-0.038,0.0339,-0.119,-1.508665644829609,0.0,1.8412768840789795,-1.8684422969818115,-0.0,2.160867691040039,4.575906916255615,0.0,0.2993195354938507,-1.5970538298236292,-0.0,-0.012199517339468002,0.7881076335906982,0.0,-0.0004678061231970787,0.8158996105194092,0.0,-0.03297550976276398
467.0,630.0,2.5352,0.186,9.003,-0.038,0.0339,-0.119,-1.508685552780964,0.0,1.8962078094482422,-1.8684868812561035,-0.0,2.1236371994018555,4.575918360347412,0.0,0.29349082708358765,-1.5970419088946741,-0.0,0.001968981232494116,0.7880834341049194,0.0,-0.004320476669818163,0.8159118890762329,0.0,0.029429569840431213
467.0,630.0,2.5352,0.186,9.003,-0.038,0.0339,-0.119,-1.508697522138693,0.0,1.9227726459503174,-1.8684093952178955,-0.0,2.214174509048462,4.575922651881836,0.0,0.28840363025665283,-1.5970819632159632,-0.0,0.0009838782716542482,0.7881194353103638,0.0,-0.01460965909063816,0.8158833980560303,0.0,-0.009475071914494038
467.0,630.0,2.5352,0.186,9.003,-0.038,0.0339,-0.119,-1.5087056022933503,0.0,1.8704403638839722,-1.868434190750122,-0.0,2.144514560699463,4.575894041652344,0.0,0.290094256401062,-1.5970857779132288,-0.0,-0.010703531093895435,0.788084089756012,0.0,-0.0014451344031840563,0.8159319162368774,0.0,-0.0059252954088151455
467.0,630.0,2.5352,0.186,9.003,-0.038,0.0339,-0.119,-1.5086736504784604,0.0,1.9139235019683838,-1.8684465885162354,1.0546257271926152e-06,2.1363611221313477,4.575910730952881,0.0,0.28400707244873047,-1.597058121358053,-0.0,-0.02524484694004059,0.788084089756012,0.0,0.019282300025224686,0.8159113526344299,0.0,-0.0106433667242527
467.0,630.0,2.5352,0.186,9.003,-0.038,0.0339,-0.119,-1.5086895574680348,0.0,1.8661245107650757,-1.8684383630752563,2.546797408381485e-12,2.183986186981201,4.575946970576904,0.0,0.30457064509391785,-1.5970500151263636,-0.0,-0.00020682578906416893,0.7881154417991638,0.0,0.0036015575751662254,0.815951943397522,0.0,-0.015589592978358269
467.0,630.0,2.5352,0.186,9.003,-0.038,0.0339,-0.119,-1.5086936515620728,0.0,1.8848859071731567,-1.8684704303741455,4.584144957518234e-16,2.1359028816223145,4.5758983331867675,0.0,0.2915669083595276,-1.5970500151263636,-0.0,0.003401861758902669,0.7880956530570984,0.0,-0.006982076913118362,0.815879225730896,0.0,0.003050258383154869
467.0,630.0,2.5352,0.186,9.003,-0.038,0.0339,-0.119,-1.5086776253632088,0.0,1.8837335109710693,-1.8684827089309692,1.1070171668339416e-21,2.1545321941375732,4.575954123134277,0.0,0.2885684072971344,-1.5970538298236292,-0.0,-0.0017828884301707149,0.788123607635498,0.0,-0.0028429997619241476,0.8159031867980957,0.0,-0.03323303163051605
467.0,630.0,2.5352,0.186,9.003,-0.038,0.0339,-0.119,-1.5086776439896603,0.0,1.851195216178894,-1.8684301376342773,1.9925915258472895e-25,2.163280487060547,4.575970335597656,0.0,0.3075913190841675,-1.597058121358053,-0.0,-0.01068102940917015,0.7881399393081665,0.0,0.011043106205761433,0.815915584564209,0.0,-0.003984197974205017
467.0,630.0,2.5352,0.186,9.003,-0.038,0.0339,-0.119,-1.5087056209198018,0.0,1.8572077751159668,-1.8684786558151245,4.811873899949785e-31,2.1218111515045166,4.575906439418457,0.0,0.28198477625846863,-1.5970619360553187,-0.0,-0.004209777340292931,0.7881399393081665,0.0,-0.004981459118425846,0.8159196376800537,0.0,-0.003249682020395994
467.0,630.0,2.5352,0.186,9.003,-0.038,0.0339,-0.119,-1.5086816114238282,0.0,1.8776708841323853,-1.868485927581787,8.661203662948742e-35,2.15724515914917,4.575902147884033,0.0,0.30216461420059204,-1.5970819632159632,-0.0,-0.007877340540289879,0.7880595922470093,0.0,0.013367632403969765,0.8159237504005432,0.0,-0.00874999724328518
467.0,630.0,2.5352,0.186,9.003,-0.038,0.0339,-0.119,-1.5086776626161118,0.0,1.8694192171096802,-1.8684217929840088,2.091578087851222e-40,2.143645763397217,4.575938864345215,0.0,0.2882344126701355,-1.5970895926104944,-0.0,-0.009055521339178085,0.788111686706543,0.0,-0.001391799421980977,0.8159196972846985,0.0,-0.002554267644882202
467.0,630.0,2.5352,0.186,9.003,-0.038,0.0339,-0.119,-1.508681596522667,0.0,1.8743007183074951,-1.8684908151626587,0.0,2.184451103210449,4.575962229365967,0.0,0.2796049416065216,-1.5970819632159632,-0.0,-0.014765031635761261,0.7880637049674988,0.0,-0.002623273991048336,0.8158953785896301,0.0,-0.022762849926948547
467.0,630.0,2.5352,0.186,9.003,-0.038,0.0339,-0.119,-1.5087294553271313,0.0,1.8898158073425293,-1.8684464693069458,-0.0,2.1778712272644043,4.5759498315998535,0.0,0.307974249124527,-1.597041432057516,-0.0,-0.007611540146172047,0.7881317734718323,0.0,-0.007782772183418274,0.815956175327301,0.0,0.054270680993795395
516.0,807.0,2.8534,0.5264,8.9545,-0.0137,-0.0263,-0.1706,-1.508669690494873,0.0,1.872775673866272,-1.8684704303741455,-0.0,2.1809797286987305,4.57594267904248,0.0,0.2904413342475891,-1.5970619360553187,-0.0,-0.010717848315834999,0.7881037592887878,0.0,-0.0016158809885382652,0.8159441947937012,0.0,-0.02768518030643463
516.0,807.0,2.8534,0.5264,8.9545,-0.0137,-0.0263,-0.1706,-1.50870160505686,0.0,1.8535693883895874,-1.8684178590774536,-0.0,2.162051200866699,4.575962229365967,0.0,0.2994954288005829,-1.5970776716815394,-0.0,-0.007994364947080612,0.7880997657775879,0.0,-0.004217729903757572,0.8159437775611877,0.0,0.006233769468963146
516.0,807.0,2.8534,0.5264,8.9545,-0.0137,-0.0263,-0.1706,-1.5086776104620476,0.0,1.8435662984848022,-1.8684661388397217,-0.0,2.1745448112487793,4.575935049647949,0.0,0.29344022274017334,-1.5970619360553187,-0.0,-0.001599855488166213,0.7880997657775879,0.0,-0.006820318289101124,0.8159114718437195,0.0,0.0004423211212269962
516.0,807.0,2.8534,0.5264,8.9545,-0.0137,-0.0263,-0.1706,-1.5087095287493248,0.0,1.9283838272094727,-1.8684579133987427,-0.0,2.1910455226898193,4.575894041652344,0.0,0.2927057445049286,-1.597109619771139,-0.0,-0.0029206383042037487,0.7880841493606567,0.0,-0.011120650917291641,0.8158875107765198,0.0,0.056026358157396317
516.0,807.0,2.8534,0.5264,8.9545,-0.0137,-0.0263,-0.1706,-1.5086537574282666,0.0,1.886260986328125,-1.8684300184249878,-0.0,2.151740550994873,4.575962229365967,0.0,0.29640093445777893,-1.5970776716815394,-0.0,-0.011136641725897789,0.7881280779838562,0.0,-0.014462072402238846,0.8159077763557434,0.0,-0.030112888664007187
516.0,807.0,2.8534,0.5264,8.9545,-0.0137,-0.0263,-0.1706,-1.5086816188744088,0.0,1.8871393203735352,-1.86845064163208,-0.0,2.1415576934814453,4.575962229365967,0.0,0.2876707911491394,-1.5970500151263636,-0.0,-0.007604861166328192,0.7880917191505432,0.0,-0.0022399048320949078,0.8158995509147644,0.0,-0.07337157428264618
516.0,807.0,2.8534,0.5264,8.9545,-0.0137,-0.0263,-0.1706,-1.508649719213583,0.0,1.8429462909698486,-1.8684546947479248,-0.0,2.135171890258789,4.575934572810791,0.0,0.2944276034832001,-1.5970776716815394,-0.0,-0.004574027843773365,0.7881038188934326,0.0,-0.014693958684802055,0.8159640431404114,0.0,0.01718553900718689
516.0,807.0,2.8534,0.5264,8.9545,-0.0137,-0.0263,-0.1706,-1.508705550139286,0.0,1.8406518697738647,-1.8683937788009644,-0.0,2.1232259273529053,4.575962229365967,0.0,0.2889370620250702,-1.5970500151263636,-0.0,-0.003232305170968175,0.7880957126617432,0.0,-0.004005101043730974,0.815915584564209,0.0,0.02104109525680542
516.0,807.0,2.8534,0.5264,8.9545,-0.0137,-0.0263,-0.1706,-1.5086776216379185,0.0,1.8943498134613037,-1.8684464693069458,-0.0,2.16766095161438,4.575914545650146,0.0,0.29896748065948486,-1.597058121358053,-0.0,-0.008691953495144844,0.7881481051445007,0.0,0.0035900110378861427,0.815915584564209,0.0,0.02074023336172104
516.0,807.0,2.8534,0.5264,8.9545,-0.0137,-0.0263,-0.1706,-1.5086816114238282,0.0,1.899876356124878,-1.8684630393981934,-0.0,2.1580309867858887,4.57591883718457,0.0,0.2925569415092468,-1.5970619360553187,-0.0,-0.010542142204940319,0.7880841493606567,0.0,0.005576477851718664,0.8159114122390747,0.0,-0.030236918479204178
516.0,807.0,2.8534,0.5264,8.9545,-0.0137,-0.0263,-0.1706,-1.5086657342365761,0.0,1.8888466358184814,-1.8684217929840088,-0.0,2.1543002128601074,4.575914545650146,0.0,0.2871655225753784,-1.5970738569842737,-0.0,-0.00540953641757369,0.788148045539856,0.0,-0.01519788708537817,0.8159319162368774,0.0,-0.004461223725229502
516.0,807.0,2.8534,0.5264,8.9545,-0.0137,-0.0263,-0.1706,-1.5086536940983315,0.0,1.8698158264160156,-1.8684827089309692,-0.0,2.1527955532073975,4.575922651881836,0.0,0.2914065420627594,-1.5970895926104944,-0.0,-0.0035710278898477554,0.7880957126617432,0.0,-0.00893466081470251,0.8159640431404114,0.0,-0.013484418392181396
516.0,807.0,2.8534,0.5264,8.9545,-0.0137,-0.0263,-0.1706,-1.5087295745364209,0.0,1.8676797151565552,-1.8684827089309692,-1.5759356756461784e-05,2.16737699508667,4.575962229365967,0.0,0.2967718541622162,-1.597046200429098,-0.0,-0.008077186532318592,0.7880922555923462,0.0,-0.009772421792149544,0.8159277439117432,0.0,-0.046713780611753464
516.0,807.0,2.8534,0.5264,8.9545,-0.0137,-0.0263,-0.1706,-1.508673684006073,0.0,1.8386380672454834,-1.868462085723877,-1.5234664715535473e-05,2.159409284591675,4.575906916255615,0.0,0.28759121894836426,-1.5970895926104944,-0.0,-0.009500650689005852,0.7881399393081665,0.0,-0.0005482006818056107,0.8159319162368774,0.0,-0.018477842211723328
516.0,807.0,2.8534,0.5264,8.9545,-0.0137,-0.0263,-0.1706,-1.508649719213583,0.0,1.869640827178955,-1.868442416191101,-1.4498413293040358e-05,2.137037515640259,4.575946970576904,0.0,0.3013000786304474,-1.5970776716815394,-0.0,0.0023786076344549656,0.7881317138671875,0.0,-0.007221335079520941,0.8159437775611877,0.0,-0.029617613181471825
516.0,807.0,2.8534,0.5264,8.9545,-0.0137,-0.0263,-0.1706,-1.5086855676821251,0.0,1.879620909690857,-1.868453860282898,-1.3830053831043188e-05,2.1559228897094727,4.575922651881836,0.0,0.29806041717529297,-1.597058121358053,-0.0,-0.005526007618755102,0.7880957126617432,0.0,-0.0003899696748703718,0.8159437775611877,7.096640911186114e-05,0.011619128286838531
516.0,807.0,2.8534,0.5264,8.9545,-0.0137,-0.0263,-0.1706,-1.5086696569672604,0.0,1.9028525352478027,-1.868462085723877,-1.3417685295280535e-05,2.1588423252105713,4.575923128718994,0.0,0.29161977767944336,-1.5970738569842737,-0.0,-0.0006856461986899376,0.7881439924240112,0.0,-0.00626280577853322,0.8159681558609009,6.953944830456749e-05,-0.019688725471496582
496.0,692.0,2.5992,0.2255,9.0335,-0.0234,0.0292,-0.1506,-1.5086457294276734,0.0,1.9215044975280762,-1.8684868812561035,-1.2843272997997701e-05,2.1632192134857178,4.575966044063232,0.0,0.2946951985359192,-1.5970738569842737,-0.0,-0.013743213377892971,0.788151741027832,0.0,-0.008259344846010208,0.8159154653549194,7.974953769007698e-05,0.017096903175115585
496.0,692.0,2.5992,0.2255,9.0335,-0.0234,0.0292,-0.1506,-1.5086576503566285,0.0,1.900315284729004,-1.8684422969818115,-1.2486900232033804e-05,2.1258533000946045,4.575894041652344,0.0,0.2968846559524536,-1.5970938841449183,-0.0,-0.0013644527643918991,0.7881112694740295,0.0,-0.004273031372576952,0.8159396648406982,9.887105989037082e-05,0.0034224586561322212
496.0,692.0,2.5992,0.2255,9.0335,-0.0234,0.0292,-0.1506,-1.5086617593518277,0.0,1.886756181716919,-1.8684382438659668,-1.1987935067736544e-05,2.190304756164551,4.575962229365967,0.0,0.2928558886051178,-1.5970895926104944,-0.0,-0.014591127634048462,0.7881439924240112,0.0,-0.008282316848635674,0.8159435391426086,0.00048110264469869435,-0.02381977066397667
496.0,692.0,2.5992,0.2255,9.0335,-0.0234,0.0292,-0.1506,-1.5086816114238282,0.0,1.909125566482544,-1.8684217929840088,-1.1676865142362658e-05,2.1710686683654785,4.575966044063232,0.0,0.29075926542282104,-1.5970819632159632,-0.0,0.003299911506474018,0.7880993485450745,0.0,-0.005364575888961554,0.8159759044647217,0.00048418535152450204,-0.040098078548908234
496.0,692.0,2.5992,0.2255,9.0335,-0.0234,0.0292,-0.1506,-1.508713537161686,0.0,1.8877640962600708,-1.8684340715408325,-7.083930109175185e-10,2.1533308029174805,4.57597462713208,0.0,0.29607653617858887,-1.5970938841449183,-0.0,-0.0134887108579278,0.7881600260734558,0.0,-0.00026937504298985004,0.8160163164138794,0.000936450029257685,0.01247100904583931
496.0,692.0,2.5992,0.2255,9.0335,-0.0234,0.0292,-0.1506,-1.5086616475931187,0.0,1.8675642013549805,-1.8684546947479248,-1.7106861632413877e-15,2.13196063041687,4.575966044063232,0.0,0.2870430052280426,-1.5970857779132288,-0.0,-0.002461646916344762,0.7881197333335876,0.0,-0.0017567932372912765,0.8159877061843872,0.0013012986164540052,0.04860515519976616
496.0,692.0,2.5992,0.2255,9.0335,-0.0234,0.0292,-0.1506,-1.508681596522667,0.0,1.8893539905548096,-1.8684382438659668,-3.0791751773377e-19,2.1580348014831543,4.575918360347412,0.0,0.28994226455688477,-1.597109619771139,-0.0,0.00013660220429301262,0.7881317734718323,0.0,-0.0024032476358115673,0.8159959316253662,0.0014737591845914721,-0.029003717005252838
496.0,692.0,2.5992,0.2255,9.0335,-0.0234,0.0292,-0.1506,-1.5086855192533513,0.0,1.8848612308502197,-1.8684899806976318,-7.435845786924979e-25,2.155313491821289,4.57597462713208,0.0,0.28844091296195984,-1.5970657507525843,-0.0,-0.0071031032130122185,0.7881157398223877,0.0,-0.0039010473992675543,0.8160282373428345,0.0011114925146102905,-0.0035701943561434746
496.0,692.0,2.5992,0.2255,9.0335,-0.0234,0.0292,-0.1506,-1.508621746008732,0.0,1.905348300933838,-1.8684464693069458,-1.3384259778168817e-28,2.1610238552093506,4.575957937831543,0.0,0.3059382438659668,-1.597070042287008,-0.0,-0.01979115605354309,0.7880554795265198,0.0,-0.005927673541009426,0.8159512877464294,0.0008937068632803857,0.008336453698575497
496.0,692.0,2.5992,0.2255,9.0335,-0.0234,0.0292,-0.1506,-1.5086617370000859,0.0,1.8555335998535156,-1.8683536052703857,-3.2321413333196253e-34,2.126927375793457,4.5759264665791015,0.0,0.3035503327846527,-1.5970819632159632,-0.0,-0.012548408471047878,0.7881357669830322,0.0,0.0002499695401638746,0.8159794807434082,0.0006628587725572288,6.738468073308468e-06
496.0,692.0,2.5992,0.2255,9.0335,-0.0234,0.0292,-0.1506,-1.5086855565062542,0.0,1.9007744789123535,-1.8684144020080566,7.298889249796048e-05,2.142183303833008,4.5759498315998535,0.0,0.3060813844203949,-1.5970895926104944,-0.0,-0.0074713025242090225,0.7881760001182556,0.0,-0.003009278327226639,0.816024124622345,0.0005236704600974917,-0.05142685025930405
496.0,692.0,2.5992,0.2255,9.0335,-0.0234,0.0292,-0.1506,-1.508649868225195,0.0,1.8697556257247925,-1.8684061765670776,0.0009268870344385505,2.1020665168762207,4.575906916255615,0.0,0.29442644119262695,-1.5970657507525843,-0.0,-0.004792158491909504,0.7881317734718323,0.0,-0.009252809919416904,0.8160038590431213,0.0002670919639058411,0.020088644698262215
496.0,692.0,2.5992,0.2255,9.0335,-0.0234,0.0292,-0.1506,-1.508681596522667,0.0,1.8993432521820068,-1.8684300184249878,0.001080412999726832,2.146702766418457,4.575954123134277,0.0,0.282934308052063,-1.5970895926104944,-0.0,-0.022954685613512993,0.7881435751914978,0.0,-0.00261088740080595,0.8159517049789429,3.3816493782978796e-07,0.00842268019914627
496.0,692.0,2.5992,0.2255,9.0335,-0.0234,0.0292,-0.1506,-1.50873343393717,0.0,1.8867188692092896,-1.8684300184249878,0.0010182723635807633,2.1804327964782715,4.575910730952881,0.0,0.29161444306373596,-1.5970776716815394,-0.0,-0.010132371447980404,0.7881881594657898,0.0,0.0104866037145257,0.8160041570663452,6.08684908032231e-11,0.02512829378247261
496.0,692.0,2.5992,0.2255,9.0335,-0.0234,0.0292,-0.1506,-1.5087214906564732,0.0,1.8280314207077026,-1.868422508239746,0.0006962806801311672,2.1406338214874268,4.575938864345215,1.7508088490103546e-07,0.28343501687049866,-1.597046200429098,-0.0,-0.003741347696632147,0.7880997657775879,0.0,-0.008083296939730644,0.8159838318824768,1.4699025954846903e-16,-0.030654268339276314
496.0,692.0,2.5992,0.2255,9.0335,-0.0234,0.0292,-0.1506,-1.5087015827051182,0.0,1.868025302886963,-1.86836576461792,0.0006378833204507828,2.1401214599609375,4.575886889094971,7.463972218069159e-10,0.295485258102417,-1.5970419088946741,-0.0,-0.011899017728865147,0.788123607635498,0.0,-0.002057743025943637,0.8159435391426086,2.6457725706090913e-20,-0.019697891548275948
496.0,692.0,2.5992,0.2255,9.0335,-0.0234,0.0292,-0.1506,-1.5087216098657628,0.0,1.890268087387085,-1.8684020042419434,0.0003957690205425024,2.154909610748291,4.575923128718994,2.077623690492983e-13,0.3008136749267578,-1.597058121358053,-0.0,-0.016272742301225662,0.7881715297698975,0.0,-0.01005664374679327,0.8159558176994324,6.389229757822692e-26,0.0586942695081234
496.0,692.0,2.5992,0.2255,9.0335,-0.0234,0.0292,-0.1506,-1.5087656539729615,-0.002904619323089719,1.9039273262023926,-1.8684382438659668,0.00031105088419280946,2.1528103351593018,4.575923128718994,-0.0002581123844720423,0.2997572422027588,-1.5970819632159632,-0.0,-0.008676387369632721,0.7881399393081665,0.0,0.001124623348005116,0.815963625907898,1.5429239097833886e-31,0.008577335625886917
520.0,726.0,2.6004,0.746,8.8588,-0.013,-0.0055,-0.1547,-1.5087574173561116,-0.004704086575657129,1.9214552640914917,-1.8684217929840088,0.0002732665743678808,2.115903854370117,4.575882597560547,-0.0005813050665892661,0.28856006264686584,-1.5970500151263636,-0.0,-0.010538141243159771,0.7881157994270325,0.0,-0.008438073098659515,0.8160038590431213,2.7772084317649065e-35,-0.07102175056934357
520.0,726.0,2.6004,0.746,8.8588,-0.013,-0.0055,-0.1547,-1.508862280552723,-0.006552067585289478,1.8593840599060059,-1.8684258460998535,0.00023115061048883945,2.121006727218628,4.575818701381348,-0.000692209112457931,0.2878628969192505,-1.5970619360553187,-0.0,-0.008296618238091469,0.7881796360015869,0.0,-0.006621037609875202,0.8159835934638977,6.706614450258575e-41,-0.01767728105187416
520.0,726.0,2.6004,0.746,8.8588,-0.013,-0.0055,-0.1547,-1.5088578213802357,-0.007998581044375896,1.8743479251861572,-1.8684258460998535,0.00020961518748663366,2.157060146331787,4.575858755702637,-0.0006331505137495697,0.2981245517730713,-1.5970295111285608,-0.0,0.0009091498795896769,0.7881513833999634,0.0,-0.007791302166879177,0.8159394264221191,0.0001361659960821271,-0.026641402393579483
520.0,726.0,2.6004,0.746,8.8588,-0.013,-0.0055,-0.1547,-1.5088975068977852,-0.008140520192682743,1.8624091148376465,-1.868422508239746,0.0001839127653511241,2.172360897064209,4.575890703792236,-0.00044533744221553206,0.3001188337802887,-1.597046200429098,-0.0,-0.00400715135037899,0.7881596088409424,0.0,0.0031845993362367153,0.815955400466919,0.00016418546147178859,0.025883043184876442
520.0,726.0,2.6004,0.746,8.8588,-0.013,-0.0055,-0.1547,-1.50892926872287,-0.008906258270144463,1.8730549812316895,-1.8684102296829224,0.000163825141498819,2.1633481979370117,4.575922651881836,-0.0003433006932027638,0.30773043632507324,-1.5970657507525843,-0.0,-0.006148764863610268,0.7881919145584106,0.0,-0.009836217388510704,0.8159595131874084,0.00014442461542785168,0.0051258946768939495
520.0,726.0,2.6004,0.746,8.8588,-0.013,-0.0055,-0.1547,-1.509005383854248,-0.008640051819384098,1.8784842491149902,-1.8684144020080566,0.0001527060812804848,2.1438136100769043,4.575866861934326,-0.0002978281700052321,0.30028897523880005,-1.597018067036764,-0.0,-0.0012219211785122752,0.7881476879119873,0.0,-0.0002917738165706396,0.8159715533256531,0.00013369705993682146,-0.019268766045570374
520.0,726.0,2.6004,0.746,8.8588,-0.013,-0.0055,-0.1547,-1.5090533059886475,-0.01013446319848299,1.889902114868164,-1.8683615922927856,0.00013859616592526436,2.125153064727783,4.575911207790039,-0.00029640132561326027,0.2823184132575989,-1.5970738569842737,-0.0,-0.017088402062654495,0.7881596088409424,0.0,0.0014581328723579645,0.815931499004364,0.00012029396748403087,0.008953524753451347
520.0,726.0,2.6004,0.746,8.8588,-0.013,-0.0055,-0.1547,-1.50908516467128,-0.01162062305957079,1.9124996662139893,-1.8684144020080566,0.00013055412273388356,2.1283111572265625,4.575858755702637,-0.00026849500136449933,0.296239972114563,-1.5970295111285608,-0.0,-0.01637575402855873,0.7881476879119873,0.0,-0.006425429601222277,0.8160000443458557,0.00011275821452727541,-0.02134966291487217
520.0,726.0,2.6004,0.746,8.8588,-0.013,-0.0055,-0.1547,-1.5091811542264004,-0.01375106442719698,1.8990859985351562,-1.868478536605835,0.000120100739877671,2.1452059745788574,4.575907393092773,-0.00023364122898783535,0.29460641741752625,-1.5970819632159632,-0.0,-0.009368360973894596,0.7881555557250977,0.0,-0.0013406835496425629,0.815963625907898,0.00010372018005000427,0.020329253748059273
520.0,726.0,2.6004,0.746,8.8588,-0.013,-0.0055,-0.1547,-1.5093095202795048,-0.01662181131541729,1.8552383184432983,-1.868458867073059,0.00011119755799882114,2.1650311946868896,4.575882597560547,-0.00017248712538275868,0.30294013023376465,-1.597046200429098,-0.0,0.006677117198705673,0.7881633043289185,0.0,0.014799089170992374,0.8159877061843872,4.425866063684225e-05,0.04310150071978569
520.0,726.0,2.6004,0.746,8.8588,-0.013,-0.0055,-0.1547,-1.509341077213623,-0.01749865896999836,1.8540585041046143,-1.8684102296829224,0.00010596084757708013,2.1309590339660645,4.575846357936523,-0.00016006715304683894,0.2963276505470276,-1.5970419088946741,-0.0,-0.018091030418872833,0.7881472706794739,0.0,0.00970449112355709,0.8159435391426086,2.3110917624080685e-08,0.05414378270506859
520.0,726.0,2.6004,0.746,8.8588,-0.013,-0.0055,-0.1547,-1.5094370667687436,-0.01948133297264576,1.8311545848846436,-1.8684546947479248,0.00011797010665759444,2.174211025238037,4.575878306026123,-0.00014463101979345083,0.30361685156822205,-1.597058121358053,-0.0,-0.014493079856038094,0.7881796956062317,0.0,0.01751689612865448,0.8159797787666321,5.5810150473506806e-14,-0.0559518076479435
520.0,726.0,2.6004,0.746,8.8588,-0.013,-0.0055,-0.1547,-1.5095328588834782,-0.01977642998099327,1.8306694030761719,-1.8684340715408325,0.00011375964822946116,2.12870717048645,4.575882597560547,-0.00011230754171265289,0.2921995520591736,-1.5970895926104944,-0.0,0.0022692654747515917,0.7881353497505188,0.0,0.02606259658932686,0.8159517049789429,1.0045630429062465e-17,0.02275032550096512
520.0,726.0,2.6004,0.746,8.8588,-0.013,-0.0055,-0.1547,-1.5096693348935624,-0.019363554194569588,1.888037919998169,-1.8684020042419434,0.00014057691441848874,2.145198106765747,4.575923128718994,-9.968504309654236e-05,0.28888481855392456,-1.597058121358053,-0.0,-0.0014334176667034626,0.7881677746772766,0.0,0.01843254268169403,0.8159476518630981,2.4259014269754915e-23,0.06051715835928917
520.0,726.0,2.6004,0.746,8.8588,-0.013,-0.0055,-0.1547,-1.5097169143012543,-0.019945921376347542,1.8365581035614014,-1.868397831916809,0.0001374323182972148,2.104644298553467,4.5758701997944335,-7.124974217731506e-05,0.2917351722717285,-1.5970657507525843,-0.0,-0.03263292834162712,0.7882320284843445,0.0,0.004687488544732332,0.8159273266792297,4.366536933020761e-27,-0.019355589523911476
520.0,726.0,2.6004,0.746,8.8588,-0.013,-0.0055,-0.1547,-1.5098647822490712,-0.021512271836400032,1.7843830585479736,-1.8683947324752808,8.874045306583866e-05,2.114382266998291,4.575923128718994,-6.567059608642012e-05,0.28068992495536804,-1.597046200429098,-0.0,-0.02374652773141861,0.7881956100463867,0.0,0.01557906810194254,0.8159920573234558,1.0544674361083418e-32,0.003488320391625166
520.0,726.0,2.6004,0.746,8.8588,-0.013,-0.0055,-0.1547,-1.5100170534900208,-0.022097798064351082,1.8193998336791992,-1.8684144020080566,8.378363418160006e-05,2.1056292057037354,4.575906439418457,-6.120442412793636e-05,0.28610798716545105,-1.5971339384662073,-0.0,-0.009615108370780945,0.7882479429244995,0.0,0.02352217398583889,0.8159195780754089,2.5464149065180855e-38,0.05917414650321007
514.0,691.0,2.7517,0.0873,8.8211,-0.0467,-0.0279,-0.1171,-1.5100724262050171,-0.022857490926980972,1.805324673652649,-1.8683782815933228,8.077586244326085e-05,2.1438589096069336,4.575894041652344,-5.854984192410484e-05,0.2778645157814026,-1.5970619360553187,-0.0,-0.024501044303178787,0.7882075309753418,0.0,0.01842084713280201,0.8159759044647217,4.5836472768064766e-42,0.08280469477176666
514.0,691.0,2.7517,0.0873,8.8211,-0.0467,-0.0279,-0.1171,-1.5102807593396683,-0.02406051568686962,1.8021912574768066,-1.8683576583862305,7.664829172426835e-05,2.133928060531616,4.575923128718994,-5.497338133864105e-05,0.2893332540988922,-1.5970538298236292,-0.0,-0.017115715891122818,0.788219690322876,0.0,0.04692338407039642,0.8159640431404114,0.0,0.042483050376176834
514.0,691.0,2.7517,0.0873,8.8211,-0.0467,-0.0279,-0.1171,-1.5103688103011628,-0.025020377710461617,1.8405016660690308,-1.8684464693069458,7.412333798129112e-05,2.1593990325927734,4.5758701997944335,-5.282237543724477e-05,0.28681349754333496,-1.597070042287008,-0.0,-0.02848660759627819,0.788215696811676,0.0,0.027683671563863754,0.8159717917442322,-0.00029250382794998586,0.07686465233564377
514.0,691.0,2.7517,0.0873,8.8211,-0.0467,-0.0279,-0.1171,-1.5104762066951771,-0.025775311514735222,1.7747738361358643,-1.8683700561523438,7.063297380227596e-05,2.1011595726013184,4.5759827333637695,-4.989399167243391e-05,0.28604641556739807,-1.5970738569842737,-0.0,-0.03226326406002045,0.7882075309753418,0.0,0.03884559124708176,0.815915584564209,-0.0003079928283113986,0.10764972120523453
514.0,691.0,2.7517,0.0873,8.8211,-0.0467,-0.0279,-0.1171,-1.5106560935131093,-0.025929845869541168,1.7776179313659668,-1.8684300184249878,6.745659629814327e-05,2.1375651359558105,4.575914545650146,-4.727323175757192e-05,0.26368165016174316,-1.597046200429098,-0.0,-0.024849217385053635,0.7881878614425659,0.0,0.033856987953186035,0.8159195780754089,-0.00030741788214072585,0.1297684758901596
514.0,691.0,2.7517,0.0873,8.8211,-0.0467,-0.0279,-0.1171,-1.5107639779201527,-0.025959033519029617,1.743091106414795,-1.8684546947479248,6.54930918244645e-05,2.1601459980010986,4.575890703792236,-4.567383075482212e-05,0.285524845123291,-1.5970776716815394,-0.0,-0.04316648468375206,0.7882516980171204,0.0,0.05014711618423462,0.8158875107765198,-0.00028010187088511884,0.12599186599254608
514.0,691.0,2.7517,0.0873,8.8211,-0.0467,-0.0279,-0.1171,-1.5109443266740819,-0.02644210308790207,1.8132834434509277,-1.8684669733047485,6.275323539739475e-05,2.1236367225646973,4.575890226955078,-4.346786590758711e-05,0.28089386224746704,-1.5970538298236292,-0.0,-0.03542602062225342,0.7882356643676758,0.0,0.051913850009441376,0.8158751726150513,-0.00028244106215424836,0.170242577791214
514.0,691.0,2.7517,0.0873,8.8211,-0.0467,-0.0279,-0.1171,-1.5110479493490239,-0.0268978551030159,1.7964484691619873,-1.8684382438659668,6.105050124460831e-05,2.105158805847168,4.575862093562744,-4.211192936054431e-05,0.2813112735748291,-1.597058121358053,-0.0,-0.03778635337948799,0.7881752252578735,0.0,0.039924561977386475,0.8159114718437195,-0.0002618935250211507,0.15678170323371887
514.0,691.0,2.7517,0.0873,8.8211,-0.0467,-0.0279,-0.1171,-1.511183713828661,-0.027919335290789604,1.760719895362854,-1.868422508239746,5.8662968513090163e-05,2.1014723777770996,4.575874491328857,-5.363172749639489e-05,0.2736758589744568,-1.5970819632159632,-0.0,-0.04066869616508484,0.7882033586502075,0.00010006383672589436,0.04204555228352547,0.8159196376800537,-0.000207802964723669,0.1647859811782837
514.0,691.0,2.7517,0.0873,8.8211,-0.0467,-0.0279,-0.1171,-1.511351903235056,-0.028119536116719246,1.793616771697998,-1.8683823347091675,5.717244857805781e-05,2.086364269256592,4.57591883718457,-5.2087256335653365e-05,0.2614591121673584,-1.597070042287008,-0.0,-0.047448404133319855,0.7881469130516052,0.00018622905190568417,0.049189962446689606,0.8159154653549194,-0.00019463049829937518,0.18090397119522095
514.0,691.0,2.7517,0.0873,8.8211,-0.0467,-0.0279,-0.1171,-1.5114792932621022,-0.031051605939865112,1.715956449508667,-1.8683741092681885,5.507331297849305e-05,2.1246087551116943,4.575935049647949,-3.7495035940082744e-05,0.2802394926548004,-1.5970895926104944,-0.0,-0.04343089461326599,0.7881993055343628,0.0001980597007786855,0.04673914611339569,0.8159319162368774,-4.2164047044934705e-05,0.22427864372730255
514.0,691.0,2.7517,0.0873,8.8211,-0.0467,-0.0279,-0.1171,-1.5117278111032029,-0.03233562782406807,1.7234387397766113,-1.868458867073059,5.3122912504477426e-05,2.099158763885498,4.57595078527417,-3.59450132236816e-05,0.2760937809944153,-1.5970657507525843,-0.0,-0.05083180218935013,0.7882595062255859,0.00020898085494991392,0.052101776003837585,0.8159359693527222,-2.9474980789423455e-10,0.24665164947509766
514.0,691.0,2.7517,0.0873,8.8211,-0.0467,-0.0279,-0.1171,-1.5117670756629487,-0.032930370420217514,1.702343225479126,-1.8683781623840332,6.226074765436351e-05,2.0797462463378906,4.5759264665791015,-3.5012744774576277e-05,0.26796212792396545,-1.5970738569842737,-0.0,-0.055375777184963226,0.7882398366928101,0.00021696570911444724,0.05913114547729492,0.815943717956543,-5.305391881566847e-14,0.2147403359413147
514.0,691.0,2.7517,0.0873,8.8211,-0.0467,-0.0279,-0.1171,-1.5120430041900654,-0.034656260162591934,1.6748484373092651,-1.8683865070343018,7.02111647115089e-05,2.1322460174560547,4.575914545650146,9.132531886280049e-06,0.27356213331222534,-1.5970619360553187,-0.0,-0.05389648303389549,0.7882598638534546,0.0003262744576204568,0.06520979106426239,0.8159154653549194,0.00042683989158831537,0.1957951784133911
514.0,691.0,2.7517,0.0873,8.8211,-0.0467,-0.0279,-0.1171,-1.5121748571148892,-0.03551750257611275,1.6701314449310303,-1.8683987855911255,9.739698725752532e-05,2.134765386581421,4.575934572810791,2.329158451175317e-05,0.2684961259365082,-1.5970895926104944,-0.0,-0.05232233554124832,0.7882356643676758,0.00030025371233932674,0.05255623534321785,0.815971851348877,0.0011291680857539177,0.2400268316268921
514.0,691.0,2.7517,0.0873,8.8211,-0.0467,-0.0279,-0.1171,-1.5123826016536732,-0.03796764463186264,1.7082030773162842,-1.8683781623840332,0.0011518258834257722,2.1363561153411865,4.575962229365967,2.2479835024569184e-05,0.26291245222091675,-1.5970938841449183,-0.0,-0.06521889567375183,0.7882595062255859,0.0003371142374817282,0.061221539974212646,0.8159471154212952,0.001990877091884613,0.21297046542167664
514.0,691.0,2.7517,0.0873,8.8211,-0.0467,-0.0279,-0.1171,-1.5125983853689213,-0.04116390272974968,1.6742885112762451,-1.868373990058899,0.0015294898767024279,2.0985355377197266,4.575922651881836,3.240873047616333e-05,0.27891525626182556,-1.5970895926104944,-0.0,-0.07681597769260406,0.7882835865020752,0.0003401488938834518,0.05269836261868477,0.8159918189048767,0.0022928323596715927,0.22018146514892578
514.0,691.0,2.7517,0.0873,8.8211,-0.0467,-0.0279,-0.1171,-1.5127541583827515,-0.04354146867990494,1.6875827312469482,-1.868329644203186,0.0018125721253454685,2.1207902431488037,4.575986548061035,3.17375706799794e-05,0.2587691843509674,-1.5970857779132288,-0.0,-0.0634796991944313,0.7882475852966309,0.0003132202255073935,0.07412084937095642,0.8160360455513,0.0026695355772972107,0.2931756377220154
545.0,8190.0,2.3563,0.2291,8.6189,-0.0263,-0.0211,-0.1242,-1.5130300757339974,-0.047793544828891754,1.6566431522369385,-1.8683626651763916,0.0025514785666018724,2.1223812103271484,4.575938864345215,3.0656883609481156e-05,0.2594960927963257,-1.597046200429098,-0.0,-0.05289464071393013,0.7882475852966309,0.00032876196200959384,0.05442493408918381,0.8160200119018555,0.002824434544891119,0.2591537833213806
545.0,8190.0,2.3563,0.2291,8.6189,-0.0263,-0.0211,-0.1242,-1.5132539805820961,-0.05111122131347656,1.6633988618850708,-1.8683098554611206,0.0025888667441904545,2.1268906593322754,4.575970812434814,2.99761686619604e-05,0.254574179649353,-1.5970619360553187,-0.0,-0.05298897624015808,0.7882554531097412,0.0003422250156290829,0.0796397477388382,0.8159835934638977,0.002564382506534457,0.26936668157577515
545.0,8190.0,2.3563,0.2291,8.6189,-0.0263,-0.0211,-0.1242,-1.5135817986777802,-0.057849906384944916,1.592976689338684,-1.8682819604873657,0.0025047834496945143,2.0920398235321045,4.575986548061035,3.247401991757215e-08,0.26336389780044556,-1.5970538298236292,-0.0,-0.0598478689789772,0.7882475852966309,0.0003787703171838075,0.058101482689380646,0.8160237073898315,0.0017708268715068698,0.2693425118923187
545.0,8190.0,2.3563,0.2291,8.6189,-0.0263,-0.0211,-0.1242,-1.5138049733689805,-0.06072423607110977,1.6519452333450317,-1.868346095085144,0.002389793749898672,2.102118730545044,4.575970812434814,1.3844184132416615e-10,0.2704256772994995,-1.597046200429098,-0.0,-0.06395156681537628,0.7883361577987671,0.0005142931477166712,0.07659193128347397,0.8160154819488525,0.0014417701167985797,0.2560155987739563
545.0,8190.0,2.3563,0.2291,8.6189,-0.0263,-0.0211,-0.1242,-1.514137015943863,-0.06568821519613266,1.6522953510284424,-1.868319034576416,0.002490776823833585,2.1052193641662598,4.575994654292725,3.8535794428520495e-14,0.24377158284187317,-1.5970938841449183,-0.0,-0.0581350103020668,0.7882516384124756,0.0010852798586711287,0.0751340389251709,0.8160117864608765,0.0009038763819262385,0.28579187393188477
545.0,8190.0,2.3563,0.2291,8.6189,-0.0263,-0.0211,-0.1242,-1.5145327535322686,-0.07162707298994064,1.61976957321167,-1.8682383298873901,0.002588698174804449,2.091632604598999,4.57599846898999,1.0726579571386531e-17,0.25281089544296265,-1.5970776716815394,-0.0,-0.07122953981161118,0.7883042097091675,0.005704789888113737,0.07625090330839157,0.8160237073898315,0.0007019208860583603,0.2414695769548416
545.0,8190.0,2.3563,0.2291,8.6189,-0.0263,-0.0211,-0.1242,-1.5148687784424801,-0.0754045769572258,1.6456425189971924,-1.8682341575622559,0.002757496666163206,2.1188933849334717,4.5760223108479,4.572909688960292e-20,0.2566816508769989,-1.597046200429098,-0.0,-0.05785883590579033,0.7883595824241638,0.019648049026727676,0.06347861886024475,0.8160237073898315,0.0006558101158589125,0.22495079040527344
545.0,8190.0,2.3563,0.2291,8.6189,-0.0263,-0.0211,-0.1242,-1.515288357888796,-0.07931825518608093,1.6153857707977295,-1.868257999420166,0.0027882244903594255,2.0657520294189453,4.576018496150635,1.2728862351419941e-23,0.25581490993499756,-1.597109619771139,-0.0,-0.05081333965063095,0.7884189486503601,0.02512894570827484,0.09398253262042999,0.8160276412963867,0.0004197723465040326,0.2491873800754547
545.0,8190.0,2.3563,0.2291,8.6189,-0.0263,-0.0211,-0.1242,-1.5156318929842492,-0.08178962767124176,1.6463253498077393,-1.8682341575622559,0.0024273674935102463,2.104006767272949,4.575954123134277,5.426513769852284e-26,0.2543162405490875,-1.5970938841449183,-0.0,-0.061035361140966415,0.7884988188743591,0.019050782546401024,0.08532597124576569,0.8160436749458313,0.00039959701825864613,0.23774269223213196
545.0,8190.0,2.3563,0.2291,8.6189,-0.0263,-0.0211,-0.1242,-1.516143826102354,-0.08386208862066269,1.5636579990386963,-1.8681740760803223,0.00184393092058599,2.0955631732940674,4.5760223108479,1.5104900034958957e-29,0.24845144152641296,-1.5970380941974085,-0.0,-0.060878902673721313,0.7885787487030029,0.00554283382371068,0.06866432726383209,0.8159948587417603,0.000343239022186026,0.26051828265190125
545.0,8190.0,2.3563,0.2291,8.6189,-0.0263,-0.0211,-0.1242,-1.5166704703918477,-0.09095173329114914,1.5420395135879517,-1.8682299852371216,0.0012532752007246017,2.086759328842163,4.575994654292725,4.204504887943296e-33,0.24615222215652466,-1.5970938841449183,-0.0,-0.06663663685321808,0.7886069416999817,1.7659313016338274e-05,0.05655761808156967,0.8160639405250549,0.00028826307971030474,0.24436360597610474
545.0,8190.0,2.3563,0.2291,8.6189,-0.0263,-0.0211,-0.1242,-1.5170230579427262,-0.09786258637905121,1.5567207336425781,-1.8681979179382324,0.0009298351360484958,2.0806093215942383,4.575958414668701,1.7924465054483372e-35,0.25100353360176086,-1.5970500151263636,-0.0,-0.049394961446523666,0.7885749340057373,-0.0007618535310029984,0.054035209119319916,0.8160195350646973,0.00026045271079055965,0.2350172996520996
545.0,8190.0,2.3563,0.2291,8.6189,-0.0263,-0.0211,-0.1242,-1.5176832650652905,-0.1054161861538887,1.5625215768814087,-1.8681937456130981,0.000521509035024792,2.0873470306396484,4.5759827333637695,4.989339997810083e-39,0.243599534034729,-1.5970500151263636,-0.0,-0.0453701876103878,0.7885631322860718,-0.00032710260711610317,0.06737306714057922,0.8160436749458313,0.0001901374926092103,0.21506935358047485
545.0,8190.0,2.3563,0.2291,8.6189,-0.0263,-0.0211,-0.1242,-1.5180368360928078,-0.10768695920705795,1.5771031379699707,-1.8682103157043457,0.0005821496597491205,2.045440196990967,4.575994654292725,2.1270309389986398e-41,0.2436537742614746,-1.5971253553973597,-0.0,-0.035446830093860626,0.7885668277740479,-0.0002396306663285941,0.06303723156452179,0.8160400390625,0.00017486940487287939,0.22558340430259705
545.0,8190.0,2.3563,0.2291,8.6189,-0.0263,-0.0211,-0.1242,-1.5186844629100342,-0.11016890406608582,1.516787052154541,-1.8681296110153198,0.002126525156199932,2.0501174926757812,4.576026602382324,5.605193857299268e-45,0.25569838285446167,-1.5970338026629847,-0.0,-0.04119610786437988,0.7885262966156006,-0.00017114296497311443,0.06290240585803986,0.8160117864608765,0.00015661108773201704,0.2194490134716034
545.0,8190.0,2.3563,0.2291,8.6189,-0.0263,-0.0211,-0.1242,-1.5191375103643914,-0.11169122159481049,1.5489614009857178,-1.8681544065475464,0.003042377531528473,2.110513210296631,4.575954123134277,0.0,0.25224244594573975,-1.597070042287008,-9.589567525836173e-06,-0.050675466656684875,0.788550853729248,-0.00014377357729244977,0.05521893873810768,0.8160195350646973,0.00011715204163920134,0.2107079029083252
545.0,8190.0,2.3563,0.2291,8.6189,-0.0263,-0.0211,-0.1242,-1.519837037926056,-0.11485184729099274,1.5380464792251587,-1.8681296110153198,0.0034246607683598995,2.0697951316833496,4.575958414668701,0.0,0.25006458163261414,-1.5970419088946741,-2.66929145453787e-09,-0.044459521770477295,0.7885103821754456,-0.00011596490367082879,0.061720117926597595,0.8160560727119446,0.00010671807103790343,0.1875762790441513
637.0,854.0,2.3934,0.0227,8.5783,-0.0544,-0.1232,-0.1211,-1.5205666956356545,-0.12364154309034348,1.4982147216796875,-1.868134617805481,0.0028798156417906284,2.0831210613250732,4.575986071223877,0.0,0.24184703826904297,-1.597046200429098,-7.430070556209423e-13,-0.032511066645383835,0.7884902954101562,-9.717445209389552e-05,0.04325868934392929,0.8160400390625,9.800255065783858e-05,0.1902037113904953
637.0,854.0,2.3934,0.0227,8.5783,-0.0544,-0.1232,-0.1211,-1.5210181449404736,-0.12782713770866394,1.5312234163284302,-1.868134617805481,0.0022897054441273212,2.0822060108184814,4.57599846898999,0.0,0.2400769591331482,-1.5970657507525843,-3.167555727464472e-15,-0.04599917307496071,0.7885708808898926,-8.770215208642185e-05,0.04125042259693146,0.8159993886947632,9.294217306887731e-05,0.17924818396568298
637.0,854.0,2.3934,0.0227,8.5783,-0.0544,-0.1232,-0.1211,-1.5218373288265248,-0.13164202868938446,1.5619430541992188,-1.868114948272705,0.0018552894471213222,2.098475694656372,4.575978441829346,0.0,0.2478197067975998,-1.5970261732684534,-8.817007071118571e-19,-0.03708209842443466,0.788590669631958,-7.651489431736991e-05,0.04127915948629379,0.816027820110321,8.626105409348384e-05,0.14733906090259552
637.0,854.0,2.3934,0.0227,8.5783,-0.0544,-0.1232,-0.1211,-1.5223465648344536,-0.13842305541038513,1.5296180248260498,-1.868114948272705,0.0015762064140290022,2.0736162662506104,4.5759827333637695,0.0,0.24168342351913452,-1.5970419088946741,-3.758829064682433e-21,-0.04452801123261452,0.7885910272598267,-8.777899347478524e-05,0.04743287339806557,0.8160518407821655,6.174848385853693e-05,0.13375182449817657
637.0,854.0,2.3934,0.0227,8.5783,-0.0544,-0.1232,-0.1211,-1.523174015139677,-0.1464112102985382,1.5485279560089111,-1.8680942058563232,0.0015335934003815055,2.0604662895202637,4.575974150294922,0.0,0.2309209704399109,-1.597070042287008,-1.0462839679649954e-24,-0.035522837191820145,0.7886147499084473,-9.464620234211907e-05,0.05237492173910141,0.815999448299408,-4.7878624172881246e-05,0.127945214509964
637.0,854.0,2.3934,0.0227,8.5783,-0.0544,-0.1232,-0.1211,-1.524087631409504,-0.15908806025981903,1.499360203742981,-1.8680094480514526,0.0025710836052894592,2.0855636596679688,4.575994654292725,0.0,0.24120008945465088,-1.5970657507525843,-2.9123698359317467e-28,-0.03034393861889839,0.7885705828666687,-8.564319432480261e-05,0.055635787546634674,0.8159711956977844,-6.625398236792535e-05,0.1543518453836441
637.0,854.0,2.3934,0.0227,8.5783,-0.0544,-0.1232,-0.1211,-1.524718628530838,-0.16031242907047272,1.5078767538070679,-1.868053913116455,0.0035860692150890827,2.075629949569702,4.575994654292725,0.0,0.23411023616790771,-1.5970338026629847,-1.2415889187057463e-30,-0.020046094432473183,0.7885348200798035,-8.053352212300524e-05,0.042038410902023315,0.8160318732261658,-6.397076504072174e-05,0.10652317106723785
637.0,854.0,2.3934,0.0227,8.5783,-0.0544,-0.1232,-0.1211,-1.5257161234370251,-0.15936097502708435,1.4917984008789062,-1.8680020570755005,0.0065264031291007996,2.0933878421783447,4.575982256526611,5.925465302425437e-05,0.2361130714416504,-1.5970218817340296,-3.4560075743602585e-34,-0.039499811828136444,0.7886066436767578,-7.3918592534028e-05,0.05543960630893707,0.8160038590431213,-9.94493966572918e-05,0.09448272734880447
637.0,854.0,2.3934,0.0227,8.5783,-0.0544,-0.1232,-0.1211,-1.5263734844378014,-0.15522323548793793,1.493131160736084,-1.867965817451477,0.00873681902885437,2.092012643814087,4.57599846898999,5.810140646644868e-05,0.2434280961751938,-1.5970223585711878,-1.47335013729339e-36,-0.02973175421357155,0.7885664701461792,-7.008115062490106e-05,0.045268844813108444,0.8159835934638977,-9.532558760838583e-05,0.12960335612297058
637.0,854.0,2.3934,0.0227,8.5783,-0.0544,-0.1232,-0.1211,-1.5273988519660016,-0.15938852727413177,1.511734962463379,-1.8679264783859253,0.008138081058859825,2.060234785079956,4.576026602382324,5.5936390708666295e-05,0.2484930157661438,-1.5970657507525843,-4.101124163600869e-40,-0.030829647555947304,0.7885746955871582,-6.501802999991924e-05,0.037948302924633026,0.816048264503479,-7.178766099968925e-05,0.0913984403014183
637.0,854.0,2.3934,0.0227,8.5783,-0.0544,-0.1232,-0.1211,-1.528457985525467,-0.1747753769159317,1.4975833892822266,-1.8678778409957886,0.005607618950307369,2.0420584678649902,4.575978441829346,5.3925443353364244e-05,0.24464082717895508,-1.597018067036764,-1.1350517561031018e-43,-0.02960032969713211,0.7885947823524475,-6.0637088608928025e-05,0.037581637501716614,0.8160195350646973,-6.766078877262771e-05,0.10011842101812363
637.0,854.0,2.3934,0.0227,8.5783,-0.0544,-0.1232,-0.1211,-1.5292252649417897,-0.18790273368358612,1.4883605241775513,-1.8679066896438599,0.0038129326421767473,2.0921390056610107,4.575974150294922,5.26633120898623e-05,0.2495817244052887,-1.5970142523394983,-0.0,-0.031168898567557335,0.7885589599609375,-5.803054227726534e-05,0.05006779730319977,0.8159753680229187,-6.520960596390069e-05,0.16199758648872375
637.0,854.0,2.3934,0.0227,8.5783,-0.0544,-0.1232,-0.1211,-1.5303766515902062,-0.20487496256828308,1.4863892793655396,-1.867887020111084,0.0022301666904240847,2.09574031829834,4.575966044063232,5.087711906526238e-05,0.2376866638660431,-1.5970776716815394,-0.0,-0.030450155958533287,0.7886107563972473,-5.45153088751249e-05,0.03355040401220322,0.8160523772239685,-7.723872840870172e-05,0.1229771077632904
637.0,854.0,2.3934,0.0227,8.5783,-0.0544,-0.1232,-0.1211,-1.5311675903252144,-0.20677271485328674,1.5091441869735718,-1.8678300380706787,0.003898441093042493,2.0662622451782227,4.576018496150635,5.7145800383295864e-05,0.23857071995735168,-1.5970776716815394,-0.0,-0.027519501745700836,0.788590669631958,-5.239927122602239e-05,0.032293252646923065,0.816024124622345,-0.00020996267267037183,0.10882730782032013
637.0,854.0,2.3934,0.0227,8.5783,-0.0544,-0.1232,-0.1211,-1.532392145400383,-0.19931979477405548,1.5424602031707764,-1.867798924446106,0.008135577663779259,2.068413734436035,4.5760461527058105,1.5906744366134262e-08,0.23766972124576569,-1.597046200429098,-0.0,-0.018473505973815918,0.788538932800293,-4.9516278522787616e-05,0.04765498265624046,0.8159918189048767,-0.0002635332348290831,0.09036117792129517
637.0,854.0,2.3934,0.0227,8.5783,-0.0544,-0.1232,-0.1211,-1.5332232762924214,-0.1956447809934616,1.484119176864624,-1.8677338361740112,0.010135849006474018,2.119246244430542,4.5760223108479,6.781294276114735e-11,0.242867112159729,-1.5970657507525843,-0.0,-0.01904567889869213,0.7886271476745605,-4.776433343067765e-05,0.03323645889759064,0.8160117268562317,-0.0002467269077897072,0.0797310471534729
637.0,854.0,2.3934,0.0227,8.5783,-0.0544,-0.1232,-0.1211,-1.5345444430461903,-0.2044559270143509,1.5260932445526123,-1.867686152458191,0.011599539779126644,2.0918891429901123,4.576014204616211,1.8875983539895155e-14,0.24733948707580566,-1.5970819632159632,-0.0,-0.024263503029942513,0.7885627746582031,-4.535710468189791e-05,0.04226885735988617,0.8160319328308105,-0.00019668279855977744,0.09737692028284073
637.0,854.0,2.3934,0.0227,8.5783,-0.0544,-0.1232,-0.1211,-1.5358555440655728,-0.22195936739444733,1.540743350982666,-1.8676508665084839,0.010435805656015873,2.107785224914551,4.576018496150635,5.2541999657388535e-18,0.24185463786125183,-1.597070042287008,-0.0,-0.03266536071896553,0.7885947227478027,-4.3180891225347295e-05,0.04692020267248154,0.816007673740387,-8.282083581434563e-05,0.062103040516376495
924.0,906.0,3.0664,-0.0604,8.2732,-0.0594,-0.2703,-0.1217,-1.5367719021490593,-0.23114442825317383,1.5102465152740479,-1.8676104545593262,0.008676332421600819,2.0541434288024902,4.5759779649921875,2.2399475838916324e-20,0.24686314165592194,-1.5970376173602503,-0.0,-0.019742166623473167,0.7885951399803162,-4.1842489736154675e-05,0.040610797703266144,0.8159997463226318,-6.347177259158343e-05,0.13162216544151306
924.0,906.0,3.0664,-0.0604,8.2732,-0.0594,-0.2703,-0.1217,-1.5381296326271077,-0.23325899243354797,1.4943065643310547,-1.867578387260437,0.007324753794819117,2.0664970874786377,4.576002760524414,6.234977523441392e-24,0.24798157811164856,-1.5970223585711878,-0.0,-0.024548327550292015,0.7885746955871582,-3.9983551687328145e-05,0.048384036868810654,0.8160523176193237,-0.00010451222624396905,0.08396822214126587
924.0,906.0,3.0664,-0.0604,8.2732,-0.0594,-0.2703,-0.1217,-1.539048609589674,-0.23673462867736816,1.5299867391586304,-1.8675389289855957,0.007166804745793343,2.05185866355896,4.575990362758301,2.658068669034946e-26,0.2565779983997345,-1.5970619360553187,-0.0,-0.012360749766230583,0.7885909676551819,-5.092034916742705e-05,0.044234178960323334,0.8160601258277893,-9.384424629388377e-05,0.12594692409038544
924.0,906.0,3.0664,-0.0604,8.2732,-0.0594,-0.2703,-0.1217,-1.540439599459507,-0.24099573493003845,1.4860132932662964,-1.8674622774124146,0.007661554962396622,2.013251781463623,4.575986071223877,7.398832277973907e-30,0.24538201093673706,-1.597070042287008,-0.0,-0.025483231991529465,0.7885869145393372,-4.9635917093837634e-05,0.03019442781805992,0.8159835934638977,-0.0001217248136526905,0.09100370854139328
924.0,906.0,3.0664,-0.0604,8.2732,-0.0594,-0.2703,-0.1217,-1.5418820281377812,-0.24508708715438843,1.5055694580078125,-1.8673948049545288,0.009470255114138126,2.04504656791687,4.576041861171387,2.0594921839215566e-33,0.2489023208618164,-1.597018067036764,-0.0,-0.027913188561797142,0.7885546088218689,-4.766456549987197e-05,0.0451527014374733,0.8159997463226318,-0.00010722278238972649,0.10429699718952179
924.0,906.0,3.0664,-0.0604,8.2732,-0.0594,-0.2703,-0.1217,-1.5428571713021775,-0.2430720031261444,1.5394501686096191,-1.8673546314239502,0.011812182143330574,2.099972724914551,4.57599846898999,8.77993834990326e-36,0.25491657853126526,-1.5970137755023401,-0.0,-0.023818489164114,0.788547158241272,-4.6434997784672305e-05,0.03546968102455139,0.8159794807434082,-9.933314868248999e-05,0.07890284061431885
924.0,906.0,3.0664,-0.0604,8.2732,-0.0594,-0.2703,-0.1217,-1.544344426398613,-0.23940522968769073,1.5554790496826172,-1.8672747611999512,0.014000177383422852,2.083573818206787,4.576009913081787,9.651000436861068e-05,0.2500354051589966,-1.5970137755023401,-0.0,-0.01699935458600521,0.7885950803756714,-4.4705051550408825e-05,0.04001405090093613,0.8160038590431213,-8.945909212343395e-05,0.10519187897443771
924.0,906.0,3.0664,-0.0604,8.2732,-0.0594,-0.2703,-0.1217,-1.5453031559339543,-0.24105258285999298,1.5490875244140625,-1.8671660423278809,0.015703821554780006,2.086905002593994,4.575986071223877,9.470029181102291e-05,0.2568713426589966,-1.597070042287008,-0.0,-0.021269481629133224,0.7885828018188477,-2.7979640435660258e-05,0.04517770931124687,0.8159997463226318,-8.389930007979274e-05,0.08289745450019836
924.0,906.0,3.0664,-0.0604,8.2732,-0.0594,-0.2703,-0.1217,-1.5467823793045063,-0.25071942806243896,1.5028725862503052,-1.8671711683273315,0.01530133280903101,2.08158016204834,4.576058550471924,8.908536256058142e-05,0.25983738899230957,-1.5970342795001429,-0.0,-0.03229701891541481,0.788550853729248,-2.1744175683124922e-05,0.035003941506147385,0.8160360455513,-7.67449164413847e-05,0.09628608822822571
924.0,906.0,3.0664,-0.0604,8.2732,-0.0594,-0.2703,-0.1217,-1.547793225651123,-0.2549135982990265,1.5879695415496826,-1.8670666217803955,0.014126637950539589,2.0209951400756836,4.575990362758301,8.569255442125723e-05,0.248752623796463,-1.597058121358053,-0.0,-0.02032512053847313,0.7885587215423584,-3.166441456414759e-05,0.03350204601883888,0.816027820110321,1.9722529032151215e-05,0.1105617880821228
924.0,906.0,3.0664,-0.0604,8.2732,-0.0594,-0.2703,-0.1217,-1.5492761333337803,-0.26081597805023193,1.573093295097351,-1.8669579029083252,0.014235923998057842,2.0672414302825928,4.576018496150635,8.106148743536323e-05,0.2571101784706116,-1.5970056692706507,-0.0,-0.03566093370318413,0.7885429859161377,-3.075638960581273e-05,0.03613900765776634,0.8160080313682556,2.8938993636984378e-05,0.0747566744685173
924.0,906.0,3.0664,-0.0604,8.2732,-0.0594,-0.2703,-0.1217,-1.550794906248786,-0.2634669840335846,1.598237156867981,-1.8669028282165527,0.016601838171482086,2.154773235321045,4.576009913081787,8.832231833366677e-05,0.24676233530044556,-1.5970223585711878,-0.0,-0.01691090688109398,0.7885429859161377,-2.0077553926967084e-05,0.04223836585879326,0.816015899181366,4.2901667995920434e-08,0.07195276021957397
924.0,906.0,3.0664,-0.0604,8.2732,-0.0594,-0.2703,-0.1217,-1.5517939043096085,-0.2619676887989044,1.5935051441192627,-1.8667826652526855,0.019628560170531273,2.111332416534424,4.576038046474121,0.0001002601275104098,0.26701101660728455,-1.5970261732684534,-0.0,-0.01913335546851158,0.7885590195655823,-8.559376141192843e-08,0.037785954773426056,0.8160237669944763,7.722149308886372e-12,0.03461857885122299
924.0,906.0,3.0664,-0.0604,8.2732,-0.0594,-0.2703,-0.1217,-1.553316193898656,-0.2527730464935303,1.6008334159851074,-1.8666459321975708,0.026475179940462112,2.1221113204956055,4.576018496150635,0.00011311854905216023,0.25258681178092957,-1.5969861189471644,-0.0,-0.032791867852211,0.7886068820953369,-2.3825335801475056e-11,0.050913549959659576,0.8159997463226318,1.864808380648734e-17,0.11748581379652023
924.0,906.0,3.0664,-0.0604,8.2732,-0.0594,-0.2703,-0.1217,-1.554347564732172,-0.25181689858436584,1.570655345916748,-1.8665062189102173,0.030591674149036407,2.164005994796753,4.576033754939697,0.00010990010196110234,0.2652299404144287,-1.597058121358053,-0.0,-0.025517601519823074,0.7885589599609375,-1.0157114271837006e-13,0.031925641000270844,0.8160117864608765,3.356589671660257e-21,0.010578055866062641
924.0,906.0,3.0664,-0.0604,8.2732,-0.0594,-0.2703,-0.1217,-1.555914139640965,-0.2566666305065155,1.6050610542297363,-1.8663662672042847,0.03332968056201935,2.2138619422912598,4.576058550471924,0.000144755860674195,0.27928340435028076,-1.597029987965719,-0.0,-0.016858015209436417,0.7885631322860718,-0.00011423081014072523,0.03711991757154465,0.8160360455513,8.105768438647467e-27,0.08496028184890747
924.0,906.0,3.0664,-0.0604,8.2732,-0.0594,-0.2703,-0.1217,-1.5574890117025753,-0.2555481493473053,1.6176124811172485,-1.8661104440689087,0.037982624024152756,2.2316250801086426,4.576082392329834,0.00019496963068377227,0.2688997983932495,-1.5970342795001429,-0.0,-0.03075103834271431,0.7885828018188477,-0.00018491577066015452,0.027782563120126724,0.8159915804862976,1.9574475927950707e-32,0.09951011091470718
967.0,943.0,3.2871,-0.2231,8.595,-0.0437,-0.2056,-0.1295,-1.5585637719235201,-0.254865437746048,1.6281507015228271,-1.865909457206726,0.040433067828416824,2.186152458190918,4.5759898859211425,0.0002145166217815131,0.279438853263855,-1.5970056692706507,-0.0,-0.03154429793357849,0.7885185480117798,-0.00020446736016310751,0.03834361210465431,0.8160077333450317,3.523336610526231e-36,0.07356107980012894
967.0,943.0,3.2871,-0.2231,8.595,-0.0437,-0.2056,-0.1295,-1.5601027554697176,-0.2633987367153168,1.6587156057357788,-1.865742564201355,0.0443517230451107,2.2384157180786133,4.576062365169189,0.00019636846263892949,0.26516270637512207,-1.5970338026629847,-0.0,-0.01416577585041523,0.7885549068450928,-0.00018409473705105484,0.02882350981235504,0.8160117864608765,8.508684275380289e-42,0.0984564870595932
967.0,943.0,3.2871,-0.2231,8.595,-0.0437,-0.2056,-0.1295,-1.5611498265391965,-0.2700001001358032,1.7002649307250977,-1.8655426502227783,0.045047566294670105,2.1877312660217285,4.576070471400879,0.00018484488828107715,0.28523188829421997,-1.597070042287008,-0.0,-0.03125403821468353,0.7885589599609375,-0.00017234256665688008,0.017390718683600426,0.816015899181366,1.401298464324817e-45,0.045079052448272705
967.0,943.0,3.2871,-0.2231,8.595,-0.0437,-0.2056,-0.1295,-1.5628283045119424,-0.26888275146484375,1.6275355815887451,-1.8652784824371338,0.04862228408455849,2.2183923721313477,4.576106234187744,0.00019413138215895742,0.2771046757698059,-1.5970619360553187,-0.0,-0.009635108523070812,0.7885589599609375,-0.00018173227726947516,0.008953507989645004,0.8159835934638977,0.0,0.03708139806985855
967.0,943.0,3.2871,-0.2231,8.595,-0.0437,-0.2056,-0.1295,-1.5638952984339376,-0.26048803329467773,1.7092616558074951,-1.8650389909744263,0.05286824703216553,2.254051685333252,4.576030893916748,0.00035004341043531895,0.30088627338409424,-1.597070042287008,-0.0,-0.011348292231559753,0.7885144352912903,-0.00017338623001705855,0.029773855581879616,0.8160077333450317,0.0,0.014140663668513298
967.0,943.0,3.2871,-0.2231,8.595,-0.0437,-0.2056,-0.1295,-1.5655101903579016,-0.2610466182231903,1.6839454174041748,-1.8646339178085327,0.06065825745463371,2.2084460258483887,4.5760862070271,0.00039892602944746614,0.28114262223243713,-1.597058121358053,-0.0,-0.02183418720960617,0.7885872721672058,-0.00016016821609809995,0.017701320350170135,0.8160282969474792,0.0,0.024932097643613815
967.0,943.0,3.2871,-0.2231,8.595,-0.0437,-0.2056,-0.1295,-1.5671289214263489,-0.2668449282646179,1.674367904663086,-1.8643149137496948,0.0667426809668541,2.303100347518921,4.576062365169189,0.00034241972025483847,0.2980978786945343,-1.5970457235919397,-0.0,-0.023815367370843887,0.7885229587554932,-0.0001700280699878931,0.015589317306876183,0.8160077333450317,0.0,0.053883250802755356
967.0,943.0,3.2871,-0.2231,8.595,-0.0437,-0.2056,-0.1295,-1.5682317999056359,-0.26703697443008423,1.7605098485946655,-1.8640621900558472,0.06959187984466553,2.2496769428253174,4.576042338008545,0.0003126722585875541,0.28414902091026306,-1.597058121358053,-0.0,-0.01582447811961174,0.7885753512382507,-0.00016240352124441415,0.002831478137522936,0.8160482048988342,0.0,0.06823080778121948
967.0,943.0,3.2871,-0.2231,8.595,-0.0437,-0.2056,-0.1295,-1.5697698778570448,-0.26562461256980896,1.741490125656128,-1.8636507987976074,0.07016032934188843,2.285329818725586,4.576038046474121,0.00027662585489451885,0.29799145460128784,-1.5970261732684534,-0.0,-0.018557291477918625,0.7885631322860718,-0.00016210869944188744,0.01999443583190441,0.8160277605056763,0.0,0.0418216772377491
967.0,943.0,3.2871,-0.2231,8.595,-0.0437,-0.2056,-0.1295,-1.5708891354002894,-0.2694716453552246,1.711098313331604,-1.863314151763916,0.06906726956367493,2.2981913089752197,4.576058073634766,0.0002568840573076159,0.3027700185775757,-1.5970261732684534,-0.0,-0.027106519788503647,0.7884984612464905,-0.0001605183642823249,0.016576889902353287,0.8160237073898315,0.0,0.07889369130134583
967.0,943.0,3.2871,-0.2231,8.595,-0.0437,-0.2056,-0.1295,-1.5723911724486292,-0.2788010835647583,1.730163812637329,-1.8629111051559448,0.06933505088090897,2.3001279830932617,4.576081915492676,0.00024268914421554655,0.283866286277771,-1.59698993364443,-0.0,-0.021895594894886017,0.7885593771934509,-0.00014503691636491567,0.026178501546382904,0.8160359859466553,0.0,0.055800337344408035
967.0,943.0,3.2871,-0.2231,8.595,-0.0437,-0.2056,-0.1295,-1.5739861927428187,-0.27047479152679443,1.7886576652526855,-1.8624666929244995,0.07460697740316391,2.276693105697632,4.576069994563721,0.0002991684596054256,0.30227336287498474,-1.5970776716815394,-0.0,-0.025634905323386192,0.7885103821754456,-0.00013224843132775277,0.014411430805921555,0.8159874081611633,0.0,0.05755143612623215
967.0,943.0,3.2871,-0.2231,8.595,-0.0437,-0.2056,-0.1295,-1.5750977001585902,-0.26471468806266785,1.7638428211212158,-1.8621186017990112,0.07859046757221222,2.253467321395874,4.57607810079541,0.0003165899543091655,0.2930248975753784,-1.5970538298236292,-0.0,-0.024349678307771683,0.7885029315948486,-0.00012490618973970413,0.026319269090890884,0.816015899181366,0.0,0.10105636715888977
967.0,943.0,3.2871,-0.2231,8.595,-0.0437,-0.2056,-0.1295,-1.5765835247435511,-0.25583505630493164,1.7875522375106812,-1.8616070747375488,0.08847437053918839,2.3053359985351562,4.5760742860981445,0.0005575682735070586,0.3044653832912445,-1.597058121358053,-0.0,-0.025491632521152496,0.788547158241272,-0.00013826091890223324,0.030745835974812508,0.8160400390625,0.0,0.05542977899312973
967.0,943.0,3.2871,-0.2231,8.595,-0.0437,-0.2056,-0.1295,-1.57765593151235,-0.25473541021347046,1.8299565315246582,-1.8612782955169678,0.09416060894727707,2.3106136322021484,4.576078577632568,0.0004478646442294121,0.3002205491065979,-1.5970538298236292,-0.0,-0.020375456660985947,0.7885593771934509,-0.00013161884271539748,0.02012442797422409,0.8159794807434082,0.0,0.08149350434541702
967.0,943.0,3.2871,-0.2231,8.595,-0.0437,-0.2056,-0.1295,-1.579198499719137,-0.2526138126850128,1.794848918914795,-1.86066734790802,0.10108044743537903,2.350867748260498,4.576069994563721,0.000344807340297848,0.3085314631462097,-1.5970295111285608,-0.0,-0.03188187628984451,0.7884706258773804,-0.00012265046825632453,0.004301031120121479,0.8160560131072998,0.0,0.05517357215285301
967.0,943.0,3.2871,-0.2231,8.595,-0.0437,-0.2056,-0.1295,-1.580728670159811,-0.25989311933517456,1.8291754722595215,-1.8601117134094238,0.1062547117471695,2.361637592315674,4.576078577632568,0.00028032466070726514,0.31907373666763306,-1.5970142523394983,-0.0,-0.02811368554830551,0.788534939289093,-0.0001339523441856727,0.016476301476359367,0.8160477876663208,0.0,0.047665584832429886
967.0,943.0,3.2871,-0.2231,8.595,-0.0437,-0.2056,-0.1295,-1.5817319355406703,-0.2623763382434845,1.8826510906219482,-1.8596476316452026,0.10962411016225815,2.329650402069092,4.576058073634766,0.000249256263487041,0.30953285098075867,-1.5970342795001429,-0.0,-0.0355396643280983,0.7885913848876953,-0.00012849846098106354,0.027418645098805428,0.8160440921783447,0.0,0.12343502789735794
985.0,880.0,3.6903,0.1041,8.4036,-0.0333,-0.0867,-0.1365,-1.5832191906371058,-0.2635141909122467,1.8063316345214844,-1.8588989973068237,0.11784768849611282,2.3985235691070557,4.5761024194904785,0.00021372886840254068,0.30737242102622986,-1.597041432057516,-0.0,-0.0336727648973465,0.7885066270828247,-0.00012108879309380427,6.727816071361303e-05,0.8160400390625,0.00016092621081043035,0.08113939315080643
985.0,880.0,3.6903,0.1041,8.4036,-0.0333,-0.0867,-0.1365,-1.58422913173818,-0.259661465883255,1.8665809631347656,-1.8583985567092896,0.12069821357727051,2.346085548400879,4.576081915492676,0.0001951835583895445,0.3054681718349457,-1.597001854573385,-0.0,-0.031566642224788666,0.7884945869445801,-0.00011660626478260383,0.018167560920119286,0.8159633278846741,0.0001367942604701966,0.08737736940383911
985.0,880.0,3.6903,0.1041,8.4036,-0.0333,-0.0867,-0.1365,-1.585719724694723,-0.25194352865219116,1.8408962488174438,-1.8576874732971191,0.12713570892810822,2.396423816680908,4.576081915492676,0.00025749215274117887,0.3159761130809784,-1.597001854573385,-0.0,-0.026281557977199554,0.7885672450065613,-0.00012218521442264318,0.015303770080208778,0.8159997463226318,5.5696655181236565e-05,0.09322237223386765
985.0,880.0,3.6903,0.1041,8.4036,-0.0333,-0.0867,-0.1365,-1.5867911777892054,-0.2506769299507141,1.8202358484268188,-1.857211947441101,0.12810204923152924,2.3745064735412598,4.5761024194904785,0.00021181267220526934,0.31232714653015137,-1.5970738569842737,-0.0,-0.03185684606432915,0.7885106205940247,-0.00012195855379104614,0.025973938405513763,0.8160360455513,4.9561134801479056e-05,0.07238134741783142
985.0,880.0,3.6903,0.1041,8.4036,-0.0333,-0.0867,-0.1365,-1.5882979832091273,-0.24310147762298584,1.9061062335968018,-1.8564081192016602,0.13670411705970764,2.335721492767334,4.576158209437988,0.0012763552367687225,0.3230011463165283,-1.597041432057516,-0.0,-0.030638188123703003,0.7885832786560059,-0.0001160762767540291,0.0172121599316597,0.8159794211387634,4.253362931194715e-05,0.12684449553489685
985.0,880.0,3.6903,0.1041,8.4036,-0.0333,-0.0867,-0.1365,-1.589792390862936,-0.2337643802165985,1.9663898944854736,-1.8556249141693115,0.14833493530750275,2.4147181510925293,4.57612578451123,0.001988635864108801,0.3191097676753998,-1.597018067036764,-0.0,-0.028343111276626587,0.7885348796844482,-0.00011072118650190532,0.011634055525064468,0.8160560727119446,7.298806303879246e-05,0.10692115873098373
985.0,880.0,3.6903,0.1041,8.4036,-0.0333,-0.0867,-0.1365,-1.590752740899557,-0.23613910377025604,1.92136812210083,-1.8550044298171997,0.15329903364181519,2.434462070465088,4.576141996974609,0.003459941828623414,0.32416677474975586,-1.5969980398761194,-0.0,-0.03389357775449753,0.7885792255401611,-0.00010741750884335488,0.011632404290139675,0.8160358667373657,0.00010181425022892654,0.1140775978565216
985.0,880.0,3.6903,0.1041,8.4036,-0.0333,-0.0867,-0.1365,-1.5923148594298304,-0.25046825408935547,1.8803889751434326,-1.8540366888046265,0.16233684122562408,2.4494879245758057,4.576129599208496,0.011861111968755722,0.3230680227279663,-1.5970338026629847,-0.0,-0.014357270672917366,0.7884505391120911,-0.00010281567665515468,0.019288036972284317,0.8160358667373657,9.259216312784702e-05,0.08010346442461014
985.0,880.0,3.6903,0.1041,8.4036,-0.0333,-0.0867,-0.1365,-1.5933615169920863,-0.2580903172492981,1.8856569528579712,-1.8534115552902222,0.16449220478534698,2.427610397338867,4.576222582454346,0.020374029874801636,0.3234090507030487,-1.5970333258258265,-0.0,-0.03403358533978462,0.788486897945404,-9.996078733820468e-05,-0.006757313385605812,0.8160358667373657,8.664886991027743e-05,0.09099625051021576
985.0,880.0,3.6903,0.1041,8.4036,-0.0333,-0.0867,-0.1365,-1.594888826409811,-0.2539404630661011,1.9002532958984375,-1.8523645401000977,0.16670869290828705,2.437516689300537,4.576281710261963,0.01486734114587307,0.32038211822509766,-1.59698993364443,-0.0,-0.024753538891673088,0.7884828448295593,-9.596381278242916e-05,0.0035285544581711292,0.816007673740387,-6.151702109491453e-05,0.043866951018571854
985.0,880.0,3.6903,0.1041,8.4036,-0.0333,-0.0867,-0.1365,-1.596372743646139,-0.2512120306491852,1.9290266036987305,-1.8513492345809937,0.1749272346496582,2.4220306873321533,4.576441927547119,0.011920029297471046,0.31664085388183594,-1.5970142523394983,-0.0,-0.02301347441971302,0.7885308265686035,-9.227422560798004e-05,0.00637832609936595,0.816015899181366,-6.61113444948569e-05,0.09699912369251251
985.0,880.0,3.6903,0.1041,8.4036,-0.0333,-0.0867,-0.1365,-1.5974146328368128,-0.25354498624801636,1.927817940711975,-1.8506168127059937,0.1832035332918167,2.4461758136749268,4.576413317317627,0.009110179729759693,0.3249625265598297,-1.5970657507525843,-0.0,-0.018590789288282394,0.7885593771934509,-8.996819815365598e-05,0.009533002972602844,0.8160400390625,-6.158719043014571e-05,0.07210393249988556
985.0,880.0,3.6903,0.1041,8.4036,-0.0333,-0.0867,-0.1365,-1.5989462337889613,-0.25405386090278625,1.9324021339416504,-1.8495208024978638,0.19579024612903595,2.4429726600646973,4.57644955694165,0.0031050932593643665,0.31335675716400146,-1.597001854573385,-0.0,-0.023694919422268867,0.7885512113571167,-7.872247806517407e-05,0.0004077961202710867,0.8160358667373657,-5.585403414443135e-05,-0.0016812076792120934
985.0,880.0,3.6903,0.1041,8.4036,-0.0333,-0.0867,-0.1365,-1.5999776325621546,-0.2451397031545639,1.9444410800933838,-1.8486971855163574,0.2029303014278412,2.447852611541748,4.57651345312085,0.0008445550920441747,0.32939663529396057,-1.5970338026629847,-0.0,-0.025057710707187653,0.7885144352912903,-7.604666461702436e-05,0.011353852227330208,0.8160117864608765,-5.2590079576475546e-05,0.049412548542022705
985.0,880.0,3.6903,0.1041,8.4036,-0.0333,-0.0867,-0.1365,-1.6014872990050257,-0.2449532002210617,1.9854613542556763,-1.8474488258361816,0.20627225935459137,2.4823861122131348,4.576433344478271,-0.0008418220095336437,0.3087901175022125,-1.59698993364443,-0.0,-0.011318674311041832,0.7885229587554932,-7.237715908559039e-05,0.00708615779876709,0.8160560131072998,-3.2458756322739646e-05,0.10329785943031311
985.0,880.0,3.6903,0.1041,8.4036,-0.0333,-0.0867,-0.1365,-1.602522989312643,-0.2519632577896118,1.9653476476669312,-1.8466178178787231,0.20486624538898468,2.4838109016418457,4.576433344478271,-0.0009218071354553103,0.3212019205093384,-1.5970261732684534,-0.0,-0.029836107045412064,0.7884950637817383,-7.0121546741575e-05,0.004562749527394772,0.8160601258277893,-9.234818207914941e-07,0.061413250863552094
985.0,880.0,3.6903,0.1041,8.4036,-0.0333,-0.0867,-0.1365,-1.6040173969664515,-0.26594278216362,1.9370007514953613,-1.8453600406646729,0.20764780044555664,2.4791011810302734,4.576432867641113,-0.00035916658816859126,0.31699424982070923,-1.597070042287008,-0.0,-0.0180806927382946,0.7885348796844482,-6.698985089315102e-05,-0.0013465078081935644,0.8160277605056763,-2.230099785394124e-12,0.09533409774303436
962.0,910.0,3.6102,-0.134,8.6782,-0.0553,-0.0104,-0.1222,-1.6055370769896449,-0.2653800845146179,1.9335756301879883,-1.8440699577331543,0.21783855557441711,2.4657604694366455,4.576485319728516,-0.0002480655093677342,0.30594563484191895,-1.597041432057516,-0.0,-0.03841935470700264,0.788526713848114,-6.412600487237796e-05,-0.00427507096901536,0.816031813621521,-5.385428861197941e-18,0.07466581463813782
962.0,910.0,3.6102,-0.134,8.6782,-0.0553,-0.0104,-0.1222,-1.6065722904601039,-0.2570967674255371,1.9782493114471436,-1.8432202339172363,0.22554689645767212,2.507446527481079,4.576453371638916,-0.0002095213858410716,0.3101353645324707,-1.597018067036764,-0.0,-0.01697414740920067,0.7885308265686035,-6.234893226064742e-05,0.0019117365591228008,0.8160401582717896,-9.693582378131355e-22,0.07859766483306885
962.0,910.0,3.6102,-0.134,8.6782,-0.0553,-0.0104,-0.1222,-1.6080676517882289,-0.2492145150899887,1.9502062797546387,-1.841769814491272,0.23197823762893677,2.4472696781158447,4.576401396388672,-0.00022454971622209996,0.3139839768409729,-1.597074333821432,-0.0,-0.028280189260840416,0.7885429859161377,-5.9860791225219145e-05,0.0011435026535764337,0.816015899181366,-2.340886187973043e-27,0.07064194232225418
962.0,910.0,3.6102,-0.134,8.6782,-0.0553,-0.0104,-0.1222,-1.6090780697264613,-0.2486790418624878,2.0008952617645264,-1.8407787084579468,0.23609060049057007,2.5139641761779785,4.576425238246582,-0.00017670568195171654,0.3171340227127075,-1.5970137755023401,-0.0,-0.023150570690631866,0.7884951233863831,-5.830948066432029e-05,0.0023014028556644917,0.8160440921783447,-5.88510993111413e-05,0.07569189369678497
