ramyac6/ROB537/final_project/csv/all/good_83.csv
tof_0,tof_1,accelx,accely,accelz,gyrox,gyroy,gyroz,shoulder_lift_joint_position,shoulder_lift_joint_velocity,shoulder_lift_joint_effort,elbow_joint_position,elbow_joint_velocity,elbow_joint_effort,wrist_1_joint_position,wrist_1_joint_velocity,wrist_1_joint_effort,wrist_2_joint_position,wrist_2_joint_velocity,wrist_2_joint_effort,wrist_3_joint_position,wrist_3_joint_velocity,wrist_3_joint_effort,shoulder_pan_joint_position,shoulder_pan_joint_velocity,shoulder_pan_joint_effort
121.0,176.0,1.0487,-0.28,9.4576,-0.0356,0.0284,-0.1249,-2.034057756463522,0.0,4.032334804534912,-1.4113836288452148,-0.0,2.1094090938568115,4.869384217053213,-0.0,0.29230833053588867,-1.6659205595599573,0.0,0.008496485650539398,1.4099345207214355,0.0,-0.0006423410959541798,0.7220478057861328,0.0,0.02070525474846363
121.0,176.0,1.0487,-0.28,9.4576,-0.0356,0.0284,-0.1249,-2.0340215168394984,0.0,4.023589611053467,-1.4113471508026123,-0.0,2.0956790447235107,4.869319933443823,-0.0,0.2964531183242798,-1.6659005323993128,0.0,0.011904541403055191,1.4099586009979248,0.0,-0.007979239337146282,0.7220157384872437,0.0,-0.015775423496961594
121.0,176.0,1.0487,-0.28,9.4576,-0.0356,0.0284,-0.1249,-2.034053941766256,0.0,4.048218250274658,-1.4113545417785645,-0.0,2.1235461235046387,4.869339900999822,-0.0,0.2919590175151825,-1.6659444014178675,0.0,0.01466486044228077,1.4099018573760986,0.0,-0.002289070747792721,0.7220519185066223,0.0,0.002658786252140999
121.0,176.0,1.0487,-0.28,9.4576,-0.0356,0.0284,-0.1249,-2.0340377293028773,0.0,4.082740783691406,-1.4113421440124512,-0.0,2.1090102195739746,4.869315820723333,-0.0,0.28848153352737427,-1.665936295186178,0.0,-0.0016671550692990422,1.409869909286499,0.0,0.003489091992378235,0.7220519185066223,0.0,-0.002046002075076103
124.0,186.0,1.0702,-0.2692,9.3416,-0.0405,0.0211,-0.1097,-2.0339933834471644,0.0,4.088871002197266,-1.4114277362823486,-0.0,2.1064414978027344,4.8693439839179895,-0.0,0.28609660267829895,-1.6658805052386683,0.0,0.009602856822311878,1.4099018573760986,0.0,-0.0008509915205650032,0.7220277786254883,0.0,-0.017125029116868973
124.0,186.0,1.0702,-0.2692,9.3416,-0.0405,0.0211,-0.1097,-2.0340177021422328,0.0,4.001474380493164,-1.4113142490386963,-0.0,2.1180872917175293,4.869327980070867,-0.0,0.29004353284835815,-1.6659167448626917,0.0,0.003671145997941494,1.4099504947662354,0.0,-0.007785439491271973,0.722031831741333,0.0,0.00032378267496824265
124.0,186.0,1.0702,-0.2692,9.3416,-0.0405,0.0211,-0.1097,-2.0340377293028773,0.0,4.041800022125244,-1.4113504886627197,-0.0,2.117943048477173,4.869388240366735,-0.0,0.2956423759460449,-1.6658924261676233,0.0,0.006982576102018356,1.4099143743515015,0.0,0.003365293610841036,0.722051739692688,0.0,0.030651014298200607
124.0,186.0,1.0702,-0.2692,9.3416,-0.0405,0.0211,-0.1097,-2.0340215168394984,0.0,4.000317096710205,-1.4113867282867432,-0.0,2.1616904735565186,4.869343998819151,-0.0,0.29489386081695557,-1.6659200827227991,0.0,0.004670594818890095,1.40995454788208,0.0,-0.004969825968146324,0.7220721244812012,0.0,0.021791787818074226
124.0,186.0,1.0702,-0.2692,9.3416,-0.0405,0.0211,-0.1097,-2.0340334377684535,0.0,4.0370378494262695,-1.4113752841949463,-0.0,2.1471588611602783,4.869323926955023,-0.0,0.28041011095046997,-1.6659730116473597,0.0,0.010863344185054302,1.4099266529083252,0.0,-0.003800627775490284,0.7221081852912903,0.0,0.03618370369076729
124.0,186.0,1.0702,-0.2692,9.3416,-0.0405,0.0211,-0.1097,-2.0340739689269007,0.0,4.0272722244262695,-1.4113545417785645,-0.0,2.1576340198516846,4.8693439839179895,-0.0,0.2934785485267639,-1.665924374257223,0.0,0.02036197856068611,1.409930944442749,0.0,0.004575050435960293,0.7220680713653564,0.0,-0.010692833922803402
124.0,186.0,1.0702,-0.2692,9.3416,-0.0405,0.0211,-0.1097,-2.034057756463522,0.0,4.036163330078125,-1.4113103151321411,-0.0,2.1285297870635986,4.8692997870738886,-0.0,0.2893494665622711,-1.6659567991839808,0.0,-0.007249187212437391,1.4099628925323486,0.0,0.005198406055569649,0.7220277786254883,0.0,0.041727129369974136
125.0,183.0,0.9637,-0.1986,9.4367,-0.0267,0.0199,-0.1184,-2.03397335628652,0.0,3.9900197982788086,-1.4113876819610596,-0.0,2.1648881435394287,4.869332048087873,-0.0,0.28900855779647827,-1.6659324804889124,0.0,0.013192443177103996,1.4099385738372803,0.0,-0.0018432652577757835,0.7220195531845093,0.0,0.015188345685601234
125.0,183.0,0.9637,-0.1986,9.4367,-0.0267,0.0199,-0.1184,-2.034029623071188,0.0,4.024665355682373,-1.4113380908966064,-0.0,2.1193227767944336,4.8693358329828165,-0.0,0.29653483629226685,-1.6659649054156702,0.0,0.007446946110576391,1.4099390506744385,0.0,-0.010590087622404099,0.722051739692688,0.0,-0.042275041341781616
125.0,183.0,0.9637,-0.1986,9.4367,-0.0267,0.0199,-0.1184,-2.0340458355345667,0.0,4.029114246368408,-1.4113836288452148,-0.0,2.0974278450012207,4.8693439839179895,-0.0,0.28489744663238525,-1.6659486929522913,0.0,0.00996720977127552,1.4099185466766357,0.0,-0.004131547641009092,0.7220313549041748,0.0,-0.0009379299590364099
125.0,183.0,0.9637,-0.1986,9.4367,-0.0267,0.0199,-0.1184,-2.0340453586974085,0.0,4.072940826416016,-1.4113504886627197,-0.0,2.139514684677124,4.869380044728079,-0.0,0.29087451100349426,-1.6659486929522913,0.0,0.0021294383332133293,1.4099059104919434,0.0,-0.003045808058232069,0.7220478057861328,0.0,-0.05405259132385254
125.0,183.0,0.9637,-0.1986,9.4367,-0.0267,0.0199,-0.1184,-2.034053941766256,0.0,4.048418045043945,-1.4114112854003906,-0.0,2.1486663818359375,4.869319814234533,-0.0,0.29248619079589844,-1.665924374257223,0.0,0.0060220020823180676,1.409982442855835,0.0,-0.01035371795296669,0.722031831741333,0.0,0.03302992135286331
125.0,183.0,0.9637,-0.1986,9.4367,-0.0267,0.0199,-0.1184,-2.034042020837301,0.0,4.027926921844482,-1.4113836288452148,-0.0,2.1005711555480957,4.869340318232336,-0.0,0.29131951928138733,-1.6659205595599573,0.0,-0.0009911197703331709,1.4098858833312988,0.0,-0.004954760894179344,0.722055971622467,0.0,-0.009824801236391068
124.0,180.0,0.999,-0.2154,9.536,-0.0348,0.0279,-0.1173,-2.0340177021422328,0.0,4.05656623840332,-1.411362648010254,-0.0,2.126957416534424,4.869315790921011,-0.0,0.28928640484809875,-1.6659124533282679,0.0,-0.0020728912204504013,1.4099262952804565,0.0,-0.002201247029006481,0.7220154404640198,0.0,0.0018821079283952713
124.0,180.0,0.999,-0.2154,9.536,-0.0348,0.0279,-0.1173,-2.034053941766256,0.0,4.040579795837402,-1.411379337310791,-0.0,2.1082684993743896,4.86936408558444,-0.0,0.2894810736179352,-1.665908161793844,0.0,-0.003609522245824337,1.4099345207214355,0.0,-0.007717544678598642,0.7220557928085327,0.0,0.02494991384446621
124.0,180.0,0.999,-0.2154,9.536,-0.0348,0.0279,-0.1173,-2.0340377293028773,0.0,4.018608570098877,-1.4114031791687012,-0.0,2.10957932472229,4.869328039675512,-0.0,0.29085928201675415,-1.665924374257223,0.0,0.01745063066482544,1.4099504947662354,0.0,-0.014411046169698238,0.7220236659049988,0.0,-0.023936506360769272
124.0,180.0,0.999,-0.2154,9.536,-0.0348,0.0279,-0.1173,-2.0340334377684535,0.0,4.028271675109863,-1.4113709926605225,-0.0,2.090517044067383,4.869352268963613,-0.0,0.29510852694511414,-1.6659324804889124,0.0,0.009502032771706581,1.4099469184875488,0.0,-0.008165872655808926,0.7220277786254883,0.0,-0.0012936955317854881
124.0,180.0,0.999,-0.2154,9.536,-0.0348,0.0279,-0.1173,-2.0340897045531214,0.0,3.996812582015991,-1.4113832712173462,-0.0,2.1003997325897217,4.869355919748106,-0.0,0.2898201048374176,-1.665896240864889,0.0,0.007479742169380188,1.4099583625793457,0.0,-0.006508843973278999,0.7220355868339539,0.0,0.0038085905835032463
124.0,180.0,0.999,-0.2154,9.536,-0.0348,0.0279,-0.1173,-2.034081598321432,0.0,4.017283916473389,-1.4113709926605225,-0.0,2.0758750438690186,4.869355949550428,-0.0,0.29193416237831116,-1.6659768263446253,0.0,0.017470430582761765,1.4099665880203247,0.0,0.0031460621394217014,0.7220962643623352,0.0,0.021708020940423012
124.0,180.0,0.999,-0.2154,9.536,-0.0348,0.0279,-0.1173,-2.0340377293028773,0.0,4.029534339904785,-1.4114031791687012,-0.0,2.047818183898926,4.869332092791357,-0.0,0.2808374762535095,-1.6659167448626917,0.0,0.010260919108986855,1.4099266529083252,0.0,-0.01277198176831007,0.7220355868339539,0.0,0.0014894306659698486
125.0,184.0,1.0337,-0.198,9.3709,-0.0302,0.0266,-0.1254,-2.0340658626952113,0.0,4.006864547729492,-1.411362648010254,-0.0,2.0992870330810547,4.869355904846945,-0.0,0.2972351908683777,-1.6658762137042444,0.0,0.0018521258607506752,1.4099866151809692,0.0,-0.0023401458747684956,0.7220236659049988,0.0,0.029623201116919518
125.0,184.0,1.0337,-0.198,9.3709,-0.0302,0.0266,-0.1254,-2.0340095959105433,0.0,4.096202850341797,-1.4113101959228516,-0.0,2.1076931953430176,4.869380044728079,-0.0,0.29281920194625854,-1.6659649054156702,0.0,-0.013153170235455036,1.4099586009979248,0.0,-0.0007651236956007779,0.7220197916030884,0.0,0.025991400703787804
125.0,184.0,1.0337,-0.198,9.3709,-0.0302,0.0266,-0.1254,-2.0340334377684535,0.0,4.063511848449707,-1.4114196300506592,-0.0,2.1022536754608154,4.869384291559019,-0.0,0.29804134368896484,-1.6659281889544886,0.0,0.00969470851123333,1.4099385738372803,0.0,0.007034709677100182,0.7220314145088196,0.0,0.04693286120891571
125.0,184.0,1.0337,-0.198,9.3709,-0.0302,0.0266,-0.1254,-2.0340377293028773,0.0,4.084170341491699,-1.4113545417785645,-0.0,2.0579140186309814,4.869372281223097,-0.0,0.29838263988494873,-1.6658924261676233,0.0,0.02242499217391014,1.4099504947662354,0.0,-0.007907886989414692,0.7220840454101562,0.0,-0.01172106247395277
125.0,184.0,1.0337,-0.198,9.3709,-0.0302,0.0266,-0.1254,-2.0340377293028773,0.0,4.061813831329346,-1.4114112854003906,-0.0,2.1431145668029785,4.869335803180494,-0.0,0.30323976278305054,-1.6659405867206019,0.0,0.0012921191519126296,1.4099345207214355,0.0,0.0018410752527415752,0.7220799922943115,0.0,-0.012799427844583988
125.0,184.0,1.0337,-0.198,9.3709,-0.0302,0.0266,-0.1254,-2.034025808373922,0.0,4.065544128417969,-1.4113184213638306,-0.0,2.0711631774902344,4.86938005962924,-0.0,0.2900185286998749,-1.6659768263446253,0.0,0.007377789821475744,1.4099184274673462,0.0,0.002492346102371812,0.7220519185066223,0.0,-0.04780753701925278
125.0,184.0,1.0337,-0.198,9.3709,-0.0302,0.0266,-0.1254,-2.0340377293028773,0.0,4.044895172119141,-1.4113876819610596,-0.0,2.135378360748291,4.869368257909574,-0.0,0.29097723960876465,-1.6659205595599573,0.0,-0.006373454816639423,1.4098981618881226,0.0,0.0020878040231764317,0.7220880389213562,0.0,-0.038753002882003784
122.0,183.0,1.0552,-0.216,9.542,-0.0388,0.0255,-0.1167,-2.034069677392477,0.0,4.023711681365967,-1.4113669395446777,-0.0,2.0722005367279053,4.86936408558444,-0.0,0.28265154361724854,-1.6659811178790491,0.0,0.0067386687733232975,1.4099345207214355,0.0,0.0020646729972213507,0.7220277786254883,0.0,0.04131080210208893
122.0,183.0,1.0552,-0.216,9.542,-0.0388,0.0255,-0.1167,-2.0340739689269007,0.0,4.017707824707031,-1.411399006843567,-0.0,2.124717950820923,4.8693439839179895,-0.0,0.2880203127861023,-1.665936295186178,0.0,-0.009102302603423595,1.4099504947662354,0.0,0.0038482730742543936,0.7220437526702881,0.0,-0.02311674878001213
122.0,183.0,1.0552,-0.216,9.542,-0.0388,0.0255,-0.1167,-2.0340501270689906,0.0,4.091928005218506,-1.4112739562988281,-0.0,2.1292924880981445,4.869327980070867,-0.0,0.2904743552207947,-1.6659167448626917,0.0,0.012624688446521759,1.4099385738372803,0.0,-0.005251511000096798,0.722075879573822,0.0,0.03212250769138336
122.0,183.0,1.0552,-0.216,9.542,-0.0388,0.0255,-0.1167,-2.034042020837301,0.0,4.013984680175781,-1.411362648010254,-0.0,2.1459360122680664,4.869380044728079,-0.0,0.2850295305252075,-1.6659405867206019,0.0,0.0020422134548425674,1.409942388534546,0.0,-0.008775160647928715,0.722067654132843,0.0,0.032555706799030304
122.0,183.0,1.0552,-0.216,9.542,-0.0388,0.0255,-0.1167,-2.0340377293028773,0.0,4.04896879196167,-1.4113545417785645,-0.0,2.139348030090332,4.869368257909574,-0.0,0.28981202840805054,-1.6659486929522913,0.0,0.005581388249993324,1.409942626953125,0.0,-0.0029851379804313183,0.7220360040664673,0.0,0.003605017438530922
122.0,183.0,1.0552,-0.216,9.542,-0.0388,0.0255,-0.1167,-2.0340739689269007,0.0,4.015294551849365,-1.4113421440124512,-0.0,2.0975961685180664,4.8693439839179895,-0.0,0.2922510504722595,-1.6659167448626917,0.0,0.01636548340320587,1.4099664688110352,0.0,-0.0035611134953796864,0.7220639586448669,0.0,0.0021376737859100103
125.0,188.0,0.9787,-0.2345,9.4792,-0.0301,0.0188,-0.1122,-2.034053941766256,0.0,4.0015411376953125,-1.4113709926605225,-0.0,2.094217300415039,4.869371908694067,-0.0,0.29655420780181885,-1.6659324804889124,0.0,0.0015001530991867185,1.4099469184875488,0.0,-0.005025990307331085,0.7220355868339539,0.0,0.016668912023305893
125.0,188.0,0.9787,-0.2345,9.4792,-0.0301,0.0188,-0.1122,-2.0340777836241664,0.0,4.0415496826171875,-1.4113709926605225,-0.0,2.085353374481201,4.869332062989034,-0.0,0.2915693521499634,-1.6659162680255335,0.0,0.006993643008172512,1.409942626953125,0.0,0.004521881230175495,0.7220478057861328,0.0,0.011013207957148552
125.0,188.0,0.9787,-0.2345,9.4792,-0.0301,0.0188,-0.1122,-2.034069677392477,0.0,4.042088031768799,-1.4113585948944092,-0.0,2.098799467086792,4.8693923381860635,-0.0,0.28044450283050537,-1.6659043470965784,0.0,-0.004361382685601711,1.4099432229995728,0.0,-0.005538829602301121,0.722019612789154,0.0,-0.014175953343510628
125.0,188.0,0.9787,-0.2345,9.4792,-0.0301,0.0188,-0.1122,-2.034029623071188,0.0,4.036472797393799,-1.411362648010254,-0.0,2.104044198989868,4.8693075505788705,-0.0,0.2961030900478363,-1.6659324804889124,0.0,0.017140008509159088,1.4099266529083252,0.0,-0.005618653260171413,0.7220557928085327,0.0,-0.06255818903446198
125.0,188.0,0.9787,-0.2345,9.4792,-0.0301,0.0188,-0.1122,-2.0340053043761195,0.0,4.071743488311768,-1.4113504886627197,-0.0,2.1188111305236816,4.869359987765112,-0.0,0.2966311573982239,-1.665952507649557,0.0,0.004489980172365904,1.4099624156951904,0.0,-0.0007796115824021399,0.7220478057861328,0.0,-0.05119745433330536
125.0,188.0,0.9787,-0.2345,9.4792,-0.0301,0.0188,-0.1122,-2.0340377293028773,0.0,4.018060684204102,-1.4113709926605225,-0.0,2.099801778793335,4.86933163085536,-0.0,0.29515743255615234,-1.6659005323993128,0.0,0.006184106692671776,1.4099546670913696,0.0,-0.0006829067133367062,0.722019612789154,0.0,0.007850834168493748
125.0,188.0,0.9787,-0.2345,9.4792,-0.0301,0.0188,-0.1122,-2.033992906610006,0.0,4.051309108734131,-1.4113504886627197,-0.0,2.083782196044922,4.869339900999822,-0.0,0.28692418336868286,-1.6659405867206019,0.0,0.011856098659336567,1.4099624156951904,0.0,-0.009630662389099598,0.7220557928085327,0.0,0.0003510303795337677
122.0,188.0,1.0409,-0.2668,9.4062,-0.0397,0.0328,-0.1162,-2.0340501270689906,0.0,4.040205478668213,-1.411379337310791,-0.0,2.0832343101501465,4.869348066836157,-0.0,0.29142433404922485,-1.6659849325763147,0.0,0.02044038102030754,1.4099504947662354,0.0,-0.008772424422204494,0.7220116257667542,0.0,0.054892413318157196
122.0,188.0,1.0409,-0.2668,9.4062,-0.0397,0.0328,-0.1162,-2.0339890919127406,0.0,4.0178117752075195,-1.411362648010254,-0.0,2.072890281677246,4.869355919748106,-0.0,0.2914486825466156,-1.665952507649557,0.0,0.012374754063785076,1.40995454788208,0.0,0.008398493751883507,0.722031831741333,0.0,-0.01641043834388256
122.0,188.0,1.0409,-0.2668,9.4062,-0.0397,0.0328,-0.1162,-2.0340453586974085,0.0,4.043723106384277,-1.4113545417785645,-0.0,2.0522162914276123,4.869335803180494,-0.0,0.280842125415802,-1.6659324804889124,0.0,0.0008220927556976676,1.4099018573760986,0.0,0.0026877878699451685,0.7220277786254883,0.0,0.019668137654662132
122.0,188.0,1.0409,-0.2668,9.4062,-0.0397,0.0328,-0.1162,-2.034009119073385,0.0,4.041753768920898,-1.4114031791687012,-0.0,2.1008119583129883,4.869315627008238,-0.0,0.2915043830871582,-1.665896240864889,0.0,0.009810317307710648,1.4098663330078125,0.0,-0.005012385547161102,0.72199946641922,0.0,-0.00010125187691301107
122.0,188.0,1.0409,-0.2668,9.4062,-0.0397,0.0328,-0.1162,-2.0340010128416957,0.0,4.014066696166992,-1.4113390445709229,-0.0,2.0941972732543945,4.869339900999822,-0.0,0.28714531660079956,-1.6659444014178675,0.0,0.020685773342847824,1.409942626953125,0.0,-0.005568822845816612,0.7220355868339539,0.0,0.004083470907062292
122.0,188.0,1.0409,-0.2668,9.4062,-0.0397,0.0328,-0.1162,-2.034041544000143,0.0,4.041006088256836,-1.4114155769348145,-0.0,2.0578277111053467,4.869319799333372,-0.0,0.292954683303833,-1.6660049597369593,0.0,-0.006143615581095219,1.4099385738372803,0.0,-0.004223452880978584,0.7220598459243774,0.0,0.008716253563761711
124.0,180.0,1.0211,-0.2094,9.4038,-0.0338,0.0214,-0.1194,-2.0340458355345667,0.0,4.053417682647705,-1.4113504886627197,-0.0,2.0984139442443848,4.8693075505788705,-0.0,0.2869367003440857,-1.6659281889544886,0.0,0.004384141881018877,1.4099586009979248,0.0,-0.0047414847649633884,0.7220717668533325,0.0,0.025730831548571587
124.0,180.0,1.0211,-0.2094,9.4038,-0.0338,0.0214,-0.1194,-2.0340620479979457,0.0,4.082334518432617,-1.4113545417785645,-0.0,2.09208345413208,4.869404259115019,-0.0,0.296903520822525,-1.6659205595599573,0.0,0.0022318512201309204,1.409881830215454,0.0,-0.0024192596320062876,0.7220075726509094,0.0,-0.039846308529376984
124.0,180.0,1.0211,-0.2094,9.4038,-0.0338,0.0214,-0.1194,-2.034057756463522,0.0,4.023830413818359,-1.4114031791687012,-0.0,2.1039304733276367,4.869315731316366,-0.0,0.29385697841644287,-1.6659324804889124,0.0,0.0009003758896142244,1.4099385738372803,0.0,0.011344648897647858,0.7220237255096436,0.0,0.010550894774496555
124.0,180.0,1.0211,-0.2094,9.4038,-0.0338,0.0214,-0.1194,-2.0339890919127406,0.0,4.066103935241699,-1.4113948345184326,-0.0,2.148298740386963,4.869348066836157,-0.0,0.28342849016189575,-1.665896240864889,0.0,-0.003953609149903059,1.409906029701233,0.0,0.010424726642668247,0.7220680117607117,0.0,0.028034601360559464
124.0,180.0,1.0211,-0.2094,9.4038,-0.0338,0.0214,-0.1194,-2.0340334377684535,0.0,4.045842170715332,-1.4113306999206543,-0.0,2.1331686973571777,4.869352239161291,-0.0,0.2985881268978119,-1.6659324804889124,0.0,-0.0024847262538969517,1.409918189048767,0.0,0.0033496140968054533,0.7220277786254883,0.0,-0.020235370844602585
124.0,180.0,1.0211,-0.2094,9.4038,-0.0338,0.0214,-0.1194,-2.034069677392477,0.0,4.024860382080078,-1.411346197128296,-0.0,2.104886054992676,4.869327980070867,-0.0,0.30448490381240845,-1.665908161793844,0.0,0.013044994324445724,1.4099624156951904,0.0,-0.0003108138917014003,0.7220437526702881,0.0,-0.016714083030819893
124.0,180.0,1.0211,-0.2094,9.4038,-0.0338,0.0214,-0.1194,-2.0339890919127406,0.0,4.102590084075928,-1.4113792181015015,-0.0,2.1117210388183594,4.869348066836157,-0.0,0.2966434955596924,-1.6659730116473597,0.0,-0.0010449313558638096,1.4098939895629883,0.0,-0.012551757507026196,0.7220157384872437,0.0,-0.005332208704203367
123.0,181.0,0.9571,-0.265,9.5593,-0.0367,0.0266,-0.1196,-2.034009119073385,0.0,4.062362194061279,-1.4113545417785645,-0.0,2.138239622116089,4.869348066836157,-0.0,0.2848092019557953,-1.6659486929522913,0.0,-0.0009108969243243337,1.4098823070526123,0.0,-0.0030547729693353176,0.7220598459243774,0.0,0.008256826549768448
123.0,181.0,0.9571,-0.265,9.5593,-0.0367,0.0266,-0.1196,-2.0340458355345667,0.0,4.037153244018555,-1.411362648010254,-0.0,2.126936912536621,4.869311648398199,-0.0,0.29359760880470276,-1.6659043470965784,0.0,0.008063881658017635,1.4098899364471436,0.0,0.009327538311481476,0.7220799326896667,0.0,0.022638240829110146
123.0,181.0,0.9571,-0.265,9.5593,-0.0367,0.0266,-0.1196,-2.0340053043761195,0.0,4.068901062011719,-1.4113948345184326,-0.0,2.0972492694854736,4.869332062989034,-0.0,0.29689621925354004,-1.6659649054156702,0.0,0.0033145365305244923,1.40995454788208,0.0,-0.0014026275603100657,0.7220478057861328,0.0,0.011968697421252728
123.0,181.0,0.9571,-0.265,9.5593,-0.0367,0.0266,-0.1196,-2.0340501270689906,0.0,4.042717456817627,-1.4113836288452148,-0.0,2.057875633239746,4.8693439839179895,-0.0,0.28315219283103943,-1.6659281889544886,0.0,0.0005601984448730946,1.4099829196929932,0.0,-0.01281291525810957,0.7220478057861328,0.0,0.035270486027002335
123.0,181.0,0.9571,-0.265,9.5593,-0.0367,0.0266,-0.1196,-2.0340453586974085,0.0,4.023460865020752,-1.4114196300506592,-0.0,2.076561450958252,4.869355904846945,-0.0,0.29424500465393066,-1.6659043470965784,0.0,0.0010359620209783316,1.4099059104919434,0.0,-0.00927702896296978,0.7220237255096436,0.0,0.011179652996361256
123.0,181.0,0.9571,-0.265,9.5593,-0.0367,0.0266,-0.1196,-2.0340458355345667,0.0,4.095036506652832,-1.4113585948944092,-0.0,2.1241374015808105,4.8693678257759,-0.0,0.2886888384819031,-1.6659324804889124,0.0,-0.0006191185675561428,1.4099469184875488,0.0,-0.008673591539263725,0.7220677137374878,0.0,0.007106054574251175
123.0,181.0,0.9571,-0.265,9.5593,-0.0367,0.0266,-0.1196,-2.034053941766256,0.0,4.020298480987549,-1.4114196300506592,-0.0,2.1242690086364746,4.869348066836157,-0.0,0.29874467849731445,-1.6659486929522913,0.0,0.012139987200498581,1.4099018573760986,0.0,0.0008866883581504226,0.7220799326896667,0.0,-0.03263099491596222
121.0,182.0,1.0714,-0.2512,9.463,-0.0327,0.022,-0.1139,-2.0340215168394984,0.0,4.044273853302002,-1.4113876819610596,-0.0,2.0799174308776855,4.8693923381860635,-0.0,0.28931713104248047,-1.6659486929522913,0.0,0.01470186561346054,1.409914255142212,0.0,-0.006848936900496483,0.7220478057861328,0.0,0.040186334401369095
121.0,182.0,1.0714,-0.2512,9.463,-0.0327,0.022,-0.1139,-2.0340334377684535,0.0,4.023508071899414,-1.4114196300506592,-0.0,2.1135447025299072,4.869364055782118,-0.0,0.301547646522522,-1.6659167448626917,0.0,-0.0027119878213852644,1.4099586009979248,0.0,0.0054799229837954044,0.7220758199691772,0.0,0.017330344766378403
121.0,182.0,1.0714,-0.2512,9.463,-0.0327,0.022,-0.1139,-2.034053941766256,0.0,4.011950492858887,-1.4112941026687622,-0.0,2.057816505432129,4.869332062989034,-0.0,0.2861734628677368,-1.6659773031817835,0.0,-0.006956477649509907,1.4099664688110352,0.0,-0.007437564432621002,0.7219915986061096,0.0,0.013050315901637077
121.0,182.0,1.0714,-0.2512,9.463,-0.0327,0.022,-0.1139,-2.034070154229635,0.0,4.104879379272461,-1.4113835096359253,-0.0,2.105719566345215,4.869348066836157,-0.0,0.30002549290657043,-1.6659286657916468,0.0,0.0056537846103310585,1.4099788665771484,0.0,-0.009445528499782085,0.7220958471298218,0.0,0.00425556767731905
121.0,182.0,1.0714,-0.2512,9.463,-0.0327,0.022,-0.1139,-2.034057756463522,0.0,4.060820579528809,-1.411399006843567,-0.0,2.1268808841705322,4.869319754629888,-0.0,0.28927990794181824,-1.665952507649557,0.0,-0.009884325787425041,1.4099345207214355,0.0,-0.017559995874762535,0.7220598459243774,0.0,-0.043660085648298264
121.0,182.0,1.0714,-0.2512,9.463,-0.0327,0.022,-0.1139,-2.034057756463522,0.0,4.034284591674805,-1.4113504886627197,-0.0,2.1114935874938965,4.869323912053861,-0.0,0.29591313004493713,-1.665936295186178,0.0,0.013898935168981552,1.4098858833312988,0.0,-0.0009909393265843391,0.7220717668533325,0.0,-0.030216418206691742
127.0,184.0,0.9165,-0.2177,9.5677,-0.0406,0.0261,-0.1196,-2.034085889855856,0.0,4.063053131103516,-1.4113545417785645,-0.0,2.107297897338867,4.869363668351927,-0.0,0.29090219736099243,-1.6658886114703577,0.0,0.006836131680756807,1.4099185466766357,0.0,-0.009027784690260887,0.7220237255096436,0.0,0.03224357217550278
127.0,184.0,0.9165,-0.2177,9.5677,-0.0406,0.0261,-0.1196,-2.034030099908346,0.0,4.064367771148682,-1.4113585948944092,-0.0,2.1461899280548096,4.869311648398199,-0.0,0.3064589500427246,-1.6658924261676233,0.0,0.0027570612728595734,1.409914255142212,0.0,-0.003773460630327463,0.7220839262008667,0.0,-0.02453834004700184
127.0,184.0,0.9165,-0.2177,9.5677,-0.0406,0.0261,-0.1196,-2.0339890919127406,0.0,4.067888259887695,-1.4114196300506592,-0.0,2.1198179721832275,4.869355904846945,-0.0,0.29435208439826965,-1.6659124533282679,0.0,0.019174981862306595,1.4099550247192383,0.0,-0.008612425066530704,0.7220277786254883,0.0,-0.01728970743715763
127.0,184.0,0.9165,-0.2177,9.5677,-0.0406,0.0261,-0.1196,-2.0340095959105433,0.0,4.014287948608398,-1.411346197128296,-0.0,2.1393239498138428,4.869323882251539,-0.0,0.2940446138381958,-1.665936295186178,0.0,-0.006041849032044411,1.40995454788208,0.0,-0.003637338289991021,0.7220758199691772,0.0,-0.002676227129995823
127.0,184.0,0.9165,-0.2177,9.5677,-0.0406,0.0261,-0.1196,-2.0340620479979457,0.0,4.027984619140625,-1.411399006843567,-0.0,2.1031506061553955,4.8693279949720285,-0.0,0.2940145432949066,-1.665908161793844,0.0,0.0034077195450663567,1.40995454788208,0.0,0.005078711546957493,0.7220638990402222,0.0,0.05025392770767212
127.0,184.0,0.9165,-0.2177,9.5677,-0.0406,0.0261,-0.1196,-2.0340177021422328,0.0,4.006655693054199,-1.4113669395446777,-0.0,2.108177661895752,4.869332062989034,-0.0,0.29239434003829956,-1.6658924261676233,0.0,0.007774668280035257,1.409942626953125,0.0,0.011801610700786114,0.7220638990402222,0.0,0.013724741525948048
127.0,184.0,0.9165,-0.2177,9.5677,-0.0406,0.0261,-0.1196,-2.0339933834471644,0.0,4.0381059646606445,-1.4113545417785645,-0.0,2.1007773876190186,4.8693518219287775,-0.0,0.2898072898387909,-1.6659324804889124,0.0,-0.0009667840786278248,1.409866213798523,0.0,0.0060872044414281845,0.7220356464385986,0.0,0.013306551612913609
123.0,179.0,1.0068,-0.1633,9.5617,-0.038,0.0199,-0.117,-2.0340658626952113,0.0,4.056689262390137,-1.4113349914550781,-0.0,2.0792431831359863,4.869355904846945,-0.0,0.2896384298801422,-1.665952507649557,0.0,0.004296047147363424,1.409897804260254,0.0,-0.005031634122133255,0.7220839858055115,0.0,-0.009127008728682995
123.0,179.0,1.0068,-0.1633,9.5617,-0.038,0.0199,-0.117,-2.034057756463522,0.0,4.046283721923828,-1.4113270044326782,-0.0,2.109553575515747,4.869371908694067,-0.0,0.29762953519821167,-1.6659401098834437,0.0,0.013679098337888718,1.4098657369613647,0.0,0.00645716255530715,0.722091794013977,0.0,-0.011560994200408459
123.0,179.0,1.0068,-0.1633,9.5617,-0.038,0.0199,-0.117,-2.0340177021422328,0.0,3.9873507022857666,-1.4113471508026123,-0.0,2.0800678730010986,4.869371893792906,-0.0,0.2878707945346832,-1.665952507649557,0.0,-0.00590714905411005,1.40995454788208,0.0,-0.0051316749304533005,0.722091794013977,0.0,-0.009522562846541405
123.0,179.0,1.0068,-0.1633,9.5617,-0.038,0.0199,-0.117,-2.0340501270689906,0.0,4.032073974609375,-1.4113308191299438,-0.0,2.1165812015533447,4.869384217053213,-0.0,0.29112303256988525,-1.6659167448626917,0.0,0.020357873290777206,1.4098739624023438,0.0,0.003960761707276106,0.7220839858055115,0.00013288746413309127,-0.03304482623934746
123.0,179.0,1.0068,-0.1633,9.5617,-0.038,0.0199,-0.117,-2.0340453586974085,0.0,4.103516578674316,-1.4112744331359863,4.646606248570606e-05,2.0787930488586426,4.8693518219287775,-0.0,0.2943779528141022,-1.665924374257223,0.0,0.018701424822211266,1.4099464416503906,0.0,0.008385934866964817,0.7220999598503113,0.00011012321192538366,0.003591132117435336
123.0,179.0,1.0068,-0.1633,9.5617,-0.038,0.0199,-0.117,-2.034053941766256,0.0,4.020847797393799,-1.4113349914550781,4.023431392852217e-05,2.1110177040100098,4.869339483767309,-0.0,0.2930406928062439,-1.6659486929522913,0.0,0.0037366016767919064,1.4099349975585938,0.0,-0.0046207113191485405,0.7221320271492004,0.00011522875138325617,-0.022859912365674973
123.0,179.0,1.0068,-0.1633,9.5617,-0.038,0.0199,-0.117,-2.0340339146056117,0.0,4.070220947265625,-1.4114114046096802,3.479074439383112e-05,2.1208579540252686,4.8693799553211115,-0.0,0.282435804605484,-1.6659324804889124,0.0,0.007587765343487263,1.409914255142212,0.0,-0.002463635988533497,0.7221481800079346,0.00013364512415137142,0.00032018590718507767
125.0,181.0,0.9811,-0.3147,9.5611,-0.0408,0.0325,-0.1234,-2.03399719814443,0.0,4.01531982421875,-1.4113709926605225,4.073012314620428e-05,2.0994770526885986,4.86940789499835,-0.0,0.2973002791404724,-1.6659610907184046,0.0,0.002651900053024292,1.4099628925323486,0.0,0.001178378821350634,0.7221038937568665,0.0010961248772218823,-0.03794155269861221
125.0,181.0,0.9811,-0.3147,9.5611,-0.0408,0.0325,-0.1234,-2.033985277215475,0.0005131189245730639,4.058712482452393,-1.4113187789916992,4.1706793126650155e-05,2.141268491744995,4.869380000024595,-0.0,0.2939445376396179,-1.665952507649557,0.0,0.003762963227927685,1.4099504947662354,0.0,-0.007314757443964481,0.7221639156341553,0.0018092022510245442,0.0013911915011703968
125.0,181.0,0.9811,-0.3147,9.5611,-0.0408,0.0325,-0.1234,-2.033989568749899,0.0003304085985291749,4.039604187011719,-1.4113833904266357,3.763717177207582e-05,2.1189897060394287,4.869363668351927,-0.0,0.29928305745124817,-1.665952507649557,0.0,0.004331386648118496,1.40995454788208,0.0,-0.003847746644169092,0.7221797704696655,0.002023625187575817,0.004852053709328175
125.0,181.0,0.9811,-0.3147,9.5611,-0.0408,0.0325,-0.1234,-2.0339933834471644,6.678969657514244e-05,4.051265239715576,-1.4113421440124512,-6.089020098443143e-05,2.0874361991882324,4.8693076250846765,-0.0,0.29417771100997925,-1.665952507649557,0.0,0.006804225966334343,1.4099183082580566,0.0,-0.004697258118540049,0.7222241163253784,0.0013058045879006386,-0.012840485200285912
125.0,181.0,0.9811,-0.3147,9.5611,-0.0408,0.0325,-0.1234,-2.0340053043761195,4.204547734282249e-12,4.068302154541016,-1.4113504886627197,-7.244814332807437e-05,2.144303798675537,4.869375976711073,-0.0,0.29862362146377563,-1.6659324804889124,0.0,-0.0040559424087405205,1.4099262952804565,0.0,-0.005838341545313597,0.7221797704696655,0.0005298653850331903,-0.03318067640066147
125.0,181.0,0.9811,-0.3147,9.5611,-0.0408,0.0325,-0.1234,-2.0339609585204066,3.2896012507304586e-25,4.037912368774414,-1.4113503694534302,-0.00028675730573013425,2.079545497894287,4.869283351093092,-0.0,0.2970040440559387,-1.6659486929522913,-4.2229843529639766e-05,0.0015875361859798431,1.4099185466766357,0.0,0.00958164595067501,0.7221277952194214,0.00017599924467504025,0.016077954322099686
125.0,181.0,0.9811,-0.3147,9.5611,-0.0408,0.0325,-0.1234,-2.034025808373922,2.5737548000764484e-38,4.029210567474365,-1.4113669395446777,-0.0002090448106173426,2.0901546478271484,4.869308012514868,-0.0,0.30256223678588867,-1.6659610907184046,-3.627292244345881e-05,-0.00019582104869186878,1.4098937511444092,0.0,0.013280247338116169,0.7221437692642212,-0.0006168355466797948,-0.028432631865143776
126.0,181.0,0.9326,-0.0197,9.3553,-0.0359,0.0142,-0.1148,-2.0340215168394984,0.0,4.046872615814209,-1.4113948345184326,-0.00016447342932224274,2.09244966506958,4.8693362204130075,-0.0,0.29822835326194763,-1.6659167448626917,-1.5894356693024747e-05,0.005396370310336351,1.4098979234695435,0.0,0.003979351371526718,0.7220796346664429,-0.0005104901501908898,-0.018904294818639755
126.0,181.0,0.9326,-0.0197,9.3553,-0.0359,0.0142,-0.1148,-2.034030099908346,0.0,4.036494255065918,-1.4114114046096802,-0.00013906041567679495,2.098295211791992,4.869315716415205,-0.0,0.2979242205619812,-1.6659610907184046,-1.4371468751050998e-05,0.009008004330098629,1.409930944442749,0.0,-0.009833971038460732,0.7221198081970215,-0.0003278034273535013,-0.016180263832211494
126.0,181.0,0.9326,-0.0197,9.3553,-0.0359,0.0142,-0.1148,-2.034057756463522,0.0,4.059710502624512,-1.4113752841949463,-0.00011782145156757906,2.090975761413574,4.869328054576673,-0.0,0.30160850286483765,-1.665969196950094,-1.292657725571189e-05,0.018710700795054436,1.4099018573760986,0.0,-0.0032968581654131413,0.7221399545669556,-0.00026050693122670054,-0.021488573402166367
126.0,181.0,0.9326,-0.0197,9.3553,-0.0359,0.0142,-0.1148,-2.0340658626952113,0.0,4.060456275939941,-1.4114155769348145,-0.00010221068805549294,2.068291425704956,4.869340333133497,-0.0,0.28973522782325745,-1.665924374257223,-1.1745660231099464e-05,-0.0030125752091407776,1.4099504947662354,0.0,0.0005478105740621686,0.7221518158912659,-0.00019474026339594275,0.02165847271680832
126.0,181.0,0.9326,-0.0197,9.3553,-0.0359,0.0142,-0.1148,-2.0341016254820765,0.0,4.044872760772705,-1.4113991260528564,-9.178687469102442e-05,2.1229171752929688,4.869400504022398,-0.0,0.292288601398468,-1.6659162680255335,-1.0892718819377478e-05,0.010081210173666477,1.409909963607788,0.0,0.0013555275509133935,0.7221037745475769,-0.0001600976102054119,-0.025207173079252243
126.0,181.0,0.9326,-0.0197,9.3553,-0.0359,0.0142,-0.1148,-2.0340620479979457,0.0,4.076930522918701,-1.411362648010254,-8.202720346162096e-05,2.11845326423645,4.869332092791357,-0.0,0.29390978813171387,-1.665936295186178,-1.0041962923423853e-05,0.011670488864183426,1.4099788665771484,0.0,-0.0014991456409916282,0.722111701965332,-0.00015467501361854374,-0.012168355286121368
124.0,181.0,1.1372,-0.2931,9.478,-0.0379,0.0148,-0.1141,-2.0339695415892542,0.0,4.054139614105225,-1.4113836288452148,-6.600603956030682e-05,2.1438498497009277,4.869327980070867,-0.0,0.2919914424419403,-1.6659649054156702,-7.694734606433773e-13,0.00011617760173976421,1.409942626953125,0.0,-0.010216543450951576,0.7220957279205322,-0.00015085023187566549,0.05244486778974533
124.0,181.0,1.1372,-0.2931,9.478,-0.0379,0.0148,-0.1141,-2.0340177021422328,0.0,4.028936862945557,-1.4113948345184326,-5.708371463697404e-05,2.1668074131011963,4.869352179556646,-0.0,0.29383397102355957,-1.6659167448626917,-5.961939807892893e-20,0.0022131174337118864,1.409914255142212,0.0,0.0034672971814870834,0.7220597267150879,-9.986929944716394e-05,0.039978623390197754
124.0,181.0,1.1372,-0.2931,9.478,-0.0379,0.0148,-0.1141,-2.0340177021422328,0.0,4.007645130157471,-1.411407232284546,-5.242836778052151e-05,2.10128116607666,4.8693198440368555,-0.0,0.29485994577407837,-1.6659811178790491,-3.0161105338686513e-28,0.0055516427382826805,1.4099183082580566,0.0,-0.004220183938741684,0.7221238613128662,-0.00010372811084380373,-0.0037985164672136307
124.0,181.0,1.1372,-0.2931,9.478,-0.0379,0.0148,-0.1141,-2.0340501270689906,0.0,4.031701564788818,-1.411379337310791,-3.6490155341795116e-09,2.1076323986053467,4.869352239161291,-0.0,0.29183751344680786,-1.665924374257223,-1.525832240002546e-36,0.006434193812310696,1.4099345207214355,0.0,-0.0027946289628744125,0.7221076488494873,-9.14338233997114e-05,-0.0178652573376894
124.0,181.0,1.1372,-0.2931,9.478,-0.0379,0.0148,-0.1141,-2.0340010128416957,0.0,4.054986953735352,-1.4113712310791016,-2.85495779306097e-22,2.1391282081604004,4.869340303331175,-0.0,0.2904377281665802,-1.665952507649557,-8.407790785948902e-45,-0.007873221300542355,1.4099830389022827,0.0,-0.006816986948251724,0.722091794013977,-6.818433030275628e-05,0.0388532355427742
124.0,181.0,1.1372,-0.2931,9.478,-0.0379,0.0148,-0.1141,-2.034057756463522,0.0,4.016834735870361,-1.4113504886627197,-1.6649134441680624e-33,2.166053295135498,4.869323912053861,-0.0,0.289236456155777,-1.665952507649557,-0.0,0.00585208460688591,1.4099469184875488,0.0,-0.002972725313156843,0.7220473885536194,-6.244891119422391e-05,-0.011242784559726715
124.0,181.0,1.1372,-0.2931,9.478,-0.0379,0.0148,-0.1141,-2.0340215168394984,0.0,4.018939018249512,-1.4113585948944092,-0.0,2.119157314300537,4.869336265116491,-0.0,0.2922285199165344,-1.6659205595599573,-0.0,0.016529809683561325,1.4098858833312988,0.0,-0.0021511937957257032,0.722099781036377,-4.9422298616264015e-05,0.012457894161343575
125.0,179.0,1.0612,-0.3386,9.472,-0.0417,0.0188,-0.1173,-2.0340777836241664,0.0,4.061351299285889,-1.4113669395446777,-0.0,2.1259071826934814,4.869335803180494,-0.0,0.2900310158729553,-1.6659444014178675,-0.0,0.0035971105098724365,1.4099509716033936,0.0,-0.010782747529447079,0.7221076488494873,-4.1831968701444566e-05,0.025111228227615356
125.0,179.0,1.0612,-0.3386,9.472,-0.0417,0.0188,-0.1173,-2.0340620479979457,0.0,3.9994308948516846,-1.4114196300506592,-0.0,2.1379735469818115,4.869327980070867,-0.0,0.29225170612335205,-1.665969196950094,-0.0,-0.00211580959148705,1.4099382162094116,0.0,0.01330883614718914,0.722091794013977,-4.6946048826157494e-08,-0.012109484523534775
125.0,179.0,1.0612,-0.3386,9.472,-0.0417,0.0188,-0.1173,-2.034030099908346,0.0,4.051952362060547,-1.4113225936889648,-0.0,2.164517641067505,4.86938005962924,-0.0,0.29117637872695923,-1.6659486929522913,-0.0,0.008276693522930145,1.4099469184875488,0.0,-0.012023797258734703,0.7221116423606873,3.1809639040147886e-05,-0.004536766558885574
125.0,179.0,1.0612,-0.3386,9.472,-0.0417,0.0188,-0.1173,-2.0340620479979457,0.0,4.039886951446533,-1.4113627672195435,-0.0,2.1385273933410645,4.869347619801321,-0.0,0.29135632514953613,-1.665908161793844,-0.0,-0.011703336611390114,1.409897804260254,0.0,-0.00037934468127787113,0.722135603427887,4.254826490068808e-05,0.020115885883569717
125.0,179.0,1.0612,-0.3386,9.472,-0.0417,0.0188,-0.1173,-2.0340458355345667,0.0,4.032215595245361,-1.4113836288452148,-0.0,2.10071063041687,4.8692756471927545,-0.0,0.2922331392765045,-1.665969196950094,-0.0,0.011342590674757957,1.4099586009979248,0.0,-0.005087426397949457,0.7221919894218445,5.951528873993084e-05,-0.011119294911623001
125.0,179.0,1.0612,-0.3386,9.472,-0.0417,0.0188,-0.1173,-2.0340010128416957,0.0,4.023826599121094,-1.4113024473190308,-0.0,2.089103937149048,4.869319918542661,-0.0,0.2878114879131317,-1.6659930388080042,-0.0,0.007731875404715538,1.4099586009979248,0.0,0.006739051081240177,0.7221356630325317,0.00020769312686752528,0.026730326935648918
125.0,179.0,1.0612,-0.3386,9.472,-0.0417,0.0188,-0.1173,-2.0340177021422328,0.0,4.046211242675781,-1.4114196300506592,-0.0,2.1133909225463867,4.869355904846945,-0.0,0.28275591135025024,-1.665908161793844,-0.0,0.021112145856022835,1.4099225997924805,0.0,0.003508958499878645,0.7221918702125549,0.00018984157941304147,-0.002990010194480419
126.0,184.0,0.9769,-0.2034,9.5079,-0.0365,0.0235,-0.1228,-2.0340334377684535,0.0,4.013731956481934,-1.41138756275177,-0.0,2.0836293697357178,4.8693439839179895,-0.0,0.29046109318733215,-1.6659567991839808,-0.0,0.0050996048375964165,1.4099628925323486,0.0,0.006594295613467693,0.7221596240997314,0.00020313214918132871,-0.03387517109513283
126.0,184.0,0.9769,-0.2034,9.5079,-0.0365,0.0235,-0.1228,-2.034053941766256,0.0,4.036930561065674,-1.4113991260528564,-0.0,2.121004581451416,4.8693439839179895,-0.0,0.29750558733940125,-1.665936295186178,-0.0,0.003054700093343854,1.4099422693252563,0.0,0.006723764352500439,0.7221275568008423,0.00021421861310955137,-0.0032243505120277405
126.0,184.0,0.9769,-0.2034,9.5079,-0.0365,0.0235,-0.1228,-2.0340177021422328,0.0,4.078342914581299,-1.4114196300506592,-0.0,2.100106954574585,4.869319918542661,-0.0,0.2965274751186371,-1.6659405867206019,-0.0,-0.017981354147195816,1.4099059104919434,0.0,-0.0035518421791493893,0.7221919894218445,0.00016067452088464051,0.022565696388483047
126.0,184.0,0.9769,-0.2034,9.5079,-0.0365,0.0235,-0.1228,-2.034001489678854,0.0,4.020179271697998,-1.4114196300506592,-0.0,2.1230430603027344,4.8693841872508905,-0.0,0.2864748239517212,-1.6659610907184046,-0.0,0.01019242126494646,1.4099345207214355,0.0,0.005766354966908693,0.7221316695213318,7.81627677497454e-05,-0.011561349034309387
126.0,184.0,0.9769,-0.2034,9.5079,-0.0365,0.0235,-0.1228,-2.0340010128416957,0.0,4.027306079864502,-1.4113752841949463,-0.0,2.1401708126068115,4.869323986559667,-0.0,0.29805788397789,-1.6659043470965784,-0.0,0.0032638516277074814,1.4099266529083252,0.0,0.0031658406369388103,0.722095787525177,-0.00010885731899179518,-0.042538005858659744
126.0,184.0,0.9769,-0.2034,9.5079,-0.0365,0.0235,-0.1228,-2.0340620479979457,0.0,4.066220760345459,-1.4113225936889648,-0.0,2.120237350463867,4.869336235314169,-0.0,0.29452401399612427,-1.665969196950094,-0.0,0.005177074111998081,1.40995454788208,0.0,-0.006551792845129967,0.7221157550811768,-0.00014149723574519157,0.009534822776913643
125.0,185.0,1.1204,-0.1669,9.466,-0.0275,0.0194,-0.1196,-2.0340458355345667,0.0,4.065606117248535,-1.4113349914550781,-2.349262422822053e-17,2.1186952590942383,4.869384202152052,-0.0,0.3019185960292816,-1.665952507649557,-0.0,-0.008255206979811192,1.40995454788208,0.0,-0.0014696480939164758,0.7221038341522217,-0.0002960078709293157,0.017728889361023903
125.0,185.0,1.1204,-0.1669,9.466,-0.0275,0.0194,-0.1196,-2.034042020837301,0.0,4.037965774536133,-1.4113349914550781,-1.8380422754768202e-30,2.084312915802002,4.869339900999822,-0.0,0.29526910185813904,-1.6659768263446253,-0.0,0.012611369602382183,1.409930944442749,0.0,-0.004925613757222891,0.7221478223800659,-0.00014787707186769694,0.020242106169462204
125.0,185.0,1.1204,-0.1669,9.466,-0.0275,0.0194,-0.1196,-2.034053941766256,0.0,4.021341323852539,-1.4113669395446777,-1.0718531953620526e-41,2.171060562133789,4.869327980070867,-0.0,0.2986616790294647,-1.6659444014178675,-0.0,0.004229794722050428,1.4099385738372803,0.0,-0.007599018048495054,0.722111701965332,-0.000145734244142659,-0.011614657007157803
125.0,185.0,1.1204,-0.1669,9.466,-0.0275,0.0194,-0.1196,-2.0340215168394984,-4.715181272095829e-15,3.979137420654297,-1.4114155769348145,-0.0,2.1103692054748535,4.869327980070867,-0.0,0.2905440926551819,-1.6659730116473597,-0.0,0.018441831693053246,1.4099146127700806,0.0,-0.005826564040035009,0.722095787525177,-0.00010576847853371873,0.001096830703318119
125.0,185.0,1.1204,-0.1669,9.466,-0.0275,0.0194,-0.1196,-2.0340215168394984,-3.68911640106132e-28,4.091639995574951,-1.411431074142456,-0.0,2.1299033164978027,4.869319918542661,-0.0,0.2850663959980011,-1.6659401098834437,-0.0,8.502183482050896e-05,1.409914255142212,0.0,-0.004517132416367531,0.7220998406410217,-8.300629997393116e-05,-0.03061097301542759
125.0,185.0,1.1204,-0.1669,9.466,-0.0275,0.0194,-0.1196,-2.0340458355345667,-2.1513658881301046e-39,4.01175594329834,-1.4113836288452148,-0.0,2.0812318325042725,4.869376468449392,-0.0,0.2930877208709717,-1.665924374257223,-0.0,0.004877263680100441,1.409914255142212,0.0,-0.010738415643572807,0.7221397757530212,-7.007938984315842e-05,-0.004888452589511871
125.0,185.0,1.1204,-0.1669,9.466,-0.0275,0.0194,-0.1196,-2.034009119073385,0.0,4.009151458740234,-1.4113948345184326,-0.0,2.1672658920288086,4.869348037033834,-0.0,0.29201868176460266,-1.665936295186178,-0.0,0.006872977130115032,1.4098899364471436,0.0,0.0028118183836340904,0.7221437096595764,-5.930451152380556e-05,0.0018392808269709349
124.0,181.0,1.1067,-0.1777,9.3637,-0.0415,0.0199,-0.1226,-2.0339890919127406,0.0,4.026680946350098,-1.4113669395446777,-0.0,2.1491456031799316,4.869303914695539,-0.0,0.2899581789970398,-1.665969196950094,-0.0,0.011657793074846268,1.4099225997924805,0.0,0.00484587624669075,0.7221157550811768,-5.1401508244453e-05,-0.006192678585648537
124.0,181.0,1.1067,-0.1777,9.3637,-0.0415,0.0199,-0.1226,-2.034009119073385,0.0,4.006637096405029,-1.411362648010254,-0.0,2.106288194656372,4.8693199036415,-0.0,0.2957938313484192,-1.665936295186178,-0.0,-0.0035442172084003687,1.4099349975585938,0.0,-0.0015745552955195308,0.7221477627754211,-4.61320742033422e-05,0.03217928111553192
124.0,181.0,1.1067,-0.1777,9.3637,-0.0415,0.0199,-0.1226,-2.034009119073385,0.0,4.065661430358887,-1.4113669395446777,-0.0,2.1310646533966064,4.869384217053213,-0.0,0.29519936442375183,-1.665952507649557,-0.0,0.011504406109452248,1.4098739624023438,0.0,-0.006405854597687721,0.7221198081970215,-5.493845674209297e-05,0.0014195684343576431
124.0,181.0,1.1067,-0.1777,9.3637,-0.0415,0.0199,-0.1226,-2.034042020837301,0.0,4.037191867828369,-1.4114031791687012,-0.0,2.1289658546447754,4.869291531830587,-0.0,0.2927461266517639,-1.6659486929522913,-0.0,0.00011791153519880027,1.4099266529083252,0.0,0.006435348652303219,0.7220396995544434,-2.958917866635602e-05,-0.02707992121577263
124.0,181.0,1.1067,-0.1777,9.3637,-0.0415,0.0199,-0.1226,-2.0340010128416957,0.0,4.019118309020996,-1.4114031791687012,-0.0,2.1444623470306396,4.869291546731748,-0.0,0.30731838941574097,-1.6659324804889124,-0.0,0.014896519482135773,1.4099223613739014,0.0,-0.007180729880928993,0.7221078872680664,-5.300981501932256e-05,-0.061998721212148666
124.0,181.0,1.1067,-0.1777,9.3637,-0.0415,0.0199,-0.1226,-2.0340501270689906,0.0,3.999528169631958,-1.411379337310791,-0.0,2.160900831222534,4.8693923381860635,-0.0,0.3147129416465759,-1.6659444014178675,-0.0,0.0006833861116319895,1.4099266529083252,0.0,0.006012940779328346,0.722075879573822,-4.875879312749021e-05,-0.04256156086921692
124.0,181.0,1.1067,-0.1777,9.3637,-0.0415,0.0199,-0.1226,-2.0340053043761195,0.0,3.9908604621887207,-1.4113876819610596,-0.0,2.0977654457092285,4.869336235314169,-0.0,0.2941693067550659,-1.6659815947162073,-0.0,0.0042590186931192875,1.4098939895629883,0.0,-0.005408481694757938,0.7220757603645325,-5.567050902755e-05,0.008848002180457115
128.0,181.0,0.9476,-0.1831,9.4349,-0.038,0.0318,-0.1239,-2.034001489678854,0.0,4.0067901611328125,-1.411407232284546,-0.0,2.1074647903442383,4.869315627008238,-0.0,0.2919926643371582,-1.6659444014178675,-0.0,0.004039021208882332,1.4099504947662354,0.0,-0.004597117193043232,0.7221038341522217,-5.1233830163255334e-05,-0.03996949642896652
128.0,181.0,0.9476,-0.1831,9.4349,-0.038,0.0318,-0.1239,-2.0340458355345667,0.0,4.00566291809082,-1.4113545417785645,-0.0,2.1150152683258057,4.869348081737318,-0.0,0.28984788060188293,-1.6659043470965784,-0.0,0.004315642639994621,1.409878134727478,0.0,-0.004446777515113354,0.7221397161483765,-4.082907276159453e-11,0.04701811447739601
128.0,181.0,0.9476,-0.1831,9.4349,-0.038,0.0318,-0.1239,-2.0340053043761195,0.0,4.063539505004883,-1.4113545417785645,-0.0,2.0756778717041016,4.869335818081655,-0.0,0.30146270990371704,-1.6659649054156702,-0.0,0.005252189468592405,1.4098858833312988,0.0,-0.0016429134411737323,0.722099781036377,-3.95102433685679e-05,0.0191664882004261
128.0,181.0,0.9476,-0.1831,9.4349,-0.038,0.0318,-0.1239,-2.0340658626952113,0.0,4.0375237464904785,-1.4113545417785645,-0.0,2.0901036262512207,4.869311678200521,-0.0,0.29649853706359863,-1.6659486929522913,-0.0,0.014803837984800339,1.4099059104919434,0.0,-0.005537055432796478,0.7220957279205322,-3.475511402939446e-05,-0.024946296587586403
128.0,181.0,0.9476,-0.1831,9.4349,-0.038,0.0318,-0.1239,-2.0340334377684535,0.0,4.06164026260376,-1.4113340377807617,-0.0,2.0722055435180664,4.8693439839179895,-0.0,0.2898472845554352,-1.6659043470965784,-0.0,0.0064221154898405075,1.410043478012085,0.0,-0.0027579660527408123,0.722111701965332,-1.5308516594814137e-05,0.01878141239285469
128.0,181.0,0.9476,-0.1831,9.4349,-0.038,0.0318,-0.1239,-2.034029623071188,0.0,3.987030029296875,-1.4113545417785645,-0.0,2.0748438835144043,4.869376006513395,-0.0,0.3019178509712219,-1.6658805052386683,-0.0,-0.010178584605455399,1.409857988357544,0.0,0.004751896485686302,0.7221517562866211,-1.3890869013266638e-05,0.05232057720422745
126.0,183.0,1.0618,-0.2279,9.4834,-0.0774,0.0269,-0.1179,-2.034057756463522,0.0,4.02232027053833,-1.4113348722457886,-0.0,2.096731185913086,4.869372355728903,-0.0,0.2925453782081604,-1.6659167448626917,-0.0,0.001019240589812398,1.4099266529083252,0.0,-0.004052178468555212,0.7221157550811768,-1.2536452231870499e-05,0.00896636862307787
126.0,183.0,1.0618,-0.2279,9.4834,-0.0774,0.0269,-0.1179,-2.0340215168394984,0.0,4.027517318725586,-1.4113948345184326,-0.0,2.096609592437744,4.869327980070867,-0.0,0.2957378923892975,-1.6659610907184046,-0.0,0.004835032857954502,1.4099103212356567,0.0,0.006029778625816107,0.7221317887306213,-1.1422692296036985e-05,0.0310517605394125
126.0,183.0,1.0618,-0.2279,9.4834,-0.0774,0.0269,-0.1179,-2.0340377293028773,0.0,4.0201005935668945,-1.4113545417785645,-0.0,2.1100714206695557,4.86933163085536,-0.0,0.28605684638023376,-1.6659324804889124,-0.0,0.009331515990197659,1.4098823070526123,0.0,0.003018801799044013,0.7220998406410217,-2.1228823243291117e-05,-0.003242715960368514
126.0,183.0,1.0618,-0.2279,9.4834,-0.0774,0.0269,-0.1179,-2.034025808373922,0.0,4.050539970397949,-1.4113184213638306,-0.0,2.105539083480835,4.869327980070867,-0.0,0.2933920919895172,-1.6658924261676233,-0.0,-0.009600847959518433,1.4099669456481934,0.0,0.0021286113187670708,0.7221118211746216,-1.3595310122127557e-07,-0.022283120080828667
126.0,183.0,1.0618,-0.2279,9.4834,-0.0774,0.0269,-0.1179,-2.0340177021422328,-4.802501280209981e-05,4.0661420822143555,-1.4113545417785645,-0.0,2.1512577533721924,4.869332077890196,-0.0,0.2905169129371643,-1.6659205595599573,-0.0,0.015035875141620636,1.4099586009979248,0.0,-0.007198973558843136,0.7220878005027771,-1.0636847167170795e-20,-0.010410773567855358
126.0,183.0,1.0618,-0.2279,9.4834,-0.0774,0.0269,-0.1179,-2.034042020837301,-4.3414871470304206e-05,4.012237548828125,-1.4114031791687012,-0.0,2.0869293212890625,4.869303899794378,-0.0,0.2979671359062195,-1.6659405867206019,-0.0,0.0020086190197616816,1.40995454788208,0.0,-0.009429996833205223,0.7220556735992432,-6.203043722481283e-32,0.011636655777692795
126.0,183.0,1.0618,-0.2279,9.4834,-0.0774,0.0269,-0.1179,-2.034057756463522,-3.902267417288385e-05,4.046919822692871,-1.4113421440124512,-0.0,2.076120615005493,4.869384291559019,-0.0,0.2948680520057678,-1.6659281889544886,-0.0,0.006151413545012474,1.4099266529083252,0.0,0.000652097281999886,0.7221118807792664,-2.659706115082372e-05,0.023678278550505638
122.0,184.0,0.9547,-0.2387,9.5833,-0.036,0.0234,-0.1196,-2.034029623071188,-3.543751881807111e-05,4.015279769897461,-1.4113349914550781,-0.0,2.111582040786743,4.869311648398199,-0.0,0.30272799730300903,-1.665936295186178,-0.0,0.014376427046954632,1.409930944442749,0.0,0.004076924175024033,0.722075879573822,-2.410397974017542e-05,-0.03581303730607033
122.0,184.0,0.9547,-0.2387,9.5833,-0.036,0.0234,-0.1196,-2.0340377293028773,-3.2455729524372146e-05,4.057598114013672,-1.4113752841949463,-0.0,2.159945249557495,4.86936408558444,-0.0,0.2907312512397766,-1.6659486929522913,-3.9550464862259105e-05,0.005354782100766897,1.4099504947662354,0.0,0.004255467094480991,0.7221078872680664,-2.2038208044250496e-05,-0.005377884488552809
122.0,184.0,0.9547,-0.2387,9.5833,-0.036,0.0234,-0.1196,-2.034042020837301,-3.0272405638243072e-05,4.047825336456299,-1.4113866090774536,-0.0,2.1064136028289795,4.869307610183515,-0.0,0.28970134258270264,-1.6658886114703577,-9.748731599756866e-09,0.008300239220261574,1.4099509716033936,0.0,0.00608264422044158,0.722075879573822,-2.053008029179182e-05,-0.044381510466337204
122.0,184.0,0.9547,-0.2387,9.5833,-0.036,0.0234,-0.1196,-2.034053941766256,-1.4989247500542605e-15,4.0673627853393555,-1.411390781402588,-0.0,2.142836093902588,4.869359987765112,-0.0,0.27385416626930237,-1.6659405867206019,-4.931825843458767e-17,0.001380633795633912,1.4099023342132568,0.0,-0.007067713420838118,0.722079873085022,-6.431424403458008e-13,0.029468774795532227
122.0,184.0,0.9547,-0.2387,9.5833,-0.036,0.0234,-0.1196,-2.0340453586974085,-1.1727454469385393e-28,4.05826997756958,-1.4113380908966064,-0.0,2.1119470596313477,4.869311708002844,-0.0,0.2840477526187897,-1.6659405867206019,-2.4949814143823005e-25,-0.00377646298147738,1.4099266529083252,0.0,-0.00251335883513093,0.7220837473869324,-5.031889491652175e-26,0.05140461400151253
122.0,184.0,0.9547,-0.2387,9.5833,-0.036,0.0234,-0.1196,-2.0340572796263636,-6.839051168121913e-40,4.049887657165527,-1.4114031791687012,-0.0,2.1249704360961914,4.869396421104231,-0.0,0.28921183943748474,-1.6659281889544886,-1.933131316653961e-32,0.0029305475763976574,1.409942626953125,0.0,-0.010494831949472427,0.7220998406410217,-2.9344259313949642e-37,-0.03466598317027092
122.0,184.0,0.9547,-0.2387,9.5833,-0.036,0.0234,-0.1196,-2.034025808373922,0.0,4.028632164001465,-1.4113836288452148,-0.0,2.117734670639038,4.869359987765112,-0.0,0.28957968950271606,-1.6659324804889124,-9.779661982522898e-41,0.012405947782099247,1.409914255142212,0.0,-0.005406719632446766,0.7220998406410217,0.0,-0.0435602068901062
124.0,178.0,1.0421,-0.2171,9.4965,-0.0374,0.0278,-0.1213,-2.034029623071188,0.0,4.0080885887146,-1.4113712310791016,-0.0,2.0804178714752197,4.8693439839179895,-0.0,0.2865986227989197,-1.6659730116473597,-0.0,0.008585295639932156,1.4099266529083252,0.0,0.0006933235563337803,0.7220596671104431,0.0,-0.0007720007561147213
124.0,178.0,1.0421,-0.2171,9.4965,-0.0374,0.0278,-0.1213,-2.0340734920897425,0.0,4.009164810180664,-1.4113627672195435,-0.0,2.132937431335449,4.869359987765112,-0.0,0.2948627471923828,-1.6659124533282679,-0.0,0.013910467736423016,1.4098899364471436,0.0,0.009838683530688286,0.7220597267150879,0.0,0.0011111670173704624
124.0,178.0,1.0421,-0.2171,9.4965,-0.0374,0.0278,-0.1213,-2.034053941766256,0.0,4.052333831787109,-1.4113669395446777,-0.0,2.0540895462036133,4.869339886098661,-0.0,0.28207463026046753,-1.6659324804889124,-0.0,0.016036875545978546,1.4098904132843018,0.0,-0.00018850271590054035,0.7220357656478882,0.0,-0.008547870442271233
124.0,178.0,1.0421,-0.2171,9.4965,-0.0374,0.0278,-0.1213,-2.0340053043761195,0.0,4.021456718444824,-1.4114031791687012,-0.0,2.113914966583252,4.869343969016828,-0.0,0.29048237204551697,-1.6658929030047815,-0.0,0.009616808965802193,1.4098823070526123,0.0,0.003454265184700489,0.7220556735992432,0.0,-0.009742225520312786
124.0,178.0,1.0421,-0.2171,9.4965,-0.0374,0.0278,-0.1213,-2.034029623071188,0.0,4.0353684425354,-1.4113585948944092,-0.0,2.1083824634552,4.8693923381860635,-0.0,0.28593307733535767,-1.6659205595599573,-0.0,0.013739651069045067,1.409982442855835,0.0,0.0028657992370426655,0.7220596671104431,0.0,-0.002115827752277255
124.0,178.0,1.0421,-0.2171,9.4965,-0.0374,0.0278,-0.1213,-2.034013410607809,0.0,4.062916278839111,-1.411390781402588,-2.7887683481941927e-11,2.089324951171875,4.869359987765112,-0.0,0.28987380862236023,-1.665936295186178,-0.0,0.011850500479340553,1.4099628925323486,0.0,-7.960107177495956e-05,0.722075879573822,0.0,-0.014428769238293171
126.0,181.0,1.1109,-0.2596,9.4714,-0.04,0.0298,-0.1208,-2.034025808373922,0.0,4.033990859985352,-1.4114351272583008,-2.1819076167376283e-24,2.092320442199707,4.86933163085536,-0.0,0.28107836842536926,-1.6659367720233362,-0.0,0.00874974112957716,1.409942626953125,0.0,0.007277254015207291,0.7221118807792664,-1.4326072880072038e-12,-0.011595661751925945
126.0,181.0,1.1109,-0.2596,9.4714,-0.04,0.0298,-0.1208,-2.0340334377684535,0.0,4.0509843826293945,-1.4113545417785645,-1.707105397648702e-37,2.1030941009521484,4.869363653450765,-0.0,0.285122811794281,-1.665924374257223,-0.0,0.002294162753969431,1.4098780155181885,0.0,-0.00865358766168356,0.7220637202262878,-1.1208594266781295e-25,-0.023245859891176224
126.0,181.0,1.1109,-0.2596,9.4714,-0.04,0.0298,-0.1208,-2.034069677392477,0.0,4.031483173370361,-1.4113585948944092,-0.0,2.1086201667785645,4.8693279949720285,-0.0,0.29504233598709106,-1.6659043470965784,-0.0,0.006229716818779707,1.4098739624023438,0.0,0.0026255373377352953,0.7221197485923767,-6.536468566512501e-37,-0.000725792720913887
126.0,181.0,1.1109,-0.2596,9.4714,-0.04,0.0298,-0.1208,-2.0340177021422328,0.0,4.04368782043457,-1.4113991260528564,-0.0,2.1127982139587402,4.869332077890196,-0.0,0.3025926649570465,-1.6659444014178675,-0.0,0.00787431187927723,1.4099018573760986,0.0,-0.005267761647701263,0.7221078872680664,0.0,-0.017334118485450745
126.0,181.0,1.1109,-0.2596,9.4714,-0.04,0.0298,-0.1208,-2.034013410607809,0.0,4.04582405090332,-1.4113948345184326,-0.0,2.120569944381714,4.869404259115019,-0.0,0.27837562561035156,-1.665896240864889,-0.0,-0.000115229282528162,1.4098904132843018,0.0,0.0014307925011962652,0.7221397757530212,0.0,0.0007829051464796066
126.0,181.0,1.1109,-0.2596,9.4714,-0.04,0.0298,-0.1208,-2.0340334377684535,-1.168251801721143e-12,4.013515472412109,-1.411431074142456,-0.0,2.12957763671875,4.86936408558444,-0.0,0.28650882840156555,-1.6659567991839808,-0.0,0.0018244592938572168,1.4099587202072144,0.0,-0.012299555353820324,0.722079873085022,0.0,-0.0030245650559663773
126.0,181.0,1.1109,-0.2596,9.4714,-0.04,0.0298,-0.1208,-2.034093519250387,-6.812842591203845e-24,4.007999420166016,-1.411390781402588,-0.0,2.14607834815979,4.869311648398199,-0.0,0.28866341710090637,-1.6659167448626917,-0.0,0.006061111576855183,1.409909963607788,0.0,-0.0029778843745589256,0.722095787525177,0.0,0.005344325676560402
125.0,184.0,0.9296,-0.2327,9.5396,-0.0478,0.0221,-0.1162,-2.034025331536764,-5.330308872720192e-37,4.0785136222839355,-1.4114186763763428,-0.0,2.08892560005188,4.869347649603643,-0.0,0.29052865505218506,-1.665936295186178,-0.0,0.006365370005369186,1.409906029701233,0.0,-0.00828504003584385,0.7221157550811768,0.0,0.004157240502536297
125.0,184.0,0.9296,-0.2327,9.5396,-0.0478,0.0221,-0.1162,-2.034025808373922,0.0,4.051055908203125,-1.4113545417785645,-0.0,2.1023783683776855,4.86936408558444,-0.0,0.287494421005249,-1.6659606138812464,-0.0,0.008392218500375748,1.4099390506744385,0.0,-0.011349685490131378,0.7221038341522217,0.0,0.004696627147495747
125.0,184.0,0.9296,-0.2327,9.5396,-0.0478,0.0221,-0.1162,-2.0340496502318324,0.0,4.069141387939453,-1.4114031791687012,-0.0,2.102644443511963,4.8693923381860635,-0.0,0.28915420174598694,-1.6659405867206019,-0.0,-0.006001078989356756,1.4099225997924805,0.0,-0.00513043999671936,0.722091794013977,0.0,-0.031860753893852234
125.0,184.0,0.9296,-0.2327,9.5396,-0.0478,0.0221,-0.1162,-2.0340334377684535,0.0,4.012826919555664,-1.411346197128296,-0.0,2.085587501525879,4.869319799333372,-0.0,0.2870883047580719,-1.6659281889544886,-0.0,0.003954007755964994,1.4099469184875488,0.0,-0.007011066190898418,0.7220718860626221,0.0,-0.011075492948293686
125.0,184.0,0.9296,-0.2327,9.5396,-0.0478,0.0221,-0.1162,-2.0340334377684535,0.0,4.071229934692383,-1.4113712310791016,-0.0,2.109079599380493,4.869420695095815,-0.0,0.29398053884506226,-1.6659768263446253,-0.0,-0.003711571218445897,1.409886360168457,0.0,0.004146479070186615,0.7220556735992432,0.0,0.004124612547457218
125.0,184.0,0.9296,-0.2327,9.5396,-0.0478,0.0221,-0.1162,-2.034057756463522,0.0,4.037693500518799,-1.4114186763763428,-0.0,2.1455767154693604,4.869348066836157,-0.0,0.2887316644191742,-1.665952507649557,-0.0,0.0024133084807544947,1.4099469184875488,0.0,-0.006667000707238913,0.7220998406410217,0.0,-0.011352211236953735
125.0,184.0,0.9296,-0.2327,9.5396,-0.0478,0.0221,-0.1162,-2.0340177021422328,0.0,4.0652265548706055,-1.411390781402588,-0.0,2.1104509830474854,4.869359570532598,-0.0,0.28921011090278625,-1.6659324804889124,-0.0,0.00972718559205532,1.4099304676055908,0.0,-0.006596411112695932,0.7221357226371765,0.0,0.030163787305355072
128.0,177.0,0.8985,-0.1759,9.4505,-0.0351,0.0254,-0.117,-2.033985277215475,0.0,4.098042011260986,-1.411379337310791,-1.837595288607663e-14,2.1083126068115234,4.869327980070867,-0.0,0.2844676375389099,-1.6659167448626917,-0.0,0.013332427479326725,1.4098739624023438,0.0,-0.00021483651653397828,0.7220878005027771,0.0,-0.03809932619333267
128.0,177.0,0.8985,-0.1759,9.4505,-0.0351,0.0254,-0.117,-2.034081598321432,0.0,4.015783786773682,-1.4112941026687622,-1.4377184516577323e-27,2.1122796535491943,4.869380089431562,-0.0,0.28893154859542847,-1.6659811178790491,-0.0,0.007335497997701168,1.4099225997924805,0.0,-0.006205286830663681,0.7221038341522217,0.0,-0.014984779059886932
128.0,177.0,0.8985,-0.1759,9.4505,-0.0351,0.0254,-0.117,-2.03399719814443,0.0,4.014666557312012,-1.4113792181015015,-8.38427980031446e-39,2.1330065727233887,4.869388240366735,-0.0,0.292522132396698,-1.6659567991839808,-0.0,0.001711544580757618,1.409942626953125,0.0,0.009425826370716095,0.7221038341522217,0.0,-0.010881583206355572
128.0,177.0,0.8985,-0.1759,9.4505,-0.0351,0.0254,-0.117,-2.0340334377684535,0.0,4.041995048522949,-1.4113709926605225,-0.0,2.1070845127105713,4.869380089431562,-0.0,0.288786381483078,-1.6659324804889124,-0.0,0.006309645250439644,1.409886360168457,0.0,0.003131548408418894,0.7220718860626221,0.0,0.04494179040193558
128.0,177.0,0.8985,-0.1759,9.4505,-0.0351,0.0254,-0.117,-2.0340658626952113,0.0,3.983231544494629,-1.4113917350769043,-0.0,2.0684328079223633,4.869355904846945,-0.0,0.29000937938690186,-1.6659281889544886,-0.0,0.001267469604499638,1.4099023342132568,0.0,0.0007137411739677191,0.7221078276634216,0.0,-0.05022913217544556
128.0,177.0,0.8985,-0.1759,9.4505,-0.0351,0.0254,-0.117,-2.034030099908346,0.0,4.033814430236816,-1.4113752841949463,-0.0,2.0715086460113525,4.869404259115019,-0.0,0.2891845107078552,-1.6659205595599573,-0.0,0.01043533906340599,1.4099385738372803,0.0,0.0037056326400488615,0.722095787525177,0.0,0.021246476098895073
122.0,179.0,1.0696,-0.2321,9.3775,-0.0458,0.0345,-0.1257,-2.0340377293028773,0.0,4.04656982421875,-1.4113876819610596,-0.0,2.1312248706817627,4.869355904846945,-0.0,0.2861623167991638,-1.665924374257223,-0.0,0.012596403248608112,1.4099348783493042,0.0,-0.012352539226412773,0.722095787525177,0.0,0.023570183664560318
122.0,179.0,1.0696,-0.2321,9.3775,-0.0458,0.0345,-0.1257,-2.0340339146056117,0.0,4.054437160491943,-1.4114112854003906,-0.0,2.0859556198120117,4.8693764237459085,-0.0,0.29047706723213196,-1.6659324804889124,-0.0,0.009772230871021748,1.4099583625793457,0.0,0.006937508936971426,0.7221078276634216,0.0,-0.0381380170583725
122.0,179.0,1.0696,-0.2321,9.3775,-0.0458,0.0345,-0.1257,-2.0340215168394984,3.7964073271723464e-05,4.043859958648682,-1.4113390445709229,-0.0,2.1240100860595703,4.8693439839179895,-0.0,0.28811872005462646,-1.6659811178790491,-0.0,0.002057683188468218,1.409906029701233,0.0,-0.007147317752242088,0.7220918536186218,0.0,0.026452045887708664
122.0,179.0,1.0696,-0.2321,9.3775,-0.0458,0.0345,-0.1257,-2.0340739689269007,3.3722506486810744e-05,4.0264434814453125,-1.411346197128296,-0.0,2.07853102684021,4.869376006513395,-0.0,0.28928837180137634,-1.6659849325763147,-0.0,0.007577931508421898,1.4099586009979248,0.0,-0.0019243609858676791,0.722079873085022,5.7605593610787764e-05,-0.027068322524428368
122.0,179.0,1.0696,-0.2321,9.3775,-0.0458,0.0345,-0.1257,-2.0340620479979457,1.490651357016759e-05,4.03924560546875,-1.411447525024414,-0.0,2.1069350242614746,4.869327980070867,-0.0,0.30158501863479614,-1.6659610907184046,-0.0,-6.865337491035461e-05,1.4099345207214355,0.0,-0.006843822076916695,0.722035825252533,5.405283425713447e-13,0.031163543462753296
122.0,179.0,1.0696,-0.2321,9.3775,-0.0458,0.0345,-0.1257,-2.034025331536764,1.3357751413423102e-05,4.063289642333984,-1.411415457725525,-0.0,2.1197431087493896,4.8693439839179895,-0.0,0.29610902070999146,-1.665952507649557,-0.0,0.0021004348527640104,1.4099019765853882,0.0,-0.009429815225303173,0.7220879197120667,4.229046335034912e-26,-0.007604438811540604
122.0,179.0,1.0696,-0.2321,9.3775,-0.0458,0.0345,-0.1257,-2.034013410607809,1.2265509212738834e-05,4.023801326751709,-1.4113867282867432,2.1313077013473958e-05,2.0695793628692627,4.869327980070867,-0.0,0.29241472482681274,-1.665924374257223,-0.0,0.0008660410530865192,1.4099185466766357,0.0,0.0028190026059746742,0.7220759391784668,2.466234626259208e-37,0.025228455662727356
125.0,178.0,1.0475,-0.1896,9.4851,-0.0319,0.0208,-0.1176,-2.0339933834471644,2.0669088662828017e-09,4.028557777404785,-1.4113917350769043,7.822559382475447e-07,2.1030659675598145,4.869352239161291,-0.0,0.2927503287792206,-1.6659405867206019,-0.0,0.0009582739439792931,1.4099668264389038,0.0,0.013988997787237167,0.7220517992973328,-0.00044049861025996506,-0.030342726036906242
125.0,178.0,1.0475,-0.1896,9.4851,-0.0319,0.0208,-0.1176,-2.033985277215475,1.6171314080006928e-22,4.070479393005371,-1.4114155769348145,6.120301597461609e-20,2.1147518157958984,4.869295674353399,-0.0,0.29183778166770935,-1.6659329573260706,-0.0,0.003346763551235199,1.409938931465149,0.0,-0.007135786581784487,0.7220278382301331,-0.0005768570699729025,-0.004970911890268326
125.0,178.0,1.0475,-0.1896,9.4851,-0.0319,0.0208,-0.1176,-2.034053941766256,9.430554958040462e-34,4.06160831451416,-1.411390781402588,3.5691502060175293e-31,2.112785816192627,4.869339900999822,-0.0,0.3037438988685608,-1.665936295186178,-0.0,0.012611806392669678,1.4099467992782593,0.0,-0.011196121573448181,0.722035825252533,-0.0005686365766450763,0.03804188221693039
125.0,178.0,1.0475,-0.1896,9.4851,-0.0319,0.0208,-0.1176,-2.034057756463522,0.0,4.036856174468994,-1.4113504886627197,2.802596928649634e-44,2.1482748985290527,4.869372340827741,-0.0,0.2986448407173157,-1.6659444014178675,-0.0,0.01218667346984148,1.40995454788208,0.0,-0.0004230865743011236,0.7219918370246887,-0.0007767011411488056,-0.031238265335559845
125.0,178.0,1.0475,-0.1896,9.4851,-0.0319,0.0208,-0.1176,-2.034069677392477,0.0,4.077503204345703,-1.4113545417785645,-0.0,2.1179003715515137,4.869339900999822,-0.0,0.31073492765426636,-1.665908161793844,-0.0,-0.00496096583083272,1.409906029701233,0.0,-0.0008151570800691843,0.7220398187637329,-0.0004775825946126133,-0.023817874491214752
125.0,178.0,1.0475,-0.1896,9.4851,-0.0319,0.0208,-0.1176,-2.0340177021422328,0.0,4.02738618850708,-1.4113585948944092,-0.0,2.1210834980010986,4.86931166329936,-0.0,0.2931171953678131,-1.665952507649557,-0.0,0.001788474852219224,1.4098938703536987,0.0,-0.0034984182566404343,0.7220157980918884,-0.0002949447080027312,0.015524034388363361
125.0,178.0,1.0475,-0.1896,9.4851,-0.0319,0.0208,-0.1176,-2.0339814625182093,0.0,4.050254821777344,-1.4113750457763672,-0.0,2.086231231689453,4.869332062989034,-0.0,0.3041810095310211,-1.6659730116473597,-0.0,0.006043776869773865,1.4099183082580566,0.0,0.006391426548361778,0.7219758629798889,-0.0001894946035463363,0.005143333692103624
125.0,181.0,1.0552,-0.2776,9.0497,-0.0374,0.0373,-0.1303,-2.034013410607809,0.0,4.093494892120361,-1.4113669395446777,-0.0,2.0881481170654297,4.869355904846945,-0.0,0.28287792205810547,-1.6659811178790491,-0.0,0.013044033199548721,1.4099668264389038,0.0,-0.004374381620436907,0.7220437526702881,-8.637303835712373e-05,-0.04109194502234459
125.0,181.0,1.0552,-0.2776,9.0497,-0.0374,0.0373,-0.1303,-2.0340177021422328,0.0,4.0087409019470215,-1.4113876819610596,-0.0,2.10404634475708,4.869348066836157,-0.0,0.289162278175354,-1.6659610907184046,-0.0,0.0007089130813255906,1.4099987745285034,0.0,-0.009384358301758766,0.7220156192779541,0.0001299208524869755,-0.029949046671390533
125.0,181.0,1.0552,-0.2776,9.0497,-0.0374,0.0373,-0.1303,-2.0340053043761195,0.0,4.031600475311279,-1.4113669395446777,-1.2742205399263185e-05,2.0784640312194824,4.869352239161291,-0.0,0.2884727120399475,-1.6659401098834437,-0.0,0.007741168607026339,1.4099708795547485,0.0,0.0031296086963266134,0.7220557928085327,0.0004950062721036375,-0.0012090466916561127
125.0,181.0,1.0552,-0.2776,9.0497,-0.0374,0.0373,-0.1303,-2.0340453586974085,0.0,4.03934383392334,-1.4113752841949463,-1.1593270755838603e-05,2.103714942932129,4.869291546731748,-0.0,0.2852984368801117,-1.665936295186178,-0.0,0.014705554582178593,1.4099023342132568,0.0,0.00011785910464823246,0.7220677137374878,0.0003770347102545202,-0.012947700917720795
125.0,181.0,1.0552,-0.2776,9.0497,-0.0374,0.0373,-0.1303,-2.0340458355345667,0.0,4.082860469818115,-1.411390781402588,-1.0634392310748808e-05,2.0879063606262207,4.869327980070867,-0.0,0.2921593189239502,-1.6659649054156702,-0.0,0.020603282377123833,1.4099024534225464,0.0,0.007198362611234188,0.7220478057861328,0.00025325719616375864,-0.028861992061138153
125.0,181.0,1.0552,-0.2776,9.0497,-0.0374,0.0373,-0.1303,-2.034053464929098,0.0,4.050448417663574,-1.4113184213638306,-9.930377018463332e-06,2.108867645263672,4.8692956296499155,-0.0,0.29149216413497925,-1.6659167448626917,-0.0,0.0005215387791395187,1.4099019765853882,0.0,-0.009967926889657974,0.7220839262008667,0.00019627968140412122,-0.02243017964065075
121.0,186.0,1.1085,-0.1836,9.4708,-0.035,0.0269,-0.1121,-2.0340215168394984,0.0,4.11333703994751,-1.4113024473190308,-7.769440727963041e-19,2.0774307250976562,4.869368213206091,-0.0,0.29729583859443665,-1.6659162680255335,-0.0,0.011298343539237976,1.4099586009979248,0.0,-0.0014192959060892463,0.7220437526702881,5.7692930568009615e-05,-0.006734316702932119
121.0,186.0,1.1085,-0.1836,9.4708,-0.035,0.0269,-0.1121,-2.0340377293028773,0.0,4.048470497131348,-1.4113669395446777,-6.078741660100756e-32,2.0969319343566895,4.86929606178359,-0.0,0.2958601117134094,-1.6658762137042444,-0.0,-0.0005746694514527917,1.4099787473678589,0.0,-0.005499623715877533,0.7220637202262878,4.712078953161836e-05,-0.039813730865716934
121.0,186.0,1.1085,-0.1836,9.4708,-0.035,0.0269,-0.1121,-2.034053941766256,0.0,4.027604579925537,-1.4113991260528564,-4.203895392974451e-45,2.0941476821899414,4.869315746217527,-0.0,0.29180917143821716,-1.6659606138812464,-0.0,-0.0005877269431948662,1.4099586009979248,0.0,-0.0003868832136504352,0.7220199704170227,3.982322596129961e-05,-0.02370649203658104
121.0,186.0,1.1085,-0.1836,9.4708,-0.035,0.0269,-0.1121,-2.0340177021422328,0.0,4.050319194793701,-1.4113876819610596,-0.0,2.0936264991760254,4.869299742370405,-0.0,0.2988417446613312,-1.6659043470965784,-0.0,-0.002999907359480858,1.4099184274673462,0.0,0.0007376475259661674,0.722047746181488,3.515645585139282e-05,-0.00367383798584342
121.0,186.0,1.1085,-0.1836,9.4708,-0.035,0.0269,-0.1121,-2.0340658626952113,0.0,4.065354347229004,-1.4113669395446777,-0.0,2.0837934017181396,4.869307982712545,-0.0,0.29039478302001953,-1.6659405867206019,-0.0,0.012946626171469688,1.409974455833435,0.0,-0.012321317568421364,0.7220677137374878,3.092804763582535e-05,-0.028808701783418655
121.0,186.0,1.1085,-0.1836,9.4708,-0.035,0.0269,-0.1121,-2.0340496502318324,0.0,4.019444465637207,-1.4113545417785645,-0.0,2.155961036682129,4.86932401636199,-0.0,0.29237186908721924,-1.6659367720233362,-0.0,0.00782847311347723,1.4099467992782593,0.0,-0.009552170522511005,0.722047746181488,4.141048702877015e-05,0.013807306997478008
121.0,186.0,1.1085,-0.1836,9.4708,-0.035,0.0269,-0.1121,-2.0340215168394984,0.0,3.9976072311401367,-1.4113340377807617,-0.0,2.124363899230957,4.86936408558444,-0.0,0.291360080242157,-1.6659324804889124,-0.0,0.010930499993264675,1.409906029701233,0.0,0.005891708191484213,0.7220438718795776,5.0559880037326366e-05,-0.00954574067145586
124.0,180.0,0.9679,-0.2387,9.4786,-0.0379,0.0269,-0.126,-2.03399719814443,0.0,4.033941745758057,-1.411379337310791,-0.0,2.1322150230407715,4.869352239161291,-0.0,0.29444608092308044,-1.6659401098834437,-0.0,0.006211244035512209,1.4099946022033691,0.0,0.006922622676938772,0.7221117615699768,5.172970486455597e-05,-0.010154180228710175
124.0,180.0,0.9679,-0.2387,9.4786,-0.0379,0.0269,-0.126,-2.0340334377684535,0.0,4.06327486038208,-1.4114155769348145,-0.0,2.1072776317596436,4.869275602489271,-0.0,0.2894052267074585,-1.6659205595599573,-0.0,0.020811397582292557,1.409942626953125,0.0,-0.012479659169912338,0.722079873085022,7.632681081304327e-05,0.011452622711658478
124.0,180.0,0.9679,-0.2387,9.4786,-0.0379,0.0269,-0.126,-2.034042020837301,0.0,4.013462543487549,-1.411379337310791,-0.0,2.067411422729492,4.869323986559667,-0.0,0.30118948221206665,-1.6659324804889124,-0.0,0.0023754239082336426,1.4099626541137695,0.0,-0.004219618160277605,0.7220838665962219,0.00030698778573423624,0.0127925556153059
124.0,180.0,0.9679,-0.2387,9.4786,-0.0379,0.0269,-0.126,-2.0340777836241664,0.0,4.0220746994018555,-1.411379337310791,-0.0,2.1272459030151367,4.8693362204130075,-0.0,0.3026772439479828,-1.6659567991839808,-0.0,0.0018278395291417837,1.4099266529083252,0.0,0.005959981121122837,0.7220079302787781,0.0002289024123456329,0.04683414101600647
124.0,180.0,0.9679,-0.2387,9.4786,-0.0379,0.0269,-0.126,-2.0340334377684535,0.0,4.064931869506836,-1.411346197128296,-0.0,2.1634485721588135,4.8693199036415,-0.0,0.29229089617729187,-1.6659167448626917,-0.0,-0.0015527629293501377,1.4098742008209229,0.0,-0.01958470046520233,0.722091794013977,0.0001765217020874843,0.01744209975004196
124.0,180.0,0.9679,-0.2387,9.4786,-0.0379,0.0269,-0.126,-2.0340334377684535,0.0,3.995777130126953,-1.411362648010254,-0.0,2.102407455444336,4.869376379042425,-0.0,0.29553526639938354,-1.6659167448626917,-0.0,0.0037228353321552277,1.4099584817886353,0.0,-0.003939906135201454,0.7220438122749329,0.0001197132733068429,-0.028547555208206177
124.0,180.0,0.9679,-0.2387,9.4786,-0.0379,0.0269,-0.126,-2.034053941766256,0.0,4.021008491516113,-1.411346197128296,-0.0,2.0782289505004883,4.869323971658506,-0.0,0.29208824038505554,-1.6659286657916468,-0.0,0.007921590469777584,1.4098780155181885,0.0,0.0029004141688346863,0.722067654132843,0.00010323166497983038,-0.02718801237642765
126.0,175.0,1.1055,-0.2536,9.53,-0.0388,0.0269,-0.12,-2.034093519250387,0.0,4.078948020935059,-1.4113504886627197,-0.0,2.1113264560699463,4.8693199036415,-0.0,0.29226312041282654,-1.6659486929522913,-0.0,0.0014708832604810596,1.4099584817886353,0.0,-0.006317640654742718,0.7221158146858215,7.115858898032457e-05,-0.011617369018495083
126.0,175.0,1.1055,-0.2536,9.53,-0.0388,0.0269,-0.12,-2.0340496502318324,0.0,4.092596054077148,-1.4113504886627197,-0.0,2.0760514736175537,4.8693199036415,-0.0,0.29563629627227783,-1.665936295186178,-0.0,0.01706610433757305,1.4099345207214355,0.0,-0.0066069853492081165,0.7220397591590881,4.688231274485588e-05,-0.016993867233395576
126.0,175.0,1.1055,-0.2536,9.53,-0.0388,0.0269,-0.12,-2.0340453586974085,0.0,3.993917942047119,-1.4113545417785645,-0.0,2.131465435028076,4.869323986559667,-0.0,0.2859016954898834,-1.6658766905414026,-0.0,0.01564670540392399,1.40995454788208,0.0,-0.0013366888742893934,0.7220557928085327,-5.130575300427154e-05,9.451806545257568e-05
126.0,175.0,1.1055,-0.2536,9.53,-0.0388,0.0269,-0.12,-2.034057756463522,0.0,4.0378265380859375,-1.4113709926605225,-0.0,2.079634189605713,4.869307982712545,-0.0,0.28843796253204346,-1.6659324804889124,-0.0,0.0004796421271748841,1.4099507331848145,0.0,-0.011462456546723843,0.722011923789978,-4.5285083615453914e-05,-0.004625565372407436
126.0,175.0,1.1055,-0.2536,9.53,-0.0388,0.0269,-0.12,-2.0340215168394984,0.0,4.035429000854492,-1.4113876819610596,-0.0,2.1458587646484375,4.869303884893217,-0.0,0.2926165461540222,-1.6659167448626917,-0.0,-0.002825080882757902,1.4099904298782349,0.0,0.0019554332830011845,0.7220556735992432,-2.8594577088369988e-05,-0.03654569387435913
126.0,175.0,1.1055,-0.2536,9.53,-0.0388,0.0269,-0.12,-2.0340053043761195,0.0,4.059673309326172,-1.4113225936889648,-0.0,2.1062023639678955,4.869299742370405,-0.0,0.28213584423065186,-1.6659205595599573,-0.0,-0.006027571391314268,1.4099467992782593,0.0,-0.00037309795152395964,0.7221357226371765,-1.9392041750165845e-08,-0.012599042616784573
122.0,181.0,0.8584,-0.4205,9.4834,-0.0431,0.029,-0.1222,-2.034057756463522,-4.308296774890863e-10,4.021867752075195,-1.411379337310791,-0.0,2.120452880859375,4.869332062989034,-0.0,0.2827206552028656,-1.6659405867206019,-0.0,0.008305663242936134,1.4099345207214355,0.0,0.006486722733825445,0.7221436500549316,9.617371688364074e-05,0.01755412109196186
122.0,181.0,0.8584,-0.4205,9.4834,-0.0431,0.029,-0.1222,-2.034013410607809,-3.370772986839347e-23,4.041440010070801,-1.4113266468048096,-0.0,2.123260259628296,4.869291591435232,-0.0,0.296169638633728,-1.665908161793844,-0.0,0.010053972713649273,1.4099146127700806,0.0,-0.001900632050819695,0.7221037745475769,0.0012415210949257016,-0.01298104040324688
122.0,181.0,0.8584,-0.4205,9.4834,-0.0431,0.029,-0.1222,-2.0339695415892542,0.0002752580330707133,4.02477502822876,-1.4113390445709229,-0.0,2.1567132472991943,4.86930342295722,-0.0,0.29875120520591736,-1.6659124533282679,-0.0,-0.003994910046458244,1.4100022315979004,0.0,0.012588068842887878,0.7221596837043762,0.0009634433081373572,-0.006037925370037556
122.0,181.0,0.8584,-0.4205,9.4834,-0.0431,0.029,-0.1222,-2.0340057812132777,0.00028183870017528534,4.054190635681152,-1.4113668203353882,-0.0,2.105247974395752,4.869339886098661,-0.0,0.2944659888744354,-1.6659124533282679,-0.0,-0.002858964493498206,1.4098821878433228,0.0,-0.007578464690595865,0.7221317887306213,0.0008998282137326896,-0.03406301140785217
122.0,181.0,0.8584,-0.4205,9.4834,-0.0431,0.029,-0.1222,-2.033985277215475,0.00021466355246957392,4.05057954788208,-1.411298155784607,-0.0,2.093000888824463,4.869364040880956,-0.0,0.2861231565475464,-1.665924374257223,-0.0,0.0018566889921203256,1.40995454788208,0.0,0.00521157868206501,0.722159743309021,0.0008263030904345214,0.008807584643363953
122.0,181.0,0.8584,-0.4205,9.4834,-0.0431,0.029,-0.1222,-2.033989568749899,8.098762918962166e-05,4.055891036987305,-1.4113349914550781,-0.0,2.121912956237793,4.8694366095359705,-0.0,0.30145037174224854,-1.6659162680255335,-0.0,0.007077362854033709,1.4099225997924805,0.0,-0.008438920602202415,0.7221716642379761,0.0006617214530706406,-0.002814686391502619
122.0,181.0,0.8584,-0.4205,9.4834,-0.0431,0.029,-0.1222,-2.0340458355345667,3.1936167943058535e-05,4.040832996368408,-1.4113225936889648,-0.0,2.1437277793884277,4.86931166329936,-0.0,0.29475635290145874,-1.665980641041891,-0.0,0.0013164670672267675,1.4099146127700806,0.0,-0.0009113716660067439,0.7222158312797546,0.0004217505920678377,0.00812183041125536
126.0,176.0,0.9398,-0.0018,9.3625,-0.0316,0.0189,-0.11,-2.0340053043761195,2.5548064513714053e-05,4.054544448852539,-1.4113668203353882,-0.0,2.1017801761627197,4.869332048087873,-0.0,0.2911706864833832,-1.6658957640277308,-0.0,0.005940945353358984,1.4099266529083252,0.0,0.006027426570653915,0.7221959233283997,0.00023261418391484767,0.045511387288570404
126.0,176.0,0.9398,-0.0018,9.3625,-0.0316,0.0189,-0.11,-2.034042020837301,4.227307976290126e-16,4.047736167907715,-1.4113024473190308,-0.0,2.096343994140625,4.869315746217527,-0.0,0.2962720990180969,-1.665936295186178,-0.0,0.006001604720950127,1.4099061489105225,0.0,-0.013813052326440811,0.7222236394882202,0.00010078064951812848,-0.02882438525557518
126.0,176.0,0.9398,-0.0018,9.3625,-0.0316,0.0189,-0.11,-2.034025808373922,3.3074082203662606e-29,3.993834972381592,-1.4113471508026123,-0.0,2.0864923000335693,4.869340348034658,-0.0,0.3027067482471466,-1.6660006682025355,-0.0,0.004930648021399975,1.4099664688110352,0.0,-0.0061130463145673275,0.7221159338951111,-0.00012374039215501398,-0.012027250602841377
126.0,176.0,0.9398,-0.0018,9.3625,-0.0316,0.0189,-0.11,-2.0340334377684535,1.9287612192813215e-40,4.053989410400391,-1.4113225936889648,-0.0,2.1124227046966553,4.869307997613706,-0.0,0.2889810800552368,-1.6659811178790491,-0.0,0.0027371442411094904,1.4099663496017456,0.0,-0.0031309479381889105,0.7221397161483765,-0.00012881768634542823,0.07709280401468277
126.0,176.0,0.9398,-0.0018,9.3625,-0.0316,0.0189,-0.11,-2.0340215168394984,0.0,4.0433783531188965,-1.4113430976867676,2.601354026410263e-05,2.0707449913024902,4.869340303331175,-0.0,0.28071436285972595,-1.6659486929522913,-0.0,0.014405271038413048,1.4099020957946777,0.0,0.0014730470720678568,0.7221835255622864,-0.0003401794529054314,-0.009173473343253136
126.0,176.0,0.9398,-0.0018,9.3625,-0.0316,0.0189,-0.11,-2.034069677392477,0.0,4.036747455596924,-1.411379337310791,2.3623731976840645e-05,2.1228439807891846,4.869328084378996,-0.0,0.29155057668685913,-1.665936295186178,-0.0,-0.00639943964779377,1.4099544286727905,0.0,-0.006753206718713045,0.7221238613128662,-0.00038400254561565816,-0.005451326258480549
126.0,176.0,0.9398,-0.0018,9.3625,-0.0316,0.0189,-0.11,-2.033961435357565,0.0,3.991612434387207,-1.4113390445709229,1.0949645002256148e-05,2.1183481216430664,4.8693039295967,-0.0,0.2923904061317444,-1.6659401098834437,-0.0,0.004485213663429022,1.4099465608596802,0.0,0.0016352003440260887,0.7221317887306213,-0.00034347103792242706,0.049072809517383575
124.0,174.0,1.1779,-0.3577,9.5264,-0.0452,0.0174,-0.1171,-2.034053941766256,0.0,4.036802291870117,-1.4113184213638306,1.009033621812705e-05,2.133695363998413,4.869344416051664,-0.0,0.28460800647735596,-1.6659811178790491,-0.0,0.003634326858446002,1.4099624156951904,0.0,0.00236513395793736,0.7221118211746216,-0.00026945036370307207,-0.010751087218523026
124.0,174.0,1.1779,-0.3577,9.5264,-0.0452,0.0174,-0.1171,-2.034030099908346,0.0,4.043617248535156,-1.4113585948944092,4.996188899270416e-16,2.133622169494629,4.869340333133497,-0.0,0.29611411690711975,-1.6659200827227991,-0.0,0.0037280921824276447,1.40992271900177,0.0,0.0007142685353755951,0.7221516370773315,-0.00022783488384447992,0.0025892509147524834
124.0,174.0,1.1779,-0.3577,9.5264,-0.0452,0.0174,-0.1171,-2.033985277215475,0.0,4.022905349731445,-1.411379337310791,3.908973341275275e-29,2.108555793762207,4.869348066836157,-0.0,0.3060881197452545,-1.665936295186178,-0.0,0.007142543792724609,1.4099061489105225,0.0,0.002310243435204029,0.7220879197120667,-0.00017588591435924172,0.0009945910423994064
124.0,174.0,1.1779,-0.3577,9.5264,-0.0452,0.0174,-0.1171,-2.034025331536764,0.0,4.002893924713135,-1.4113545417785645,2.2795762898250394e-40,2.1352906227111816,4.869323882251539,-0.0,0.2951506972312927,-1.6659162680255335,-0.0,-0.0009678911883383989,1.4099504947662354,0.0,-0.0021028639748692513,0.7220999002456665,-0.0001226097665494308,0.024592526257038116
124.0,174.0,1.1779,-0.3577,9.5264,-0.0452,0.0174,-0.1171,-2.0340377293028773,0.0,4.059316635131836,-1.411314606666565,-0.0,2.144550323486328,4.869303914695539,-0.0,0.29758089780807495,-1.6659887472735804,-0.0,-0.009713676758110523,1.4099385738372803,0.0,-0.006155091337859631,0.7220919132232666,-8.237629663199186e-05,0.010302883572876453
124.0,174.0,1.1779,-0.3577,9.5264,-0.0452,0.0174,-0.1171,-2.034025331536764,0.0,4.100869655609131,-1.411407232284546,-0.0,2.048564910888672,4.869299757271566,-0.0,0.295547753572464,-1.6659649054156702,-0.0,0.009626243263483047,1.4099266529083252,0.0,0.009358450770378113,0.722163736820221,-7.100331276888028e-05,0.028734222054481506
122.0,185.0,1.0481,-0.1484,9.3194,-0.0409,0.0228,-0.1139,-2.034081598321432,-6.148582178866491e-05,4.0394110679626465,-1.4113266468048096,-0.0,2.128545045852661,4.869263621955671,-0.0,0.29127296805381775,-1.6659444014178675,-0.0,0.011038449592888355,1.4099704027175903,0.0,-0.005739610176533461,0.7220958471298218,-2.0738432795042172e-05,-0.02491532266139984
122.0,185.0,1.0481,-0.1484,9.3194,-0.0409,0.0228,-0.1139,-2.034081598321432,-5.611878805211745e-05,4.053375244140625,-1.4113669395446777,-0.0,2.1249828338623047,4.869303527265348,-0.0,0.28840526938438416,-1.6659649054156702,-0.0,0.0009485814953222871,1.4099504947662354,0.0,-0.010475211776793003,0.7220478057861328,-5.357351619750261e-05,-0.05787567049264908
122.0,185.0,1.0481,-0.1484,9.3194,-0.0409,0.0228,-0.1139,-2.034029623071188,-6.193590525072068e-05,4.034084320068359,-1.4113504886627197,-0.0,2.1622371673583984,4.869343969016828,-0.0,0.28122031688690186,-1.6659401098834437,-0.0,0.010952241718769073,1.4098743200302124,0.0,0.0037750829942524433,0.722079873085022,-0.0002329224516870454,0.029519887641072273
122.0,185.0,1.0481,-0.1484,9.3194,-0.0409,0.0228,-0.1139,-2.0340334377684535,-1.0586410637003496e-09,4.0726447105407715,-1.4113266468048096,-0.0,2.0986883640289307,4.869332062989034,-0.0,0.2825697064399719,-1.6659124533282679,-0.0,-0.0019625527784228325,1.4099626541137695,0.0,0.007171049248427153,0.7221117615699768,-0.00022909398830961436,-0.05214700847864151
122.0,185.0,1.0481,-0.1484,9.3194,-0.0409,0.0228,-0.1139,-2.0340177021422328,-8.282715125216397e-23,4.025531768798828,-1.4113390445709229,-0.0,2.142190456390381,4.869327980070867,-0.0,0.3101556897163391,-1.665952507649557,-0.0,0.007836884818971157,1.40992271900177,0.0,-0.004110712092369795,0.7220557928085327,-0.000235514176893048,-0.04917830601334572
122.0,185.0,1.0481,-0.1484,9.3194,-0.0409,0.0228,-0.1139,-2.034069677392477,-6.480322998781316e-36,4.053535461425781,-1.411415457725525,-0.0,2.0780394077301025,4.869299727469244,-0.0,0.29938891530036926,-1.6659043470965784,-0.0,0.013550439849495888,1.4099507331848145,0.0,-0.009950559586286545,0.7220878601074219,-0.00021760475647170097,0.026472415775060654
122.0,185.0,1.0481,-0.1484,9.3194,-0.0409,0.0228,-0.1139,-2.034053941766256,0.0,4.026503562927246,-1.4113709926605225,-0.0,2.0887131690979004,4.869319799333372,-0.0,0.29556387662887573,-1.6659401098834437,-0.0,0.00593840517103672,1.4099465608596802,0.0,-0.001257493393495679,0.722091794013977,-0.00016325766046065837,0.0011814618483185768
125.0,179.0,0.9482,-0.1878,9.3673,-0.0328,0.0281,-0.12,-2.0340615711607875,0.0,4.029690742492676,-1.4113545417785645,-0.0,2.1057257652282715,4.869352239161291,-0.0,0.29751303791999817,-1.6659200827227991,-0.0,0.009641308337450027,1.4099584817886353,0.0,-0.00502953864634037,0.7220677137374878,-0.0001340721209999174,-0.015704672783613205
125.0,179.0,0.9482,-0.1878,9.3673,-0.0328,0.0281,-0.12,-2.034069677392477,0.0,4.041586875915527,-1.4113504886627197,-0.0,2.1317262649536133,4.8693439839179895,-0.0,0.29264774918556213,-1.6659768263446253,-0.0,-0.003237085184082389,1.4099061489105225,0.0,-0.011311016976833344,0.722079873085022,-0.00011093544162577018,0.004433382302522659
125.0,179.0,0.9482,-0.1878,9.3673,-0.0328,0.0281,-0.12,-2.034013410607809,0.0,4.0396904945373535,-1.4113752841949463,-0.0,2.1230881214141846,4.869315731316366,-0.0,0.2890878915786743,-1.6659444014178675,-0.0,0.006597650237381458,1.4099743366241455,0.0,-0.010260719805955887,0.7220434546470642,-0.00011353105946909636,-0.010914526879787445
125.0,179.0,0.9482,-0.1878,9.3673,-0.0328,0.0281,-0.12,-2.0340658626952113,0.0,4.001657485961914,-1.4114031791687012,-0.0,2.07831072807312,4.869299727469244,-0.0,0.293419748544693,-1.6659444014178675,-0.0,0.016168102622032166,1.4099466800689697,0.0,0.0032943780533969402,0.7220553755760193,-0.0001008139006444253,0.05208376422524452
125.0,179.0,0.9482,-0.1878,9.3673,-0.0328,0.0281,-0.12,-2.034069677392477,0.0,4.06047248840332,-1.4113585948944092,-0.0,2.107481002807617,4.8692956296499155,-0.0,0.2852569818496704,-1.6659281889544886,-0.0,0.007349384017288685,1.4099425077438354,0.0,-0.006239277310669422,0.722168505191803,-8.91618910827674e-05,0.042652979493141174
125.0,179.0,0.9482,-0.1878,9.3673,-0.0328,0.0281,-0.12,-2.0340782604613246,0.0,4.0661115646362305,-1.4113876819610596,-0.0,2.1277801990509033,4.869299727469244,-0.0,0.28942304849624634,-1.6659401098834437,-0.0,-0.005658615846186876,1.4099147319793701,0.0,-0.001763955457136035,0.7220594882965088,-7.992434257175773e-05,0.01111697033047676
125.0,179.0,0.9482,-0.1878,9.3673,-0.0328,0.0281,-0.12,-2.0340377293028773,0.0,4.028048992156982,-1.4113390445709229,-0.0,2.108687400817871,4.869299727469244,-0.0,0.29371893405914307,-1.6659324804889124,-0.0,0.012339864857494831,1.4099546670913696,0.0,-0.0033610351383686066,0.7220922708511353,-7.340566662605852e-05,0.0030240435153245926
125.0,178.0,1.1737,-0.2889,9.3876,-0.0377,0.0208,-0.1206,-2.0340377293028773,0.0,4.077738285064697,-1.411439299583435,-0.0,2.0997257232666016,4.869299727469244,-0.0,0.29724645614624023,-1.6659687201129358,-0.0,0.001879652962088585,1.4099544286727905,0.0,0.0072738840244710445,0.722079873085022,-7.819892198313028e-05,-0.01880711317062378
125.0,178.0,1.1737,-0.2889,9.3876,-0.0377,0.0208,-0.1206,-2.03399719814443,0.0,3.9893317222595215,-1.4114031791687012,-0.0,2.063480854034424,4.869336235314169,-0.0,0.29080402851104736,-1.6659849325763147,-0.0,0.003614946734160185,1.4099425077438354,0.0,-0.011234190315008163,0.7221079468727112,-7.19477393431589e-05,-0.01197846233844757
125.0,178.0,1.1737,-0.2889,9.3876,-0.0377,0.0208,-0.1206,-2.0340496502318324,0.0,4.019150257110596,-1.4113948345184326,-0.0,2.1064043045043945,4.869315731316366,-0.0,0.2854365110397339,-1.6659200827227991,-0.0,0.004259143956005573,1.4099465608596802,0.0,0.0022353408858180046,0.7221000790596008,-2.2537993606824847e-12,-0.016685711219906807
125.0,178.0,1.1737,-0.2889,9.3876,-0.0377,0.0208,-0.1206,-2.0340615711607875,0.0,4.042035102844238,-1.4113876819610596,-0.0,2.117337703704834,4.869315731316366,-0.0,0.298154354095459,-1.6659768263446253,-0.0,0.007899755612015724,1.4099061489105225,0.0,-0.010583573952317238,0.722116231918335,-1.3143384302425521e-23,-0.06439156830310822
125.0,178.0,1.1737,-0.2889,9.3876,-0.0377,0.0208,-0.1206,-2.0340734920897425,0.0,4.045384407043457,-1.4114031791687012,-0.0,2.107637405395508,4.869352239161291,-0.0,0.2906852066516876,-1.665896240864889,-0.0,-0.006670941598713398,1.4099504947662354,0.0,-0.0016264461446553469,0.7220677137374878,-2.052040508715436e-05,-0.02932659536600113
125.0,178.0,1.1737,-0.2889,9.3876,-0.0377,0.0208,-0.1206,-2.0341016254820765,0.0,4.066470623016357,-1.4113627672195435,-0.0,2.089151382446289,4.869348066836157,-0.0,0.2937137186527252,-1.6659324804889124,-0.0,0.0019225012511014938,1.4099386930465698,0.0,0.011699163354933262,0.7220677137374878,-6.428495431289039e-13,-0.027628539130091667
128.0,187.0,0.8572,-0.253,9.6197,-0.035,0.022,-0.1155,-2.034053941766256,0.0,4.06442928314209,-1.4113876819610596,-0.0,2.1390271186828613,4.869340318232336,-0.0,0.3034035563468933,-1.665936295186178,-0.0,0.011401512660086155,1.4099022150039673,0.0,-0.004232474602758884,0.7220876812934875,-3.7488772530414895e-24,-0.0022993478924036026
128.0,187.0,0.8572,-0.253,9.6197,-0.035,0.022,-0.1155,-2.034081598321432,0.0,4.06061315536499,-1.4114186763763428,-0.0,2.1366195678710938,4.869319888740339,-0.0,0.2926609218120575,-1.6659320036517542,-0.0,0.0020165906753391027,1.409874439239502,0.0,0.004676556680351496,0.722091794013977,-2.9330883079328583e-37,0.004174996167421341
128.0,187.0,0.8572,-0.253,9.6197,-0.035,0.022,-0.1155,-2.0341016254820765,-5.339095485168421e-12,4.002559661865234,-1.4114112854003906,-0.0,2.152168035507202,4.869303899794378,-0.0,0.28903865814208984,-1.6659043470965784,-0.0,0.00492812879383564,1.4099544286727905,0.0,-0.0199630968272686,0.7220840454101562,0.0,0.009839264675974846
128.0,187.0,0.8572,-0.253,9.6197,-0.035,0.022,-0.1155,-2.034025331536764,-4.177260574835547e-25,4.001522064208984,-1.411395788192749,-0.0,2.091529130935669,4.869352239161291,-0.0,0.3018309772014618,-1.6659968535052698,-0.0,0.014059417881071568,1.4099022150039673,0.0,0.010452141053974628,0.722019612789154,0.0,-0.04025615379214287
128.0,187.0,0.8572,-0.253,9.6197,-0.035,0.022,-0.1155,-2.034053941766256,-2.436035007636402e-36,4.055389404296875,-1.4113545417785645,-0.0,2.1378142833709717,4.869348066836157,-0.0,0.29239362478256226,-1.665936295186178,-0.0,0.012178318575024605,1.40993070602417,0.0,-0.007377982139587402,0.7220553755760193,0.0,-0.016729280352592468
128.0,187.0,0.8572,-0.253,9.6197,-0.035,0.022,-0.1155,-2.0340453586974085,3.835908501059748e-05,4.071605205535889,-1.4113836288452148,-0.0,2.1802940368652344,4.869315731316366,-0.0,0.2809527516365051,-1.6659610907184046,-0.0,0.006114971823990345,1.409934639930725,0.0,-0.0040735057555139065,0.7220717668533325,0.0,-0.005025959573686123
128.0,187.0,0.8572,-0.253,9.6197,-0.035,0.022,-0.1155,-2.034053941766256,2.9549841201514937e-05,4.041333198547363,-1.4113712310791016,-0.0,2.125335931777954,4.869315731316366,-0.0,0.2977537512779236,-1.665936295186178,-0.0,0.010488473810255527,1.409910798072815,0.0,0.0022744922898709774,0.722091794013977,0.0,0.013453761115670204
124.0,175.0,1.0469,-0.2291,9.4828,-0.0315,0.0279,-0.1219,-2.034057756463522,2.468649654474575e-05,3.987821578979492,-1.4113545417785645,-0.0,2.1371307373046875,4.869323882251539,-0.0,0.2830413281917572,-1.6659768263446253,-0.0,0.002954938681796193,1.4099187850952148,0.0,0.002205435186624527,0.7220475673675537,0.0,0.01909473165869713
124.0,175.0,1.0469,-0.2291,9.4828,-0.0315,0.0279,-0.1219,-2.034025331536764,2.0710060198325664e-05,4.06888484954834,-1.4114031791687012,-0.0,2.121098041534424,4.869352239161291,-0.0,0.2859322428703308,-1.6659444014178675,-0.0,0.004860223736613989,1.409934639930725,0.0,-0.002153448760509491,0.7220958471298218,0.0,0.008395519107580185
124.0,175.0,1.0469,-0.2291,9.4828,-0.0315,0.0279,-0.1219,-2.034053464929098,1.7836904589785263e-05,4.03462553024292,-1.411379337310791,-0.0,2.128070592880249,4.869299727469244,-0.0,0.29775023460388184,-1.665936295186178,-0.0,0.012584409676492214,1.4099743366241455,0.0,-0.0010878783650696278,0.722091794013977,0.0,-0.02669467218220234
124.0,175.0,1.0469,-0.2291,9.4828,-0.0315,0.0279,-0.1219,-2.0340377293028773,1.5941304809530266e-05,4.06583833694458,-1.4113836288452148,-0.0,2.1268861293792725,4.869307982712545,-0.0,0.28746843338012695,-1.6659162680255335,-0.0,0.008702389895915985,1.4099102020263672,0.0,0.0016043286304920912,0.722079873085022,0.0,-0.024555997923016548
124.0,175.0,1.0469,-0.2291,9.4828,-0.0315,0.0279,-0.1219,-2.0340334377684535,1.4182830454956274e-05,4.036612510681152,-1.411362648010254,-0.0,2.0767524242401123,4.869327980070867,-0.0,0.29938074946403503,-1.6659567991839808,-0.0,0.006181937642395496,1.4099504947662354,0.0,0.0013671149499714375,0.7220757603645325,0.0,-0.03232261538505554
124.0,175.0,1.0469,-0.2291,9.4828,-0.0315,0.0279,-0.1219,-2.034057756463522,1.2773761227435898e-05,3.9932186603546143,-1.4113948345184326,-0.0,2.0840046405792236,4.8692956296499155,-0.0,0.29549896717071533,-1.6659444014178675,-0.0,0.004847188945859671,1.40996253490448,0.0,-0.004834273364394903,0.7220876812934875,0.0,0.053125251084566116
124.0,175.0,1.0469,-0.2291,9.4828,-0.0315,0.0279,-0.1219,-2.0341021023192347,1.1619383258221205e-05,4.0535359382629395,-1.4113991260528564,-0.0,2.1248397827148438,4.869327980070867,-0.0,0.3065647482872009,-1.6659324804889124,-0.0,0.006249242462217808,1.4099068641662598,0.0,-0.00770895229652524,0.7221360206604004,0.0,-0.0005256813019514084
122.0,182.0,1.0086,-0.2967,9.469,-0.038,0.0261,-0.1168,-2.034057756463522,1.078403784049442e-05,4.02702522277832,-1.4113463163375854,-0.0,2.139564037322998,4.869327980070867,-0.0,0.29699262976646423,-1.665952507649557,-0.0,0.014437191188335419,1.4099187850952148,0.0,0.008171070367097855,0.7221277952194214,0.0,0.041887279599905014
122.0,182.0,1.0086,-0.2967,9.469,-0.038,0.0261,-0.1168,-2.0340177021422328,1.9883331333403476e-05,4.022350788116455,-1.4113669395446777,-0.0,2.136383056640625,4.869327980070867,-0.0,0.2989346385002136,-1.6659281889544886,-0.0,0.01008877344429493,1.4099187850952148,0.0,-0.007679228205233812,0.7221038341522217,0.0,0.017148954793810844
122.0,182.0,1.0086,-0.2967,9.469,-0.038,0.0261,-0.1168,-2.0340010128416957,4.560566008721287e-18,4.055006980895996,-1.411362648010254,-3.2009414367819106e-18,2.131950616836548,4.869339900999822,-0.0,0.29745060205459595,-1.6659768263446253,-0.0,0.01536060031503439,1.4099544286727905,0.0,0.003992894198745489,0.722115695476532,0.0,-0.06240377202630043
122.0,182.0,1.0086,-0.2967,9.469,-0.038,0.0261,-0.1168,-2.0340458355345667,2.659565711232605e-29,4.103592872619629,-1.4113380908966064,-1.8666790105747164e-29,2.1710598468780518,4.8693439839179895,-0.0,0.2907905578613281,-1.6659444014178675,-0.0,0.007877894677221775,1.409942626953125,0.0,0.0030843752902001143,0.722099781036377,0.0,0.014824766665697098
122.0,182.0,1.0086,-0.2967,9.469,-0.038,0.0261,-0.1168,-2.0340658626952113,2.0809282195223534e-42,4.035513877868652,-1.411379337310791,-1.4601529998264594e-42,2.1233901977539062,4.869303899794378,-0.0,0.29617512226104736,-1.665924374257223,-0.0,-0.0013994702603667974,1.40993070602417,0.0,0.0030945397447794676,0.7221319079399109,0.0,0.007961033843457699
122.0,182.0,1.0086,-0.2967,9.469,-0.038,0.0261,-0.1168,-2.0340334377684535,0.0,4.022075653076172,-1.4113380908966064,-0.0,2.1378273963928223,4.86936408558444,-0.0,0.2956334948539734,-1.6659811178790491,-0.0,0.009349401108920574,1.4099022150039673,0.0,0.0014706951333209872,0.7220836281776428,0.0,-0.03858678787946701
125.0,184.0,0.9434,-0.2818,9.4893,-0.0478,0.0205,-0.1174,-2.034013410607809,0.0,4.006231307983398,-1.411422848701477,-0.0,2.136533737182617,4.869323986559667,-0.0,0.3025236129760742,-1.665952507649557,-0.0,0.013534346595406532,1.4099583625793457,0.0,-0.004341648425906897,0.7221198081970215,0.0,0.013505689799785614
125.0,184.0,0.9434,-0.2818,9.4893,-0.0478,0.0205,-0.1174,-2.034057756463522,0.0,4.02143669128418,-1.4113835096359253,-0.0,2.117258071899414,4.8693439839179895,-0.0,0.2915818989276886,-1.6659401098834437,-0.0,0.00493578240275383,1.4099504947662354,0.0,0.004214346408843994,0.7221075892448425,9.467403287999332e-05,-0.004499808885157108
125.0,184.0,0.9434,-0.2818,9.4893,-0.0478,0.0205,-0.1174,-2.0340620479979457,0.0,4.042820930480957,-1.411407232284546,-0.0,2.1523399353027344,4.869303899794378,-0.0,0.28182709217071533,-1.6659649054156702,-0.0,0.006855525076389313,1.4099901914596558,0.0,-0.005552912130951881,0.7220993638038635,8.252132829511538e-05,0.005318176466971636
125.0,184.0,0.9434,-0.2818,9.4893,-0.0478,0.0205,-0.1174,-2.034013410607809,0.0,3.9788568019866943,-1.4113836288452148,-0.0,2.1401593685150146,4.8693842617566965,-0.0,0.2955836355686188,-1.665936295186178,-0.0,0.0175359845161438,1.4099702835083008,0.0,-0.0036642022896558046,0.7220956683158875,5.850677189300768e-05,-0.001541278325021267
125.0,184.0,0.9434,-0.2818,9.4893,-0.0478,0.0205,-0.1174,-2.034085889855856,0.0,4.026426315307617,-1.4113504886627197,-0.0,2.071013927459717,4.869376006513395,-0.0,0.29022645950317383,-1.6659486929522913,-0.0,-0.013047801330685616,1.409974217414856,0.0,0.014680102467536926,0.722143828868866,5.3308674978325143e-05,0.0296616330742836
125.0,184.0,0.9434,-0.2818,9.4893,-0.0478,0.0205,-0.1174,-2.034053941766256,0.0,4.069396495819092,-1.4114031791687012,-0.0,2.0745582580566406,4.869355904846945,-0.0,0.2988532781600952,-1.6659486929522913,-0.0,-0.0014314292930066586,1.4099544286727905,0.0,-0.0008934296201914549,0.7220956683158875,4.830198668059893e-05,-0.033100422471761703
125.0,184.0,0.9434,-0.2818,9.4893,-0.0478,0.0205,-0.1174,-2.0340095959105433,0.0,4.023199081420898,-1.411431074142456,-0.0,2.0914108753204346,4.8692956296499155,-0.0,0.292136013507843,-1.6659567991839808,-0.0,0.011960554867982864,1.4099783897399902,0.0,-0.00044727622298523784,0.7220956087112427,4.415497096488252e-05,-0.037958599627017975
123.0,183.0,1.0008,-0.25,9.5186,-0.031,0.0173,-0.1184,-2.0340377293028773,0.0,4.053976058959961,-1.4114112854003906,-0.0,2.1323177814483643,4.869311648398199,-0.0,0.28640514612197876,-1.6659444014178675,-0.0,0.014397526159882545,1.4099023342132568,0.0,0.008799015544354916,0.7221038341522217,4.112831084057689e-05,0.015161588788032532
123.0,183.0,1.0008,-0.25,9.5186,-0.031,0.0173,-0.1184,-2.0340334377684535,0.0,4.01582145690918,-1.4113948345184326,-0.0,2.11173152923584,4.8693439839179895,-0.0,0.2900508642196655,-1.6659281889544886,-0.0,0.006954401731491089,1.4099822044372559,0.0,-0.01290590688586235,0.722152054309845,1.288349635308883e-12,-0.013857262209057808
123.0,183.0,1.0008,-0.25,9.5186,-0.031,0.0173,-0.1184,-2.0340615711607875,0.0,4.0409135818481445,-1.4113585948944092,-0.0,2.1316022872924805,4.869340318232336,-0.0,0.2883155941963196,-1.6659281889544886,-0.0,-0.002218287205323577,1.4099702835083008,0.0,-0.0032397746108472347,0.7221277356147766,1.0079932759231497e-25,-0.019876817241311073
123.0,183.0,1.0008,-0.25,9.5186,-0.031,0.0173,-0.1184,-2.0340854130186976,0.0,4.035742282867432,-1.4114112854003906,-0.0,2.141230344772339,4.869323882251539,-0.0,0.29096466302871704,-1.6659811178790491,-0.0,0.000994745409116149,1.4099544286727905,0.0,-0.002630844246596098,0.7221359610557556,7.886448902684569e-39,-0.06770435720682144
123.0,183.0,1.0008,-0.25,9.5186,-0.031,0.0173,-0.1184,-2.034069677392477,0.0,4.009071350097656,-1.411346197128296,-0.0,2.0818655490875244,4.869404259115019,-0.0,0.29181569814682007,-1.6659811178790491,-0.0,0.005269286688417196,1.4099624156951904,0.0,-0.007043203338980675,0.7220956087112427,0.0,-0.013517657294869423
123.0,183.0,1.0008,-0.25,9.5186,-0.031,0.0173,-0.1184,-2.0340215168394984,0.0,4.019604206085205,-1.411379337310791,-0.0,2.1704518795013428,4.869327980070867,-0.0,0.29864591360092163,-1.6659610907184046,-0.0,0.0027275560423731804,1.4099504947662354,0.0,-0.0004904610104858875,0.722152054309845,0.0,-0.05598534643650055
123.0,183.0,1.0008,-0.25,9.5186,-0.031,0.0173,-0.1184,-2.034029623071188,0.0,4.069530010223389,-1.4113627672195435,-0.0,2.090257167816162,4.869384217053213,-0.0,0.2905130684375763,-1.6659281889544886,-0.0,0.013252035714685917,1.4099465608596802,0.0,-0.010970672592520714,0.7221677899360657,1.070378584699938e-05,0.00408060010522604
127.0,184.0,0.9392,-0.3218,9.7196,-0.0292,0.0182,-0.1168,-2.0340377293028773,0.0,4.0362114906311035,-1.411399006843567,-0.0,2.073503017425537,4.869348066836157,-0.0,0.2871261239051819,-1.665936295186178,-0.0,0.011457569897174835,1.4099822044372559,0.0,0.009730142541229725,0.7221519947052002,1.998172592720948e-05,0.024738820269703865
127.0,184.0,0.9392,-0.3218,9.7196,-0.0292,0.0182,-0.1168,-2.0340496502318324,0.0,4.019695281982422,-1.4113876819610596,-0.0,2.0836968421936035,4.869368257909574,-0.0,0.29234176874160767,-1.6659324804889124,-0.0,0.013719135895371437,1.4099303483963013,0.0,0.0037063013296574354,0.7221517562866211,1.342261099624184e-17,-0.08315402269363403
127.0,184.0,0.9392,-0.3218,9.7196,-0.0292,0.0182,-0.1168,-2.0340215168394984,0.0,4.03378963470459,-1.4113835096359253,-0.0,2.1066932678222656,4.8693439839179895,-0.0,0.29989326000213623,-1.6659401098834437,-0.0,-0.00436383206397295,1.4099504947662354,0.0,-0.012552723288536072,0.7221437692642212,1.0501733934483544e-30,0.009840247221291065
