ramyac6/ROB537/final_project/csv/all/good_187.csv
tof_0,tof_1,accelx,accely,accelz,gyrox,gyroy,gyroz,shoulder_lift_joint_position,shoulder_lift_joint_velocity,shoulder_lift_joint_effort,elbow_joint_position,elbow_joint_velocity,elbow_joint_effort,wrist_1_joint_position,wrist_1_joint_velocity,wrist_1_joint_effort,wrist_2_joint_position,wrist_2_joint_velocity,wrist_2_joint_effort,wrist_3_joint_position,wrist_3_joint_velocity,wrist_3_joint_effort,shoulder_pan_joint_position,shoulder_pan_joint_velocity,shoulder_pan_joint_effort
8190.0,8190.0,-0.2913,0.2183,9.5115,-0.038,0.0243,-0.1258,-1.2658180457404633,0.0,0.7761054039001465,-1.5375843048095703,-0.0,2.0730466842651367,4.322291060084961,0.0,0.2840661108493805,-1.5969942251788538,-0.0,-0.0016596068162471056,0.7881722450256348,-0.0,0.00017135788220912218,0.7668616771697998,0.0,0.017905713990330696
8190.0,8190.0,-0.2913,0.2183,9.5115,-0.038,0.0243,-0.1258,-1.265786127453186,0.0,0.8037093877792358,-1.5375761985778809,-0.0,2.120176315307617,4.322279615993164,0.0,0.2808848023414612,-1.5969651381122034,-0.0,-0.001202573999762535,0.788103461265564,-0.0,0.0019788590725511312,0.7668415904045105,0.0,0.01680969074368477
8190.0,8190.0,-0.2913,0.2183,9.5115,-0.038,0.0243,-0.1258,-1.2658142012408753,0.0,0.8039491176605225,-1.5375441312789917,-0.0,2.0464043617248535,4.322291060084961,0.0,0.28660082817077637,-1.5970142523394983,-0.0,-0.01973799243569374,0.7881276607513428,-0.0,0.014595653861761093,0.7668896317481995,0.0,-0.0066025047563016415
8190.0,8190.0,-0.2913,0.2183,9.5115,-0.038,0.0243,-0.1258,-1.2658059757998963,0.0,0.7992348670959473,-1.5375725030899048,-0.0,2.025331735610962,4.322283907527588,0.0,0.27054718136787415,-1.5969937483416956,-0.0,-0.01783984713256359,0.7881357669830322,-0.0,-0.0073516047559678555,0.7668656706809998,0.0,0.010302174836397171
8190.0,8190.0,-0.2913,0.2183,9.5115,-0.038,0.0243,-0.1258,-1.2658304137042542,0.0,0.7381521463394165,-1.5375683307647705,-0.0,2.055232524871826,4.322279615993164,0.0,0.2794884741306305,-1.5970543066607874,-0.0,-0.017855919897556305,0.7881800532341003,-0.0,0.012084747664630413,0.7668697237968445,0.0,-0.019021764397621155
8190.0,8190.0,-0.2913,0.2183,9.5115,-0.038,0.0243,-0.1258,-1.265782044535019,0.0,0.8298341631889343,-1.5375360250473022,-0.0,2.087193012237549,4.322263403529785,0.0,0.27864184975624084,-1.5970099608050745,-0.0,0.00899395253509283,0.7881316542625427,-0.0,0.0019740136340260506,0.7668534517288208,0.0,-0.005637482739984989
8190.0,8190.0,-0.2913,0.2183,9.5115,-0.038,0.0243,-0.1258,-1.2658021313003083,0.0,0.719633936882019,-1.5375442504882812,-0.0,2.0958380699157715,4.32228343069043,0.0,0.27905645966529846,-1.597001854573385,-0.0,-0.008603887632489204,0.7880957126617432,-0.0,0.0079728364944458,0.7668575048446655,0.0,-0.00961454026401043
8190.0,8190.0,-0.2853,0.2231,9.6652,-0.0345,0.0228,-0.1191,-1.2658504408648987,0.0,0.7726595401763916,-1.5375802516937256,-0.0,2.086991786956787,4.322263403529785,0.0,0.2795412838459015,-1.5969856421100062,-0.0,-0.001503392239101231,0.788123607635498,-0.0,-0.006265503820031881,0.7668936252593994,0.0,-0.014934212900698185
8190.0,8190.0,-0.2853,0.2231,9.6652,-0.0345,0.0228,-0.1191,-1.2658303839019318,0.0,0.8485605716705322,-1.537560224533081,-0.0,2.0881731510162354,4.322271986598633,0.0,0.2651134133338928,-1.5969980398761194,-0.0,0.0011080463882535696,0.7881317734718323,-0.0,-0.008943894878029823,0.7668696641921997,0.0,0.03166935220360756
8190.0,8190.0,-0.2853,0.2231,9.6652,-0.0345,0.0228,-0.1191,-1.2658059757998963,0.0,0.8455567359924316,-1.5375441312789917,-0.0,2.058837890625,4.322295351619385,0.0,0.28425201773643494,-1.5969818274127405,-0.0,0.0055397613905370235,0.7880832552909851,-0.0,-0.0027045398019254208,0.7669016122817993,0.0,0.02730335295200348
8190.0,8190.0,-0.2853,0.2231,9.6652,-0.0345,0.0228,-0.1191,-1.2657939058593293,0.0,0.774886965751648,-1.5375844240188599,-0.0,2.0476174354553223,4.322287245387695,0.0,0.27996158599853516,-1.5969660917865198,-0.0,-0.0059951539151370525,0.7881037592887878,-0.0,-0.001645159674808383,0.7668817043304443,0.0,0.046475231647491455
8190.0,8190.0,-0.2853,0.2231,9.6652,-0.0345,0.0228,-0.1191,-1.2658423048308869,0.0,0.744178056716919,-1.5375317335128784,-0.0,2.0732905864715576,4.322263403529785,0.0,0.27672064304351807,-1.596961800252096,-0.0,-0.007078736089169979,0.788148045539856,-0.0,-0.0010331260273233056,0.7668815851211548,0.0,0.006929623428732157
8190.0,8190.0,-0.2853,0.2231,9.6652,-0.0345,0.0228,-0.1191,-1.2658021611026307,0.0,0.8096475601196289,-1.5375560522079468,-0.0,2.0948400497436523,4.322255297298096,0.0,0.28160765767097473,-1.5970466772662562,-0.0,-0.0060724858194589615,0.7881194353103638,-0.0,0.008821846917271614,0.7668493986129761,0.0,0.044997233897447586
8190.0,8190.0,-0.2853,0.2231,9.6652,-0.0345,0.0228,-0.1191,-1.2657980185798188,0.0,0.7886755466461182,-1.5375884771347046,-0.0,2.0993850231170654,4.322263403529785,0.0,0.2695270776748657,-1.5970261732684534,-0.0,-0.010617610067129135,0.7880513072013855,-0.0,0.004244982730597258,0.7669495940208435,0.0,-0.03311028331518173
8190.0,8190.0,-0.2853,0.2231,9.6652,-0.0345,0.0228,-0.1191,-1.2658303839019318,0.0,0.819137692451477,-1.5375442504882812,-0.0,2.0783934593200684,4.32225148260083,0.0,0.2923383116722107,-1.5970061461078089,-0.0,-0.0006027074996381998,0.7880957126617432,-0.0,0.008052146062254906,0.766861617565155,0.0,0.0005301970522850752
8190.0,8190.0,-0.2853,0.2231,9.6652,-0.0345,0.0228,-0.1191,-1.26581825435672,0.0,0.7809467315673828,-1.5376524925231934,-0.0,2.079524517059326,4.322275801295898,0.0,0.27677929401397705,-1.597001854573385,-0.0,-0.008994972333312035,0.7881439924240112,-0.0,0.008851716294884682,0.7669016718864441,0.0,0.03857291862368584
8190.0,8190.0,-0.2853,0.2231,9.6652,-0.0345,0.0228,-0.1191,-1.265782044535019,0.0,0.8354664444923401,-1.537548303604126,-0.0,2.085078477859497,4.322263880366943,0.0,0.2815360426902771,-1.5969818274127405,-0.0,-0.005838486365973949,0.7880793213844299,-0.0,0.010534589178860188,0.7668494582176208,0.0,0.03080619126558304
8190.0,8190.0,-0.2853,0.2231,9.6652,-0.0345,0.0228,-0.1191,-1.2657939058593293,0.0,0.7688892483711243,-1.537540078163147,-0.0,2.0694031715393066,4.3223158556171875,0.0,0.28086668252944946,-1.5969651381122034,-0.0,0.0010709953494369984,0.7880874276161194,-0.0,-0.0014743265928700566,0.7668375372886658,0.0,0.05632055178284645
8190.0,8190.0,-0.2853,0.2231,9.6652,-0.0345,0.0228,-0.1191,-1.2657617193511506,0.0,0.7746511697769165,-1.537503957748413,-0.0,2.125117301940918,4.322275801295898,0.0,0.2724408805370331,-1.5969856421100062,-0.0,-0.0012158099561929703,0.7880952954292297,-0.0,-0.006586792878806591,0.766909658908844,0.0,0.0014576679095625877
8190.0,8190.0,-0.1113,0.2889,9.1896,-0.038,0.0312,-0.1206,-1.26582624137912,0.0,0.8099783658981323,-1.5376007556915283,-0.0,2.080217123031616,4.322292013759277,0.0,0.271287739276886,-1.5969856421100062,-0.0,-0.012429158203303814,0.7881520986557007,-0.0,0.006416646298021078,0.7668696641921997,0.0,-0.04760097339749336
8190.0,8190.0,-0.1113,0.2889,9.1896,-0.038,0.0312,-0.1206,-1.2658059757998963,0.0,0.7909358739852905,-1.5375683307647705,-0.0,2.0624656677246094,4.322275801295898,0.0,0.27075520157814026,-1.59698993364443,-0.0,-0.008617149665951729,0.7881076335906982,-0.0,0.006296566687524319,0.7668656706809998,0.0,0.015229832381010056
8190.0,8190.0,-0.1113,0.2889,9.1896,-0.038,0.0312,-0.1206,-1.2658586365035553,0.0,0.7882118225097656,-1.537560224533081,-0.0,2.0879621505737305,4.322255297298096,0.0,0.2819969058036804,-1.596957031880514,-0.0,0.0012381793931126595,0.7880833745002747,-0.0,-0.007321161217987537,0.7668855786323547,0.0,-0.0024532312527298927
8190.0,8190.0,-0.1113,0.2889,9.1896,-0.038,0.0312,-0.1206,-1.2658221584609528,0.0,0.8422156572341919,-1.5375194549560547,-0.0,2.09488582611084,4.3222595888325195,0.0,0.2852292060852051,-1.5969975630389612,-0.0,-0.0060706776566803455,0.7882042527198792,-0.0,-0.009759682230651379,0.7668215036392212,0.0,-0.04856829345226288
8190.0,8190.0,-0.1113,0.2889,9.1896,-0.038,0.0312,-0.1206,-1.265858606701233,0.0,0.7813583016395569,-1.5375761985778809,-0.0,2.0832948684692383,4.3222314554401855,0.0,0.2801418900489807,-1.5970099608050745,-0.0,-0.01183251291513443,0.7881357669830322,-0.0,-0.0021329119335860014,0.7668493986129761,0.0,-0.0005600042641162872
8190.0,8190.0,-0.1113,0.2889,9.1896,-0.038,0.0312,-0.1206,-1.2658303839019318,0.0,0.808775007724762,-1.5375844240188599,-0.0,2.1128435134887695,4.322243376369141,0.0,0.2723005414009094,-1.5970099608050745,-0.0,-0.0071989502757787704,0.7881276607513428,-0.0,-0.00726498756557703,0.7668454051017761,0.0,0.014278325252234936
8190.0,8190.0,-0.1113,0.2889,9.1896,-0.038,0.0312,-0.1206,-1.2658464175513764,0.0,0.7615209221839905,-1.5375844240188599,-0.0,2.0659213066101074,4.322271986598633,0.0,0.27962246537208557,-1.5969694296466272,-0.0,-0.0025759143754839897,0.7880874276161194,-0.0,0.008740166202187538,0.7668976783752441,0.0,0.026260605081915855
8190.0,8190.0,-0.1113,0.2889,9.1896,-0.038,0.0312,-0.1206,-1.2658463579467316,0.0,0.7813335061073303,-1.5375560522079468,-0.0,2.0506064891815186,4.3223158556171875,0.0,0.27950766682624817,-1.597018067036764,-0.0,-0.0036407741717994213,0.788111686706543,-0.0,-0.005221188068389893,0.7668737173080444,0.0,0.02273881621658802
8190.0,8190.0,-0.1113,0.2889,9.1896,-0.038,0.0312,-0.1206,-1.2658504408648987,0.0,0.755405068397522,-1.5375843048095703,-0.0,2.0957436561584473,4.322279615993164,0.0,0.2758108973503113,-1.5969975630389612,-0.0,-0.00724328588694334,0.7881157398223877,-0.0,-0.006952911615371704,0.7668696641921997,0.0,-0.012910233810544014
8190.0,8190.0,-0.1113,0.2889,9.1896,-0.038,0.0312,-0.1206,-1.2658062142184754,0.0,0.7834227085113525,-1.5375922918319702,-0.0,2.0746865272521973,4.3222595888325195,0.0,0.2715202271938324,-1.5969980398761194,-0.0,-0.009096270427107811,0.7881194353103638,-0.0,-0.008006801828742027,0.7668656706809998,0.0,-0.025417758151888847
8190.0,8190.0,-0.1113,0.2889,9.1896,-0.038,0.0312,-0.1206,-1.265782044535019,0.0,0.7745445966720581,-1.537588119506836,-0.0,2.0353434085845947,4.3222595888325195,0.0,0.2829318046569824,-1.597058121358053,-0.0,0.0030434532091021538,0.788123607635498,-0.0,0.0037659218069165945,0.7668737173080444,0.0,-0.023429114371538162
8190.0,8190.0,-0.1113,0.2889,9.1896,-0.038,0.0312,-0.1206,-1.2658504408648987,0.0,0.7803227305412292,-1.5374996662139893,-0.0,2.090116024017334,4.322295351619385,0.0,0.2834579348564148,-1.5969975630389612,-0.0,-0.0010522593511268497,0.7881399393081665,-0.0,-0.004347672685980797,0.7668575048446655,0.0,0.028992991894483566
8190.0,8190.0,-0.2788,0.216,9.5964,-0.0415,0.0263,-0.1228,-1.2658021313003083,0.0,0.7926549315452576,-1.5375843048095703,-0.0,2.087390184402466,4.322287245387695,0.0,0.27666252851486206,-1.5969937483416956,-0.0,-0.009904224425554276,0.7881559133529663,-0.0,0.002852098550647497,0.7668936252593994,0.0,0.04276749864220619
8190.0,8190.0,-0.2788,0.216,9.5964,-0.0415,0.0263,-0.1228,-1.2658463579467316,0.0,0.798179030418396,-1.5375442504882812,-0.0,2.0310964584350586,4.322307749385498,0.0,0.2787089943885803,-1.597001854573385,-0.0,-0.012335923500359058,0.7881561517715454,-0.0,0.004858186934143305,0.7668415904045105,0.0,-0.031881097704172134
8190.0,8190.0,-0.2788,0.216,9.5964,-0.0415,0.0263,-0.1228,-1.2658463579467316,0.0,0.7904859781265259,-1.5375317335128784,-0.0,2.0621910095214844,4.322275801295898,0.0,0.2847614586353302,-1.596961800252096,-0.0,-0.009810440242290497,0.788148045539856,-0.0,-0.001418975181877613,0.7668696641921997,0.0,-0.004508630372583866
8190.0,8190.0,-0.2788,0.216,9.5964,-0.0415,0.0263,-0.1228,-1.2658018928817292,0.0,0.7596575021743774,-1.5375561714172363,-0.0,2.0839123725891113,4.322311564082764,0.0,0.2802600860595703,-1.5970342795001429,-0.0,-0.0025056079030036926,0.7881276607513428,-0.0,0.00684927124530077,0.7668575048446655,0.0,0.021336406469345093
8190.0,8190.0,-0.2788,0.216,9.5964,-0.0415,0.0263,-0.1228,-1.2658018928817292,0.0,0.7773239612579346,-1.537548303604126,-0.0,2.0992391109466553,4.322283907527588,0.0,0.2619417905807495,-1.5970342795001429,-0.0,-0.003971786238253117,0.7881276607513428,-0.0,0.002478604903444648,0.7669016718864441,0.0,-0.02622826397418976
8190.0,8190.0,-0.2788,0.216,9.5964,-0.0415,0.0263,-0.1228,-1.2658303540996094,0.0,0.8098600506782532,-1.537548303604126,-0.0,2.088338613510132,4.322279615993164,0.0,0.28276240825653076,-1.59698993364443,-0.0,-0.006177643779665232,0.7881720066070557,-0.0,0.009644944220781326,0.7668214440345764,0.0,0.06311705708503723
8190.0,8190.0,-0.2788,0.216,9.5964,-0.0415,0.0263,-0.1228,-1.2657898229411622,0.0,0.795202374458313,-1.5375235080718994,-0.0,2.0555920600891113,4.322279615993164,0.0,0.27358362078666687,-1.5969694296466272,-0.0,0.0012239424977451563,0.7880880236625671,-0.0,-0.008031816221773624,0.7668976187705994,0.0,0.022132311016321182
8190.0,8190.0,-0.2788,0.216,9.5964,-0.0415,0.0263,-0.1228,-1.2658180457404633,0.0,0.7995318174362183,-1.537588119506836,-0.0,2.080690383911133,4.32221953451123,0.0,0.2833312749862671,-1.5969856421100062,-0.0,-0.010385925881564617,0.7881075739860535,-0.0,-0.00020249246153980494,0.7668737769126892,0.0,0.02256987988948822
8190.0,8190.0,-0.2788,0.216,9.5964,-0.0415,0.0263,-0.1228,-1.2658062440207978,0.0,0.8039642572402954,-1.537548303604126,-0.0,2.095993995666504,4.322271986598633,0.0,0.2682220935821533,-1.5969579855548304,-0.0,0.0015651064459234476,0.7881399393081665,-0.0,-0.002277777064591646,0.7669097185134888,0.0,0.05063354969024658
8190.0,8190.0,-0.2788,0.216,9.5964,-0.0415,0.0263,-0.1228,-1.2657576662353058,0.0,0.7830835580825806,-1.537560224533081,-0.0,2.0880465507507324,4.32225148260083,0.0,0.27981504797935486,-1.5970061461078089,-0.0,-0.011986223049461842,0.7880476713180542,-0.0,-0.0016237439122051,0.7668936252593994,0.0,0.03228321671485901
8190.0,8190.0,-0.2788,0.216,9.5964,-0.0415,0.0263,-0.1228,-1.265786127453186,0.0,0.7576518058776855,-1.5375844240188599,-0.0,2.0908923149108887,4.322235746974609,0.0,0.2754942774772644,-1.5970099608050745,-0.0,-0.0025320735294371843,0.788123607635498,-0.0,0.0032202922739088535,0.7668696641921997,0.0,0.03041042946279049
8190.0,8190.0,-0.2788,0.216,9.5964,-0.0415,0.0263,-0.1228,-1.2658059757998963,0.0,0.7897866368293762,-1.5375843048095703,-0.0,2.0846211910247803,4.3222314554401855,0.0,0.26831483840942383,-1.5969694296466272,-0.0,-0.002096988959237933,0.7881276607513428,-0.0,-0.0032447981648147106,0.7668575048446655,0.0,0.04936458542943001
8190.0,8190.0,-0.341,0.1825,9.7597,-0.0368,0.0276,-0.1229,-1.265797720556595,0.0,0.8211702108383179,-1.5375839471817017,-0.0,2.0420825481414795,4.322263403529785,0.0,0.28600937128067017,-1.5970385710345667,-0.0,-0.004498116206377745,0.7881194353103638,-0.0,-0.006232722662389278,0.766853392124176,0.0,-0.028642447665333748
8190.0,8190.0,-0.341,0.1825,9.7597,-0.0368,0.0276,-0.1229,-1.2657977801612397,0.0,0.794309139251709,-1.5375560522079468,-0.0,2.098414421081543,4.322287245387695,0.0,0.2845585346221924,-1.5969694296466272,-0.0,-0.0006212638691067696,0.7880717515945435,-0.0,-0.012068284675478935,0.7668135166168213,0.0,0.010272819548845291
8190.0,8190.0,-0.341,0.1825,9.7597,-0.0368,0.0276,-0.1229,-1.2657697361758729,0.0,0.7815634608268738,-1.5375357866287231,-0.0,2.064709424972534,4.32222764074292,0.0,0.27464520931243896,-1.5970342795001429,-0.0,-0.009081145748496056,0.7881316542625427,-0.0,0.002467425772920251,0.7668775916099548,0.0,-0.015688151121139526
8190.0,8190.0,-0.341,0.1825,9.7597,-0.0368,0.0276,-0.1229,-1.2658021313003083,0.0,0.7734203338623047,-1.5375518798828125,-0.0,2.0958845615386963,4.322275801295898,0.0,0.27933937311172485,-1.5970175901996058,-0.0,-0.0063546812161803246,0.7881677746772766,-0.0,-0.008257574401795864,0.7668775320053101,0.0,0.0141680296510458
8190.0,8190.0,-0.341,0.1825,9.7597,-0.0368,0.0276,-0.1229,-1.2658626896194,0.0,0.7880778312683105,-1.5375844240188599,-0.0,2.0899839401245117,4.322275801295898,0.0,0.2825842499732971,-1.5970218817340296,-0.0,0.012797623872756958,0.7881276607513428,-0.0,0.001986948773264885,0.7668375372886658,0.0,0.01451084017753601
8190.0,8190.0,-0.341,0.1825,9.7597,-0.0368,0.0276,-0.1229,-1.2657779318145295,0.0,0.8207893371582031,-1.5375357866287231,-0.0,2.082719326019287,4.322267695064209,0.0,0.2758009433746338,-1.597001854573385,-0.0,0.0056816511787474155,0.7881113290786743,-0.0,-0.0006459828000515699,0.7668614983558655,0.0,-0.022012177854776382
8190.0,8190.0,-0.341,0.1825,9.7597,-0.0368,0.0276,-0.1229,-1.26577381909404,0.0,0.7891553640365601,-1.5376163721084595,-0.0,2.0694797039031982,4.3222595888325195,0.0,0.2712976634502411,-1.5969694296466272,-0.0,-0.00542818196117878,0.7881076335906982,-0.0,0.005441546440124512,0.7668817043304443,0.0,-0.02295782044529915
8190.0,8190.0,-0.341,0.1825,9.7597,-0.0368,0.0276,-0.1229,-1.2657980483821412,0.0,0.8226261138916016,-1.5375080108642578,-0.0,2.03895902633667,4.322263880366943,0.0,0.28044044971466064,-1.597001854573385,-0.0,-0.004921911284327507,0.7880793809890747,-0.0,-0.006750496104359627,0.7668335437774658,0.0,0.0037574879825115204
8190.0,8190.0,-0.341,0.1825,9.7597,-0.0368,0.0276,-0.1229,-1.2658021611026307,0.0,0.8204138278961182,-1.5375399589538574,-0.0,2.040384292602539,4.322239561671875,0.0,0.28264182806015015,-1.5970385710345667,-0.0,0.0012021777220070362,0.788127601146698,-0.0,-0.0032914942130446434,0.7668375372886658,0.0,-0.010496578179299831
8190.0,8190.0,-0.341,0.1825,9.7597,-0.0368,0.0276,-0.1229,-1.2658100885203858,0.0,0.7505271434783936,-1.5375843048095703,-0.0,2.0672216415405273,4.322283907527588,0.0,0.2701927721500397,-1.5969937483416956,-0.0,-0.0006133205606602132,0.7880957126617432,-0.0,-0.0023909721057862043,0.7668575048446655,0.0,0.012000352144241333
8190.0,8190.0,-0.341,0.1825,9.7597,-0.0368,0.0276,-0.1229,-1.2657980483821412,0.0,0.7824434041976929,-1.5375802516937256,-0.0,2.082460641860962,4.322271986598633,0.0,0.27642950415611267,-1.5970061461078089,-0.0,-0.0048929196782410145,0.7881279587745667,-0.0,-0.00595818692818284,0.7668335437774658,0.0,-0.0267585851252079
8190.0,8190.0,-0.341,0.1825,9.7597,-0.0368,0.0276,-0.1229,-1.2658018928817292,0.0,0.7634206414222717,-1.5375839471817017,-0.0,2.103714942932129,4.322239561671875,0.0,0.27265313267707825,-1.5969980398761194,-0.0,-0.006066137924790382,0.788103461265564,-0.0,0.001695028506219387,0.7669135928153992,0.0,0.0035018734633922577
8190.0,8190.0,-0.25,0.2656,9.5563,-0.0319,0.0266,-0.1197,-1.2657697361758729,0.0,0.7937086224555969,-1.5375523567199707,-0.0,2.0612473487854004,4.32222764074292,0.0,0.280988484621048,-1.5969694296466272,-0.0,0.009914057329297066,0.7881197929382324,-0.0,-0.0017013330943882465,0.7668855786323547,0.0,-0.010265354998409748
8190.0,8190.0,-0.25,0.2656,9.5563,-0.0319,0.0266,-0.1197,-1.2658021313003083,0.0,0.7855295538902283,-1.53760826587677,-0.0,2.05586576461792,4.322279615993164,0.0,0.28374651074409485,-1.5970061461078089,-0.0,-0.010941872373223305,0.7881520986557007,-0.0,-0.006552575156092644,0.7668696641921997,0.0,0.044403694570064545
8190.0,8190.0,-0.25,0.2656,9.5563,-0.0319,0.0266,-0.1197,-1.2658386391452332,0.0,0.7964276075363159,-1.5375442504882812,-0.0,2.1041436195373535,4.322291060084961,0.0,0.27616116404533386,-1.597018067036764,-0.0,-0.004976240452378988,0.7880833745002747,-0.0,-0.0015524644404649734,0.7668375372886658,0.0,-0.010151143185794353
8190.0,8190.0,-0.25,0.2656,9.5563,-0.0319,0.0266,-0.1197,-1.2658221286586304,0.0,0.781632661819458,-1.53760826587677,-0.0,2.0694475173950195,4.322275801295898,0.0,0.2789091467857361,-1.5970099608050745,-0.0,-0.006457411218434572,0.7881034016609192,-0.0,-0.012622442096471786,0.7668614983558655,0.0,0.011961187236011028
8190.0,8190.0,-0.25,0.2656,9.5563,-0.0319,0.0266,-0.1197,-1.2658059757998963,0.0,0.7728956937789917,-1.537540078163147,-0.0,2.0936849117279053,4.322271986598633,0.0,0.2824913561344147,-1.5969813505755823,-0.0,-0.010222887620329857,0.7881562113761902,-0.0,-0.014499906450510025,0.7668855786323547,0.0,-0.009249779395759106
8190.0,8190.0,-0.25,0.2656,9.5563,-0.0319,0.0266,-0.1197,-1.2658139032176514,0.0,0.7934100031852722,-1.5375683307647705,-0.0,2.0568618774414062,4.322295351619385,0.0,0.2805222272872925,-1.5969694296466272,-0.0,-0.01628114841878414,0.7880916595458984,-0.0,-0.0009937923168763518,0.7668534517288208,0.0,-0.013051748275756836
8190.0,8190.0,-0.25,0.2656,9.5563,-0.0319,0.0266,-0.1197,-1.2658059757998963,0.0,0.7895711064338684,-1.537548303604126,-0.0,2.0327048301696777,4.322275801295898,0.0,0.28463125228881836,-1.597001854573385,-0.0,-0.0012675386387854815,0.788148045539856,-0.0,-0.0032707247883081436,0.7668454647064209,0.0,-0.010845504701137543
8190.0,8190.0,-0.25,0.2656,9.5563,-0.0319,0.0266,-0.1197,-1.2658463579467316,0.0,0.830101728439331,-1.5375683307647705,-0.0,2.078842878341675,4.32229916631665,0.0,0.26837143301963806,-1.597001854573385,-0.0,-0.0074836271815001965,0.7881637811660767,-0.0,0.00791984237730503,0.7668375372886658,0.0,0.07180613279342651
8190.0,8190.0,-0.25,0.2656,9.5563,-0.0319,0.0266,-0.1197,-1.2658262711814423,0.0,0.7210185527801514,-1.537540078163147,-0.0,2.05679988861084,4.32222764074292,0.0,0.2849583923816681,-1.5970261732684534,-0.0,-0.0057412367314100266,0.7881678342819214,-0.0,0.007695418782532215,0.7668534517288208,0.0,-0.021076668053865433
8190.0,8190.0,-0.25,0.2656,9.5563,-0.0319,0.0266,-0.1197,-1.2658221286586304,0.0,0.8184351325035095,-1.5375523567199707,-0.0,2.0863277912139893,4.322275801295898,0.0,0.289652943611145,-1.5969856421100062,-0.0,-0.008331023156642914,0.7882084250450134,-0.0,-0.0042750416323542595,0.7668575048446655,0.0,-0.021757660433650017
8190.0,8190.0,-0.25,0.2656,9.5563,-0.0319,0.0266,-0.1197,-1.2658142012408753,0.0,0.8176499605178833,-1.5375844240188599,-0.0,2.090315818786621,4.322279615993164,0.0,0.2703564167022705,-1.5969536940204065,-0.0,-0.004908012226223946,0.7881194353103638,-0.0,0.011357803829014301,0.7668737173080444,0.0,-0.024535493925213814
8190.0,8190.0,-0.25,0.2656,9.5563,-0.0319,0.0266,-0.1197,-1.2658059757998963,0.0,0.7888014316558838,-1.5375642776489258,-0.0,2.0729401111602783,4.322275801295898,0.0,0.28874385356903076,-1.5970261732684534,-0.0,-0.0007139155641198158,0.7881760597229004,-0.0,-0.007823312655091286,0.7668696641921997,0.0,0.03133523091673851
8190.0,8190.0,-0.545,0.0885,10.1563,-0.037,0.0244,-0.1223,-1.26582624137912,0.0,0.7717092633247375,-1.537540078163147,-0.0,2.1018600463867188,4.322255297298096,0.0,0.2839205861091614,-1.5970667044269007,-0.0,0.0035126337315887213,0.7881439924240112,-0.0,0.004556998610496521,0.7668096423149109,0.0,-0.002241784241050482
8190.0,8190.0,-0.545,0.0885,10.1563,-0.037,0.0244,-0.1223,-1.2658062440207978,0.0,0.7672910690307617,-1.537560224533081,-0.0,2.1037445068359375,4.322351618404053,0.0,0.282484769821167,-1.5970061461078089,-0.0,0.003575764363631606,0.7881157398223877,-0.0,-0.007494851015508175,0.7668175101280212,0.0,-0.0007377732545137405
8190.0,8190.0,-0.545,0.0885,10.1563,-0.037,0.0244,-0.1223,-1.2657779318145295,0.0,0.7608902454376221,-1.5375884771347046,-0.0,2.1321113109588623,4.322279615993164,0.0,0.2739871144294739,-1.5970137755023401,-0.0,0.001293923705816269,0.7880833745002747,-0.0,0.0021251789294183254,0.7668855786323547,0.0,-3.2749027013778687e-05
8190.0,8190.0,-0.545,0.0885,10.1563,-0.037,0.0244,-0.1223,-1.2658059757998963,0.0,0.802101194858551,-1.5375523567199707,-0.0,2.1192548274993896,4.32229916631665,0.0,0.2665238082408905,-1.596945587788717,-0.0,0.007615778129547834,0.7881276607513428,-0.0,0.0037462105974555016,0.7669016122817993,0.0,0.014667128212749958
8190.0,8190.0,-0.545,0.0885,10.1563,-0.037,0.0244,-0.1223,-1.2657697361758729,0.0,0.8107330799102783,-1.5375642776489258,-0.0,2.061324119567871,4.322267695064209,0.0,0.2858685851097107,-1.59698993364443,-0.0,-0.007756102830171585,0.788148045539856,-0.0,-0.00689015444368124,0.7668777108192444,0.0,0.05003732442855835
8190.0,8190.0,-0.545,0.0885,10.1563,-0.037,0.0244,-0.1223,-1.265765593653061,0.0,0.8056496381759644,-1.5375642776489258,-0.0,2.0885162353515625,4.322311564082764,0.0,0.2763102650642395,-1.5969694296466272,-0.0,-0.008027615956962109,0.7881520986557007,-0.0,-0.0031695785000920296,0.7668575048446655,0.0,0.03321336582303047
8190.0,8190.0,-0.545,0.0885,10.1563,-0.037,0.0244,-0.1223,-1.2657898229411622,0.0,0.7443244457244873,-1.5375761985778809,-0.0,2.0817627906799316,4.322283907527588,0.0,0.28083038330078125,-1.5969818274127405,-0.0,-0.0121842622756958,0.788103461265564,-0.0,-0.005423936992883682,0.7668575048446655,0.0,0.006443191785365343
8190.0,8190.0,-0.545,0.0885,10.1563,-0.037,0.0244,-0.1223,-1.2657980483821412,0.0,0.7767588496208191,-1.5375921726226807,-0.0,2.092819929122925,4.322243376369141,0.0,0.28277620673179626,-1.5969818274127405,-0.0,-0.006283622235059738,0.788111686706543,-0.0,0.003374135820195079,0.7668815851211548,0.0,-0.05434303358197212
8190.0,8190.0,-0.545,0.0885,10.1563,-0.037,0.0244,-0.1223,-1.2658142310431977,0.0,0.7565178871154785,-1.5375276803970337,-0.0,2.0585474967956543,4.322295351619385,0.0,0.2835766673088074,-1.5969937483416956,-0.0,-0.0051485393196344376,0.7881156802177429,-0.0,0.0032763902563601732,0.7668375372886658,0.0,-0.009048202075064182
8190.0,8190.0,-0.545,0.0885,10.1563,-0.037,0.0244,-0.1223,-1.2658221286586304,0.0,0.7980735301971436,-1.5375642776489258,-0.0,2.079184055328369,4.322223349208496,0.0,0.28549376130104065,-1.5970261732684534,-0.0,-0.0040203966200351715,0.788084089756012,-0.0,-0.0016568101709708571,0.7669255137443542,0.0,-0.007703815121203661
8190.0,8190.0,-0.545,0.0885,10.1563,-0.037,0.0244,-0.1223,-1.2658667427352448,0.0,0.7841336727142334,-1.5375843048095703,-0.0,2.11904239654541,4.32228343069043,0.0,0.27994245290756226,-1.5969856421100062,-0.0,-0.0009067489881999791,0.7880880832672119,-0.0,0.004062169697135687,0.7668454647064209,0.0,0.006398065015673637
8190.0,8190.0,-0.545,0.0885,10.1563,-0.037,0.0244,-0.1223,-1.2658303839019318,0.0,0.7877694368362427,-1.537540078163147,-0.0,2.0282912254333496,4.322295351619385,0.0,0.26082146167755127,-1.597018067036764,-0.0,-0.011069836094975471,0.7881680727005005,-0.0,-0.019120151177048683,0.7668494582176208,0.0,-0.015068182721734047
8190.0,8190.0,-0.3529,0.2255,9.7095,-0.0298,0.0286,-0.1252,-1.2658303540996094,0.0,0.7584278583526611,-1.5375275611877441,-0.0,2.05444598197937,4.322271986598633,0.0,0.2799476385116577,-1.5969818274127405,-0.0,-0.009861383587121964,0.788159966468811,-0.0,0.003143242560327053,0.7668737173080444,0.0,-0.017245884984731674
8190.0,8190.0,-0.3529,0.2255,9.7095,-0.0298,0.0286,-0.1252,-1.2658182841590424,0.0,0.7645398378372192,-1.5375317335128784,-0.0,2.103943347930908,4.322223349208496,0.0,0.2826867699623108,-1.5969818274127405,-0.0,-0.010416880249977112,0.7881518006324768,-0.0,0.0014824166428297758,0.7668737173080444,0.0,-0.027384169399738312
8190.0,8190.0,-0.3529,0.2255,9.7095,-0.0298,0.0286,-0.1252,-1.2658142012408753,0.0,0.7832170724868774,-1.5375721454620361,-0.0,2.064089775085449,4.322292013759277,0.0,0.27514633536338806,-1.597001854573385,-0.0,-0.020684463903307915,0.7881800532341003,-0.0,0.005381559021770954,0.7668696641921997,0.0,0.05052170529961586
8190.0,8190.0,-0.3529,0.2255,9.7095,-0.0298,0.0286,-0.1252,-1.2657980483821412,0.0,0.8287185430526733,-1.5375683307647705,-0.0,2.0956437587738037,4.322267695064209,0.0,0.27618303894996643,-1.5969536940204065,-0.0,-0.011426929384469986,0.7881157994270325,-0.0,0.007184890098869801,0.7668976187705994,0.0,-0.028147835284471512
8190.0,8190.0,-0.3529,0.2255,9.7095,-0.0298,0.0286,-0.1252,-1.265782044535019,0.0,0.7610054612159729,-1.5375962257385254,-0.0,2.0774924755096436,4.3222595888325195,0.0,0.27371183037757874,-1.5970099608050745,-0.0,-0.02242313325405121,0.7881276607513428,-0.0,-0.0006787511520087719,0.7668575048446655,0.0,-0.05301200598478317
8190.0,8190.0,-0.3529,0.2255,9.7095,-0.0298,0.0286,-0.1252,-1.265797720556595,0.0,0.7345796823501587,-1.5375275611877441,-0.0,2.113474130630493,4.322283907527588,0.0,0.2919141948223114,-1.5969942251788538,-0.0,-0.0010425127111375332,0.7880993485450745,-0.0,-0.005682819522917271,0.7668534517288208,0.0,-0.006984557956457138
8190.0,8190.0,-0.3529,0.2255,9.7095,-0.0298,0.0286,-0.1252,-1.2657939356616517,0.0,0.7709255814552307,-1.5375561714172363,-0.0,2.066070795059204,4.322279615993164,0.0,0.2775454521179199,-1.597018067036764,-0.0,-0.009331810288131237,0.788151741027832,-0.0,0.006200103089213371,0.7668775916099548,0.0,0.023385360836982727
8190.0,8190.0,-0.3529,0.2255,9.7095,-0.0298,0.0286,-0.1252,-1.2657980483821412,0.0,0.7979542016983032,-1.5376206636428833,-0.0,2.1098177433013916,4.3222595888325195,0.0,0.28296369314193726,-1.5970175901996058,-0.0,-0.014310937374830246,0.7881520986557007,-0.0,-0.0030371148604899645,0.7668454647064209,0.0,-0.01977642811834812
8190.0,8190.0,-0.3529,0.2255,9.7095,-0.0298,0.0286,-0.1252,-1.265777902012207,0.0,0.7548549175262451,-1.5375317335128784,-0.0,2.0964670181274414,4.32225148260083,0.0,0.2621039152145386,-1.5969975630389612,-0.0,-0.012991439551115036,0.7881317138671875,-0.0,-0.003365028416737914,0.7668777108192444,0.0,-0.005915987305343151
8190.0,8190.0,-0.3529,0.2255,9.7095,-0.0298,0.0286,-0.1252,-1.265805945997574,0.0,0.7295091152191162,-1.5375639200210571,-0.0,2.0465445518493652,4.3222996431538085,0.0,0.2867068946361542,-1.5970137755023401,-0.0,-0.013065064325928688,0.7880957126617432,-0.0,-0.005469444673508406,0.7669016122817993,0.0,0.010390189476311207
8190.0,8190.0,-0.3529,0.2255,9.7095,-0.0298,0.0286,-0.1252,-1.2657939058593293,0.0,0.7982628345489502,-1.5375605821609497,-0.0,2.089296340942383,4.3222595888325195,0.0,0.2920895516872406,-1.5970061461078089,-0.0,-0.0010802808683365583,0.7881677746772766,-0.0,-0.008199883624911308,0.7668896317481995,0.0,-0.03226744011044502
8190.0,8190.0,-0.3529,0.2255,9.7095,-0.0298,0.0286,-0.1252,-1.2657699447921296,0.0,0.7729992866516113,-1.537588119506836,-0.0,2.09968900680542,4.322267695064209,0.0,0.27119481563568115,-1.5969579855548304,-0.0,-0.006199933122843504,0.788075864315033,-0.0,0.002602483844384551,0.7668453454971313,0.0,0.017346633598208427
8190.0,8190.0,-0.2584,0.2351,9.5761,-0.0339,0.0241,-0.124,-1.26577381909404,8.358040926026433e-10,0.7940008640289307,-1.5375683307647705,-0.0,2.119645118713379,4.322307749385498,0.0,0.2794240117073059,-1.5970061461078089,-0.0,-0.010057266801595688,0.788103461265564,-0.0,0.006706863176077604,0.7669095396995544,0.0,0.025297529995441437
8190.0,8190.0,-0.2584,0.2351,9.5761,-0.0339,0.0241,-0.124,-1.2657984358123322,2.7078989851036065e-17,0.7931821346282959,-1.5375605821609497,-0.0,2.048196792602539,4.322319670314453,7.983576324477326e-07,0.2862348258495331,-1.597001854573385,-0.0,-0.008201522752642632,0.7881276607513428,-0.0,0.001260576769709587,0.7668654918670654,0.0,0.020632784813642502
8190.0,8190.0,-0.2584,0.2351,9.5761,-0.0339,0.0241,-0.124,-1.2657542091659089,0.002030840376392007,0.7796884775161743,-1.5375605821609497,-0.0,2.0566346645355225,4.322331591243408,2.2222583495601356e-10,0.2932455539703369,-1.5969856421100062,-0.0,-0.0003400249406695366,0.7881194353103638,-0.0,-0.0021740873344242573,0.7668575048446655,0.0,0.022425338625907898
8190.0,8190.0,-0.2584,0.2351,9.5761,-0.0339,0.0241,-0.124,-1.2656699281981965,0.005263920407742262,0.7352405786514282,-1.5374923944473267,0.00041458371561020613,2.1091456413269043,4.322347326869629,0.0012594322906807065,0.2663081884384155,-1.5970137755023401,-0.0,0.0036427173763513565,0.7881439924240112,-0.0,-0.008643410168588161,0.7668936252593994,0.0,-0.045827023684978485
8190.0,8190.0,-0.2584,0.2351,9.5761,-0.0339,0.0241,-0.124,-1.265589789753296,0.007273088674992323,0.7930377721786499,-1.537484049797058,0.00457078218460083,2.105853319168091,4.3224074083515625,0.0020071144681423903,0.28962790966033936,-1.597001854573385,-0.0,-0.022733645513653755,0.7881236672401428,-0.0,0.00014534289948642254,0.7668895721435547,0.0,0.012753080576658249
8190.0,8190.0,-0.2584,0.2351,9.5761,-0.0339,0.0241,-0.124,-1.2655857664397736,0.00664017116650939,0.769629955291748,-1.537468433380127,0.004960278514772654,2.091704845428467,4.322371168727539,0.0018549422966316342,0.2906392216682434,-1.5969975630389612,-0.0,0.0002701965859159827,0.788151741027832,-0.0,-0.002380368299782276,0.7668696641921997,0.0,-0.043338894844055176
8190.0,8190.0,-0.2584,0.2351,9.5761,-0.0339,0.0241,-0.124,-1.2655862730792542,0.002986498177051544,0.7504152655601501,-1.5374281406402588,0.005222128704190254,2.1342506408691406,4.322367354030273,0.0019500072812661529,0.27845826745033264,-1.5969856421100062,-0.0,-0.013481329195201397,0.7881399393081665,-0.0,-0.0023903450928628445,0.7668815851211548,0.0,0.02474064566195011
8190.0,8190.0,-0.2584,0.2351,9.5761,-0.0339,0.0241,-0.124,-1.2655742031386872,0.0004590312310028821,0.8038854598999023,-1.537420630455017,0.0035560238175094128,2.082737445831299,4.32235495626416,0.003998971078544855,0.2903957962989807,-1.5970428625689905,-0.0,-0.009427862241864204,0.7881677746772766,-0.0,0.008809253573417664,0.7668295502662659,0.0,0.0039492445066571236
8190.0,8190.0,-0.2584,0.2351,9.5761,-0.0339,0.0241,-0.124,-1.26557012022052,0.00012481636076699942,0.7514675259590149,-1.537424921989441,0.002129142638295889,2.1080195903778076,4.322395010585449,0.011311876587569714,0.28831905126571655,-1.5970218817340296,-0.0,-0.021485207602381706,0.7881481051445007,-0.0,0.0026689115911722183,0.7668336033821106,0.0,-0.005334782414138317
8190.0,8190.0,-0.2584,0.2351,9.5761,-0.0339,0.0241,-0.124,-1.2656342846206208,4.1178429910360137e-07,0.8082183599472046,-1.537400484085083,0.0009720987291075289,2.1085243225097656,4.322498484248779,0.01375569123774767,0.2997022867202759,-1.59698993364443,-0.0,0.002662085695192218,0.7880916595458984,-0.0,-0.017921099439263344,0.7668175101280212,0.0,0.003321663476526737
8190.0,8190.0,-0.2584,0.2351,9.5761,-0.0339,0.0241,-0.124,-1.2656347912601014,1.3341289844517792e-14,0.7550820112228394,-1.5374083518981934,0.00010142305109184235,2.0711324214935303,4.322570963496826,0.007360749877989292,0.286064475774765,-1.597001854573385,-0.0,-0.005743725225329399,0.7880799770355225,-0.0,-0.010453099384903908,0.7668817043304443,0.0,-0.005516183562576771
8190.0,8190.0,-0.2584,0.2351,9.5761,-0.0339,0.0241,-0.124,-1.2656747561744233,-0.0012326783034950495,0.7891663312911987,-1.53739595413208,2.001670829088198e-09,2.0612592697143555,4.322598620052002,0.001689403667114675,0.2774859070777893,-1.5969703833209437,-0.0,-0.0055725546553730965,0.7881157398223877,-0.0,3.1305477023124695e-05,0.7668817043304443,0.0,0.03411399945616722
8190.0,8190.0,-0.0084,-0.4445,9.3649,-0.0631,0.0353,-0.1118,-1.265674428348877,-0.0018634916050359607,0.7669329643249512,-1.5374404191970825,6.485158206397801e-17,2.0788002014160156,4.322550936336182,-0.0005923457210883498,0.28891268372535706,-1.5969775358783167,-0.0,-0.010717194527387619,0.7880915999412537,-0.0,0.00033106247428804636,0.7668694853782654,0.0,-0.0471954420208931
8190.0,8190.0,-0.0084,-0.4445,9.3649,-0.0631,0.0353,-0.1118,-1.265674428348877,-0.0020132262725383043,0.8027876615524292,-1.5374610424041748,-0.0009037789423018694,2.066380262374878,4.322554751033447,-0.0006185785750858486,0.27723580598831177,-1.5969732443438929,-0.0,-0.010318100452423096,0.7881038188934326,-0.0,0.001611398532986641,0.7668254971504211,0.0,0.021508648991584778
8190.0,8190.0,-0.0084,-0.4445,9.3649,-0.0631,0.0353,-0.1118,-1.2657182675651093,-0.0027241671923547983,0.7555719614028931,-1.5374560356140137,-0.001011297688819468,2.120389461517334,4.322534723872803,-0.0007463311776518822,0.2841603457927704,-1.5969775358783167,-0.0,-0.0024311458691954613,0.7881399393081665,-0.0,-0.0011663036420941353,0.7668176293373108,0.0,-0.014704589731991291
8190.0,8190.0,-0.0084,-0.4445,9.3649,-0.0631,0.0353,-0.1118,-1.2657341224006196,-0.005022806581109762,0.8147290349006653,-1.537480354309082,-0.0007465937524102628,2.101341962814331,4.3224827486225585,-0.000901325955055654,0.28381097316741943,-1.5970023314105433,-0.0,0.0015489710494875908,0.7880998253822327,-0.0,0.018018502742052078,0.766853392124176,-0.00018774924683384597,-0.03444553166627884
8190.0,8190.0,-0.0084,-0.4445,9.3649,-0.0631,0.0353,-0.1118,-1.2658303839019318,-0.007512150332331657,0.7449507713317871,-1.5374726057052612,-0.0005101704737171531,2.0621702671051025,4.322491331691406,-0.0006355937803164124,0.28292593359947205,-1.5969975630389612,-0.0,-0.002491415711119771,0.7881439924240112,-0.0,-0.004092713352292776,0.7668175101280212,-9.784156281966716e-05,0.0008660780149511993
8190.0,8190.0,-0.0084,-0.4445,9.3649,-0.0631,0.0353,-0.1118,-1.2658581596663971,-0.010071997530758381,0.8053667545318604,-1.5374963283538818,-0.0005296170129440725,2.09443736076355,4.322487040156982,-0.000624178908765316,0.27835792303085327,-1.59698993364443,-0.0,-0.004149125888943672,0.788111686706543,-0.0,-0.0049332850612699986,0.7668415904045105,-8.718578465050086e-05,0.035639941692352295
8190.0,8190.0,-0.0084,-0.4445,9.3649,-0.0631,0.0353,-0.1118,-1.2660066348365326,-0.01137391198426485,0.7719690799713135,-1.5374763011932373,-0.0006856973632238805,2.0976340770721436,4.322423143977783,-0.0006037139100953937,0.281281054019928,-1.5969494024859827,-0.0,-0.007200591266155243,0.7880759239196777,-0.0,-0.001511126640252769,0.7668534517288208,-6.603952351724729e-05,-0.020974716171622276
8190.0,8190.0,-0.0084,-0.4445,9.3649,-0.0631,0.0353,-0.1118,-1.2661182445338746,-0.012437391094863415,0.77369225025177,-1.5374798774719238,-0.0008626353228464723,2.0793356895446777,4.3223911958881835,-0.0004944296670146286,0.288325697183609,-1.5969818274127405,2.9204007660155185e-05,-0.0006289181183092296,0.7880880832672119,-0.0,-0.005073394626379013,0.7668614387512207,-0.00010033106809714809,-0.004788853228092194
8190.0,8190.0,-0.0084,-0.4445,9.3649,-0.0631,0.0353,-0.1118,-1.2662105423263093,-0.013023719191551208,0.7920651435852051,-1.5375003814697266,-0.0007210879703052342,2.108480453491211,4.3224474626728515,-0.0004301096487324685,0.30027443170547485,-1.5969536940204065,4.092367089469917e-05,-0.012506375089287758,0.7881439924240112,-0.0,-0.014834847301244736,0.7668694853782654,-8.203832112485543e-05,-0.0003516147844493389
8190.0,8190.0,-0.0084,-0.4445,9.3649,-0.0631,0.0353,-0.1118,-1.2663022142699738,-0.013210081495344639,0.8032408952713013,-1.5375120639801025,-0.0005479134269990027,2.05143404006958,4.322422667140625,-0.0003647238190751523,0.28303202986717224,-1.5969856421100062,3.9357939385809004e-05,-0.004248279146850109,0.788084089756012,-0.0,-0.006661858409643173,0.7668535709381104,-0.00010775046393973753,0.007814322598278522
8190.0,8190.0,-0.0084,-0.4445,9.3649,-0.0631,0.0353,-0.1118,-1.266394243841507,-0.013886398635804653,0.7717897891998291,-1.5375080108642578,-0.0004419499891810119,2.043642044067383,4.322366877193115,-0.0003032590029761195,0.27482035756111145,-1.5969741980182093,4.9558548198547214e-05,0.004632271826267242,0.7880993485450745,-0.0,-0.0018542975885793567,0.7668496370315552,-9.329219756182283e-05,0.013835614547133446
8190.0,8190.0,-0.0084,-0.4445,9.3649,-0.0631,0.0353,-0.1118,-1.2664942902377625,-0.012854306027293205,0.7749108076095581,-1.5375605821609497,-0.0003330068720970303,2.1191890239715576,4.32241074621167,-0.000211215068702586,0.27372390031814575,-1.5969374815570276,4.6996778110042214e-05,-0.005009953863918781,0.7881276607513428,-0.0,-0.011920128017663956,0.7668255567550659,-9.025481267599389e-05,-0.0061035845428705215
8190.0,8190.0,-0.3517,0.6036,9.6317,-0.0367,0.0096,-0.1242,-1.2666265827468415,-0.01116804126650095,0.7598810791969299,-1.5375481843948364,-0.0002810110163409263,2.0366458892822266,4.322467012996338,-0.0001851380366133526,0.2925625145435333,-1.5969293753253382,4.5225588110042736e-05,1.4162156730890274e-05,0.7881317138671875,-0.0,-0.003519873833283782,0.7668136358261108,-7.875743904151022e-05,-0.013073520734906197
8190.0,8190.0,-0.3517,0.6036,9.6317,-0.0367,0.0096,-0.1242,-1.2666175228408356,-0.009811356663703918,0.7617837190628052,-1.53753662109375,-0.00023259189038071781,2.0466690063476562,4.322423143977783,-0.0001589721505297348,0.27170872688293457,-1.5970142523394983,4.306170012569055e-05,-0.0037160960491746664,0.7881197333335876,-0.0,-0.0048617529682815075,0.7668534517288208,-1.8970212067870307e-08,-0.0032115764915943146
8190.0,8190.0,-0.3517,0.6036,9.6317,-0.0367,0.0096,-0.1242,-1.2667299968055268,-0.008429128676652908,0.7508178949356079,-1.537484049797058,-0.00019840660388581455,2.0553436279296875,4.322487040156982,-0.0001529526780359447,0.26697689294815063,-1.5969775358783167,4.109546716790646e-05,-0.00013806624338030815,0.7881357073783875,-0.0,0.002610178664326668,0.7668534517288208,-6.14610653478187e-16,-0.010786965489387512
8190.0,8190.0,-0.3517,0.6036,9.6317,-0.0367,0.0096,-0.1242,-1.266774134044983,-0.008316037245094776,0.7873455286026001,-1.5375325679779053,-0.00020728846720885485,2.0730373859405518,4.322415037746094,-0.00015293739852495492,0.26867908239364624,-1.5969293753253382,3.973469210905023e-05,-0.0042409999296069145,0.7880997657775879,-0.0,-0.007754794787615538,0.7668375372886658,-1.484212434925885e-21,0.00031986087560653687
8190.0,8190.0,-0.3517,0.6036,9.6317,-0.0367,0.0096,-0.1242,-1.2668058735183259,-0.007508574519306421,0.762667179107666,-1.5375522375106812,-0.00018411882047075778,2.0918378829956055,4.322431250209473,-0.00018303663819096982,0.29031699895858765,-1.596961800252096,7.221584996663921e-10,-0.010734984651207924,0.7880998253822327,-0.0,-0.007508906535804272,0.7668535113334656,-4.80865947773362e-29,-0.009457317180931568
8190.0,8190.0,-0.3517,0.6036,9.6317,-0.0367,0.0096,-0.1242,-1.2668859523585816,-0.007615660782903433,0.7541144490242004,-1.5375244617462158,-0.00018839795666281134,2.0632879734039307,4.322418852443359,-0.0002273334248457104,0.28006696701049805,-1.5969980398761194,1.3124873773527265e-14,-0.0030208388343453407,0.7880956530570984,-0.0,0.002584483940154314,0.7668335437774658,-1.5579447095018694e-36,0.01946273259818554
8190.0,8190.0,-0.3517,0.6036,9.6317,-0.0367,0.0096,-0.1242,-1.2668653291514893,-0.008467309176921844,0.7850552797317505,-1.5375399589538574,-0.00014865066623315215,2.0731301307678223,4.322426958675049,-0.0005477495724335313,0.27200865745544434,-1.5969775358783167,3.653357326264979e-18,-0.005639062728732824,0.7880997657775879,-0.0,-0.008762508630752563,0.7668614387512207,-3.762486376712134e-42,-0.01981533132493496
8190.0,8190.0,-0.3517,0.6036,9.6317,-0.0367,0.0096,-0.1242,-1.2670061749270936,-0.009950055740773678,0.7673178911209106,-1.5376163721084595,-0.0011847612913697958,2.040153980255127,4.322406931514404,-0.0011690292740240693,0.26498478651046753,-1.5969856421100062,6.639795538679667e-23,-0.005788449198007584,0.7881120443344116,-0.0,-0.0028299526311457157,0.7668896317481995,0.0,-0.06044472008943558
8190.0,8190.0,-0.3517,0.6036,9.6317,-0.0367,0.0096,-0.1242,-1.2671097379973908,-0.011830423027276993,0.764492928981781,-1.5375839471817017,-0.0019885399378836155,2.0719804763793945,4.322335405940674,-0.001193404896184802,0.2716653347015381,-1.5969093481646937,1.2067498586296348e-27,-0.0051057590171694756,0.7880915999412537,-0.0,-0.0010749159846454859,0.7668255567550659,0.0,-0.011072881519794464
8190.0,8190.0,-0.3517,0.6036,9.6317,-0.0367,0.0096,-0.1242,-1.2671736937812348,-0.014294098131358624,0.7228118181228638,-1.5375721454620361,-0.0034829655196517706,2.029526472091675,4.322311087245605,-0.0011405365075916052,0.2792234718799591,-1.5969293753253382,3.359031766302396e-31,-0.0012407172471284866,0.788111686706543,-0.0,0.01098618470132351,0.7668575048446655,0.0,-0.02478630281984806
8190.0,8190.0,-0.3517,0.6036,9.6317,-0.0367,0.0096,-0.1242,-1.2672897440246125,-0.019167574122548103,0.6604017019271851,-1.5376756191253662,-0.006161000579595566,2.024364948272705,4.322335405940674,-0.0014868786092847586,0.2643046975135803,-1.5969494024859827,8.563483424950391e-05,0.011108716949820518,0.7881357669830322,-0.0,-0.009159872308373451,0.7668055891990662,0.0,-0.03717731684446335
8190.0,8190.0,-0.3517,0.6036,9.6317,-0.0367,0.0096,-0.1242,-1.2674374741366883,-0.024005070328712463,0.6311882734298706,-1.5376839637756348,-0.005056231748312712,2.033421277999878,4.322303457851074,-0.002900797873735428,0.25953274965286255,-1.5969818274127405,9.470387158216909e-05,0.03016827255487442,0.7880799770355225,-0.0,0.005632844753563404,0.7668895721435547,0.0,-0.050726938992738724
8190.0,8190.0,-0.1466,1.4249,9.5456,-0.0226,0.0102,-0.1342,-1.2676422160914917,-0.027710244059562683,0.6392012238502502,-1.5376918315887451,-0.002782175550237298,2.0296387672424316,4.322271509761475,-0.00795288011431694,0.2582363486289978,-1.596921745930807,9.737090294947848e-05,0.0231339018791914,0.7881076335906982,-0.0,-0.002411825582385063,0.7668737173080444,-3.789341644733213e-05,-0.0965355709195137
8190.0,8190.0,-0.1466,1.4249,9.5456,-0.0226,0.0102,-0.1342,-1.2678338152221222,-0.033386316150426865,0.5823219418525696,-1.5377037525177002,-0.0007266231114044785,2.0342493057250977,4.322179480189941,-0.015315106138586998,0.24254781007766724,-1.5969417730914515,0.00010480008495505899,0.01599534973502159,0.7881239056587219,-0.0,-0.00567640271037817,0.7667895555496216,-4.328804061515257e-05,-0.09328116476535797
8190.0,8190.0,-0.1466,1.4249,9.5456,-0.0226,0.0102,-0.1342,-1.2681580048850556,-0.03943191096186638,0.5748894214630127,-1.537748098373413,-0.00023337654420174658,1.9817696809768677,4.322067423457764,-0.01577206887304783,0.24100658297538757,-1.5969579855548304,0.0002537280088290572,0.023690368980169296,0.7881520986557007,-0.0,0.0014365233946591616,0.7668375372886658,-3.9489383198088035e-05,-0.0846564918756485
8190.0,8190.0,-0.1466,1.4249,9.5456,-0.0226,0.0102,-0.1342,-1.2684736114791413,-0.04795882850885391,0.5344606637954712,-1.5377440452575684,-0.0002211744722444564,1.9925111532211304,4.3219639497944335,-0.010759449563920498,0.24180030822753906,-1.596978489552633,0.00028968797414563596,0.03194069117307663,0.7880717515945435,-0.0,-0.010302526876330376,0.7668295502662659,-3.630359788076021e-05,-0.06825832277536392
8190.0,8190.0,-0.1466,1.4249,9.5456,-0.0226,0.0102,-0.1342,-1.2687980097583313,-0.05182240158319473,0.5000087022781372,-1.5376999378204346,-0.0002452296612318605,2.0080249309539795,4.321891947383545,-0.010728269815444946,0.23459890484809875,-1.5969298521624964,0.0004429208638612181,0.02682209387421608,0.7880678176879883,-0.0,-0.0006533332634717226,0.7668777108192444,-5.1348157285247e-05,-0.0885808914899826
8190.0,8190.0,-0.1466,1.4249,9.5456,-0.0226,0.0102,-0.1342,-1.2692860525897522,-0.061281200498342514,0.49388450384140015,-1.5377037525177002,-0.0002368493878748268,2.0282633304595947,4.321828051204346,-0.011992154642939568,0.2286013960838318,-1.5969298521624964,0.0007012303685769439,0.03427854925394058,0.7880676984786987,-0.0,-0.0023135351948440075,0.7668735384941101,-6.362368003465235e-05,-0.07265741378068924
8190.0,8190.0,-0.1466,1.4249,9.5456,-0.0226,0.0102,-0.1342,-1.2698058944991608,-0.07124041765928268,0.4503249526023865,-1.537764549255371,-0.00018803369312081486,1.926857590675354,4.321675940150879,-0.01491728238761425,0.2318190038204193,-1.596893612538473,0.0013736364198848605,0.041502490639686584,0.7880840301513672,-0.0,0.00018698908388614655,0.7668776512145996,-5.942381176282652e-05,-0.1016242653131485
8190.0,8190.0,-0.1466,1.4249,9.5456,-0.0226,0.0102,-0.1342,-1.2701932948878785,-0.07710505276918411,0.41032230854034424,-1.5377564430236816,-0.00040250507299788296,1.9568029642105103,4.321571989650391,-0.020940858870744705,0.20166459679603577,-1.5968616644488733,0.004918833263218403,0.046640798449516296,0.7880880832672119,-0.0,-0.008237745612859726,0.7669016122817993,-5.662008697981946e-05,-0.07198458909988403
8190.0,8190.0,-0.1466,1.4249,9.5456,-0.0226,0.0102,-0.1342,-1.2709137958339234,-0.08866176009178162,0.34306079149246216,-1.5377197265625,-0.0009268622379750013,1.9342374801635742,4.3213769632526855,-0.03362102061510086,0.20983366668224335,-1.596830193196432,0.020578637719154358,0.053677141666412354,0.7881119847297668,-0.0,-0.007190256845206022,0.7668494582176208,-3.953847772208974e-05,-0.09517335146665573
8190.0,8190.0,-0.1466,1.4249,9.5456,-0.0226,0.0102,-0.1342,-1.2716656786254426,-0.09954184293746948,0.31881090998649597,-1.5376518964767456,-0.000515138148330152,1.9441776275634766,4.321072741145752,-0.05247070640325546,0.16740351915359497,-1.5966737906085413,0.008776377886533737,0.05309923365712166,0.7881157398223877,-0.0,-0.006880797911435366,0.7668855786323547,-1.4501709166836463e-08,-0.08330538868904114
8190.0,8190.0,-0.1466,1.4249,9.5456,-0.0226,0.0102,-0.1342,-1.2722694438746949,-0.10694865137338638,0.34956490993499756,-1.5376877784729004,-0.0003067233192268759,1.9221081733703613,4.320681257838867,-0.07054092735052109,0.16205739974975586,-1.5967019240008753,-0.0005536276148632169,0.045743975788354874,0.7881280779838562,-0.0,-0.011401845142245293,0.76688551902771,-3.501991651853019e-14,-0.03734389320015907
8190.0,8190.0,-0.1466,1.4249,9.5456,-0.0226,0.0102,-0.1342,-1.2731608611396332,-0.12118798494338989,0.2367762327194214,-1.5376673936843872,-0.00022874488786328584,1.8851509094238281,4.320038004512451,-0.09427516162395477,0.15245582163333893,-1.5967500845538538,-0.0010655955411493778,0.04295429587364197,0.788063645362854,-0.0,-0.006455587223172188,0.7668976187705994,-1.1346006918160657e-21,-0.07834203541278839
8190.0,8190.0,-0.9505,0.14,9.3757,-0.0495,-0.0747,-0.1315,-1.2742251318744202,-0.13581106066703796,0.25621309876441956,-1.5377200841903687,-0.00013678909454029053,1.8877019882202148,4.3192149835773925,-0.10032758861780167,0.1357591152191162,-1.596677605305807,-0.000537436397280544,0.046312883496284485,0.7880922555923462,-0.0,-0.01859298348426819,0.7668896317481995,-3.675962299541155e-29,-0.08977176994085312
8190.0,8190.0,-0.9505,0.14,9.3757,-0.0495,-0.0747,-0.1315,-1.2750407618335267,-0.1470527946949005,0.2213832139968872,-1.5377159118652344,-0.00011873954645125195,1.917888879776001,4.318608446712158,-0.08821111917495728,0.15409623086452484,-1.59674579301943,-0.000395502574974671,0.045499153435230255,0.7881037592887878,-0.0,-0.009510161355137825,0.7668895721435547,-8.877017078920021e-35,-0.09379543364048004
8190.0,8190.0,-0.9505,0.14,9.3757,-0.0495,-0.0747,-0.1315,-1.2763086718371888,-0.1566053181886673,0.22306086122989655,-1.5377278327941895,-0.00010097603808389977,1.879611849784851,4.317916555995605,-0.08977705240249634,0.1548166424036026,-1.5966900030719202,-0.0002925657609011978,0.04648663103580475,0.788111686706543,-0.0,-0.01909611001610756,0.7668654918670654,-2.8754644487945246e-42,-0.026205983012914658
8190.0,8190.0,-0.9505,0.14,9.3757,-0.0495,-0.0747,-0.1315,-1.27770488083873,-0.15919148921966553,0.2634289860725403,-1.5376839637756348,-8.783607336226851e-05,1.952690601348877,4.317131205196045,-0.12529844045639038,0.13621684908866882,-1.5966976324664515,-0.00023216289991978556,0.04788773134350777,0.7881037592887878,-0.0,0.0016175240743905306,0.7669094800949097,0.0,-0.09734618663787842
8190.0,8190.0,-0.9505,0.14,9.3757,-0.0495,-0.0747,-0.1315,-1.2787564855865021,-0.17136646807193756,0.2502727806568146,-1.5377037525177002,-8.002566028153524e-05,1.9133141040802002,4.316208525294922,-0.14313995838165283,0.13084009289741516,-1.5966900030719202,-0.00020103783754166216,0.05776344984769821,0.7880639433860779,-0.0,-0.005473753437399864,0.7668936252593994,0.0,-0.11220809072256088
8190.0,8190.0,-0.9505,0.14,9.3757,-0.0495,-0.0747,-0.1315,-1.2802080076983948,-0.19850674271583557,0.15441608428955078,-1.5376954078674316,-5.042273551225662e-05,1.9098650217056274,4.315037413234375,-0.1410525143146515,0.11055625975131989,-1.5967138449298304,-0.00017055349599104375,0.056494832038879395,0.7881603240966797,-0.0,0.0046167089603841305,0.7669536471366882,0.0,-0.09072937071323395
8190.0,8190.0,-0.9505,0.14,9.3757,-0.0495,-0.0747,-0.1315,-1.2818474930575867,-0.2190486192703247,0.14996427297592163,-1.5376591682434082,-3.207292684237473e-05,1.833059310913086,4.31392685949292,-0.15354663133621216,0.12324880063533783,-1.5967019240008753,-0.00014809813001193106,0.06047695130109787,0.7880997657775879,-0.0,0.0035342255141586065,0.7668976187705994,0.0,-0.1248072013258934
8190.0,8190.0,-0.9505,0.14,9.3757,-0.0495,-0.0747,-0.1315,-1.2836024922183533,-0.21619203686714172,0.1792539656162262,-1.5376396179199219,0.00030869425972923636,1.8773725032806396,4.312569304103516,-0.17924126982688904,0.09922673553228378,-1.5967062155352991,-0.00010815054702106863,0.05606101453304291,0.788111686706543,-0.0,-0.006043806206434965,0.7668976187705994,0.0,-0.09423867613077164
8190.0,8190.0,-0.9505,0.14,9.3757,-0.0495,-0.0747,-0.1315,-1.2849944692901154,-0.2237011343240738,0.1632365733385086,-1.5376839637756348,0.001440643914975226,1.878129482269287,4.31153313695874,-0.1741597056388855,0.10043852031230927,-1.5966818968402308,-4.3490515963640064e-05,0.04743919521570206,0.7880997657775879,-0.0,-0.005283215083181858,0.7668936252593994,0.0,-0.13442911207675934
8190.0,8190.0,-0.9505,0.14,9.3757,-0.0495,-0.0747,-0.1315,-1.2868621808341523,-0.24761483073234558,0.2129785120487213,-1.5377200841903687,7.188775352773291e-09,1.888539433479309,4.310027285213135,-0.2056913822889328,0.09553782641887665,-1.5967019240008753,-2.2455487851402722e-05,0.0518331453204155,0.7880394458770752,-0.0,0.0018267452251166105,0.7668896317481995,0.00014437339268624783,-0.10279405117034912
8190.0,8190.0,-0.9505,0.14,9.3757,-0.0495,-0.0747,-0.1315,-1.2889299851707001,-0.2552901804447174,0.2065097540616989,-1.537671685218811,-0.0005226282519288361,1.871153712272644,4.308273478145264,-0.2168247252702713,0.09720534831285477,-1.5966938177691858,-2.0417364794411696e-05,0.04867606610059738,0.7881399393081665,-0.0,-0.009846465662121773,0.7668896317481995,0.0007246730965562165,-0.11266496032476425
8190.0,8190.0,-0.9505,0.14,9.3757,-0.0495,-0.0747,-0.1315,-1.290477679376938,-0.2606183588504791,0.27766233682632446,-1.5376920700073242,0.0005757405306212604,1.9360370635986328,4.307037993068359,-0.21749353408813477,0.09457206726074219,-1.5966818968402308,-1.9116301700705662e-05,0.04509598761796951,0.7881037592887878,-0.0,0.0001918633934110403,0.7669095396995544,0.0006499323062598705,-0.09999801218509674
8190.0,8190.0,-1.7785,0.0096,9.7525,-0.0649,-0.2899,-0.1132,-1.292572633629181,-0.2760360538959503,0.20508331060409546,-1.5376601219177246,0.0005652379477396607,1.9056963920593262,4.305144949550293,-0.22379347681999207,0.08276958018541336,-1.5966938177691858,-1.7619291611481458e-05,0.04367190599441528,0.7881194353103638,-0.0,-0.0040212878957390785,0.7668816447257996,0.00061148835811764,-0.0781000405550003
8190.0,8190.0,-1.7785,0.0096,9.7525,-0.0649,-0.2899,-0.1132,-1.2947799426368256,-0.2774396538734436,0.25777462124824524,-1.5376715660095215,0.0002444793935865164,1.9073213338851929,4.303350134486816,-0.22673672437667847,0.11297886073589325,-1.5966857115374964,-1.6339743524440564e-05,0.05779299885034561,0.7880833745002747,-0.0,-0.014383086934685707,0.7669135928153992,0.001672756508924067,-0.09258242696523666
8190.0,8190.0,-1.7785,0.0096,9.7525,-0.0649,-0.2899,-0.1132,-1.296467052107193,-0.2813483476638794,0.3233567178249359,-1.5376560688018799,0.0002570937213022262,1.9227583408355713,4.301911039943359,-0.24093027412891388,0.09022709727287292,-1.5967062155352991,-1.5495736079174094e-05,0.035869620740413666,0.7880874276161194,-0.0,-0.001814411487430334,0.7669537663459778,0.0018750973977148533,-0.09778875857591629
8190.0,8190.0,-1.7785,0.0096,9.7525,-0.0649,-0.2899,-0.1132,-1.2987393897822876,-0.2897663414478302,0.3291763961315155,-1.5376033782958984,0.00023945207067299634,1.954615592956543,4.3000475603291015,-0.2331690639257431,0.10640978813171387,-1.5966900030719202,-1.449729097657837e-05,0.042724594473838806,0.7880997657775879,-0.0,-0.015847377479076385,0.7669616341590881,0.003338034264743328,-0.09518777579069138
8190.0,8190.0,-1.7785,0.0096,9.7525,-0.0649,-0.2899,-0.1132,-1.3010217410377045,-0.2960294187068939,0.3723045885562897,-1.5376198291778564,0.00017673824913799763,1.9457687139511108,4.2981859880634765,-0.23607510328292847,0.08743028342723846,-1.5967062155352991,-2.722404315136373e-05,0.03843682259321213,0.7881357669830322,-0.0,-0.005719464272260666,0.767001748085022,0.006680014077574015,-0.0478106290102005
8190.0,8190.0,-1.7785,0.0096,9.7525,-0.0649,-0.2899,-0.1132,-1.3028019827655335,-0.29647350311279297,0.4010307192802429,-1.5376394987106323,0.00019696536764968187,1.9796967506408691,4.296827955836914,-0.22561143338680267,0.11033490300178528,-1.5966976324664515,-2.6056524802697822e-05,0.037957098335027695,0.7881037592887878,-0.0,-0.0015324980486184359,0.7670497298240662,0.005475579295307398,-0.05706744268536568
8190.0,8190.0,-1.7785,0.0096,9.7525,-0.0649,-0.2899,-0.1132,-1.305208997135498,-0.29755353927612305,0.4208158850669861,-1.537611484527588,0.00046965767978690565,1.9374785423278809,4.2950708109089355,-0.2218971699476242,0.12510232627391815,-1.5967257658587855,-2.4630335246911272e-05,0.03614641726016998,0.788091242313385,-0.0,-0.01617630571126938,0.7671058773994446,0.002776046749204397,-0.1008746325969696
8190.0,8190.0,-1.7785,0.0096,9.7525,-0.0649,-0.2899,-0.1132,-1.3076642018607636,-0.3003760576248169,0.44257593154907227,-1.5376160144805908,0.0035455869510769844,1.9538378715515137,4.29348008214917,-0.19365118443965912,0.13367480039596558,-1.5966900030719202,-2.335219869564753e-05,0.050714243203401566,0.7881439924240112,-0.0,0.004338979721069336,0.767105758190155,0.0012516314163804054,-0.0522226020693779
8190.0,8190.0,-1.7785,0.0096,9.7525,-0.0649,-0.2899,-0.1132,-1.3094917100718995,-0.29349011182785034,0.4842526912689209,-1.5375401973724365,0.0019317381083965302,1.9905126094818115,4.292347117061279,-0.19099965691566467,0.1322958767414093,-1.5967095533954065,-3.3619155146880075e-05,0.022428013384342194,0.7880998253822327,-0.0,-0.011679215356707573,0.7670537233352661,0.0009520443854853511,-0.05049540102481842
8190.0,8190.0,-1.7785,0.0096,9.7525,-0.0649,-0.2899,-0.1132,-1.3119629186442872,-0.3019976019859314,0.5294347405433655,-1.537588119506836,0.0008356089238077402,2.043015718460083,4.290997191066406,-0.1627151519060135,0.1620972603559494,-1.5967219511615198,-3.2112053304445e-05,0.03466281294822693,0.788023829460144,-0.0,0.0019402538891881704,0.7670938372612,0.0009182941867038608,-0.055224522948265076
8190.0,8190.0,-1.7785,0.0096,9.7525,-0.0649,-0.2899,-0.1132,-1.3144787412932892,-0.3010820150375366,0.5838929414749146,-1.537628412246704,0.0005162786692380905,2.014554738998413,4.289726896876953,-0.15838879346847534,0.17333704233169556,-1.5967181364642542,-4.082712985109538e-05,0.025233717635273933,0.7881439328193665,-0.0,-0.0025154510512948036,0.7671378254890442,0.001879909890703857,-0.10490114241838455
8190.0,8190.0,-1.7785,0.0096,9.7525,-0.0649,-0.2899,-0.1132,-1.3162897390178223,-0.30120667815208435,0.6189403533935547,-1.537588119506836,0.0004011747660115361,2.0184710025787354,4.288805647487305,-0.15479575097560883,0.17364534735679626,-1.596689526234762,-1.0155476957152132e-05,0.02944955788552761,0.7880637049674988,-0.0,-0.0016456980956718326,0.767197847366333,0.001999744912609458,-0.0323660634458065
8190.0,8190.0,0.3679,0.0197,9.5527,-0.0244,-0.5275,-0.1098,-1.3186845940402527,-0.31294092535972595,0.5961665511131287,-1.5375921726226807,0.00030925608007237315,1.980756402015686,4.28776137411084,-0.11650198698043823,0.18067434430122375,-1.596689526234762,-1.8457078920786074e-10,0.021082039922475815,0.788103461265564,-0.0,-0.012941942550241947,0.7671898603439331,0.0033820411190390587,-0.09113946557044983
8190.0,8190.0,0.3679,0.0197,9.5527,-0.0244,-0.5275,-0.1098,-1.3211523604444046,-0.30645379424095154,0.5731369256973267,-1.537560224533081,0.00025161157827824354,2.019564628601074,4.287032766933105,-0.07444693148136139,0.2016962170600891,-1.596633259450094,-1.7944194041774608e-05,0.040633413940668106,0.7881357669830322,-0.0,-0.009061299264431,0.7672218084335327,0.003976771142333746,-0.02903631702065468
8190.0,8190.0,0.3679,0.0197,9.5527,-0.0244,-0.5275,-0.1098,-1.3236195009997864,-0.31124070286750793,0.615074634552002,-1.5376042127609253,0.0002474284265190363,2.0507972240448,4.286581202144287,-0.04847506433725357,0.2113833725452423,-1.5967376867877405,-6.671260780422017e-05,0.03567490726709366,0.7880997657775879,-0.0,0.0048298598267138,0.7672339081764221,0.0019484233343973756,-0.0710744857788086
8190.0,8190.0,0.3679,0.0197,9.5527,-0.0244,-0.5275,-0.1098,-1.3254823994687577,-0.3078552484512329,0.661973237991333,-1.5375642776489258,0.00025396476848982275,2.0062098503112793,4.286362333888672,-0.03296877071261406,0.21432280540466309,-1.5967538992511194,-6.387276516761631e-05,0.030546078458428383,0.7881076335906982,-0.0,-0.006366484798491001,0.7672379612922668,0.0012253677705302835,0.005784014705568552
8190.0,8190.0,0.3679,0.0197,9.5527,-0.0244,-0.5275,-0.1098,-1.327934057717659,-0.30884653329849243,0.6675665378570557,-1.537588119506836,0.000181540337507613,2.0387871265411377,4.286179228419922,-0.012587228789925575,0.2493244707584381,-1.5967381636248987,-6.044119436410256e-05,0.028253350406885147,0.788123607635498,-0.0,-0.0018100158777087927,0.7672538161277771,0.0008762936340644956,-0.020729904994368553
8190.0,8190.0,0.3679,0.0197,9.5527,-0.0244,-0.5275,-0.1098,-1.3303927046111603,-0.31467923521995544,0.660733163356781,-1.5375561714172363,0.00013335092808119953,2.0110223293304443,4.286183519954346,-0.0009822907159104943,0.24473127722740173,-1.5967138449298304,-5.735948798246682e-05,0.023220209404826164,0.7880759239196777,-0.0,0.00401950441300869,0.7672458291053772,0.0009837256511673331,-0.050143636763095856
8190.0,8190.0,0.3679,0.0197,9.5527,-0.0244,-0.5275,-0.1098,-1.3322163832238694,-0.31883782148361206,0.6805845499038696,-1.537579894065857,0.0001385638752253726,2.011176586151123,4.2861830431171875,0.001970437588170171,0.2436763346195221,-1.5967138449298304,-5.524692096514627e-05,0.02202373743057251,0.7880717515945435,-0.0,-0.004276186227798462,0.7672498226165771,0.0007278464618138969,-0.0589720793068409
8190.0,8190.0,0.3679,0.0197,9.5527,-0.0244,-0.5275,-0.1098,-1.3347029250911255,-0.31696197390556335,0.749734103679657,-1.5375441312789917,0.0002560779103077948,2.059192657470703,4.28620354711499,0.0009122713818214834,0.24812373518943787,-1.5966938177691858,-5.266084190225229e-05,0.01969524845480919,0.7880759239196777,-0.0,-0.00369207002222538,0.7672218680381775,0.0005515861557796597,-0.09491321444511414
8190.0,8190.0,0.3679,0.0197,9.5527,-0.0244,-0.5275,-0.1098,-1.3372226816466828,-0.31609681248664856,0.7276235818862915,-1.5376044511795044,0.0017104343278333545,2.0446720123291016,4.286167784328125,0.0006594649166800082,0.2529832720756531,-1.596677605305807,-5.0306047342019156e-05,0.03767206892371178,0.7880800366401672,-0.0,0.0033598023001104593,0.7672458291053772,0.0001573406480019912,-0.032085299491882324
8190.0,8190.0,0.3679,0.0197,9.5527,-0.0244,-0.5275,-0.1098,-1.3391630512527009,-0.3106609880924225,0.73585045337677,-1.5375605821609497,0.002004519570618868,2.061976909637451,4.2862159448811035,0.00036224338691681623,0.23955745995044708,-1.5967138449298304,-2.1209160649959813e-07,0.02404002659022808,0.7880518436431885,-0.0,-0.0054579004645347595,0.7672259211540222,0.00012464463361538947,-0.06729158759117126
8190.0,8190.0,0.3679,0.0197,9.5527,-0.0244,-0.5275,-0.1098,-1.3416682493737717,-0.3043329119682312,0.7503888607025146,-1.5374881029129028,0.0018936841515824199,2.090085983276367,4.286163969630859,0.0003282128309365362,0.24682822823524475,-1.5967062155352991,-3.854660080709893e-12,0.030277825891971588,0.7881075739860535,-0.0,-0.005715036299079657,0.7672779560089111,9.76046358118765e-05,-0.06713791936635971
8190.0,8190.0,0.3679,0.0197,9.5527,-0.0244,-0.5275,-0.1098,-1.3442784410766144,-0.31754031777381897,0.724966287612915,-1.5375407934188843,0.0009250853327102959,1.9921938180923462,4.2862273889729,0.00026402666117064655,0.24667102098464966,-1.596733872090475,-7.005654658529648e-17,0.023998238146305084,0.7880759835243225,-0.0,-0.006246901582926512,0.7672458291053772,8.020633686101064e-05,-0.06451552361249924
1117.0,8190.0,1.4183,0.35,9.5324,-0.0192,-0.2734,-0.1324,-1.346179486518242,-0.3131052851676941,0.7926064729690552,-1.5375407934188843,0.000457526883110404,2.025181293487549,4.286179228419922,0.0001919177157105878,0.24804344773292542,-1.5967419783221644,-1.9500498597602062e-20,0.026131507009267807,0.7881235480308533,-0.0,0.0007157073705457151,0.7672218680381775,7.074835593812168e-05,-0.10646162927150726
1117.0,8190.0,1.4183,0.35,9.5324,-0.0192,-0.2734,-0.1324,-1.348688931470253,-0.3217141032218933,0.7390494346618652,-1.5375046730041504,0.00030325757688842714,2.0316920280456543,4.286171599025391,0.00013142352690920234,0.2579393684864044,-1.596677605305807,-3.544119333190966e-25,0.028675269335508347,0.7881197929382324,-0.0,-0.007089658174663782,0.7672098875045776,6.113617564551532e-05,-0.07832387834787369
1117.0,8190.0,1.4183,0.35,9.5324,-0.0192,-0.2734,-0.1324,-1.351303593521454,-0.3228864073753357,0.7741795778274536,-1.5374798774719238,0.00022600115335080773,2.038646936416626,4.286163492793701,-4.1592222260078415e-05,0.2475418746471405,-1.596677605305807,-6.441261414257342e-30,0.03206276521086693,0.7880637049674988,-0.0,-7.502268999814987e-06,0.7672179341316223,5.382363451644778e-05,-0.07269959896802902
1117.0,8190.0,1.4183,0.35,9.5324,-0.0192,-0.2734,-0.1324,-1.3531639885953446,-0.32084396481513977,0.7363148927688599,-1.5375161170959473,5.6333377870032564e-05,2.0606701374053955,4.286143465633057,-0.00010357335850130767,0.24107983708381653,-1.5967181364642542,-1.7929486562016106e-33,0.032611701637506485,0.788111686706543,-0.0,-0.010519723407924175,0.7672057747840881,2.4696599211893044e-05,-0.12241402268409729
1117.0,8190.0,1.4183,0.35,9.5324,-0.0192,-0.2734,-0.1324,-1.3557457041791459,-0.3238281309604645,0.7473422288894653,-1.5374881029129028,8.999559941003099e-05,2.0178544521331787,4.286163492793701,-0.00012893356324639171,0.22868645191192627,-1.5967181364642542,-3.2585959842628086e-38,0.04092138260602951,0.7881037592887878,-0.0,-0.010015344247221947,0.7671898007392883,1.988769565697268e-11,-0.15298114717006683
1117.0,8190.0,1.4183,0.35,9.5324,-0.0192,-0.2734,-0.1324,-1.3583274644664307,-0.320761114358902,0.6966386437416077,-1.5375046730041504,0.0001499421923654154,2.021230697631836,4.286175890559814,-0.0001414980652043596,0.2324696183204651,-1.5966900030719202,-5.927492504093976e-43,0.047492969781160355,0.7880997657775879,-0.0,-0.0023971586488187313,0.7672259211540222,6.443360087621491e-19,-0.09268535673618317
1117.0,8190.0,1.4183,0.35,9.5324,-0.0192,-0.2734,-0.1324,-1.3603011977723618,-0.32851243019104004,0.6858949065208435,-1.53753662109375,0.0001039358030539006,1.9788824319839478,4.286087198848389,-0.000467198173282668,0.22642189264297485,-1.5967062155352991,-0.0,0.041522346436977386,0.7880717515945435,-0.0,-0.02111724391579628,0.7672178745269775,0.0001563919213367626,-0.11835245788097382
1117.0,8190.0,1.4183,0.35,9.5324,-0.0192,-0.2734,-0.1324,-1.3628911984017869,-0.33419832587242126,0.65684974193573,-1.5375645160675049,8.70979783940129e-05,2.005640745162964,4.286099596614502,-0.0015452837105840445,0.2264920473098755,-1.5967219511615198,-0.0,0.040675126016139984,0.7880116105079651,-0.0,-0.02013809233903885,0.7671579718589783,9.261716331820935e-05,-0.10413321852684021
1117.0,8190.0,1.4183,0.35,9.5324,-0.0192,-0.2734,-0.1324,-1.3654800665429612,-0.3358314037322998,0.6479174494743347,-1.537496566772461,0.00010285681491950527,2.0300793647766113,4.286107702846191,-0.0011581691214814782,0.2216150313615799,-1.5967257658587855,-0.0,0.048940259963274,0.7881603240966797,-0.0,-0.02025507763028145,0.7672379016876221,3.29571349766411e-07,-0.09243001788854599
1117.0,8190.0,1.4183,0.35,9.5324,-0.0192,-0.2734,-0.1324,-1.3681987536004563,-0.33790937066078186,0.6670023202896118,-1.5374763011932373,0.0002920192782767117,1.9888859987258911,4.286127730006836,-0.0007995638297870755,0.21484513580799103,-1.5966900030719202,-0.0,0.04739706590771675,0.7880800366401672,-0.0,-0.002588279778137803,0.7671898007392883,1.0677692250890027e-14,-0.03219864144921303
1117.0,8190.0,1.4183,0.35,9.5324,-0.0192,-0.2734,-0.1324,-1.370231644516327,-0.33460551500320435,0.6472192406654358,-1.5374486446380615,0.004013312514871359,2.0066888332366943,4.286115809077881,-0.0005099859554320574,0.22866205871105194,-1.5967095533954065,-0.0,0.04316185414791107,0.7880957126617432,-0.0,-0.017352500930428505,0.767201840877533,2.5785370039753084e-20,-0.08755964040756226
1117.0,8190.0,1.4183,0.35,9.5324,-0.0192,-0.2734,-0.1324,-1.3729898792556305,-0.33016785979270935,0.6853158473968506,-1.5373882055282593,0.007837710902094841,1.997985601425171,4.286099119777344,-0.00041924003744497895,0.22005552053451538,-1.5966938177691858,-0.0,0.04797887057065964,0.7880997657775879,-0.0,-0.011904854327440262,0.7671938538551331,8.354132319822762e-28,-0.07559466361999512
8190.0,1129.0,0.5509,0.207,9.3613,-0.0321,-0.2654,-0.1185,-1.3757594686797638,-0.34014350175857544,0.6100419163703918,-1.5373927354812622,0.0032443334348499775,1.9925428628921509,4.286075754756592,-0.0004573720507323742,0.20197510719299316,-1.5966900030719202,-0.0,0.05367433279752731,0.7880518436431885,-0.0,-0.0007447074167430401,0.7672299742698669,2.706632565981565e-35,-0.09786313772201538
8190.0,1129.0,0.5509,0.207,9.3613,-0.0321,-0.2654,-0.1185,-1.3777922701886673,-0.33953309059143066,0.6713299751281738,-1.5373038053512573,0.0013482493814080954,1.9427123069763184,4.286067648524902,-0.0005182441673241556,0.20264288783073425,-1.5966656843768519,-0.0,0.04801197722554207,0.788084089756012,-0.0,-0.0003341063857078552,0.7672379016876221,6.536216556996677e-41,-0.11894915997982025
8190.0,1129.0,0.5509,0.207,9.3613,-0.0321,-0.2654,-0.1185,-1.3805909019759675,-0.3526776134967804,0.6076594591140747,-1.5374205112457275,2.2080170936078503e-07,1.9322736263275146,4.286003275508545,-0.002264773240312934,0.20672078430652618,-1.5967138449298304,-0.0,0.04319927468895912,0.7881356477737427,-0.0,-0.013975018635392189,0.7672099471092224,0.0,-0.0606941357254982
8190.0,1129.0,0.5509,0.207,9.3613,-0.0321,-0.2654,-0.1185,-1.383324221973755,-0.3510337173938751,0.6227676868438721,-1.5374083518981934,7.153695530100288e-15,1.9482970237731934,4.2859837251850585,-0.008488697931170464,0.18290936946868896,-1.5967143217669886,-0.0,0.048032473772764206,0.7881079316139221,-0.0,-0.018513785675168037,0.7671778202056885,0.0,-0.12810328602790833
8190.0,1129.0,0.5509,0.207,9.3613,-0.0321,-0.2654,-0.1185,-1.3854136925986786,-0.3549821376800537,0.5547051429748535,-1.5373564958572388,-0.0001422733475919813,1.899094581604004,4.2859484392353515,-0.010292612947523594,0.19963836669921875,-1.5966900030719202,-0.0,0.04329577088356018,0.7880476713180542,-0.0,-0.01268704142421484,0.7672178745269775,0.0,-0.051492154598236084
8190.0,1129.0,0.5509,0.207,9.3613,-0.0321,-0.2654,-0.1185,-1.3882441234639664,-0.3476199805736542,0.6125595569610596,-1.537360668182373,-4.609475561662135e-12,1.990727186203003,4.285839720363281,-0.009824142791330814,0.17878171801567078,-1.5966699759112757,-0.0,0.049324020743370056,0.7880721688270569,-0.0,-0.020905137062072754,0.7672339081764221,0.0,-0.12387336790561676
8190.0,1129.0,0.5509,0.207,9.3613,-0.0321,-0.2654,-0.1185,-1.3910378080657502,-0.34826958179473877,0.6116500496864319,-1.5373764038085938,-1.4934113941958136e-19,1.9379069805145264,4.285833044643066,-0.00847166683524847,0.18676510453224182,-1.5967219511615198,-0.0,0.05147866532206535,0.7880880236625671,-0.0,-0.02397434413433075,0.7671898007392883,0.0,-0.10530206561088562
8190.0,1129.0,0.5509,0.207,9.3613,-0.0321,-0.2654,-0.1185,-1.3930469167283555,-0.3508954644203186,0.6137391328811646,-1.537400484085083,-0.00030228603282012045,1.9626662731170654,4.285696192378662,-0.009526188485324383,0.18024194240570068,-1.5966656843768519,-8.50673576024974e-09,0.053060997277498245,0.7880517840385437,-0.0,-0.015138832852244377,0.7672299146652222,0.0,-0.09641319513320923
8190.0,1129.0,0.5509,0.207,9.3613,-0.0321,-0.2654,-0.1185,-1.3958566796830674,-0.35792866349220276,0.5467616319656372,-1.5374329090118408,-0.0003286879218649119,1.9720643758773804,4.2856971460529785,-0.01103531289845705,0.1802380084991455,-1.5967219511615198,-1.5460571191339145e-13,0.05547033250331879,0.7881197333335876,-0.0,-0.024389412254095078,0.7671778202056885,0.0,-0.08508164435625076
8190.0,1129.0,0.5509,0.207,9.3613,-0.0321,-0.2654,-0.1185,-1.3986989122680207,-0.36265265941619873,0.6017091274261475,-1.5373845100402832,-4.251604877936188e-06,1.9290063381195068,4.2856170374104,-0.00919315218925476,0.17943298816680908,-1.5966857115374964,-2.8098820828252693e-18,0.04954269528388977,0.7880997657775879,-0.0,-0.01316941436380148,0.7672616243362427,0.0,-0.1549537479877472
8190.0,1129.0,0.5509,0.207,9.3613,-0.0321,-0.2654,-0.1185,-1.4008681935122986,-0.3643191158771515,0.6017611026763916,-1.5373482704162598,-1.0267124823937213e-11,1.915431022644043,4.285529299373291,-0.00531221367418766,0.18733927607536316,-1.5966818968402308,-7.821410724859771e-22,0.06802234053611755,0.788084089756012,-0.0,-0.026603689417243004,0.7671938538551331,0.0,-0.14757050573825836
8190.0,1129.0,0.5509,0.207,9.3613,-0.0321,-0.2654,-0.1185,-1.4037602555802842,-0.35277360677719116,0.6341971158981323,-1.5373083353042603,0.0025207072030752897,1.9832346439361572,4.285585089320801,-0.0006194205489009619,0.19556333124637604,-1.5966981093036097,-1.421502699304975e-26,0.05437925457954407,0.7881239056587219,-0.0,-0.012482844293117523,0.7672219276428223,0.0,-0.15679344534873962
1097.0,8190.0,0.7077,0.0066,9.1388,-0.0536,-0.3201,-0.1239,-1.4067486685565491,-0.3551190197467804,0.6872209310531616,-1.5372928380966187,0.0022821396123617887,1.9834022521972656,4.285553141231201,-0.00023274400155059993,0.20011639595031738,-1.5966737906085413,-2.58351088819203e-31,0.05680231750011444,0.7880480289459229,-0.0,-0.023876748979091644,0.7672576904296875,0.0,-0.1514621376991272
1097.0,8190.0,0.7077,0.0066,9.1388,-0.0536,-0.3201,-0.1239,-1.4089083832553406,-0.35275033116340637,0.7039017677307129,-1.5373042821884155,0.0011872274335473776,1.9390687942504883,4.285553141231201,-0.00016760452126618475,0.19298094511032104,-1.5967062155352991,-7.191297912796507e-35,0.060285020619630814,0.7881157398223877,-0.0,-0.021874137222766876,0.7672179341316223,0.0,-0.1476413458585739
1097.0,8190.0,0.7077,0.0066,9.1388,-0.0536,-0.3201,-0.1239,-1.4117730420878907,-0.36802756786346436,0.7368588447570801,-1.5373165607452393,-0.00045198670704849064,1.9951070547103882,4.285525484676025,-0.00015174418513197452,0.2009253352880478,-1.5966976324664515,-1.306982669884971e-39,0.06158207356929779,0.7880916595458984,-0.0,-0.016290025785565376,0.7672299146652222,0.0,-0.1438872069120407
1097.0,8190.0,0.7077,0.0066,9.1388,-0.0536,-0.3201,-0.1239,-1.4147493106177826,-0.3703232705593109,0.8025470972061157,-1.5373564958572388,-0.0004909105482511222,1.9781115055084229,4.285561247462891,-0.00014403693785425276,0.20253828167915344,-1.5966699759112757,-2.382207389352189e-44,0.059230025857686996,0.788084089756012,-0.0,-0.025784973055124283,0.7672417759895325,0.0,-0.17863702774047852
1097.0,8190.0,0.7077,0.0066,9.1388,-0.0536,-0.3201,-0.1239,-1.4176165920547028,-0.3741627633571625,0.784479022026062,-1.5372965335845947,-4.565706149151083e-06,2.0017802715301514,4.285517378444336,-0.00011870056914631277,0.18703243136405945,-1.5967143217669886,-0.0,0.05353160947561264,0.7880678176879883,-0.0,-0.023438796401023865,0.7672299146652222,0.0,-0.20029672980308533
1097.0,8190.0,0.7077,0.0066,9.1388,-0.0536,-0.3201,-0.1239,-1.4198175084641953,-0.3650000989437103,0.7744510173797607,-1.5373449325561523,0.0021457914263010025,2.0321712493896484,4.285504980678223,2.059996586467605e-05,0.20434050261974335,-1.5967100302325647,-0.0,0.06303753703832626,0.7881197333335876,-0.0,-0.029774069786071777,0.7672178745269775,0.0,-0.17743182182312012
1097.0,8190.0,0.7077,0.0066,9.1388,-0.0536,-0.3201,-0.1239,-1.4227054876140137,-0.36217981576919556,0.85121750831604,-1.5372848510742188,0.003866828978061676,2.022897243499756,4.285548849696777,3.3909112971741706e-05,0.20249953866004944,-1.5967181364642542,-0.0,0.06007900834083557,0.7880880832672119,-0.0,-0.01884184591472149,0.767241895198822,0.0,-0.1906774640083313
1097.0,8190.0,0.7077,0.0066,9.1388,-0.0536,-0.3201,-0.1239,-1.4256899517825623,-0.36311033368110657,0.8117521405220032,-1.537348985671997,0.0016937488690018654,1.9465491771697998,4.285557432765625,2.9467802960425615e-05,0.2074626386165619,-1.5967381636248987,-0.0,0.06629833579063416,0.7881037592887878,-0.0,-0.027933750301599503,0.7672099471092224,0.0,-0.1889270395040512
1097.0,8190.0,0.7077,0.0066,9.1388,-0.0536,-0.3201,-0.1239,-1.4277933549932023,-0.3651547431945801,0.8526196479797363,-1.5372886657714844,0.0005018874071538448,2.0129315853118896,4.285557432765625,2.683193815755658e-05,0.20825767517089844,-1.5966900030719202,-0.0,0.06890509277582169,0.7880402207374573,-0.0,-0.024613073095679283,0.7672578692436218,0.0,-0.20222069323062897
1097.0,8190.0,0.7077,0.0066,9.1388,-0.0536,-0.3201,-0.1239,-1.430769921546318,-0.3724934756755829,0.9087924957275391,-1.537256121635437,0.0003570101107470691,1.9958791732788086,4.285536928767822,2.3972861526999623e-05,0.21439331769943237,-1.5966780821429651,-0.0,0.08207796514034271,0.7880480289459229,-0.0,-0.017333190888166428,0.7672058343887329,0.0,-0.16524459421634674
1097.0,8190.0,0.7077,0.0066,9.1388,-0.0536,-0.3201,-0.1239,-1.433757634168007,-0.3657063841819763,0.8510017395019531,-1.5371965169906616,0.0013780653243884444,2.0326027870178223,4.285589380855225,2.1664467567461543e-05,0.21737036108970642,-1.5966900030719202,-0.0,0.07763247191905975,0.7880880236625671,-0.0,-0.017881199717521667,0.7671818733215332,0.0,-0.16402557492256165
1097.0,8190.0,0.7077,0.0066,9.1388,-0.0536,-0.3201,-0.1239,-1.4359776687673111,-0.3629777431488037,0.9129402041435242,-1.537217140197754,0.004831715486943722,1.9897984266281128,4.285557432765625,4.039867053506896e-05,0.20580175518989563,-1.5966900030719202,-0.0,0.06993328034877777,0.7881317734718323,-0.0,-0.014369684271514416,0.7672179341316223,-0.00017498164379503578,-0.2193818986415863
1092.0,998.0,1.5751,0.4887,9.3021,-0.0638,-0.3173,-0.1235,-1.438997672205307,-0.3588588535785675,0.9226474761962891,-1.537088394165039,0.006921782158315182,2.061542272567749,4.285608931178711,5.0833965360652655e-05,0.2175665646791458,-1.5966900030719202,-0.0,0.0623818039894104,0.7880759239196777,-0.0,-0.027310671284794807,0.7671898007392883,-0.00015143000928219408,-0.2231867015361786
1092.0,998.0,1.5751,0.4887,9.3021,-0.0638,-0.3173,-0.1235,-1.4419459712556382,-0.3635091185569763,0.9179553389549255,-1.537113070487976,0.005314953159540892,2.0436580181121826,4.285561247462891,5.138636697665788e-05,0.22164703905582428,-1.5967262426959437,-0.0,0.0698719397187233,0.7881201505661011,-0.0,-0.027166059240698814,0.7672339081764221,-0.0001078478162526153,-0.2081928253173828
1092.0,998.0,1.5751,0.4887,9.3021,-0.0638,-0.3173,-0.1235,-1.4441614311984559,-0.37119776010513306,0.9806489944458008,-1.537140965461731,0.0023026091512292624,2.0174214839935303,4.2855774599262695,4.861089837504551e-05,0.22161364555358887,-1.5966737906085413,-0.0,0.0668652206659317,0.7880156636238098,-0.0,-0.023980893194675446,0.7672378420829773,-7.387378718703985e-05,-0.22673553228378296
1092.0,998.0,1.5751,0.4887,9.3021,-0.0638,-0.3173,-0.1235,-1.4470582839897652,-0.3755156993865967,0.9628245830535889,-1.5371084213256836,0.00014887687575537711,2.0404059886932373,4.285637064571045,4.5345237595029175e-05,0.2317984253168106,-1.596733872090475,-0.0,0.0695444792509079,0.788084089756012,-0.0,-0.02387506514787674,0.7671977877616882,-8.84141045389697e-05,-0.1585685759782791
1092.0,998.0,1.5751,0.4887,9.3021,-0.0638,-0.3173,-0.1235,-1.4499256920865555,-0.371181458234787,0.9981430768966675,-1.5370969772338867,0.0004322090244386345,2.0698084831237793,4.2855774599262695,4.249078847351484e-05,0.23211093246936798,-1.5966818968402308,-0.0,0.07490018755197525,0.7881119847297668,-0.0,-0.03561505675315857,0.7671977281570435,-4.21104887209367e-05,-0.2171027958393097
1092.0,998.0,1.5751,0.4887,9.3021,-0.0638,-0.3173,-0.1235,-1.4521502417377015,-0.3615107834339142,1.0493954420089722,-1.5370731353759766,0.0036590176168829203,2.0358991622924805,4.28556935369458,7.693377119721845e-05,0.23020216822624207,-1.5966857115374964,-0.0,0.07938399910926819,0.7880997657775879,-0.0,-0.020514752715826035,0.7671618461608887,-7.38223097869195e-05,-0.20557647943496704
1092.0,998.0,1.5751,0.4887,9.3021,-0.0638,-0.3173,-0.1235,-1.454997995202877,-0.3534823954105377,1.0461431741714478,-1.5369768142700195,0.00652387784793973,2.0426127910614014,4.285608931178711,0.00011100531264673918,0.2266581952571869,-1.5967262426959437,-0.0,0.06487298011779785,0.788084089756012,-0.0,-0.019559795036911964,0.7671977281570435,-0.00020200041763018817,-0.2145015448331833
1092.0,998.0,1.5751,0.4887,9.3021,-0.0638,-0.3173,-0.1235,-1.457790197139122,-0.35248467326164246,1.0171040296554565,-1.5370372533798218,0.004979761317372322,2.090299367904663,4.285565538997314,0.00010257616668241099,0.23171858489513397,-1.5966976324664515,-0.0,0.07157918810844421,0.7881120443344116,-0.0,-0.007813614793121815,0.767197847366333,-7.113703759387136e-05,-0.1834956258535385
1092.0,998.0,1.5751,0.4887,9.3021,-0.0638,-0.3173,-0.1235,-1.4605742183378716,-0.35399603843688965,1.0815013647079468,-1.536969542503357,0.0016934541054069996,2.0517964363098145,4.2855774599262695,7.944494427647442e-05,0.22605891525745392,-1.5967143217669886,-0.0,0.062443289905786514,0.7880397439002991,-0.0,-0.020232999697327614,0.767213761806488,-5.345514364307746e-05,-0.22385451197624207
1092.0,998.0,1.5751,0.4887,9.3021,-0.0638,-0.3173,-0.1235,-1.4627667751959343,-0.3584843575954437,1.0285521745681763,-1.5368928909301758,0.0011568284826353192,2.0513477325439453,4.285581274623535,9.050358494278044e-05,0.23300261795520782,-1.5966780821429651,-0.0,0.07269352674484253,0.7881280183792114,-0.0,-0.02791893668472767,0.767201840877533,-4.5369917643256485e-05,-0.2296903282403946
1092.0,998.0,1.5751,0.4887,9.3021,-0.0638,-0.3173,-0.1235,-1.465519444351532,-0.3427092432975769,1.1381053924560547,-1.5368974208831787,0.004727872088551521,2.0796732902526855,4.285592718715332,8.484706631861627e-05,0.2139909714460373,-1.596733872090475,-0.0,0.07331845164299011,0.7881037592887878,-0.0,-0.026977550238370895,0.7672178745269775,-0.00011320538760628551,-0.2004096359014511
1092.0,998.0,1.5751,0.4887,9.3021,-0.0638,-0.3173,-0.1235,-1.4683059838465233,-0.3380974531173706,1.1308250427246094,-1.5368695259094238,0.007350218016654253,2.1079821586608887,4.285581274623535,9.313445480074733e-05,0.22769591212272644,-1.5966780821429651,-0.0,0.07512028515338898,0.7881640195846558,-0.0,-0.02881203591823578,0.7671937942504883,-9.699168003862724e-05,-0.21257701516151428
1064.0,959.0,2.0261,-0.0616,9.853,-0.0434,-0.3285,-0.1242,-1.4704154965332528,-0.327802836894989,1.1403955221176147,-1.5368213653564453,0.008093123324215412,2.095728635787964,4.285573168391846,8.917960803955793e-05,0.22990751266479492,-1.596733872090475,-0.0,0.052748002111911774,0.7880237698554993,-0.0,-0.018429899588227272,0.7672298550605774,3.931021274183877e-05,-0.23080305755138397
1064.0,959.0,2.0261,-0.0616,9.853,-0.0434,-0.3285,-0.1242,-1.4730925571969529,-0.3346926271915436,1.095501184463501,-1.536753535270691,0.0057768444530665874,2.0680301189422607,4.285553141231201,8.440073725068942e-05,0.23311378061771393,-1.5967062155352991,-0.0,0.06221809983253479,0.7881399393081665,-0.0,-0.02525542676448822,0.7672098278999329,3.346554876770824e-05,-0.2026761770248413
1064.0,959.0,2.0261,-0.0616,9.853,-0.0434,-0.3285,-0.1242,-1.4758342665484925,-0.33876746892929077,1.1652004718780518,-1.5367690324783325,0.001307109254412353,2.114957332611084,4.285589380855225,5.9595138736767694e-05,0.2219361960887909,-1.5966981093036097,-0.0,0.06595194339752197,0.7880759239196777,-0.0,-0.028953202068805695,0.7671619653701782,5.8264766266802326e-05,-0.18190470337867737
1064.0,959.0,2.0261,-0.0616,9.853,-0.0434,-0.3285,-0.1242,-1.4777929198792954,-0.33837443590164185,1.152846336364746,-1.536793828010559,-0.0005003890837542713,2.050924062728882,4.285604639644287,4.839676694246009e-05,0.248250812292099,-1.5967262426959437,-0.0,0.07074711471796036,0.7880599498748779,-0.0,-0.029978305101394653,0.7672218680381775,3.565783845260739e-05,-0.18872399628162384
1064.0,959.0,2.0261,-0.0616,9.853,-0.0434,-0.3285,-0.1242,-1.4804582980326195,-0.3359801769256592,1.174328327178955,-1.5367534160614014,-4.303288733353838e-06,2.0714471340179443,4.285545034999512,4.369536691228859e-05,0.22715413570404053,-1.5966618696795862,-0.0,0.06352943181991577,0.7880599498748779,-0.0,-0.021792471408843994,0.7671739459037781,2.787800895021064e-06,-0.21884506940841675
1064.0,959.0,2.0261,-0.0616,9.853,-0.0434,-0.3285,-0.1242,-1.483016462331154,-0.3201409578323364,1.195867896080017,-1.5367658138275146,0.00163503538351506,2.0526387691497803,4.285561247462891,5.71261189179495e-05,0.24091294407844543,-1.5966857115374964,-0.0,0.067346952855587,0.7881320714950562,-0.0,-0.034687940031290054,0.767201840877533,9.032119670238092e-14,-0.1736474633216858
1064.0,959.0,2.0261,-0.0616,9.853,-0.0434,-0.3285,-0.1242,-1.4849261355451127,-0.3167339861392975,1.1961679458618164,-1.536769986152649,0.00225178524851799,2.0660762786865234,4.285528822536133,-6.25170287094079e-05,0.23269006609916687,-1.5966818968402308,-0.0,0.0694086030125618,0.7880357503890991,-0.0,-0.027748167514801025,0.7671697735786438,2.181150681222568e-19,-0.14305807650089264
1064.0,959.0,2.0261,-0.0616,9.853,-0.0434,-0.3285,-0.1242,-1.4874639821103592,-0.31522995233535767,1.1754400730133057,-1.536681056022644,0.0010014900472015142,2.033773183822632,4.285536928767822,-4.926091423840262e-05,0.22211295366287231,-1.5966818968402308,-0.0,0.06466841697692871,0.7880640029907227,-0.0,-0.037349313497543335,0.7671898007392883,7.066650655708823e-27,-0.15225522220134735
1064.0,959.0,2.0261,-0.0616,9.853,-0.0434,-0.3285,-0.1242,-1.4900143232992669,-0.3170437812805176,1.2455849647521973,-1.536737084388733,6.812734909544815e-08,2.029252529144287,4.285557432765625,-8.009860903257504e-05,0.22525155544281006,-1.5966900030719202,-0.0,0.058891721069812775,0.7880075573921204,-0.0,-0.015352312475442886,0.7672178745269775,2.2895046073780595e-34,-0.21360856294631958
1064.0,959.0,2.0261,-0.0616,9.853,-0.0434,-0.3285,-0.1242,-1.4917597112110634,-0.3146240711212158,1.1458473205566406,-1.5367575883865356,1.645195075008002e-13,2.065729856491089,4.2855211931416015,-7.122502574929968e-05,0.2337358593940735,-1.5966900030719202,-0.0,0.07156495749950409,0.7880483865737915,-0.0,-0.025028638541698456,0.7672338485717773,5.528879142932139e-40,-0.2127547264099121
1064.0,959.0,2.0261,-0.0616,9.853,-0.0434,-0.3285,-0.1242,-1.4943747904947777,-0.313647985458374,1.1918803453445435,-1.5367461442947388,5.3302230242177824e-21,2.095278263092041,4.28554551183667,-6.149098044261336e-05,0.22436515986919403,-1.5966900030719202,-0.0,0.06923065334558487,0.7881078720092773,-0.0,-0.04059889167547226,0.7671619057655334,0.0,-0.19225364923477173
1064.0,959.0,2.0261,-0.0616,9.853,-0.0434,-0.3285,-0.1242,-1.4968191620758553,-0.29791194200515747,1.2797739505767822,-1.5367259979248047,0.003982168156653643,2.0334839820861816,4.285565538997314,-2.7289719582768157e-05,0.21671591699123383,-1.5966900030719202,1.4479265075806325e-07,0.07880444824695587,0.7880640029907227,-0.0,-0.03925716131925583,0.7671818733215332,0.0,-0.21262037754058838
1034.0,919.0,2.4221,0.2201,9.6509,-0.036,-0.2715,-0.1185,-1.4986498069814225,-0.2973272502422333,1.2083357572555542,-1.536697506904602,0.0046591367572546005,2.090975284576416,4.2855493265339355,-2.481170668033883e-05,0.23135539889335632,-1.5966532866107386,4.030357297901688e-11,0.05908748880028725,0.7881037592887878,-0.0,-0.03110361471772194,0.7671658992767334,0.0,-0.2163373827934265
1034.0,919.0,2.4221,0.2201,9.6509,-0.036,-0.2715,-0.1185,-1.5010867726853867,-0.29188433289527893,1.2701661586761475,-1.536681890487671,0.0031541173812001944,2.1019959449768066,4.285541220302246,-2.2347203412209637e-05,0.23087990283966064,-1.5966780821429651,7.324976815221659e-16,0.0649334043264389,0.7880762815475464,-0.0,-0.04195158928632736,0.7671699523925781,0.0,-0.2274247705936432
1034.0,919.0,2.4221,0.2201,9.6509,-0.036,-0.2715,-0.1185,-1.5034971472672005,-0.29201605916023254,1.2867586612701416,-1.5366941690444946,0.001457155216485262,2.099236011505127,4.285589380855225,-3.540243415045552e-05,0.22245562076568604,-1.5966532866107386,1.3312785334509076e-20,0.06953586637973785,0.7880480289459229,-0.0,-0.02645711414515972,0.767177939414978,0.0,-0.2680882513523102
1034.0,919.0,2.4221,0.2201,9.6509,-0.036,-0.2715,-0.1185,-1.5058313694647332,-0.2979586720466614,1.2894659042358398,-1.5366132259368896,0.00012490045628510416,2.096803903579712,4.285541220302246,-3.728718729689717e-05,0.23531997203826904,-1.596694294606344,2.419532538735667e-25,0.08882004022598267,0.7881086468696594,-0.0,-0.0450807586312294,0.7671977281570435,0.0,-0.2208016961812973
1034.0,919.0,2.4221,0.2201,9.6509,-0.036,-0.2715,-0.1185,-1.5075458374670525,-0.28840821981430054,1.2897591590881348,-1.5366333723068237,8.551951759727672e-05,2.0625524520874023,4.285541220302246,-5.235668504610658e-05,0.2259436845779419,-1.5966981093036097,6.734857848606855e-29,0.07692231237888336,0.7881119847297668,-0.0,-0.03023172914981842,0.7671977281570435,0.0,-0.2779008150100708
1034.0,919.0,2.4221,0.2201,9.6509,-0.036,-0.2715,-0.1185,-1.509815526460745,-0.28857237100601196,1.2588369846343994,-1.5366252660751343,0.00012381517444737256,2.105867862701416,4.285565538997314,-4.8847574362298474e-05,0.21658243238925934,-1.5966900030719202,1.2240271146543819e-33,0.08628645539283752,0.7880520820617676,-0.0,-0.046650394797325134,0.7672337889671326,0.0,-0.25046485662460327
1034.0,919.0,2.4221,0.2201,9.6509,-0.036,-0.2715,-0.1185,-1.512069908236601,-0.27871188521385193,1.3367202281951904,-1.5366374254226685,0.0001549488806631416,2.061368227005005,4.28553740560498,-4.5551136281574145e-05,0.22513237595558167,-1.5967062155352991,2.2246085358738948e-38,0.0724741742014885,0.7880599498748779,-0.0,-0.03397189825773239,0.7671898603439331,0.0,-0.2672736644744873
1034.0,919.0,2.4221,0.2201,9.6509,-0.036,-0.2715,-0.1185,-1.5136763018420716,-0.27074041962623596,1.2728877067565918,-1.536629319190979,0.00010962996020680293,2.048004627227783,4.28553740560498,-4.335671110311523e-05,0.22360894083976746,-1.5967062155352991,6.192337913851367e-42,0.08097025752067566,0.7880640029907227,-0.0,-0.05605842173099518,0.767177939414978,0.0,-0.2644542157649994
1034.0,919.0,2.4221,0.2201,9.6509,-0.036,-0.2715,-0.1185,-1.5158296015909691,-0.26913538575172424,1.3372750282287598,-1.5366296768188477,2.553527700399627e-08,2.085381031036377,4.285504980678223,-4.0739883843343705e-05,0.21748065948486328,-1.5966575781451624,0.0,0.09495997428894043,0.7881004214286804,-0.0,-0.05985017865896225,0.7672058343887329,0.0,-0.30360010266304016
1034.0,919.0,2.4221,0.2201,9.6509,-0.036,-0.2715,-0.1185,-1.5179680001786728,-0.2708728611469269,1.3476040363311768,-1.5367015600204468,8.273105262313128e-16,2.1009151935577393,4.285548849696777,-7.10208187229e-05,0.22713741660118103,-1.5966456572162073,0.0,0.08745614439249039,0.7880319952964783,-0.0,-0.03772525489330292,0.7672299146652222,0.0,-0.28189772367477417
1034.0,919.0,2.4221,0.2201,9.6509,-0.036,-0.2715,-0.1185,-1.5195260991207142,-0.27180215716362,1.341873288154602,-1.5366694927215576,1.99785726409472e-21,2.032099962234497,4.285529776210449,-7.406491931760684e-05,0.22134485840797424,-1.596661392842428,0.0,0.083561010658741,0.7880361080169678,-0.0,-0.05478014051914215,0.7671977281570435,0.0,-0.32933175563812256
1034.0,919.0,2.4221,0.2201,9.6509,-0.036,-0.2715,-0.1185,-1.521728978758194,-0.26474031805992126,1.328084945678711,-1.5366255044937134,6.47280257960516e-29,2.081542491912842,4.285548849696777,-6.949165981495753e-05,0.22056014835834503,-1.5966981093036097,0.0,0.08613689988851547,0.7880520820617676,-0.0,-0.03432358801364899,0.7671898007392883,0.0,-0.2814384698867798
1011.0,806.0,2.6195,0.0221,9.2859,-0.0536,-0.2532,-0.1315,-1.5237345707467576,-0.2613394856452942,1.323183536529541,-1.536662220954895,2.0971055264593328e-36,2.0362210273742676,4.285557432765625,-6.544883945025504e-05,0.21734824776649475,-1.5966780821429651,9.095451241591945e-05,0.09678038954734802,0.7880361080169678,-7.600583194289356e-05,-0.036061517894268036,0.7671618461608887,0.0,-0.2818099558353424
1011.0,806.0,2.6195,0.0221,9.2859,-0.0536,-0.2532,-0.1315,-1.5253530268422146,-0.2584085166454315,1.348710536956787,-1.536637783050537,0.000561149965506047,2.0265631675720215,4.285509272212646,-6.271252641454339e-05,0.21190878748893738,-1.5966375509845179,8.579286077292636e-05,0.08876334130764008,0.7880078554153442,-7.237963291117921e-05,-0.05824524536728859,0.7671779990196228,0.0,-0.32384657859802246
1011.0,806.0,2.6195,0.0221,9.2859,-0.0536,-0.2532,-0.1315,-1.527439748202898,-0.24426525831222534,1.414581537246704,-1.5365737676620483,0.0016206573927775025,2.0522916316986084,4.285545034999512,-5.940126720815897e-05,0.21799881756305695,-1.5966580549823206,7.971376180648804e-05,0.09084556251764297,0.7880762815475464,-6.800435221521184e-05,-0.05007598176598549,0.767213761806488,0.0,-0.28637248277664185
1011.0,806.0,2.6195,0.0221,9.2859,-0.0536,-0.2532,-0.1315,-1.529469323610403,-0.2494993358850479,1.3471050262451172,-1.5366538763046265,0.0012623638613149524,2.043647050857544,4.285565538997314,-5.642211181111634e-05,0.21058374643325806,-1.5966656843768519,8.919768879422918e-05,0.10877774655818939,0.7880156636238098,-6.412794755306095e-05,-0.043625496327877045,0.7672138810157776,0.0,-0.33954110741615295
1011.0,806.0,2.6195,0.0221,9.2859,-0.0536,-0.2532,-0.1315,-1.531048410837986,-0.25592201948165894,1.370340347290039,-1.5365976095199585,0.0002862958936020732,2.065157413482666,4.285548849696777,-5.437678555608727e-05,0.22090676426887512,-1.5966456572162073,8.51035729283467e-05,0.10747210681438446,0.7880035042762756,-6.149876571726054e-05,-0.048445701599121094,0.767177939414978,0.0,-0.3389497995376587
1011.0,806.0,2.6195,0.0221,9.2859,-0.0536,-0.2532,-0.1315,-1.533074328010418,-0.24749475717544556,1.4074785709381104,-1.5366418361663818,0.00022192893084138632,2.0369601249694824,4.285573645229004,-5.1869697927031666e-05,0.2153611183166504,-1.5966418425189417,8.005687413970008e-05,0.07041981816291809,0.7880640029907227,-5.8311165048507974e-05,-0.04620271548628807,0.767181932926178,0.0,-0.3104364275932312
1011.0,806.0,2.6195,0.0221,9.2859,-0.0536,-0.2532,-0.1315,-1.5350523118725796,-0.2518978714942932,1.3849396705627441,-1.5365976095199585,0.0001829964021453634,2.0496017932891846,4.285593672389648,-2.5133353119599633e-05,0.217878520488739,-1.5966294447528284,7.557518256362528e-05,0.08678420633077621,0.7880803346633911,-6.652208685409278e-05,-0.051406268030405045,0.767177939414978,-8.691640687175095e-05,-0.2848559617996216
1011.0,806.0,2.6195,0.0221,9.2859,-0.0536,-0.2532,-0.1315,-1.5365947943976899,-0.25309446454048157,1.417745590209961,-1.5365737676620483,0.00015207040996756405,2.0899946689605713,4.285517378444336,-6.995961143729801e-09,0.2068055272102356,-1.5966218153582972,7.252993964357302e-05,0.09132716059684753,0.7880803346633911,-6.415425741579384e-05,-0.05950820818543434,0.7671898007392883,-9.836270328378305e-05,-0.3367009460926056
1011.0,806.0,2.6195,0.0221,9.2859,-0.0536,-0.2532,-0.1315,-1.538553250288107,-0.24290411174297333,1.4258666038513184,-1.5366419553756714,-9.471922385273501e-05,2.0484189987182617,4.285566015834473,-1.2714812926487018e-13,0.21044646203517914,-1.5966175238238733,6.883192691020668e-05,0.09104349464178085,0.7880803942680359,-6.12438889220357e-05,-0.05466708540916443,0.767241895198822,-0.00010540170478634536,-0.31530559062957764
1011.0,806.0,2.6195,0.0221,9.2859,-0.0536,-0.2532,-0.1315,-1.540527708163001,-0.24588504433631897,1.3881115913391113,-1.536605715751648,-0.00013696624955628067,2.039968252182007,4.285509272212646,-2.3108539454393783e-18,0.2042248398065567,-1.5966656843768519,7.640729745617136e-05,0.08002856373786926,0.7880640029907227,-5.036546326664393e-07,-0.0548284649848938,0.767213761806488,-0.00010036049934569746,-0.30444613099098206
1011.0,806.0,2.6195,0.0221,9.2859,-0.0536,-0.2532,-0.1315,-1.542558304300048,-0.25234895944595337,1.397599458694458,-1.536577582359314,-0.00017851093434728682,2.0534374713897705,4.285484953517578,-4.1998623272386476e-23,0.21994927525520325,-1.5967066923724573,7.287284824997187e-05,0.09942871332168579,0.7880319952964783,-9.153673478923263e-12,-0.05127311497926712,0.7671858668327332,-9.434860112378374e-05,-0.32104939222335815
1011.0,806.0,2.6195,0.0221,9.2859,-0.0536,-0.2532,-0.1315,-1.5439442948303004,-0.24623249471187592,1.4440078735351562,-1.5365660190582275,-6.970766116864979e-05,2.062757968902588,4.28553740560498,-1.1690471799628297e-26,0.20677173137664795,-1.596661392842428,7.042888319119811e-05,0.0865197479724884,0.7880401611328125,-2.547958326328003e-15,-0.051547080278396606,0.7671619057655334,-0.00010318846034351736,-0.307036429643631
1011.0,806.0,2.6195,0.0221,9.2859,-0.0536,-0.2532,-0.1315,-1.5459147815457364,-0.24388402700424194,1.3936253786087036,-1.5366098880767822,-5.320847049006261e-05,2.057516098022461,4.2855774599262695,-2.1246855855095804e-31,0.2149638533592224,-1.5966904799090784,1.9387396577030813e-08,0.09762928634881973,0.7880483865737915,-4.630787774914569e-20,-0.05702739581465721,0.7671778202056885,-9.759602107806131e-05,-0.32911980152130127
991.0,653.0,2.7864,0.1507,8.9701,-0.0502,-0.226,-0.1266,-1.5478365302881976,-0.24284549057483673,1.3744726181030273,-1.5366296768188477,-8.545599121134728e-05,2.017364978790283,4.285525484676025,-3.861511498085455e-36,0.20073473453521729,-1.5966575781451624,3.523562734988883e-13,0.07632535696029663,0.7880156636238098,-8.416226835753613e-25,-0.05061452090740204,0.7671658992767334,-9.25765634747222e-05,-0.31637144088745117
991.0,653.0,2.7864,0.1507,8.9701,-0.0502,-0.226,-0.1266,-1.5493201476386567,-0.24622756242752075,1.4336262941360474,-1.5366095304489136,-0.00011287719826214015,2.022160530090332,4.2855211931416015,-7.148334407247603e-05,0.20842674374580383,-1.596661392842428,9.807967873313935e-17,0.09340706467628479,0.7880401611328125,-2.342687943584266e-28,-0.05899059399962425,0.7672258019447327,-8.91382951522246e-05,-0.3489231467247009
991.0,653.0,2.7864,0.1507,8.9701,-0.0502,-0.226,-0.1266,-1.5512946036509057,-0.24908658862113953,1.425307035446167,-1.5366538763046265,-9.672070882515982e-05,2.032545804977417,4.285501165980957,-7.965837721712887e-05,0.212424173951149,-1.596649471913473,1.7825499862447662e-21,0.08689817786216736,0.7880799770355225,-4.2577191498630366e-33,-0.057824522256851196,0.7671977281570435,-0.0001225043524755165,-0.3063771724700928
991.0,653.0,2.7864,0.1507,8.9701,-0.0502,-0.226,-0.1266,-1.5532685958645125,-0.24488377571105957,1.4042911529541016,-1.5366140604019165,3.937890869565308e-05,2.0484232902526855,4.285496874446533,-7.679894042667001e-05,0.18823394179344177,-1.5966418425189417,3.23969643075198e-26,0.08585646748542786,0.7880038619041443,-7.738194888275318e-38,-0.04867944121360779,0.7671218514442444,-0.00011062571138609201,-0.3398909866809845
991.0,653.0,2.7864,0.1507,8.9701,-0.0502,-0.226,-0.1266,-1.5546949927559872,-0.248270183801651,1.4809393882751465,-1.5366177558898926,3.481594831100665e-05,2.026339530944824,4.285548849696777,-8.277401502709836e-05,0.2020687311887741,-1.5966251532184046,9.017814128208889e-30,0.097163125872612,0.7879877686500549,-2.1539358695136763e-41,-0.053434040397405624,0.7672098278999329,-8.242196781793609e-05,-0.30917656421661377
991.0,653.0,2.7864,0.1507,8.9701,-0.0502,-0.226,-0.1266,-1.556669451562204,-0.24788597226142883,1.433816909790039,-1.536634087562561,6.0300684708636254e-05,2.077176332473755,4.2855211931416015,-8.148650522343814e-05,0.21831724047660828,-1.5966861883746546,1.6389434449216623e-34,0.09414656460285187,0.7880280017852783,-0.0,-0.0513627752661705,0.7671658396720886,-7.351535168709233e-05,-0.3282855749130249
991.0,653.0,2.7864,0.1507,8.9701,-0.0502,-0.226,-0.1266,-1.5586114509827276,-0.23658280074596405,1.4961507320404053,-1.5365979671478271,0.00039413999184034765,2.062912940979004,4.28553740560498,-8.786473335931078e-05,0.19866469502449036,-1.596661392842428,2.978698106661334e-39,0.08647803962230682,0.7880197763442993,-0.0,-0.0677911788225174,0.7672056555747986,-5.540735219256021e-05,-0.35219353437423706
