ramyac6/ROB537/final_project/csv/all/good_119.csv
tof_0,tof_1,accelx,accely,accelz,gyrox,gyroy,gyroz,shoulder_lift_joint_position,shoulder_lift_joint_velocity,shoulder_lift_joint_effort,elbow_joint_position,elbow_joint_velocity,elbow_joint_effort,wrist_1_joint_position,wrist_1_joint_velocity,wrist_1_joint_effort,wrist_2_joint_position,wrist_2_joint_velocity,wrist_2_joint_effort,wrist_3_joint_position,wrist_3_joint_velocity,wrist_3_joint_effort,shoulder_pan_joint_position,shoulder_pan_joint_velocity,shoulder_pan_joint_effort
901.0,869.0,2.0752,-0.8489,9.3386,-0.0304,0.0238,-0.1162,-1.8234435520567835,0.0,3.1337461471557617,-1.6878806352615356,-0.0,2.0759057998657227,4.766204639315166,-0.0,0.2987912595272064,-1.5003817717181605,-0.0,-0.013611113652586937,0.8393568992614746,0.0,-0.011349886655807495,0.7781145572662354,0.0,-0.05121023207902908
901.0,869.0,2.0752,-0.8489,9.3386,-0.0304,0.0238,-0.1162,-1.8234764538206996,0.0,3.1064586639404297,-1.6879124641418457,-0.0,2.065220355987549,4.766184541374006,-0.0,0.2881140112876892,-1.5003979841815394,-0.0,-0.021976321935653687,0.8393847942352295,0.0,-0.010671987198293209,0.7780941128730774,0.0,0.05183245986700058
901.0,869.0,2.0752,-0.8489,9.3386,-0.0304,0.0238,-0.1162,-1.823507925073141,0.0,3.1242308616638184,-1.6879005432128906,-0.0,2.1093218326568604,4.766192636429825,-0.0,0.3032502830028534,-1.500401798878805,-0.0,-0.016599345952272415,0.8393445611000061,0.0,0.003355642780661583,0.7780858874320984,0.0,0.023657966405153275
901.0,869.0,2.0752,-0.8489,9.3386,-0.0304,0.0238,-0.1162,-1.8234802685179652,0.0,3.1149559020996094,-1.6879205703735352,-0.0,2.0896568298339844,4.766192625253954,-0.0,0.30133163928985596,-1.5004060904132288,-0.0,-0.012864560820162296,0.8394052386283875,0.0,-0.007381377276033163,0.7781181931495667,0.0,0.03285687416791916
901.0,869.0,2.0752,-0.8489,9.3386,-0.0304,0.0238,-0.1162,-1.8235279522337855,0.0,3.1490559577941895,-1.6879005432128906,-0.0,2.0489821434020996,4.766164432256975,-0.0,0.2874337434768677,-1.5003460089312952,-0.0,-0.021604878827929497,0.8393007516860962,0.0,-0.004289204254746437,0.7781022787094116,0.0,0.052768636494874954
901.0,869.0,2.0752,-0.8489,9.3386,-0.0304,0.0238,-0.1162,-1.8234716854491175,0.0,3.1753227710723877,-1.6878528594970703,-0.0,2.0472042560577393,4.766228391766109,-0.0,0.29061436653137207,-1.5003536383258265,-0.0,-0.01743701845407486,0.8393282890319824,0.0,-0.013650474138557911,0.7781384587287903,0.0,-0.010157302021980286
901.0,869.0,2.0752,-0.8489,9.3386,-0.0304,0.0238,-0.1162,-1.8234921894469203,0.0,3.203490734100342,-1.6878403425216675,-0.0,2.0576205253601074,4.766224334924974,-0.0,0.2793869376182556,-1.5003460089312952,-0.0,-0.018361669033765793,0.8393811583518982,0.0,0.00431511364877224,0.7781145572662354,0.0,-0.025965616106987
901.0,858.0,2.1404,-0.8046,9.1436,-0.0371,0.0232,-0.1148,-1.8234802685179652,0.0,3.1164984703063965,-1.6878966093063354,-0.0,2.0978357791900635,4.766196723073282,-0.0,0.2889816164970398,-1.5003579298602503,-0.0,-0.02242293953895569,0.8393688201904297,0.0,0.002467952435836196,0.7781063318252563,0.0,0.037371017038822174
901.0,858.0,2.1404,-0.8046,9.1436,-0.0371,0.0232,-0.1148,-1.8234759769835414,0.0,3.1646323204040527,-1.6878846883773804,-0.0,2.056509256362915,4.76614801862792,-0.0,0.30153611302375793,-1.5004060904132288,-0.0,-0.027957353740930557,0.8393847942352295,0.0,0.0019603075925260782,0.778142511844635,0.0,0.03090260550379753
901.0,858.0,2.1404,-0.8046,9.1436,-0.0371,0.0232,-0.1148,-1.8235122166075648,0.0,3.156635284423828,-1.6878806352615356,-0.0,2.079535484313965,4.7661762973065755,-0.0,0.2932288944721222,-1.500385586415426,-0.0,-0.017657451331615448,0.8394253849983215,0.0,-0.0056429700925946236,0.7780698537826538,0.0,0.009591467678546906
901.0,858.0,2.1404,-0.8046,9.1436,-0.0371,0.0232,-0.1148,-1.8234883747496546,0.0,3.1486387252807617,-1.6878443956375122,-0.0,2.0839221477508545,4.766220941185512,-0.0,0.293040931224823,-1.5003817717181605,-0.0,-0.011733327060937881,0.839401125907898,0.0,-0.004263253416866064,0.7781544327735901,0.0,-0.03552064672112465
901.0,858.0,2.1404,-0.8046,9.1436,-0.0371,0.0232,-0.1148,-1.8234764538206996,0.0,3.153501510620117,-1.6878925561904907,-0.0,2.0325565338134766,4.766180376499452,-0.0,0.3067464828491211,-1.500385586415426,-0.0,-0.004686059895902872,0.8393691182136536,0.0,-0.009800904430449009,0.7781181931495667,0.0,-0.019798802211880684
901.0,858.0,2.1404,-0.8046,9.1436,-0.0371,0.0232,-0.1148,-1.8234802685179652,0.0,3.1182823181152344,-1.6878807544708252,-0.0,2.0890519618988037,4.766225009202518,-0.0,0.31057798862457275,-1.5003779570208948,-0.0,-0.016637790948152542,0.8393446803092957,0.0,0.001239240518771112,0.7781145572662354,0.0,0.01929629221558571
901.0,858.0,2.1404,-0.8046,9.1436,-0.0371,0.0232,-0.1148,-1.823463579217428,0.0,3.1437790393829346,-1.6878646612167358,-0.0,2.093921184539795,4.766208644002237,-3.1013167034465994e-10,0.2963639199733734,-1.5004223028766077,-0.0,-0.032190676778554916,0.8393446803092957,0.0,0.0030620619654655457,0.7781305313110352,0.0,-0.03263812139630318
901.0,858.0,2.1404,-0.8046,9.1436,-0.0371,0.0232,-0.1148,-1.8234640560545863,0.0,3.18915057182312,-1.6879284381866455,-0.0,2.0671117305755615,4.766204974591293,-4.69817607040568e-09,0.29745006561279297,-1.5003774801837366,-0.0,-0.012234704568982124,0.8394171595573425,0.0,-0.008024650625884533,0.7781063318252563,0.0,-0.02584262564778328
901.0,858.0,2.1404,-0.8046,9.1436,-0.0371,0.0232,-0.1148,-1.823451658288473,0.0,3.1685116291046143,-1.6878443956375122,-0.0,2.0575108528137207,4.7662046169634245,-8.53870197204537e-14,0.2929210066795349,-1.500357453023092,-0.0,-0.007936527952551842,0.8393728733062744,0.0,0.002080606296658516,0.7780940532684326,0.0,0.01147817075252533
901.0,858.0,2.1404,-0.8046,9.1436,-0.0371,0.0232,-0.1148,-1.8234392605223597,0.0,3.090785026550293,-1.6878364086151123,-0.0,2.0394210815429688,4.766208629101076,-1.5518672399585645e-18,0.2879846692085266,-1.5003936926471155,-0.0,-0.013492511585354805,0.8394131660461426,0.0,0.00029356125742197037,0.7781462669372559,0.0,-0.007117834873497486
901.0,858.0,2.1404,-0.8046,9.1436,-0.0371,0.0232,-0.1148,-1.82346834758901,0.0,3.178825855255127,-1.6878364086151123,-0.0,2.101959466934204,4.766160323261776,-4.319679633342281e-22,0.2830606997013092,-1.5003936926471155,-0.0,-0.021180661395192146,0.8392888307571411,0.0,0.006023942958563566,0.7781263589859009,0.0,-0.006961333565413952
901.0,858.0,2.1404,-0.8046,9.1436,-0.0371,0.0232,-0.1148,-1.8234878979124964,0.0,3.170835256576538,-1.6878528594970703,-0.0,2.057140588760376,4.766220292985,-7.850803817773774e-27,0.2959359288215637,-1.5004022757159632,-0.0,-0.012446225620806217,0.8393447399139404,0.0,-0.006308535113930702,0.7781103849411011,0.0,-0.030232522636651993
920.0,881.0,2.1266,-0.8237,9.1406,-0.0443,0.0199,-0.1191,-1.823491712609762,0.0,3.144878387451172,-1.687876582145691,-0.0,2.078213930130005,4.766180406301775,-1.4268447830351684e-31,0.30296584963798523,-1.5004180113421839,-0.0,-0.008696477860212326,0.839401125907898,0.0,-0.0006987247616052628,0.7781302332878113,0.0,0.01742776483297348
920.0,881.0,2.1266,-0.8237,9.1406,-0.0443,0.0199,-0.1191,-1.8234597645201625,0.0,3.1346163749694824,-1.6878528594970703,-0.0,2.0400726795196533,4.766196715622701,-2.5932191720575515e-36,0.3047841191291809,-1.500357453023092,-0.0,-0.0049598547630012035,0.839388906955719,0.0,-0.00804185587912798,0.7780940532684326,0.0,0.0013288944028317928
920.0,881.0,2.1266,-0.8237,9.1406,-0.0443,0.0199,-0.1191,-1.8234640560545863,0.0,3.14506196975708,-1.6878727674484253,-0.0,2.0774998664855957,4.766192625253954,-7.218326610476068e-40,0.29776328802108765,-1.50038987794985,-0.0,-0.03017040528357029,0.8393847942352295,0.0,-0.009387876838445663,0.7780941128730774,0.0,-0.0072906482964754105
920.0,881.0,2.1266,-0.8237,9.1406,-0.0443,0.0199,-0.1191,-1.8234840832152308,0.0,3.169661045074463,-1.6878364086151123,-0.0,2.1067113876342773,4.766196715622701,-1.2611686178923354e-44,0.2916085720062256,-1.5003979841815394,-0.0,-0.019163768738508224,0.839364767074585,0.0,-0.009605547413229942,0.7781264185905457,0.0,0.027203738689422607
920.0,881.0,2.1266,-0.8237,9.1406,-0.0443,0.0199,-0.1191,-1.8234878979124964,0.0,3.1510019302368164,-1.6878966093063354,-0.0,2.069432258605957,4.766156277596512,-0.0,0.29201799631118774,-1.500385586415426,-0.0,-0.011912507936358452,0.8393568992614746,0.0,0.014399180188775063,0.7781544327735901,0.0,-0.04079616814851761
920.0,881.0,2.1266,-0.8237,9.1406,-0.0443,0.0199,-0.1191,-1.8234597645201625,0.0,3.1468749046325684,-1.6878767013549805,-0.0,2.0879950523376465,4.766228391766109,-0.0,0.2992565929889679,-1.500401798878805,-0.0,-0.016050327569246292,0.8393487930297852,0.0,0.005750387907028198,0.7781305313110352,0.0,0.0015941709280014038
920.0,881.0,2.1266,-0.8237,9.1406,-0.0443,0.0199,-0.1191,-1.823496004144186,0.0,3.176816463470459,-1.6878727674484253,-0.0,2.060375928878784,4.766196749150314,-0.0,0.3038296103477478,-1.5003297964679163,-0.0,-0.015644576400518417,0.839388906955719,0.0,-0.014592619612812996,0.7781664729118347,0.0,0.015324401669204235
920.0,881.0,2.1266,-0.8237,9.1406,-0.0443,0.0199,-0.1191,-1.823496004144186,0.0,3.149303436279297,-1.6878528594970703,-0.0,2.0147690773010254,4.766196715622701,-0.0,0.30052798986434937,-1.5003655592547815,-0.0,-0.01179785467684269,0.8393651247024536,0.0,-0.005227255169302225,0.7781181931495667,0.0,0.01607443019747734
920.0,881.0,2.1266,-0.8237,9.1406,-0.0443,0.0199,-0.1191,-1.8235002956786097,0.0,3.157174587249756,-1.6878846883773804,-0.0,2.0278141498565674,4.7661685449774644,-0.0,0.3005707859992981,-1.500373665486471,-0.0,-0.01407608576118946,0.8393241763114929,0.0,0.0027463953010737896,0.778142511844635,0.0,-0.009061976335942745
920.0,881.0,2.1266,-0.8237,9.1406,-0.0443,0.0199,-0.1191,-1.8234802685179652,0.0,3.144721508026123,-1.6878846883773804,-0.0,2.04538631439209,4.766184556275167,-0.0,0.29177945852279663,-1.5003412405597132,-0.0,-0.015649689361453056,0.8393163681030273,0.0,-0.008693762123584747,0.7780982255935669,0.0,0.015157113783061504
920.0,881.0,2.1266,-0.8237,9.1406,-0.0443,0.0199,-0.1191,-1.8234764538206996,0.0,3.1280336380004883,-1.6878886222839355,-0.0,2.0309176445007324,4.766212704568662,-0.0,0.2856311500072479,-1.5004223028766077,-0.0,-0.013620810583233833,0.8393688201904297,0.0,0.0029020668007433414,0.7781384587287903,0.0,-0.00042505934834480286
920.0,881.0,2.1266,-0.8237,9.1406,-0.0443,0.0199,-0.1191,-1.8234435520567835,0.0,3.146536111831665,-1.6879124641418457,-0.0,2.0837886333465576,4.766164398729362,-0.0,0.30988383293151855,-1.500333611165182,-0.0,-0.022248147055506706,0.8393770456314087,0.0,-0.012207981199026108,0.7781223654747009,0.0,0.030270012095570564
905.0,906.0,2.1553,-0.8381,9.082,-0.0316,0.0281,-0.1187,-1.8234759769835414,0.0,3.177049160003662,-1.6879488229751587,-0.0,2.0591607093811035,4.7661643763776205,-0.0,0.30190759897232056,-1.5004180113421839,-0.0,-0.007730366662144661,0.8393770456314087,0.0,0.0001929473364725709,0.7780900001525879,0.0,0.029344093054533005
905.0,906.0,2.1553,-0.8381,9.082,-0.0316,0.0281,-0.1187,-1.8234192333617152,0.0,3.1431994438171387,-1.687876582145691,-0.0,2.082418203353882,4.766180398851194,-0.0,0.29696834087371826,-1.500385586415426,-0.0,-0.014522857032716274,0.8393328189849854,0.0,0.00266098789870739,0.7781268358230591,0.0,-0.024987857788801193
905.0,906.0,2.1553,-0.8381,9.082,-0.0316,0.0281,-0.1187,-1.8234316311278285,0.0,3.153374195098877,-1.6879085302352905,-0.0,2.074174165725708,4.766196715622701,-0.0,0.2998698353767395,-1.5004060904132288,-0.0,-0.022528549656271935,0.8393007516860962,0.0,-0.006827161647379398,0.7781345844268799,0.0,0.011019978672266006
905.0,906.0,2.1553,-0.8381,9.082,-0.0316,0.0281,-0.1187,-1.8234640560545863,0.0,3.162351608276367,-1.687852382659912,-0.0,2.0927326679229736,4.766180383950033,-0.0,0.2908034324645996,-1.50038987794985,-0.0,-0.018757980316877365,0.8393765687942505,0.0,-0.009240709245204926,0.7781103849411011,0.0,-0.01068118866533041
905.0,906.0,2.1553,-0.8381,9.082,-0.0316,0.0281,-0.1187,-1.8234921894469203,0.0,3.116809844970703,-1.6878806352615356,-0.0,2.060574531555176,4.766196715622701,-0.0,0.28881797194480896,-1.500385586415426,-0.0,-0.013047274202108383,0.8393487930297852,0.0,-0.014239192008972168,0.7781186699867249,0.0,0.0237403754144907
905.0,906.0,2.1553,-0.8381,9.082,-0.0316,0.0281,-0.1187,-1.823507925073141,0.0,3.186103582382202,-1.6879005432128906,-0.0,2.027134895324707,4.766140638827839,-0.0,0.29092904925346375,-1.5003660360919397,-0.0,-0.007432552054524422,0.8393888473510742,0.0,-0.01668015867471695,0.7781223058700562,0.0,0.022838039323687553
905.0,906.0,2.1553,-0.8381,9.082,-0.0316,0.0281,-0.1187,-1.8234716854491175,0.0,3.1526575088500977,-1.6878526210784912,-0.0,2.0363173484802246,4.766192640155115,-0.0,0.2928175628185272,-1.5003817717181605,-0.0,-0.023180268704891205,0.8393245339393616,0.0,0.0011527433525770903,0.7780619859695435,0.0,0.009482299908995628
905.0,906.0,2.1553,-0.8381,9.082,-0.0316,0.0281,-0.1187,-1.8234921894469203,0.0,3.161712408065796,-1.6879005432128906,-0.0,2.07546067237854,4.766236315458574,-0.0,0.2986944615840912,-1.5003693739520472,-0.0,-0.01693209633231163,0.839404821395874,0.0,0.0011762813664972782,0.7781584858894348,0.0,0.030743779614567757
905.0,906.0,2.1553,-0.8381,9.082,-0.0316,0.0281,-0.1187,-1.823496004144186,0.0,3.1509931087493896,-1.6878323554992676,-0.0,2.0789122581481934,4.766192640155115,-0.0,0.2875015139579773,-1.5004180113421839,-0.0,-0.017670538276433945,0.839364767074585,0.0,-0.017081746831536293,0.7781103849411011,0.0,0.007940798997879028
905.0,906.0,2.1553,-0.8381,9.082,-0.0316,0.0281,-0.1187,-1.8234716854491175,0.0,3.191535711288452,-1.6878528594970703,-0.0,2.0659046173095703,4.7662086365516565,-0.0,0.30490463972091675,-1.5003655592547815,-0.0,-0.0192079059779644,0.8393811583518982,0.0,-0.010202664881944656,0.7781462669372559,0.0,0.054394036531448364
905.0,906.0,2.1553,-0.8381,9.082,-0.0316,0.0281,-0.1187,-1.8235322437682093,0.0,3.143338203430176,-1.6878528594970703,-0.0,2.072068691253662,4.766216895520248,-0.0,0.3009173274040222,-1.5004342238055628,-0.0,-0.023178784176707268,0.839364767074585,0.0,0.007667265832424164,0.7781305313110352,0.0,-0.00485033355653286
905.0,906.0,2.1553,-0.8381,9.082,-0.0316,0.0281,-0.1187,-1.823467870751852,0.0,3.160593032836914,-1.6879408359527588,-0.0,2.062753915786743,4.766192640155115,-0.0,0.2931365370750427,-1.5003812948810022,-0.0,-0.015823518857359886,0.8393568992614746,0.0,-0.0013597644865512848,0.778142511844635,0.0,0.04444803670048714
905.0,906.0,2.1553,-0.8381,9.082,-0.0316,0.0281,-0.1187,-1.8235241375365199,0.0,3.142169237136841,-1.6878647804260254,-0.0,2.0703048706054688,4.766204952239551,-0.0,0.2859102487564087,-1.500385586415426,-0.0,-0.01986803114414215,0.8393729329109192,0.0,-0.0012193452566862106,0.778174638748169,0.0,0.020675452426075935
897.0,852.0,2.1368,-0.7836,9.146,-0.0405,0.0252,-0.1155,-1.8234473667540492,0.0,3.1116766929626465,-1.6878687143325806,-0.0,2.0937793254852295,4.7662209560866735,-0.0,0.2978324294090271,-1.5004099051104944,-0.0,-0.011964133009314537,0.8393048644065857,0.0,-0.007170367520302534,0.7781503200531006,0.0,-0.02297009341418743
897.0,852.0,2.1368,-0.7836,9.146,-0.0405,0.0252,-0.1155,-1.8234192333617152,0.0,3.147225856781006,-1.6879005432128906,-0.0,2.1214630603790283,4.766196715622701,-0.0,0.2923864722251892,-1.5003655592547815,-0.0,-0.017837747931480408,0.8393610715866089,0.0,0.005366302095353603,0.7781544923782349,0.0,0.043073754757642746
897.0,852.0,2.1368,-0.7836,9.146,-0.0405,0.0252,-0.1155,-1.8234921894469203,0.0,3.1244914531707764,-1.6879005432128906,-0.0,2.0682766437530518,4.766196715622701,-0.0,0.27769601345062256,-1.50038987794985,-0.0,-0.016725540161132812,0.839409351348877,0.0,0.0020656289998441935,0.7781466245651245,0.0,-0.03621299937367439
897.0,852.0,2.1368,-0.7836,9.146,-0.0405,0.0252,-0.1155,-1.8234640560545863,0.0,3.152513027191162,-1.6878688335418701,-0.0,2.086364984512329,4.766180398851194,-0.0,0.2921162545681,-1.5003693739520472,-0.0,-0.010432920418679714,0.8393930792808533,0.0,-0.009861122816801071,0.7781264185905457,0.0,0.016076546162366867
897.0,852.0,2.1368,-0.7836,9.146,-0.0405,0.0252,-0.1155,-1.8234230480589808,0.0,3.1456637382507324,-1.6878607273101807,-0.0,2.0487420558929443,4.7662008730466745,-0.0,0.2909087836742401,-1.5004060904132288,-0.0,-0.007778648287057877,0.8393771052360535,0.0,-0.005129973869770765,0.7780982255935669,0.0,-0.006586229894310236
897.0,852.0,2.1368,-0.7836,9.146,-0.0405,0.0252,-0.1155,-1.8234640560545863,0.0,3.1388301849365234,-1.6878443956375122,-0.0,2.0562996864318848,4.766212726920404,-0.0,0.290638267993927,-1.5004223028766077,-0.0,-0.031344763934612274,0.8394011855125427,0.0,0.0014535102527588606,0.7781021595001221,0.0,-0.007170902099460363
897.0,852.0,2.1368,-0.7836,9.146,-0.0405,0.0252,-0.1155,-1.8234225712218226,0.0,3.1619982719421387,-1.6879369020462036,-0.0,2.039891242980957,4.766220948636093,-0.0,0.30292361974716187,-1.5003660360919397,-0.0,-0.018343206495046616,0.8394331336021423,0.0,0.0047898851335048676,0.778142511844635,0.0,0.017883967608213425
897.0,852.0,2.1368,-0.7836,9.146,-0.0405,0.0252,-0.1155,-1.823451658288473,0.0,3.1279754638671875,-1.6878767013549805,-0.0,2.0885863304138184,4.766164398729362,-0.0,0.2829188406467438,-1.5003536383258265,-0.0,-0.009852218441665173,0.8393770456314087,0.0,-0.006904783193022013,0.7781022191047668,0.0,0.015126926824450493
897.0,852.0,2.1368,-0.7836,9.146,-0.0405,0.0252,-0.1155,-1.8234721622862757,0.0,3.1273956298828125,-1.6878886222839355,-0.0,2.1102662086486816,4.766244388162651,-0.0,0.2919040322303772,-1.5004022757159632,-0.0,-0.013715236447751522,0.8393405675888062,0.0,0.0014700196916237473,0.7781223058700562,0.0,0.002941143000498414
897.0,852.0,2.1368,-0.7836,9.146,-0.0405,0.0252,-0.1155,-1.8234802685179652,0.0,3.164726495742798,-1.687800645828247,-0.0,2.100919246673584,4.766196715622701,-0.0,0.2961024343967438,-1.5004180113421839,-0.0,-0.009864464402198792,0.8393970727920532,0.0,-0.003618223825469613,0.7781384587287903,0.0,0.010133471339941025
897.0,852.0,2.1368,-0.7836,9.146,-0.0405,0.0252,-0.1155,-1.8234840832152308,0.0,3.1614937782287598,-1.6878925561904907,-0.0,2.0514464378356934,4.766192640155115,-0.0,0.29192206263542175,-1.5003979841815394,-0.0,-0.01790565624833107,0.8393245935440063,0.0,-0.0021564585622400045,0.7781063318252563,0.0,0.012907052412629128
897.0,852.0,2.1368,-0.7836,9.146,-0.0405,0.0252,-0.1155,-1.8234559498228968,0.0,3.166618824005127,-1.6879204511642456,-0.0,2.111013889312744,4.766204952239551,-0.0,0.2978426218032837,-1.5003979841815394,-0.0,-0.01278672181069851,0.8393365144729614,0.0,-0.001249081688001752,0.7780939936637878,0.0,0.030831022188067436
900.0,875.0,2.0644,-0.868,9.274,-0.0376,0.0194,-0.1179,-1.8234802685179652,0.0,3.166450262069702,-1.6879448890686035,-0.0,2.0911965370178223,4.766209027707138,-0.0,0.29782775044441223,-1.5004342238055628,-0.0,-0.017165519297122955,0.8394094705581665,0.0,-0.0033410480245947838,0.7781507968902588,0.0,0.005488729570060968
900.0,875.0,2.0644,-0.868,9.274,-0.0376,0.0194,-0.1179,-1.8234836063780726,0.0,3.178399085998535,-1.6878924369812012,-0.0,2.059748649597168,4.7662008730466745,-0.0,0.3033527433872223,-1.5004060904132288,-0.0,-0.017147868871688843,0.8393527865409851,0.0,0.010947891511023045,0.7781346440315247,0.0,-0.03745976835489273
900.0,875.0,2.0644,-0.868,9.274,-0.0376,0.0194,-0.1179,-1.823496004144186,0.0,3.1372623443603516,-1.6878488063812256,-0.0,2.065392255783081,4.7662203190620325,-0.0,0.2978953719139099,-1.5004103819476526,-0.0,-0.01877306029200554,0.8393487334251404,0.0,0.006043217610567808,0.7781222462654114,0.0,1.716846600174904e-05
900.0,875.0,2.0644,-0.868,9.274,-0.0376,0.0194,-0.1179,-1.8234473667540492,0.0,3.167165756225586,-1.6878608465194702,-0.0,2.0552330017089844,4.766160714417257,-0.0,0.29487258195877075,-1.5003693739520472,-0.0,-0.01911085844039917,0.8393728733062744,0.0,-2.132949884980917e-05,0.7780982255935669,0.0,0.005469623953104019
900.0,875.0,2.0644,-0.868,9.274,-0.0376,0.0194,-0.1179,-1.8234640560545863,0.0,3.142118453979492,-1.6879044771194458,-0.0,2.082535982131958,4.766225106060066,-0.0,0.2896937131881714,-1.5004099051104944,-0.0,-0.021840199828147888,0.839388906955719,0.0,-0.001474536838941276,0.7781181931495667,0.0,-0.009467337280511856
900.0,875.0,2.0644,-0.868,9.274,-0.0376,0.0194,-0.1179,-1.8234473667540492,0.0,3.148026943206787,-1.6878806352615356,-0.0,2.109403133392334,4.766212712019243,-0.0,0.3024854063987732,-1.50038987794985,-0.0,-0.01689773052930832,0.8393204808235168,0.0,0.003156153718009591,0.7780822515487671,0.0,0.0035681361332535744
900.0,875.0,2.0644,-0.868,9.274,-0.0376,0.0194,-0.1179,-1.8234802685179652,0.0,3.1475839614868164,-1.687880516052246,-0.0,2.0479676723480225,4.766180376499452,-0.0,0.29266008734703064,-1.50038987794985,-0.0,-0.02258743904531002,0.8394331932067871,0.0,0.007192324381321669,0.7781305313110352,0.0,0.019258957356214523
900.0,875.0,2.0644,-0.868,9.274,-0.0376,0.0194,-0.1179,-1.8235122166075648,0.0,3.1366443634033203,-1.6878528594970703,-0.0,2.046827793121338,4.766196730523863,-0.0,0.3033967614173889,-1.5003655592547815,-0.0,-0.005767895374447107,0.8393569588661194,0.0,-0.0012612789869308472,0.7781062722206116,0.0,-0.0045950692147016525
900.0,875.0,2.0644,-0.868,9.274,-0.0376,0.0194,-0.1179,-1.8234716854491175,0.0,3.177283525466919,-1.6878925561904907,-0.0,2.1200809478759766,4.766180387675323,-0.0,0.28985947370529175,-1.500361744557516,-0.0,-0.02375078573822975,0.8393528461456299,0.0,-0.010212618857622147,0.7781264185905457,0.0,0.052672646939754486
900.0,875.0,2.0644,-0.868,9.274,-0.0376,0.0194,-0.1179,-1.8234802685179652,0.0,3.1429853439331055,-1.6878364086151123,-0.0,2.084836721420288,4.766192710935631,-0.0,0.29075634479522705,-1.500385586415426,-0.0,-0.003851400688290596,0.8393287658691406,0.0,-0.0044927941635251045,0.7780858874320984,0.0,0.0033060500863939524
900.0,875.0,2.0644,-0.868,9.274,-0.0376,0.0194,-0.1179,-1.8234716854491175,0.0,3.1233716011047363,-1.6878886222839355,-0.0,2.0794167518615723,4.766180406301775,-0.0,0.2925055921077728,-1.5003936926471155,-0.0,-0.021105343475937843,0.8393610715866089,0.0,-0.005621020682156086,0.7781223058700562,0.0,0.0011758515611290932
900.0,875.0,2.0644,-0.868,9.274,-0.0376,0.0194,-0.1179,-1.8235122166075648,0.0,3.197216510772705,-1.6878165006637573,-0.0,2.086184024810791,4.766172326147117,-0.0,0.2961229979991913,-1.5004022757159632,-0.0,-0.020326893776655197,0.8394294381141663,0.0,0.0037852399982511997,0.7781503200531006,0.0,0.007661477662622929
905.0,891.0,2.0734,-0.8315,9.2411,-0.0388,0.0177,-0.1205,-1.823507925073141,0.0,3.1437628269195557,-1.6878364086151123,-0.0,2.0895614624023438,4.76621692159728,-0.0,0.3024381697177887,-1.5003979841815394,-0.0,-0.0027659644838422537,0.8393365144729614,0.0,0.004742444958537817,0.7781181931495667,0.0,-0.001356330350972712
905.0,891.0,2.0734,-0.8315,9.2411,-0.0388,0.0177,-0.1205,-1.8234559498228968,0.0,3.153841972351074,-1.6879284381866455,-0.0,2.0927186012268066,4.7662086365516565,-0.0,0.31279098987579346,-1.5004060904132288,-0.0,-0.024199683219194412,0.8394051790237427,0.0,-0.013059800490736961,0.7781263589859009,0.0,-0.015200870111584663
905.0,891.0,2.0734,-0.8315,9.2411,-0.0388,0.0177,-0.1205,-1.8234840832152308,0.0,3.115269184112549,-1.6879328489303589,-0.0,2.105973720550537,4.766168582230367,-0.0,0.29679280519485474,-1.5003612677203577,-0.0,-0.006714079529047012,0.8393771052360535,0.0,-0.010651398450136185,0.7781305909156799,0.0,-0.023684486746788025
905.0,891.0,2.0734,-0.8315,9.2411,-0.0388,0.0177,-0.1205,-1.82346834758901,0.0,3.14833402633667,-1.6878767013549805,-0.0,2.048495054244995,4.7662008730466745,-0.0,0.29340648651123047,-1.5004060904132288,-0.0,-0.020213644951581955,0.8393568992614746,0.0,-0.01132218912243843,0.7781181931495667,0.0,-0.004806343000382185
905.0,891.0,2.0734,-0.8315,9.2411,-0.0388,0.0177,-0.1205,-1.8234716854491175,0.0,3.1773757934570312,-1.6878647804260254,-0.0,2.046151638031006,4.766196715622701,-0.0,0.29552191495895386,-1.500385586415426,-0.0,-0.0209354255348444,0.8393930196762085,0.0,-0.012968175113201141,0.7781063318252563,0.0,0.0045004175044596195
905.0,891.0,2.0734,-0.8315,9.2411,-0.0388,0.0177,-0.1205,-1.8234473667540492,0.0,3.159526824951172,-1.6878806352615356,-0.0,2.0482120513916016,4.766196715622701,-0.0,0.2887413203716278,-1.500385586415426,-0.0,-0.015834704041481018,0.8393324017524719,0.0,0.004166656173765659,0.7781384587287903,0.0,-0.01491856761276722
905.0,891.0,2.0734,-0.8315,9.2411,-0.0388,0.0177,-0.1205,-1.8234802685179652,0.0,3.1332883834838867,-1.6878925561904907,-0.0,2.101166248321533,4.766164398729362,-0.0,0.309098482131958,-1.5004022757159632,-0.0,-0.013195324689149857,0.8393287062644958,0.0,0.006168668624013662,0.7781181931495667,0.0,0.023872140794992447
905.0,891.0,2.0734,-0.8315,9.2411,-0.0388,0.0177,-0.1205,-1.823435445825094,0.0,3.136744499206543,-1.6879165172576904,-0.0,2.068072557449341,4.766200914024868,-0.0,0.2931225597858429,-1.500385586415426,-0.0,-0.026880312711000443,0.8393728733062744,0.0,0.0066259559243917465,0.7780940532684326,0.0,-0.024208467453718185
905.0,891.0,2.0734,-0.8315,9.2411,-0.0388,0.0177,-0.1205,-1.823463579217428,0.0,3.1433112621307373,-1.6878608465194702,-0.0,2.08489990234375,4.766168503999271,-0.0,0.29185086488723755,-1.5003812948810022,-0.0,-0.019107332453131676,0.8393568992614746,0.0,-0.00682967621833086,0.7781466841697693,0.0,0.0010186540894210339
905.0,891.0,2.0734,-0.8315,9.2411,-0.0388,0.0177,-0.1205,-1.8234921894469203,0.0,3.141371250152588,-1.6879044771194458,-0.0,2.039219617843628,4.766192628979244,-0.0,0.3029983937740326,-1.500401798878805,-0.0,-0.004232362844049931,0.83934086561203,0.0,-0.005080871284008026,0.778170645236969,0.0,-0.025684628635644913
905.0,891.0,2.0734,-0.8315,9.2411,-0.0388,0.0177,-0.1205,-1.8234883747496546,0.0,3.1674156188964844,-1.6879005432128906,-0.0,2.053232431411743,4.766200865596094,-0.0,0.2924412488937378,-1.5003779570208948,-0.0,-0.006696759257465601,0.8393365144729614,0.0,-0.0072676739655435085,0.7780900001525879,0.0,0.008036812767386436
905.0,891.0,2.0734,-0.8315,9.2411,-0.0388,0.0177,-0.1205,-1.8234878979124964,0.0,3.1135096549987793,-1.6879044771194458,-0.0,2.103288173675537,4.766192710935631,-0.0,0.28725767135620117,-1.500385586415426,-0.0,-0.015172973275184631,0.8393811583518982,0.0,-0.005024990066885948,0.7781384587287903,0.0,0.0018242131918668747
905.0,891.0,2.0734,-0.8315,9.2411,-0.0388,0.0177,-0.1205,-1.8234836063780726,0.0,3.1358141899108887,-1.6878608465194702,-0.0,2.093770980834961,4.766196715622701,-0.0,0.29845136404037476,-1.5003693739520472,-0.0,-0.009061845019459724,0.8394495844841003,0.0,0.0006298853550106287,0.7781103849411011,0.0,-0.0018508140929043293
887.0,894.0,2.0973,-0.8058,9.2375,-0.036,0.0212,-0.1156,-1.8234597645201625,0.0,3.161717176437378,-1.6878727674484253,-0.0,2.05788516998291,4.766220941185512,-0.0,0.2900984585285187,-1.5004022757159632,-0.0,-0.0195375494658947,0.8393970727920532,0.0,0.003579529235139489,0.7781387567520142,0.0,0.02264707162976265
887.0,894.0,2.0973,-0.8058,9.2375,-0.036,0.0212,-0.1156,-1.8234759769835414,0.0,3.1842923164367676,-1.6878846883773804,-0.0,2.0655179023742676,4.76620494106368,-0.0,0.29352620244026184,-1.5003693739520472,-0.0,-0.011846629902720451,0.8393610715866089,0.0,0.008098131977021694,0.7781503200531006,0.0,-0.016149049624800682
887.0,894.0,2.0973,-0.8058,9.2375,-0.036,0.0212,-0.1156,-1.8234840832152308,0.0,3.149016857147217,-1.6878806352615356,-0.0,2.055851459503174,4.766196682095089,-0.0,0.29520997405052185,-1.5003774801837366,-0.0,-0.012477505952119827,0.8393807411193848,0.0,0.004152190405875444,0.778130292892456,0.0,-0.020253116264939308
887.0,894.0,2.0973,-0.8058,9.2375,-0.036,0.0212,-0.1156,-1.82346834758901,0.0,3.1311957836151123,-1.6878646612167358,-0.0,2.0584545135498047,4.766204959690132,-0.0,0.29054147005081177,-1.5003655592547815,-0.0,-0.016344286501407623,0.8393404483795166,0.0,0.003779876511543989,0.7781223058700562,0.0,-0.00840684026479721
887.0,894.0,2.0973,-0.8058,9.2375,-0.036,0.0212,-0.1156,-1.8235165081419886,0.0,3.144749879837036,-1.687832236289978,-0.0,2.1306862831115723,4.766184556275167,-0.0,0.28591009974479675,-1.5004141966449183,-0.0,-0.014457960613071918,0.8393447399139404,0.0,0.0024649393744766712,0.7781384587287903,0.0,0.004733390174806118
887.0,894.0,2.0973,-0.8058,9.2375,-0.036,0.0212,-0.1156,-1.8234802685179652,0.0,3.153484344482422,-1.6879044771194458,-0.0,2.0482656955718994,4.766180398851194,-0.0,0.2881005108356476,-1.5004342238055628,-0.0,-0.012652354314923286,0.8393930792808533,0.0,0.0023227673955261707,0.778142511844635,0.0,-0.00031109852716326714
887.0,894.0,2.0973,-0.8058,9.2375,-0.036,0.0212,-0.1156,-1.8234921894469203,0.0,3.1404213905334473,-1.6878403425216675,-0.0,2.058103084564209,4.766200887947836,-0.0,0.2864234447479248,-1.500333611165182,-0.0,-0.01996815949678421,0.839388906955719,0.0,-0.0070129139348864555,0.7781305313110352,0.0,-0.041710153222084045
887.0,894.0,2.0973,-0.8058,9.2375,-0.036,0.0212,-0.1156,-1.8234597645201625,0.0,3.1191134452819824,-1.6878687143325806,-0.0,2.045372486114502,4.766192655056276,-0.0,0.2899039685726166,-1.5003450552569788,-0.0,-0.007801188621670008,0.8393765091896057,0.0,-0.0004587158327922225,0.7781223058700562,0.0,-0.039147138595581055
887.0,894.0,2.0973,-0.8058,9.2375,-0.036,0.0212,-0.1156,-1.8235084019102992,0.0,3.1284537315368652,-1.6878925561904907,-0.0,2.0586864948272705,4.766160297184744,-0.0,0.3050152659416199,-1.5003693739520472,-0.0,-0.013723699375987053,0.8392888307571411,0.0,-0.009060131385922432,0.7781305313110352,0.0,-0.01651972159743309
887.0,894.0,2.0973,-0.8058,9.2375,-0.036,0.0212,-0.1156,-1.8234559498228968,0.0,3.102678060531616,-1.687896490097046,-0.0,2.047555923461914,4.766184530198135,-0.0,0.2957453429698944,-1.5003779570208948,-0.0,-0.022725727409124374,0.8393328189849854,0.0,-0.01154788862913847,0.7781103849411011,0.0,-0.013902893289923668
887.0,894.0,2.0973,-0.8058,9.2375,-0.036,0.0212,-0.1156,-1.823519846002096,0.0,3.1249446868896484,-1.6878646612167358,-0.0,2.06149959564209,4.766212741821565,-0.0,0.2954399287700653,-1.5004060904132288,-0.0,-0.012694533914327621,0.8393605947494507,0.0,0.010208507999777794,0.7781384587287903,0.0,0.001897243782877922
887.0,894.0,2.0973,-0.8058,9.2375,-0.036,0.0212,-0.1156,-1.8234878979124964,0.0,3.1393566131591797,-1.6879006624221802,-0.0,2.0951714515686035,4.766200887947836,-0.0,0.2882802486419678,-1.5004141966449183,-0.0,-0.025485645979642868,0.8393568992614746,0.0,-0.011632027104496956,0.7781181931495667,0.0,-0.003993480000644922
904.0,881.0,2.0477,-0.8004,9.2429,-0.0293,0.0287,-0.1161,-1.8234559498228968,0.0,3.167168617248535,-1.6879085302352905,-0.0,2.0418262481689453,4.766180410027065,-0.0,0.29616567492485046,-1.5004180113421839,-0.0,-0.004597635008394718,0.8393171429634094,0.0,-0.009409651160240173,0.7781181931495667,0.0,-0.02627059444785118
904.0,881.0,2.0477,-0.8004,9.2429,-0.0293,0.0287,-0.1161,-1.8234559498228968,0.0,3.1574525833129883,-1.6879408359527588,-0.0,2.0870749950408936,4.766236341535606,-0.0,0.293861985206604,-1.500373665486471,-0.0,-0.007140738889575005,0.8393605947494507,0.0,-0.015352528542280197,0.7781181931495667,0.0,0.027890538796782494
904.0,881.0,2.0477,-0.8004,9.2429,-0.0293,0.0287,-0.1161,-1.823467870751852,0.0,3.1166505813598633,-1.687928557395935,-0.0,2.1336898803710938,4.766188683896818,-0.0,0.3014991879463196,-1.500373665486471,-0.0,0.00023773941211402416,0.8393847942352295,0.0,-0.0037680594250559807,0.7781181931495667,0.0,-0.003908061422407627
904.0,881.0,2.0477,-0.8004,9.2429,-0.0293,0.0287,-0.1161,-1.823467870751852,0.0,3.152705192565918,-1.6879124641418457,-0.0,2.0618505477905273,4.76614040413455,-0.0,0.2882029414176941,-1.500357453023092,-0.0,-0.011448974721133709,0.8393405079841614,0.0,-0.0041892374865710735,0.7781223058700562,0.0,-0.008301839232444763
904.0,881.0,2.0477,-0.8004,9.2429,-0.0293,0.0287,-0.1161,-1.8234721622862757,0.0,3.135554313659668,-1.6878687143325806,-0.0,2.0764966011047363,4.766236330359735,-0.0,0.30384328961372375,-1.50038987794985,-0.0,-0.008338416926562786,0.8393688201904297,0.0,-0.011611850932240486,0.7781544327735901,0.0,-0.00031840521842241287
904.0,881.0,2.0477,-0.8004,9.2429,-0.0293,0.0287,-0.1161,-1.8234273395934046,0.0,3.1321191787719727,-1.6878806352615356,-0.0,2.1030731201171875,4.766188642918625,-0.0,0.29999661445617676,-1.5003693739520472,-0.0,-0.02245255373418331,0.8393728733062744,0.0,-0.014048931188881397,0.7781384587287903,0.0,0.028920158743858337
904.0,881.0,2.0477,-0.8004,9.2429,-0.0293,0.0287,-0.1161,-1.8234878979124964,0.0,3.1955337524414062,-1.6879005432128906,-0.0,2.069795608520508,4.766184530198135,-0.0,0.29600954055786133,-1.500373665486471,-0.0,-0.00968752522021532,0.8393041491508484,0.0,-0.013085342943668365,0.7781220078468323,0.0,-0.03857246786355972
904.0,881.0,2.0477,-0.8004,9.2429,-0.0293,0.0287,-0.1161,-1.823451658288473,0.0,3.1850357055664062,-1.6878925561904907,-0.0,2.075679302215576,4.766216895520248,-0.0,0.2961452603340149,-1.5003979841815394,-0.0,-0.024465274065732956,0.8393610715866089,0.0,-0.0026776883751153946,0.7781466841697693,0.0,0.020743750035762787
904.0,881.0,2.0477,-0.8004,9.2429,-0.0293,0.0287,-0.1161,-1.8234597645201625,0.0,3.145599365234375,-1.6878687143325806,-0.0,2.086794376373291,4.766212704568662,-0.0,0.2864154279232025,-1.5003536383258265,-0.0,-0.021519646048545837,0.8394212126731873,0.0,0.0007690381025895476,0.7781343460083008,0.0,-0.03418901190161705
904.0,881.0,2.0477,-0.8004,9.2429,-0.0293,0.0287,-0.1161,-1.8234640560545863,0.0,3.156074047088623,-1.6879005432128906,-0.0,2.045128345489502,4.7662086365516565,-0.0,0.29201459884643555,-1.5003731886493128,-0.0,-0.014406763948500156,0.8393728733062744,0.0,-0.002932291477918625,0.7781627178192139,0.0,0.05055852606892586
904.0,881.0,2.0477,-0.8004,9.2429,-0.0293,0.0287,-0.1161,-1.8234840832152308,0.0,3.178295135498047,-1.6878767013549805,-0.0,2.0635361671447754,4.766196715622701,-0.0,0.29509666562080383,-1.5003779570208948,-0.0,-0.02255038358271122,0.8393205404281616,0.0,-0.003811086993664503,0.7781063318252563,0.0,-0.008681596256792545
904.0,881.0,2.0477,-0.8004,9.2429,-0.0293,0.0287,-0.1161,-1.823451658288473,0.0,3.1395328044891357,-1.6879085302352905,9.99615821228872e-08,2.077395439147949,4.7662086365516565,-0.0,0.2942945957183838,-1.5003812948810022,-0.0,-0.018732141703367233,0.8393406271934509,0.0,-0.009935927577316761,0.7781343460083008,0.0,-0.0015576733276247978
889.0,867.0,2.5089,-0.8441,8.9755,-0.0493,-0.0096,-0.122,-1.8234921894469203,0.0,3.1139450073242188,-1.6879007816314697,2.413954724046069e-13,2.0594959259033203,4.766212704568662,-0.0,0.29326337575912476,-1.500385586415426,-0.0,-0.0169257540255785,0.8393568992614746,0.0,-0.0039632925763726234,0.7781141400337219,0.0,0.023553837090730667
889.0,867.0,2.5089,-0.8441,8.9755,-0.0493,-0.0096,-0.122,-1.8234878979124964,0.0,3.1353251934051514,-1.687856674194336,7.820906257777213e-21,2.040846347808838,4.766260708659448,-0.0,0.3006943166255951,-1.50038987794985,-0.0,-0.01264646090567112,0.8393528461456299,0.0,0.008866984397172928,0.7781462669372559,0.0,-0.03253428265452385
889.0,867.0,2.5089,-0.8441,8.9755,-0.0493,-0.0096,-0.122,-1.8234759769835414,0.0,3.1276965141296387,-1.6878727674484253,2.5338740461986147e-28,2.0895073413848877,4.766176710813799,-0.0,0.30128511786460876,-1.500373665486471,-0.0,-0.02155294269323349,0.8394094705581665,0.0,-0.008603062480688095,0.778170645236969,0.0,-0.02539115585386753
889.0,867.0,2.5089,-0.8441,8.9755,-0.0493,-0.0096,-0.122,-1.8234878979124964,0.0,3.1578736305236816,-1.68791663646698,6.1190078333790894e-34,2.0989954471588135,4.766216873168506,-0.0,0.2939261794090271,-1.5003812948810022,-0.0,-0.020807936787605286,0.8393811583518982,0.0,-0.018742654472589493,0.7780817747116089,0.0,0.0020726313814520836
889.0,867.0,2.5089,-0.8441,8.9755,-0.0493,-0.0096,-0.122,-1.823496004144186,0.0,3.182649612426758,-1.6878845691680908,1.9824169374803187e-41,2.0721185207366943,4.766196715622701,-0.0,0.298916220664978,-1.5003774801837366,-0.0,-0.012688329443335533,0.8393528461456299,0.0,-0.0020360518246889114,0.7781099677085876,0.0,0.03646427020430565
889.0,867.0,2.5089,-0.8441,8.9755,-0.0493,-0.0096,-0.122,-1.8234559498228968,0.0,3.156400680541992,-1.6878488063812256,-0.0,2.0647802352905273,4.7662086365516565,-0.0,0.2892296612262726,-1.5003812948810022,-0.0,-0.01065790094435215,0.8393765687942505,0.0,-0.003248979337513447,0.7781503200531006,0.0,-0.008872740902006626
889.0,867.0,2.5089,-0.8441,8.9755,-0.0493,-0.0096,-0.122,-1.8234149418272914,0.0,3.1496686935424805,-1.6879245042800903,-0.0,2.092806100845337,4.766228391766109,-0.0,0.3006695508956909,-1.5003774801837366,-0.0,-0.02264430932700634,0.8393930792808533,0.0,-0.006772940047085285,0.7781223058700562,0.0,0.007282630540430546
889.0,867.0,2.5089,-0.8441,8.9755,-0.0493,-0.0096,-0.122,-1.823479791680807,0.0,3.1964688301086426,-1.6878925561904907,-0.0,2.0682690143585205,4.766152559756794,-0.0,0.3045024275779724,-1.5003774801837366,-0.0,-0.015187438577413559,0.8393765687942505,0.0,-0.00247831828892231,0.7781343460083008,0.0,-0.01909438520669937
889.0,867.0,2.5089,-0.8441,8.9755,-0.0493,-0.0096,-0.122,-1.8234840832152308,0.0,3.1599888801574707,-1.6879205703735352,-0.0,2.057020664215088,4.766188620566883,-0.0,0.2792167067527771,-1.5004022757159632,-0.0,-0.01919238455593586,0.8393568992614746,0.0,0.0008495686925016344,0.7781305313110352,0.0,-0.0258519034832716
889.0,867.0,2.5089,-0.8441,8.9755,-0.0493,-0.0096,-0.122,-1.8235403499998988,0.0,3.1901817321777344,-1.6878925561904907,-0.0,2.0924782752990723,4.76618858703927,-0.0,0.2952558100223541,-1.5003979841815394,-0.0,-0.02759326621890068,0.8393241763114929,0.0,-0.003043221775442362,0.7781544327735901,0.0,0.027777330949902534
889.0,867.0,2.5089,-0.8441,8.9755,-0.0493,-0.0096,-0.122,-1.8234883747496546,0.0,3.1118004322052,-1.6879165172576904,-0.0,2.084676742553711,4.766212689667501,-0.0,0.2915573716163635,-1.5004141966449183,-0.0,-0.0066795046441257,0.8393324017524719,0.0,-0.0011517297243699431,0.7781503200531006,0.0,-0.02588386833667755
889.0,867.0,2.5089,-0.8441,8.9755,-0.0493,-0.0096,-0.122,-1.8234759769835414,0.0,3.2089123725891113,-1.6878767013549805,-0.0,2.0587801933288574,4.766224316298523,-0.0,0.2972821891307831,-1.5003693739520472,-0.0,-0.02693202905356884,0.8393930196762085,0.0,-0.012884700670838356,0.7781343460083008,0.0,0.001506865955889225
889.0,867.0,2.5089,-0.8441,8.9755,-0.0493,-0.0096,-0.122,-1.8234878979124964,0.0,3.1668715476989746,-1.6878767013549805,-0.0,2.1176154613494873,4.766224316298523,-0.0,0.3048405647277832,-1.5003979841815394,-0.0,-0.021985644474625587,0.8393568992614746,0.0,-0.006779249757528305,0.7781261801719666,0.0,-0.029852038249373436
903.0,890.0,1.8604,-0.481,9.2309,-0.0275,0.051,-0.1361,-1.8234716854491175,0.0,3.160879611968994,-1.6878128051757812,-0.0,2.0572383403778076,4.766236334085026,-0.0,0.3021131157875061,-1.50038987794985,-0.0,-0.02581838145852089,0.8393130898475647,0.0,-0.005871763918548822,0.77816241979599,0.0,-0.07428976893424988
903.0,890.0,1.8604,-0.481,9.2309,-0.0275,0.051,-0.1361,-1.8235041103758753,0.0,3.1311492919921875,-1.687876582145691,-0.0,2.094521999359131,4.766248530685463,-0.0,0.2967216372489929,-1.5004180113421839,-0.0,-0.02747422829270363,0.839352548122406,0.0,0.010076604783535004,0.7781261801719666,0.0001579536619829014,-0.03769510239362717
903.0,890.0,1.8604,-0.481,9.2309,-0.0275,0.051,-0.1361,-1.8234559498228968,0.0,3.156619071960449,-1.6878607273101807,-0.0,2.102769136428833,4.766196715622701,-0.0,0.28527069091796875,-1.500385586415426,-0.0,-0.021828684955835342,0.8393287658691406,0.0,0.006010544486343861,0.7781823873519897,0.0012852359795942903,0.009361146949231625
903.0,890.0,1.8604,-0.481,9.2309,-0.0275,0.051,-0.1361,-1.8234759769835414,0.0,3.148806571960449,-1.6878528594970703,-0.0,2.0646374225616455,4.766196410148897,-0.0,0.30052614212036133,-1.5003731886493128,-0.0,-0.02251259982585907,0.8393204808235168,0.0,-0.0005456013604998589,0.7781823873519897,0.0020480137318372726,-0.0013262316351756454
903.0,890.0,1.8604,-0.481,9.2309,-0.0275,0.051,-0.1361,-1.8234559498228968,0.0,3.1239867210388184,-1.6878688335418701,-0.0,2.079258918762207,4.766196413874187,-0.0,0.28393256664276123,-1.5004099051104944,-0.0,-0.018694711849093437,0.8393287658691406,0.0,0.0009718937217257917,0.7781861424446106,0.0037588574923574924,0.017622560262680054
903.0,890.0,1.8604,-0.481,9.2309,-0.0275,0.051,-0.1361,-1.8235284290709437,0.0,3.1532702445983887,-1.6878925561904907,-0.0,2.0552942752838135,4.766240353673258,-0.0,0.2896793782711029,-1.500401798878805,-0.0,-0.021853609010577202,0.8393282294273376,0.0,-0.024773353710770607,0.7782543897628784,0.00558207044377923,0.020504727959632874
903.0,890.0,1.8604,-0.481,9.2309,-0.0275,0.051,-0.1361,-1.8234840832152308,0.0,3.1473073959350586,-1.6878728866577148,-0.0,2.056567668914795,4.766232307046213,-0.0,0.2958150804042816,-1.500401798878805,-0.0,-0.025152582675218582,0.8393568992614746,0.0,0.0029594553634524345,0.7782905101776123,0.006217644549906254,0.005936522036790848
903.0,890.0,1.8604,-0.481,9.2309,-0.0275,0.051,-0.1361,-1.8234716854491175,0.0,3.1675772666931152,-1.6878442764282227,1.2388002232910367e-06,2.069920778274536,4.766212712019243,-0.0,0.2888570725917816,-1.500441853200094,-0.0,-0.032580286264419556,0.8392887115478516,0.0,-0.005077492445707321,0.7782942056655884,0.0053206742741167545,-0.0014354083687067032
903.0,890.0,1.8604,-0.481,9.2309,-0.0275,0.051,-0.1361,-1.8234316311278285,0.0,3.1726744174957275,-1.68784499168396,3.310482497909106e-05,2.107682466506958,4.766244417964973,-0.0,0.2878568470478058,-1.5004499594317835,-0.0,-0.017833327874541283,0.8393204808235168,0.0,0.006148429587483406,0.7783545255661011,0.004345854744315147,0.028208618983626366
903.0,890.0,1.8604,-0.481,9.2309,-0.0275,0.051,-0.1361,-1.8234802685179652,0.0,3.1362085342407227,-1.6878886222839355,5.268306631478481e-05,2.07500958442688,4.7662008730466745,-0.0,0.30488818883895874,-1.5004261175738733,-0.0,-0.02201642096042633,0.839409351348877,0.0,0.004759008996188641,0.7783864736557007,0.0024472796358168125,-0.002609687391668558
903.0,890.0,1.8604,-0.481,9.2309,-0.0275,0.051,-0.1361,-1.8234559498228968,0.0,3.1724138259887695,-1.6878966093063354,0.00040700743556953967,2.063011646270752,4.766192651330986,-0.0,0.2980203926563263,-1.500429932271139,-0.0,-0.0229446142911911,0.8393287658691406,0.0,-0.013596427626907825,0.7783864736557007,0.0020959714893251657,-0.012544916942715645
903.0,890.0,1.8604,-0.481,9.2309,-0.0275,0.051,-0.1361,-1.8235002956786097,0.0,3.1248953342437744,-1.6878727674484253,0.00029885536059737206,2.142679214477539,4.766196715622701,-0.0,0.2947947084903717,-1.5004461447345179,-0.0,-0.014284040778875351,0.8393487334251404,0.0,-0.0014125467278063297,0.7784228920936584,0.001282478217035532,0.0489361435174942
898.0,901.0,1.9466,-0.9123,9.052,-0.0481,0.006,-0.129,-1.8234716854491175,0.0,3.1491549015045166,-1.6878806352615356,0.00023612099175807089,2.0671563148498535,4.766152183502474,-0.0,0.2928197979927063,-1.500401798878805,-0.0,-0.015019147656857967,0.8393605947494507,0.0,0.003487745299935341,0.7784146666526794,0.0007428333628922701,0.04053793102502823
898.0,901.0,1.9466,-0.9123,9.052,-0.0481,0.006,-0.129,-1.82346834758901,0.0,3.1271162033081055,-1.687820553779602,0.0002040047838818282,2.094046115875244,4.766196715622701,-0.0,0.30680757761001587,-1.5004380385028284,-0.0,-0.004285055212676525,0.839417040348053,0.0,-0.0032493844628334045,0.7783620357513428,0.000525843002833426,0.007510108407586813
898.0,901.0,1.9466,-0.9123,9.052,-0.0481,0.006,-0.129,-1.823451658288473,0.0,3.170537233352661,-1.6878806352615356,0.00017268788360524923,2.0878732204437256,4.76620056384758,-0.0,0.29146042466163635,-1.5004099051104944,-0.0,-0.030200723558664322,0.8393930792808533,0.0,0.0005024329293519258,0.7783782482147217,0.0005044279969297349,-0.02482576109468937
898.0,901.0,1.9466,-0.9123,9.052,-0.0481,0.006,-0.129,-1.8234716854491175,0.0,3.1426124572753906,-1.6878403425216675,0.0001497069897595793,2.0607471466064453,4.766228417843141,-0.0,0.28787168860435486,-1.5003774801837366,-0.0,-0.004686117637902498,0.8393446207046509,0.0,0.0007840250618755817,0.7783418893814087,0.000500681169796735,0.013613670133054256
898.0,901.0,1.9466,-0.9123,9.052,-0.0481,0.006,-0.129,-1.8234640560545863,0.0,3.118579149246216,-1.6878687143325806,0.0001321244635619223,2.0545291900634766,4.766184563725748,-0.0,0.28689098358154297,-1.5004618803607386,-0.0,-0.02341371774673462,0.8394134640693665,0.0,-0.0034059053286910057,0.7784105539321899,0.001396670937538147,0.005069410428404808
898.0,901.0,1.9466,-0.9123,9.052,-0.0481,0.006,-0.129,-1.8234802685179652,0.0,3.1668176651000977,-1.6878807544708252,0.00012142855121055618,2.0830836296081543,4.766232586442985,-0.0,0.2880100905895233,-1.5004175345050257,-0.0,-0.01394268311560154,0.8393771052360535,0.0,-0.0016824972117319703,0.7784225940704346,0.0014064956922084093,0.03776774927973747
898.0,901.0,1.9466,-0.9123,9.052,-0.0481,0.006,-0.129,-1.8234273395934046,0.0,3.098454475402832,-1.687792420387268,0.00010959883366012946,2.1109414100646973,4.7662086365516565,-0.0,0.2854374945163727,-1.5003936926471155,-0.0,-0.019544633105397224,0.8393771052360535,0.0,0.0016613858751952648,0.7784509658813477,0.0009500393061898649,-0.03441043198108673
898.0,901.0,1.9466,-0.9123,9.052,-0.0481,0.006,-0.129,-1.8234716854491175,0.0,3.132782459259033,-1.6878442764282227,9.986942313844338e-05,2.0027480125427246,4.7662005228693864,-0.0,0.2975551187992096,-1.5004261175738733,-0.0,-0.01119348593056202,0.839388906955719,0.0,-0.009591205045580864,0.7784549593925476,0.0007216403027996421,-0.00681511964648962
898.0,901.0,1.9466,-0.9123,9.052,-0.0481,0.006,-0.129,-1.8234640560545863,0.0,3.172823190689087,-1.68783700466156,0.00011235192505409941,2.0705106258392334,4.7662203190620325,-0.0,0.2903643846511841,-1.5003979841815394,-0.0,-0.01879042387008667,0.8393527865409851,0.0,-0.006350276991724968,0.7784466743469238,0.000613740470726043,-0.0006772549822926521
898.0,901.0,1.9466,-0.9123,9.052,-0.0481,0.006,-0.129,-1.8234030208983363,0.0,3.1572723388671875,-1.6879006624221802,0.0001037288093357347,2.073272705078125,4.766212082445183,-0.0,0.3011830747127533,-1.5004099051104944,-0.0,-0.0087101636454463,0.839388906955719,0.0,0.003406206611543894,0.7784870862960815,0.00038239345303736627,-0.001095089130103588
898.0,901.0,1.9466,-0.9123,9.052,-0.0481,0.006,-0.129,-1.8234921894469203,0.0,3.1149394512176514,-1.687852382659912,9.63274942478165e-05,2.0978918075561523,4.7662322399909876,-0.0,0.2948516607284546,-1.5004056135760706,-0.0,-0.01649564318358898,0.8393445611000061,0.0,0.004590364173054695,0.7784548997879028,0.00039268648833967745,0.027399981394410133
898.0,901.0,1.9466,-0.9123,9.052,-0.0481,0.006,-0.129,-1.8234597645201625,0.0,3.127439260482788,-1.6878767013549805,0.0001066733748302795,2.1074652671813965,4.7662203190620325,-0.0,0.30320218205451965,-1.5004099051104944,-0.0,-0.011020038276910782,0.8393888473510742,0.0,-0.0024205725640058517,0.778482973575592,0.0003778928075917065,0.0023018436040729284
906.0,871.0,2.199,-1.0588,9.1083,-0.0527,0.0183,-0.1151,-1.8234597645201625,0.0,3.137328624725342,-1.6878368854522705,9.990697435569018e-05,2.0799219608306885,4.766224003374138,-0.0,0.2909964919090271,-1.500385586415426,-0.0,-0.021209903061389923,0.8393048048019409,0.0,-0.003886336460709572,0.7783941030502319,0.00033574693952687085,-0.04394185170531273
906.0,871.0,2.199,-1.0588,9.1083,-0.0527,0.0183,-0.1151,-1.8235160313048304,0.0,3.1261796951293945,-1.6878328323364258,9.394771041115746e-05,2.0956344604492188,4.766216228693285,-0.0,0.2963487505912781,-1.50038987794985,-0.0,-0.0036564969923347235,0.8393405675888062,0.0,-0.0068603865802288055,0.7784585952758789,0.0003584744408726692,-0.009151593782007694
906.0,871.0,2.199,-1.0588,9.1083,-0.0527,0.0183,-0.1151,-1.8235603771605433,0.0,3.1224617958068848,-1.6878728866577148,8.865931158652529e-05,2.0761899948120117,4.766224003374138,-0.0,0.2959057092666626,-1.5003731886493128,-0.0,-0.0073189218528568745,0.8394134640693665,0.0,-0.0011985879391431808,0.7784907817840576,0.0007320640725083649,0.047210559248924255
906.0,871.0,2.199,-1.0588,9.1083,-0.0527,0.0183,-0.1151,-1.8235241375365199,0.0,3.0915932655334473,-1.6878483295440674,8.506791346007958e-05,2.038424253463745,4.766248556762495,-0.0,0.2900582551956177,-1.500429932271139,-0.0,0.0021415106020867825,0.839364767074585,0.0,0.007488889619708061,0.778474748134613,0.0012680876534432173,0.016464266926050186
906.0,871.0,2.199,-1.0588,9.1083,-0.0527,0.0183,-0.1151,-1.8235322437682093,0.0,3.155324935913086,-1.6878806352615356,8.070878539001569e-05,2.1025195121765137,4.766260708659448,-0.0,0.28997114300727844,-1.5004380385028284,-0.0,-0.011659788899123669,0.8393810987472534,0.0,0.005518814083188772,0.7784624695777893,0.0016576542984694242,0.03772272914648056
906.0,871.0,2.199,-1.0588,9.1083,-0.0527,0.0183,-0.1151,-1.8235117397704066,0.0,3.126476287841797,-1.6878483295440674,8.774241723585874e-05,2.0783843994140625,4.766256320267477,-0.0,0.30555248260498047,-1.5004461447345179,-0.0,-0.007678742986172438,0.8394331336021423,0.0,-0.0069805411621928215,0.7784825563430786,0.0015132701955735683,0.031754009425640106
906.0,871.0,2.199,-1.0588,9.1083,-0.0527,0.0183,-0.1151,-1.8234998188414515,0.0,3.118668794631958,-1.6878564357757568,5.943783253314905e-05,2.055222749710083,4.766248582839527,-0.0,0.2769978940486908,-1.5003774801837366,-0.0,-0.005553525406867266,0.8393123745918274,0.0,-0.012297297827899456,0.7784904837608337,0.0014219797449186444,-0.025182755663990974
906.0,871.0,2.199,-1.0588,9.1083,-0.0527,0.0183,-0.1151,-1.8235117397704066,0.0,3.159602403640747,-1.6878767013549805,6.64629478706047e-05,2.0914316177368164,4.766252635955372,-0.0,0.2956838011741638,-1.5003936926471155,-0.0,-0.02955574356019497,0.8393048644065857,0.0,-0.011698365211486816,0.7784945964813232,0.0008506397134624422,0.012656213715672493
906.0,871.0,2.199,-1.0588,9.1083,-0.0527,0.0183,-0.1151,-1.8235646686949671,-0.00014018903311807662,3.151754379272461,-1.6878688335418701,6.348147144308314e-05,2.0682873725891113,4.766228041588821,-0.0,0.2930452823638916,-1.500385586415426,-0.0,-0.016991518437862396,0.8393528461456299,0.0,0.002512555103749037,0.778458297252655,0.00022057034948375076,0.04312698543071747
906.0,871.0,2.199,-1.0588,9.1083,-0.0527,0.0183,-0.1151,-1.8235436878600062,-0.00019661056285258383,3.151988983154297,-1.6878728866577148,6.0630456573562697e-05,2.087127447128296,4.766224003374138,-0.0,0.3118160367012024,-1.5004256407367151,-0.0,-0.010780689306557178,0.8394051790237427,0.0,0.001739289378747344,0.7784825563430786,0.00014562264550477266,0.03460918739438057
906.0,871.0,2.199,-1.0588,9.1083,-0.0527,0.0183,-0.1151,-1.8235279522337855,-0.00057502172421664,3.1610116958618164,-1.6878728866577148,9.265857414675338e-08,2.0778818130493164,4.766244399338522,-0.0,0.2883831262588501,-1.500385586415426,-0.0,-0.010696446523070335,0.8394291400909424,0.0,-0.013041933998465538,0.7784544825553894,0.00011717616871464998,0.0005575381219387054
906.0,871.0,2.199,-1.0588,9.1083,-0.0527,0.0183,-0.1151,-1.8235885105528773,-0.0007245326414704323,3.189311981201172,-1.6878124475479126,3.0020200785825643e-15,2.0958409309387207,4.766280597984352,-0.0,0.29870033264160156,-1.5003812948810022,-0.0,-0.0067377639934420586,0.8393848538398743,0.0,0.00012184656225144863,0.7785066366195679,9.296538337366655e-05,0.03358692675828934
906.0,871.0,2.199,-1.0588,9.1083,-0.0527,0.0183,-0.1151,-1.8235885105528773,-0.000748693011701107,3.1110434532165527,-1.6878688335418701,9.726163343258942e-23,2.0440382957458496,4.766244399338522,-0.0,0.30618754029273987,-1.5003812948810022,-0.0,-0.013563431799411774,0.839364767074585,0.0,-0.012622175738215446,0.7784825563430786,7.704690506216139e-05,-0.004906004294753075
910.0,877.0,1.879,-1.2269,9.253,-0.0394,0.0351,-0.0964,-1.8235675297179164,-0.0006321378168649971,3.1806657314300537,-1.6878442764282227,2.3487539006853567e-28,2.0859181880950928,4.766240297793903,-0.0,0.3035511374473572,-1.500385586415426,-0.0,-0.030632056295871735,0.8394294381141663,0.0,0.0032516142819076777,0.7784504294395447,6.827887409599498e-05,0.024712659418582916
910.0,877.0,1.879,-1.2269,9.253,-0.0394,0.0351,-0.0964,-1.823620458642477,-0.000485811207909137,3.171520709991455,-1.6878085136413574,7.609663555600889e-36,2.1014389991760254,4.766256335168638,-0.0,0.3021591603755951,-1.5004022757159632,-0.0,-0.01852862350642681,0.8393528461456299,0.0,0.0025743860751390457,0.7784379720687866,5.928329846938141e-05,0.047722622752189636
910.0,877.0,1.879,-1.2269,9.253,-0.0394,0.0351,-0.0964,-1.8235966167845667,-0.0004167611477896571,3.1906991004943848,-1.6878368854522705,2.466285297211678e-43,2.1044769287109375,4.766232169210472,-0.0,0.29909420013427734,-1.5003812948810022,-0.0,-0.018740657716989517,0.8394088745117188,0.0,-0.0001985626295208931,0.778522789478302,7.85588490543887e-05,-0.0269447173923254
910.0,877.0,1.879,-1.2269,9.253,-0.0394,0.0351,-0.0964,-1.823576112786764,-0.0003477407153695822,3.151263952255249,-1.6878407001495361,9.259080979973078e-05,2.126661539077759,4.766308306693592,8.983948646346107e-05,0.3021656274795532,-1.5003936926471155,-0.0,-0.02232939749956131,0.8393725156784058,0.0,-0.004986392799764872,0.7785831689834595,6.140847835922614e-05,0.0016111116856336594
910.0,877.0,1.879,-1.2269,9.253,-0.0394,0.0351,-0.0964,-1.8235799274840296,-0.0002848443400580436,3.1763734817504883,-1.687820553779602,0.00016512672300450504,2.0741400718688965,4.766312519996919,0.00013102861703373492,0.30530092120170593,-1.5003936926471155,-0.0,-0.026867695152759552,0.8393684029579163,0.0,-0.008703471161425114,0.7785467505455017,0.001280929776839912,-0.01281572412699461
910.0,877.0,1.879,-1.2269,9.253,-0.0394,0.0351,-0.0964,-1.8235885105528773,-0.00027519502327777445,3.1667215824127197,-1.6878046989440918,0.0006617896142415702,2.112779378890991,4.766300606518545,0.0005192869575694203,0.3138844072818756,-1.5003731886493128,-0.0,-0.02077251486480236,0.8393688201904297,0.0,0.01584870181977749,0.778550386428833,0.004492528270930052,0.017008434981107712
910.0,877.0,1.879,-1.2269,9.253,-0.0394,0.0351,-0.0964,-1.8235842190184535,-0.0002573862439021468,3.162693500518799,-1.687800645828247,0.0005912995547987521,2.088141918182373,4.766316591739216,0.0004395368159748614,0.2900647222995758,-1.5004342238055628,-0.0,-0.03195732831954956,0.8393765687942505,0.0,0.010656519792973995,0.7786309719085693,0.008711937814950943,0.015017775818705559
910.0,877.0,1.879,-1.2269,9.253,-0.0394,0.0351,-0.0964,-1.8236361942686976,-0.001246031024493277,3.1794371604919434,-1.6877721548080444,0.0004750873486045748,2.099216938018799,4.7663001520331285,0.00041532987961545587,0.31045907735824585,-1.5004141966449183,-0.0,-0.019197039306163788,0.8394167423248291,0.0,-0.008357683196663857,0.7787070274353027,0.011039944365620613,0.04863156005740166
910.0,877.0,1.879,-1.2269,9.253,-0.0394,0.0351,-0.0964,-1.823672433892721,-0.0025205258280038834,3.1588504314422607,-1.6878046989440918,0.00039639987517148256,2.0476486682891846,4.766312479018726,0.00033024451113305986,0.3095889985561371,-1.500385586415426,-0.0,-0.019349386915564537,0.8393765687942505,0.0,-0.00606977753341198,0.7788188457489014,0.015518725849688053,0.026790007948875427
910.0,877.0,1.879,-1.2269,9.253,-0.0394,0.0351,-0.0964,-1.8236562214293421,-0.004309050738811493,3.1218173503875732,-1.6878325939178467,0.0007182511617429554,2.093393325805664,4.766284144460716,0.00033120118314400315,0.3117372989654541,-1.500429932271139,-0.0,-0.030571788549423218,0.8394044637680054,4.05817907056516e-10,0.003670057514682412,0.7789430022239685,0.019591014832258224,0.03050214610993862
910.0,877.0,1.879,-1.2269,9.253,-0.0394,0.0351,-0.0964,-1.8237086735167445,-0.00508811604231596,3.176281452178955,-1.6878087520599365,0.0026803447399288416,2.052608013153076,4.766284144460716,0.0003053841064684093,0.3061675429344177,-1.500357453023092,-0.0,-0.03647534176707268,0.8393847346305847,4.318215360399336e-06,0.02463575266301632,0.779131293296814,0.022156842052936554,0.018636103719472885
910.0,877.0,1.879,-1.2269,9.253,-0.0394,0.0351,-0.0964,-1.823752065698141,-0.005258274730294943,3.162968158721924,-1.687760591506958,0.006504929158836603,2.068133592605591,4.766352272569694,0.0002557834377512336,0.30981266498565674,-1.5004342238055628,-0.0,-0.03367543965578079,0.8394528031349182,0.00062877795426175,0.006304064765572548,0.7792673707008362,0.02494368888437748,0.06352463364601135
905.0,878.0,2.3204,-0.7071,9.5402,-0.0498,0.0024,-0.1104,-1.8237959347166957,-0.0049089728854596615,3.129770278930664,-1.6876565217971802,0.00874737836420536,2.1198678016662598,4.766280162125387,0.00022004233323968947,0.30808931589126587,-1.5003779570208948,-0.0,-0.03535155579447746,0.839404821395874,0.0005171168595552444,0.01920996606349945,0.779487669467926,0.02687969245016575,0.047711532562971115
905.0,878.0,2.3204,-0.7071,9.5402,-0.0498,0.0024,-0.1104,-1.823848386804098,-0.0055849445052444935,3.1020214557647705,-1.6876122951507568,0.007766792085021734,2.057631015777588,4.7663001520331285,0.00022760593856219202,0.3161314129829407,-1.500385586415426,-0.0,-0.04083403944969177,0.8394767045974731,0.0004898500046692789,0.02834288403391838,0.7796841859817505,0.027418579906225204,0.05486936494708061
905.0,878.0,2.3204,-0.7071,9.5402,-0.0498,0.0024,-0.1104,-1.8239127598204554,-0.006767491810023785,3.185502529144287,-1.687548279762268,0.00647879159078002,2.1040616035461426,4.766324340343036,0.00020206796762067825,0.31574389338493347,-1.5003655592547815,-0.0,-0.0321921706199646,0.8394688367843628,0.00042620007297955453,0.019139572978019714,0.7798557877540588,0.02579094097018242,0.03307719901204109
905.0,878.0,2.3204,-0.7071,9.5402,-0.0498,0.0024,-0.1104,-1.8239766559996546,-0.006244549062103033,3.2177443504333496,-1.6875126361846924,0.005112688522785902,2.1349620819091797,4.766331828176536,0.0001816722215153277,0.31783896684646606,-1.5004223028766077,-0.0,-0.0288626067340374,0.8394807577133179,0.0004223400610499084,0.028888899832963943,0.7800801396369934,0.022683728486299515,-0.0033633848652243614
905.0,878.0,2.3204,-0.7071,9.5402,-0.0498,0.0024,-0.1104,-1.8239923916258753,-0.005249935667961836,3.1578116416931152,-1.6874808073043823,0.002722528064623475,2.0720560550689697,4.766360021173515,0.00013682350981980562,0.32612571120262146,-1.500373665486471,-0.0,-0.04377936199307442,0.83942049741745,0.00037338072434067726,0.027276748791337013,0.7802442908287048,0.01796448975801468,0.028147757053375244
905.0,878.0,2.3204,-0.7071,9.5402,-0.0498,0.0024,-0.1104,-1.8240329227843226,-0.004404162988066673,3.148979425430298,-1.687492847442627,0.00211537629365921,2.0719876289367676,4.766348182200947,0.00015042562154121697,0.3162636160850525,-1.5004342238055628,-0.0,-0.03899611160159111,0.8395127654075623,0.0003606786485761404,0.044593460857868195,0.7803241610527039,0.015416055917739868,-0.006218910217285156
905.0,878.0,2.3204,-0.7071,9.5402,-0.0498,0.0024,-0.1104,-1.8240648708739222,-0.0034429561346769333,3.16262149810791,-1.6874804496765137,0.001284141791984439,2.120030164718628,4.766352272569694,0.00015791568148415536,0.3136167526245117,-1.5003731886493128,-0.0,-0.048208869993686676,0.8394286632537842,0.000335445161908865,0.03250265493988991,0.7804607152938843,0.011673209257423878,0.03294570371508598
905.0,878.0,2.3204,-0.7071,9.5402,-0.0498,0.0024,-0.1104,-1.824108739892477,-0.0031147641129791737,3.1545939445495605,-1.6874765157699585,0.0007516496116295457,2.093651533126831,4.766336581646957,0.00014353549340739846,0.31847578287124634,-1.500385586415426,-0.0,-0.042479757219552994,0.8394725918769836,0.000287484610453248,0.039966244250535965,0.7804156541824341,0.00681854784488678,0.02707304060459137
905.0,878.0,2.3204,-0.7071,9.5402,-0.0498,0.0024,-0.1104,-1.8241330585875453,-0.0034701700787991285,3.189113140106201,-1.687492847442627,0.000572329037822783,2.1256117820739746,4.766320227622547,0.000153214656165801,0.31964918971061707,-1.5003731886493128,-0.0,-0.033515430986881256,0.8393880128860474,0.00027688354020938277,0.04751931503415108,0.780488133430481,0.0037458573933690786,-0.03123931773006916
905.0,878.0,2.3204,-0.7071,9.5402,-0.0498,0.0024,-0.1104,-1.824132581750387,-0.003005863167345524,3.1264801025390625,-1.6874804496765137,0.0004342301981523633,2.07548189163208,4.766336581646957,0.00014147670299280435,0.31462544202804565,-1.5004099051104944,-0.0,-0.04116375371813774,0.8395090103149414,0.00023837594198994339,0.049058131873607635,0.7804719805717468,0.0014874477637931705,0.020361091941595078
905.0,878.0,2.3204,-0.7071,9.5402,-0.0498,0.0024,-0.1104,-1.8241688213744105,-0.0022209410089999437,3.1663880348205566,-1.6875287294387817,0.0002443847479298711,2.131596565246582,4.766316137253799,0.00018081422604154795,0.3303303122520447,-1.5004022757159632,-0.0,-0.04889934882521629,0.8394443392753601,0.00026135178632102907,0.037238165736198425,0.7804798483848572,0.00029432072187773883,0.01210790779441595
905.0,878.0,2.3204,-0.7071,9.5402,-0.0498,0.0024,-0.1104,-1.8241974316039027,-0.0013573772739619017,3.149057388305664,-1.687492847442627,0.0002521306450944394,2.117205858230591,4.766324314266004,0.00019355905533302575,0.33830326795578003,-1.5003655592547815,-0.0,-0.039045482873916626,0.8394368290901184,0.00024365301942452788,0.050155460834503174,0.7804477214813232,1.0297695553163067e-05,0.015210541896522045
905.0,878.0,2.3204,-0.7071,9.5402,-0.0498,0.0024,-0.1104,-1.824160715142721,-0.000902943080291152,3.1657304763793945,-1.6874278783798218,0.0005675480933859944,2.0729238986968994,4.7663400051887415,0.00019383298058528453,0.3323536515235901,-1.5003693739520472,-0.0,-0.04486376792192459,0.8394443392753601,0.00022676060325466096,0.04018808901309967,0.7804113030433655,3.3363229171544384e-13,0.08286963403224945
905.0,886.0,1.9669,-1.078,9.1938,-0.0428,0.0209,-0.1006,-1.824148794213766,-0.0004700751742348075,3.189464807510376,-1.6874730587005615,0.0011926861479878426,2.087144613265991,4.766343667149105,0.0001755440898705274,0.33204185962677,-1.5003693739520472,-0.0,-0.0411318801343441,0.8394967913627625,0.00024491435033269227,0.04373738914728165,0.7804682850837708,-0.000670341367367655,0.05768750607967377
905.0,886.0,1.9669,-1.078,9.1938,-0.0428,0.0209,-0.1006,-1.824136873284811,-0.0003315055510029197,3.1610515117645264,-1.6874401569366455,0.0013298520352691412,2.0786402225494385,4.766372024058857,0.0001808269153116271,0.34342917799949646,-1.5003774801837366,-0.0,-0.04847883805632591,0.839432418346405,0.00025426753563806415,0.046326324343681335,0.7804562449455261,-0.0007520407089032233,0.026382770389318466
905.0,886.0,1.9669,-1.078,9.1938,-0.0428,0.0209,-0.1006,-1.8241287670531214,-0.0002714935108087957,3.1523232460021973,-1.687448263168335,0.002209771191701293,2.117360830307007,4.7663842653627775,0.0002484395226929337,0.31915804743766785,-1.5004180113421839,-0.0,-0.040860287845134735,0.8394763469696045,0.00023340777261182666,0.046353794634342194,0.7804521322250366,-0.0008449866436421871,0.04353371635079384
905.0,886.0,1.9669,-1.078,9.1938,-0.0428,0.0209,-0.1006,-1.824136873284811,-0.00021870649652555585,3.148242473602295,-1.6873524188995361,0.0030766658019274473,2.054658889770508,4.766404363303938,0.00024362762633245438,0.3262573480606079,-1.500373665486471,-0.0,-0.04190028831362724,0.839484453201294,0.000237411935813725,0.05038103088736534,0.7804442048072815,-0.0009583773789927363,0.017048709094524384
905.0,886.0,1.9669,-1.078,9.1938,-0.0428,0.0209,-0.1006,-1.824132581750387,-0.00018310686573386192,3.1502416133880615,-1.6873807907104492,0.004126640502363443,2.1350231170654297,4.766372001707115,0.00021277519408613443,0.32986804842948914,-1.5003655592547815,-0.0,-0.03936344385147095,0.8394484519958496,0.00023256316490005702,0.05334056168794632,0.7804161310195923,-0.0014893329935148358,0.05256491154432297
905.0,886.0,1.9669,-1.078,9.1938,-0.0428,0.0209,-0.1006,-1.824148794213766,-0.00013056682655587792,3.168905258178711,-1.6873729228973389,0.005349881015717983,2.1136796474456787,4.766380163818159,0.00026987711316905916,0.327286958694458,-1.5004022757159632,-0.0,-0.035517606884241104,0.8394401669502258,0.0002080445410683751,0.051465168595314026,0.7804243564605713,-0.0013629539171233773,0.059206996113061905
905.0,886.0,1.9669,-1.078,9.1938,-0.0428,0.0209,-0.1006,-1.8241445026793421,-0.00011401015217415988,3.145659923553467,-1.6873606443405151,0.006666744127869606,2.0770373344421387,4.766412197589435,0.0002516040694899857,0.33426517248153687,-1.5004141966449183,-0.0,-0.04048171639442444,0.8395208716392517,0.00018026134057436138,0.05102355778217316,0.7803959250450134,-0.0008779497002251446,0.023885322734713554
905.0,886.0,1.9669,-1.078,9.1938,-0.0428,0.0209,-0.1006,-1.8241249523558558,-0.0001011914064292796,3.165389060974121,-1.6872365474700928,0.0068112327717244625,2.0621349811553955,4.76638017871932,0.0002467265003360808,0.326803982257843,-1.5003812948810022,-0.0,-0.03722648322582245,0.8395164012908936,0.00018202771025244147,0.06130015105009079,0.7803635597229004,-0.0006346529698930681,0.007585103623569012
905.0,886.0,1.9669,-1.078,9.1938,-0.0428,0.0209,-0.1006,-1.824120660821432,-9.33217306737788e-05,3.1817140579223633,-1.6872283220291138,0.007052164059132338,2.095407009124756,4.766376006394186,0.00021697919873986393,0.32899439334869385,-1.50038987794985,-0.0,-0.03219367563724518,0.839492678642273,0.0001704661553958431,0.062302783131599426,0.7804445028305054,-0.0005079835536889732,-0.03239808976650238
905.0,886.0,1.9669,-1.078,9.1938,-0.0428,0.0209,-0.1006,-1.824148794213766,-2.5239261958631687e-05,3.17317795753479,-1.6871609687805176,0.006081404630094767,2.1407790184020996,4.766392017691889,0.00021808402379974723,0.3230811059474945,-1.500385586415426,-0.0,-0.043714649975299835,0.839492678642273,0.00015381790581159294,0.05515067279338837,0.7804403305053711,-0.00034665202838368714,0.004704885184764862
905.0,886.0,1.9669,-1.078,9.1938,-0.0428,0.0209,-0.1006,-1.824160715142721,-2.2693579012411647e-05,3.173354148864746,-1.6870601177215576,0.005162152461707592,2.100780963897705,4.766387927323141,0.00019155775953549892,0.32339558005332947,-1.5003979841815394,-0.0,-0.03764505311846733,0.8395164608955383,0.00015881346189416945,0.04783542826771736,0.7803880572319031,-4.6587956603616476e-05,0.015847016125917435
905.0,886.0,1.9669,-1.078,9.1938,-0.0428,0.0209,-0.1006,-1.8241569004454554,-4.0401951991952956e-05,3.1785435676574707,-1.6870728731155396,0.003565392689779401,2.11594295501709,4.766359667270937,0.00017078456585295498,0.3270338773727417,-1.5003979841815394,-0.0,-0.038699544966220856,0.8395287990570068,0.00014706513320561498,0.0518302246928215,0.7804157137870789,-1.0690846818928179e-10,0.03400734066963196
890.0,880.0,2.12,-0.7992,9.3212,-0.0411,0.0263,-0.1126,-1.8241445026793421,-5.5608303227927536e-05,3.147397518157959,-1.6870285272598267,0.00281089311465621,2.120556354522705,4.76634785065011,9.198461339110509e-05,0.335711807012558,-1.5003817717181605,-0.0,-0.04306357353925705,0.839480459690094,0.0001236208772752434,0.05156225711107254,0.7804442048072815,-2.5817140715837447e-16,0.006075591780245304
890.0,880.0,2.12,-0.7992,9.3212,-0.0411,0.0263,-0.1126,-1.8241974316039027,-0.00018705822003539652,3.1466946601867676,-1.6869802474975586,0.002027779584750533,2.088824510574341,4.7663395432527444,5.98955484747421e-05,0.3249056041240692,-1.5003493467914026,-0.0,-0.04080185666680336,0.8395045399665833,0.00013278392725624144,0.04627350717782974,0.7804198265075684,0.0006037660059519112,0.02554301917552948
890.0,880.0,2.12,-0.7992,9.3212,-0.0411,0.0263,-0.1126,-1.8241726360716761,-0.0003249584697186947,3.137458324432373,-1.6869728565216064,0.0012290263548493385,2.090064764022827,4.766343689500847,5.2858835260849446e-05,0.33020925521850586,-1.500357453023092,-0.0,-0.02972523868083954,0.839440107345581,0.00014108633331488818,0.05411594361066818,0.7805125117301941,0.000624108302872628,-0.001913399901241064
890.0,880.0,2.12,-0.7992,9.3212,-0.0411,0.0263,-0.1126,-1.8241969547667445,-0.0009370995103381574,3.1549205780029297,-1.6869369745254517,0.0008892406476661563,2.1309192180633545,4.766380167543449,4.857878593611531e-05,0.3263486623764038,-1.5003774801837366,-0.0,-0.04363340511918068,0.8394721746444702,0.00015169547987170517,0.04493265226483345,0.7804521322250366,0.0006237354828044772,0.035376276820898056
890.0,880.0,2.12,-0.7992,9.3212,-0.0411,0.0263,-0.1126,-1.8241769276061,-0.001497740508057177,3.1633124351501465,-1.686988353729248,0.0005376292392611504,2.0760672092437744,4.766363847046652,4.3845284380950034e-05,0.3238618075847626,-1.5004261175738733,-0.0,-0.02694498933851719,0.8395004272460938,0.0003620193456299603,0.0495804026722908,0.7805084586143494,0.0008764637168496847,-0.02615831419825554
890.0,880.0,2.12,-0.7992,9.3212,-0.0411,0.0263,-0.1126,-1.824233194390768,-0.0014947605086490512,3.1288702487945557,-1.6870447397232056,0.0004680277779698372,2.0478227138519287,4.766384216934004,3.995242150267586e-05,0.32655221223831177,-1.5003731886493128,-0.0,-0.047982171177864075,0.8394922614097595,0.0007093842141330242,0.061739228665828705,0.7804518342018127,0.0011262570042163134,0.04290110617876053
890.0,880.0,2.12,-0.7992,9.3212,-0.0411,0.0263,-0.1126,-1.824228902856344,-0.0016115115722641349,3.1071605682373047,-1.6869369745254517,0.0004373942210804671,2.042740821838379,4.766355610429802,3.745811409316957e-05,0.31977224349975586,-1.5003812948810022,-0.0,-0.041106048971414566,0.8394922614097595,0.0008209799416363239,0.05122498422861099,0.7804960608482361,0.001123407855629921,0.03200417011976242
890.0,880.0,2.12,-0.7992,9.3212,-0.0411,0.0263,-0.1126,-1.8242088756956996,-0.0016834201524034142,3.1218223571777344,-1.6869924068450928,0.0005238146404735744,2.0637717247009277,4.7663519261176965,3.457964339759201e-05,0.3239162862300873,-1.5003488699542444,-0.0,-0.04103498160839081,0.8394922614097595,0.0012114212149754167,0.06211433559656143,0.7805163264274597,0.0012767285807058215,0.05194557085633278
890.0,880.0,2.12,-0.7992,9.3212,-0.0411,0.0263,-0.1126,-1.824245115319723,-0.0018804873107001185,3.1008148193359375,-1.686988353729248,0.0012344390852376819,2.1269476413726807,4.766363847046652,3.2111984182847664e-05,0.3047600984573364,-1.5004022757159632,-0.0,-0.022113967686891556,0.8395123481750488,0.0022757856640964746,0.06420575082302094,0.7805482149124146,0.0015650633722543716,0.03763365000486374
890.0,880.0,2.12,-0.7992,9.3212,-0.0411,0.0263,-0.1126,-1.824273248712057,-0.0022909652907401323,3.1180152893066406,-1.686936616897583,0.0016268481267616153,2.0373282432556152,4.766396163939991,2.997309638885781e-05,0.3038971424102783,-1.5003774801837366,-0.0,-0.04747908562421799,0.8395150303840637,0.005165780894458294,0.055430181324481964,0.780552327632904,0.0017274059355258942,0.04379379749298096
890.0,880.0,2.12,-0.7992,9.3212,-0.0411,0.0263,-0.1126,-1.8242408237852992,-0.0021596343722194433,3.101898193359375,-1.6869161128997803,0.002365409629419446,2.098466634750366,4.766367892711916,2.85470287053613e-05,0.31761911511421204,-1.500385586415426,-0.0,-0.038069501519203186,0.839648425579071,0.005876434966921806,0.07021546363830566,0.7805237770080566,0.0020480819512158632,0.02156197279691696
890.0,880.0,2.12,-0.7992,9.3212,-0.0411,0.0263,-0.1126,-1.8242446384825648,-0.0022089604754000902,3.1000938415527344,-1.6869127750396729,0.003827253822237253,2.0988035202026367,4.766363847046652,1.387343854730716e-05,0.3175598382949829,-1.5003936926471155,-0.0,-0.03785950690507889,0.8395800590515137,0.0017347787506878376,0.0867159366607666,0.7805962562561035,0.0021232720464468002,0.015425097197294235
864.0,868.0,1.9663,-0.8818,9.3039,-0.0418,0.0296,-0.1083,-1.8243171177306117,-0.002177976770326495,3.0705008506774902,-1.6868484020233154,0.005497762467712164,2.073945999145508,4.766363847046652,1.266645995201543e-05,0.3250129222869873,-1.50038987794985,-0.0,-0.04158138856291771,0.8396396636962891,0.0007564005209133029,0.07465764135122299,0.780632734298706,0.0024232829455286264,-0.021551931276917458
864.0,868.0,1.9663,-0.8818,9.3039,-0.0418,0.0296,-0.1083,-1.8243214092650355,-0.002009953372180462,3.1199493408203125,-1.686780571937561,0.0073249246925115585,2.1302683353424072,4.766307937889852,1.2153319403296337e-05,0.3070223033428192,-1.5003979841815394,-0.0,-0.05932339280843735,0.8396037817001343,0.0005971099017187953,0.07355465739965439,0.7806162238121033,0.0024731485173106194,0.04167710244655609
864.0,868.0,1.9663,-0.8818,9.3039,-0.0418,0.0296,-0.1083,-1.824348588983053,-0.0023537185043096542,3.127875328063965,-1.6867363452911377,0.008921751752495766,2.138400077819824,4.766339576780357,1.1530511073942762e-05,0.3161830008029938,-1.5004256407367151,-0.0,-0.05017326399683952,0.8396437168121338,0.0005082329735159874,0.08319608122110367,0.7806566953659058,0.002618584083393216,0.017992762848734856
864.0,868.0,1.9663,-0.8818,9.3039,-0.0418,0.0296,-0.1083,-1.8242970905699671,-0.0023938443046063185,3.10398006439209,-1.6867167949676514,0.010256591252982616,2.1067066192626953,4.766327719181337,1.0968424248858355e-05,0.31049132347106934,-1.5004499594317835,-0.0,-0.04488952457904816,0.8396555781364441,0.0003151757118757814,0.07635168731212616,0.7806240916252136,0.0033744387328624725,0.0421445295214653
864.0,868.0,1.9663,-0.8818,9.3039,-0.0418,0.0296,-0.1083,-1.824381490746969,-0.0025932863354682922,3.050142288208008,-1.6865845918655396,0.011252188123762608,2.126924514770508,4.766372024058857,1.0458588803885505e-05,0.32505616545677185,-1.5003774801837366,-0.0,-0.05947534739971161,0.8396797776222229,0.000340793514624238,0.08683086931705475,0.7807084918022156,0.0035620927810668945,0.10435289889574051
864.0,868.0,1.9663,-0.8818,9.3039,-0.0418,0.0296,-0.1083,-1.8243771992125453,-0.0029749388340860605,3.0245890617370605,-1.6865005493164062,0.011777280829846859,2.0679259300231934,4.766351497709312,1.010626965580741e-05,0.3201022148132324,-1.500401798878805,-0.0,-0.06781348586082458,0.8396514654159546,0.0005002490943297744,0.08002862334251404,0.7807126641273499,0.00395504804328084,0.07833601534366608
864.0,868.0,1.9663,-0.8818,9.3039,-0.0418,0.0296,-0.1083,-1.8244053326048792,-0.003400311805307865,3.0743820667266846,-1.686436653137207,0.013242650777101517,2.1255602836608887,4.766343667149105,1.0826815888265173e-08,0.2998895049095154,-1.5004218260394495,-0.0,-0.08020037412643433,0.8396637439727783,0.00043979304609820247,0.07852289080619812,0.7807444930076599,0.004792081657797098,0.13241636753082275
864.0,868.0,1.9663,-0.8818,9.3039,-0.0418,0.0296,-0.1083,-1.824404855767721,-0.004261511843651533,3.0139827728271484,-1.6863205432891846,0.014364334754645824,2.1172890663146973,4.766343682050266,1.9677205557230154e-13,0.3087802827358246,-1.5004461447345179,-0.0,-0.0674513652920723,0.8396432995796204,0.0004264632589183748,0.09284378588199615,0.780744194984436,0.005926887504756451,0.13186025619506836
864.0,868.0,1.9663,-0.8818,9.3039,-0.0418,0.0296,-0.1083,-1.8244978390135707,-0.004720961209386587,2.9968743324279785,-1.6862452030181885,0.01426604948937893,2.1429359912872314,4.766367937415399,5.477222748134176e-17,0.3076759874820709,-1.5004780928241175,-5.879375875039727e-10,-0.07721615582704544,0.8396191000938416,0.00040654593612998724,0.09756065905094147,0.7807842493057251,0.006000715773552656,0.15579888224601746
864.0,868.0,1.9663,-0.8818,9.3039,-0.0418,0.0296,-0.1083,-1.824545522729391,-0.005579851102083921,2.9766416549682617,-1.6861088275909424,0.014944834634661674,2.1124510765075684,4.766331828176536,9.954581489353669e-22,0.30738991498947144,-1.500441853200094,-1.0685475636642346e-14,-0.08970090746879578,0.8396753072738647,0.0003656973713077605,0.1014532521367073,0.780884861946106,0.006560293026268482,0.16647258400917053
864.0,868.0,1.9663,-0.8818,9.3039,-0.0418,0.0296,-0.1083,-1.8245207271971644,-0.00682871276512742,2.9984116554260254,-1.6859444379806519,0.015486955642700195,2.120687961578369,4.766324317991295,1.8091957867468278e-26,0.3034564256668091,-1.5004504362689417,-1.9420325409200067e-19,-0.07626765221357346,0.8397760987281799,0.00033942970912903547,0.09479042887687683,0.7809127569198608,0.0076584722846746445,0.20103873312473297
864.0,868.0,1.9663,-0.8818,9.3039,-0.0418,0.0296,-0.1083,-1.8246218166747035,-0.008020888082683086,2.989375114440918,-1.685856580734253,0.015840239822864532,2.0433382987976074,4.766367937415399,5.035962995984893e-30,0.305722713470459,-1.50038987794985,-5.405719209036193e-23,-0.07855890691280365,0.8396719098091125,0.0002974422532133758,0.10908427834510803,0.7809407711029053,0.00851372815668583,0.22900928556919098
864.0,868.0,1.9663,-0.8818,9.3039,-0.0418,0.0296,-0.1083,-1.8246776066222132,-0.009481173940002918,2.958134889602661,-1.6857370138168335,0.016129329800605774,2.0634241104125977,4.766316163330831,9.152613107002749e-35,0.3010927140712738,-1.5004337469684046,-9.824628943575999e-28,-0.07461744546890259,0.839719831943512,0.0002444385318085551,0.12016923725605011,0.7810086607933044,0.009191391058266163,0.24755768477916718
882.0,884.0,1.8185,-1.1246,9.1466,-0.0437,0.0258,-0.0951,-1.8247338734068812,-0.011975793167948723,2.9680774211883545,-1.685612440109253,0.016843246296048164,2.0737857818603516,4.766344013601103,1.6634421706429893e-39,0.3154837489128113,-1.5004099051104944,-1.7855778290773748e-32,-0.06942743062973022,0.8397480249404907,0.00024090685474220663,0.11324121057987213,0.7810684442520142,0.01016340870410204,0.23090925812721252
882.0,884.0,1.8185,-1.1246,9.1466,-0.0437,0.0258,-0.0951,-1.8248301945128382,-0.012684370391070843,2.9431614875793457,-1.6854523420333862,0.017383454367518425,2.067559003829956,4.766348182200947,3.0828566215145976e-44,0.3021085560321808,-1.5004337469684046,-3.245199626995802e-37,-0.08885186910629272,0.8397358655929565,0.00022965570678934455,0.12310528755187988,0.7811524868011475,0.010585719719529152,0.2285316288471222
882.0,884.0,1.8185,-1.1246,9.1466,-0.0437,0.0258,-0.0951,-1.8249665699400843,-0.014558629132807255,2.9282970428466797,-1.6853405237197876,0.017959922552108765,2.147397994995117,4.766380156367578,0.0,0.3017462491989136,-1.500429932271139,-9.033190290577068e-41,-0.08253998309373856,0.8396837711334229,0.00021419566473923624,0.1265890747308731,0.7812409400939941,0.011474884115159512,0.23717957735061646
882.0,884.0,1.8185,-1.1246,9.1466,-0.0437,0.0258,-0.0951,-1.8250261745848597,-0.01649557426571846,2.924407482147217,-1.6852610111236572,0.018420765176415443,2.1076560020446777,4.766324325441875,0.0,0.28318333625793457,-1.5004385153399866,-1.401298464324817e-45,-0.08590366691350937,0.8397316932678223,0.00021555551211349666,0.11875123530626297,0.7813089489936829,0.013223560526967049,0.2724713385105133
882.0,884.0,1.8185,-1.1246,9.1466,-0.0437,0.0258,-0.0951,-1.8251506290831507,-0.018286168575286865,2.900379180908203,-1.6850805282592773,0.019885100424289703,2.1304047107696533,4.766307986318626,0.0,0.2971729040145874,-1.500385586415426,-0.0,-0.0954638421535492,0.839699387550354,0.00023733184207230806,0.1167108565568924,0.7813929915428162,0.014840916730463505,0.2560845613479614
882.0,884.0,1.8185,-1.1246,9.1466,-0.0437,0.0258,-0.0951,-1.8252788982787074,-0.020827895030379295,2.854780673980713,-1.6849316358566284,0.02024291455745697,2.122441053390503,4.766376032471218,0.0,0.2968793511390686,-1.5004661718951624,-0.0,-0.07429850101470947,0.8397879004478455,0.0002458086237311363,0.134240061044693,0.7815291881561279,0.016202634200453758,0.300056517124176
882.0,884.0,1.8185,-1.1246,9.1466,-0.0437,0.0258,-0.0951,-1.8254786930479945,-0.025587696582078934,2.8691248893737793,-1.684763789176941,0.022322481498122215,2.080965280532837,4.766359998821773,0.0,0.2919658124446869,-1.5004099051104944,-0.0,-0.06726539880037308,0.8397355675697327,0.00041463179513812065,0.12246432155370712,0.7816857099533081,0.018961479887366295,0.2567085325717926
882.0,884.0,1.8185,-1.1246,9.1466,-0.0437,0.0258,-0.0951,-1.8256832561888636,-0.02823556959629059,2.8285608291625977,-1.6845149993896484,0.023795265704393387,2.101858615875244,4.766304242401876,-0.00015624948719050735,0.3007112741470337,-1.5003975073443812,-0.0,-0.08312654495239258,0.839775562286377,0.0004257833061274141,0.13124781847000122,0.7818177938461304,0.02081327699124813,0.30550509691238403
882.0,884.0,1.8185,-1.1246,9.1466,-0.0437,0.0258,-0.0951,-1.8258916340269984,-0.03172255679965019,2.8322439193725586,-1.6844323873519897,0.027004104107618332,2.0807387828826904,4.766340672015705,-0.00015643128426745534,0.29229801893234253,-1.5004099051104944,-0.0,-0.07636673003435135,0.8397595882415771,0.0006363037973642349,0.12418699264526367,0.781893253326416,0.021913910284638405,0.275368332862854
882.0,884.0,1.8185,-1.1246,9.1466,-0.0437,0.0258,-0.0951,-1.8261686764159144,-0.035525429993867874,2.839592933654785,-1.684179663658142,0.031895510852336884,2.103630542755127,4.766279983311453,-0.0001517327327746898,0.28642165660858154,-1.5004456678973597,-0.0,-0.07532355189323425,0.8397555351257324,0.0013060059864073992,0.12349991500377655,0.7820936441421509,0.024598317220807076,0.2735227048397064
882.0,884.0,1.8185,-1.1246,9.1466,-0.0437,0.0258,-0.0951,-1.82641663173818,-0.038036517798900604,2.8399720191955566,-1.6838760375976562,0.04003540426492691,2.1674280166625977,4.766320238798418,-0.00015908297791611403,0.28633469343185425,-1.500458065663473,-0.0,-0.0773097351193428,0.8398354649543762,0.01153750903904438,0.1367383450269699,0.7822896242141724,0.02506636641919613,0.2948339879512787
882.0,884.0,1.8185,-1.1246,9.1466,-0.0437,0.0258,-0.0951,-1.8267370663084925,-0.03924557566642761,2.8036751747131348,-1.6835166215896606,0.046569447964429855,2.141173839569092,4.766320253699579,-0.00016524647071491927,0.27875807881355286,-1.500368897114889,-0.0,-0.08307839930057526,0.839946985244751,0.026183336973190308,0.1355634182691574,0.7824733853340149,0.026361064985394478,0.2863702178001404
894.0,870.0,1.9837,-0.743,9.7771,-0.0199,0.0597,-0.0849,-1.826977392236227,-0.04101742431521416,2.8027539253234863,-1.6832317113876343,0.05211668089032173,2.18148136138916,4.766304242401876,-0.0002686199441086501,0.2781338393688202,-1.500368897114889,-0.0,-0.0866444781422615,0.8401751518249512,0.02322872169315815,0.14814752340316772,0.7826658487319946,0.02794613689184189,0.2868110239505768
894.0,870.0,1.9837,-0.743,9.7771,-0.0199,0.0597,-0.0849,-1.8273383579649867,-0.04279987886548042,2.8589272499084473,-1.6827352046966553,0.05741768702864647,2.12458872795105,4.766275989800253,-0.0003040586016140878,0.27807000279426575,-1.5004099051104944,-0.0,-0.07670749723911285,0.8402577042579651,0.01717073656618595,0.14608585834503174,0.7828899621963501,0.029331330209970474,0.31001853942871094
894.0,870.0,1.9837,-0.743,9.7771,-0.0199,0.0597,-0.0849,-1.8276506863036097,-0.046194180846214294,2.789769172668457,-1.6823039054870605,0.06125732511281967,2.195540189743042,4.766271925508537,-0.0004172855115029961,0.2778853178024292,-1.5004499594317835,-0.0,-0.08919519931077957,0.8404092788696289,0.007819687947630882,0.13235870003700256,0.7831624746322632,0.0315852127969265,0.3365509510040283
894.0,870.0,1.9837,-0.743,9.7771,-0.0199,0.0597,-0.0849,-1.8279911480345667,-0.048923294991254807,2.736321449279785,-1.6818721294403076,0.06462348997592926,2.185901403427124,4.766280162125387,-0.00032642314909026027,0.2702395021915436,-1.5004175345050257,-0.0,-0.08987999707460403,0.8403971195220947,0.0021898970007896423,0.14795741438865662,0.7833789587020874,0.03233639523386955,0.2957594394683838
894.0,870.0,1.9837,-0.743,9.7771,-0.0199,0.0597,-0.0849,-1.8283029995360316,-0.0517776794731617,2.749345302581787,-1.6813558340072632,0.0674654021859169,2.1785452365875244,4.766296478896894,-0.00030345027334988117,0.2691560983657837,-1.50041371980776,-0.0,-0.08041156083345413,0.8404290676116943,0.00025439506862312555,0.13994452357292175,0.7835989594459534,0.033629342913627625,0.3078489899635315
894.0,870.0,1.9837,-0.743,9.7771,-0.0199,0.0597,-0.0849,-1.8287035427489222,-0.05208451300859451,2.717280387878418,-1.6807386875152588,0.07199857383966446,2.17034912109375,4.766304242401876,-0.0002478272363077849,0.27304884791374207,-1.500458065663473,-0.0,-0.0937240868806839,0.8404049873352051,0.00010468040272826329,0.13914945721626282,0.7838872075080872,0.03588542714715004,0.3278292417526245
894.0,870.0,1.9837,-0.743,9.7771,-0.0199,0.0597,-0.0849,-1.8290125332274378,-0.0502202995121479,2.759347915649414,-1.6802520751953125,0.07924075424671173,2.1780905723571777,4.766288246005335,-0.0002178298163926229,0.27270153164863586,-1.5004456678973597,-0.0,-0.07605573534965515,0.8404532074928284,0.00015503422764595598,0.13868317008018494,0.7840912938117981,0.03773552179336548,0.2904636561870575
894.0,870.0,1.9837,-0.743,9.7771,-0.0199,0.0597,-0.0849,-1.829433103600973,-0.05046293884515762,2.7471017837524414,-1.6796103715896606,0.0872952863574028,2.1344785690307617,4.766280177026548,-0.00021774212655145675,0.26500648260116577,-1.5003531614886683,-0.0,-0.07554897665977478,0.8404532670974731,0.000230566700338386,0.15181389451026917,0.7844160795211792,0.042588669806718826,0.2757635712623596
894.0,870.0,1.9837,-0.743,9.7771,-0.0199,0.0597,-0.0849,-1.8298574886717738,-0.055888812988996506,2.707826614379883,-1.6789000034332275,0.09118001163005829,2.2156317234039307,4.766312955855884,-0.00018517140415497124,0.2624152600765228,-1.5004618803607386,-0.0,-0.09469465911388397,0.8404167890548706,0.0009620680939406157,0.15698708593845367,0.7847799062728882,0.04346941038966179,0.3052902817726135
894.0,870.0,1.9837,-0.743,9.7771,-0.0199,0.0597,-0.0849,-1.8303424320616664,-0.06244281679391861,2.6349868774414062,-1.678122878074646,0.09754452854394913,2.1798958778381348,4.7662842375929735,-0.00018620406626723707,0.27882686257362366,-1.5004056135760706,-0.0,-0.0796574205160141,0.8404696583747864,0.0016652478370815516,0.1604863405227661,0.7850760817527771,0.04126755893230438,0.2579832673072815
894.0,870.0,1.9837,-0.743,9.7771,-0.0199,0.0597,-0.0849,-1.8306948147215785,-0.06453445553779602,2.684896945953369,-1.6774839162826538,0.10391854494810104,2.257955312728882,4.766312929778852,-0.0001687614421825856,0.2568875551223755,-1.500401798878805,-0.0,-0.08780514448881149,0.8404892086982727,0.0022878097370266914,0.16330359876155853,0.785271942615509,0.03800492361187935,0.3252226710319519
894.0,870.0,1.9837,-0.743,9.7771,-0.0199,0.0597,-0.0849,-1.8311840496458949,-0.0634901151061058,2.7181854248046875,-1.6765897274017334,0.11017908900976181,2.1943681240081787,4.766272346466341,-0.00015000742860138416,0.26363104581832886,-1.5004499594317835,-0.0,-0.08542673289775848,0.8404892086982727,0.002921355189755559,0.1694222092628479,0.7856608629226685,0.034096572548151016,0.30779457092285156
887.0,854.0,2.0393,-0.4762,8.5316,0.0101,0.1043,-0.0767,-1.8316523037352503,-0.06605959683656693,2.693770408630371,-1.6757307052612305,0.11680787056684494,2.2154130935668945,4.766272309213438,-0.00013500517525244504,0.25665247440338135,-1.50041371980776,-0.0,-0.08871564269065857,0.84056156873703,0.003278612159192562,0.1653991937637329,0.785884439945221,0.0339953787624836,0.290055513381958
887.0,854.0,2.0393,-0.4762,8.5316,0.0101,0.1043,-0.0767,-1.8320890865721644,-0.06621707230806351,2.6884937286376953,-1.6750038862228394,0.12507441639900208,2.209437370300293,4.766264135926523,-0.00012558554590214044,0.2704107165336609,-1.5004456678973597,-0.0,-0.10121790319681168,0.8405252695083618,0.0036260774359107018,0.1611386090517044,0.7861250638961792,0.03357001021504402,0.305978924036026
887.0,854.0,2.0393,-0.4762,8.5316,0.0101,0.1043,-0.0767,-1.832569261590475,-0.06675083935260773,2.696897506713867,-1.6739423274993896,0.13422879576683044,2.2099556922912598,4.76626459786252,-0.00019166027777828276,0.2700374722480774,-1.5004494825946253,-0.0,-0.09831700474023819,0.8405484557151794,0.003838983131572604,0.155294269323349,0.7863972187042236,0.03597956895828247,0.34432360529899597
887.0,854.0,2.0393,-0.4762,8.5316,0.0101,0.1043,-0.0767,-1.8331624470152796,-0.06874124705791473,2.738387107849121,-1.6728276014328003,0.14043638110160828,2.2558131217956543,4.766236222326317,-0.0005977894179522991,0.2518662214279175,-1.5004294554339808,-0.0,-0.09130120277404785,0.8406043648719788,0.004067701753228903,0.16343989968299866,0.7866570949554443,0.038186002522706985,0.3289930820465088
887.0,854.0,2.0393,-0.4762,8.5316,0.0101,0.1043,-0.0767,-1.8336030445494593,-0.07392439246177673,2.7124786376953125,-1.6719495058059692,0.1449531763792038,2.2278478145599365,4.766244399338522,-0.0005949548212811351,0.27368995547294617,-1.5004175345050257,-0.0,-0.08622187376022339,0.8406522274017334,0.003993276506662369,0.16045379638671875,0.786881148815155,0.03850901499390602,0.33710265159606934
887.0,854.0,2.0393,-0.4762,8.5316,0.0101,0.1043,-0.0767,-1.8341886005797328,-0.08385586738586426,2.6562204360961914,-1.6708358526229858,0.142661914229393,2.236886978149414,4.76624437326149,-0.0003889609652105719,0.26894140243530273,-1.5004380385028284,-0.0,-0.061440013349056244,0.8406121134757996,0.004505187273025513,0.17764484882354736,0.7871898412704468,0.037152595818042755,0.3308945894241333
887.0,854.0,2.0393,-0.4762,8.5316,0.0101,0.1043,-0.0767,-1.8348132572569789,-0.08940798789262772,2.7080001831054688,-1.6696360111236572,0.15064002573490143,2.2447707653045654,4.76623988428668,-0.0002889735624194145,0.26495394110679626,-1.5004537741290491,-0.0,-0.06856276094913483,0.8407241106033325,0.006035140249878168,0.15766918659210205,0.7875144481658936,0.035227831453084946,0.27819162607192993
887.0,854.0,2.0393,-0.4762,8.5316,0.0101,0.1043,-0.0767,-1.8355423412718714,-0.0874333307147026,2.6832668781280518,-1.6683458089828491,0.16639216244220734,2.2245068550109863,4.766236222326317,-0.00012349573080427945,0.26224377751350403,-1.5004413763629358,-0.0,-0.07618474960327148,0.8406863808631897,0.007717088796198368,0.18099673092365265,0.7877379655838013,0.03315819799900055,0.3261204957962036
887.0,854.0,2.0393,-0.4762,8.5316,0.0101,0.1043,-0.0767,-1.836090704003805,-0.0870918408036232,2.7457921504974365,-1.6672953367233276,0.1781637966632843,2.290114641189575,4.766244399338522,-4.9826154281618074e-05,0.26278889179229736,-1.5004056135760706,-0.0,-0.07798252999782562,0.8408477902412415,0.009491183795034885,0.17804154753684998,0.7879422307014465,0.03070600889623165,0.29594212770462036
887.0,854.0,2.0393,-0.4762,8.5316,0.0101,0.1043,-0.0767,-1.836867471734518,-0.09216853231191635,2.6557726860046387,-1.6657929420471191,0.18430420756340027,2.313030481338501,4.766260380833902,-4.077839184901677e-05,0.2742890417575836,-1.5004337469684046,-0.0,-0.08525251597166061,0.8409354090690613,0.012529281899333,0.1969752311706543,0.7882428765296936,0.030325954779982567,0.275587797164917
887.0,854.0,2.0393,-0.4762,8.5316,0.0101,0.1043,-0.0767,-1.8376394710936488,-0.09544655680656433,2.7216110229492188,-1.6643449068069458,0.1881469190120697,2.318190336227417,4.766252229898729,-3.452061355346814e-05,0.2743974030017853,-1.5004218260394495,-0.0,-0.07308300584554672,0.8410427570343018,0.01938609778881073,0.1893308460712433,0.7885154485702515,0.032880716025829315,0.21668638288974762
887.0,854.0,2.0393,-0.4762,8.5316,0.0101,0.1043,-0.0767,-1.8382593593993128,-0.09954642504453659,2.7071824073791504,-1.6632118225097656,0.19472269713878632,2.268954277038574,4.766223995923557,-6.0847989516332746e-05,0.2700527608394623,-1.5004461447345179,-0.0,-0.0695282593369484,0.8412356972694397,0.028287163004279137,0.20001816749572754,0.788650631904602,0.030577361583709717,0.2726549506187439
887.0,854.0,2.0393,-0.4762,8.5316,0.0101,0.1043,-0.0767,-1.8390470943846644,-0.10810653865337372,2.678497791290283,-1.661659598350525,0.2047882080078125,2.2821476459503174,4.766244399338522,-0.00026314472779631615,0.27324700355529785,-1.5003936926471155,-0.0,-0.07164633274078369,0.8415104746818542,0.05239592120051384,0.199013352394104,0.7889030575752258,0.029233304783701897,0.2579512596130371
862.0,835.0,2.4766,-1.2377,8.5549,-0.0965,0.0939,0.2337,-1.8399225674071253,-0.11778779327869415,2.6513845920562744,-1.6599606275558472,0.20842820405960083,2.3188107013702393,4.766203890531816,-0.00022456393344327807,0.26503318548202515,-1.500401798878805,-0.0,-0.0829717144370079,0.8421165347099304,0.1049037054181099,0.2262675166130066,0.7891271114349365,0.028570707887411118,0.22554340958595276
862.0,835.0,2.4766,-1.2377,8.5549,-0.0965,0.0939,0.2337,-1.8408776722350062,-0.1260492354631424,2.6669135093688965,-1.6582313776016235,0.21947726607322693,2.3417646884918213,4.766256320267477,-0.00010469608241692185,0.2715036869049072,-1.5003975073443812,-0.0,-0.07216133177280426,0.8432861566543579,0.19825948774814606,0.2637566030025482,0.7893512845039368,0.027648769319057465,0.1985798180103302
862.0,835.0,2.4766,-1.2377,8.5549,-0.0965,0.0939,0.2337,-1.8416415653624476,-0.1281694620847702,2.7250638008117676,-1.6568917036056519,0.23219329118728638,2.351606845855713,4.766240308969774,-9.281954407924786e-05,0.27054476737976074,-1.5004337469684046,-0.0,-0.07607904076576233,0.8446090221405029,0.22858239710330963,0.25778821110725403,0.7895361185073853,0.02585734985768795,0.23842906951904297
862.0,835.0,2.4766,-1.2377,8.5549,-0.0965,0.0939,0.2337,-1.8427688084044398,-0.12135840207338333,2.7771849632263184,-1.6549322605133057,0.2384083867073059,2.3360867500305176,4.766256335168638,-8.159741264535114e-05,0.2741764485836029,-1.5003774801837366,-0.0,-0.061583664268255234,0.8466994166374207,0.2720654308795929,0.27511170506477356,0.7897117137908936,0.021329330280423164,0.1724468469619751
862.0,835.0,2.4766,-1.2377,8.5549,-0.0965,0.0939,0.2337,-1.8437682590880335,-0.12366773933172226,2.790966272354126,-1.6530202627182007,0.24168889224529266,2.3903751373291016,4.766236244678058,-7.27968945284374e-05,0.27441808581352234,-1.5004141966449183,-1.675614536011949e-09,-0.05664181709289551,0.8488284945487976,0.27148863673210144,0.25579869747161865,0.7898475527763367,0.01732698269188404,0.14897769689559937
862.0,835.0,2.4766,-1.2377,8.5549,-0.0965,0.0939,0.2337,-1.8445760212340296,-0.13349758088588715,2.754030704498291,-1.651560664176941,0.24372459948062897,2.407806634902954,4.766228067665853,-8.969787450041622e-05,0.2817716896533966,-1.500357453023092,-4.664134746826254e-13,-0.04570331424474716,0.8507059216499329,0.3230396807193756,0.27937084436416626,0.7899477481842041,0.01373015996068716,0.06848597526550293
862.0,835.0,2.4766,-1.2377,8.5549,-0.0965,0.0939,0.2337,-1.8457638225951136,-0.15381628274917603,2.7968149185180664,-1.6496018171310425,0.2339233160018921,2.3618786334991455,4.766236330359735,-3.360132177476771e-05,0.2699020802974701,-1.5003812948810022,-8.47683442088012e-18,-0.03736201673746109,0.8534213304519653,0.3493802547454834,0.25682133436203003,0.7900156378746033,0.007809711154550314,0.07118919491767883
862.0,835.0,2.4766,-1.2377,8.5549,-0.0965,0.0939,0.2337,-1.8469025097289027,-0.15951843559741974,2.7758240699768066,-1.6476465463638306,0.240340918302536,2.285179853439331,4.766292392253437,-3.455951258501955e-08,0.27493903040885925,-1.500385586415426,-1.5406228811380554e-22,-0.03285106271505356,0.8562064170837402,0.35251083970069885,0.24744349718093872,0.7900153398513794,0.002279559848830104,0.030472593382000923
862.0,835.0,2.4766,-1.2377,8.5549,-0.0965,0.0939,0.2337,-1.847837587396139,-0.15204863250255585,2.7833733558654785,-1.6461379528045654,0.2526889741420746,2.3933610916137695,4.766248143255272,-9.619765921342616e-12,0.27726781368255615,-1.5004022757159632,-4.288380384761594e-26,-0.025914080440998077,0.8585098385810852,0.38831132650375366,0.2658463418483734,0.7900838851928711,0.0010223690187558532,0.020710621029138565
862.0,835.0,2.4766,-1.2377,8.5549,-0.0965,0.0939,0.2337,-1.8490525684752406,-0.13158687949180603,2.8266191482543945,-1.644115924835205,0.2605377733707428,2.322755813598633,4.766256320267477,0.00018500232545193285,0.28824150562286377,-1.5003812948810022,-7.79391922066946e-31,-0.027664881199598312,0.8615675568580627,0.39323750138282776,0.247494176030159,0.7900674939155579,0.0007041505305096507,-0.03491383045911789
862.0,835.0,2.4766,-1.2377,8.5549,-0.0965,0.0939,0.2337,-1.8502441845335902,-0.13658861815929413,2.8482420444488525,-1.6420228481292725,0.2619597315788269,2.3774569034576416,4.766180398851194,4.3671590788108006e-07,0.28487494587898254,-1.5004022757159632,-1.4165062789956177e-35,-0.031057488173246384,0.8648106455802917,0.4206520617008209,0.2666047513484955,0.7900993824005127,0.0016831066459417343,-0.09817245602607727
862.0,835.0,2.4766,-1.2377,8.5549,-0.0965,0.0939,0.2337,-1.8514477215208949,-0.16167153418064117,2.846829414367676,-1.6399871110916138,0.25536906719207764,2.3619890213012695,4.766204974591293,-0.0020722781773656607,0.27399447560310364,-1.5003693739520472,-2.574423499703624e-40,-0.026676999405026436,0.8682075142860413,0.4292733669281006,0.2376697063446045,0.7901759147644043,0.0035760679747909307,-0.10719909518957138
749.0,686.0,2.184,-1.7438,8.1326,-0.108,0.0519,0.3606,-1.8524190388121546,-0.17997749149799347,2.8103604316711426,-1.6384564638137817,0.24764704704284668,2.3021199703216553,4.766180383950033,-0.0012265070108696818,0.28422728180885315,-1.5003774801837366,-7.146622168056567e-44,-0.01929580792784691,0.8708271980285645,0.4336598515510559,0.2330639660358429,0.7901515364646912,0.0028228475712239742,-0.033759355545043945
749.0,686.0,2.184,-1.7438,8.1326,-0.108,0.0519,0.3606,-1.8537260494627894,-0.17652641236782074,2.8541557788848877,-1.636435627937317,0.2574242055416107,2.366851568222046,4.766180398851194,-0.0006621188367716968,0.2695562541484833,-1.500385586415426,-0.0,-0.013623337261378765,0.8743200898170471,0.45249372720718384,0.242454394698143,0.7901758551597595,0.00124570622574538,-0.05757956951856613
749.0,686.0,2.184,-1.7438,8.1326,-0.108,0.0519,0.3606,-1.855077405969137,-0.15211966633796692,2.9044241905212402,-1.6343204975128174,0.26493242383003235,2.3568320274353027,4.76614801862792,-0.00012347393203526735,0.2805401682853699,-1.500361744557516,-0.0,-0.03534385561943054,0.8779053092002869,0.45885732769966125,0.22192586958408356,0.7901073098182678,0.0007359184673987329,-0.060307469218969345
749.0,686.0,2.184,-1.7438,8.1326,-0.108,0.0519,0.3606,-1.8560363254942835,-0.14523299038410187,2.8967838287353516,-1.6327486038208008,0.2730520963668823,2.414757490158081,4.766212712019243,-9.128075362241361e-08,0.27285102009773254,-1.5004180113421839,-0.0,-0.009587066248059273,0.8805862069129944,0.45943230390548706,0.22116923332214355,0.7901676893234253,0.00039104948518797755,-0.06328753381967545
749.0,686.0,2.184,-1.7438,8.1326,-0.108,0.0519,0.3606,-1.8573600254454554,-0.1626625508069992,2.9165916442871094,-1.630600929260254,0.2785763740539551,2.474287986755371,4.766213103174724,-1.6589821964091422e-12,0.27135539054870605,-1.500385586415426,-0.0,-0.02848454751074314,0.8842390775680542,0.45116788148880005,0.22878015041351318,0.7901676893234253,0.0008554866653867066,-0.07000736892223358
749.0,686.0,2.184,-1.7438,8.1326,-0.108,0.0519,0.3606,-1.85878386119985,-0.18735459446907043,2.9072704315185547,-1.628449559211731,0.2611826956272125,2.3395543098449707,4.766152537405052,-0.001901842188090086,0.2636953592300415,-1.50038987794985,-0.0,-0.024483930319547653,0.8879760503768921,0.46318158507347107,0.20750704407691956,0.7901676297187805,0.0007169105228967965,-0.054695114493370056
749.0,686.0,2.184,-1.7438,8.1326,-0.108,0.0519,0.3606,-1.8598228893675746,-0.1901092380285263,2.890686511993408,-1.6268291473388672,0.2609151303768158,2.371305465698242,4.766196715622701,-0.000977155053988099,0.26801323890686035,-1.5003660360919397,-0.0,-0.0036722098011523485,0.8906370401382446,0.4412456452846527,0.19206994771957397,0.7901355624198914,0.00044719676952809095,-0.028676027432084084
749.0,686.0,2.184,-1.7438,8.1326,-0.108,0.0519,0.3606,-1.8612057171263636,-0.18275609612464905,2.8355894088745117,-1.6247061491012573,0.26677021384239197,2.3900537490844727,4.766188631742754,-0.0006013457896187901,0.26221764087677,-1.5003693739520472,-0.0,1.7440645024180412e-05,0.8942157030105591,0.4466099441051483,0.19424790143966675,0.7901432514190674,-0.0005063844146206975,-0.07703134417533875
