ramyac6/ROB537/final_project/csv/all/good_210.csv
tof_0,tof_1,accelx,accely,accelz,gyrox,gyroy,gyroz,shoulder_lift_joint_position,shoulder_lift_joint_velocity,shoulder_lift_joint_effort,elbow_joint_position,elbow_joint_velocity,elbow_joint_effort,wrist_1_joint_position,wrist_1_joint_velocity,wrist_1_joint_effort,wrist_2_joint_position,wrist_2_joint_velocity,wrist_2_joint_effort,wrist_3_joint_position,wrist_3_joint_velocity,wrist_3_joint_effort,shoulder_pan_joint_position,shoulder_pan_joint_velocity,shoulder_pan_joint_effort
174.0,230.0,6.2973,-3.5055,5.8953,-0.0443,0.0134,-0.1156,-1.8853651485838832,0.0,3.4295411109924316,-0.9411306381225586,-0.0,2.0454165935516357,3.5354816156574707,-0.0,0.26596900820732117,-1.3616841475116175,0.0,-0.01752820611000061,0.995612621307373,0.0,-0.0004982922109775245,1.2701290845870972,0.0,-0.0037393327802419662
174.0,230.0,6.2973,-3.5055,5.8953,-0.0443,0.0134,-0.1156,-1.8853527508177699,0.0,3.381661891937256,-0.9411147236824036,-0.0,2.0541296005249023,3.5354525285908203,-0.0,0.26874303817749023,-1.3616717497455042,0.0,-0.02338247187435627,0.9956286549568176,0.0,0.004201478324830532,1.2701373100280762,0.0,0.004703093320131302
174.0,230.0,6.2973,-3.5055,5.8953,-0.0443,0.0134,-0.1156,-1.885357519189352,0.0,3.4137940406799316,-0.9411027431488037,-0.0,2.048278570175171,3.5355049806782226,-0.0,0.2604435682296753,-1.3616755644427698,0.0,-0.007171575911343098,0.9956048130989075,0.0,-0.0044797565788030624,1.2701451778411865,0.0,-0.00949820689857006
174.0,230.0,6.2973,-3.5055,5.8953,-0.0443,0.0134,-0.1156,-1.885313173333639,0.0,3.417435646057129,-0.9411544799804688,-0.0,2.0972654819488525,3.5355049806782226,-0.0,0.2598302364349365,-1.361704174672262,0.0,-0.026635747402906418,0.9955928921699524,0.0,-0.012990336865186691,1.270116925239563,0.0,-0.0011918343370780349
174.0,230.0,6.2973,-3.5055,5.8953,-0.0443,0.0134,-0.1156,-1.8853894672789515,0.0,3.4206156730651855,-0.9411391019821167,-0.0,2.0906083583831787,3.535456820125244,-0.0,0.2600918412208557,-1.3616917769061487,0.0,-0.015632763504981995,0.9955806732177734,0.0,-0.014244663529098034,1.2701292037963867,0.0,0.006721127778291702
174.0,230.0,6.2973,-3.5055,5.8953,-0.0443,0.0134,-0.1156,-1.885381361047262,0.0,3.373779058456421,-0.9410631656646729,-0.0,2.109665870666504,3.5354205805012207,-0.0,0.26505976915359497,-1.3617079893695276,0.0,-0.017733871936798096,0.9956085681915283,0.0,-0.0026768394745886326,1.2701046466827393,0.0,0.009024505503475666
174.0,227.0,6.0634,-3.396,6.0365,-0.0347,0.0307,-0.1254,-1.8853332004942835,0.0,3.4046132564544678,-0.9410988688468933,-0.0,2.099608898162842,3.5354768472858886,-0.0,0.25563275814056396,-1.3617079893695276,0.0,-0.016967978328466415,0.9955971240997314,0.0,-0.0011364910751581192,1.270165205001831,0.0,-0.047809090465307236
174.0,227.0,6.0634,-3.396,6.0365,-0.0347,0.0307,-0.1254,-1.8853050671019496,0.0,3.4186272621154785,-0.9411306381225586,-0.0,2.0558745861053467,3.535473509425781,-0.0,0.2626610994338989,-1.3616717497455042,0.0,-0.027274135500192642,0.9955966472625732,0.0,-0.007943611592054367,1.2701373100280762,0.0,0.004480560775846243
174.0,227.0,6.0634,-3.396,6.0365,-0.0347,0.0307,-0.1254,-1.8853093586363734,0.0,3.426020860671997,-0.9411311149597168,-0.0,2.035923957824707,3.5354692178913574,-0.0,0.26331356167793274,-1.3617079893695276,0.0,-0.02406047098338604,0.9955732226371765,0.0,-0.0071186586283147335,1.2701414823532104,0.0,-0.004487261176109314
174.0,227.0,6.0634,-3.396,6.0365,-0.0347,0.0307,-0.1254,-1.8853489361205042,0.0,3.3785042762756348,-0.9411504864692688,-0.0,2.1061630249023438,3.5354887682148437,-0.0,0.27260705828666687,-1.3617237249957483,0.0,-0.030114687979221344,0.9955646395683289,0.0,-0.0010877243475988507,1.2701692581176758,0.0,-0.05649856850504875
174.0,227.0,6.0634,-3.396,6.0365,-0.0347,0.0307,-0.1254,-1.8853332004942835,0.0,3.366373062133789,-0.9411067962646484,-0.0,2.085625410079956,3.5354930597492675,-0.0,0.2618175148963928,-1.3616917769061487,0.0,-0.020652297884225845,0.995617151260376,0.0,-0.01261079590767622,1.270125150680542,0.0,0.004741705022752285
174.0,227.0,6.0634,-3.396,6.0365,-0.0347,0.0307,-0.1254,-1.885381361047262,0.0,3.470085382461548,-0.9410988092422485,-0.0,2.091439723968506,3.5354291635700683,-0.0,0.2646651268005371,-1.361676041279928,0.0,-0.028714504092931747,0.9955887794494629,0.0,-0.009587730281054974,1.2701497077941895,0.0,0.09807800501585007
174.0,227.0,6.0634,-3.396,6.0365,-0.0347,0.0307,-0.1254,-1.8853527508177699,0.0,3.447706699371338,-0.9410868883132935,-0.0,2.081625461578369,3.535501165980957,-0.0,0.2671858072280884,-1.3616841475116175,0.0,-0.022110996767878532,0.9956408143043518,0.0,-0.013586601242423058,1.2701373100280762,0.0,-0.010475900955498219
174.0,227.0,6.0634,-3.396,6.0365,-0.0347,0.0307,-0.1254,-1.8852774105467738,0.0,3.406757354736328,-0.9411067962646484,-0.0,2.065774440765381,3.5354654031940917,-0.0,0.2584671974182129,-1.3616841475116175,0.0,-0.0143570052459836,0.9955806732177734,0.0,-0.027383320033550262,1.2701456546783447,0.0,0.02501363307237625
174.0,227.0,6.0634,-3.396,6.0365,-0.0347,0.0307,-0.1254,-1.885325094262594,0.0,3.404344081878662,-0.9411470293998718,-0.0,2.108944892883301,3.5354973512836914,-0.0,0.2673211395740509,-1.3616755644427698,0.0,-0.016097651794552803,0.9955568313598633,0.0,-0.008197003975510597,1.2701497077941895,0.0,0.00824073888361454
174.0,227.0,6.0634,-3.396,6.0365,-0.0347,0.0307,-0.1254,-1.8853851757445277,0.0,3.402190685272217,-0.941170871257782,-0.0,2.073117971420288,3.5354654031940917,-0.0,0.2660486400127411,-1.3616755644427698,0.0,-0.027801601216197014,0.995560884475708,0.0,-0.006519637070596218,1.2701776027679443,0.0,-0.0444963276386261
174.0,227.0,6.0634,-3.396,6.0365,-0.0347,0.0307,-0.1254,-1.8853289089598597,0.0,3.4480652809143066,-0.9411067962646484,-0.0,2.0937371253967285,3.5354930597492675,-0.0,0.25003987550735474,-1.3616798559771937,0.0,-0.019344903528690338,0.9955847263336182,0.0,-0.013807076960802078,1.2701209783554077,0.0,0.023198790848255157
176.0,221.0,5.9827,-3.4822,6.2022,-0.0301,0.0156,-0.1187,-1.885285039941305,0.0,3.440408945083618,-0.9411352276802063,-0.0,2.100224256515503,3.5355092722126464,-0.0,0.2616389989852905,-1.3616960684405726,0.0,-0.017148450016975403,0.9956048130989075,0.0,-0.0199178047478199,1.2701292037963867,0.0,-0.0032103892881423235
176.0,221.0,5.9827,-3.4822,6.2022,-0.0301,0.0156,-0.1187,-1.885313173333639,0.0,3.4243061542510986,-0.9410907626152039,-0.0,2.0789294242858887,3.5355049806782226,-0.0,0.25738340616226196,-1.3616798559771937,0.0,-0.02184302732348442,0.9955201148986816,0.0,-0.009200582280755043,1.2701616287231445,0.0,0.005031281616538763
176.0,221.0,5.9827,-3.4822,6.2022,-0.0301,0.0156,-0.1187,-1.885325094262594,0.0,3.4010157585144043,-0.9411027431488037,-0.0,2.0751430988311768,3.5354811388203125,-0.0,0.2548733353614807,-1.3616717497455042,0.0,-0.026474762707948685,0.995560884475708,0.0,-0.00816397462040186,1.2701088190078735,0.0,-0.015209305100142956
176.0,221.0,5.9827,-3.4822,6.2022,-0.0301,0.0156,-0.1187,-1.8853332004942835,0.0,3.397609233856201,-0.9410591721534729,-0.0,2.0768089294433594,3.5354606348225097,-0.0,0.26148757338523865,-1.3616755644427698,0.0,-0.021902091801166534,0.9955970644950867,0.0,-0.0019509661942720413,1.270116925239563,0.0,-0.008750515058636665
176.0,221.0,5.9827,-3.4822,6.2022,-0.0301,0.0156,-0.1187,-1.8853332004942835,0.0,3.395252227783203,-0.9410989284515381,-0.0,2.0849905014038086,3.535500689143799,-0.0,0.25224560499191284,-1.3616755644427698,0.0,-0.01060435175895691,0.9956491589546204,0.0,-0.016242045909166336,1.2701088190078735,0.0,0.015079712495207787
176.0,221.0,5.9827,-3.4822,6.2022,-0.0301,0.0156,-0.1187,-1.8853408298888148,0.0,3.4254684448242188,-0.9410591721534729,-0.0,2.0563206672668457,3.5354811388203125,-0.0,0.25419381260871887,-1.3616474310504358,0.0,-0.027463216334581375,0.9955651164054871,0.0,-0.01128319464623928,1.2701047658920288,0.0,-0.014903055503964424
176.0,221.0,5.9827,-3.4822,6.2022,-0.0301,0.0156,-0.1187,-1.8853775463499964,0.0,3.4267020225524902,-0.9410868883132935,-0.0,2.075489044189453,3.5354768472858886,-0.0,0.2650521993637085,-1.3616798559771937,0.0,-0.013323294930160046,0.9956164956092834,0.0,-0.008412322960793972,1.270116925239563,0.0,0.017481863498687744
176.0,221.0,5.9827,-3.4822,6.2022,-0.0301,0.0156,-0.1187,-1.8852931461729945,0.0,3.3896994590759277,-0.9411475658416748,-0.0,2.0343666076660156,3.5354768472858886,-0.0,0.2601556181907654,-1.3616755644427698,0.0,-0.032561056315898895,0.9955887794494629,0.0,0.0057081012055277824,1.270116925239563,0.0,0.004991238005459309
176.0,221.0,5.9827,-3.4822,6.2022,-0.0301,0.0156,-0.1187,-1.8853169880309046,0.0,3.3772454261779785,-0.941150426864624,-0.0,2.0676794052124023,3.535513086909912,3.0110079762835085e-08,0.2589437961578369,-1.361687485371725,0.0,-0.02048708125948906,0.9955442547798157,0.0,-0.0036481632851064205,1.270125150680542,0.0,0.01362372376024723
176.0,221.0,5.9827,-3.4822,6.2022,-0.0301,0.0156,-0.1187,-1.8853451214232386,0.0,3.40627384185791,-0.9410948753356934,-0.0,2.132244348526001,3.5354930597492675,5.472358135215349e-13,0.26454129815101624,-1.3616636435138147,0.0,-0.02123272232711315,0.9956088066101074,0.0,-0.0006215616595000029,1.27017343044281,0.0,0.00934770330786705
176.0,221.0,5.9827,-3.4822,6.2022,-0.0301,0.0156,-0.1187,-1.8852812252440394,0.0,3.3697831630706787,-0.941146969795227,-0.0,2.1025991439819336,3.5355216699787597,9.945741752651787e-18,0.2514262795448303,-1.3616917769061487,0.0,-0.00895506702363491,0.9955487251281738,0.0,0.006622008979320526,1.2701373100280762,0.0,0.022884666919708252
174.0,233.0,6.1992,-3.5169,5.8445,-0.0356,0.0348,-0.1193,-1.8852812252440394,0.0,3.420997142791748,-0.9411107301712036,-0.0,2.0792651176452637,3.5354410844990234,1.8075894411184398e-22,0.24902868270874023,-1.3616960684405726,0.0,-0.016566196456551552,0.9955810904502869,0.0,-0.0026095574721693993,1.2701414823532104,0.0,-0.006858279928565025
174.0,233.0,6.1992,-3.5169,5.8445,-0.0356,0.0348,-0.1193,-1.8853451214232386,0.0,3.4016149044036865,-0.9411584138870239,-0.0,2.0803167819976807,3.535473032588623,3.2852050768170816e-27,0.25653237104415894,-1.3616960684405726,0.0,-0.023753825575113297,0.9955768585205078,0.0,-0.005907909013330936,1.270125150680542,0.0,-0.010205764323472977
174.0,233.0,6.1992,-3.5169,5.8445,-0.0356,0.0348,-0.1193,-1.8853169880309046,0.0,3.4430623054504395,-0.9410948753356934,-0.0,2.0535776615142822,3.535468741054199,5.970698447833627e-32,0.26557502150535583,-1.3616717497455042,0.0,-0.033140718936920166,0.9956047534942627,0.0,-0.007058311253786087,1.2701088190078735,0.0,0.013448764570057392
174.0,233.0,6.1992,-3.5169,5.8445,-0.0356,0.0348,-0.1193,-1.8852893314757289,0.0,3.406550884246826,-0.9410909414291382,-0.0,2.094494342803955,3.5354811388203125,1.0851449036597435e-36,0.25385192036628723,-1.361687485371725,0.0,-0.01951722800731659,0.995600700378418,0.0,-0.00797972921282053,1.2701692581176758,0.0,-0.021221932023763657
174.0,233.0,6.1992,-3.5169,5.8445,-0.0356,0.0348,-0.1193,-1.885325094262594,0.0,3.385291814804077,-0.9411435127258301,-0.0,2.1216766834259033,3.5355049806782226,1.9721874586907475e-41,0.2606178820133209,-1.3617079893695276,0.0,-0.026613522320985794,0.9955447316169739,0.0,-0.002857377054169774,1.2701209783554077,0.0,0.038942527025938034
174.0,233.0,6.1992,-3.5169,5.8445,-0.0356,0.0348,-0.1193,-1.8853050671019496,0.0,3.3883697986602783,-0.9411267042160034,-0.0,2.128330707550049,3.5354973512836914,0.0,0.25174200534820557,-1.3616960684405726,0.0,-0.0329248271882534,0.9955241680145264,0.0,-0.012095724232494831,1.2701373100280762,0.0,-0.016730263829231262
174.0,233.0,6.1992,-3.5169,5.8445,-0.0356,0.0348,-0.1193,-1.8853570423521937,0.0,3.412766456604004,-0.9410988092422485,-0.0,2.0938687324523926,3.535484953517578,0.0,0.254521906375885,-1.3616598288165491,0.0,-0.025591161102056503,0.9955607056617737,0.0,-0.0075449650175869465,1.2701005935668945,0.0,-0.047711968421936035
174.0,233.0,6.1992,-3.5169,5.8445,-0.0356,0.0348,-0.1193,-1.885313173333639,0.0,3.385395050048828,-0.9410788416862488,-0.0,2.069549083709717,3.535513086909912,0.0,0.2650686204433441,-1.3616755644427698,0.0,-0.018552938476204872,0.9955928325653076,0.0,-0.007447165437042713,1.270125150680542,0.0,-0.022369051352143288
174.0,233.0,6.1992,-3.5169,5.8445,-0.0356,0.0348,-0.1193,-1.885325094262594,0.0,3.3979172706604004,-0.9410868883132935,-0.0,2.059767246246338,3.5355092722126464,0.0,0.2673739194869995,-1.3616917769061487,0.0,-0.02364029735326767,0.995600700378418,0.0,-0.016994912177324295,1.270108699798584,0.0,0.02444278821349144
174.0,233.0,6.1992,-3.5169,5.8445,-0.0356,0.0348,-0.1193,-1.8853169880309046,6.831309633525962e-07,3.4015135765075684,-0.9411190748214722,-0.0,2.0932416915893555,3.5354887682148437,0.0,0.2485562264919281,-1.3616717497455042,0.0,-0.015117808245122433,0.9955568313598633,0.0,0.003415308427065611,1.2701128721237183,0.0,-0.013963853940367699
174.0,233.0,6.1992,-3.5169,5.8445,-0.0356,0.0348,-0.1193,-1.885313173333639,2.2132574500335553e-14,3.39941668510437,-0.9410829544067383,-0.0,2.048238515853882,3.5355049806782226,3.212747469660826e-05,0.2590755522251129,-1.3616955916034144,0.0,-0.013994228094816208,0.9955527782440186,0.0,-0.007752987556159496,1.2701292037963867,0.0,0.00400195550173521
175.0,228.0,5.7182,-3.32,6.1047,-0.0292,0.0281,-0.1188,-1.8853050671019496,7.170672422166993e-22,3.4460458755493164,-0.9410868883132935,-0.0,2.074120044708252,3.535501165980957,3.092769838985987e-05,0.2547525465488434,-1.3616841475116175,0.0,-0.021302372217178345,0.995560884475708,0.0,-0.006114630028605461,1.270165205001831,0.0,-0.0327664278447628
175.0,228.0,5.7182,-3.32,6.1047,-0.0292,0.0281,-0.1188,-1.8852931461729945,2.3232065603436815e-29,3.400071859359741,-0.9410989284515381,-0.0,2.0937814712524414,3.535557909602783,2.893876808229834e-05,0.2611909806728363,-1.361687485371725,0.0,-0.018179558217525482,0.9955646991729736,0.0,-0.0010185791179537773,1.2701293230056763,0.0,-0.02886134386062622
175.0,228.0,5.7182,-3.32,6.1047,-0.0292,0.0281,-0.1188,-1.8852693043150843,7.526893765463041e-37,3.385965585708618,-0.9411504864692688,-0.0,2.1262192726135254,3.535534067744873,2.719023723329883e-05,0.2752280831336975,-1.3616917769061487,0.0,-0.018650086596608162,0.995612621307373,0.0,-0.004502805881202221,1.270116925239563,0.0,-0.009863125160336494
175.0,228.0,5.7182,-3.32,6.1047,-0.0292,0.0281,-0.1188,-1.885325094262594,2.382207389352189e-44,3.427781581878662,-0.9410512447357178,-0.0,2.095125675201416,3.5354649263569335,1.6119893189170398e-05,0.2704865336418152,-1.361687962208883,0.0,-0.03134497255086899,0.9956129789352417,0.0,-0.019818643108010292,1.2702019214630127,0.0,-0.004142893012613058
175.0,228.0,5.7182,-3.32,6.1047,-0.0292,0.0281,-0.1188,-1.8853332004942835,7.420998008456081e-05,3.3828225135803223,-0.9411146640777588,-0.0,2.0722405910491943,3.5354973512836914,1.2129402421123814e-05,0.26396313309669495,-1.361687962208883,0.0,-0.023276209831237793,0.9955927729606628,0.0,-0.013072299771010876,1.270153284072876,0.0,-0.03070671111345291
175.0,228.0,5.7182,-3.32,6.1047,-0.0292,0.0281,-0.1188,-1.8853169880309046,6.396095704985783e-05,3.399967670440674,-0.9410907030105591,-0.0,2.073361396789551,3.5354930597492675,1.1508926945680287e-05,0.25871193408966064,-1.3616960684405726,0.0,-0.022303856909275055,0.9955283403396606,0.0,0.007699549198150635,1.2701047658920288,0.0,0.020753463730216026
175.0,228.0,5.7182,-3.32,6.1047,-0.0292,0.0281,-0.1188,-1.8853370151915492,5.600089571089484e-05,3.4059529304504395,-0.9411306381225586,-0.0,2.063990592956543,3.5354930597492675,1.0948879207717255e-05,0.2508525550365448,-1.3617156187640589,0.0,-0.020626578480005264,0.995600700378418,0.0,-0.0073509979993104935,1.270153284072876,0.0,0.004440706223249435
175.0,228.0,5.7182,-3.32,6.1047,-0.0292,0.0281,-0.1188,-1.8852893314757289,4.9803049478214234e-05,3.3708906173706055,-0.9410909414291382,-0.0,2.1184234619140625,3.5355216699787597,1.0440827281854581e-05,0.24841053783893585,-1.361687485371725,0.0,-0.0157373808324337,0.9956129193305969,0.0,0.000992746208794415,1.2700847387313843,0.0,0.018282946199178696
175.0,228.0,5.7182,-3.32,6.1047,-0.0292,0.0281,-0.1188,-1.885301252404684,4.4840337068308145e-05,3.3859305381774902,-0.9410545825958252,-0.0,2.0346217155456543,3.535513086909912,9.977816262107808e-06,0.27481672167778015,-1.3617318312274378,0.0,-0.02163129672408104,0.9955970048904419,0.0,-0.007185742259025574,1.2701170444488525,0.0,0.019146036356687546
175.0,228.0,5.7182,-3.32,6.1047,-0.0292,0.0281,-0.1188,-1.885325094262594,4.077714402228594e-05,3.40023136138916,-0.9410545825958252,-0.0,2.0951569080352783,3.5354930597492675,3.5774144757638737e-10,0.2618228495121002,-1.3616960684405726,0.0,-0.02592349797487259,0.9955766797065735,0.0,-0.004526234231889248,1.2701088190078735,0.0,-0.04313121363520622
175.0,228.0,5.7182,-3.32,6.1047,-0.0292,0.0281,-0.1188,-1.8853208027281703,3.7389108911156654e-05,3.402927875518799,-0.9410669207572937,-0.0,2.0690226554870605,3.5354644495197753,6.5017749281801214e-15,0.2653748691082001,-1.3616636435138147,0.0,-0.026486836373806,0.995552659034729,0.0,-0.003834853880107403,1.2701414823532104,0.0,0.019012093544006348
175.0,228.0,5.7182,-3.32,6.1047,-0.0292,0.0281,-0.1188,-1.8853007755675257,3.4520868211984634e-05,3.397883415222168,-0.9410631656646729,-0.0,2.0909318923950195,3.535513086909912,1.1816653743944185e-19,0.2654903531074524,-1.3616798559771937,0.0,-0.01356594543904066,0.9955726265907288,0.0,0.005076798610389233,1.270153284072876,0.0,0.021966325119137764
174.0,231.0,6.341,-3.5061,5.924,-0.0255,0.0024,-0.1222,-1.8853451214232386,3.150029442622326e-05,3.4117777347564697,-0.9411186575889587,-0.0,2.043712615966797,3.535517378444336,1.4022413044493233e-25,0.25616133213043213,-1.3616598288165491,0.0,-0.010234784334897995,0.9956246614456177,0.0,-0.010552809573709965,1.270125150680542,0.0,0.01984984800219536
174.0,231.0,6.341,-3.5061,5.924,-0.0255,0.0024,-0.1222,-1.88529696087026,1.4719781574967783e-05,3.3945789337158203,-0.9411067962646484,-0.0,2.0939688682556152,3.5354606348225097,2.5485046664245423e-30,0.26108720898628235,-1.3617280165301722,0.0,-0.022436246275901794,0.9956325888633728,0.0,-0.008825069293379784,1.2701414823532104,0.0,0.005191377829760313
174.0,231.0,6.341,-3.5061,5.924,-0.0255,0.0024,-0.1222,-1.8853212795653285,1.381594302074518e-05,3.3976526260375977,-0.94105464220047,-0.0,2.0951614379882812,3.5354887682148437,4.6317806459133855e-35,0.26519083976745605,-1.361687485371725,0.0,-0.008576277643442154,0.9956087470054626,0.0,-0.0064579201862216,1.2701293230056763,0.0,-0.0043036798015236855
174.0,231.0,6.341,-3.5061,5.924,-0.0255,0.0024,-0.1222,-1.8853050671019496,2.6033241738332435e-05,3.433284282684326,-0.9411108493804932,-0.0,2.0714054107666016,3.5354811388203125,8.418034277723117e-40,0.2614574134349823,-1.3616798559771937,0.0,-0.022406505420804024,0.9955925941467285,0.0,-0.005439816974103451,1.2701414823532104,0.0,0.0003762589767575264
174.0,231.0,6.341,-3.5061,5.924,-0.0255,0.0024,-0.1222,-1.8853651485838832,2.4609644242445938e-05,3.4015421867370605,-0.9410912394523621,-0.0,2.0899479389190674,3.5355254846760253,1.5414283107572988e-44,0.2597499489784241,-1.3616598288165491,0.0,-0.017122559249401093,0.995560884475708,0.0,-0.0008199115400202572,1.2701209783554077,0.0,-0.03336457535624504
174.0,231.0,6.341,-3.5061,5.924,-0.0255,0.0024,-0.1222,-1.885301252404684,2.3333621356869116e-05,3.386843681335449,-0.9411063194274902,-0.0,2.0780911445617676,3.535489245052002,0.0,0.266982764005661,-1.3616917769061487,0.0,-0.025310322642326355,0.9955768585205078,0.0,-0.015298384241759777,1.2701692581176758,0.0,0.01653924211859703
174.0,231.0,6.341,-3.5061,5.924,-0.0255,0.0024,-0.1222,-1.8853093586363734,2.2183363398653455e-05,3.460822105407715,-0.941114604473114,-0.0,2.0793368816375732,3.5355049806782226,0.0,0.26303794980049133,-1.3616960684405726,0.0,-0.014541160315275192,0.9956089854240417,0.0,0.0007684664451517165,1.270116925239563,0.0,0.006791159510612488
174.0,231.0,6.341,-3.5061,5.924,-0.0255,0.0024,-0.1222,-1.8852812252440394,2.1141213437658735e-05,3.3974852561950684,-0.9411469101905823,-0.0,2.095309257507324,3.5354973512836914,0.0,0.2754909098148346,-1.3617118040667933,0.0,-0.01689266972243786,0.9956246018409729,0.0,-0.008854646235704422,1.2701855897903442,0.0,0.046684786677360535
174.0,231.0,6.341,-3.5061,5.924,-0.0255,0.0024,-0.1222,-1.8852931461729945,2.019256862695329e-05,3.4091544151306152,-0.9410665035247803,-0.0,2.0686793327331543,3.535536928767822,0.0,0.26070159673690796,-1.3616555372821253,0.0,-0.013859845697879791,0.9955322742462158,0.0,-0.014113090932369232,1.270125150680542,0.0,0.02130674570798874
174.0,231.0,6.341,-3.5061,5.924,-0.0255,0.0024,-0.1222,-1.8853570423521937,4.140229825644326e-10,3.4157121181488037,-0.9410552382469177,-0.0,2.0844883918762207,3.535449190730713,0.0,0.2556832432746887,-1.3616798559771937,0.0,-0.01340740080922842,0.9955728054046631,0.0,-0.006237538997083902,1.2701332569122314,0.0,-0.05380651354789734
174.0,231.0,6.341,-3.5061,5.924,-0.0255,0.0024,-0.1222,-1.885313173333639,1.3413816411969176e-17,3.4311347007751465,-0.9411311149597168,-0.0,2.07220458984375,3.535456820125244,0.0,0.2577424645423889,-1.3616598288165491,0.0,-0.033255357295274734,0.9955488443374634,0.0,-0.015863385051488876,1.270133376121521,0.0,0.009590687230229378
179.0,233.0,6.2542,-3.4355,5.9378,-0.0389,0.0353,-0.1206,-1.8853608570494593,4.345905724344024e-25,3.3925209045410156,-0.9410909414291382,-0.0,2.085768222808838,3.535484953517578,0.0,0.2694908678531647,-1.3617079893695276,0.0,-0.011521589010953903,0.9956404566764832,0.0,-0.012199070304632187,1.2701332569122314,0.0,-0.014714762568473816
179.0,233.0,6.2542,-3.4355,5.9378,-0.0389,0.0353,-0.1206,-1.8853289089598597,1.4080183006112688e-32,3.419217824935913,-0.9411146640777588,-0.0,2.036870002746582,3.535505457515381,0.0,0.2556573152542114,-1.3616960684405726,0.0,-0.02131926454603672,0.9955447912216187,0.0,0.0011403424432501197,1.2701292037963867,0.0,0.04732955992221832
179.0,233.0,6.2542,-3.4355,5.9378,-0.0389,0.0353,-0.1206,-1.8853732548155726,4.561801033747653e-40,3.4200246334075928,-0.9410870671272278,-0.0,2.048698902130127,3.535449190730713,0.0,0.26890674233436584,-1.3616798559771937,0.0,-0.01876237615942955,0.9956045746803284,0.0,-0.003415317740291357,1.2701292037963867,0.0,0.021957065910100937
179.0,233.0,6.2542,-3.4355,5.9378,-0.0389,0.0353,-0.1206,-1.885313173333639,0.0,3.4164633750915527,-0.941114604473114,-0.0,2.088028907775879,3.5354649263569335,0.0,0.2589765191078186,-1.3617280165301722,0.0,-0.013545339927077293,0.9956049919128418,0.0,-0.014382615685462952,1.270116925239563,0.0,-0.00541144423186779
179.0,233.0,6.2542,-3.4355,5.9378,-0.0389,0.0353,-0.1206,-1.8853370151915492,0.0,3.4250285625457764,-0.9410988092422485,-0.0,2.0290095806121826,3.535473032588623,0.0,0.2516929507255554,-1.3616755644427698,0.0,-0.00471353717148304,0.9955688118934631,0.0,-0.00030280070495791733,1.2701128721237183,0.0,-0.015170451253652573
179.0,233.0,6.2542,-3.4355,5.9378,-0.0389,0.0353,-0.1206,-1.8853212795653285,0.0,3.3974695205688477,-0.9410868883132935,-0.0,2.10620379447937,3.535517378444336,0.0,0.24677030742168427,-1.3616841475116175,0.0,-0.02849685586988926,0.9955927729606628,0.0,-0.019791124388575554,1.2701209783554077,0.0,-0.006738861557096243
179.0,233.0,6.2542,-3.4355,5.9378,-0.0389,0.0353,-0.1206,-1.8853050671019496,0.0,3.429983139038086,-0.9411190748214722,-0.0,2.044952392578125,3.5354768472858886,0.0,0.2714715600013733,-1.3616755644427698,0.0,-0.021172761917114258,0.995560884475708,0.0,-0.006582743022590876,1.2701250314712524,0.0,0.017012914642691612
179.0,233.0,6.2542,-3.4355,5.9378,-0.0389,0.0353,-0.1206,-1.8852693043150843,0.0,3.437101125717163,-0.9410907626152039,-0.0,2.081974506378174,3.5354887682148437,0.0,0.26413965225219727,-1.3616722265826624,0.0,-0.0077679879032075405,0.9955927729606628,0.0,-0.002733779139816761,1.2701209783554077,0.0,0.02632467821240425
179.0,233.0,6.2542,-3.4355,5.9378,-0.0389,0.0353,-0.1206,-1.885325094262594,0.0,3.410383701324463,-0.9411352276802063,-0.0,2.0245461463928223,3.535517378444336,0.0,0.26754218339920044,-1.3616960684405726,0.0,-0.02390887960791588,0.9955688118934631,0.0,-0.00016859767492860556,1.2701005935668945,0.0,-0.01879040151834488
179.0,233.0,6.2542,-3.4355,5.9378,-0.0389,0.0353,-0.1206,-1.8853651485838832,0.0,3.3945374488830566,-0.9411267042160034,-0.0,2.074970245361328,3.5354930597492675,0.0,0.2571640908718109,-1.3616755644427698,0.0,-0.034432947635650635,0.9955847263336182,0.0,0.004167701117694378,1.270125150680542,0.0,0.01284367498010397
179.0,233.0,6.2542,-3.4355,5.9378,-0.0389,0.0353,-0.1206,-1.8853093586363734,0.0,3.400360107421875,-0.9410912394523621,-0.0,2.084751605987549,3.5354649263569335,0.0,0.26251083612442017,-1.3616798559771937,0.0,-0.0223898533731699,0.9955927133560181,0.0,-0.014831509441137314,1.2701209783554077,0.0,-0.009206164628267288
177.0,235.0,5.8995,-3.5145,6.009,-0.0339,0.031,-0.1211,-1.8852893314757289,0.0,3.408817768096924,-0.9410789012908936,-0.0,2.074106454849243,3.5354572969624023,0.0,0.2583119571208954,-1.3616917769061487,0.0,-0.02447747252881527,0.9955687522888184,0.0,-0.009578362107276917,1.2701735496520996,0.0,-0.013906421139836311
177.0,235.0,5.8995,-3.5145,6.009,-0.0339,0.031,-0.1211,-1.8853370151915492,0.0,3.430983781814575,-0.9411589503288269,-0.0,2.0782904624938965,3.5355092722126464,0.0,0.26041901111602783,-1.3617280165301722,0.0,-0.014731115661561489,0.9955886602401733,0.0,-0.00026203994639217854,1.270125150680542,0.0,-0.005936451256275177
177.0,235.0,5.8995,-3.5145,6.009,-0.0339,0.031,-0.1211,-1.8853289089598597,0.0,3.3814969062805176,-0.9410788416862488,-0.0,2.106754779815674,3.5354811388203125,0.0,0.2547970414161682,-1.3616755644427698,0.0,-0.024796701967716217,0.9955443143844604,0.0,-0.013436883687973022,1.2701414823532104,0.0,0.008242878131568432
177.0,235.0,5.8995,-3.5145,6.009,-0.0339,0.031,-0.1211,-1.8853169880309046,0.0,3.4035115242004395,-0.9410462975502014,-0.0,2.075793981552124,3.5354811388203125,0.0,0.2695605158805847,-1.3616474310504358,0.0,-0.023557811975479126,0.9955847263336182,0.0,-0.0024407829623669386,1.2701209783554077,0.0,-0.030797602608799934
177.0,235.0,5.8995,-3.5145,6.009,-0.0339,0.031,-0.1211,-1.8853212795653285,0.0,3.404622793197632,-0.9410545825958252,-0.0,2.0575172901153564,3.535501165980957,0.0,0.2589814066886902,-1.3617237249957483,0.0,-0.02750156819820404,0.9955528974533081,0.0,-0.0008529562037438154,1.270125150680542,0.0,-0.022224951535463333
177.0,235.0,5.8995,-3.5145,6.009,-0.0339,0.031,-0.1211,-1.8853332004942835,0.0,3.4129881858825684,-0.9410988092422485,-0.0,2.0879316329956055,3.535501165980957,0.0,0.26564592123031616,-1.3616960684405726,0.0,-0.027011655271053314,0.9955688118934631,0.0,-0.005225209519267082,1.2701855897903442,0.0,-0.021283326670527458
177.0,235.0,5.8995,-3.5145,6.009,-0.0339,0.031,-0.1211,-1.8853093586363734,0.0,3.372086524963379,-0.9410911798477173,-0.0,2.09689998626709,3.5354811388203125,0.0,0.26492366194725037,-1.3617232481585901,0.0,-0.021974889561533928,0.9955847263336182,0.0,-0.013249620795249939,1.2701733112335205,0.00012591190170496702,0.0440828800201416
177.0,235.0,5.8995,-3.5145,6.009,-0.0339,0.031,-0.1211,-1.8853289089598597,0.0,3.417510509490967,-0.9410909414291382,-0.0,2.081512689590454,3.535444899196289,0.0,0.2623104155063629,-1.3617075125323694,0.0,-0.019521722570061684,0.9956006407737732,0.0,-0.011900023557245731,1.2701733112335205,0.001213720766827464,-0.006883664056658745
177.0,235.0,5.8995,-3.5145,6.009,-0.0339,0.031,-0.1211,-1.8853332004942835,8.367357154370758e-12,3.378185272216797,-0.941067099571228,-0.0,2.0411806106567383,3.535484953517578,0.0,0.2494155466556549,-1.361711327229635,0.0,-0.03263113647699356,0.9956165552139282,0.0,-0.010444708168506622,1.2701892852783203,0.0031004613265395164,0.018287446349859238
177.0,235.0,5.8995,-3.5145,6.009,-0.0339,0.031,-0.1211,-1.885325094262594,2.710917470556389e-19,3.420029640197754,-0.9411311149597168,1.3213026506253556e-10,2.077244997024536,3.5354692178913574,0.0,0.2622794508934021,-1.3616913000689905,0.0,-0.01923592947423458,0.9956006407737732,0.0,0.000762109411880374,1.270233154296875,0.008205055259168148,0.011521651409566402
177.0,235.0,5.8995,-3.5145,6.009,-0.0339,0.031,-0.1211,-1.8853370151915492,8.783027866567061e-27,3.389246940612793,-0.9411187171936035,4.280851989454337e-18,2.0729455947875977,3.53542868673291,0.0,0.2538689970970154,-1.36169940630068,0.0,-0.021650569513440132,0.9955887198448181,0.0,-0.00023398769553750753,1.2703217267990112,0.00806182436645031,0.03953683003783226
174.0,229.0,6.3709,-4.0152,5.8798,-0.055,-0.0012,-0.1167,-1.8854052029051722,-0.0002960620622616261,3.439999580383301,-0.9410908222198486,1.386941716971111e-25,2.093312978744507,3.5354649263569335,0.0,0.2532864212989807,-1.3616955916034144,0.0,-0.02770453691482544,0.9956204891204834,0.0,-0.006671225652098656,1.2703251838684082,0.004498580936342478,0.0492861233651638
174.0,229.0,6.3709,-4.0152,5.8798,-0.055,-0.0012,-0.1167,-1.8853613338866175,-0.00031018772278912365,3.4100089073181152,-0.9411311149597168,6.028622649294173e-35,2.082960844039917,3.5355092722126464,0.0,0.2507094144821167,-1.361755673085348,0.0,-0.018507879227399826,0.9955366253852844,0.0,0.0021482480224221945,1.2703574895858765,0.0014288326492533088,0.0010278306435793638
174.0,229.0,6.3709,-4.0152,5.8798,-0.055,-0.0012,-0.1167,-1.8853732548155726,-0.00026041886303573847,3.413281202316284,-0.9411425590515137,1.953410059268795e-42,2.0541763305664062,3.535388155574463,0.0,0.2507382333278656,-1.3617280165301722,0.0,-0.024029849097132683,0.9956086277961731,0.0,0.001699248794466257,1.2703771591186523,0.0010034082224592566,-0.021885734051465988
174.0,229.0,6.3709,-4.0152,5.8798,-0.055,-0.0012,-0.1167,-1.8853775463499964,-0.00012326010619290173,3.4175186157226562,-0.9410868883132935,-0.0,2.095601797103882,3.535529776210449,0.0,0.2589738965034485,-1.3617079893695276,0.0,-0.02258695662021637,0.9956205487251282,0.0,-0.013994954526424408,1.2703529596328735,0.000519297958817333,-0.01575978845357895
174.0,229.0,6.3709,-4.0152,5.8798,-0.055,-0.0012,-0.1167,-1.8853289089598597,-9.590916306478903e-05,3.4324727058410645,-0.9411067962646484,-0.0,2.107574701309204,3.5354572969624023,0.0,0.25648486614227295,-1.3616717497455042,0.0,-0.012794828973710537,0.9956046342849731,0.0,-0.005373929627239704,1.270332932472229,0.00028420897433534265,-0.014026707038283348
174.0,229.0,6.3709,-4.0152,5.8798,-0.055,-0.0012,-0.1167,-1.8853408298888148,-3.9528898923890665e-05,3.3635025024414062,-0.9410790205001831,-0.0,2.0543124675750732,3.5354530054279785,0.0,0.2626172602176666,-1.3617518583880823,0.0,-0.006884036120027304,0.9956006407737732,0.0,0.0002687044907361269,1.270381212234497,0.00016207719454541802,-0.00895601138472557
174.0,229.0,6.3709,-4.0152,5.8798,-0.055,-0.0012,-0.1167,-1.8853332004942835,-1.0819102558290439e-11,3.3964686393737793,-0.9411271810531616,-0.0,2.0744709968566895,3.5354696947285156,-0.00010983394895447418,0.2536596655845642,-1.3616917769061487,0.0,-0.01421953272074461,0.9955323338508606,0.0,-0.00891055166721344,1.2703652381896973,0.00013126275734975934,-0.03573526069521904
174.0,229.0,6.3709,-4.0152,5.8798,-0.055,-0.0012,-0.1167,-1.885357519189352,-3.5052517749607017e-19,3.4218873977661133,-0.9411430358886719,-0.0,2.0506045818328857,3.535461111659668,-0.00011246372741879895,0.24580243229866028,-1.3617237249957483,0.0,-0.0198645181953907,0.9955363273620605,0.0,0.00022928818361833692,1.2703533172607422,-9.307681466452777e-05,0.014518225565552711
174.0,229.0,6.3709,-4.0152,5.8798,-0.055,-0.0012,-0.1167,-1.8853289089598597,-1.1356571784425927e-26,3.407247304916382,-0.9410790801048279,-0.0,2.074009418487549,3.53542868673291,-0.00012268945283722132,0.25700217485427856,-1.3616798559771937,0.0,-0.022701138630509377,0.9955528974533081,0.0,-0.008291814476251602,1.270377516746521,-7.712338265264407e-05,0.009396042674779892
174.0,229.0,6.3709,-4.0152,5.8798,-0.055,-0.0012,-0.1167,-1.8853489361205042,-3.679385250561331e-34,3.4231529235839844,-0.9411351084709167,-0.0,2.062062978744507,3.5354534822651367,-0.00012168906687293202,0.25428318977355957,-1.3617237249957483,0.0,-0.01915600150823593,0.9954845905303955,0.0,-0.02044340968132019,1.270332932472229,-9.870436042547226e-05,-0.009028071537613869
174.0,229.0,6.3709,-4.0152,5.8798,-0.055,-0.0012,-0.1167,-1.8852693043150843,-1.192084603601122e-41,3.429605484008789,-0.9411068558692932,-0.0,2.0467605590820312,3.5354534822651367,-0.00012112272088415921,0.2610704004764557,-1.3616674582110804,0.0,-0.01964413933455944,0.9955926537513733,0.0,-0.017008904367685318,1.2703169584274292,-8.615322440164164e-05,-0.021876366809010506
179.0,226.0,6.4014,-3.667,5.7852,-0.0266,0.0127,-0.1202,-1.8853451214232386,0.0,3.420625925064087,-0.9411067962646484,-0.0,2.0945518016815186,3.5354410844990234,-0.00011247368820477277,0.2603745460510254,-1.361692253743307,0.0,-0.028618156909942627,0.9956088066101074,0.0,-0.0035028180573135614,1.2703734636306763,-7.640150579391047e-05,0.00785665214061737
179.0,226.0,6.4014,-3.667,5.7852,-0.0266,0.0127,-0.1202,-1.8852812252440394,0.0007410031976178288,3.3853507041931152,-0.9410989880561829,-0.0,2.0942928791046143,3.5354654031940917,-0.00010497657785890624,0.25382065773010254,-1.3616474310504358,0.0,-0.018495745956897736,0.9955690503120422,0.0,-0.0008148777997121215,1.2703652381896973,-4.5755848987028e-05,0.0012335823848843575
179.0,226.0,6.4014,-3.667,5.7852,-0.0266,0.0127,-0.1202,-1.8852812252440394,0.0013977971393615007,3.452915668487549,-0.9410706162452698,-0.0,2.0762736797332764,3.535416288966797,-9.841682185651734e-05,0.25242120027542114,-1.3616755644427698,0.0,-0.026867663487792015,0.9956445097923279,0.0,-0.012515186332166195,1.270381212234497,-2.0767545720445924e-05,0.0076692006550729275
179.0,226.0,6.4014,-3.667,5.7852,-0.0266,0.0127,-0.1202,-1.885289808312887,0.002758427755907178,3.419218063354492,-0.9410668611526489,-0.0,2.0658609867095947,3.535473509425781,-9.262918320018798e-05,0.2563053369522095,-1.3617237249957483,0.0,-0.020142395049333572,0.9955688118934631,0.0,0.008592722937464714,1.2704054117202759,-1.2226688550498466e-09,-0.01807202212512493
179.0,226.0,6.4014,-3.667,5.7852,-0.0266,0.0127,-0.1202,-1.8852611980833949,0.004958329722285271,3.4374771118164062,-0.9410587549209595,-0.0,2.082853317260742,3.535444899196289,-8.748398249736056e-05,0.25169652700424194,-1.3617079893695276,0.0,-0.024376356974244118,0.9954966306686401,0.0,-0.0032843295484781265,1.2703890800476074,-3.9612921837723397e-17,-0.020242566242814064
179.0,226.0,6.4014,-3.667,5.7852,-0.0266,0.0127,-0.1202,-1.8851810894408167,0.01160603016614914,3.4204816818237305,-0.941135048866272,-0.0,2.0686471462249756,3.535461588496826,-8.288017852464691e-05,0.25823283195495605,-1.3616917769061487,0.0,-0.012604963034391403,0.9956085681915283,0.0,0.0020456972997635603,1.2703852653503418,-1.2834082591110583e-24,0.019204791635274887
179.0,226.0,6.4014,-3.667,5.7852,-0.0266,0.0127,-0.1202,-1.8851334057249964,0.005300283897668123,3.385279655456543,-0.9411190152168274,-0.0,2.0933732986450195,3.5354577737995605,-8.997232362162322e-05,0.26570504903793335,-1.3616998831378382,0.0,-0.023890897631645203,0.9955649971961975,0.0,0.0018012500368058681,1.2703452110290527,-4.1580802813939055e-32,0.06497743725776672
179.0,226.0,6.4014,-3.667,5.7852,-0.0266,0.0127,-0.1202,-1.8850614033141078,-0.0008433310431428254,3.4044785499572754,-0.9411028027534485,-0.0,2.080413341522217,3.5354253488728027,-0.00010891720012295991,0.2553424537181854,-1.3616798559771937,0.0,-0.020876972004771233,0.9955489039421082,0.0,-0.015369748696684837,1.2703251838684082,-1.807394759286149e-41,-0.01579691842198372
179.0,226.0,6.4014,-3.667,5.7852,-0.0266,0.0127,-0.1202,-1.8851214847960414,-1.5875817993560304e-08,3.4206080436706543,-0.9411434531211853,-0.0,2.098752021789551,3.535416765803955,-0.00010078673221869394,0.26399484276771545,-1.3616598288165491,0.0,-0.034593645483255386,0.995560884475708,0.0,-0.00038961798418313265,1.2702969312667847,-0.0007134613115340471,-0.0005486811278387904
179.0,226.0,6.4014,-3.667,5.7852,-0.0266,0.0127,-0.1202,-1.8850614033141078,0.0017259827582165599,3.407050848007202,-0.9410829544067383,-0.0,2.0697743892669678,3.5353891092487792,-9.378512186231092e-05,0.2663469910621643,-1.3616755644427698,0.0,-0.020231353119015694,0.9956085681915283,0.0,-0.00862904917448759,1.2703332901000977,-0.0006257329368963838,-0.00860621128231287
179.0,226.0,6.4014,-3.667,5.7852,-0.0266,0.0127,-0.1202,-1.8850494823851527,0.0010441173799335957,3.374088764190674,-0.9411107301712036,-0.0,2.090973138809204,3.53546588003125,-8.769261330598965e-05,0.259625643491745,-1.361704174672262,0.0,-0.02315189130604267,0.9955325722694397,0.0,-0.007195780985057354,1.2703173160552979,-0.0006277503562159836,0.040701914578676224
176.0,227.0,5.3504,-2.8834,6.3619,-0.0805,0.0027,-0.1153,-1.8850771389403285,0.000588080903980881,3.3802132606506348,-0.9411067962646484,-3.866543192998506e-05,2.059734582901001,3.5354010301777343,-9.606669482309371e-05,0.25635209679603577,-1.3616841475116175,0.0,-0.009140869602560997,0.9955363869667053,0.0,0.007696226239204407,1.2702691555023193,-0.0007348330691456795,-0.020376242697238922
176.0,227.0,5.3504,-2.8834,6.3619,-0.0805,0.0027,-0.1153,-1.8850933514037074,0.00014445405395235866,3.397843837738037,-0.9411067962646484,-3.325434954604134e-05,2.0775399208068848,3.535404844875,-0.00010325926268706098,0.26263827085494995,-1.3616722265826624,0.0,-0.01900731958448887,0.9954966306686401,0.0,-0.011409022845327854,1.2702609300613403,-0.0006453949608840048,0.0329507514834404
176.0,227.0,5.3504,-2.8834,6.3619,-0.0805,0.0027,-0.1153,-1.8850933514037074,6.481726813944988e-06,3.386336326599121,-0.9411632418632507,-5.794440221507102e-05,2.0329508781433105,3.5354015070148925,-0.00018921516311820596,0.2682894468307495,-1.3616316954242151,0.0,-0.014332735911011696,0.9955729842185974,0.0,-0.0047364672645926476,1.2702929973602295,-0.0006556430016644299,0.009136300534009933
176.0,227.0,5.3504,-2.8834,6.3619,-0.0805,0.0027,-0.1153,-1.8851210079588832,2.0999970154738506e-13,3.4167985916137695,-0.9411188364028931,-7.596740761073306e-05,2.132931709289551,3.5353690820881347,-0.00022117594198789448,0.2741795480251312,-1.3616722265826624,0.0,-0.026060400530695915,0.99554044008255,0.0,-0.010782419703900814,1.2702691555023193,-0.0005312994471751153,-0.04547472298145294
176.0,227.0,5.3504,-2.8834,6.3619,-0.0805,0.0027,-0.1153,-1.8850771389403285,6.803723712549176e-21,3.3592724800109863,-0.9411755800247192,-6.911675882292911e-05,2.0863521099090576,3.5354291635700683,-0.0003907970676664263,0.2525649070739746,-1.3616440931903284,0.0,-0.016462627798318863,0.99554044008255,0.0,0.0011319692712277174,1.2702970504760742,-0.0004210617335047573,-0.05203806608915329
176.0,227.0,5.3504,-2.8834,6.3619,-0.0805,0.0027,-0.1153,-1.885057111779684,2.204319988212251e-28,3.40968656539917,-0.9410706758499146,-8.476620860164985e-05,2.073904514312744,3.5354372698017578,-0.0002906127483583987,0.27070432901382446,-1.3616474310504358,0.0,-0.024512629956007004,0.9955166578292847,0.0,0.0007605096325278282,1.2702810764312744,-0.0005298839532770216,0.031473077833652496
176.0,227.0,5.3504,-2.8834,6.3619,-0.0805,0.0027,-0.1153,-1.885097166100973,7.141717219857472e-36,3.42653489112854,-0.9410908222198486,-7.132961036404595e-05,2.097449541091919,3.5354010301777343,-0.00023093211348168552,0.2648847997188568,-1.3616598288165491,0.0,-0.017690487205982208,0.9955968260765076,0.0,-0.005761079490184784,1.27022123336792,-0.0017105104634538293,-0.0033228411339223385
176.0,227.0,5.3504,-2.8834,6.3619,-0.0805,0.0027,-0.1153,-1.8850933514037074,2.312142466135948e-43,3.4141180515289307,-0.9410866498947144,-3.441258013481274e-05,2.080138921737671,3.5353972154804687,-0.0001533187460154295,0.26681241393089294,-1.3616841475116175,0.0,-0.009447074495255947,0.9955689907073975,0.0,-0.014032134786248207,1.270229458808899,-0.0031241110991686583,-0.0011835568584501743
176.0,227.0,5.3504,-2.8834,6.3619,-0.0805,0.0027,-0.1153,-1.8850733242430628,0.0,3.408749580383301,-0.941122829914093,-2.7079675419372506e-05,2.072256088256836,3.5354134279438476,-0.00013096582551952451,0.25481587648391724,-1.3616798559771937,0.0,-0.023585423827171326,0.9955165386199951,0.0,-0.01588025502860546,1.2701410055160522,-0.004501860123127699,-0.044264055788517
176.0,227.0,5.3504,-2.8834,6.3619,-0.0805,0.0027,-0.1153,-1.8851171932616175,0.0,3.4250783920288086,-0.9410985112190247,-2.4170614778995514e-05,2.0532076358795166,3.535392923946045,-0.00011432719475124031,0.2638029456138611,-1.3616841475116175,0.0,-0.018795542418956757,0.9955365657806396,0.0,-0.005912243388593197,1.270116925239563,-0.004097507800906897,0.006836807355284691
176.0,227.0,5.3504,-2.8834,6.3619,-0.0805,0.0027,-0.1153,-1.8850451908507289,0.0,3.3464531898498535,-0.9411352276802063,-4.365181303001009e-05,2.0691843032836914,3.5354134279438476,-5.206355854170397e-05,0.26781484484672546,-1.3616960684405726,0.0,-0.021087277680635452,0.9955847263336182,0.0,-0.00785156898200512,1.270133376121521,-0.0024970981758087873,0.021854666993021965
179.0,237.0,5.8636,-4.0104,6.1274,-0.0435,0.0163,-0.1188,-1.8850575886168421,0.0,3.4572646617889404,-0.9410825371742249,-3.97919284296222e-05,2.078017473220825,3.535433455104492,-3.015196489286609e-05,0.25861868262290955,-1.3616278807269495,0.0,-0.011854412965476513,0.9955008029937744,0.0,-0.003083097282797098,1.2701332569122314,-0.0012438033008947968,-0.02377655729651451
179.0,237.0,5.8636,-4.0104,6.1274,-0.0435,0.0163,-0.1188,-1.8850695095457972,4.2952851799782366e-05,3.4314050674438477,-0.94118332862854,-5.480938489199616e-05,2.065241813659668,3.535445376033447,-2.6588235414237715e-05,0.2592043876647949,-1.3616474310504358,0.0,-0.01899859309196472,0.9955568909645081,0.0,-0.007485071197152138,1.270097017288208,-0.0009441635920666158,-0.01670091226696968
179.0,237.0,5.8636,-4.0104,6.1274,-0.0435,0.0163,-0.1188,-1.8851009807982386,1.572064012170596e-13,3.3453171253204346,-0.9411383867263794,-6.636842590523884e-05,2.0897765159606934,3.5353447633930664,-4.6228022256400436e-05,0.25833460688591003,-1.3616960684405726,0.0,-0.028986196964979172,0.9955126047134399,0.0,-0.014237061142921448,1.2700928449630737,-0.0004641923005692661,-0.012176305055618286
179.0,237.0,5.8636,-4.0104,6.1274,-0.0435,0.0163,-0.1188,-1.8851691685118617,5.0932866697160576e-21,3.419339656829834,-0.9411632418632507,-6.04040760663338e-05,2.0582022666931152,3.5354015070148925,-4.200688999844715e-05,0.26336631178855896,-1.3616917769061487,0.0,-0.024394620209932327,0.9955809116363525,0.0,-0.001694585895165801,1.2701088190078735,-0.00032856909092515707,-0.005476821679621935
179.0,237.0,5.8636,-4.0104,6.1274,-0.0435,0.0163,-0.1188,-1.8851248226561488,1.6501603689928024e-28,3.383173942565918,-0.9411508440971375,-6.193266744958237e-05,2.06442928314209,3.5353776651569824,-5.7629607908893377e-05,0.2661881446838379,-1.3617199102984827,0.0,-0.02614791877567768,0.9955689907073975,0.0,-0.00722151855006814,1.2700809240341187,-0.00025428709341213107,0.00665654893964529
179.0,237.0,5.8636,-4.0104,6.1274,-0.0435,0.0163,-0.1188,-1.885141511956686,5.346309952362298e-36,3.3975067138671875,-0.9411270022392273,-7.537790952483192e-05,2.1095046997070312,3.535409613246582,-7.079328497638926e-05,0.2529687285423279,-1.361687962208883,0.0,-0.025291388854384422,0.9955284595489502,0.0,0.0028758696280419827,1.2701170444488525,-0.00023460150987375528,-0.02193589136004448
179.0,237.0,5.8636,-4.0104,6.1274,-0.0435,0.0163,-0.1188,-1.8850933514037074,1.7376100957627732e-43,3.4194436073303223,-0.9411632418632507,-6.977329030632973e-05,2.096078872680664,3.535365267390869,-6.563307397300377e-05,0.2581952214241028,-1.361687962208883,0.0,-0.02240321785211563,0.9955604076385498,0.0,0.003609463106840849,1.270097017288208,-0.00024374091299250722,0.04192735627293587
179.0,237.0,5.8636,-4.0104,6.1274,-0.0435,0.0163,-0.1188,-1.8851167164244593,-0.0002159295545425266,3.388749122619629,-0.9411383867263794,-6.475330155808479e-05,2.0390872955322266,3.535437746638916,-0.0001349856611341238,0.26953789591789246,-1.3617118040667933,0.0,-0.021654412150382996,0.9955365657806396,0.0,-0.009446393698453903,1.2700973749160767,-0.00025650503812357783,-0.02057381346821785
179.0,237.0,5.8636,-4.0104,6.1274,-0.0435,0.0163,-0.1188,-1.885085245172018,-0.00018115654529538006,3.4021496772766113,-0.9411632418632507,-6.040711377863772e-05,2.0811190605163574,3.5353895860859375,-0.00012059443542966619,0.26266422867774963,-1.3617199102984827,0.0,-0.018844302743673325,0.9955443739891052,0.0,-0.011327666230499744,1.2701092958450317,-0.0018473647069185972,0.01885117031633854
179.0,237.0,5.8636,-4.0104,6.1274,-0.0435,0.0163,-0.1188,-1.885141511956686,-0.00015603014617227018,3.461751699447632,-0.9411714673042297,-5.673020496033132e-05,2.0288896560668945,3.5353566843220214,-0.00010891829151660204,0.25177034735679626,-1.3616798559771937,0.0,-0.02577555552124977,0.9955047369003296,0.0,-0.015131298452615738,1.2700568437576294,-0.002010930795222521,0.0218089260160923
179.0,237.0,5.8636,-4.0104,6.1274,-0.0435,0.0163,-0.1188,-1.8851171932616175,-0.00013702517026104033,3.4268574714660645,-0.9411105513572693,-5.796818368253298e-05,2.060988426208496,3.53534905492749,-9.930365195032209e-05,0.2577833831310272,-1.361716095601217,0.0,-0.028731033205986023,0.9955206513404846,0.0,0.0009293374605476856,1.2700371742248535,-0.0014102939749136567,-0.0076459720730781555
177.0,226.0,5.86,-3.8692,5.8875,-0.0322,0.0283,-0.131,-1.885137220422262,-0.00012214739399496466,3.4356346130371094,-0.9411548972129822,-5.135283208801411e-05,2.0999085903167725,3.535324736232422,-9.124886855715886e-05,0.24724604189395905,-1.3616512457477015,0.0,-0.026460807770490646,0.9955410957336426,0.0,-0.005361567251384258,1.2701051235198975,-0.0005427549476735294,-0.009620645083487034
177.0,226.0,5.86,-3.8692,5.8875,-0.0322,0.0283,-0.131,-1.885109087029928,-0.00011018398072337732,3.440044641494751,-0.9411228895187378,-4.6092838601907715e-05,2.0768845081329346,3.535352869624756,-8.440286910627037e-05,0.2693575918674469,-1.3616755644427698,0.0,-0.009921977296471596,0.9955365061759949,0.0,0.00506505835801363,1.2701010704040527,-0.00024105973716359586,-0.05386735126376152
177.0,226.0,5.86,-3.8692,5.8875,-0.0322,0.0283,-0.131,-1.8851453266539515,-0.00013362734171096236,3.41713285446167,-0.9410909414291382,-4.181029726169072e-05,2.075044631958008,3.5353690820881347,-9.421245340490714e-05,0.2528094947338104,-1.3616960684405726,0.0,-0.02880181185901165,0.9955484867095947,0.0,0.000390069093555212,1.2701170444488525,0.00021478829148691148,-0.03756360337138176
177.0,226.0,5.86,-3.8692,5.8875,-0.0322,0.0283,-0.131,-1.8851610622801722,-0.0001441515050828457,3.43363356590271,-0.9411383867263794,-3.825586099992506e-05,2.0376501083374023,3.5353447633930664,-0.00010273000953020528,0.2611643671989441,-1.361687485371725,0.0,-0.028901487588882446,0.9955206513404846,0.0,-0.00912992749363184,1.270133376121521,0.0006862387526780367,-0.023853089660406113
177.0,226.0,5.86,-3.8692,5.8875,-0.0322,0.0283,-0.131,-1.8851610622801722,-0.00020132776990067214,3.43355131149292,-0.9411875009536743,-5.2887655328959227e-05,2.0511274337768555,3.5353566843220214,-0.00011023302067769691,0.25944098830223083,-1.3616998831378382,0.0,-0.012879760004580021,0.9955564141273499,0.0,-0.002207427518442273,1.2701128721237183,0.0013221014523878694,0.033348653465509415
177.0,226.0,5.86,-3.8692,5.8875,-0.0322,0.0283,-0.131,-1.8851810894408167,-0.0007125238771550357,3.43856143951416,-0.9411787390708923,-4.904498200630769e-05,2.062851667404175,3.53534905492749,-0.00011646496568573639,0.2549022138118744,-1.3616636435138147,0.0,-0.020403845235705376,0.995528519153595,0.0,-0.010070365853607655,1.2701332569122314,0.0011173485545441508,-0.028124578297138214
177.0,226.0,5.86,-3.8692,5.8875,-0.0322,0.0283,-0.131,-1.8851810894408167,-0.0006134011200629175,3.419001579284668,-0.9411787390708923,-4.5722834329353645e-05,2.0621047019958496,3.535320921535156,-0.00010594473133096471,0.2657439708709717,-1.361704174672262,0.0,-0.027320237830281258,0.9955729246139526,0.0,-0.00393481133505702,1.270165205001831,0.0007477375329472125,-0.024177249521017075
177.0,226.0,5.86,-3.8692,5.8875,-0.0322,0.0283,-0.131,-1.8852211437621058,-0.0004903674707747996,3.3802552223205566,-0.9412112832069397,-5.2218812925275415e-05,2.077852964401245,3.53534905492749,-7.746116898488253e-05,0.267444908618927,-1.3617118040667933,0.0,-0.016864050179719925,0.9954968094825745,0.0,-0.011404967866837978,1.2701451778411865,0.0005282230558805168,-0.009919141419231892
177.0,226.0,5.86,-3.8692,5.8875,-0.0322,0.0283,-0.131,-1.885233541528219,-0.0004886252572759986,3.391505002975464,-0.9411028623580933,-5.290123226586729e-05,2.1001763343811035,3.5353852945515136,-6.993648275965825e-05,0.2642434239387512,-1.361687962208883,0.0,-0.01346108503639698,0.9954968690872192,0.0,0.0015042416052892804,1.2701611518859863,0.00038644339656457305,-0.008254273794591427
177.0,226.0,5.86,-3.8692,5.8875,-0.0322,0.0283,-0.131,-1.8852173290648402,-0.0005422387039288878,3.394629716873169,-0.9410711526870728,-3.993289283243939e-05,2.0940747261047363,3.5353409486958007,-6.489372754003853e-05,0.2650543749332428,-1.3616798559771937,0.0,-0.02148718573153019,0.9954491257667542,0.0,-0.007179302629083395,1.2701693773269653,0.000318136066198349,0.005280326120555401
177.0,226.0,5.86,-3.8692,5.8875,-0.0322,0.0283,-0.131,-1.8852611980833949,-0.0006549514946527779,3.4272327423095703,-0.9411869645118713,-4.8741632781457156e-05,2.083768129348755,3.535397692317627,-4.737640847451985e-05,0.2638401985168457,-1.361687962208883,0.0,-0.017931241542100906,0.9955768585205078,0.0,-0.009918682277202606,1.2701611518859863,0.000270351127255708,-0.04047905281186104
177.0,229.0,5.8696,-3.7801,5.8834,-0.0399,0.0145,-0.1245,-1.8852611980833949,-0.0009952260879799724,3.4126667976379395,-0.9411271810531616,-5.086896271677688e-05,2.116276264190674,3.5353409486958007,-4.2536190449027345e-05,0.2515156865119934,-1.3616755644427698,0.0,-0.013643370009958744,0.9955246448516846,0.0,0.0013042008504271507,1.2701855897903442,0.00023504678392782807,-0.0564933679997921
177.0,229.0,5.8696,-3.7801,5.8834,-0.0399,0.0145,-0.1245,-1.88527311901235,-0.00206007924862206,3.348916530609131,-0.9411342740058899,-4.730409636977129e-05,2.0620529651641846,3.535405321712158,-4.0014587284531444e-05,0.2660420835018158,-1.3617237249957483,0.0,-0.023233570158481598,0.9955126643180847,0.0,-0.0027994082774966955,1.2701777219772339,0.00020789871632587165,-0.010223902761936188
177.0,229.0,5.8696,-3.7801,5.8834,-0.0399,0.0145,-0.1245,-1.8852936230101527,-0.004742936231195927,3.37311053276062,-0.9411466717720032,-5.894141941098496e-05,2.0356056690216064,3.5353328424641113,-3.777521487791091e-05,0.2648918032646179,-1.3616841475116175,0.0,-0.031121566891670227,0.9955325722694397,0.0,-0.011462784372270107,1.2702094316482544,0.00013305444736033678,-0.008381075225770473
177.0,229.0,5.8696,-3.7801,5.8834,-0.0399,0.0145,-0.1245,-1.885369440118307,-0.009330615401268005,3.3740267753601074,-0.9411510229110718,-5.531878559850156e-05,2.0767359733581543,3.535421534175537,4.683035149355419e-05,0.26810190081596375,-1.3616841475116175,0.0,-0.020871199667453766,0.99554842710495,0.0,-0.002697411924600601,1.270165205001831,0.00011329477274557576,-0.020282085984945297
177.0,229.0,5.8696,-3.7801,5.8834,-0.0399,0.0145,-0.1245,-1.885392805139059,-0.011493007652461529,3.3829383850097656,-0.9411464929580688,-6.923466571606696e-05,2.035046100616455,3.5354253488728027,5.855389099451713e-05,0.26258182525634766,-1.3616474310504358,0.0,-0.022688282653689384,0.9955728650093079,0.0,-0.025203820317983627,1.2701128721237183,0.00010292918159393594,-0.017642345279455185
177.0,229.0,5.8696,-3.7801,5.8834,-0.0399,0.0145,-0.1245,-1.8855372867979945,-0.005701589863747358,3.361743450164795,-0.941154956817627,-6.000254870741628e-05,2.07771372795105,3.5354015070148925,5.8521804021438584e-05,0.26493197679519653,-1.3617199102984827,0.0,-0.027496512979269028,0.9955326318740845,0.0,-0.023953329771757126,1.270165205001831,9.430127829546109e-05,-0.026344651356339455
177.0,229.0,5.8696,-3.7801,5.8834,-0.0399,0.0145,-0.1245,-1.8855210743346156,-0.0022221289109438658,3.3608198165893555,-0.941154956817627,-7.630246545886621e-05,2.074415683746338,3.5353776651569824,5.385289841797203e-05,0.25838524103164673,-1.3617079893695276,0.0,-0.019252905622124672,0.9954888820648193,0.0,-0.013406445272266865,1.270156979560852,0.00013323385792318732,-0.037714987993240356
177.0,229.0,5.8696,-3.7801,5.8834,-0.0399,0.0145,-0.1245,-1.885625501672262,-0.005052356049418449,3.3923392295837402,-0.9411829113960266,-9.470135410083458e-05,2.034367322921753,3.5354253488728027,4.987377906218171e-05,0.27079543471336365,-1.3616960684405726,0.0,-0.018565822392702103,0.9955087900161743,0.0,-0.013205796480178833,1.2701774835586548,0.0002648283843882382,-0.06871119141578674
177.0,229.0,5.8696,-3.7801,5.8834,-0.0399,0.0145,-0.1245,-1.885648866693014,-0.007272903807461262,3.311264991760254,-0.9411064386367798,-0.0001371341641061008,2.00266695022583,3.53538100301709,4.6442266466328874e-05,0.2819034457206726,-1.3616755644427698,0.0,-0.028154775500297546,0.9955484867095947,0.0,-0.010793239809572697,1.2701733112335205,0.0006838669651187956,-0.034604497253894806
177.0,229.0,5.8696,-3.7801,5.8834,-0.0399,0.0145,-0.1245,-1.8856970272459925,-0.005180615000426769,3.308332920074463,-0.9411870241165161,-0.0001139787636930123,2.0042293071746826,3.5353895860859375,4.345252818893641e-05,0.2545461356639862,-1.3616798559771937,0.0,-0.02248644083738327,0.9954849481582642,0.0,-0.022747278213500977,1.2702131271362305,0.0006848560296930373,-0.011059332638978958
177.0,229.0,5.8696,-3.7801,5.8834,-0.0399,0.0145,-0.1245,-1.8857132397093714,-0.0021971147507429123,3.2953453063964844,-0.9411385655403137,-9.751215111464262e-05,2.02466082572937,3.5353972154804687,4.082449231646024e-05,0.26194441318511963,-1.3616917769061487,0.0,-0.021077629178762436,0.9954889416694641,0.0,-0.019683467224240303,1.270193099975586,0.0006915849517099559,-0.01350652240216732
179.0,225.0,5.8911,-3.0604,6.2716,-0.0137,0.0501,-0.1342,-1.8857652149596156,-0.0008909302414394915,3.3358001708984375,-0.9411828517913818,-8.520322444383055e-05,2.0591044425964355,3.5354253488728027,2.5775136236916296e-05,0.25991639494895935,-1.3617199102984827,0.0,-0.03281872346997261,0.99554443359375,0.0,-0.024018030613660812,1.270193099975586,0.0005677391891367733,-0.035699501633644104
179.0,225.0,5.8911,-3.0604,6.2716,-0.0137,0.0501,-0.1342,-1.8857132397093714,-0.0006050745723769069,3.327589511871338,-0.9411028623580933,-7.565356645500287e-05,2.011268138885498,3.5354134279438476,2.427948493277654e-05,0.24754637479782104,-1.3616717497455042,0.0,-0.006282631307840347,0.9955206513404846,0.0,-0.02910267934203148,1.2701971530914307,0.0005291939596645534,-0.040767230093479156
179.0,225.0,5.8911,-3.0604,6.2716,-0.0137,0.0501,-0.1342,-1.8857771358885707,-0.0015043385792523623,3.3244993686676025,-0.9411945939064026,-6.802895222790539e-05,2.0299172401428223,3.5353852945515136,2.303655492141843e-05,0.24705952405929565,-1.3616350332843226,0.0,-0.008524544537067413,0.9955127239227295,0.0,-0.02961948700249195,1.2701729536056519,0.0005053814384154975,-0.03064814954996109
179.0,225.0,5.8911,-3.0604,6.2716,-0.0137,0.0501,-0.1342,-1.8857609234251917,-0.0017115293303504586,3.2900238037109375,-0.9412026405334473,-6.041754750185646e-05,1.997048020362854,3.535433455104492,2.1651110728271306e-05,0.24220287799835205,-1.361687485371725,0.0,-0.018145155161619186,0.9955207109451294,0.0,-0.03785421699285507,1.2701528072357178,0.0003352583444211632,-0.10413751006126404
179.0,225.0,5.8911,-3.0604,6.2716,-0.0137,0.0501,-0.1342,-1.885740419427389,-0.001276730210520327,3.2787282466888428,-0.9411470293998718,-5.5454016546718776e-05,1.9972196817398071,3.53538100301709,1.032881027640542e-05,0.2479413002729416,-1.3616917769061487,0.0,-0.017797574400901794,0.9955325126647949,0.0,-0.03891518712043762,1.2701889276504517,0.0002066512097371742,-0.06370452046394348
179.0,225.0,5.8911,-3.0604,6.2716,-0.0137,0.0501,-0.1342,-1.8857728443541468,-0.0019043049542233348,3.2261171340942383,-0.9411866664886475,-5.124418021296151e-05,1.989817500114441,3.5353852945515136,2.5373024072905537e-06,0.2403309941291809,-1.361687485371725,0.0,-0.01636960729956627,0.9954968690872192,0.0,-0.026834920048713684,1.2701771259307861,0.00016803864855319262,-0.07249370962381363
179.0,225.0,5.8911,-3.0604,6.2716,-0.0137,0.0501,-0.1342,-1.8857609234251917,-0.0031129487324506044,3.2199554443359375,-0.9411708116531372,-6.164918158901855e-05,2.0105817317962646,3.5353733736225585,4.61142235508305e-11,0.23526573181152344,-1.3616512457477015,0.0,-0.013619638979434967,0.9954968690872192,0.0,-0.03832118958234787,1.2701971530914307,0.00014159874990582466,-0.0972699522972107
179.0,225.0,5.8911,-3.0604,6.2716,-0.0137,0.0501,-0.1342,-1.8858410320677699,-0.0044334083795547485,3.166013717651367,-0.9411226511001587,-5.9318939747754484e-05,1.9807052612304688,3.535352869624756,8.381031553474311e-16,0.23318244516849518,-1.3616960684405726,0.0,-0.0039045135490596294,0.9954691529273987,0.0,-0.04661952331662178,1.2701889276504517,9.218630293617025e-05,-0.1610429584980011
179.0,225.0,5.8911,-3.0604,6.2716,-0.0137,0.0501,-0.1342,-1.8858410320677699,-0.0052297404035925865,3.200523853302002,-0.941138505935669,-9.244269313057885e-05,1.9589664936065674,3.535405321712158,1.5232110927509193e-20,0.23905505239963531,-1.361687962208883,0.0,-0.010525663383305073,0.9955404996871948,0.0,-0.037701260298490524,1.2702053785324097,8.077984239207581e-05,-0.10589353740215302
179.0,225.0,5.8911,-3.0604,6.2716,-0.0137,0.0501,-0.1342,-1.8859168491759242,-0.005678355228155851,3.233844757080078,-0.9411787986755371,-0.00010283654410159215,1.9336795806884766,3.535397692317627,2.7683609145676093e-25,0.2236737310886383,-1.3616679350482386,0.0,-0.020417731255292892,0.9954578280448914,0.0,-0.034516092389822006,1.2702012062072754,7.214573270175606e-05,-0.1331128478050232
179.0,225.0,5.8911,-3.0604,6.2716,-0.0137,0.0501,-0.1342,-1.8859487972655238,-0.006699818652123213,3.152301788330078,-0.9411708116531372,-0.00011148449266329408,1.9235785007476807,3.5353852945515136,5.0313584435534e-30,0.2384326457977295,-1.3616679350482386,0.0,-0.0022280446719378233,0.9955127239227295,0.0,-0.036045823246240616,1.27022123336792,6.517913425341249e-05,-0.13816770911216736
179.0,225.0,5.8911,-3.0604,6.2716,-0.0137,0.0501,-0.1342,-1.885984560052389,-0.007777638733386993,3.139936923980713,-0.9411864876747131,-0.00011901122343260795,1.9307749271392822,3.535377188319824,9.144246319330905e-35,0.22847223281860352,-1.3616755644427698,0.0,0.00064840167760849,0.9954968690872192,0.0,-0.047319263219833374,1.2702254056930542,5.943963333265856e-05,-0.12377404421567917
175.0,228.0,5.9145,-3.3781,5.9067,-0.0246,0.0215,-0.1243,-1.8860851726927699,-0.008465788327157497,3.1158595085144043,-0.9411787986755371,-0.00026498030638322234,1.9476685523986816,3.535336657161377,1.6619217618091968e-39,0.23004356026649475,-1.3616598288165491,0.0,-0.007013344205915928,0.9954690933227539,0.0,-0.04709856957197189,1.2702049016952515,5.46290393685922e-05,-0.16229483485221863
175.0,228.0,5.9145,-3.3781,5.9067,-0.0246,0.0215,-0.1243,-1.8861242733397425,-0.009141765534877777,3.0799403190612793,-0.9411629438400269,-0.00025732809444889426,1.881817102432251,3.53534905492749,3.0828566215145976e-44,0.23478963971138,-1.3616841475116175,0.0,-0.0017429862637072802,0.9955205917358398,0.0,-0.034256935119628906,1.2701971530914307,5.0538877985673025e-05,-0.10626813769340515
175.0,228.0,5.9145,-3.3781,5.9067,-0.0246,0.0215,-0.1243,-1.8862244091429652,-0.011428868398070335,3.084517002105713,-0.9411708116531372,-0.000247911608312279,1.90627121925354,3.535352869624756,0.0,0.2285560667514801,-1.3616960684405726,0.0,-0.014448215253651142,0.9955047369003296,0.0,-0.03115496225655079,1.27022123336792,4.701853322330862e-05,-0.13335946202278137
175.0,228.0,5.9145,-3.3781,5.9067,-0.0246,0.0215,-0.1243,-1.8863007030882777,-0.013876248151063919,3.0176796913146973,-0.9411306381225586,-0.00021736667258664966,1.9031004905700684,3.5353690820881347,-0.00021520533482544124,0.2089216113090515,-1.3616679350482386,0.0,-0.0030680985655635595,0.9954966902732849,0.0,-0.029549330472946167,1.2702213525772095,5.86009664402809e-05,-0.1456625908613205
175.0,228.0,5.9145,-3.3781,5.9067,-0.0246,0.0215,-0.1243,-1.8864642582335414,-0.017625683918595314,3.0523524284362793,-0.9411708116531372,-0.00021829208708368242,1.8780221939086914,3.5353900629230957,-0.0002168116334360093,0.2221105992794037,-1.3616841475116175,0.0,-0.0006594238802790642,0.9955124855041504,0.0,-0.037278540432453156,1.2702090740203857,5.502563726622611e-05,-0.17603230476379395
175.0,228.0,5.9145,-3.3781,5.9067,-0.0246,0.0215,-0.1243,-1.8866168461241664,-0.021183323115110397,3.0100607872009277,-0.9411708116531372,-0.00019468189566396177,1.827881097793579,3.535385771388672,-0.00018681393703445792,0.21713638305664062,-1.3616755644427698,0.0,0.0006836788961663842,0.9955369234085083,0.0,-0.0471997931599617,1.270193099975586,5.185529516893439e-05,-0.16075429320335388
175.0,228.0,5.9145,-3.3781,5.9067,-0.0246,0.0215,-0.1243,-1.8867961368956507,-0.02479935809969902,2.9591288566589355,-0.9411510229110718,-0.00017568077601026744,1.8557419776916504,3.5353171068378906,-0.00016410295211244375,0.20953646302223206,-1.361687485371725,0.0,0.009709449484944344,0.9955287575721741,0.0,-0.04425925761461258,1.2702090740203857,4.903035005554557e-05,-0.15349233150482178
175.0,228.0,5.9145,-3.3781,5.9067,-0.0246,0.0215,-0.1243,-1.886996408502096,-0.02951866015791893,3.010161876678467,-0.9412145018577576,-0.0001600589748704806,1.866256594657898,3.5354172426411132,-0.00014631575322709978,0.2023278772830963,-1.361687962208883,0.0,-0.0003587137907743454,0.9954524040222168,0.0,-0.04293593764305115,1.270156979560852,4.649730180972256e-05,-0.17655876278877258
175.0,228.0,5.9145,-3.3781,5.9067,-0.0246,0.0215,-0.1243,-1.8873564205565394,-0.03724024444818497,2.9853553771972656,-0.9411470890045166,-0.00014404792455025017,1.8502528667449951,3.535409136409424,-0.00010738149285316467,0.21742749214172363,-1.3616388479815882,0.0,-5.1265327783767134e-05,0.9954769611358643,0.0,-0.05537683516740799,1.2702131271362305,3.275762719567865e-05,-0.132761150598526
175.0,228.0,5.9145,-3.3781,5.9067,-0.0246,0.0215,-0.1243,-1.8876000843443812,-0.04582110419869423,2.956937313079834,-0.9411708116531372,-0.00011670368257910013,1.8048856258392334,3.535365267390869,-9.80244149104692e-05,0.204715296626091,-1.3616474310504358,0.0,-0.009193433448672295,0.9954655170440674,0.0,-0.04681561142206192,1.270193099975586,3.1241430406225845e-05,-0.19573968648910522
175.0,228.0,5.9145,-3.3781,5.9067,-0.0246,0.0215,-0.1243,-1.8880559406676234,-0.0491052083671093,3.000375747680664,-0.9411306381225586,-0.00010865204967558384,1.8898752927780151,3.535449190730713,-9.016765397973359e-05,0.21229763329029083,-1.3616722265826624,0.0,0.005062450189143419,0.9954729080200195,0.0,-0.04735247790813446,1.270140528678894,2.9859460482839495e-05,-0.19617202877998352
170.0,234.0,5.199,-3.399,6.1591,-0.0544,-0.0162,-0.1356,-1.888439794579977,-0.056121911853551865,2.959584951400757,-0.941154956817627,-0.00010164044215343893,1.8673906326293945,3.535397692317627,-8.347689436050132e-05,0.20694798231124878,-1.3616679350482386,0.0,-1.3101845979690552e-05,0.9954534769058228,0.0,-0.06027151644229889,1.270173192024231,2.8345806604712642e-12,-0.16097301244735718
170.0,234.0,5.199,-3.399,6.1591,-0.0544,-0.0162,-0.1356,-1.8888827762999476,-0.06301727145910263,2.9083614349365234,-0.941154956817627,-9.547891386318952e-05,1.8599382638931274,3.535409136409424,-7.77106179157272e-05,0.21547797322273254,-1.361643139516012,0.0,0.003827599808573723,0.9955093264579773,-4.302798117805651e-08,-0.053787361830472946,1.2701971530914307,9.183680339285931e-20,-0.14571014046669006
170.0,234.0,5.199,-3.399,6.1591,-0.0544,-0.0162,-0.1356,-1.889479776422018,-0.0659974068403244,2.9597220420837402,-0.941166877746582,-9.002175647765398e-05,1.8349952697753906,3.5353852945515136,-7.268948684213683e-05,0.20330697298049927,-1.3616841475116175,0.0,-0.00974327977746725,0.9954575300216675,-7.820122587681722e-13,-0.05571700632572174,1.27022123336792,2.9753955563240788e-27,-0.1999630331993103
170.0,234.0,5.199,-3.399,6.1591,-0.0544,-0.0162,-0.1356,-1.8899671039977015,-0.06894461065530777,2.964327335357666,-0.9411947131156921,-8.515476656612009e-05,1.8311550617218018,3.5353733736225585,-6.827781908214092e-05,0.19823457300662994,-1.3616636435138147,0.0,-0.009608954191207886,0.9954851269721985,-1.4212686768057576e-17,-0.07193955034017563,1.2702254056930542,9.63990430302592e-35,-0.21628446877002716
170.0,234.0,5.199,-3.399,6.1591,-0.0544,-0.0162,-0.1356,-1.8905464611449183,-0.07742917537689209,2.9181947708129883,-0.9412025809288025,-9.227442933479324e-05,1.825922966003418,3.5354015070148925,-6.437109550461173e-05,0.2031840980052948,-1.3616474310504358,0.0,-0.0005531664937734604,0.9954088926315308,-2.5830855279920697e-22,-0.06837056577205658,1.270233154296875,3.123494276980017e-42,-0.13857202231884003
170.0,234.0,5.199,-3.399,6.1591,-0.0544,-0.0162,-0.1356,-1.8911901913084925,-0.0869850218296051,2.935091972351074,-0.9411391019821167,-8.782331133261323e-05,1.8393421173095703,3.535364790553711,-7.306440238608047e-05,0.2166544646024704,-1.3616636435138147,0.0,-0.004216322209686041,0.9954328536987305,-0.000296952755888924,-0.06617502868175507,1.2701729536056519,0.0,-0.16837945580482483
170.0,234.0,5.199,-3.399,6.1591,-0.0544,-0.0162,-0.1356,-1.8918658695616664,-0.09077978879213333,2.89144229888916,-0.9411345720291138,-7.32705375412479e-05,1.894033432006836,3.5354577737995605,-6.931326061021537e-05,0.2050725817680359,-1.3616636435138147,0.0,0.0007040181662887335,0.9954851269721985,-0.00029456824995577335,-0.0722191110253334,1.2702131271362305,0.0,-0.1756018102169037
170.0,234.0,5.199,-3.399,6.1591,-0.0544,-0.0162,-0.1356,-1.8926335773863734,-0.09124781936407089,2.9238409996032715,-0.9412264823913574,-7.001352787483484e-05,1.8482235670089722,3.5353728967854003,-5.4941097914706916e-05,0.1948770433664322,-1.361635986958639,0.0,0.0038126367144286633,0.9954735636711121,-0.0004042765067424625,-0.07638265192508698,1.2702012062072754,1.9677577256516088e-07,-0.13657502830028534
170.0,234.0,5.199,-3.399,6.1591,-0.0544,-0.0162,-0.1356,-1.8933974705138148,-0.09276630729436874,2.910755157470703,-0.9411787986755371,-5.706610878286611e-11,1.8409534692764282,3.5354410844990234,-5.238218727754429e-05,0.19850173592567444,-1.3616679350482386,0.0,0.003695559687912464,0.9954092502593994,-0.00043151594582013786,-0.08032877743244171,1.27022123336792,6.375286227617216e-15,-0.18317289650440216
170.0,234.0,5.199,-3.399,6.1591,-0.0544,-0.0162,-0.1356,-1.894205232659811,-0.10359388589859009,2.9068171977996826,-0.941138505935669,-1.8488696442206027e-18,1.832751750946045,3.5354577737995605,-5.0051763537339866e-05,0.2028942108154297,-1.3616722265826624,0.0,0.006777859292924404,0.9954251646995544,-0.00038745024357922375,-0.07964129745960236,1.2702049016952515,2.0655116161571568e-22,-0.16607004404067993
170.0,234.0,5.199,-3.399,6.1591,-0.0544,-0.0162,-0.1356,-1.895008226434225,-0.11274617165327072,2.8822546005249023,-0.941166877746582,-5.990101268743045e-26,1.820195198059082,3.535377188319824,-3.540302939697426e-09,0.18345320224761963,-1.3616636435138147,0.0,0.005586906801909208,0.995429277420044,-0.0003534511779434979,-0.06798060238361359,1.2701929807662964,6.691994923525025e-30,-0.18422338366508484
164.0,224.0,5.8851,-3.8279,6.0562,-0.0932,-0.1089,-0.1468,-1.895895620385641,-0.11829306930303574,2.868793487548828,-0.9411669373512268,-1.9407165612946263e-33,1.801379680633545,3.535461588496826,-6.434326541623209e-14,0.1781359314918518,-1.3616717497455042,0.0,0.009213917888700962,0.9953972697257996,-0.0003087192599195987,-0.0868731141090393,1.2701729536056519,2.1681210457122207e-37,-0.1620626300573349
164.0,224.0,5.8851,-3.8279,6.0562,-0.0932,-0.1089,-0.1468,-1.8968831501402796,-0.12577302753925323,2.893709659576416,-0.9411787390708923,-6.287626209425454e-41,1.7780005931854248,3.5354696947285156,-1.1694070488548713e-18,0.18943846225738525,-1.3616440931903284,0.0,-0.006387879606336355,0.9954333305358887,-0.000260552711552009,-0.08516374975442886,1.270233154296875,7.006492321624085e-45,-0.2148331254720688
164.0,224.0,5.8851,-3.8279,6.0562,-0.0932,-0.1089,-0.1468,-1.8978735409178675,-0.13211144506931305,2.859854221343994,-0.941150426864624,-2.276896005071194e-09,1.8687560558319092,3.535461588496826,-2.1253392689712253e-23,0.17879703640937805,-1.3616555372821253,0.0,-0.0005988619523122907,0.995453417301178,-0.0002499422407709062,-0.08837300539016724,1.2702535390853882,0.0,-0.234852135181427
164.0,224.0,5.8851,-3.8279,6.0562,-0.0932,-0.1089,-0.1468,-1.8991977177061976,-0.13146544992923737,2.907996654510498,-0.941138505935669,-9.896990622480055e-19,1.852712869644165,3.5354530054279785,-1.0309692299870221e-07,0.2045084834098816,-1.3616474310504358,0.0,0.00098931766115129,0.995429277420044,-0.0002401586389169097,-0.08267372846603394,1.270233154296875,0.0,-0.2080114483833313
164.0,224.0,5.8851,-3.8279,6.0562,-0.0932,-0.1089,-0.1468,-1.900257249871725,-0.12142277508974075,2.9114456176757812,-0.941170871257782,-3.206499253337775e-26,1.7849595546722412,3.5355092722126464,-1.873735758564643e-12,0.18962231278419495,-1.3616636435138147,0.0,0.004725240636616945,0.9954654574394226,-0.00021392508642747998,-0.0874447375535965,1.2702254056930542,0.0,-0.2092570662498474
164.0,224.0,5.8851,-3.8279,6.0562,-0.0932,-0.1089,-0.1468,-1.901276250878805,-0.12474041432142258,2.9628939628601074,-0.941166877746582,-1.038864897551786e-33,1.8440742492675781,3.5354530054279785,-3.40542251079752e-17,0.19068090617656708,-1.3616679350482386,0.0,-1.6067642718553543e-05,0.9953935146331787,-0.00016781588783487678,-0.09890636801719666,1.2702254056930542,0.0,-0.20446062088012695
164.0,224.0,5.8851,-3.8279,6.0562,-0.0932,-0.1089,-0.1468,-1.9023877582945765,-0.1424952745437622,2.938279628753662,-0.9410948157310486,-0.00015153012645896524,1.850548505783081,3.535445376033447,-6.18918708245588e-22,0.20517010986804962,-1.3616636435138147,0.0,-0.0012593992287293077,0.9953527450561523,-0.00017523099086247385,-0.09707853198051453,1.27022123336792,0.0,-0.2466675043106079
164.0,224.0,5.8851,-3.8279,6.0562,-0.0932,-0.1089,-0.1468,-1.9036036930479945,-0.1532149761915207,2.9297523498535156,-0.941067099571228,-3.393538960949627e-08,1.872541069984436,3.5354530054279785,-1.124854175161338e-26,0.20243977010250092,-1.3616483847247522,0.0,0.006507653743028641,0.9954013824462891,-0.00015510054072365165,-0.097435362637043,1.2702089548110962,0.0,-0.1991329789161682
164.0,224.0,5.8851,-3.8279,6.0562,-0.0932,-0.1089,-0.1468,-1.904666086236471,-0.14324983954429626,2.924502372741699,-0.9411430358886719,0.001546837855130434,1.89703369140625,3.5354572969624023,-2.0443668777043354e-31,0.19179388880729675,-1.3616555372821253,0.0,0.006759799085557461,0.9954612851142883,-0.00016229876200668514,-0.10453151166439056,1.2701811790466309,0.0,-0.19879385828971863
164.0,224.0,5.8851,-3.8279,6.0562,-0.0932,-0.1089,-0.1468,-1.9058171711363734,-0.11982717365026474,2.975468397140503,-0.9411067962646484,0.0012797267409041524,1.9030011892318726,3.535501165980957,0.00019095739116892219,0.19635272026062012,-1.3616917769061487,0.0,0.0026315469294786453,0.9953815937042236,-0.0001471389550715685,-0.10224692523479462,1.2702254056930542,0.0,-0.22878232598304749
164.0,224.0,5.8851,-3.8279,6.0562,-0.0932,-0.1089,-0.1468,-1.906816144982809,-0.12067446112632751,2.9967708587646484,-0.9411311149597168,-0.000787859782576561,1.8839833736419678,3.5354649263569335,0.0001526513951830566,0.21290044486522675,-1.3616917769061487,0.0,0.003904442535713315,0.9954292178153992,-0.00015378913667518646,-0.10893645882606506,1.2701610326766968,0.0,-0.16044989228248596
158.0,213.0,7.264,-4.1115,5.4867,-0.1242,-0.1657,-0.1411,-1.9079438648619593,-0.14089243113994598,3.0032777786254883,-0.9411466717720032,-0.0017633342649787664,1.8715505599975586,3.5354572969624023,0.00010689685586839914,0.21367114782333374,-1.3616755644427698,0.0,0.0027320394292473793,0.9953976273536682,-0.00014168483903631568,-0.1020122617483139,1.2702454328536987,0.0,-0.15275725722312927
158.0,213.0,7.264,-4.1115,5.4867,-0.1242,-0.1657,-0.1411,-1.9091555080809535,-0.15708696842193604,3.02425479888916,-0.941135048866272,-6.24895328655839e-05,1.9230680465698242,3.5354696947285156,7.16514332452789e-05,0.20783960819244385,-1.3616636435138147,5.219732646111197e-09,0.0009152363054454327,0.9954338669776917,-0.00014111484051682055,-0.10302013903856277,1.2702372074127197,0.0,-0.1656993329524994
158.0,213.0,7.264,-4.1115,5.4867,-0.1242,-0.1657,-0.1411,-1.910332819024557,-0.14729996025562286,2.984879493713379,-0.9410750865936279,0.002475683344528079,1.8560346364974976,3.535456820125244,8.635345875518396e-05,0.20619674026966095,-1.361687485371725,-5.424709797807736e-06,0.0034415223635733128,0.9954296350479126,-0.00012539851013571024,-0.10432746261358261,1.2702012062072754,0.0,-0.20997722446918488
158.0,213.0,7.264,-4.1115,5.4867,-0.1242,-0.1657,-0.1411,-1.9114252529540003,-0.12138889729976654,3.0447144508361816,-0.9410631656646729,0.0021105785854160786,1.89754056930542,3.535489245052002,4.169785097474232e-05,0.20575055480003357,-1.3616555372821253,-9.859142668933174e-11,0.0011923005804419518,0.9954338669776917,-0.00011282195919193327,-0.1090979278087616,1.2702008485794067,0.0,-0.1715303659439087
158.0,213.0,7.264,-4.1115,5.4867,-0.1242,-0.1657,-0.1411,-1.9124685726561488,-0.11358500272035599,3.1374220848083496,-0.9411109089851379,-0.0008468341547995806,1.9104634523391724,3.535461588496826,1.7948741515283473e-05,0.2180616408586502,-1.3616960684405726,-1.7918505543131893e-15,-0.017579684033989906,0.9953649640083313,-0.00012269157741684467,-0.10744182765483856,1.270277500152588,0.0,-0.19238677620887756
158.0,213.0,7.264,-4.1115,5.4867,-0.1242,-0.1657,-0.1411,-1.9135281048216761,-0.12748363614082336,3.0882883071899414,-0.9411352276802063,-0.002936494303867221,1.918137550354004,3.5354410844990234,3.2620953160922284e-10,0.21083199977874756,-1.361704174672262,-3.25660005498104e-20,-0.0014944567810744047,0.9954255223274231,-0.00011276732402620837,-0.11507038027048111,1.2702171802520752,0.0007293438538908958,-0.14239107072353363
158.0,213.0,7.264,-4.1115,5.4867,-0.1242,-0.1657,-0.1411,-1.9145308933653773,-0.14152443408966064,3.101174831390381,-0.9411470293998718,-0.0017626237822696567,1.8770020008087158,3.5354372698017578,5.9286965765068585e-15,0.21120914816856384,-1.361692253743307,-5.918710466156192e-25,-0.019527528434991837,0.9954659342765808,-0.00011914577771676704,-0.11290720105171204,1.2702531814575195,0.001442800392396748,-0.17321810126304626
158.0,213.0,7.264,-4.1115,5.4867,-0.1242,-0.1657,-0.1411,-1.9156185589232386,-0.1472473442554474,3.030254364013672,-0.9411271810531616,-3.2104972547131183e-07,1.8977367877960205,3.535489245052002,-0.00015437726688105613,0.2022329717874527,-1.3616674582110804,-1.0756964226860636e-29,0.005772241856902838,0.9953854084014893,-0.00011272847041254863,-0.11715865135192871,1.2702410221099854,0.0015774391358718276,-0.16472689807415009
158.0,213.0,7.264,-4.1115,5.4867,-0.1242,-0.1657,-0.1411,-1.9166895351805628,-0.1270146667957306,3.08435320854187,-0.9410669207572937,0.0046206144616007805,1.8981096744537354,3.5354811388203125,-7.417128654196858e-05,0.18647736310958862,-1.361687485371725,-1.9550250366912702e-34,-0.011903921142220497,0.9953899383544922,-0.00011972072388743982,-0.12027158588171005,1.270204782485962,0.0008187588537111878,-0.18057915568351746
158.0,213.0,7.264,-4.1115,5.4867,-0.1242,-0.1657,-0.1411,-1.9178081951537074,-0.09739117324352264,3.1322684288024902,-0.9410708546638489,0.001502386061474681,1.925931453704834,3.535461588496826,-1.7052026457520242e-10,0.1980736255645752,-1.3616960684405726,-2.3199617115668806e-40,-0.010350809432566166,0.995344877243042,-0.0001459927298128605,-0.10550065338611603,1.2702893018722534,0.0009601520141586661,-0.1773175299167633
158.0,213.0,7.264,-4.1115,5.4867,-0.1242,-0.1657,-0.1411,-1.9186798534789027,-0.09813046455383301,3.1600499153137207,-0.941114604473114,-0.003269607201218605,1.906618356704712,3.535445376033447,-3.099121818073429e-15,0.20306693017482758,-1.3617356459247034,-4.203895392974451e-45,-0.020003926008939743,0.9953169822692871,-0.00015985681966412812,-0.1266813427209854,1.2703574895858765,0.0044204774312675,-0.17022259533405304
142.0,205.0,8.3414,-4.6164,5.123,-0.1022,-0.0994,-0.1629,-1.9194547138609828,-0.11267615109682083,3.1595206260681152,-0.9411152601242065,-0.0026959022507071495,1.947901725769043,3.5354816156574707,-5.632501558011725e-20,0.201897531747818,-1.3616955916034144,-0.0,-0.03041577711701393,0.9953691959381104,-0.00014521079719997942,-0.12992489337921143,1.2704054117202759,0.00977962464094162,-0.09615789353847504
142.0,205.0,8.3414,-4.6164,5.123,-0.1022,-0.0994,-0.1629,-1.9203344784178675,-0.11662205308675766,3.1801326274871826,-0.9410545825958252,0.0007061026408337057,1.9201629161834717,3.5354415613361816,-1.0236793559411136e-24,0.2150268256664276,-1.361687485371725,-0.0,-0.014676515944302082,0.9954255223274231,-0.00015190269914455712,-0.11391396075487137,1.2705097198486328,0.009831411764025688,-0.12891827523708344
142.0,205.0,8.3414,-4.6164,5.123,-0.1022,-0.0994,-0.1629,-1.9212309322752894,-0.09816756844520569,3.174361228942871,-0.9411272406578064,0.0033208017703145742,1.9314672946929932,3.5354649263569335,-1.8604868448769576e-29,0.19579675793647766,-1.3617036978351038,-6.908989598741755e-05,-0.020179247483611107,0.9953774809837341,-0.00014011737948749214,-0.11543291807174683,1.2705333232879639,0.007123425602912903,-0.1267148107290268
142.0,205.0,8.3414,-4.6164,5.123,-0.1022,-0.0994,-0.1629,-1.9219137630858363,-0.08083614706993103,3.2290306091308594,-0.9410550594329834,0.001953321509063244,1.9758819341659546,3.535536928767822,0.002139997435733676,0.23276978731155396,-1.3617642561541956,-0.00012596233864314854,-0.0230531245470047,0.9953854084014893,-0.0001299976574955508,-0.12090396881103516,1.2705968618392944,0.006176697090268135,-0.10625040531158447
142.0,205.0,8.3414,-4.6164,5.123,-0.1022,-0.0994,-0.1629,-1.9225450954832972,-0.07521279901266098,3.26749324798584,-0.9410750269889832,0.0005385780823417008,1.9945173263549805,3.5355726915546875,0.0014811770524829626,0.22370639443397522,-1.3617232481585901,-0.0007007280364632607,-0.027408577501773834,0.9954419732093811,-0.00012124137720093131,-0.11936777085065842,1.2706689834594727,0.0077645741403102875,-0.03134346008300781
142.0,205.0,8.3414,-4.6164,5.123,-0.1022,-0.0994,-0.1629,-1.9231568775572718,-0.07159147411584854,3.2630786895751953,-0.9411267042160034,-0.00048627116484567523,1.9502081871032715,3.5355049806782226,0.000643205305095762,0.23963633179664612,-1.3617633024798792,-0.0011366306571289897,-0.0429152250289917,0.995337188243866,-0.0001135901766247116,-0.13145186007022858,1.2707571983337402,0.014140485785901546,0.01835736259818077
142.0,205.0,8.3414,-4.6164,5.123,-0.1022,-0.0994,-0.1629,-1.9237119160094203,-0.07026783376932144,3.2295758724212646,-0.9410868883132935,-0.0008013168699108064,1.9541065692901611,3.535541220302246,0.0003272024623584002,0.2298731803894043,-1.3617437521563929,-0.0010508573614060879,-0.053253062069416046,0.9953652024269104,-0.00010684740846045315,-0.11299757659435272,1.2708975076675415,0.017755458131432533,-0.0015654577873647213
142.0,205.0,8.3414,-4.6164,5.123,-0.1022,-0.0994,-0.1629,-1.9241835079588832,-0.0630468875169754,3.265152931213379,-0.9410829544067383,-0.00041935787885449827,1.985534429550171,3.5355569559284667,0.00023987525491975248,0.2275487184524536,-1.361767594014303,-0.0006589053082279861,-0.04580746218562126,0.9953773617744446,-0.00010086035035783425,-0.10393992066383362,1.2710494995117188,0.01870584301650524,0.06932060420513153
142.0,205.0,8.3414,-4.6164,5.123,-0.1022,-0.0994,-0.1629,-1.9246231518187464,-0.05341709405183792,3.2234177589416504,-0.9410710334777832,-0.0003052273823413998,2.01267671585083,3.5355488496967773,5.506468369276263e-05,0.22642958164215088,-1.361823860798971,-0.0005796639597974718,-0.04239322617650032,0.9953693747520447,-9.550854883855209e-05,-0.10993906855583191,1.2711851596832275,0.017393093556165695,0.07635615766048431
142.0,205.0,8.3414,-4.6164,5.123,-0.1022,-0.0994,-0.1629,-1.9250146351256312,-0.045438095927238464,3.276034116744995,-0.9410631656646729,-0.00019206444267183542,1.9862782955169678,3.5355731683918457,0.0001311258674832061,0.235946387052536,-1.3617714087115687,-0.0005429666489362717,-0.05829492211341858,0.9953972697257996,-9.069621592061594e-05,-0.11416928470134735,1.2713333368301392,0.01728331297636032,0.04995468258857727
142.0,205.0,8.3414,-4.6164,5.123,-0.1022,-0.0994,-0.1629,-1.92535462001943,-0.04053721949458122,3.307065963745117,-0.9410868883132935,-0.00015828282630536705,2.0420265197753906,3.5355450349995117,0.00035986935836263,0.24468228220939636,-1.3617633024798792,-0.0010294440435245633,-0.04821997880935669,0.9954295754432678,-8.634553523734212e-05,-0.09486101567745209,1.271485447883606,0.02198423445224762,0.10270196944475174
134.0,203.0,6.2979,-3.2626,6.1214,-0.0061,-0.0044,-0.1138,-1.925650259057516,-0.034267131239175797,3.3401081562042236,-0.9410671591758728,-0.00013460834452416748,1.9742754697799683,3.535536928767822,0.0002921374689321965,0.23371681571006775,-1.3617833296405237,-0.001885653706267476,-0.060282617807388306,0.9954018592834473,-8.239316957769915e-05,-0.11351954936981201,1.2717015743255615,0.02491922490298748,0.14417734742164612
134.0,203.0,6.2979,-3.2626,6.1214,-0.0061,-0.0044,-0.1138,-1.9258576832213343,-0.028213733807206154,3.34232759475708,-0.9410750865936279,-0.00011709433601936325,1.9951117038726807,3.535613699550293,0.0002318928309250623,0.2456643283367157,-1.3618276754962366,-0.002905764151364565,-0.07637147605419159,0.9954260587692261,-1.0260770068271086e-05,-0.1096196100115776,1.2718852758407593,0.030255183577537537,0.15070101618766785
134.0,203.0,6.2979,-3.2626,6.1214,-0.0061,-0.0044,-0.1138,-1.9260698757567347,-0.021506192162632942,3.341825008392334,-0.9410545825958252,-0.00010361341992393136,2.0179603099823,3.53556935369458,0.00019225334108341485,0.2408934086561203,-1.3618033568011683,-0.0032446407712996006,-0.0760258287191391,0.9954178929328918,-1.864844251242559e-10,-0.11542853713035583,1.272141456604004,0.03105218894779682,0.1340818703174591
134.0,203.0,6.2979,-3.2626,6.1214,-0.0061,-0.0044,-0.1138,-1.9262052975096644,-0.01662398874759674,3.35090970993042,-0.9410586357116699,-9.291625610785559e-05,1.9424667358398438,3.5355850893208007,0.0001641895214561373,0.24954217672348022,-1.361831013356344,-0.0017908377340063453,-0.07722141593694687,0.9953815937042236,-3.389262366243549e-15,-0.10833991318941116,1.2723572254180908,0.029463088139891624,0.1242019534111023
134.0,203.0,6.2979,-3.2626,6.1214,-0.0061,-0.0044,-0.1138,-1.9263493023314417,-0.012815263122320175,3.395089626312256,-0.9410545825958252,-2.2333017113851383e-05,1.946977138519287,3.535568876857422,0.00013885495718568563,0.23382630944252014,-1.3618271986590784,-0.0007516439072787762,-0.06351218372583389,0.9953813552856445,-4.0219201592947454e-21,-0.10869097709655762,1.272681474685669,0.0285871010273695,0.10650695860385895
134.0,203.0,6.2979,-3.2626,6.1214,-0.0061,-0.0044,-0.1138,-1.9264499149718226,-0.012621592730283737,3.293437957763672,-0.9410586357116699,-2.0307059457991272e-05,1.977726936340332,3.535536928767822,0.00012359827815089375,0.2213151901960373,-1.3618758360492151,-0.0005812130984850228,-0.07026691734790802,0.995361328125,-7.309640614560294e-26,-0.11169569939374924,1.2729575634002686,0.030076466500759125,0.15889695286750793
134.0,203.0,6.2979,-3.2626,6.1214,-0.0061,-0.0044,-0.1138,-1.9265490971007289,-0.010964511893689632,3.3127522468566895,-0.9410868883132935,-1.862600947788451e-05,1.9731879234313965,3.5355207163044433,0.00011136255488963798,0.2114308476448059,-1.3618429342852991,-0.00043927502701990306,-0.061148107051849365,0.9953573346138,-1.3284911471919806e-30,-0.10596037656068802,1.2732053995132446,0.034210290759801865,0.17550432682037354
134.0,203.0,6.2979,-3.2626,6.1214,-0.0061,-0.0044,-0.1138,-1.9265934429564417,-0.009546440094709396,3.3229970932006836,-0.9409957528114319,-1.1011257461390755e-09,1.971587896347046,3.535565062160156,0.00010133141768164933,0.2327909618616104,-1.3618353048907679,-0.00035308333463035524,-0.05458289384841919,0.9953649044036865,-2.4144665445326805e-35,-0.10005073994398117,1.2734934091567993,0.03843531385064125,0.15732915699481964
134.0,203.0,6.2979,-3.2626,6.1214,-0.0061,-0.0044,-0.1138,-1.926629205743307,-0.007744216825813055,3.3006954193115234,-0.9411185383796692,-3.5675072283383055e-17,1.9751156568527222,3.535504027003906,9.295814379584044e-05,0.21787382662296295,-1.3617990652667444,-0.00019821683235932142,-0.06471071392297745,0.9953608512878418,-4.388180154017808e-40,-0.11277812719345093,1.273809790611267,0.045187968760728836,0.16903969645500183
134.0,203.0,6.2979,-3.2626,6.1214,-0.0061,-0.0044,-0.1138,-1.9267531834044398,-0.005789349786937237,3.2747793197631836,-0.9410511255264282,-1.1558269682010219e-24,1.9898524284362793,3.5355889040180664,8.586324838688597e-05,0.22825412452220917,-1.3617828528033655,-0.00016850841348059475,-0.058230482041835785,0.9953812956809998,-8.407790785948902e-45,-0.11354281008243561,1.2742180824279785,0.05244229733943939,0.12645725905895233
134.0,203.0,6.2979,-3.2626,6.1214,-0.0061,-0.0044,-0.1138,-1.9267450771727503,-0.004767996724694967,3.2469184398651123,-0.9411027431488037,-3.744732974353809e-32,1.9502941370010376,3.535597010249756,7.97744796727784e-05,0.20566388964653015,-1.361819092427389,-0.0001177566809928976,-0.06470722705125809,0.9953858256340027,-0.0,-0.11358484625816345,1.2746295928955078,0.061796341091394424,0.14383482933044434
128.0,206.0,6.1424,-4.3872,5.4317,-0.0272,0.0145,-0.0843,-1.9268537960448207,-0.005292206536978483,3.2433409690856934,-0.9410353899002075,-1.213245611710891e-39,1.9107955694198608,3.5355726915546875,7.449217810062692e-05,0.2190667986869812,-1.3618477026568812,-8.451948087895289e-05,-0.04392235726118088,0.9954100251197815,-0.0,-0.09646394848823547,1.2751414775848389,0.06701000034809113,0.11038327217102051
128.0,206.0,6.1424,-4.3872,5.4317,-0.0272,0.0145,-0.0843,-1.9268089733519496,-0.006176377180963755,3.271153450012207,-0.941114604473114,-0.0,1.9342689514160156,3.5356051164814453,6.986594235058874e-05,0.22349369525909424,-1.3617990652667444,-6.975623546168208e-05,-0.03953193128108978,0.9953858256340027,-0.0,-0.11354229599237442,1.2757055759429932,0.07246443629264832,0.10069498419761658
128.0,206.0,6.1424,-4.3872,5.4317,-0.0272,0.0145,-0.0843,-1.9269496403136195,-0.006250207312405109,3.2985124588012695,-0.9410908818244934,-0.0,1.9346036911010742,3.5356013017841796,7.893599104136229e-05,0.22725677490234375,-1.3617952505694788,5.916530062677339e-05,-0.027174660935997963,0.9954054355621338,-0.0,-0.10504432022571564,1.2762975692749023,0.07325749099254608,0.052283987402915955
128.0,206.0,6.1424,-4.3872,5.4317,-0.0272,0.0145,-0.0843,-1.9269615612425746,-0.006091292481869459,3.292759418487549,-0.9410988092422485,-0.0,1.962341547012329,3.535576506251953,8.695120777701959e-05,0.2166079878807068,-1.3618353048907679,9.955441055353731e-05,-0.035634927451610565,0.9953972697257996,-0.0,-0.08435876667499542,1.2769216299057007,0.07565256953239441,0.03262031823396683
128.0,206.0,6.1424,-4.3872,5.4317,-0.0272,0.0145,-0.0843,-1.926976820031637,-0.005510429851710796,3.323612689971924,-0.9411027431488037,-0.0,2.0104570388793945,3.5356055933186035,7.197978266049176e-05,0.22513744235038757,-1.361779514943258,8.677287405589595e-05,-0.03662978857755661,0.9953733682632446,-0.0,-0.10136517882347107,1.2775743007659912,0.0744580626487732,-0.004253611899912357
128.0,206.0,6.1424,-4.3872,5.4317,-0.0272,0.0145,-0.0843,-1.9270287952818812,-0.005775352008640766,3.3685684204101562,-0.9410750269889832,-0.0,1.9395644664764404,3.5356051164814453,9.015541581902653e-05,0.22291868925094604,-1.3618395964251917,0.00010245789599139243,-0.03246024623513222,0.9954018592834473,-0.0,-0.11039934307336807,1.2781333923339844,0.06842949986457825,0.039014242589473724
128.0,206.0,6.1424,-4.3872,5.4317,-0.0272,0.0145,-0.0843,-1.9271093807616175,-0.006845251657068729,3.33174467086792,-0.9411343932151794,-0.0,1.9490711688995361,3.535665674800537,0.000599201419390738,0.22563284635543823,-1.361767594014303,9.20329985092394e-05,-0.02700914815068245,0.9953815937042236,-0.0,-0.11310217529535294,1.2786619663238525,0.061509836465120316,-0.037414103746414185
128.0,206.0,6.1424,-4.3872,5.4317,-0.0272,0.0145,-0.0843,-1.9271728001036585,-0.007944349199533463,3.3482468128204346,-0.9410313367843628,-0.0,1.9424314498901367,3.535689516658447,0.0010475025046616793,0.22730392217636108,-1.3618157545672815,8.349430572707206e-05,-0.02227071300148964,0.9953649640083313,-1.2433724272398194e-08,-0.1244017630815506,1.2791861295700073,0.061395153403282166,-0.03780275210738182
128.0,206.0,6.1424,-4.3872,5.4317,-0.0272,0.0145,-0.0843,-1.927209039727682,-0.007256554905325174,3.2979393005371094,-0.9410710334777832,-0.0,1.9455487728118896,3.5356809335895996,0.0024204570800065994,0.2316446602344513,-1.3618276754962366,9.556156874168664e-05,-0.020884061232209206,0.9953814744949341,-2.2597678936420174e-13,-0.11486463248729706,1.2796131372451782,0.06618591398000717,-0.028826387599110603
128.0,206.0,6.1424,-4.3872,5.4317,-0.0272,0.0145,-0.0843,-1.927277227441305,-0.007837625220417976,3.3315176963806152,-0.9410789012908936,-0.0,1.9554067850112915,3.53578965246167,0.003632394364103675,0.2305998057126999,-1.3617876211749476,0.0001883909135358408,-0.025701185688376427,0.9953453540802002,-4.107016675003868e-18,-0.12661613523960114,1.280165433883667,0.06949587911367416,-0.040462687611579895
128.0,206.0,6.1424,-4.3872,5.4317,-0.0272,0.0145,-0.0843,-1.927312513391012,-0.008694211021065712,3.3239831924438477,-0.9410274624824524,-0.0,1.9481221437454224,3.535824938411377,0.011504881083965302,0.23067572712898254,-1.3617876211749476,0.00035428296541795135,-0.026319250464439392,0.9953133463859558,-0.0003361521230544895,-0.12314046174287796,1.280857801437378,0.06429092586040497,-0.03966798633337021
132.0,213.0,6.4193,-4.1952,5.2038,-0.0646,0.0299,-0.0431,-1.927436967889303,-0.010039974004030228,3.3024299144744873,-0.94105464220047,-0.0,1.948612928390503,3.5358850198933105,0.010056772269308567,0.22015085816383362,-1.3618038336383265,0.00045473864884115756,-0.023398596793413162,0.9953412413597107,-0.0003197926271241158,-0.11980317533016205,1.2813011407852173,0.056290239095687866,-0.0876193568110466
132.0,213.0,6.4193,-4.1952,5.2038,-0.0646,0.0299,-0.0431,-1.9275571308531703,-0.01288606133311987,3.2808103561401367,-0.941047191619873,-0.0,1.96828293800354,3.535977526302002,0.002991039538756013,0.20993667840957642,-1.361767594014303,0.0003741952241398394,-0.01740042306482792,0.9954063296318054,-0.000489975675009191,-0.14495767652988434,1.2816810607910156,0.05146198347210884,-0.14341264963150024
132.0,213.0,6.4193,-4.1952,5.2038,-0.0646,0.0299,-0.0431,-1.9276405773558558,-0.015318738296627998,3.29280424118042,-0.9410744309425354,-0.0,1.9304335117340088,3.535932703609131,0.0003657012712210417,0.2238236963748932,-1.361783806477682,0.00030233804136514664,-0.014919675886631012,0.9953494071960449,-0.0008642013999633491,-0.13071611523628235,1.282173991203308,0.05007346346974373,-0.14064501225948334
132.0,213.0,6.4193,-4.1952,5.2038,-0.0646,0.0299,-0.0431,-1.9277240238585414,-0.017447298392653465,3.2591490745544434,-0.9410029649734497,-0.0,1.9118118286132812,3.535977526302002,0.0002006836439250037,0.2146804928779602,-1.3617551962481897,0.0002548525808379054,-0.026463231071829796,0.9953014254570007,-0.002783172996714711,-0.1294678896665573,1.282521367073059,0.05040083825588226,-0.0892646312713623
132.0,213.0,6.4193,-4.1952,5.2038,-0.0646,0.0299,-0.0431,-1.9278646908202113,-0.017964035272598267,3.2273221015930176,-0.9410511255264282,-0.0,1.9068236351013184,3.535956545467041,0.00013873472926206887,0.21406227350234985,-1.3617757002459925,0.0002496500383131206,-0.02181015908718109,0.9952336549758911,-0.012487000785768032,-0.14098873734474182,1.2828969955444336,0.045412447303533554,-0.13201695680618286
132.0,213.0,6.4193,-4.1952,5.2038,-0.0646,0.0299,-0.0431,-1.9280163250365199,-0.01949014700949192,3.254734516143799,-0.9410789608955383,-0.0,1.8993489742279053,3.535989447230957,0.00010602666588965803,0.21602319180965424,-1.3617714087115687,0.00021924648899585009,-0.0172886960208416,0.9951507449150085,-0.01796950213611126,-0.1546623706817627,1.283273458480835,0.03833802416920662,-0.12962552905082703
132.0,213.0,6.4193,-4.1952,5.2038,-0.0646,0.0299,-0.0431,-1.9281965694823207,-0.022016877308487892,3.2401022911071777,-0.9410545825958252,-0.0,1.886035680770874,3.535956545467041,8.580269059166312e-05,0.20109406113624573,-1.3617757002459925,0.00019543946837075055,-0.024300629273056984,0.9949584007263184,-0.013287805952131748,-0.1488576978445053,1.2835415601730347,0.031702764332294464,-0.19391673803329468
132.0,213.0,6.4193,-4.1952,5.2038,-0.0646,0.0299,-0.0431,-1.9283925495543421,-0.026343554258346558,3.249460220336914,-0.9410750865936279,-0.0,1.8938398361206055,3.535973234767578,7.205962901934981e-05,0.19691799581050873,-1.3617146650897425,0.00017629614740144461,-0.008989105001091957,0.9949193596839905,-0.006554632913321257,-0.14606580138206482,1.2837929725646973,0.02923196367919445,-0.17301338911056519
132.0,213.0,6.4193,-4.1952,5.2038,-0.0646,0.0299,-0.0431,-1.9286085567870082,-0.031003456562757492,3.146562099456787,-0.9410868287086487,-0.0,1.9235903024673462,3.535940333003662,6.211191066540778e-05,0.19496504962444305,-1.3617833296405237,0.00015931804955471307,-0.027289018034934998,0.9948675632476807,-0.0024180524051189423,-0.1518993377685547,1.2840656042099,0.027771029621362686,-0.20753541588783264
132.0,213.0,6.4193,-4.1952,5.2038,-0.0646,0.0299,-0.0431,-1.9288560352721156,-0.03391940891742706,3.178488254547119,-0.9410664439201355,-0.0,1.8812453746795654,3.5359689432331542,8.18658882053569e-05,0.19855913519859314,-1.3617919127093714,0.00014741810446139425,-0.03209136426448822,0.9949156045913696,-0.0010656180093064904,-0.15777163207530975,1.2842532396316528,0.026399366557598114,-0.1511843502521515
132.0,213.0,6.4193,-4.1952,5.2038,-0.0646,0.0299,-0.0431,-1.9290839634337367,-0.03285492956638336,3.131680965423584,-0.9410393238067627,-0.0,1.8577523231506348,3.536041422481201,7.301109144464135e-05,0.19409233331680298,-1.3617437521563929,0.000136258386191912,-0.015915099531412125,0.9948354363441467,-0.0013469578698277473,-0.16003446280956268,1.2844332456588745,0.023001769557595253,-0.14029833674430847
132.0,213.0,6.4193,-4.1952,5.2038,-0.0646,0.0299,-0.0431,-1.9293672047057093,-0.034836843609809875,3.1407365798950195,-0.9410233497619629,-0.0,1.887485384941101,3.5360209184833984,8.783913654042408e-05,0.1831563115119934,-1.3617799917804163,0.0001266694744117558,-0.024666910991072655,0.9948437213897705,-0.0024419338442385197,-0.1539621204137802,1.2845847606658936,0.017753632739186287,-0.18964165449142456
128.0,212.0,6.0616,-3.6395,6.0425,-0.0854,-0.0006,-0.1168,-1.929655214349264,-0.0382605716586113,3.1121602058410645,-0.9410586357116699,2.9842489311704412e-05,1.8542560338974,3.5360333162495117,8.003367838682607e-05,0.1916920244693756,-1.3617590109454554,8.656398131279275e-05,-0.010111449286341667,0.9948115348815918,-0.0032950416207313538,-0.16113987565040588,1.2847168445587158,0.012967846356332302,-0.21321816742420197
128.0,212.0,6.0616,-3.6395,6.0425,-0.0854,-0.0006,-0.1168,-1.930002828637594,-0.04368286952376366,3.0601625442504883,-0.9410551190376282,2.798898822220508e-05,1.8849507570266724,3.53597275793042,7.349755469476804e-05,0.19044271111488342,-1.3617799917804163,8.014048944460228e-05,-0.01061897724866867,0.9948197603225708,-0.00413205660879612,-0.16044652462005615,1.2847927808761597,0.01043629739433527,-0.16788406670093536
128.0,212.0,6.0616,-3.6395,6.0425,-0.0854,-0.0006,-0.1168,-1.9303432903685511,-0.045478951185941696,3.063957929611206,-0.9410274624824524,3.952270344598219e-05,1.8302900791168213,3.5359808641621093,6.794845103286207e-05,0.1739683747291565,-1.361795727406637,7.481114153051749e-05,-0.016119781881570816,0.9946920275688171,-0.005315198563039303,-0.1834608018398285,1.284913182258606,0.008823402225971222,-0.2421225756406784
128.0,212.0,6.0616,-3.6395,6.0425,-0.0854,-0.0006,-0.1168,-1.9307190380492152,-0.043048564344644547,3.0473642349243164,-0.9410108327865601,3.733879930223338e-05,1.7911250591278076,3.536041422481201,4.92423860123381e-05,0.17281076312065125,-1.3617714087115687,7.014646689640358e-05,-0.005057134665548801,0.9946801066398621,-0.005878569558262825,-0.18444296717643738,1.2850052118301392,0.008823977783322334,-0.24543260037899017
128.0,212.0,6.0616,-3.6395,6.0425,-0.0854,-0.0006,-0.1168,-1.9311381779112757,-0.0430975966155529,3.086190700531006,-0.9410704970359802,-3.818109325948171e-05,1.8373608589172363,3.5360776621052246,0.0005775520694442093,0.18243077397346497,-1.3617714087115687,6.507452053483576e-05,-0.00853727851063013,0.9945961833000183,-0.006350868847221136,-0.17824286222457886,1.2850768566131592,0.009694220498204231,-0.19019843637943268
128.0,212.0,6.0616,-3.6395,6.0425,-0.0854,-0.0006,-0.1168,-1.9315463505186976,-0.047074612230062485,3.079169273376465,-0.941031277179718,-3.953733539674431e-05,1.842963695526123,3.5360733705708007,0.0012723493855446577,0.19188721477985382,-1.3617799917804163,6.151617708383128e-05,-0.0068576582707464695,0.9945770502090454,-0.0057434262707829475,-0.17078754305839539,1.2851287126541138,0.008622344583272934,-0.22403204441070557
128.0,212.0,6.0616,-3.6395,6.0425,-0.0854,-0.0006,-0.1168,-1.9319821796812953,-0.05496014654636383,3.0860962867736816,-0.9410591125488281,-3.362795177963562e-05,1.8393115997314453,3.5360771852680664,0.0011616245610639453,0.18540991842746735,-1.3617551962481897,5.8326822909293696e-05,-0.0044225240126252174,0.9945774078369141,-0.005348486360162497,-0.18223679065704346,1.2851929664611816,0.007397003471851349,-0.22733470797538757
128.0,212.0,6.0616,-3.6395,6.0425,-0.0854,-0.0006,-0.1168,-1.9323860607542933,-0.0638640746474266,3.0593032836914062,-0.9410313367843628,-3.444592266532709e-06,1.7925903797149658,3.536024256343506,0.0010284478776156902,0.16565975546836853,-1.3617876211749476,5.545184831134975e-05,-0.00379226915538311,0.9944970607757568,-0.005183815956115723,-0.18794170022010803,1.285228967666626,0.005704318173229694,-0.2604985535144806
128.0,212.0,6.0616,-3.6395,6.0425,-0.0854,-0.0006,-0.1168,-1.9329415760436,-0.0699005052447319,3.058718204498291,-0.9410471320152283,-1.116004058371485e-13,1.847212553024292,3.5361453729816894,0.002993815578520298,0.1866561472415924,-1.3617714087115687,5.2847040933556855e-05,-0.012898079119622707,0.994460940361023,-0.006193057633936405,-0.18615812063217163,1.2853009700775146,0.004338686354458332,-0.24661150574684143
128.0,212.0,6.0616,-3.6395,6.0425,-0.0854,-0.0006,-0.1168,-1.9334446392455042,-0.07601712644100189,3.039602279663086,-0.9410191178321838,0.0015572193078696728,1.8139450550079346,3.5361692148395996,0.004916371777653694,0.17938101291656494,-1.3618195692645472,5.047593731433153e-05,-0.006828619167208672,0.9944209456443787,-0.007235522381961346,-0.1919868290424347,1.285353422164917,0.003053300781175494,-0.2549362778663635
128.0,212.0,6.0616,-3.6395,6.0425,-0.0854,-0.0006,-0.1168,-1.9341207943358363,-0.08104321360588074,3.088773250579834,-0.940950870513916,0.002005105372518301,1.8400073051452637,3.5362130838581542,0.005021365359425545,0.17695429921150208,-1.3617876211749476,2.7409964076241522e-08,0.0012294808402657509,0.9943215250968933,-0.009085660800337791,-0.20764578878879547,1.2853329181671143,0.0013811090029776096,-0.219411700963974
