ramyac6/ROB537/final_project/csv/all/good_209.csv
tof_0,tof_1,accelx,accely,accelz,gyrox,gyroy,gyroz,shoulder_lift_joint_position,shoulder_lift_joint_velocity,shoulder_lift_joint_effort,elbow_joint_position,elbow_joint_velocity,elbow_joint_effort,wrist_1_joint_position,wrist_1_joint_velocity,wrist_1_joint_effort,wrist_2_joint_position,wrist_2_joint_velocity,wrist_2_joint_effort,wrist_3_joint_position,wrist_3_joint_velocity,wrist_3_joint_effort,shoulder_pan_joint_position,shoulder_pan_joint_velocity,shoulder_pan_joint_effort
185.0,254.0,6.2566,-3.588,5.7781,-0.0411,0.0162,-0.1306,-1.7927433453001917,0.0,3.0437774658203125,-1.0347888469696045,-0.0,2.0994887351989746,3.5112969118305664,-0.0,0.25536713004112244,-1.4583271185504358,-2.294002982616507e-36,-0.017416300252079964,1.0784521102905273,0.0,-0.0035294056870043278,1.1334561109542847,0.0,-0.025876225903630257
185.0,254.0,6.2566,-3.588,5.7781,-0.0411,0.0162,-0.1306,-1.7927471599974574,0.0,3.04282808303833,-1.0347691774368286,-0.0,2.070692777633667,3.511316938991211,-0.0,0.2638574242591858,-1.4583471457110804,-6.3854368422353264e-40,-0.0183614119887352,1.0784070491790771,0.0,-0.005677780602127314,1.13340425491333,0.0,-0.014886870048940182
185.0,254.0,6.2566,-3.588,5.7781,-0.0411,0.0162,-0.1306,-1.792795797387594,0.0,3.040771961212158,-1.0347445011138916,-0.0,2.0499749183654785,3.511300726527832,-0.0,0.25511690974235535,-1.4583271185504358,-1.1210387714598537e-44,-0.010864068754017353,1.078447937965393,0.0,-0.0006506466306746006,1.1334363222122192,0.0,0.04395923763513565
185.0,254.0,6.2566,-3.588,5.7781,-0.0411,0.0162,-0.1306,-1.7927833996214808,0.0,3.0715813636779785,-1.034780502319336,-0.0,2.0874955654144287,3.5113569933125,-0.0,0.2556716501712799,-1.4583151976214808,-0.0,-0.009928815066814423,1.0784027576446533,0.0,-0.0030216467566788197,1.1334363222122192,0.0,0.03117482364177704
185.0,254.0,6.2566,-3.588,5.7781,-0.0411,0.0162,-0.1306,-1.7928277454771937,0.0,2.988509178161621,-1.034752607345581,-0.0,2.0297932624816895,3.511328859920166,-0.0,0.2581748068332672,-1.4583271185504358,-0.0,-0.011429615318775177,1.078439712524414,0.0,-0.004996107891201973,1.1333962678909302,0.0,-0.04401038587093353
185.0,254.0,6.2566,-3.588,5.7781,-0.0411,0.0162,-0.1306,-1.7927714786925257,0.0,3.041133165359497,-1.0347166061401367,-0.0,2.077223539352417,3.5113207536884765,-0.0,0.25690150260925293,-1.458322827016012,-0.0,-0.012179925106465816,1.0783867835998535,0.0,-0.0020549949258565903,1.1334164142608643,0.0,0.029576005414128304
185.0,254.0,6.2566,-3.588,5.7781,-0.0411,0.0162,-0.1306,-1.7927996120848597,0.0,2.9626808166503906,-1.0347445011138916,-0.0,2.07513427734375,3.5113093095966796,-0.0,0.27124395966529846,-1.458322827016012,-0.0,-0.015740659087896347,1.0784027576446533,0.0,-0.006333386991173029,1.1334601640701294,0.0,-0.0034039905294775963
192.0,249.0,6.1573,-3.4744,5.8816,-0.0221,0.0333,-0.126,-1.7927552662291468,0.0,3.0271854400634766,-1.0347609519958496,-0.0,2.075791597366333,3.5112849909016113,-0.0,0.26177024841308594,-1.4582794348346155,-0.0,-0.005484961438924074,1.0784354209899902,0.0,0.0022396589629352093,1.1334481239318848,0.0,-0.007745693437755108
192.0,249.0,6.1573,-3.4744,5.8816,-0.0221,0.0333,-0.126,-1.7928034267821253,0.0,3.0186939239501953,-1.0347445011138916,-0.0,2.080580234527588,3.5112930971333007,-0.0,0.2597734034061432,-1.458327595387594,-0.0,-0.02069779857993126,1.078460454940796,0.0,-5.254289135336876e-06,1.1334482431411743,0.0,-0.04622931778430939
192.0,249.0,6.1573,-3.4744,5.8816,-0.0221,0.0333,-0.126,-1.7927915058531703,0.0,3.0281550884246826,-1.0348085165023804,-0.0,2.0982413291931152,3.5113045412250976,-0.0,0.25828057527542114,-1.4582789579974573,-0.0,-0.011182825081050396,1.0784603357315063,0.0,-0.002600566716864705,1.1334443092346191,0.0,0.011560057289898396
192.0,249.0,6.1573,-3.4744,5.8816,-0.0221,0.0333,-0.126,-1.7927915058531703,0.0,2.995237350463867,-1.0347970724105835,-0.0,2.0816452503204346,3.511276884669922,-0.0,0.2667348384857178,-1.4582751433001917,-4.5512407731429505e-10,-0.017673373222351074,1.0784597396850586,0.0,-0.008711963891983032,1.1334600448608398,0.0,0.03693743422627449
192.0,249.0,6.1573,-3.4744,5.8816,-0.0221,0.0333,-0.126,-1.792739053765768,0.0,3.0228309631347656,-1.0347641706466675,-0.0,2.0745160579681396,3.511316938991211,-0.0,0.2637608051300049,-1.4582832495318812,-8.271655353665665e-15,-0.017262931913137436,1.0783987045288086,0.0,-0.003204129170626402,1.13340425491333,0.0,0.023315828293561935
192.0,249.0,6.1573,-3.4744,5.8816,-0.0221,0.0333,-0.126,-1.7927514515318812,0.0,3.0055365562438965,-1.0347568988800049,-0.0,2.0776479244232178,3.511316938991211,-0.0,0.25594133138656616,-1.4582989851581019,-2.302446068103083e-18,-0.012239405885338783,1.078423023223877,0.0,-0.011130988597869873,1.1334561109542847,0.0,0.059575751423835754
192.0,249.0,6.1573,-3.4744,5.8816,-0.0221,0.0333,-0.126,-1.7927633724608363,0.0,3.0324130058288574,-1.0347322225570679,-0.0,2.0681920051574707,3.5113369661518554,-0.0,0.2497754842042923,-1.4582832495318812,-4.1845820915045166e-23,-0.016176827251911163,1.0784436464309692,0.0,-0.017534179612994194,1.1334363222122192,0.0,-0.04903619363903999
192.0,249.0,6.1573,-3.4744,5.8816,-0.0221,0.0333,-0.126,-1.7927428684630335,0.0,3.0097365379333496,-1.0347683429718018,-0.0,2.062319040298462,3.5112849909016113,-0.0,0.2653782367706299,-1.4582956472979944,-7.605270090651757e-28,-0.0006918377475813031,1.0784153938293457,0.0,-0.004554713144898415,1.1334244012832642,0.0,0.03460012748837471
192.0,249.0,6.1573,-3.4744,5.8816,-0.0221,0.0333,-0.126,-1.7928077183165492,0.0,3.0389342308044434,-1.0347568988800049,-0.0,2.09719181060791,3.5112969118305664,-0.0,0.25677502155303955,-1.4583471457110804,-2.116955299559703e-31,-0.020064767450094223,1.0784070491790771,0.0,0.0011050432221964002,1.1334244012832642,0.0,0.005774030461907387
192.0,249.0,6.1573,-3.4744,5.8816,-0.0221,0.0333,-0.126,-1.7928277454771937,0.0,3.0503382682800293,-1.0347930192947388,-0.0,2.07889461517334,3.5113326746174316,-5.872805353135391e-09,0.2595337927341461,-1.458339039479391,-3.8474621021029096e-36,-0.006127177271991968,1.0784437656402588,0.0,-0.024959854781627655,1.1334002017974854,0.0,-0.044471561908721924
192.0,249.0,6.1573,-3.4744,5.8816,-0.0221,0.0333,-0.126,-1.792722841302389,0.0,3.039790153503418,-1.0347005128860474,-0.0,2.0720903873443604,3.5112849909016113,-1.0673531963866292e-13,0.25156155228614807,-1.4582789579974573,-6.99261946682727e-41,-0.009152655489742756,1.0783910751342773,1.8007304536382662e-09,-0.009206553921103477,1.1334283351898193,0.0,-0.007595755159854889
192.0,249.0,6.1573,-3.4744,5.8816,-0.0221,0.0333,-0.126,-1.792710920373434,0.0,3.055201530456543,-1.0347362756729126,-0.0,2.075629711151123,3.5112601953693847,-2.9710173624589666e-17,0.2611862123012543,-1.4582870642291468,-1.961817850054744e-44,-0.02115987055003643,1.0784071683883667,5.012399458166616e-13,-0.013750876300036907,1.1334482431411743,0.0,0.008371395990252495
184.0,261.0,6.1992,-3.5527,5.8122,-0.0447,0.0214,-0.1203,-1.7927833996214808,0.0,3.064847469329834,-1.0347847938537598,-0.0,2.1045751571655273,3.5113412576862792,-5.399676913155435e-22,0.261489599943161,-1.4583552519427698,-0.0,-0.015090091153979301,1.078439712524414,9.109788889702634e-18,-0.0048918575048446655,1.1334441900253296,0.0,0.002511434257030487
184.0,261.0,6.1992,-3.5527,5.8122,-0.0447,0.0214,-0.1203,-1.792767187158102,0.0,3.00705885887146,-1.0347970724105835,-0.0,2.1023731231689453,3.5112930971333007,-9.813643824359203e-27,0.2585834562778473,-1.45829946199526,-0.0,-0.01148190163075924,1.0783867835998535,1.6556591221761974e-22,-0.01250502560287714,1.1334441900253296,0.0,0.04452630132436752
184.0,261.0,6.1992,-3.5527,5.8122,-0.0447,0.0214,-0.1203,-1.792767187158102,0.0,3.0073609352111816,-1.0348085165023804,-0.0,2.0789105892181396,3.5113650995441894,-2.7316634253222104e-30,0.2542259991168976,-1.4583070913897913,-0.0,-0.020185764878988266,1.0784918069839478,4.608588270654536e-26,-0.008587456308305264,1.1334363222122192,0.0,-0.01101701520383358
184.0,261.0,6.1992,-3.5527,5.8122,-0.0447,0.0214,-0.1203,-1.7927552662291468,0.0,3.019524574279785,-1.0347970724105835,-0.0,2.073739767074585,3.5112969118305664,-4.964663082527617e-35,0.26460397243499756,-1.4583352247821253,-0.0,-0.013532714918255806,1.0784236192703247,8.375881553281337e-31,-0.00702627282589674,1.1334561109542847,0.0,-0.031724072992801666
184.0,261.0,6.1992,-3.5527,5.8122,-0.0447,0.0214,-0.1203,-1.7927752933897914,0.0,3.0610756874084473,-1.0348002910614014,-0.0,2.102424144744873,3.51133315145459,-9.023030876710713e-40,0.24877706170082092,-1.4583147207843226,-0.0,-0.0074042268097400665,1.0784236192703247,1.5222752288222546e-35,-0.009383400902152061,1.1334441900253296,0.0,-0.02844969369471073
184.0,261.0,6.1992,-3.5527,5.8122,-0.0447,0.0214,-0.1203,-1.7927752933897914,0.0,3.032987117767334,-1.0347528457641602,-0.0,2.072016716003418,3.5113250452229003,-2.5083242511414226e-43,0.25759127736091614,-1.4583314100848597,-0.0,-0.011458110064268112,1.0784111022949219,4.2373093548562765e-39,-5.7255150750279427e-05,1.1334961652755737,0.0,-0.005281366873532534
184.0,261.0,6.1992,-3.5527,5.8122,-0.0447,0.0214,-0.1203,-1.7927714786925257,0.0,3.016118049621582,-1.0347322225570679,-0.0,2.118133068084717,3.5112930971333007,-0.0,0.27009931206703186,-1.4582670370685022,-0.0,-0.015738172456622124,1.0783625841140747,7.707141553786494e-44,-0.014728160575032234,1.1334799528121948,0.0,-0.009928599931299686
184.0,261.0,6.1992,-3.5527,5.8122,-0.0447,0.0214,-0.1203,-1.7927552662291468,0.0,3.024026870727539,-1.0347970724105835,-0.0,2.0901570320129395,3.511328859920166,-0.0,0.2584992051124573,-1.4583352247821253,-0.0,-0.01282569207251072,1.0783945322036743,0.0,-0.004608937539160252,1.1334680318832397,0.0,0.00844504963606596
184.0,261.0,6.1992,-3.5527,5.8122,-0.0447,0.0214,-0.1203,-1.792767187158102,0.0,3.058913230895996,-1.0347362756729126,-0.0,2.0871663093566895,3.5113250452229003,-0.0,0.2627696990966797,-1.4583194891559046,-0.0,-0.01694275438785553,1.0784478187561035,0.0,0.002295530866831541,1.1334402561187744,0.0,-0.003217550227418542
184.0,261.0,6.1992,-3.5527,5.8122,-0.0447,0.0214,-0.1203,-1.7928034267821253,0.0,3.0137386322021484,-1.0347248315811157,-0.0,2.085780143737793,3.511288805598877,-0.0,0.26781225204467773,-1.4583151976214808,-0.0,-0.004198385402560234,1.0784318447113037,0.0,-0.004502623341977596,1.1334402561187744,0.0,-0.017962727695703506
184.0,261.0,6.1992,-3.5527,5.8122,-0.0447,0.0214,-0.1203,-1.7927590809264125,0.0,3.0486278533935547,-1.0347445011138916,-0.0,2.0893394947052,3.5113889414020996,-0.0,0.2515738308429718,-1.4583032766925257,-0.0,-0.026501737534999847,1.0784028768539429,0.0,-0.01196481753140688,1.1334244012832642,0.0,0.04828513786196709
184.0,261.0,6.1992,-3.5527,5.8122,-0.0447,0.0214,-0.1203,-1.7927471599974574,0.0,3.009643316268921,-1.0347929000854492,-0.0,2.0851144790649414,3.511328859920166,-0.0,0.2538188099861145,-1.4583233038531702,-0.0,-0.019058816134929657,1.078439712524414,0.0,-0.0026110943872481585,1.13347589969635,0.0,0.0031460714526474476
184.0,261.0,6.1992,-3.5527,5.8122,-0.0447,0.0214,-0.1203,-1.7927996120848597,0.0,3.0282721519470215,-1.0347970724105835,-0.0,2.0592448711395264,3.5113088327595214,-0.0,0.2700046896934509,-1.4583233038531702,-0.0,-0.009402614086866379,1.0784070491790771,0.0,0.004180422984063625,1.1334482431411743,0.0,-0.023825880140066147
190.0,234.0,6.0042,-3.5539,6.1011,-0.0305,0.02,-0.1087,-1.792795320550436,0.0,2.988147735595703,-1.0347322225570679,-0.0,2.0756869316101074,3.511300726527832,-0.0,0.24986599385738373,-1.4583151976214808,-0.0,-0.01804596558213234,1.0785319805145264,0.0,-0.0028263209387660027,1.1334482431411743,0.0,0.012775776907801628
190.0,234.0,6.0042,-3.5539,6.1011,-0.0305,0.02,-0.1087,-1.7928034267821253,0.0,3.0235819816589355,-1.0347723960876465,-0.0,2.0698351860046387,3.5113369661518554,-0.0,0.25616055727005005,-1.458322827016012,-0.0,-0.0075001828372478485,1.078386902809143,0.0,-0.007731863297522068,1.1334881782531738,0.0,-0.06398851424455643
190.0,234.0,6.0042,-3.5539,6.1011,-0.0305,0.02,-0.1087,-1.792795797387594,0.0,3.0295143127441406,-1.034720778465271,1.3004923857806716e-06,2.0581960678100586,3.5113369661518554,-0.0,0.26079660654067993,-1.45829946199526,-0.0,-0.012731615453958511,1.0784028768539429,0.0,-0.013136209920048714,1.1334482431411743,0.0,-0.0032241218723356724
190.0,234.0,6.0042,-3.5539,6.1011,-0.0305,0.02,-0.1087,-1.7927915058531703,0.0,3.0209543704986572,-1.034845232963562,4.213430209658135e-14,2.102898597717285,3.5113207536884765,-0.0,0.26510271430015564,-1.4582670370685022,-0.0,-0.018279332667589188,1.0783709287643433,0.0,-0.004437773488461971,1.1334482431411743,0.0,0.015559104271233082
190.0,234.0,6.0042,-3.5539,6.1011,-0.0305,0.02,-0.1087,-1.7927714786925257,0.0,3.0329761505126953,-1.0347404479980469,1.017493739621768e-19,2.0863094329833984,3.5113488870808105,-0.0,0.27132225036621094,-1.4583633581744593,-0.0,-0.01022239588201046,1.0784027576446533,0.0,-0.00044131698086857796,1.1334402561187744,0.0,0.015586860477924347
190.0,234.0,6.0042,-3.5539,6.1011,-0.0305,0.02,-0.1087,-1.7927552662291468,0.0,3.0506043434143066,-1.034812569618225,3.296550730119467e-27,2.0805931091308594,3.5113250452229003,-0.0,0.2550818920135498,-1.4583194891559046,-0.0,-0.017131268978118896,1.0783945322036743,0.0,0.004207545891404152,1.1334799528121948,0.0,0.035805463790893555
190.0,234.0,6.0042,-3.5539,6.1011,-0.0305,0.02,-0.1087,-1.7928115330138148,0.0,3.0395450592041016,-1.0347683429718018,1.068040506627077e-34,2.088007926940918,3.5113488870808105,-0.0,0.25404876470565796,-1.4582989851581019,-0.0,-0.025629013776779175,1.0783904790878296,0.0,-0.008184988051652908,1.1334402561187744,0.0,0.017406735569238663
190.0,234.0,6.0042,-3.5539,6.1011,-0.0305,0.02,-0.1087,-1.7927266559996546,0.0,3.0336837768554688,-1.0347814559936523,2.5791879144823286e-40,2.0997414588928223,3.511272593135498,-0.0,0.26530927419662476,-1.4582708517657679,-0.0,-0.021466467529535294,1.0784436464309692,0.0,-0.009968510828912258,1.1334680318832397,0.0,0.01554808672517538
190.0,234.0,6.0042,-3.5539,6.1011,-0.0305,0.02,-0.1087,-1.7927028141417445,0.0,3.0047826766967773,-1.0347847938537598,0.0,2.0724539756774902,3.5113131242939453,-0.0,0.245956689119339,-1.4582951704608362,-0.0,-0.014674531295895576,1.0784722566604614,0.0,-0.02169249765574932,1.1334441900253296,0.0,0.01583753153681755
190.0,234.0,6.0042,-3.5539,6.1011,-0.0305,0.02,-0.1087,-1.7928034267821253,0.0,3.017467975616455,-1.0348011255264282,-0.0,2.088163375854492,3.511268301601074,-0.0,0.25529587268829346,-1.4583314100848597,-0.0,-0.0107700414955616,1.0783904790878296,0.0,-0.008723685517907143,1.1334363222122192,0.0,0.020989008247852325
190.0,234.0,6.0042,-3.5539,6.1011,-0.0305,0.02,-0.1087,-1.7927590809264125,0.0,3.0352158546447754,-1.0347322225570679,-0.0,2.0907483100891113,3.5113369661518554,-0.0,0.25272315740585327,-1.4583633581744593,-0.0,-0.01344161294400692,1.0783988237380981,0.0,-0.0024007728789001703,1.1334640979766846,0.0,0.008474302478134632
190.0,234.0,6.0042,-3.5539,6.1011,-0.0305,0.02,-0.1087,-1.792739053765768,0.0,3.0436973571777344,-1.0347167253494263,-0.0,2.111400604248047,3.511361284846924,-0.0,0.25476279854774475,-1.4582832495318812,-0.0,-0.016527893021702766,1.0783945322036743,0.0,-0.0004271967336535454,1.1334521770477295,0.0,-0.017402388155460358
190.0,244.0,5.866,-3.4522,6.0766,-0.0296,0.0234,-0.1206,-1.7927876911559046,0.0,3.03737735748291,-1.0347083806991577,-0.0,2.0947062969207764,3.511312647456787,-0.0,0.2738887667655945,-1.45829946199526,-0.0,-0.0029206941835582256,1.0783945322036743,0.0,0.00039392407052218914,1.1334402561187744,0.0,-0.016972428187727928
190.0,244.0,5.866,-3.4522,6.0766,-0.0296,0.0234,-0.1206,-1.7927714786925257,0.0,3.0151124000549316,-1.0347568988800049,-0.0,2.0806798934936523,3.5112930971333007,-0.0,0.26612505316734314,-1.45829946199526,-0.0,-0.017433226108551025,1.0784437656402588,0.0,-0.007381672505289316,1.1334402561187744,0.0,0.005475317128002644
190.0,244.0,5.866,-3.4522,6.0766,-0.0296,0.0234,-0.1206,-1.7927795849242152,0.0,3.035271167755127,-1.0347568988800049,-0.0,2.1277964115142822,3.5112849909016113,-0.0,0.26221489906311035,-1.4583309332477015,-0.0,-0.008839265443384647,1.0784436464309692,0.0,0.0010444330982863903,1.1334081888198853,0.0,-0.0033886590972542763
190.0,244.0,5.866,-3.4522,6.0766,-0.0296,0.0234,-0.1206,-1.7928158245482386,0.0,3.0304155349731445,-1.0348044633865356,-0.0,2.0605010986328125,3.511288805598877,-0.0,0.2442258596420288,-1.4583309332477015,-0.0,-0.014261836186051369,1.0784761905670166,0.0,-0.006827698554843664,1.1334363222122192,0.0,-0.011027979664504528
190.0,244.0,5.866,-3.4522,6.0766,-0.0296,0.0234,-0.1206,-1.7927714786925257,0.0,3.031170129776001,-1.0347723960876465,-0.0,2.0950613021850586,3.511316938991211,-0.0,0.26349520683288574,-1.4583514372455042,-0.0,-0.021844716742634773,1.0784070491790771,0.0,-0.0059997583739459515,1.1334283351898193,0.0,-0.011132446117699146
190.0,244.0,5.866,-3.4522,6.0766,-0.0296,0.0234,-0.1206,-1.792779108087057,0.0,3.041430711746216,-1.0347568988800049,-0.0,2.092651844024658,3.5113131242939453,-0.0,0.2582527697086334,-1.4583309332477015,-0.0,-0.0213729627430439,1.0783910751342773,0.0,-4.6566128730773926e-09,1.1334244012832642,0.0,-0.011429701000452042
190.0,244.0,5.866,-3.4522,6.0766,-0.0296,0.0234,-0.1206,-1.7927714786925257,0.0,3.050692319869995,-1.0347774028778076,-0.0,2.107351541519165,3.5113093095966796,-0.0,0.2677784562110901,-1.4583514372455042,-0.0,-0.01863795891404152,1.078464388847351,0.0,-0.0018318952061235905,1.1334881782531738,0.0,-0.025256715714931488
190.0,244.0,5.866,-3.4522,6.0766,-0.0296,0.0234,-0.1206,-1.7927471599974574,0.0,3.025862216949463,-1.0348083972930908,-0.0,2.081998348236084,3.511324568385742,-0.0,0.2589542865753174,-1.4582832495318812,-0.0,-0.0068968492560088634,1.0784437656402588,0.0,0.006800432223826647,1.1334283351898193,0.0,-0.03994631767272949
190.0,244.0,5.866,-3.4522,6.0766,-0.0296,0.0234,-0.1206,-1.79276766399526,0.0,3.022630214691162,-1.0347806215286255,-0.0,2.0894384384155273,3.5113088327595214,-0.0,0.2663014531135559,-1.4583271185504358,-0.0,-0.0117192342877388,1.0784354209899902,0.0,-0.0018664206145331264,1.1334561109542847,0.0,0.010083116590976715
190.0,244.0,5.866,-3.4522,6.0766,-0.0296,0.0234,-0.1206,-1.7927190266051234,0.0,3.031528949737549,-1.0347609519958496,-0.0,2.072993755340576,3.5113212305256347,-0.0,0.259080708026886,-1.4582832495318812,-0.0,-0.011543860659003258,1.078395128250122,0.0,-0.008275437168776989,1.1334521770477295,0.0,-0.0029073506593704224
190.0,244.0,5.866,-3.4522,6.0766,-0.0296,0.0234,-0.1206,-1.7927595577635707,0.0,3.0117151737213135,-1.0347566604614258,-0.0,2.0806963443756104,3.511328859920166,-0.0,0.2696618437767029,-1.4583151976214808,-0.0,-0.014312244020402431,1.0783785581588745,0.0,0.00014270306564867496,1.1334600448608398,0.0,0.030811354517936707
190.0,244.0,5.866,-3.4522,6.0766,-0.0296,0.0234,-0.1206,-1.792795797387594,0.0,3.0351428985595703,-1.0347650051116943,2.3416119802277535e-05,2.0675487518310547,3.511328859920166,-0.0,0.2708526849746704,-1.4583147207843226,-0.0,-0.021632513031363487,1.0784839391708374,0.0,0.005356065463274717,1.1334561109542847,0.0,0.02121899649500847
190.0,244.0,5.866,-3.4522,6.0766,-0.0296,0.0234,-0.1206,-1.7927595577635707,4.542064966327197e-13,3.031130790710449,-1.0347167253494263,2.2257981981965713e-05,2.0759849548339844,3.5112849909016113,-0.0,0.2644277811050415,-1.4583070913897913,-0.0,-0.010700416751205921,1.0784236192703247,0.0,-0.011677931994199753,1.1334600448608398,0.0,0.00587915163487196
184.0,243.0,6.2602,-3.728,5.924,-0.0377,0.0254,-0.1258,-1.7927638492979945,1.0968551407254218e-18,2.9862372875213623,-1.0347567796707153,2.146183578588534e-05,2.0774083137512207,3.5113131242939453,-0.0,0.2625569999217987,-1.4583032766925257,-0.0,-0.01875641755759716,1.0784112215042114,0.0,0.004030195064842701,1.1334283351898193,0.0,-0.00868101418018341
184.0,243.0,6.2602,-3.728,5.924,-0.0377,0.0254,-0.1258,-1.7927795849242152,3.5536710828985114e-26,3.0674662590026855,-1.0347567796707153,3.072179606533609e-05,2.075749158859253,3.511312647456787,-0.0,0.2649301290512085,-1.4583113829242151,-0.0,-0.01829773746430874,1.0784881114959717,0.0,-0.006315583363175392,1.1334561109542847,0.0,0.0006168299587443471
184.0,243.0,6.2602,-3.728,5.924,-0.0377,0.0254,-0.1258,-1.792739053765768,1.1513441867266282e-33,3.0114712715148926,-1.0347329378128052,1.3603970216991002e-07,2.0995967388153076,3.511345072383545,-0.0,0.2525208592414856,-1.4583466688739222,-0.0,-0.012693333439528942,1.0784028768539429,0.0,0.0013825036585330963,1.1334121227264404,0.0,-0.06675869226455688
184.0,243.0,6.2602,-3.728,5.924,-0.0377,0.0254,-0.1258,-1.792710920373434,2.780361124617728e-39,2.973039150238037,-1.0347206592559814,3.285198447913057e-13,2.094053268432617,3.511345072383545,-0.0,0.2653712034225464,-1.4583271185504358,-0.0,-0.019234761595726013,1.0784028768539429,0.0,-0.00325383641757071,1.1334083080291748,0.0,0.028395092114806175
184.0,243.0,6.2602,-3.728,5.924,-0.0377,0.0254,-0.1258,-1.7927552662291468,0.0,2.9836905002593994,-1.0347929000854492,1.0643623747403908e-20,2.089907169342041,3.5113212305256347,-0.0,0.2528165280818939,-1.4583113829242151,-0.0,-0.011845141649246216,1.0783751010894775,0.0,-0.013968310318887234,1.1334244012832642,0.0,-0.009045694023370743
184.0,243.0,6.2602,-3.728,5.924,-0.0377,0.0254,-0.1258,-1.7927071056761683,0.00017523452697787434,2.99749755859375,-1.0347495079040527,3.44839923213722e-28,2.093085527420044,3.5113045412250976,-0.0,0.27270787954330444,-1.458334747944967,-0.0,-0.0011521056294441223,1.0784395933151245,0.0,0.00023214146494865417,1.1334561109542847,0.0,-0.04194984957575798
184.0,243.0,6.2602,-3.728,5.924,-0.0377,0.0254,-0.1258,-1.7927352390685023,0.00015757238725200295,3.059436798095703,-1.0347846746444702,8.32747840606852e-34,2.094813585281372,3.5112926202961425,-0.0,0.25745898485183716,-1.4583151976214808,-0.0,-0.028440207242965698,1.0784153938293457,0.0,-0.004340365529060364,1.1334402561187744,0.0,-0.028557879850268364
184.0,243.0,6.2602,-3.728,5.924,-0.0377,0.0254,-0.1258,-1.7927271328368128,0.00013821304310113192,3.027024745941162,-1.0346968173980713,2.698060063211003e-41,2.1022090911865234,3.5112644869038085,-0.0,0.26452383399009705,-1.458339039479391,-0.0,-0.007928585633635521,1.0784032344818115,0.0,0.0015514565166085958,1.1334402561187744,0.0,0.03443189337849617
184.0,243.0,6.2602,-3.728,5.924,-0.0377,0.0254,-0.1258,-1.7927714786925257,0.00012309051817283034,3.0117313861846924,-1.0347166061401367,-0.0,2.0615432262420654,3.5112849909016113,-0.0,0.2597978115081787,-1.4582951704608362,-0.0,-0.02325974963605404,1.0783746242523193,0.0,-0.00821619015187025,1.1334363222122192,0.0,0.023604072630405426
184.0,243.0,6.2602,-3.728,5.924,-0.0377,0.0254,-0.1258,-1.7927552662291468,0.00011375563917681575,3.0284481048583984,-1.0347683429718018,-0.0,2.0630569458007812,3.5113088327595214,-0.0,0.2568824887275696,-1.4583151976214808,-0.0,-0.008289512246847153,1.0784070491790771,0.0,-0.005481350235641003,1.1334521770477295,0.0,-0.026520274579524994
184.0,243.0,6.2602,-3.728,5.924,-0.0377,0.0254,-0.1258,-1.7927638492979945,8.264793723355979e-05,3.0547428131103516,-1.0347930192947388,-0.0,2.0915400981903076,3.511324568385742,-0.0,0.251134991645813,-1.458287541066305,-0.0,-0.008485534228384495,1.0783625841140747,0.0,-0.001564149046316743,1.1334402561187744,0.0,-0.009169703349471092
184.0,243.0,6.2602,-3.728,5.924,-0.0377,0.0254,-0.1258,-1.792739053765768,7.569625449832529e-05,3.0451579093933105,-1.0347847938537598,-0.0,2.073089599609375,3.5113531786152343,-0.0,0.2656206488609314,-1.4582951704608362,-0.0,0.0011039604432880878,1.0783946514129639,0.0,-0.017729811370372772,1.1334799528121948,0.0,-0.0008397763594985008
184.0,247.0,6.0975,-3.5599,5.9055,-0.0379,0.0182,-0.1171,-1.7927471599974574,7.120471855159849e-05,2.9816856384277344,-1.0347248315811157,-0.0,2.1187541484832764,3.511272593135498,-0.0,0.2536233365535736,-1.4583070913897913,-0.0,-0.021477345377206802,1.0783988237380981,0.0,-0.018884798511862755,1.1334441900253296,0.0,0.0014056507498025894
184.0,247.0,6.0975,-3.5599,5.9055,-0.0379,0.0182,-0.1171,-1.7928277454771937,6.598432082682848e-05,3.0227768421173096,-1.0347164869308472,-0.0,2.0927295684814453,3.511305018062256,-0.0,0.262138307094574,-1.458327595387594,-0.0,-0.01561233215034008,1.0784313678741455,0.0,-0.013606246560811996,1.1334402561187744,0.0,0.042059630155563354
184.0,247.0,6.0975,-3.5599,5.9055,-0.0379,0.0182,-0.1171,-1.7927996120848597,6.147706153569743e-05,3.002053737640381,-1.0347330570220947,-0.0,2.0954172611236572,3.5113212305256347,-0.0,0.26599955558776855,-1.4583032766925257,-0.0,-0.015912601724267006,1.0784236192703247,0.0,-0.00674968957901001,1.1334561109542847,0.0,-0.030075833201408386
184.0,247.0,6.0975,-3.5599,5.9055,-0.0379,0.0182,-0.1171,-1.7927514515318812,5.848106957273558e-05,3.025804042816162,-1.034769058227539,-0.0,2.091893196105957,3.511373205775879,-0.0,0.26717060804367065,-1.4583032766925257,-0.0,-0.009099363349378109,1.078447937965393,0.0,-0.012174999341368675,1.133400321006775,0.0,0.016179362311959267
184.0,247.0,6.0975,-3.5599,5.9055,-0.0379,0.0182,-0.1171,-1.7927795849242152,5.4912979976506904e-05,3.0372400283813477,-1.0347567796707153,-0.0,2.1001663208007812,3.5113088327595214,-0.0,0.25824862718582153,-1.4583233038531702,-0.0,-0.01393422856926918,1.0784070491790771,0.0,-0.00671535637229681,1.1334482431411743,0.0,0.04030407965183258
184.0,247.0,6.0975,-3.5599,5.9055,-0.0379,0.0182,-0.1171,-1.7927714786925257,5.251005131867714e-05,3.085836172103882,-1.0347485542297363,-0.0,2.0769758224487305,3.5113088327595214,-0.0,0.2612304985523224,-1.4583547751056116,-0.0,-0.005578369367867708,1.0784436464309692,0.0,-0.005369865335524082,1.13340425491333,0.0,0.011831835843622684
184.0,247.0,6.0975,-3.5599,5.9055,-0.0379,0.0182,-0.1171,-1.7927514515318812,4.961531521985307e-05,3.0301408767700195,-1.0347083806991577,-0.0,2.1026573181152344,3.5113655763813476,-0.0,0.26335039734840393,-1.4582913557635706,-0.0,-0.013435769826173782,1.0784070491790771,0.0,-0.0026101022958755493,1.13340425491333,0.0,-0.0052647581323981285
184.0,247.0,6.0975,-3.5599,5.9055,-0.0379,0.0182,-0.1171,-1.7927471599974574,4.7023095248732716e-05,3.0326244831085205,-1.034780740737915,-0.0,2.061715602874756,3.511336489314697,-0.0,0.2765885591506958,-1.458327595387594,-0.0,-0.015287207439541817,1.0784436464309692,0.0,-0.004635225981473923,1.1334561109542847,0.0,-0.029289986938238144
184.0,247.0,6.0975,-3.5599,5.9055,-0.0379,0.0182,-0.1171,-1.7927595577635707,4.524994801613502e-05,3.019141674041748,-1.0347650051116943,-0.0,2.1305716037750244,3.511312647456787,-0.0,0.2592158019542694,-1.4583271185504358,-0.0,-0.019264498725533485,1.0784153938293457,0.0,-0.0034662815742194653,1.13347589969635,0.0,0.017001964151859283
184.0,247.0,6.0975,-3.5599,5.9055,-0.0379,0.0182,-0.1171,-1.7927514515318812,4.308386633056216e-05,3.076597213745117,-1.0347445011138916,-0.0,2.126720666885376,3.5113212305256347,-0.0,0.26119565963745117,-1.4582951704608362,-0.0,-0.015813004225492477,1.0784354209899902,0.0,-0.0029629613272845745,1.1334402561187744,0.0,-0.02312200888991356
184.0,247.0,6.0975,-3.5599,5.9055,-0.0379,0.0182,-0.1171,-1.7927352390685023,4.1115643398370594e-05,3.0534753799438477,-1.0347731113433838,-0.0,2.0995726585388184,3.511312647456787,-0.0,0.26213210821151733,-1.4583471457110804,-0.0,-0.01659071445465088,1.078447699546814,0.0,-0.006987296044826508,1.1334283351898193,0.0,-0.004390707239508629
184.0,247.0,6.0975,-3.5599,5.9055,-0.0379,0.0182,-0.1171,-1.7927514515318812,3.975359140895307e-05,3.020094633102417,-1.0347124338150024,-0.0,2.0808980464935303,3.511305018062256,-0.0,0.25593090057373047,-1.4583070913897913,-0.0,-0.01097348053008318,1.0784356594085693,0.0,-0.004114645998924971,1.1334083080291748,0.0,0.03655445575714111
184.0,247.0,6.0975,-3.5599,5.9055,-0.0379,0.0182,-0.1171,-1.7927471599974574,1.287965719319606e-12,3.0196990966796875,-1.0347445011138916,-0.0,2.0456132888793945,3.5113093095966796,-0.0,0.2623654305934906,-1.4583070913897913,-0.0,-0.020903393626213074,1.0784276723861694,0.0,-0.0027641868218779564,1.133471965789795,0.0,0.030397308990359306
185.0,246.0,6.2913,-4.2269,5.7087,-0.0557,0.027,-0.1121,-1.7927552662291468,4.172845401286154e-20,3.0045006275177,-1.0346922874450684,-0.0,2.0468838214874268,3.5112764078327636,-0.0,0.2520483136177063,-1.4583471457110804,-0.0,0.0007350808009505272,1.078464150428772,0.0,-0.0018734383629634976,1.1334362030029297,0.0,-0.012398012913763523
185.0,246.0,6.2913,-4.2269,5.7087,-0.0557,0.027,-0.1121,-1.7927552662291468,1.0076930773708582e-25,3.0435097217559814,-1.0347411632537842,-0.0,2.0651729106903076,3.5112687784382324,-0.0,0.26434803009033203,-1.4582951704608362,-0.0,-0.010436220094561577,1.0784153938293457,0.0,0.0013034155126661062,1.1334640979766846,0.0,-0.0024410977493971586
185.0,246.0,6.2913,-4.2269,5.7087,-0.0557,0.027,-0.1121,-1.792739053765768,3.264798173506651e-33,3.012850284576416,-1.0346922874450684,-0.0,2.111114025115967,3.5112926202961425,-0.0,0.26713013648986816,-1.4583514372455042,-0.0,-0.004548797383904457,1.078415036201477,0.0,0.003929406404495239,1.1334482431411743,0.0,0.0234600268304348
185.0,246.0,6.2913,-4.2269,5.7087,-0.0557,0.027,-0.1121,-1.7927552662291468,1.057756132810945e-40,2.9928650856018066,-1.0347485542297363,-0.0,2.0939409732818604,3.5113045412250976,-0.0,0.25873586535453796,-1.4583271185504358,-0.0,-0.018429849296808243,1.0784111022949219,0.0,-0.005377842579036951,1.1334283351898193,0.0,0.014791863970458508
185.0,246.0,6.2913,-4.2269,5.7087,-0.0557,0.027,-0.1121,-1.792739053765768,0.0,3.06158447265625,-1.0347445011138916,-0.0,2.0756657123565674,3.511284514064453,-0.0,0.2668100595474243,-1.458367172871725,-0.0,-0.01823219284415245,1.0784435272216797,0.0,0.001654252177104354,1.1333962678909302,0.0,0.04439416155219078
185.0,246.0,6.2913,-4.2269,5.7087,-0.0557,0.027,-0.1121,-1.792739053765768,0.0,3.0303468704223633,-1.034696340560913,-0.0,2.0681285858154297,3.51138083517041,-0.0,0.2531246542930603,-1.4583190123187464,-0.0,-0.018080174922943115,1.0784518718719482,0.0,-0.008504780009388924,1.133400321006775,0.0,-0.001797657459974289
185.0,246.0,6.2913,-4.2269,5.7087,-0.0557,0.027,-0.1121,-1.792823930779928,0.0,3.0479371547698975,-1.0347329378128052,-0.0,2.0989911556243896,3.5113569933125,-0.0,0.26443034410476685,-1.4583151976214808,-0.0,-0.00781460851430893,1.078459620475769,0.0,-0.007214800454676151,1.1334521770477295,0.0,0.005121038295328617
185.0,246.0,6.2913,-4.2269,5.7087,-0.0557,0.027,-0.1121,-1.792795797387594,0.0,3.0286338329315186,-1.0347691774368286,-0.0,2.111591339111328,3.511300726527832,-0.0,0.24986858665943146,-1.458322827016012,-0.0,-0.011277108453214169,1.0784600973129272,0.0,-0.013299440033733845,1.1334561109542847,0.0,-0.03823151811957359
185.0,246.0,6.2913,-4.2269,5.7087,-0.0557,0.027,-0.1121,-1.7927428684630335,0.0,2.997997760772705,-1.0347445011138916,-0.0,2.0740323066711426,3.5113770204731445,-0.0,0.27038833498954773,-1.458339039479391,-0.0,-0.010402148589491844,1.0783787965774536,0.0,-0.009663278236985207,1.1334680318832397,0.0,0.0026296714786440134
185.0,246.0,6.2913,-4.2269,5.7087,-0.0557,0.027,-0.1121,-1.7927595577635707,0.0,3.050266742706299,-1.0347003936767578,-0.0,2.1142666339874268,3.511312647456787,-0.0,0.2659047842025757,-1.458287541066305,-0.0,-0.015873156487941742,1.0784070491790771,0.0,-0.012988203205168247,1.1334441900253296,0.0,-0.017924856394529343
185.0,246.0,6.2913,-4.2269,5.7087,-0.0557,0.027,-0.1121,-1.792739053765768,0.0,3.0632266998291016,-1.0347774028778076,-0.0,2.0769426822662354,3.5113650995441894,-0.0,0.26291754841804504,-1.4583027998553675,-0.0,-0.010961933061480522,1.078447937965393,0.0,-0.0215670857578516,1.1334680318832397,0.0,-0.009614089503884315
185.0,246.0,6.2913,-4.2269,5.7087,-0.0557,0.027,-0.1121,-1.79276766399526,0.0,3.003608226776123,-1.0347166061401367,-0.0,2.0728390216827393,3.5113603311726074,-0.0,0.26304739713668823,-1.4583309332477015,-0.0,-0.006512806750833988,1.0784112215042114,0.0,-0.017701417207717896,1.1334961652755737,0.0,0.04024384543299675
186.0,251.0,6.8429,-3.9829,5.4832,-0.0336,-0.0011,-0.1016,-1.792710920373434,4.775466480588797e-12,2.9865782260894775,-1.0347485542297363,8.353803204741439e-10,2.0685064792633057,3.5114051538654785,-0.0,0.262982040643692,-1.4583547751056116,-0.0,-0.01299130730330944,1.0784231424331665,0.0,-0.009832524694502354,1.1334881782531738,0.0008000091183930635,-0.018975358456373215
186.0,251.0,6.8429,-3.9829,5.4832,-0.0336,-0.0011,-0.1016,-1.7927190266051234,1.1532188967925401e-17,3.0037145614624023,-1.0347288846969604,2.0173451244323874e-15,2.077066421508789,3.5113813120075683,-0.0,0.2621757388114929,-1.4583786169635218,-0.0,-0.018091414123773575,1.0783827304840088,0.0,-0.010670489631593227,1.133484125137329,0.0008617518469691277,-0.0013710330240428448
186.0,251.0,6.8429,-3.9829,5.4832,-0.0336,-0.0011,-0.1016,-1.7927433453001917,3.736282644955377e-25,3.0083744525909424,-1.0347168445587158,0.0003293726476840675,2.0778310298919678,3.5114452081867675,0.0005530847702175379,0.2642730474472046,-1.4583867231952112,-0.0,-0.019662518054246902,1.078411340713501,0.0,0.001746420282870531,1.1335757970809937,0.002342870691791177,-0.018584085628390312
186.0,251.0,6.8429,-3.9829,5.4832,-0.0336,-0.0011,-0.1016,-1.7927190266051234,1.2105079928978648e-32,2.990764617919922,-1.03473699092865,0.000889512593857944,2.1117823123931885,3.5114127832600097,0.0009703094256110489,0.25681471824645996,-1.458350960408346,-0.0,-0.011686833575367928,1.0783910751342773,0.0,-0.005097653716802597,1.1335557699203491,0.003828030312433839,-0.0044878097251057625
186.0,251.0,6.8429,-3.9829,5.4832,-0.0336,-0.0011,-0.1016,-1.7927395306029261,2.923234433183665e-38,3.0351219177246094,-1.0347164869308472,0.0008843703544698656,2.1070210933685303,3.5114494997211914,0.0008479086682200432,0.2698080241680145,-1.458419148121969,-0.00025909472606144845,-0.012987831607460976,1.0784070491790771,0.0,-0.0032654607202857733,1.1336286067962646,0.005385123658925295,0.0029000635258853436
186.0,251.0,6.8429,-3.9829,5.4832,-0.0336,-0.0011,-0.1016,-1.792710920373434,1.401298464324817e-45,3.036698341369629,-1.03469717502594,0.000854531885124743,2.0711562633514404,3.5114289957233886,0.0005528924521058798,0.2639545500278473,-1.4583991209613245,-0.0002672212431207299,-0.00910418201237917,1.0784313678741455,0.0,-0.0004758439608849585,1.1336923837661743,0.007751054130494595,0.029045231640338898
186.0,251.0,6.8429,-3.9829,5.4832,-0.0336,-0.0011,-0.1016,-1.7927638492979945,0.0,3.0093512535095215,-1.0346852540969849,0.0037426594644784927,2.1323094367980957,3.5113932329365234,0.0004670427006203681,0.2549613118171692,-1.4584310690509241,-0.00021591706899926066,-0.01457066461443901,1.0784600973129272,0.0,-0.012095039710402489,1.1336960792541504,0.009021768346428871,0.004274007864296436
186.0,251.0,6.8429,-3.9829,5.4832,-0.0336,-0.0011,-0.1016,-1.7927309475340785,0.0,3.041435718536377,-1.0346087217330933,0.010452887043356895,2.058588743209839,3.5114127832600097,0.00039131997618824244,0.26975515484809875,-1.458419148121969,-0.00022614643967244774,-0.02548227086663246,1.078467845916748,0.0,-0.010757743380963802,1.1337759494781494,0.009518907405436039,-0.011043616570532322
186.0,251.0,6.8429,-3.9829,5.4832,-0.0336,-0.0011,-0.1016,-1.7927876911559046,0.0,3.011617660522461,-1.0345412492752075,0.0143069326877594,2.127152442932129,3.5114008623310546,0.0002826480194926262,0.2603842318058014,-1.4583666960345667,-0.00019394590344745666,-0.013961667194962502,1.0784435272216797,0.0,-0.011536307632923126,1.1338961124420166,0.011712429113686085,0.008669639006257057
186.0,251.0,6.8429,-3.9829,5.4832,-0.0336,-0.0011,-0.1016,-1.792791029016012,0.0,3.020000457763672,-1.034454107284546,0.008480032905936241,2.0903475284576416,3.5114170747944335,0.00027211036649532616,0.25464174151420593,-1.4583786169635218,-0.00016958029300440103,-0.02469208650290966,1.0784153938293457,0.0,-0.013496501371264458,1.1340246200561523,0.016129696741700172,0.02524508908390999
186.0,251.0,6.8429,-3.9829,5.4832,-0.0336,-0.0011,-0.1016,-1.7927991352477015,0.0,3.027743339538574,-1.0344096422195435,0.004119920078665018,2.0539796352386475,3.511420889491699,0.0002298775943927467,0.2733228802680969,-1.4583867231952112,-0.00015497834829147905,-0.018365653231739998,1.078411340713501,0.0,-0.003931514453142881,1.1341203451156616,0.018882272765040398,0.060549020767211914
186.0,251.0,6.8429,-3.9829,5.4832,-0.0336,-0.0011,-0.1016,-1.7928320370116175,0.0,3.007258176803589,-1.0344096422195435,0.0006423004087992013,2.1013545989990234,3.511425181026123,0.00018861054559238255,0.26007360219955444,-1.4583867231952112,-0.00013901802594773471,-0.020925451070070267,1.0783947706222534,0.0,-0.00951311644166708,1.1342238187789917,0.020853141322731972,0.0030679376795887947
186.0,251.0,6.8429,-3.9829,5.4832,-0.0336,-0.0011,-0.1016,-1.79276766399526,-0.00013555104669649154,3.0364606380462646,-1.0343977212905884,-0.000288382958387956,2.064911365509033,3.511336489314697,0.0001684377493802458,0.27249062061309814,-1.4583385626422327,-0.00010779354488477111,-0.02380213886499405,1.0784354209899902,0.0,-0.010759392753243446,1.1343998908996582,0.01954813115298748,0.014577561989426613
187.0,252.0,5.2505,-3.7472,6.4349,-0.0541,0.0348,-0.1182,-1.7927795849242152,-5.543732186197303e-05,3.0596702098846436,-1.0343495607376099,-2.2189453829923877e-08,2.0709750652313232,3.511408968562744,0.0001559300726512447,0.26042985916137695,-1.4583867231952112,-9.815926750889048e-05,-0.01308923028409481,1.0783787965774536,0.0,-0.009744546376168728,1.1345643997192383,0.016675002872943878,0.043191082775592804
187.0,252.0,5.2505,-3.7472,6.4349,-0.0541,0.0348,-0.1182,-1.7927471599974574,-5.196101361681915e-12,3.0409607887268066,-1.0343258380889893,0.0031113934237509966,2.0721936225891113,3.5113727289387207,0.00014188248314894736,0.2601678967475891,-1.4583624045001429,-9.028110798681155e-05,-0.023054417222738266,1.0784153938293457,0.0,-0.006416428834199905,1.1346523761749268,0.01376446895301342,-0.03295234963297844
187.0,252.0,5.2505,-3.7472,6.4349,-0.0541,0.0348,-0.1182,-1.7927752933897914,-1.6834706155905914e-19,2.978893280029297,-1.0343183279037476,0.0028375054243952036,2.0577025413513184,3.5114170747944335,0.0001439499028492719,0.2635493576526642,-1.458391014729635,-8.357410115422681e-05,-0.013233967125415802,1.0784720182418823,0.0,-0.0026708280202001333,1.1346877813339233,0.009112570434808731,0.05380423739552498
187.0,252.0,5.2505,-3.7472,6.4349,-0.0541,0.0348,-0.1182,-1.7927552662291468,-4.065383335180972e-25,3.054462194442749,-1.03426992893219,0.0021185067016631365,2.0618162155151367,3.51138083517041,0.00014006803394295275,0.2636583149433136,-1.458407227193014,-7.916337926872075e-05,-0.018037527799606323,1.078423261642456,0.0,-0.004932771902531385,1.1347635984420776,0.006062221247702837,-0.005221304949373007
187.0,252.0,5.2505,-3.7472,6.4349,-0.0541,0.0348,-0.1182,-1.7928115330138148,-1.3171323100151543e-32,3.033785820007324,-1.0343619585037231,0.001183457556180656,2.075092315673828,3.5114614206501464,0.00012995643191970885,0.2506527304649353,-1.458350960408346,-7.395905413432047e-05,-0.013233339414000511,1.0783988237380981,0.0,-0.011736187152564526,1.1347519159317017,0.0021998686715960503,-0.02661253698170185
187.0,252.0,5.2505,-3.7472,6.4349,-0.0541,0.0348,-0.1182,-1.7928034267821253,-4.267346187439079e-40,3.0307068824768066,-1.034329891204834,0.0006245377589948475,2.0838279724121094,3.5113932329365234,0.00012120552855776623,0.25796666741371155,-1.4583748022662562,-6.939678860362619e-05,-0.007061264012008905,1.0784070491790771,0.0,-0.009634582325816154,1.1348202228546143,0.0001630438055144623,0.028894223272800446
187.0,252.0,5.2505,-3.7472,6.4349,-0.0541,0.0348,-0.1182,-1.792795320550436,-1.401298464324817e-45,3.0524280071258545,-1.0343101024627686,0.0005472209886647761,2.0801708698272705,3.5113932329365234,0.00011537858517840505,0.2654722034931183,-1.4583590666400355,-6.632811710005626e-05,-0.018330464139580727,1.0783671140670776,0.0,-0.014666406437754631,1.1347520351409912,3.937316028768123e-10,-0.007424488663673401
187.0,252.0,5.2505,-3.7472,6.4349,-0.0541,0.0348,-0.1182,-1.792767187158102,0.0,3.010991334915161,-1.0342698097229004,0.00033144582994282246,2.094271659851074,3.5113889414020996,8.444835111731663e-05,0.25907111167907715,-1.4583466688739222,-6.263527029659599e-05,-0.014540378004312515,1.0784519910812378,0.0,-0.009608667343854904,1.134767770767212,1.2756403039614081e-17,0.01657210662961006
187.0,252.0,5.2505,-3.7472,6.4349,-0.0541,0.0348,-0.1182,-1.7927514515318812,0.0,2.989541530609131,-1.0342904329299927,0.00037177748163230717,2.0476222038269043,3.5114328104206542,9.461276204092428e-05,0.2559302747249603,-1.458391014729635,-5.933194188401103e-05,0.0027133184485137463,1.0784637928009033,0.0,-0.011681335978209972,1.134727954864502,-0.001868494669906795,-0.0332578606903553
187.0,252.0,5.2505,-3.7472,6.4349,-0.0541,0.0348,-0.1182,-1.792767187158102,0.0,3.017534017562866,-1.0342214107513428,0.0005924607394263148,2.081359624862671,3.511453314418457,0.0002833353937603533,0.26230424642562866,-1.4583624045001429,-5.7074397773249075e-05,-0.01562706008553505,1.0784437656402588,0.0,-0.010037281550467014,1.1347320079803467,-0.0016751100774854422,-0.006476182024925947
187.0,252.0,5.2505,-3.7472,6.4349,-0.0541,0.0348,-0.1182,-1.7927190266051234,0.0,3.0488529205322266,-1.0342336893081665,0.0006860152934677899,2.0815892219543457,3.511449022884033,0.0004025111848022789,0.27350103855133057,-1.4583705107318323,-5.431865429272875e-05,-0.01899600960314274,1.0784070491790771,0.0,-0.008349164389073849,1.1347042322158813,-0.0009733289480209351,0.02819889225065708
187.0,252.0,5.2505,-3.7472,6.4349,-0.0541,0.0348,-0.1182,-1.7927638492979945,-2.753429907897953e-05,3.003751039505005,-1.0342373847961426,0.0005979854613542557,2.0996148586273193,3.511449022884033,0.0003620822390075773,0.2629610300064087,-1.458391014729635,-5.18167762493249e-05,-0.011873415671288967,1.0784271955490112,0.0,-0.004128685221076012,1.1347160339355469,-0.0006014213431626558,-0.019056525081396103
184.0,241.0,6.4666,-3.8566,5.9204,-0.056,0.0144,-0.1237,-1.792795320550436,-2.523027069400996e-05,3.0220632553100586,-1.0342698097229004,0.0005319103365764022,2.058633327484131,3.5114447313496093,0.0003091697581112385,0.2588014006614685,-1.4583705107318323,-5.008658627048135e-05,-0.004440110642462969,1.0784236192703247,0.0,-0.008390907198190689,1.1347602605819702,-0.00046748865861445665,-0.0077809859067201614
184.0,241.0,6.4666,-3.8566,5.9204,-0.056,0.0144,-0.1237,-1.7928115330138148,-2.2686333977617323e-05,2.9847564697265625,-1.034286379814148,0.00041056476766243577,2.116619110107422,3.5114447313496093,0.0002584284811746329,0.25392967462539673,-1.4583991209613245,-6.989130607593097e-09,-0.022211294621229172,1.078355073928833,0.0,-0.007120583206415176,1.1346837282180786,-0.0003604720695875585,-0.0005144262686371803
184.0,241.0,6.4666,-3.8566,5.9204,-0.056,0.0144,-0.1237,-1.7927872143187464,-4.121682286495343e-05,3.0604939460754395,-1.0342296361923218,0.00029251642990857363,2.0880889892578125,3.511437101955078,0.0002219966845586896,0.27099931240081787,-1.4584029356585901,-1.2702397456359343e-13,-0.019664738327264786,1.0784111022949219,0.0,-0.004962096456438303,1.1347119808197021,-0.00029332994017750025,0.007911479100584984
184.0,241.0,6.4666,-3.8566,5.9204,-0.056,0.0144,-0.1237,-1.7927752933897914,-3.856746116071008e-05,3.048734664916992,-1.0342738628387451,0.000256750441621989,2.0549488067626953,3.5114046770283203,0.000200769878574647,0.2721734344959259,-1.4583466688739222,-3.53575871293954e-17,-0.027435550466179848,1.0783870220184326,0.0,-0.010347363539040089,1.134671926498413,-8.169762440957129e-05,0.005603454541414976
184.0,241.0,6.4666,-3.8566,5.9204,-0.056,0.0144,-0.1237,-1.7927996120848597,-5.328435872797854e-05,3.0323166847229004,-1.0342615842819214,0.00022076124150771648,2.12559175491333,3.5114165979572753,0.0001780689344741404,0.2654808759689331,-1.4583991209613245,-6.426065982640156e-22,-0.004409941378980875,1.0784271955490112,0.0,-0.002971275709569454,1.1347079277038574,-3.45909757015761e-05,-0.060167521238327026
184.0,241.0,6.4666,-3.8566,5.9204,-0.056,0.0144,-0.1237,-1.792795320550436,-4.9385911552235484e-05,3.0050086975097656,-1.034310221672058,0.00019362136663403362,2.098546028137207,3.511392279262207,0.00015998026356101036,0.25969159603118896,-1.4584549109088343,-1.1679056427661925e-26,-0.02355523221194744,1.0784072875976562,0.0,-0.001967003336176276,1.1346997022628784,-9.488447354211171e-12,0.004739945754408836
184.0,241.0,6.4666,-3.8566,5.9204,-0.056,0.0144,-0.1237,-1.7927833996214808,-4.681694190367125e-05,2.991823673248291,-1.034278154373169,0.0001772762625478208,2.058501720428467,3.5114165979572753,0.00014865509001538157,0.24771973490715027,-1.4583991209613245,-3.250908432340315e-30,-0.006882417947053909,1.0783870220184326,0.0,-0.0019656908698379993,1.1347440481185913,-2.2913481994147654e-17,0.000809013843536377
184.0,241.0,6.4666,-3.8566,5.9204,-0.056,0.0144,-0.1237,-1.792791029016012,-4.3780459236586466e-05,3.017927408218384,-1.0342698097229004,0.00015934117254801095,2.0901412963867188,3.5114289957233886,0.00013583387772087008,0.27092477679252625,-1.4583867231952112,-5.908364641047135e-35,-0.010920204222202301,1.0784313678741455,0.0,-0.0029207810293883085,1.1347562074661255,-7.423677114423879e-25,-0.053756460547447205
184.0,241.0,6.4666,-3.8566,5.9204,-0.056,0.0144,-0.1237,-1.7928115330138148,-4.1113853512797505e-05,3.0196194648742676,-1.0342977046966553,0.00014470188762061298,2.0726661682128906,3.5114690500446777,0.00012504903133958578,0.2570355534553528,-1.4583705107318323,-1.0738164145105716e-39,-0.010508396662771702,1.0783787965774536,0.0,-0.002237411215901375,1.134719729423523,-2.4051769341023685e-32,-0.023272590711712837
184.0,241.0,6.4666,-3.8566,5.9204,-0.056,0.0144,-0.1237,-1.792823930779928,-3.931779428967275e-05,3.0055997371673584,-1.0342373847961426,0.0001353738334728405,2.0671679973602295,3.511465235347412,0.00011802094377344474,0.2657719850540161,-1.4584229628192347,-2.9847657290118604e-43,-0.00776631897315383,1.0783710479736328,0.0,-0.003061598166823387,1.1347602605819702,-5.808219584004505e-38,-0.0060559604316949844
184.0,241.0,6.4666,-3.8566,5.9204,-0.056,0.0144,-0.1237,-1.792779108087057,-3.715364437084645e-05,3.044076442718506,-1.0342977046966553,0.00012465922918636352,2.1009910106658936,3.5114447313496093,0.0001254761009477079,0.26132482290267944,-1.4583991209613245,-0.0,-0.018841858953237534,1.0784070491790771,0.0,-0.011149274185299873,1.1346837282180786,-1.401298464324817e-45,-0.03250584006309509
184.0,241.0,6.4666,-3.8566,5.9204,-0.056,0.0144,-0.1237,-1.7928029499449671,-3.5215354728279635e-05,3.052182674407959,-1.0342822074890137,0.00011551649367902428,2.081005334854126,3.5114165979572753,0.0001173012497019954,0.2602980434894562,-1.4584153334247034,-0.0,-0.014958309940993786,1.0783947706222534,0.0,-0.005795632489025593,1.1347239017486572,0.0,0.02702317014336586
184.0,241.0,6.4666,-3.8566,5.9204,-0.056,0.0144,-0.1237,-1.7927714786925257,-3.38893587468192e-05,3.0287322998046875,-1.0342895984649658,0.000109493536001537,2.0969746112823486,3.5114494997211914,0.00011183520837221295,0.273052841424942,-1.4583705107318323,-0.0,-0.007199332118034363,1.0784313678741455,0.0,0.004940434359014034,1.134700059890747,-8.890798198990524e-05,0.018715696409344673
192.0,244.0,5.5382,-4.3304,6.0622,-0.0457,0.0528,-0.1246,-1.7927833996214808,-3.226924309274182e-05,3.00557279586792,-1.0342615842819214,0.00010237639799015597,2.0965378284454346,3.5114328104206542,0.00010529325663810596,0.2760362923145294,-1.4584029356585901,-0.0,-0.019733035936951637,1.0784640312194824,0.0,-0.014338502660393715,1.134671926498413,-0.0001359987072646618,0.026954583823680878
192.0,244.0,5.5382,-4.3304,6.0622,-0.0457,0.0528,-0.1246,-1.792807241479391,-3.079699308727868e-05,3.036593198776245,-1.0342854261398315,9.623655205359682e-05,2.11788010597229,3.5114127832600097,8.786331454757601e-05,0.25531789660453796,-1.4583748022662562,-0.0,-0.013821069151163101,1.078391194343567,0.0,-0.018587693572044373,1.1346516609191895,-0.0005393401370383799,0.028295041993260384
192.0,244.0,5.5382,-4.3304,6.0622,-0.0457,0.0528,-0.1246,-1.792779108087057,-2.9778047974104993e-05,3.0590739250183105,-1.034286379814148,2.859807682398241e-05,2.0901567935943604,3.5113841730305175,8.357627666555345e-05,0.27624770998954773,-1.4583867231952112,-0.0,-0.0017815292812883854,1.078415036201477,0.0,-0.008692660368978977,1.134648084640503,-0.0011443820549175143,0.04406934976577759
192.0,244.0,5.5382,-4.3304,6.0622,-0.0457,0.0528,-0.1246,-1.7927428684630335,-9.647705811327567e-13,3.004584312438965,-1.0343018770217896,1.344456359220203e-05,2.048295021057129,3.51138083517041,2.57656483881874e-05,0.25624603033065796,-1.4583666960345667,-0.0,-0.008010992780327797,1.078391194343567,0.0,0.00862555205821991,1.1346198320388794,-0.0023666638880968094,0.010146948508918285
192.0,244.0,5.5382,-4.3304,6.0622,-0.0457,0.0528,-0.1246,-1.7927514515318812,-3.125733942844042e-20,3.029989719390869,-1.0343139171600342,3.73273200543478e-12,2.0669631958007812,3.5113846498676757,1.3744661373493727e-05,0.257264107465744,-1.4583590666400355,-1.7376065386542905e-07,-0.02235136181116104,1.0784074068069458,0.0,-0.008690563961863518,1.1346241235733032,-0.005126809701323509,-0.04030143469572067
192.0,244.0,5.5382,-4.3304,6.0622,-0.0457,0.0528,-0.1246,-1.7927872143187464,-7.548279050258218e-26,3.0517799854278564,-1.0342812538146973,9.014108081068013e-18,2.1045196056365967,3.511364622707031,1.1685070603562053e-05,0.26512086391448975,-1.458350960408346,-4.8366918109499224e-11,-0.019061965867877007,1.0784515142440796,0.0,-0.006984028499573469,1.134580373764038,-0.009316179901361465,-0.07678472995758057
192.0,244.0,5.5382,-4.3304,6.0622,-0.0457,0.0528,-0.1246,-1.792767187158102,-2.4455465692506737e-33,2.996701955795288,-1.034338116645813,2.920456501841648e-25,2.091520309448242,3.5113770204731445,1.1107787941000424e-05,0.2578696310520172,-1.4583867231952112,-8.790448634298821e-16,-0.012539439834654331,1.0784271955490112,0.0,-0.01596548780798912,1.134472131729126,-0.009201719425618649,-0.03176642954349518
192.0,244.0,5.5382,-4.3304,6.0622,-0.0457,0.0528,-0.1246,-1.7928115330138148,-7.923221776985381e-41,3.0294384956359863,-1.034346342086792,9.461906678073839e-33,2.0873241424560547,3.5114657121845703,1.0585218660708051e-05,0.2673773169517517,-1.458391014729635,-1.5976206740527524e-20,-0.01645265519618988,1.078374981880188,0.0,-0.01788194291293621,1.1344366073608398,-0.007540024351328611,-0.016376417130231857
192.0,244.0,5.5382,-4.3304,6.0622,-0.0457,0.0528,-0.1246,-1.7927552662291468,-2.1932999516138807e-05,3.0125203132629395,-1.034249186515808,2.284938918918164e-38,2.0452401638031006,3.5114127832600097,1.5265788533724844e-05,0.2621157169342041,-1.4583590666400355,-4.447036509102e-24,-0.012201548554003239,1.0784029960632324,0.0,-0.004479654133319855,1.1343519687652588,-0.006849972996860743,0.01064382679760456
192.0,244.0,5.5382,-4.3304,6.0622,-0.0457,0.0528,-0.1246,-1.7927471599974574,-1.0599313100101426e-05,2.9755656719207764,-1.0342822074890137,0.00018728480790741742,2.0901944637298584,3.511489077205322,4.549051197955123e-07,0.260964959859848,-1.4583705107318323,-8.082269734061761e-29,-0.020295139402151108,1.0784109830856323,0.0,-0.003970779478549957,1.134259819984436,-0.006166670471429825,0.0213053859770298
192.0,244.0,5.5382,-4.3304,6.0622,-0.0457,0.0528,-0.1246,-1.7927595577635707,-1.5791915330964912e-08,3.039494037628174,-1.0342015027999878,0.0012977041769772768,2.1151630878448486,3.51146046697583,0.0019860793836414814,0.27108392119407654,-1.4584029356585901,-1.468912618137908e-33,-0.015110631473362446,1.078391194343567,0.0,0.0013404127676039934,1.1343082189559937,-0.0032408141996711493,0.04469028860330582
192.0,244.0,5.5382,-4.3304,6.0622,-0.0457,0.0528,-0.1246,-1.7927714786925257,-3.8135615406656095e-14,3.014770030975342,-1.0342179536819458,0.00433670450001955,2.077519655227661,3.511596842403076,0.009208154864609241,0.27363988757133484,-1.458442513142721,-6.37131161056459e-05,-0.007021641358733177,1.0784194469451904,0.0,-0.010407321155071259,1.13429594039917,-0.00012507180508691818,-0.09612064063549042
188.0,252.0,5.5065,-3.3894,6.4636,-0.018,0.0779,-0.1124,-1.7927471599974574,-1.2355455041933575e-21,3.0230114459991455,-1.0341579914093018,0.009523266926407814,2.1418654918670654,3.5117084222980957,0.026642579585313797,0.28553926944732666,-1.4584630171405237,-0.0008910195319913328,-0.022178228944540024,1.078386902809143,0.0,-0.008845706470310688,1.134476900100708,0.007151582278311253,0.07469557970762253
188.0,252.0,5.5065,-3.3894,6.4636,-0.018,0.0779,-0.1124,-1.7927714786925257,-2.98369727734936e-27,3.0008630752563477,-1.034094214439392,0.011558911763131618,2.1148128509521484,3.511890097255371,0.02863677218556404,0.30608636140823364,-1.4584587256061,-0.0011805891990661621,-0.03017079085111618,1.078391194343567,0.0,-0.003561179619282484,1.1344640254974365,0.013337170705199242,0.11671197414398193
188.0,252.0,5.5065,-3.3894,6.4636,-0.018,0.0779,-0.1124,-1.7927428684630335,-9.66679947601949e-35,2.886888027191162,-1.0339901447296143,0.009561230428516865,2.1132969856262207,3.5120341020771484,0.017143454402685165,0.29303622245788574,-1.4584463278399866,-0.0010734106181189418,-0.033993981778621674,1.0783789157867432,0.0,-0.006318987347185612,1.134676456451416,0.020839454606175423,0.22889772057533264
188.0,252.0,5.5065,-3.3894,6.4636,-0.018,0.0779,-0.1124,-1.7927714786925257,-3.131902067765966e-42,2.9466841220855713,-1.0340468883514404,0.0042245639488101006,2.048158645629883,3.5120770174213867,0.0016578949289396405,0.2851700782775879,-1.45848256746401,-0.0008398470235988498,-0.04810594394803047,1.078363060951233,0.0,-0.0026264023035764694,1.1348237991333008,0.024286041036248207,0.2015610784292221
188.0,252.0,5.5065,-3.3894,6.4636,-0.018,0.0779,-0.1124,-1.792807241479391,-0.0,2.8966755867004395,-1.034018874168396,0.001210555317811668,2.056810140609741,3.512044592494629,-0.004640541970729828,0.268018901348114,-1.458442513142721,-0.0007353938999585807,-0.04485997557640076,1.0784109830856323,0.0,-0.01073741540312767,1.13498854637146,0.023097706958651543,0.2171548753976822
188.0,252.0,5.5065,-3.3894,6.4636,-0.018,0.0779,-0.1124,-1.7927872143187464,-0.0014638607390224934,2.828052043914795,-1.0339943170547485,-0.0017581791616976261,2.046905279159546,3.511988802547119,-0.000722972908988595,0.2757453918457031,-1.4584906736956995,-0.0007326627965085208,-0.053286824375391006,1.0784194469451904,0.0,-0.001953807193785906,1.1351723670959473,0.019949719309806824,0.2242995798587799
188.0,252.0,5.5065,-3.3894,6.4636,-0.018,0.0779,-0.1124,-1.7928549251952113,-0.004084066487848759,2.8556034564971924,-1.0340304374694824,-0.001323058269917965,2.0184707641601562,3.5120207506367187,-0.00022943118528928608,0.2632412314414978,-1.45848256746401,-0.001133612939156592,-0.059079233556985855,1.078439474105835,0.0,0.003978378605097532,1.1353044509887695,0.018600082024931908,0.27033036947250366
188.0,252.0,5.5065,-3.3894,6.4636,-0.018,0.0779,-0.1124,-1.7929111919798792,-0.006333676166832447,2.847954034805298,-1.0340546369552612,-0.0008993885130621493,2.030324697494507,3.5120202737995605,-0.00016588153084740043,0.27172911167144775,-1.4584944883929651,-0.002328199101611972,-0.06498456746339798,1.078411340713501,0.0,-0.019487198442220688,1.1354440450668335,0.018870076164603233,0.2954283654689789
188.0,252.0,5.5065,-3.3894,6.4636,-0.018,0.0779,-0.1124,-1.7930356464781703,-0.009664366021752357,2.8659234046936035,-1.0340304374694824,-0.0008127685869112611,2.0450258255004883,3.5119921404072265,-6.482849130406976e-05,0.2387496829032898,-1.4585712591754358,-0.016514629125595093,-0.07649393379688263,1.078383207321167,0.0,-0.007578443270176649,1.13565194606781,0.021028220653533936,0.32461780309677124
188.0,252.0,5.5065,-3.3894,6.4636,-0.018,0.0779,-0.1124,-1.7931200466551722,-0.006011935882270336,2.8485755920410156,-1.0340464115142822,-0.0005164455506019294,1.978681206703186,3.5120889383503417,-8.191929801171227e-09,0.24383553862571716,-1.4586737791644495,-0.01825721003115177,-0.07200828194618225,1.078475832939148,0.0,-0.0049479505978524685,1.1357635259628296,0.023936668410897255,0.3320489525794983
188.0,252.0,5.5065,-3.3894,6.4636,-0.018,0.0779,-0.1124,-1.7931519947447718,-0.0047354670241475105,2.8747572898864746,-1.034050464630127,-0.00038412693538703024,2.0119504928588867,3.5121046739765625,-2.2802536768506965e-12,0.24679666757583618,-1.458761994038717,-0.010213255882263184,-0.07396824657917023,1.0784028768539429,0.0,0.00036776158958673477,1.1359480619430542,0.02486736886203289,0.34302186965942383
188.0,252.0,5.5065,-3.3894,6.4636,-0.018,0.0779,-0.1124,-1.793147703210348,-0.004292970988899469,2.790208101272583,-1.0340542793273926,-0.0003435878024902195,2.0320656299591064,3.5121208864399414,0.0015177428722381592,0.2321864813566208,-1.458801571522848,-0.0014605291653424501,-0.0784696713089943,1.078394889831543,0.0,-0.0008178020361810923,1.1361194849014282,0.025256376713514328,0.3624650239944458
188.0,252.0,5.5065,-3.3894,6.4636,-0.018,0.0779,-0.1124,-1.7932239971556605,-0.0046117366291582584,2.815915584564209,-1.0340626239776611,-0.0002738826151471585,2.0141844749450684,3.5121370989033203,0.0014555598609149456,0.24743390083312988,-1.4588092009173792,-5.932989566304059e-08,-0.0723385214805603,1.078363299369812,0.0,-0.01183266006410122,1.136359453201294,0.026408303529024124,0.3573560118675232
183.0,246.0,6.1346,-3.6562,5.8732,0.0261,0.002,-0.088,-1.7932077846922816,-0.0047091650776565075,2.843750476837158,-1.0340263843536377,-0.00027732105809263885,1.9737454652786255,3.5120841699787597,0.0010063862428069115,0.24223467707633972,-1.4587815443622034,-1.6514695860836426e-11,-0.0770173966884613,1.0784109830856323,0.0,-0.019042961299419403,1.1365437507629395,0.02878587134182453,0.33959507942199707
183.0,246.0,6.1346,-3.6562,5.8732,0.0261,0.002,-0.088,-1.7932354412474574,-0.005065095145255327,2.833042621612549,-1.0340062379837036,-0.00023580521519761533,1.9821085929870605,3.5121404367634277,0.0007448910619132221,0.2671757936477661,-1.458773438130514,-3.0014641602713694e-16,-0.0817955732345581,1.078363060951233,0.0,-0.00875389389693737,1.1368266344070435,0.03430755436420441,0.3818134665489197
183.0,246.0,6.1346,-3.6562,5.8732,0.0261,0.002,-0.088,-1.7933522663512171,-0.006077653728425503,2.843221664428711,-1.0340222120285034,-0.00020509760361164808,2.007270336151123,3.512136622066162,0.0005056629306636751,0.26774701476097107,-1.4587534109698694,-5.455012590026783e-21,-0.07691839337348938,1.078391194343567,0.0,0.0006489576771855354,1.137146234512329,0.041917622089385986,0.3831571638584137
183.0,246.0,6.1346,-3.6562,5.8732,0.0261,0.002,-0.088,-1.7933479748167933,-0.005687524098902941,2.848081111907959,-1.0340102910995483,-0.0001868483959697187,2.001356363296509,3.5121890741535644,0.0005266902735456824,0.24954159557819366,-1.458813492451803,-1.5184228403737207e-24,-0.07781925797462463,1.0784189701080322,0.0,-0.009109970182180405,1.1374138593673706,0.04672844707965851,0.37956762313842773
183.0,246.0,6.1346,-3.6562,5.8732,0.0261,0.002,-0.088,-1.7933436832823695,-0.004970045294612646,2.863399028778076,-1.0339984893798828,-5.436658102553338e-05,1.993586778640747,3.512197180385254,0.0013485612580552697,0.2629694640636444,-1.458733860646383,-2.7596583969282864e-29,-0.07607210427522659,1.078431487083435,0.0,-0.009016996249556541,1.137752652168274,0.046713605523109436,0.31848669052124023
183.0,246.0,6.1346,-3.6562,5.8732,0.0261,0.002,-0.088,-1.793391843835348,-0.003973929211497307,2.885570764541626,-1.0340505838394165,-4.8506353778066114e-05,1.9736831188201904,3.512197180385254,0.002444511977955699,0.25379645824432373,-1.458750073109762,-5.01554327643588e-34,-0.08393879979848862,1.0784316062927246,0.0,-0.004233258776366711,1.138132095336914,0.04431958869099617,0.31926608085632324
183.0,246.0,6.1346,-3.6562,5.8732,0.0261,0.002,-0.088,-1.7934485874571742,-0.0032623594161123037,2.864230155944824,-1.0340386629104614,-2.2475314835901372e-05,2.029934883117676,3.512204809779785,0.003519943682476878,0.25509053468704224,-1.4587577025042933,7.102848030626774e-05,-0.07680674642324448,1.078403115272522,0.0,-0.023475047200918198,1.138439416885376,0.044786542654037476,0.3129356801509857
183.0,246.0,6.1346,-3.6562,5.8732,0.0261,0.002,-0.088,-1.7935048542418421,-0.002678799210116267,2.8630645275115967,-1.0340222120285034,-2.0404211682034656e-05,2.016484260559082,3.5123211580463867,0.005627989768981934,0.2756289541721344,-1.4587858358966272,9.197414328809828e-05,-0.0718190148472786,1.0783673524856567,0.0,-0.02734575979411602,1.1387823820114136,0.04990602284669876,0.268846333026886
183.0,246.0,6.1346,-3.6562,5.8732,0.0261,0.002,-0.088,-1.7935086689391078,-0.002050581155344844,2.8627076148986816,-1.0340304374694824,-1.8707676645135507e-05,2.0655136108398438,3.5122644144245605,0.007793865632265806,0.2651427984237671,-1.458761994038717,0.00012123882333980873,-0.06567004323005676,1.078391194343567,0.0,-0.03629526495933533,1.139225721359253,0.057174406945705414,0.30861976742744446
183.0,246.0,6.1346,-3.6562,5.8732,0.0261,0.002,-0.088,-1.7935167751707972,-0.0012980634346604347,2.8842556476593018,-1.0340263843536377,-1.760957093210891e-05,2.015253782272339,3.5123888689228515,0.010092395357787609,0.2786339223384857,-1.458750073109762,0.000314022385282442,-0.05644279345870018,1.0784070491790771,0.0,-0.021196117624640465,1.1395846605300903,0.06357730180025101,0.2810131311416626
183.0,246.0,6.1346,-3.6562,5.8732,0.0261,0.002,-0.088,-1.7935086689391078,-0.0007801129831932485,2.9200804233551025,-1.0340185165405273,-3.56669943579746e-10,2.0556082725524902,3.51249281942334,0.012310398742556572,0.27525198459625244,-1.4587295691119593,0.00036586244823411107,-0.06615317612886429,1.0784149169921875,0.0,-0.030640538781881332,1.1401481628417969,0.06798330694437027,0.25096991658210754
183.0,246.0,6.1346,-3.6562,5.8732,0.0261,0.002,-0.088,-1.7934681377806605,-0.000521617301274091,2.962463140487671,-1.0339704751968384,-1.1555653600361693e-17,2.0306825637817383,3.5125486093708496,0.014152571558952332,0.27431797981262207,-1.4587457815753382,0.0006257493514567614,-0.05303491652011871,1.0783276557922363,0.0,-0.02538483589887619,1.1406583786010742,0.06374403089284897,0.2148866355419159
185.0,253.0,5.2391,-2.1284,6.1825,-0.0221,0.1521,-0.1177,-1.7935406170287074,-0.0004774614644702524,2.9740474224090576,-1.0340542793273926,-2.7905541159078957e-23,2.0774085521698,3.5126325327106933,0.014714213088154793,0.28565871715545654,-1.458721939717428,0.0006255671032704413,-0.0459938570857048,1.0784070491790771,0.0,-0.033316709101200104,1.141061544418335,0.05769611522555351,0.1820869743824005
185.0,253.0,5.2391,-2.1284,6.1825,-0.0221,0.1521,-0.1177,-1.79347624401235,-0.00028731260681524873,2.9703259468078613,-1.0340546369552612,-9.041041144264753e-31,2.0576729774475098,3.512733145351074,0.017507977783679962,0.2756270170211792,-1.4587181250201624,0.0005219252198003232,-0.03626164793968201,1.0782992839813232,0.0,-0.046493470668792725,1.1414684057235718,0.0481480248272419,0.13687455654144287
185.0,253.0,5.2391,-2.1284,6.1825,-0.0221,0.1521,-0.1177,-1.7935286960997523,-0.000338114274200052,2.9598443508148193,-1.0340344905853271,-2.929182664905031e-38,2.0505211353302,3.5129291254230957,0.022174373269081116,0.29782506823539734,-1.4587062040912073,0.0004276386462152004,-0.05590052157640457,1.0783514976501465,0.0,-0.04393954575061798,1.1418555974960327,0.04079020023345947,0.11441737413406372
185.0,253.0,5.2391,-2.1284,6.1825,-0.0221,0.1521,-0.1177,-1.793560644189352,-0.0009066921193152666,3.0350019931793213,-1.0340542793273926,-7.006492321624085e-44,2.0152297019958496,3.513040705318115,0.02866995707154274,0.2968514561653137,-1.4587262312518519,0.0003952732658945024,-0.041400887072086334,1.0783791542053223,0.0,-0.03148924931883812,1.142082929611206,0.03772493824362755,0.12624064087867737
185.0,253.0,5.2391,-2.1284,6.1825,-0.0221,0.1521,-0.1177,-1.7934919796385707,-0.0015483226161450148,2.902669906616211,-1.0340749025344849,-0.0,2.011735439300537,3.5133859354206542,0.04253622144460678,0.29480695724487305,-1.4587181250201624,0.00032091833418235183,-0.04333370551466942,1.0783394575119019,0.0,-0.02799186296761036,1.1423628330230713,0.03367822617292404,0.034776411950588226
185.0,253.0,5.2391,-2.1284,6.1825,-0.0221,0.1521,-0.1177,-1.7935449085631312,-0.0018093601102009416,2.9088821411132812,-1.0339901447296143,-0.0,2.026581287384033,3.5138894754597167,0.07125000655651093,0.30501484870910645,-1.45866567293276,0.0002922861895058304,-0.04360932856798172,1.0783673524856567,0.0,-0.039496950805187225,1.1426255702972412,0.024858469143509865,0.043290190398693085
185.0,253.0,5.2391,-2.1284,6.1825,-0.0221,0.1521,-0.1177,-1.7935525379576625,-0.0017416987102478743,2.858520984649658,-1.0340790748596191,-0.0,1.987485408782959,3.514300985927246,0.08388407528400421,0.3124723434448242,-1.4586980978595179,0.00019924253865610808,-0.031836338341236115,1.078371286392212,0.0,-0.03779059275984764,1.142769455909729,0.01802227459847927,-0.033014409244060516
185.0,253.0,5.2391,-2.1284,6.1825,-0.0221,0.1521,-0.1177,-1.7935720882811488,-0.0031153622549027205,2.9056191444396973,-1.0340185165405273,-0.0,2.010953903198242,3.5150210100361328,0.08549156039953232,0.3136368989944458,-1.4587062040912073,0.00020305004727561027,-0.018768684938549995,1.0783753395080566,0.0,-0.03219936788082123,1.1428089141845703,0.008036020211875439,-0.006594747304916382
185.0,253.0,5.2391,-2.1284,6.1825,-0.0221,0.1521,-0.1177,-1.7936693630614222,-0.005218481179326773,2.8230953216552734,-1.0340386629104614,-0.0,2.0027854442596436,3.5156723695942382,0.06853654235601425,0.3085464835166931,-1.458681885396139,0.00020591709471773356,-0.02188447117805481,1.0784069299697876,0.0,-0.021951666101813316,1.1429091691970825,0.001988587900996208,-0.06242486089468002
185.0,253.0,5.2391,-2.1284,6.1825,-0.0221,0.1521,-0.1177,-1.7936531505980433,-0.007323248777538538,2.8753504753112793,-1.0340148210525513,-0.0,1.9992833137512207,3.515988512630127,0.047750648111104965,0.29468834400177,-1.4587181250201624,0.00018752808682620525,-0.021802254021167755,1.0783592462539673,0.0,-0.033646002411842346,1.1428569555282593,0.0005179226864129305,0.024715818464756012
185.0,253.0,5.2391,-2.1284,6.1825,-0.0221,0.1521,-0.1177,-1.7937289677061976,-0.0068865129724144936,2.8357105255126953,-1.0340065956115723,-0.0,2.0180983543395996,3.5162722307392578,0.02802840620279312,0.2865197956562042,-1.4587262312518519,0.00016757423873059452,-0.02197616547346115,1.078383207321167,0.0,-0.020512348040938377,1.1428532600402832,-0.0010736811673268676,-0.02049800008535385
185.0,253.0,5.2391,-2.1284,6.1825,-0.0221,0.1521,-0.1177,-1.793737073937887,-0.0059207831509411335,2.8356969356536865,-1.0340346097946167,-0.0,1.9720072746276855,3.516528292293213,0.022883160039782524,0.28160014748573303,-1.4586337248431605,0.00015145870565902442,-0.0257812961935997,1.0783514976501465,0.0,-0.013082629069685936,1.1428295373916626,-0.0027500202413648367,-0.04203156754374504
185.0,253.0,5.2391,-2.1284,6.1825,-0.0221,0.1521,-0.1177,-1.7937647304930628,-0.004916087258607149,2.864413261413574,-1.0340181589126587,-0.0,1.9579136371612549,3.516620321864746,0.025596192106604576,0.27445855736732483,-1.4586737791644495,0.00016144482651725411,-0.028685815632343292,1.0783554315567017,0.0,-0.029254181310534477,1.142784833908081,-0.0033721544314175844,-0.07950271666049957
194.0,256.0,6.469,-4.3065,4.8718,-0.0646,0.0447,-0.1,-1.793861528436178,-0.005010209511965513,2.8650898933410645,-1.0340665578842163,-0.0,2.0243282318115234,3.516820116634033,0.03804953396320343,0.29104846715927124,-1.4586179892169397,0.0001481610961491242,-0.03946453705430031,1.078363060951233,0.0,-0.02341599576175213,1.142769455909729,-0.003888980019837618,-0.07996030151844025
194.0,256.0,6.469,-4.3065,4.8718,-0.0646,0.0447,-0.1,-1.7938572369017542,-0.006806747056543827,2.846339225769043,-1.0340423583984375,-0.0,1.9570980072021484,3.517200155849121,0.0624120831489563,0.2932855188846588,-1.4586737791644495,0.00013949537242297083,-0.02108953520655632,1.0783990621566772,0.0,-0.017232626676559448,1.1427857875823975,-0.0023678322322666645,-0.03984643146395683
194.0,256.0,6.469,-4.3065,4.8718,-0.0646,0.0447,-0.1,-1.793896814385885,-0.009332865476608276,2.7987890243530273,-1.0339980125427246,-9.867130575003102e-05,1.9727716445922852,3.517688437099121,0.0813157930970192,0.3003979027271271,-1.4586780706988733,0.0001276378461625427,-0.01831556111574173,1.0784028768539429,0.0,-0.029357921332120895,1.1427333354949951,-0.001561327837407589,-0.030930977314710617
194.0,256.0,6.469,-4.3065,4.8718,-0.0646,0.0447,-0.1,-1.7939850292601527,-0.013494094833731651,2.7612857818603516,-1.0340666770935059,-8.105877350317314e-05,1.939435601234436,3.5183684068867187,0.08574473857879639,0.3051869571208954,-1.4586618582354944,0.00013754412066191435,-0.01605817675590515,1.0783950090408325,0.0,-0.02640558034181595,1.1426972150802612,-0.0009226953843608499,-0.06121378391981125
194.0,256.0,6.469,-4.3065,4.8718,-0.0646,0.0447,-0.1,-1.794105669061178,-0.015385485254228115,2.7721457481384277,-1.0340304374694824,-4.790662160303327e-07,1.9426791667938232,3.5191003519245605,0.08081819862127304,0.30198514461517334,-1.4586942831622522,0.0001248368207598105,-0.018114985898137093,1.0784070491790771,0.0,-0.0327715240418911,1.1427414417266846,-0.0006884113536216319,-0.05418466776609421
194.0,256.0,6.469,-4.3065,4.8718,-0.0646,0.0447,-0.1,-1.7942458591856898,-0.01581491343677044,2.7064285278320312,-1.034066915512085,-1.1568884955917569e-12,1.8963730335235596,3.519580526942871,0.07706958800554276,0.28963905572891235,-1.4586780706988733,0.0001167401424027048,-0.013274995610117912,1.0783430337905884,0.0,-0.03511125221848488,1.1427050828933716,-0.000693823560141027,-0.08706122636795044
194.0,256.0,6.469,-4.3065,4.8718,-0.0646,0.0447,-0.1,-1.7943297825255335,-0.015279196202754974,2.74307918548584,-1.0339581966400146,-3.74817184415371e-20,1.938899278640747,3.52024428426709,0.08687931299209595,0.299604207277298,-1.458738152180807,0.00010744843893917277,0.00544363260269165,1.0783791542053223,0.0,-0.03595477342605591,1.1427254676818848,-0.0008460563840344548,-0.04694855213165283
194.0,256.0,6.469,-4.3065,4.8718,-0.0646,0.0447,-0.1,-1.7944303951659144,-0.015816034749150276,2.7261886596679688,-1.0340025424957275,-1.214360170804881e-27,1.9178451299667358,3.5209571558186035,0.10612721741199493,0.30929914116859436,-1.4586499373065394,9.952678374247625e-05,-0.008949324488639832,1.078383207321167,0.0,-0.020960168913006783,1.1427013874053955,-0.000569033611100167,-0.07720069587230682
194.0,256.0,6.469,-4.3065,4.8718,-0.0646,0.0447,-0.1,-1.7945300541319789,-0.018868286162614822,2.7262496948242188,-1.0340107679367065,-2.9325369810650544e-33,1.929308533668518,3.521632357234619,0.11300027370452881,0.3100508749485016,-1.45864183107485,9.431188664166257e-05,-0.021290555596351624,1.078347086906433,0.0,-0.026811640709638596,1.142669439315796,-0.00041247846093028784,-0.08464685082435608
194.0,256.0,6.469,-4.3065,4.8718,-0.0646,0.0447,-0.1,-1.7947551212706507,-0.025219278410077095,2.647202730178833,-1.033974528312683,-9.501083847815125e-41,1.9301648139953613,3.5224920946308593,0.09627247601747513,0.2967737317085266,-1.45866567293276,8.815344335744157e-05,-0.006800265051424503,1.078371286392212,0.0,-0.03099057450890541,1.1426973342895508,-0.0003621464129537344,-0.08153918385505676
194.0,256.0,6.469,-4.3065,4.8718,-0.0646,0.0447,-0.1,-1.7949029407896937,-0.031714946031570435,2.6355390548706055,-1.034022569656372,-0.0,1.8645302057266235,3.52309958517041,0.05786420404911041,0.2717974781990051,-1.4586823622332972,9.653748566051945e-05,0.0014064982533454895,1.0783872604370117,0.0,-0.031737737357616425,1.1426693201065063,-0.0003970829420723021,-0.07932251691818237
194.0,256.0,6.469,-4.3065,4.8718,-0.0646,0.0447,-0.1,-1.7951389751830042,-0.033867839723825455,2.6455812454223633,-1.0340065956115723,-0.0,1.8844209909439087,3.5234476762958984,0.03958926722407341,0.2727747857570648,-1.4587062040912073,9.22983672353439e-05,-0.010690640658140182,1.0783065557479858,0.0,-0.04120469093322754,1.1426935195922852,-0.0008844270487315953,-0.08779151737689972
186.0,257.0,4.41,-2.6818,6.8321,-0.0179,0.038,-0.1399,-1.795403619805807,-0.03434394299983978,2.6015477180480957,-1.0340065956115723,-0.0,1.8905296325683594,3.523695631618164,0.03135053068399429,0.2513919472694397,-1.4587181250201624,8.718892786419019e-05,-0.016557693481445312,1.0783910751342773,0.0,-0.03504892438650131,1.1426854133605957,-0.0016316812252625823,-0.11389000713825226
186.0,257.0,4.41,-2.6818,6.8321,-0.0179,0.038,-0.1399,-1.7957002125182093,-0.034389082342386246,2.6363372802734375,-1.0340625047683716,-0.0,1.8622876405715942,3.523862524623535,0.033985696732997894,0.25890541076660156,-1.4586699644671839,8.261555194621906e-05,-0.012898622080683708,1.0783474445343018,0.0,-0.03950868546962738,1.1426374912261963,-0.0016163866966962814,-0.08997991681098938
186.0,257.0,4.41,-2.6818,6.8321,-0.0179,0.038,-0.1399,-1.7958957157530726,-0.03708761930465698,2.5761756896972656,-1.0340267419815063,-0.0,1.8655591011047363,3.5240909296223144,0.039609309285879135,0.27375084161758423,-1.45866567293276,7.94883890193887e-05,-0.010734458453953266,1.0784074068069458,0.0,-0.04040373116731644,1.1426653861999512,-0.0014287822414189577,-0.08962228149175644
186.0,257.0,4.41,-2.6818,6.8321,-0.0179,0.038,-0.1399,-1.7962690792479457,-0.04520225152373314,2.5831592082977295,-1.0340546369552612,-0.0,1.8745062351226807,3.524418993587158,0.04706452041864395,0.257111132144928,-1.4586980978595179,8.370047726202756e-05,-0.00490217749029398,1.0783754587173462,0.0,-0.036149125546216965,1.1426334381103516,-0.0010925891110673547,-0.17149865627288818
186.0,257.0,4.41,-2.6818,6.8321,-0.0179,0.038,-0.1399,-1.7966491184630335,-0.05438223481178284,2.47993540763855,-1.0340707302093506,-0.0006149710970930755,1.83669114112854,3.5248071390339355,0.041641801595687866,0.26182830333709717,-1.4586737791644495,8.251506369560957e-05,-0.009057752788066864,1.078395128250122,0.0,-0.03851684182882309,1.1426293849945068,-0.000959712837357074,-0.12804317474365234
186.0,257.0,4.41,-2.6818,6.8321,-0.0179,0.038,-0.1399,-1.7970143757262171,-0.062479518353939056,2.504230499267578,-1.0340542793273926,-0.0005347432452253997,1.7979276180267334,3.5250794130512695,0.03157365322113037,0.25408774614334106,-1.4586456457721155,7.489927520509809e-05,0.0017198108835145831,1.0783065557479858,0.0,-0.04134557768702507,1.1426293849945068,-0.001139691798016429,-0.1808914840221405
186.0,257.0,4.41,-2.6818,6.8321,-0.0179,0.038,-0.1399,-1.7974750004210414,-0.07314282655715942,2.462925434112549,-1.0340102910995483,-0.00018360218382440507,1.8292652368545532,3.5252343851276855,0.019467880949378014,0.2508654296398163,-1.4586575667010706,7.022023783065379e-05,-0.010114145465195179,1.0783753395080566,0.0,-0.04761270433664322,1.1426293849945068,-0.0021410693880170584,-0.1569330394268036
186.0,257.0,4.41,-2.6818,6.8321,-0.0179,0.038,-0.1399,-1.7980476818480433,-0.07288867980241776,2.4268527030944824,-1.0339704751968384,-7.83458017394878e-06,1.8214068412780762,3.525407000178955,0.00973481871187687,0.22545605897903442,-1.4586775938617151,7.931312575237826e-05,0.0005264510400593281,1.0783350467681885,0.0,-0.047588519752025604,1.1425938606262207,-0.0025166284758597612,-0.13685205578804016
186.0,257.0,4.41,-2.6818,6.8321,-0.0179,0.038,-0.1399,-1.798532625237936,-0.07412335276603699,2.411068916320801,-1.033994197845459,-1.891958811839345e-11,1.851530909538269,3.5254222589680175,0.004208005499094725,0.22588540613651276,-1.4586380163775843,7.596633076900616e-05,0.0023784141521900892,1.0783390998840332,0.0,-0.04732080176472664,1.1426020860671997,-0.002235204679891467,-0.1960849165916443
186.0,257.0,4.41,-2.6818,6.8321,-0.0179,0.038,-0.1399,-1.7991415462889613,-0.07930415868759155,2.44787859916687,-1.0340021848678589,-6.129705607050571e-19,1.7884976863861084,3.5254670816608886,0.000649822351988405,0.22913676500320435,-1.4586618582354944,7.191931217676029e-05,-0.002938472433015704,1.0783393383026123,0.0,-0.0496060773730278,1.1425738334655762,-0.0011621322482824326,-0.194758802652359
186.0,257.0,4.41,-2.6818,6.8321,-0.0179,0.038,-0.1399,-1.7998463116087855,-0.08788847178220749,2.472391128540039,-1.0340139865875244,-1.9859468518349998e-26,1.7732574939727783,3.525430842036865,0.00011651220120256767,0.21729975938796997,-1.4586618582354944,6.828174809925258e-05,0.008252112194895744,1.0783474445343018,0.0,-0.043304692953825,1.1425657272338867,-0.0006242303061299026,-0.18246373534202576
186.0,257.0,4.41,-2.6818,6.8321,-0.0179,0.038,-0.1399,-1.8003150425352992,-0.09761041402816772,2.4130465984344482,-1.0340428352355957,-4.795827402890863e-32,1.804409384727478,3.5253864961811523,4.1478378420833906e-07,0.23078015446662903,-1.45864183107485,6.578622560482472e-05,0.011008399538695812,1.0783474445343018,0.0,-0.04884616285562515,1.1425738334655762,-0.00046343173016794026,-0.19454580545425415
186.0,257.0,4.41,-2.6818,6.8321,-0.0179,0.038,-0.1399,-1.8011003933348597,-0.10134191066026688,2.393217086791992,-1.0340505838394165,-1.5537863619141793e-39,1.739917278289795,3.525378389949463,7.538489797676018e-12,0.21669095754623413,-1.45866567293276,6.272942846408114e-05,-0.002930491929873824,1.0783185958862305,0.0,-0.054439984261989594,1.1425377130508423,-0.00044007657561451197,-0.12361069023609161
182.0,244.0,7.0845,-4.4333,5.2834,-0.1026,-0.1553,-0.1425,-1.8019129238524378,-0.09897802025079727,2.4138569831848145,-1.0340341329574585,-0.0,1.7943050861358643,3.52539507925,1.3700832037221193e-16,0.2169974446296692,-1.45866567293276,5.994405728415586e-05,0.006069042719900608,1.0783593654632568,0.0,-0.06078988313674927,1.1425817012786865,-0.00034493135171942413,-0.19878724217414856
182.0,244.0,7.0845,-4.4333,5.2834,-0.1026,-0.1553,-0.1425,-1.8024941883482875,-0.1028677225112915,2.3825132846832275,-1.0340831279754639,-0.0,1.7190653085708618,3.525378389949463,3.8136774400845207e-20,0.22012659907341003,-1.4586499373065394,6.493913673466523e-08,0.0019263466820120811,1.0783557891845703,0.0,-0.06294817477464676,1.1425573825836182,-0.0009116844739764929,-0.2155434638261795
182.0,244.0,7.0845,-4.4333,5.2834,-0.1026,-0.1553,-0.1425,-1.8033677540221156,-0.11383569240570068,2.389552354812622,-1.0339901447296143,-0.0,1.7540885210037231,3.525390787715576,6.931168571543376e-25,0.2026340663433075,-1.4586899916278284,1.1802367893762322e-12,-0.0007191778859123588,1.07838773727417,0.0,-0.05034041777253151,1.1425418853759766,-0.000760800379794091,-0.2025175839662552
182.0,244.0,7.0845,-4.4333,5.2834,-0.1026,-0.1553,-0.1425,-1.8042813740172328,-0.12029118090867996,2.374877691268921,-1.0340386629104614,-0.0,1.7719910144805908,3.5253864961811523,-0.00010891537385759875,0.21570846438407898,-1.4586899916278284,2.1450220997237274e-17,0.004032239783555269,1.0783836841583252,0.0,-0.05145658552646637,1.1425697803497314,-0.0005950966151431203,-0.2269270122051239
182.0,244.0,7.0845,-4.4333,5.2834,-0.1026,-0.1553,-0.1425,-1.804958005944723,-0.11601445823907852,2.4345290660858154,-1.0340065956115723,-0.0,1.77885103225708,3.525434656734131,-4.459404954104684e-05,0.2158653885126114,-1.458653752003805,5.970747181153308e-21,-0.002864465117454529,1.07832670211792,0.0,-0.051892295479774475,1.1425780057907104,-0.0005216804565861821,-0.19806984066963196
182.0,244.0,7.0845,-4.4333,5.2834,-0.1026,-0.1553,-0.1425,-1.80592741588735,-0.11002244055271149,2.43619966506958,-1.0340065956115723,-0.0,1.8092403411865234,3.5254432398029785,-3.019966277051367e-09,0.2168705314397812,-1.458653752003805,1.0851539797341128e-25,-0.0013327195774763823,1.0783677101135254,0.0,-0.06082728132605553,1.1424776315689087,-0.00039188365917652845,-0.2251955270767212
182.0,244.0,7.0845,-4.4333,5.2834,-0.1026,-0.1553,-0.1425,-1.8067885837950648,-0.10488446801900864,2.5130112171173096,-1.0340148210525513,-0.0,1.8592243194580078,3.5254790025898437,0.001119509688578546,0.21563775837421417,-1.4586699644671839,1.9722135768378684e-30,-0.0054508959874510765,1.0783147811889648,0.0,-0.054017841815948486,1.1425938606262207,-0.00018743134569376707,-0.17301204800605774
182.0,244.0,7.0845,-4.4333,5.2834,-0.1026,-0.1553,-0.1425,-1.8074656925597132,-0.1115349531173706,2.4687747955322266,-1.0340381860733032,-0.00026725235511548817,1.835789442062378,3.525434656734131,0.0009806586895138025,0.2314070761203766,-1.4586737791644495,5.489730350717898e-34,-0.004002406261861324,1.0783717632293701,0.0,-0.04804077744483948,1.142589807510376,-1.732117380015552e-05,-0.17085520923137665
182.0,244.0,7.0845,-4.4333,5.2834,-0.1026,-0.1553,-0.1425,-1.8084355793394984,-0.12585031986236572,2.514697790145874,-1.0340102910995483,-0.0002814125909935683,1.79852294921875,3.5254670816608886,0.0006182087236084044,0.23760448396205902,-1.4587062040912073,9.977312328318985e-39,-0.010733269155025482,1.078379511833191,0.0,-0.05762913078069687,1.1426098346710205,-5.611839118402351e-13,-0.18809738755226135
182.0,244.0,7.0845,-4.4333,5.2834,-0.1026,-0.1553,-0.1425,-1.80920471767568,-0.13417257368564606,2.5236334800720215,-1.0340588092803955,-1.3605480489786714e-05,1.8460936546325684,3.5254828172871093,0.0005433519836515188,0.23825198411941528,-1.4586380163775843,2.7773735562917874e-42,-0.010877054184675217,1.078343391418457,0.0,-0.044886063784360886,1.142598032951355,-1.3551929518076236e-18,-0.16333365440368652
182.0,244.0,7.0845,-4.4333,5.2834,-0.1026,-0.1553,-0.1425,-1.8102942905821742,-0.13938549160957336,2.562046527862549,-1.0339630842208862,0.0018171248957514763,1.8626320362091064,3.5254785257526855,0.001896512694656849,0.22292932868003845,-1.458681885396139,0.0,-0.0017459257505834103,1.0782827138900757,0.0,-0.0676426887512207,1.1425615549087524,-4.390652811486796e-26,-0.17540623247623444
182.0,244.0,7.0845,-4.4333,5.2834,-0.1026,-0.1553,-0.1425,-1.8113438091673792,-0.12842516601085663,2.5700254440307617,-1.0339186191558838,0.00469025457277894,1.8985679149627686,3.525599642390869,0.006248620338737965,0.24483270943164825,-1.4587019125567835,0.0,0.006569668650627136,1.07832670211792,0.0,-0.05123954266309738,1.1425939798355103,-1.4225154887689677e-33,-0.1590823531150818
168.0,249.0,8.2929,-4.6337,5.1882,-0.1179,-0.1865,-0.1298,-1.8121687374510707,-0.11411729454994202,2.5885796546936035,-1.0339350700378418,0.004696662072092295,1.8649226427078247,3.525599165553711,0.009771621786057949,0.27245932817459106,-1.458710018788473,0.0,-0.009779159910976887,1.0783307552337646,0.0,-0.06590170413255692,1.1425538063049316,-3.4352075151752155e-39,-0.11604322493076324
168.0,249.0,8.2929,-4.6337,5.1882,-0.1179,-0.1865,-0.1298,-1.8131419620909632,-0.11558602750301361,2.649003505706787,-1.0339186191558838,0.0015366210136562586,1.9131410121917725,3.525702639217041,0.013502676039934158,0.26237720251083374,-1.4586575667010706,0.0,-0.0017760037444531918,1.0783112049102783,-1.0504154213109018e-09,-0.06722158938646317,1.142601728439331,-0.0,-0.14621436595916748
168.0,249.0,8.2929,-4.6337,5.1882,-0.1179,-0.1865,-0.1298,-1.8141633472838343,-0.1337071657180786,2.665315628051758,-1.0339548587799072,-0.0035438062623143196,1.8916139602661133,3.5257221895405273,0.011918412521481514,0.2575376033782959,-1.4586942831622522,0.0,-0.0018942209426313639,1.0782992839813232,-1.909077754279169e-14,-0.06361641734838486,1.1425857543945312,0.00012123952910769731,-0.160491943359375
168.0,249.0,8.2929,-4.6337,5.1882,-0.1179,-0.1865,-0.1298,-1.815033575097555,-0.14849989116191864,2.63458251953125,-1.0339341163635254,-0.0019172332249581814,1.891003966331482,3.5257741647907714,0.008147618733346462,0.2643030881881714,-1.4586737791644495,0.0,-0.017895953729748726,1.07832670211792,-5.31398816682388e-18,-0.061494410037994385,1.142541527748108,0.00010728895722422749,-0.126930832862854
168.0,249.0,8.2929,-4.6337,5.1882,-0.1179,-0.1865,-0.1298,-1.8161989651122035,-0.15533050894737244,2.6524853706359863,-1.0339186191558838,0.003936826717108488,1.9650485515594482,3.5258781152912597,0.004471283406019211,0.27971625328063965,-1.4586942831622522,0.0,-0.018388528376817703,1.078355312347412,-9.657911728827944e-23,-0.07864805310964584,1.1426020860671997,0.00011278471356490627,-0.1438751220703125
168.0,249.0,8.2929,-4.6337,5.1882,-0.1179,-0.1865,-0.1298,-1.8173562488951625,-0.1319337636232376,2.626082420349121,-1.0338263511657715,0.010093741118907928,1.927506923675537,3.5258986192890625,0.00795939564704895,0.26735758781433105,-1.4587138334857386,0.0,-0.024432718753814697,1.0783474445343018,-1.755277721653955e-27,-0.06976015865802765,1.1425538063049316,3.658376357407178e-08,-0.11973735690116882
168.0,249.0,8.2929,-4.6337,5.1882,-0.1179,-0.1865,-0.1298,-1.8181854687132777,-0.1181832104921341,2.6505322456359863,-1.0337145328521729,0.010548283345997334,1.9803447723388672,3.5260307031818847,0.014317503198981285,0.28068047761917114,-1.4586861769305628,0.0,-0.012367951683700085,1.0783071517944336,-4.885879732893374e-31,-0.08490701019763947,1.1425615549087524,8.834547541225132e-14,-0.08830344676971436
168.0,249.0,8.2929,-4.6337,5.1882,-0.1179,-0.1865,-0.1298,-1.8192187748351039,-0.1195734515786171,2.6983249187469482,-1.033754825592041,0.004557302221655846,1.9719849824905396,3.5261704164692382,0.021189741790294647,0.2839827239513397,-1.458710018788473,0.0,-0.02035386487841606,1.078359842300415,-8.879843890286134e-36,-0.08407878130674362,1.142621397972107,2.862280795155024e-21,-0.12219052016735077
168.0,249.0,8.2929,-4.6337,5.1882,-0.1179,-0.1865,-0.1298,-1.8202206097044886,-0.13509531319141388,2.673689365386963,-1.033754825592041,-0.004100893624126911,1.9572107791900635,3.5263020235249023,0.02341976761817932,0.27797064185142517,-1.4586699644671839,0.0,-0.00905631948262453,1.0783432722091675,-1.6138614283782486e-40,-0.06865145266056061,1.1425695419311523,9.273426710156778e-29,-0.13323861360549927
168.0,249.0,8.2929,-4.6337,5.1882,-0.1179,-0.1865,-0.1298,-1.820993562737936,-0.1513439118862152,2.7217869758605957,-1.0338029861450195,-0.003565039951354265,1.9264154434204102,3.5264507967182617,0.02391378954052925,0.2717227339744568,-1.4587181250201624,0.0,-0.013433299958705902,1.0783350467681885,-4.484155085839415e-44,-0.07973344624042511,1.1426132917404175,0.0006703549297526479,-0.12070788443088531
168.0,249.0,8.2929,-4.6337,5.1882,-0.1179,-0.1865,-0.1298,-1.8221193752684535,-0.14748665690422058,2.685086250305176,-1.0337153673171997,0.0044530415907502174,1.9701480865478516,3.526646776790283,0.025382179766893387,0.28946614265441895,-1.458681885396139,0.0,-0.024450071156024933,1.0782873630523682,-0.00012660289939958602,-0.10251769423484802,1.1426092386245728,0.00033630096004344523,-0.10850322246551514
168.0,249.0,8.2929,-4.6337,5.1882,-0.1179,-0.1865,-0.1298,-1.823184152642721,-0.12332145869731903,2.70774507522583,-1.033626914024353,0.010197479277849197,1.9849789142608643,3.526946707362793,0.04183291271328926,0.2824433445930481,-1.4587181250201624,0.0,-0.02620507776737213,1.0783189535140991,-0.00011380318028386682,-0.09355087578296661,1.1426057815551758,0.00018353897030465305,-0.08250810205936432
168.0,249.0,8.2929,-4.6337,5.1882,-0.1179,-0.1865,-0.1298,-1.8239013157286585,-0.1080392524600029,2.7131776809692383,-1.033647894859314,0.011904912069439888,1.993697166442871,3.527299090022705,0.06513147801160812,0.29917794466018677,-1.4586980978595179,0.0,-0.013500343076884747,1.0782955884933472,-0.0001373245904687792,-0.09309451282024384,1.1426537036895752,0.0001524450781289488,-0.08900236338376999
160.0,234.0,7.6433,-4.6301,5.3611,-0.0234,0.0457,-0.0722,-1.8248912296690882,-0.10914456844329834,2.692934989929199,-1.0335476398468018,0.005893298890441656,2.03827166557312,3.527890368098877,0.10703760385513306,0.3170209527015686,-1.4586980978595179,0.0,-0.01887430250644684,1.0783112049102783,-0.0001534074399387464,-0.10137531161308289,1.1426255702972412,9.098245209315792e-05,-0.14966636896133423
160.0,234.0,7.6433,-4.6301,5.3611,-0.0234,0.0457,-0.0722,-1.82584871868276,-0.1250610202550888,2.7480084896087646,-1.0335915088653564,-0.004165413323789835,1.9036136865615845,3.528935595149658,0.1327151656150818,0.3448250889778137,-1.45864183107485,0.0,-0.019521357491612434,1.0783554315567017,-0.00023167805920820683,-0.09863103926181793,1.1426374912261963,0.00017412204761058092,-0.05613269656896591
160.0,234.0,7.6433,-4.6301,5.3611,-0.0234,0.0457,-0.0722,-1.8265253506102503,-0.134662926197052,2.691422939300537,-1.03361177444458,-0.0036948027554899454,1.9530370235443115,3.529791994685791,0.1285928189754486,0.35021644830703735,-1.4587262312518519,0.0,-0.01190298330038786,1.0782997608184814,-0.00021143435151316226,-0.1068829596042633,1.1426252126693726,0.00015342779806815088,-0.10283999145030975
160.0,234.0,7.6433,-4.6301,5.3611,-0.0234,0.0457,-0.0722,-1.8274990520873011,-0.12542186677455902,2.6796107292175293,-1.0335310697555542,0.003029664745554328,1.9521026611328125,3.530731363887451,0.12724807858467102,0.3226161599159241,-1.4587181250201624,0.0,-0.021061334758996964,1.0782392024993896,-0.000177980080479756,-0.09962406754493713,1.1426297426223755,9.876681724563241e-05,-0.09900091588497162
160.0,234.0,7.6433,-4.6301,5.3611,-0.0234,0.0457,-0.0722,-1.8284040890135707,-0.11173927038908005,2.6929450035095215,-1.0335122346878052,0.005871704313904047,2.0400390625,3.5319439607807617,0.16126255691051483,0.32892125844955444,-1.4586980978595179,0.0,-0.028135260567069054,1.078255295753479,-0.00021105576888658106,-0.11562737822532654,1.14264976978302,8.581195288570598e-05,-0.09962084889411926
160.0,234.0,7.6433,-4.6301,5.3611,-0.0234,0.0457,-0.0722,-1.8290287456908167,-0.10580994188785553,2.6681582927703857,-1.0334761142730713,0.0047726137563586235,1.948843002319336,3.5329715448566894,0.17241540551185608,0.36670583486557007,-1.4587019125567835,0.0,-0.0009070929372683167,1.0782593488693237,-0.00022113548766355962,-0.11742958426475525,1.1426092386245728,7.834214193280786e-05,-0.12541912496089935
160.0,234.0,7.6433,-4.6301,5.3611,-0.0234,0.0457,-0.0722,-1.8299304447569789,-0.10139353573322296,2.717411994934082,-1.0335040092468262,0.0028591498266905546,1.9662420749664307,3.5344034868427734,0.18675385415554047,0.3456992506980896,-1.4586780706988733,0.0,-0.01109094638377428,1.0782954692840576,-0.00024277377815451473,-0.11258818209171295,1.1426538228988647,0.00018851060303859413,-0.19132661819458008
160.0,234.0,7.6433,-4.6301,5.3611,-0.0234,0.0457,-0.0722,-1.8306991062560023,-0.1048508808016777,2.7329511642456055,-1.0335406064987183,8.202105527743697e-05,1.947002649307251,3.536055727595947,0.21592682600021362,0.3740898072719574,-1.4586618582354944,0.0,-0.014560138806700706,1.0782759189605713,-0.00023965243599377573,-0.12146364897489548,1.142661213874817,0.0010028991382569075,-0.12407789379358292
160.0,234.0,7.6433,-4.6301,5.3611,-0.0234,0.0457,-0.0722,-1.8313328228392542,-0.1067180410027504,2.6802103519439697,-1.033491611480713,1.980711983318173e-10,1.9476470947265625,3.537327452296875,0.20812594890594482,0.36808300018310547,-1.4586742560016077,0.0,-0.0206266138702631,1.0782427787780762,-0.00021149867097847164,-0.10811717063188553,1.1426373720169067,0.0019005656940862536,-0.1190328299999237
160.0,234.0,7.6433,-4.6301,5.3611,-0.0234,0.0457,-0.0722,-1.8321296177306117,-0.10597877949476242,2.692521572113037,-1.0334677696228027,-2.5225742774637183e-06,1.9509986639022827,3.5391194063374023,0.24028192460536957,0.38543689250946045,-1.4587019125567835,0.0,-0.01350206695497036,1.0782594680786133,-0.00018284798716194928,-0.11317808926105499,1.1426734924316406,0.0017337206518277526,-0.12440475821495056
160.0,234.0,7.6433,-4.6301,5.3611,-0.0234,0.0457,-0.0722,-1.8329464397826136,-0.09469891339540482,2.645413398742676,-1.0334155559539795,-8.172818975402119e-14,1.9085216522216797,3.5410987573811035,0.2525380551815033,0.3749058246612549,-1.4587138334857386,0.0,-0.014994132332503796,1.0782873630523682,-0.00018784208805300295,-0.1151549220085144,1.1427013874053955,0.0015161954797804356,-0.10404027253389359
160.0,234.0,7.6433,-4.6301,5.3611,-0.0234,0.0457,-0.0722,-1.8334270916380824,-0.08648330718278885,2.661317825317383,-1.0334316492080688,-1.97363949986657e-19,1.921771764755249,3.542726679439209,0.27634990215301514,0.39156484603881836,-1.4586823622332972,0.0,-0.01166597194969654,1.0782268047332764,-0.00017244479386135936,-0.11244550347328186,1.1426734924316406,0.0015134307323023677,-0.1371212750673294
155.0,221.0,6.6197,-3.9649,4.9854,0.0333,0.1917,-0.0808,-1.8341523609557093,-0.08772778511047363,2.6948370933532715,-1.033488392829895,-6.3943404825603155e-27,1.946570873260498,3.5449063020893554,0.2715834677219391,0.3940631151199341,-1.4586823622332972,0.0,-0.011268152855336666,1.078230857849121,-0.00015542596520390362,-0.1271815001964569,1.1426771879196167,0.0015157543821260333,-0.1384352594614029
155.0,221.0,6.6197,-3.9649,4.9854,0.0333,0.1917,-0.0808,-1.83482088665151,-0.0962354838848114,2.640244722366333,-1.0334599018096924,-2.0716848154044684e-34,1.9469996690750122,3.5471340852924804,0.2837297022342682,0.39273762702941895,-1.4587138334857386,0.0,-0.00014551798813045025,1.0782026052474976,-0.00016167406283784658,-0.11575888097286224,1.1427414417266846,0.001997930696234107,-0.11740294843912125
155.0,221.0,6.6197,-3.9649,4.9854,0.0333,0.1917,-0.0808,-1.8354259930052699,-0.10126304626464844,2.6099138259887695,-1.033496618270874,0.00016328756464645267,1.911226749420166,3.54886977254834,0.2957600951194763,0.3962560296058655,-1.4586699644671839,0.0,-0.021701602265238762,1.0783157348632812,-0.00014406019181478769,-0.11605049669742584,1.1427414417266846,0.0018535035196691751,-0.08855190873146057
155.0,221.0,6.6197,-3.9649,4.9854,0.0333,0.1917,-0.0808,-1.8361431560912074,-0.09485314041376114,2.6378321647644043,-1.0334237813949585,0.00026423714007250965,1.9019417762756348,3.551313562984131,0.2963210642337799,0.3789770305156708,-1.4587181250201624,0.0,-0.006889234762638807,1.0782794952392578,-0.00015314760094042867,-0.13573101162910461,1.1427652835845947,0.0012925966875627637,-0.14814609289169312
155.0,221.0,6.6197,-3.9649,4.9854,0.0333,0.1917,-0.0808,-1.8368998966612757,-0.0856836810708046,2.6173291206359863,-1.0335488319396973,0.0008721553022041917,1.880678415298462,3.5538412767597656,0.30984610319137573,0.39910298585891724,-1.4586861769305628,0.0,-0.010751718655228615,1.078275442123413,-0.00017744004435371608,-0.12650929391384125,1.1427935361862183,0.0007720867288298905,-0.1970897763967514
155.0,221.0,6.6197,-3.9649,4.9854,0.0333,0.1917,-0.0808,-1.8373829327025355,-0.08113051950931549,2.603273868560791,-1.033488392829895,0.0008103803847916424,1.8445663452148438,3.555661364192627,0.3140915334224701,0.39550474286079407,-1.4587300459491175,0.0,-0.017068516463041306,1.078222632408142,-0.00035779058816842735,-0.12663158774375916,1.1427570581436157,0.0004456235037650913,-0.13000215590000153
155.0,221.0,6.6197,-3.9649,4.9854,0.0333,0.1917,-0.0808,-1.8381267986693324,-0.0807727575302124,2.554264545440674,-1.0334800481796265,6.977483621994907e-07,1.868282675743103,3.558156653041504,0.3031248450279236,0.37383127212524414,-1.4587181250201624,0.0,-0.025941573083400726,1.0782551765441895,-0.0003822276194114238,-0.12629225850105286,1.142789363861084,0.0007376238354481757,-0.12925806641578674
155.0,221.0,6.6197,-3.9649,4.9854,0.0333,0.1917,-0.0808,-1.8388225040831507,-0.09330292791128159,2.5076005458831787,-1.033508062362671,-0.001344666932709515,1.8450205326080322,3.56055657445874,0.3093707859516144,0.3855762481689453,-1.4586699644671839,0.0,-0.006914043799042702,1.0781947374343872,-0.000354874151526019,-0.13380290567874908,1.1427849531173706,0.0015425959136337042,-0.13199999928474426
155.0,221.0,6.6197,-3.9649,4.9854,0.0333,0.1917,-0.0808,-1.8394109211363734,-0.10091761499643326,2.4970109462738037,-1.0334759950637817,-0.000930990616325289,1.837850570678711,3.5622994142719726,0.301814466714859,0.3709962069988251,-1.4587181250201624,0.0,-0.017455052584409714,1.0782071352005005,-0.0003714890917763114,-0.13197852671146393,1.1428295373916626,0.0018113916739821434,-0.1024913638830185
155.0,221.0,6.6197,-3.9649,4.9854,0.0333,0.1917,-0.0808,-1.8401504955687464,-0.10881779342889786,2.451627492904663,-1.0334320068359375,-8.685311314593491e-08,1.760322093963623,3.564671679134033,0.27636241912841797,0.35187122225761414,-1.4586942831622522,0.0,-0.009640708565711975,1.0781828165054321,-0.0003622344811446965,-0.13255780935287476,1.142801284790039,0.0011213404359295964,-0.11875879764556885
155.0,221.0,6.6197,-3.9649,4.9854,0.0333,0.1917,-0.0808,-1.8410173855223597,-0.109188511967659,2.4473392963409424,-1.033400297164917,0.004609407391399145,1.8184633255004883,3.566750689143799,0.25969961285591125,0.35198652744293213,-1.4587062040912073,0.0,-0.01427096500992775,1.0781792402267456,-0.0003851270885206759,-0.13496385514736176,1.1428049802780151,0.0007145805284380913,-0.12676970660686493
155.0,221.0,6.6197,-3.9649,4.9854,0.0333,0.1917,-0.0808,-1.8416692219176234,-0.10378559678792953,2.427730083465576,-1.033340334892273,0.0062899221666157246,1.77288818359375,3.568206472987793,0.23471078276634216,0.33653900027275085,-1.4586942831622522,0.0,-0.017002761363983154,1.078223466873169,-0.0004515585897024721,-0.13565759360790253,1.1428132057189941,0.0005331074935384095,-0.0662793517112732
155.0,221.0,6.6197,-3.9649,4.9854,0.0333,0.1917,-0.0808,-1.8425127468504847,-0.09523933380842209,2.3920538425445557,-1.0333044528961182,0.006712452974170446,1.8025153875350952,3.569990320796631,0.22559326887130737,0.330345094203949,-1.458710018788473,0.0,-0.013046566396951675,1.0781997442245483,-0.001810115179978311,-0.15104928612709045,1.1428049802780151,0.0003515176649671048,-0.0998171716928482
149.0,206.0,5.2546,-2.464,7.2724,-0.0237,-0.0625,-0.1481,-1.8433639011778773,-0.09119869768619537,2.417534112930298,-1.0332523584365845,0.0020847818814218044,1.7911357879638672,3.5716020303913574,0.17727665603160858,0.31260985136032104,-1.4587138334857386,0.0,-0.016006475314497948,1.078150987625122,-0.007154087070375681,-0.1362558901309967,1.1428332328796387,0.0008674266282469034,-0.0768159031867981
149.0,206.0,5.2546,-2.464,7.2724,-0.0237,-0.0625,-0.1481,-1.843919416467184,-0.09837820380926132,2.412214756011963,-1.0333000421524048,-0.0030944582540541887,1.750861644744873,3.5725204187580566,0.1587773710489273,0.29141202569007874,-1.4586823622332972,0.0,-0.01433362066745758,1.0781556367874146,-0.018318552523851395,-0.16300177574157715,1.142784833908081,0.0016861348412930965,-0.11597207188606262
149.0,206.0,5.2546,-2.464,7.2724,-0.0237,-0.0625,-0.1481,-1.8448149166502894,-0.11621171236038208,2.375936985015869,-1.033380389213562,-0.0035830794367939234,1.757371187210083,3.5736185747333984,0.128163680434227,0.2866952419281006,-1.4587138334857386,0.0,-0.03577785938978195,1.0779917240142822,-0.014365524053573608,-0.15934069454669952,1.142877459526062,0.001972327707335353,-0.10225320607423782
149.0,206.0,5.2546,-2.464,7.2724,-0.0237,-0.0625,-0.1481,-1.8457704983153285,-0.1266820877790451,2.380553960800171,-1.0333123207092285,-1.9833996702800505e-05,1.718792200088501,3.5744616228291015,0.07491633296012878,0.2660256624221802,-1.4587062040912073,0.0,-0.015382921323180199,1.077959418296814,-0.004361534025520086,-0.1460634171962738,1.1428409814834595,0.001990341814234853,-0.11386604607105255
149.0,206.0,5.2546,-2.464,7.2724,-0.0237,-0.0625,-0.1481,-1.8464986286559046,-0.12673066556453705,2.3732664585113525,-1.033276081085205,0.007507439702749252,1.7820851802825928,3.5748211580463867,0.04093227908015251,0.22939220070838928,-1.4587138334857386,0.0,-0.015276568941771984,1.0779035091400146,-0.0005826855776831508,-0.10961777716875076,1.142869234085083,0.001731868484057486,-0.09188945591449738
149.0,206.0,5.2546,-2.464,7.2724,-0.0237,-0.0625,-0.1481,-1.847489973107809,-0.11758154630661011,2.408961772918701,-1.0331683158874512,0.012968169525265694,1.7945592403411865,3.575084372157715,0.012619009241461754,0.21996892988681793,-1.4587300459491175,1.968830254384102e-08,-0.022994359955191612,1.0779035091400146,-0.00024821600527502596,-0.14650236070156097,1.1428768634796143,0.0030060873832553625,-0.026302136480808258
