ramyac6/ROB537/final_project/csv/all/good_43.csv
tof_0,tof_1,accelx,accely,accelz,gyrox,gyroy,gyroz,shoulder_lift_joint_position,shoulder_lift_joint_velocity,shoulder_lift_joint_effort,elbow_joint_position,elbow_joint_velocity,elbow_joint_effort,wrist_1_joint_position,wrist_1_joint_velocity,wrist_1_joint_effort,wrist_2_joint_position,wrist_2_joint_velocity,wrist_2_joint_effort,wrist_3_joint_position,wrist_3_joint_velocity,wrist_3_joint_effort,shoulder_pan_joint_position,shoulder_pan_joint_velocity,shoulder_pan_joint_effort
212.0,266.0,0.2847,0.0132,9.5569,-0.0435,0.029,-0.1203,-1.8599487743773402,0.0,3.2556939125061035,-1.7081167697906494,-0.0,2.052828788757324,5.01479788401679,-0.0,0.2938704192638397,-1.5416267553912562,-0.0,-0.033618371933698654,0.581418514251709,-0.0,-0.0012493846006691456,1.0728930234909058,0.0,-0.046533290296792984
212.0,266.0,0.2847,0.0132,9.5569,-0.0435,0.029,-0.1203,-1.8599087200560511,0.0,3.272604465484619,-1.7081127166748047,-0.0,2.0289132595062256,5.014806020050802,-0.0,0.2796361744403839,-1.541602913533346,-0.0,-0.01503400132060051,0.581398606300354,-0.0,0.002959150355309248,1.072868824005127,0.0,0.02792280912399292
212.0,266.0,0.2847,0.0132,9.5569,-0.0435,0.029,-0.1203,-1.8599292240538539,0.0,3.1821095943450928,-1.7080847024917603,-0.0,1.9730079174041748,5.014821994095602,-0.0,0.28929781913757324,-1.54157001176943,-0.0,-0.023563647642731667,0.58137047290802,-0.0,0.0031832903623580933,1.0728447437286377,0.0,-0.00998504925519228
212.0,266.0,0.2847,0.0132,9.5569,-0.0435,0.029,-0.1203,-1.859941144982809,0.0,3.2338016033172607,-1.7081332206726074,-0.0,2.02146053314209,5.0147859928901575,-0.0,0.28680580854415894,-1.5415905157672327,-0.0,-0.01551959291100502,0.5814107060432434,-0.0,-0.0032143599819391966,1.0728930234909058,0.0,0.021861698478460312
212.0,266.0,0.2847,0.0132,9.5569,-0.0435,0.029,-0.1203,-1.8599006138243617,0.0,3.2582483291625977,-1.7081323862075806,-0.0,2.009826898574829,5.014830219536581,-0.0,0.2739201784133911,-1.5415905157672327,-0.0,-0.027453534305095673,0.581354558467865,-0.0,-0.0021743886172771454,1.0728847980499268,0.0,0.036123666912317276
212.0,266.0,0.2847,0.0132,9.5569,-0.0435,0.029,-0.1203,-1.8599173031248988,0.0,3.2708616256713867,-1.7081446647644043,-0.0,2.00516939163208,5.0147979138191126,-0.0,0.27573180198669434,-1.5415781180011194,-0.0,-0.014302775263786316,0.5814265608787537,-0.0,0.001152245793491602,1.0728405714035034,0.0,-0.022081274539232254
212.0,266.0,0.2847,0.0132,9.5569,-0.0435,0.029,-0.1203,-1.8599049053587855,0.0,3.2400150299072266,-1.7081291675567627,-0.0,2.0469584465026855,5.0147859928901575,-0.0,0.28016960620880127,-1.54157001176943,-0.0,-0.017993154004216194,0.581418514251709,-0.0,0.004538491368293762,1.072868824005127,0.0,0.03997456282377243
212.0,266.0,0.2847,0.0132,9.5569,-0.0435,0.029,-0.1203,-1.8598886928954066,0.0,3.2853646278381348,-1.7081527709960938,-0.0,2.0008010864257812,5.014834213047781,-0.0,0.27757900953292847,-1.5415905157672327,-0.0,-0.01579289697110653,0.5814305543899536,-0.0,-0.009732048958539963,1.0728404521942139,0.0,0.011316414922475815
213.0,259.0,0.2889,0.0257,9.542,-0.0331,0.0267,-0.1202,-1.85992493251943,0.0,3.199406147003174,-1.7081372737884521,-0.0,2.0137815475463867,5.0148543296153925,-0.0,0.297671377658844,-1.541602913533346,-0.0,-0.020167117938399315,0.581418514251709,-0.0,-0.003568789456039667,1.0728811025619507,0.0,-0.018691860139369965
213.0,259.0,0.2889,0.0257,9.542,-0.0331,0.0267,-0.1202,-1.859896799127096,0.0,3.2495012283325195,-1.7081446647644043,-0.0,2.0701096057891846,5.01481385806159,-0.0,0.2810700833797455,-1.541558090840475,-0.0,-0.01745784468948841,0.581402599811554,-0.0,0.0001669867488089949,1.072877049446106,0.0,-0.010784207843244076
213.0,259.0,0.2889,0.0257,9.542,-0.0331,0.0267,-0.1202,-1.8599568806090296,0.0,3.265928030014038,-1.7081085443496704,-0.0,2.0318257808685303,5.014830189734258,-0.0,0.2924653887748718,-1.5415542761432093,-0.0,-0.010045149363577366,0.5813986659049988,-0.0,-0.005919497460126877,1.0728528499603271,0.0,-0.029507329687476158
213.0,259.0,0.2889,0.0257,9.542,-0.0331,0.0267,-0.1202,-1.8599492512144984,0.0,3.2896862030029297,-1.7081085443496704,-0.0,1.969338297843933,5.0148179707820795,-0.0,0.2833563983440399,-1.5416181723224085,-0.0,-0.011941689997911453,0.581438422203064,-0.0,0.002473671454936266,1.072877049446106,0.0,-0.013354158028960228
213.0,259.0,0.2889,0.0257,9.542,-0.0331,0.0267,-0.1202,-1.8599330387511195,0.0,3.3066787719726562,-1.7081530094146729,-0.0,1.9935753345489502,5.0148179707820795,-0.0,0.2819656729698181,-1.5415943304644983,-0.0,-0.00801148358732462,0.5813944339752197,-0.0,0.0020194556564092636,1.0728565454483032,0.0,0.01977873034775257
213.0,259.0,0.2889,0.0257,9.542,-0.0331,0.0267,-0.1202,-1.8599211178221644,0.0,3.246758222579956,-1.7081372737884521,-0.0,2.0273308753967285,5.0147979138191126,-0.0,0.28662222623825073,-1.5415619055377405,-0.0,-0.03459915891289711,0.5814383625984192,-0.0,-0.00036943634040653706,1.0728728771209717,0.0,-0.02251780591905117
213.0,259.0,0.2889,0.0257,9.542,-0.0331,0.0267,-0.1202,-1.8599049053587855,0.0,3.203947067260742,-1.7081085443496704,-0.0,2.047274112701416,5.014838295965948,-0.0,0.27521538734436035,-1.5415743033038538,-0.0,-0.03774946928024292,0.5813665986061096,-0.0,-0.006338084582239389,1.072868824005127,0.0,0.04981958493590355
213.0,259.0,0.2889,0.0257,9.542,-0.0331,0.0267,-0.1202,-1.8599573574461878,0.0,3.2356460094451904,-1.7080930471420288,-0.0,1.983371615409851,5.0147496340568445,-0.0,0.2824676036834717,-1.5415743033038538,-0.0,-0.011790411546826363,0.5814065933227539,-0.0,-0.000608038913924247,1.072877049446106,0.0,0.011404911056160927
213.0,259.0,0.2889,0.0257,9.542,-0.0331,0.0267,-0.1202,-1.8599006138243617,0.0,3.265298366546631,-1.7081167697906494,-0.0,2.0189878940582275,5.014830189734258,-0.0,0.28030529618263245,-1.5415380636798304,-0.0,-0.014253637753427029,0.5814105868339539,-0.0,-0.009061673656105995,1.0728847980499268,0.0,0.028713969513773918
213.0,259.0,0.2889,0.0257,9.542,-0.0331,0.0267,-0.1202,-1.8599206409850062,0.0,3.2728428840637207,-1.7081812620162964,-0.0,2.0094470977783203,5.014810043364324,-0.0,0.28960132598876953,-1.5415986219989222,-0.0,-0.008608004078269005,0.5813944339752197,-0.0,-0.006207025609910488,1.0729254484176636,0.0,-0.039341263473033905
213.0,259.0,0.2889,0.0257,9.542,-0.0331,0.0267,-0.1202,-1.8599206409850062,0.0,3.2464280128479004,-1.70814049243927,-0.0,2.039031982421875,5.014806020050802,-0.0,0.275762140750885,-1.5415380636798304,-0.0,0.004485082346946001,0.5814225077629089,-0.0,-0.008908730000257492,1.072824478149414,0.0,0.0025795134715735912
213.0,259.0,0.2889,0.0257,9.542,-0.0331,0.0267,-0.1202,-1.8599173031248988,0.0,3.197538375854492,-1.7080930471420288,-0.0,2.0118982791900635,5.0147979138191126,-0.0,0.27702242136001587,-1.5415743033038538,-0.0,-0.014145703986287117,0.5814146399497986,-0.0,-0.0069248247891664505,1.072868824005127,0.0,0.03534145653247833
213.0,259.0,0.2889,0.0257,9.542,-0.0331,0.0267,-0.1202,-1.8599087200560511,0.0,3.2377474308013916,-1.7081249952316284,-0.0,2.0133261680603027,5.0147979138191126,-0.0,0.28610649704933167,-1.5416143576251429,-0.0,-0.007992105558514595,0.581478476524353,-0.0,-0.0031775441020727158,1.0728647708892822,0.0,0.053178105503320694
213.0,259.0,0.2889,0.0257,9.542,-0.0331,0.0267,-0.1202,-1.8599611721434535,0.0,3.303429126739502,-1.7081414461135864,-0.0,2.010542392730713,5.0148342726524255,-0.0,0.27860087156295776,-1.5416067282306116,-0.0,-0.011011425405740738,0.5814106464385986,-0.0,-0.005613514222204685,1.0728487968444824,0.0,0.01731042191386223
213.0,259.0,0.2889,0.0257,9.542,-0.0331,0.0267,-0.1202,-1.859896799127096,0.0,3.189159631729126,-1.70814049243927,-0.0,2.001307964324951,5.014830189734258,-0.0,0.2844151258468628,-1.5416067282306116,-0.0,-0.015065993182361126,0.5813944339752197,-0.0,0.0055701844394207,1.0728811025619507,0.0,0.011209443211555481
205.0,260.0,0.3182,0.0162,9.6245,-0.0388,0.0186,-0.1155,-1.8598844013609828,0.0,3.251011610031128,-1.7081332206726074,-0.0,2.014331340789795,5.014850246697225,-0.0,0.2785041928291321,-1.5415785948382776,-0.0,-0.021837636828422546,0.5813705325126648,-0.0,0.008823168464004993,1.072868824005127,0.0,0.04172440245747566
205.0,260.0,0.3182,0.0162,9.6245,-0.0388,0.0186,-0.1155,-1.8599611721434535,0.0,3.2678921222686768,-1.7081332206726074,-0.0,1.9759056568145752,5.0147859928901575,-0.0,0.28147703409194946,-1.5415905157672327,-0.0,-0.027431365102529526,0.5813665390014648,-0.0,-0.004836968146264553,1.0728286504745483,0.0,-0.0001977073261514306
205.0,260.0,0.3182,0.0162,9.6245,-0.0388,0.0186,-0.1155,-1.859953065911764,0.0,3.2250823974609375,-1.7081093788146973,-0.0,2.0153427124023438,5.0147979138191126,-0.0,0.27632951736450195,-1.5415905157672327,-0.0,-0.013610346242785454,0.5813785195350647,-0.0,0.0120944082736969,1.0728524923324585,0.0,-0.002235185354948044
205.0,260.0,0.3182,0.0162,9.6245,-0.0388,0.0186,-0.1155,-1.8599292240538539,0.0,3.2615742683410645,-1.7080971002578735,-0.0,2.0251402854919434,5.014817940979757,-0.0,0.2881368100643158,-1.5415499846087855,-0.0,-0.01423985231667757,0.5813944935798645,-0.0,0.0020111468620598316,1.0728728771209717,0.0,0.0019826965872198343
205.0,260.0,0.3182,0.0162,9.6245,-0.0388,0.0186,-0.1155,-1.8599049053587855,0.0,3.197333335876465,-1.7080930471420288,-0.0,1.9884802103042603,5.014794099121847,-0.0,0.27970951795578003,-1.5415461699115198,-0.0,-0.005230144131928682,0.5814265012741089,-0.0,0.0016244224971160293,1.0729458332061768,0.0,-0.028782431036233902
205.0,260.0,0.3182,0.0162,9.6245,-0.0388,0.0186,-0.1155,-1.8599492512144984,0.0,3.219053030014038,-1.7081127166748047,-0.0,2.0313615798950195,5.014817940979757,-0.0,0.2906392216682434,-1.5416224638568323,-0.0,-0.012201070785522461,0.581418514251709,-0.0,0.002437771763652563,1.0728565454483032,0.0,-0.013830967247486115
205.0,260.0,0.3182,0.0162,9.6245,-0.0388,0.0186,-0.1155,-1.859941144982809,0.0,3.2407095432281494,-1.708173394203186,-0.0,1.9815237522125244,5.014830189734258,-0.0,0.28377705812454224,-1.541602913533346,-0.0,-0.008294167928397655,0.5814304947853088,-0.0,0.004026815295219421,1.0728524923324585,0.0,-0.02644781768321991
205.0,260.0,0.3182,0.0162,9.6245,-0.0388,0.0186,-0.1155,-1.8599049053587855,0.0,3.284633159637451,-1.7081652879714966,-0.0,2.034980297088623,5.0147777674491785,-0.0,0.2866583466529846,-1.541558090840475,-0.0,-0.013691945001482964,0.5814265012741089,-0.0,-0.004471936263144016,1.0728447437286377,0.0,0.005808958783745766
205.0,260.0,0.3182,0.0162,9.6245,-0.0388,0.0186,-0.1155,-1.85992493251943,0.0,3.229193687438965,-1.7081291675567627,-0.0,1.9836456775665283,5.0147979138191126,-0.0,0.27903369069099426,-1.5415905157672327,-0.0,-0.01671436056494713,0.581418514251709,-0.0,0.0006497610593214631,1.0728610754013062,0.0,-0.003406932344660163
205.0,260.0,0.3182,0.0162,9.6245,-0.0388,0.0186,-0.1155,-1.8599611721434535,0.0,3.2357397079467773,-1.7081084251403809,-0.0,1.9841437339782715,5.0148097453411005,-0.0,0.2777007818222046,-1.5415862242328089,-0.0,-0.01911529153585434,0.5813825130462646,-0.0,-0.00956182461231947,1.0728728771209717,0.0,0.005846057552844286
205.0,260.0,0.3182,0.0162,9.6245,-0.0388,0.0186,-0.1155,-1.859941144982809,0.0,3.281529188156128,-1.7081612348556519,-0.0,2.0333104133605957,5.014801966934957,-0.0,0.2845628559589386,-1.5416267553912562,-0.0,-0.011394327506422997,0.5814225077629089,-0.0,0.0001733910758048296,1.0728328227996826,0.0,-0.0004367041401565075
205.0,260.0,0.3182,0.0162,9.6245,-0.0388,0.0186,-0.1155,-1.8598886928954066,0.0,3.2551028728485107,-1.7081053256988525,-0.0,2.0665032863616943,5.014813887863912,-0.0,0.28444331884384155,-1.54157001176943,-0.0,-0.013415131717920303,0.5813546776771545,-0.0,-0.005727772600948811,1.0728328227996826,0.0,0.014398355968296528
205.0,260.0,0.3182,0.0162,9.6245,-0.0388,0.0186,-0.1155,-1.8599173031248988,0.0,3.2200610637664795,-1.7081446647644043,-0.0,1.979188084602356,5.01477404215888,-0.0,0.2739284932613373,-1.5415862242328089,-0.0,-0.005841423291712999,0.581418514251709,-0.0,-0.0030897418037056923,1.0728565454483032,0.0,0.01068058144301176
205.0,260.0,0.3182,0.0162,9.6245,-0.0388,0.0186,-0.1155,-1.8599449596800746,0.0,3.2422566413879395,-1.7081973552703857,-0.0,1.9815956354141235,5.014805662422933,-0.0,0.2797941565513611,-1.5415666739093226,-0.0,-0.01710597053170204,0.5813824534416199,-0.0,-0.005405776668339968,1.0729011297225952,0.0,0.014035097323358059
221.0,259.0,0.3272,0.0502,9.4857,-0.0359,0.0223,-0.1121,-1.8599173031248988,0.0,3.247965097427368,-1.7081332206726074,-0.0,1.9831887483596802,5.014805662422933,-0.0,0.2741389274597168,-1.541558090840475,-0.0,-0.014839003793895245,0.5814265012741089,-0.0,-0.0023634531535208225,1.0728528499603271,0.0,-0.002745150588452816
221.0,259.0,0.3272,0.0502,9.4857,-0.0359,0.0223,-0.1121,-1.8599449596800746,0.0,3.2405471801757812,-1.708148717880249,-0.0,2.0578808784484863,5.01478190997199,-0.0,0.2895485758781433,-1.5415342489825647,-0.0,-0.016360556706786156,0.5814023613929749,-0.0,0.010324663482606411,1.0728167295455933,0.0,0.007997031323611736
221.0,259.0,0.3272,0.0502,9.4857,-0.0359,0.0223,-0.1121,-1.8599206409850062,0.0,3.237287998199463,-1.7081570625305176,-0.0,2.038865566253662,5.014813887863912,-0.0,0.2821764051914215,-1.5415623823748987,-0.0,-0.03237021341919899,0.5814463496208191,-0.0,-0.01245272159576416,1.0728003978729248,0.0,0.006149030290544033
221.0,259.0,0.3272,0.0502,9.4857,-0.0359,0.0223,-0.1121,-1.8598886928954066,0.0,3.284115791320801,-1.708080530166626,-0.0,2.0021352767944336,5.01486628034667,-0.0,0.28847432136535645,-1.5415743033038538,-0.0,-0.004870563745498657,0.5813665986061096,-0.0,-0.0072258226573467255,1.0728607177734375,0.0,0.020782776176929474
221.0,259.0,0.3272,0.0502,9.4857,-0.0359,0.0223,-0.1121,-1.85992493251943,0.0,3.2357277870178223,-1.708116888999939,-0.0,2.030888080596924,5.0147979138191126,-0.0,0.27200713753700256,-1.5415943304644983,-0.0,-0.008961189538240433,0.5814065933227539,-0.0,0.0009484258480370045,1.0729135274887085,0.0,-0.02394629828631878
221.0,259.0,0.3272,0.0502,9.4857,-0.0359,0.0223,-0.1121,-1.8599568806090296,0.0,3.2342495918273926,-1.7081454992294312,-0.0,1.9993925094604492,5.014838355570593,-0.0,0.2967066466808319,-1.5415223280536097,-0.0,-0.018491163849830627,0.5814185738563538,-0.0,-0.01684032380580902,1.072885274887085,0.0,-0.039216745644807816
221.0,259.0,0.3272,0.0502,9.4857,-0.0359,0.0223,-0.1121,-1.8598886928954066,0.0,3.25376033782959,-1.7080928087234497,-0.0,2.015420436859131,5.014810073166647,-0.0,0.28149938583374023,-1.54157001176943,-0.0,-0.01189679279923439,0.5814264416694641,-0.0,-0.003421176690608263,1.0728970766067505,0.0,-0.03104305826127529
221.0,259.0,0.3272,0.0502,9.4857,-0.0359,0.0223,-0.1121,-1.8598886928954066,0.0,3.3105087280273438,-1.7081730365753174,-0.0,2.0233395099639893,5.01479788401679,-0.0,0.2829884886741638,-1.5415661970721644,-0.0,-0.011232832446694374,0.5813864469528198,-0.0,-0.003424446564167738,1.0728363990783691,0.0,0.01370953768491745
221.0,259.0,0.3272,0.0502,9.4857,-0.0359,0.0223,-0.1121,-1.859941144982809,0.0,3.2730140686035156,-1.7081332206726074,-0.0,2.011147975921631,5.014753687172689,-0.0,0.29401734471321106,-1.5415986219989222,-0.0,-0.011673476547002792,0.581390380859375,-0.0,0.010576347820460796,1.0728483200073242,0.0,-0.025155548006296158
221.0,259.0,0.3272,0.0502,9.4857,-0.0359,0.0223,-0.1121,-1.8599049053587855,0.0,3.24412202835083,-1.7081735134124756,-0.0,2.006080150604248,5.014774012356558,-0.0,0.2791585922241211,-1.5415943304644983,-0.0,-0.017791539430618286,0.5814065933227539,-0.0,-0.007768728770315647,1.0728811025619507,0.0,0.0023853108286857605
221.0,259.0,0.3272,0.0502,9.4857,-0.0359,0.0223,-0.1121,-1.8599688015379847,0.0,3.2616991996765137,-1.7081527709960938,-0.0,2.0241026878356934,5.014793741493978,-0.0,0.27820074558258057,-1.5416067282306116,-0.0,-0.01477917842566967,0.5814145803451538,-0.0,0.007296850439161062,1.0728607177734375,0.0,0.027853507548570633
221.0,259.0,0.3272,0.0502,9.4857,-0.0359,0.0223,-0.1121,-1.859896799127096,0.0,3.239783525466919,-1.7081012725830078,-0.0,2.071708917617798,5.014813947468557,-0.0,0.29725903272628784,-1.5415943304644983,-0.0,-0.014833807945251465,0.5814145803451538,-0.0,-0.0075632622465491295,1.0728689432144165,0.0,-0.01677190139889717
221.0,259.0,0.3272,0.0502,9.4857,-0.0359,0.0223,-0.1121,-1.8599492512144984,0.0,3.245467185974121,-1.7081167697906494,-0.0,2.001934766769409,5.014805692225256,-0.0,0.28648078441619873,-1.5415785948382776,-0.0,-0.018601080402731895,0.5814264416694641,-0.0,0.003100439440459013,1.0728728771209717,0.0,-0.00041327672079205513
221.0,259.0,0.3272,0.0502,9.4857,-0.0359,0.0223,-0.1121,-1.859964986840719,0.0,3.2806525230407715,-1.7081249952316284,-0.0,1.9672908782958984,5.014809715538778,-0.0,0.28195497393608093,-1.5415423552142542,-0.0,-0.01272435300052166,0.581462562084198,-0.0,-0.00017836643382906914,1.0728607177734375,0.0,-0.0013828007504343987
221.0,259.0,0.3272,0.0502,9.4857,-0.0359,0.0223,-0.1121,-1.85992493251943,0.0,3.295480251312256,-1.7081454992294312,-0.0,2.0134944915771484,5.014790046006002,-0.0,0.2843269109725952,-1.5415943304644983,-0.0,-0.006574722006917,0.5814145803451538,-0.0,0.0004873510915786028,1.0728405714035034,0.0,0.04725562408566475
206.0,259.0,0.2794,0.0239,9.5007,-0.0324,0.022,-0.1202,-1.859941144982809,0.0,3.2642877101898193,-1.7081012725830078,-0.0,2.0313522815704346,5.014809715538778,-0.0,0.27534738183021545,-1.5415905157672327,-0.0,-0.017112266272306442,0.581418514251709,-0.0,0.0050276946276426315,1.0728728771209717,0.0,-0.033723220229148865
206.0,259.0,0.2794,0.0239,9.5007,-0.0324,0.022,-0.1202,-1.8598762951292933,0.0,3.2122864723205566,-1.70814049243927,-0.0,1.983620047569275,5.014813887863912,-0.0,0.29386040568351746,-1.54157001176943,-0.0,-0.012046520598232746,0.5814265012741089,-0.0,-0.01376396045088768,1.07289719581604,0.0,-0.002627583686262369
206.0,259.0,0.2794,0.0239,9.5007,-0.0324,0.022,-0.1202,-1.8599010906615199,0.0,3.274038076400757,-1.7081012725830078,-0.0,2.0441017150878906,5.014785963087835,-0.0,0.2944469153881073,-1.5416110197650355,-0.0,-0.014533309265971184,0.5814106464385986,-0.0,-0.0032263915054500103,1.0728811025619507,0.0,0.005522487219423056
206.0,259.0,0.2794,0.0239,9.5007,-0.0324,0.022,-0.1202,-1.8599292240538539,0.0,3.3088321685791016,-1.708088755607605,-0.0,2.0249295234680176,5.014874028950491,-0.0,0.27897220849990845,-1.5416181723224085,-0.0,-0.01784159243106842,0.5814145803451538,-0.0,0.012856751680374146,1.0728565454483032,0.0,-0.0011974720982834697
206.0,259.0,0.2794,0.0239,9.5007,-0.0324,0.022,-0.1202,-1.8599010906615199,0.0,3.249579429626465,-1.7081525325775146,-0.0,1.9693830013275146,5.0148342726524255,-0.0,0.2729656398296356,-1.5415666739093226,-0.0,-0.017322996631264687,0.5814343690872192,-0.0,0.003926712088286877,1.0728565454483032,0.0,-0.005435158498585224
206.0,259.0,0.2794,0.0239,9.5007,-0.0324,0.022,-0.1202,-1.8599287472166957,0.0,3.262424945831299,-1.7081291675567627,-0.0,2.0027968883514404,5.014846193581381,-0.0,0.2763586938381195,-1.5415905157672327,-0.0,-0.01297312043607235,0.581418514251709,-0.0,-0.0004394946154206991,1.0728447437286377,0.0,-0.01281143631786108
206.0,259.0,0.2794,0.0239,9.5007,-0.0324,0.022,-0.1202,-1.8599049053587855,0.0,3.2496063709259033,-1.7081446647644043,-0.0,2.0466020107269287,5.01479788401679,-0.0,0.2862269878387451,-1.5415380636798304,-0.0,-0.010471196845173836,0.5814343690872192,-0.0,0.007509772665798664,1.0728487968444824,0.0,-0.05327039957046509
206.0,259.0,0.2794,0.0239,9.5007,-0.0324,0.022,-0.1202,-1.8599730930724085,0.0,3.2300240993499756,-1.7081290483474731,-0.0,2.020597457885742,5.01479788401679,-0.0,0.28152281045913696,-1.54157001176943,-0.0,-0.01732870191335678,0.5814304351806641,-0.0,-0.003668941557407379,1.0728447437286377,0.0,0.021749036386609077
206.0,259.0,0.2794,0.0239,9.5007,-0.0324,0.022,-0.1202,-1.859884878198141,0.0,3.2607760429382324,-1.7081093788146973,-0.0,2.0230627059936523,5.014858054905691,-0.0,0.2830144762992859,-1.5416224638568323,-0.0,-0.013463218696415424,0.5814502239227295,-0.0,-0.002909642644226551,1.072824478149414,0.0,-0.0002561798319220543
206.0,259.0,0.2794,0.0239,9.5007,-0.0324,0.022,-0.1202,-1.85992493251943,0.0,3.292304277420044,-1.7081611156463623,-0.0,2.028045654296875,5.01477404215888,-0.0,0.278816819190979,-1.5415661970721644,-0.0,-0.01423138752579689,0.5814145803451538,-0.0,-0.0033663278445601463,1.0728447437286377,0.0,-0.03985005244612694
206.0,259.0,0.2794,0.0239,9.5007,-0.0324,0.022,-0.1202,-1.8599168262877406,0.0,3.168344259262085,-1.7081291675567627,-0.0,2.0075700283050537,5.014826106816091,-0.0,0.2799263298511505,-1.541602913533346,-0.0,-0.01297309435904026,0.5814145803451538,-0.0,-0.005558146629482508,1.0728487968444824,0.0,-0.047530874609947205
206.0,259.0,0.2794,0.0239,9.5007,-0.0324,0.022,-0.1202,-1.8599330387511195,0.0,3.2820470333099365,-1.7081564664840698,-0.0,2.0122058391571045,5.014830219536581,-0.0,0.2745729088783264,-1.5415943304644983,-0.0,-0.009910965338349342,0.5813987255096436,-0.0,-0.006180969066917896,1.0728689432144165,0.0,0.005962257273495197
206.0,259.0,0.2794,0.0239,9.5007,-0.0324,0.022,-0.1202,-1.8599492512144984,0.0,3.2489242553710938,-1.7081407308578491,-0.0,2.005251884460449,5.0148179707820795,-0.0,0.2829969525337219,-1.541602913533346,-0.0,-0.006116468459367752,0.5814026594161987,-0.0,0.0031897686421871185,1.072880744934082,0.0,-0.017707226797938347
206.0,259.0,0.2794,0.0239,9.5007,-0.0324,0.022,-0.1202,-1.8599850140013636,0.0,3.274989366531372,-1.7081292867660522,-0.0,2.012375831604004,5.014809715538778,-0.0,0.2719263434410095,-1.5415862242328089,-0.0,-0.00803659949451685,0.5814026594161987,-0.0,0.0044150520116090775,1.0728607177734375,0.0,0.004366985522210598
206.0,259.0,0.2794,0.0239,9.5007,-0.0324,0.022,-0.1202,-1.859936853448385,0.0,3.2224841117858887,-1.7081769704818726,-0.0,2.040637254714966,5.0148179707820795,-0.0,0.28372922539711,-1.5415986219989222,-0.0,-0.026548398658633232,0.581390380859375,-0.0,-0.0017623621970415115,1.07289719581604,0.0,0.03957599401473999
211.0,261.0,0.2638,0.0042,9.5659,-0.0371,0.0295,-0.1158,-1.8599449596800746,0.0,3.267637252807617,-1.708077073097229,-0.0,2.053286075592041,5.0148179707820795,-0.0,0.29332202672958374,-1.541626278554098,-0.0,-0.0017764416988939047,0.5814343690872192,-0.0,0.010099570266902447,1.0728085041046143,0.0,0.013878931291401386
211.0,261.0,0.2638,0.0042,9.5659,-0.0371,0.0295,-0.1158,-1.8599087200560511,0.0,3.2350893020629883,-1.7081485986709595,-0.0,1.9859998226165771,5.014858054905691,-0.0,0.29493942856788635,-1.5416224638568323,-0.0,-0.014669397845864296,0.5814145803451538,-0.0,0.0036407802253961563,1.072877049446106,0.0,-0.0005165133625268936
211.0,261.0,0.2638,0.0042,9.5659,-0.0371,0.0295,-0.1158,-1.8599449596800746,0.0,3.266829490661621,-1.7081371545791626,-0.0,1.9722317457199097,5.014769959240713,-0.0,0.289767861366272,-1.5415743033038538,-0.0,-0.004134947434067726,0.5813904404640198,-0.0,0.011704225093126297,1.0728811025619507,0.0,0.018079593777656555
211.0,261.0,0.2638,0.0042,9.5659,-0.0371,0.0295,-0.1158,-1.8599492512144984,0.0,3.2233452796936035,-1.7081208229064941,-0.0,2.0397257804870605,5.014822053700247,-0.0,0.29355165362358093,-1.541541878377096,-0.0,-0.028554677963256836,0.5814065933227539,-0.0,0.007757022976875305,1.0728363990783691,0.0,-0.02861136570572853
211.0,261.0,0.2638,0.0042,9.5659,-0.0371,0.0295,-0.1158,-1.859936853448385,0.0,3.2467100620269775,-1.708128809928894,-0.0,2.021982431411743,5.014850276499548,-0.0,0.29346802830696106,-1.5415499846087855,-0.0,-0.013412919826805592,0.5814663767814636,-0.0,-0.0028898809105157852,1.072868824005127,0.0,0.02829606644809246
211.0,261.0,0.2638,0.0042,9.5659,-0.0371,0.0295,-0.1158,-1.8599168262877406,0.0,3.2729835510253906,-1.7081612348556519,-0.0,2.0182878971099854,5.014781880169668,-0.0,0.2873815894126892,-1.5415743033038538,-0.0,0.002743092365562916,0.5813547968864441,-0.0,-0.01274766493588686,1.0728570222854614,0.0,-0.039133574813604355
211.0,261.0,0.2638,0.0042,9.5659,-0.0371,0.0295,-0.1158,-1.8599568806090296,0.0,3.231294631958008,-1.7081650495529175,-0.0,1.9843586683273315,5.014809715538778,-0.0,0.2793707251548767,-1.5415743033038538,-0.0,-0.006360869854688644,0.5813865065574646,-0.0,-0.0059409369714558125,1.0728811025619507,0.0,-0.00435219518840313
211.0,261.0,0.2638,0.0042,9.5659,-0.0371,0.0295,-0.1158,-1.8599449596800746,0.0,3.2889535427093506,-1.7081208229064941,-0.0,1.9979737997055054,5.014862197428503,-0.0,0.28074926137924194,-1.541626278554098,-0.0,-0.012215131893754005,0.5814065933227539,-0.0,0.00562171870842576,1.0728607177734375,0.0,0.005004287231713533
211.0,261.0,0.2638,0.0042,9.5659,-0.0371,0.0295,-0.1158,-1.8598762951292933,0.0,3.2866032123565674,-1.7081570625305176,-0.0,1.9950721263885498,5.014842051058569,-0.0,0.2833302617073059,-1.5415824095355433,-0.0,-0.00900692492723465,0.5814065933227539,-0.0,0.003393083345144987,1.0728647708892822,0.0,0.00445652287453413
211.0,261.0,0.2638,0.0042,9.5659,-0.0371,0.0295,-0.1158,-1.8599325619139613,0.0,3.286236524581909,-1.7081729173660278,-0.0,1.9709148406982422,5.014781880169668,-0.0,0.28626176714897156,-1.5415862242328089,-0.0,-0.02169707790017128,0.581414520740509,-0.0,-0.0001220915000885725,1.0728487968444824,0.0,-0.007340563461184502
211.0,261.0,0.2638,0.0042,9.5659,-0.0371,0.0295,-0.1158,-1.8599006138243617,0.0,3.2440409660339355,-1.7081371545791626,-0.0,2.015608072280884,5.014846193581381,-0.0,0.27852627635002136,-1.541581932698385,-0.0,-0.01786741055548191,0.5813944339752197,-0.0,-0.00762570183724165,1.0728085041046143,0.0,0.020291026681661606
211.0,261.0,0.2638,0.0042,9.5659,-0.0371,0.0295,-0.1158,-1.8599049053587855,0.0,3.2328786849975586,-1.7081292867660522,-0.0,1.9842417240142822,5.014813887863912,-0.0,0.2775280475616455,-1.5415743033038538,-0.0,-0.021191200241446495,0.5814184546470642,-0.0,-0.0022960698697715998,1.0728970766067505,0.0,-0.0023180709686130285
211.0,261.0,0.2638,0.0042,9.5659,-0.0371,0.0295,-0.1158,-1.8599325619139613,0.0,3.229201316833496,-1.7081886529922485,-0.0,2.0500378608703613,5.014806020050802,-0.0,0.2783766984939575,-1.5415862242328089,-0.0,-0.014833597466349602,0.5813508033752441,-0.0,0.004916615318506956,1.0728363990783691,0.0,0.009673685766756535
211.0,261.0,0.2638,0.0042,9.5659,-0.0371,0.0295,-0.1158,-1.859964986840719,0.0,3.2657008171081543,-1.708101511001587,-0.0,2.059886932373047,5.014822083502569,-0.0,0.2718043029308319,-1.5416424910174769,-0.0,-0.010846820659935474,0.5814622044563293,-0.0,0.004537820816040039,1.0728487968444824,0.0,-0.03945675119757652
210.0,260.0,0.256,-0.0173,9.5486,-0.0328,0.0206,-0.1148,-1.8599049053587855,0.0,3.259279251098633,-1.7081208229064941,-0.0,2.049992561340332,5.01478190997199,-0.0,0.2834540009498596,-1.5416067282306116,-0.0,-0.013508847914636135,0.5813785791397095,-0.0,-0.0036840683314949274,1.0728328227996826,0.0,-0.016848785802721977
210.0,260.0,0.256,-0.0173,9.5486,-0.0328,0.0206,-0.1148,-1.8599611721434535,0.0,3.280682325363159,-1.7081208229064941,-0.0,2.038320779800415,5.014785545855322,-0.0,0.2823537290096283,-1.54157001176943,-0.0,-0.02137446030974388,0.5814542174339294,-0.0,0.0033033089712262154,1.0728811025619507,0.0,0.015660017728805542
210.0,260.0,0.256,-0.0173,9.5486,-0.0328,0.0206,-0.1148,-1.8599568806090296,0.0,3.2527449131011963,-1.7081605195999146,-0.0,2.0287704467773438,5.014801966934957,-0.0,0.28758078813552856,-1.5415943304644983,-0.0,-0.013770325109362602,0.5814304351806641,-0.0,-0.004219263792037964,1.0728446245193481,0.0,0.00950716808438301
210.0,260.0,0.256,-0.0173,9.5486,-0.0328,0.0206,-0.1148,-1.8599049053587855,0.0,3.268368721008301,-1.7080975770950317,-0.0,1.991385579109192,5.014850276499548,-0.0,0.2967912256717682,-1.5416110197650355,-0.0,-0.018983641639351845,0.5814304351806641,-0.0,-0.0022570700384676456,1.0728487968444824,0.0,-0.06373503804206848
210.0,260.0,0.256,-0.0173,9.5486,-0.0328,0.0206,-0.1148,-1.8599330387511195,0.0,3.2315855026245117,-1.7080811262130737,-0.0,2.017529010772705,5.01486628034667,-0.0,0.2859688401222229,-1.5415661970721644,-0.0,-0.014308176934719086,0.5813706517219543,-0.0,-0.005506854970008135,1.0728728771209717,0.0,-0.012527596205472946
210.0,260.0,0.256,-0.0173,9.5486,-0.0328,0.0206,-0.1148,-1.859953065911764,0.0,3.2742960453033447,-1.7080975770950317,-0.0,2.013097047805786,5.014769571810522,-0.0,0.2789910137653351,-1.54157001176943,-0.0,-0.009677120484411716,0.5813864469528198,-0.0,-0.014053174294531345,1.0728811025619507,0.0,-0.05397873744368553
210.0,260.0,0.256,-0.0173,9.5486,-0.0328,0.0206,-0.1148,-1.8599168262877406,0.0,3.2430500984191895,-1.7080771923065186,-0.0,1.9840388298034668,5.014822053700247,-0.0,0.28151676058769226,-1.5415743033038538,-0.0,-0.009029294364154339,0.5813902616500854,-0.0,0.014078651554882526,1.072896957397461,0.0,0.0097169429063797
210.0,260.0,0.256,-0.0173,9.5486,-0.0328,0.0206,-0.1148,-1.859913011590475,0.0,3.2203071117401123,-1.7081729173660278,-0.0,1.974949836730957,5.014809715538778,-0.0,0.28099527955055237,-1.5415661970721644,-0.0,-0.01350218616425991,0.5813667178153992,-0.0,-0.001964122988283634,1.0728811025619507,0.0,-0.010433157905936241
210.0,260.0,0.256,-0.0173,9.5486,-0.0328,0.0206,-0.1148,-1.8599325619139613,0.0,3.245919942855835,-1.7081605195999146,-0.0,2.0024290084838867,5.014838355570593,-0.0,0.2842116057872772,-1.5416472593890589,-0.0,-0.017013270407915115,0.5813706517219543,-0.0,0.003334968350827694,1.0728847980499268,0.0,-0.002121806377544999
210.0,260.0,0.256,-0.0173,9.5486,-0.0328,0.0206,-0.1148,-1.8599173031248988,0.0,3.238156795501709,-1.7080612182617188,-0.0,1.99911630153656,5.014830219536581,-0.0,0.27891916036605835,-1.5415862242328089,-0.0,-0.017706746235489845,0.5813706517219543,-0.0,-0.003443571040406823,1.0728447437286377,0.0,0.039214685559272766
210.0,260.0,0.256,-0.0173,9.5486,-0.0328,0.0206,-0.1148,-1.8598724804320277,0.0,3.2332112789154053,-1.7081371545791626,-0.0,2.0247626304626465,5.014806049853124,-0.0,0.28358545899391174,-1.5415661970721644,-0.0,-0.013380203396081924,0.5814145803451538,-0.0,-0.00379091571085155,1.0728970766067505,0.0,0.02438369393348694
210.0,260.0,0.256,-0.0173,9.5486,-0.0328,0.0206,-0.1148,-1.85992493251943,0.0,3.206878662109375,-1.7081406116485596,-0.0,2.006316661834717,5.0148179707820795,-0.0,0.27822819352149963,-1.5415380636798304,-0.0,-0.010257748886942863,0.5813904404640198,-0.0,-0.0052255503833293915,1.072828769683838,0.0,-0.013213224709033966
210.0,260.0,0.256,-0.0173,9.5486,-0.0328,0.0206,-0.1148,-1.8599568806090296,0.0,3.2836742401123047,-1.708108901977539,-0.0,2.0557186603546143,5.014781880169668,-0.0,0.29348933696746826,-1.5416224638568323,-0.0,-0.01668846607208252,0.5814105868339539,-0.0,-0.006205382756888866,1.0728806257247925,0.0,-0.0032143329735845327
210.0,260.0,0.256,-0.0173,9.5486,-0.0328,0.0206,-0.1148,-1.8599292240538539,0.0,3.287288188934326,-1.708105444908142,-0.0,2.021946907043457,5.014806049853124,-0.0,0.28840067982673645,-1.5415905157672327,-0.0,-0.01022523082792759,0.5814103484153748,-0.0,-0.010409361682832241,1.0728487968444824,0.0,-0.03090430051088333
210.0,260.0,0.256,-0.0173,9.5486,-0.0328,0.0206,-0.1148,-1.8599611721434535,0.0,3.2547407150268555,-1.708116888999939,-0.0,2.0036888122558594,5.014757650881567,-0.0,0.285778284072876,-1.541602913533346,-0.0,-0.021814856678247452,0.5813904404640198,-0.0,0.0009564445354044437,1.0728487968444824,0.0,-0.032348595559597015
220.0,261.0,0.2794,0.0287,9.591,-0.0443,0.0214,-0.1252,-1.8599449596800746,0.0,3.271709442138672,-1.7081406116485596,-0.0,2.0375492572784424,5.01479788401679,-0.0,0.2890814244747162,-1.5415666739093226,-0.0,-0.012865841388702393,0.5813862085342407,-0.0,4.624808207154274e-05,1.072828769683838,0.0,-0.003430621698498726
220.0,261.0,0.2794,0.0287,9.591,-0.0443,0.0214,-0.1252,-1.859896799127096,0.0,3.2229700088500977,-1.708105444908142,-0.0,2.040872573852539,5.014809715538778,-0.0,0.29285928606987,-1.541581932698385,-0.0,-0.006666649132966995,0.581402599811554,-0.0,0.0009058812283910811,1.0728607177734375,0.0,-0.046325866132974625
220.0,261.0,0.2794,0.0287,9.591,-0.0443,0.0214,-0.1252,-1.859941144982809,0.0,3.311081647872925,-1.7081410884857178,-0.0,1.9850432872772217,5.014809715538778,-0.0,0.289951890707016,-1.541553799306051,-0.0,-0.008463592268526554,0.581342339515686,-0.0,0.014413625933229923,1.072877049446106,0.0,-0.018358806148171425
220.0,261.0,0.2794,0.0287,9.591,-0.0443,0.0214,-0.1252,-1.8599087200560511,0.0,3.262661933898926,-1.7081611156463623,-0.0,1.9550247192382812,5.014830219536581,-0.0,0.28448423743247986,-1.5415461699115198,-0.0,-0.014326659962534904,0.5814386010169983,-0.0,0.009830704890191555,1.0728281736373901,0.0,0.014422851614654064
220.0,261.0,0.2794,0.0287,9.591,-0.0443,0.0214,-0.1252,-1.85992493251943,0.0,3.3023831844329834,-1.708088994026184,-0.0,2.018068790435791,5.014826077013769,-0.0,0.27921271324157715,-1.5416067282306116,-0.0,-0.014442116022109985,0.581426739692688,-0.0,0.005043623968958855,1.0728363990783691,0.0,0.02868180349469185
220.0,261.0,0.2794,0.0287,9.591,-0.0443,0.0214,-0.1252,-1.859884878198141,0.0,3.218362331390381,-1.7081446647644043,-0.0,2.0291049480438232,5.0148179707820795,-0.0,0.28698232769966125,-1.5415986219989222,-0.0,-0.015025177039206028,0.581418514251709,-0.0,0.0024007607717067003,1.0728607177734375,0.0,0.040263768285512924
220.0,261.0,0.2794,0.0287,9.591,-0.0443,0.0214,-0.1252,-1.8599373302855433,0.0,3.2643351554870605,-1.7081570625305176,-0.0,2.0450427532196045,5.014789598971166,-0.0,0.2881464958190918,-1.5415785948382776,-0.0,-0.014403112232685089,0.5814107060432434,-0.0,-0.009977778419852257,1.0728689432144165,0.0,0.07616962492465973
220.0,261.0,0.2794,0.0287,9.591,-0.0443,0.0214,-0.1252,-1.8599049053587855,0.0,3.2517356872558594,-1.7080975770950317,-0.0,2.007134199142456,5.014813887863912,-0.0,0.27887794375419617,-1.5416067282306116,-0.0,-0.004917226731777191,0.5814709663391113,-0.0,0.0036881850101053715,1.0728970766067505,0.0,-0.0031372392550110817
220.0,261.0,0.2794,0.0287,9.591,-0.0443,0.0214,-0.1252,-1.8599087200560511,0.0,3.2580337524414062,-1.7081485986709595,-0.0,2.0279653072357178,5.014830219536581,-0.0,0.28791967034339905,-1.541602913533346,-0.0,-0.02305184304714203,0.581426739692688,-0.0,-0.011636151932179928,1.0728930234909058,0.0,0.017595896497368813
220.0,261.0,0.2794,0.0287,9.591,-0.0443,0.0214,-0.1252,-1.859913011590475,0.0,3.274751663208008,-1.708085060119629,-0.0,2.0383901596069336,5.014850276499548,-0.0,0.2794625163078308,-1.5415905157672327,-0.0,-0.02324017696082592,0.5813746452331543,-0.0,0.0021183821372687817,1.0728607177734375,0.0,-0.030190017074346542
220.0,261.0,0.2794,0.0287,9.591,-0.0443,0.0214,-0.1252,-1.8599568806090296,0.0,3.315244674682617,-1.708136796951294,-0.0,1.9980236291885376,5.014789628773489,-0.0,0.2827244997024536,-1.5415905157672327,-0.0,-0.01409342885017395,0.5813862085342407,-0.0,0.003386904252693057,1.0728524923324585,0.0,0.01920270547270775
220.0,261.0,0.2794,0.0287,9.591,-0.0443,0.0214,-0.1252,-1.8599611721434535,0.0,3.2565956115722656,-1.7081371545791626,-0.0,2.0177559852600098,5.014813887863912,-0.0,0.2866409420967102,-1.5416067282306116,-0.0,-0.004954769741743803,0.5814025402069092,-0.0,-0.0006124975043348968,1.0728930234909058,0.0,-0.02237304486334324
220.0,261.0,0.2794,0.0287,9.591,-0.0443,0.0214,-0.1252,-1.8599449596800746,0.0,3.244093894958496,-1.7081525325775146,-0.0,2.05104660987854,5.014838355570593,-0.0,0.28153786063194275,-1.541602913533346,-0.0,-0.0035315470304340124,0.5814144611358643,-0.0,-0.004070233087986708,1.072868824005127,0.0,-0.028682919219136238
220.0,261.0,0.2794,0.0287,9.591,-0.0443,0.0214,-0.1252,-1.8599330387511195,0.0,3.2224106788635254,-1.7081371545791626,-0.0,2.054884433746338,5.0147699294383905,-0.0,0.27806732058525085,-1.5415943304644983,-0.0,-0.021806711331009865,0.581418514251709,-0.0,-0.00557990837842226,1.0728447437286377,0.0,-0.03568888083100319
220.0,261.0,0.2794,0.0287,9.591,-0.0443,0.0214,-0.1252,-1.8599168262877406,0.0,3.2976112365722656,-1.7081485986709595,-0.0,2.0135107040405273,5.014821964293279,-0.0,0.27439576387405396,-1.54157001176943,-0.0,-0.01466575637459755,0.5814304351806641,-0.0,-0.0029626674950122833,1.0728405714035034,0.0,-0.015591487288475037
209.0,262.0,0.216,0.0305,9.6497,-0.0341,0.0263,-0.1213,-1.8599010906615199,0.0,3.265773296356201,-1.7081129550933838,-0.0,2.0125999450683594,5.0148101327712915,-0.0,0.28742143511772156,-1.5416143576251429,-0.0,-0.021347101777791977,0.5813902616500854,-0.0,-0.005907896440476179,1.0728970766067505,0.0,-0.012005308642983437
209.0,262.0,0.216,0.0305,9.6497,-0.0341,0.0263,-0.1213,-1.8599449596800746,0.0,3.2840256690979004,-1.7081611156463623,-0.0,2.0586910247802734,5.014822083502569,-0.0,0.27856895327568054,-1.5416143576251429,-0.0,-0.01929934322834015,0.5814225673675537,-0.0,-0.006028044503182173,1.0728487968444824,0.0,0.013828841038048267
209.0,262.0,0.216,0.0305,9.6497,-0.0341,0.0263,-0.1213,-1.8598929844298304,0.0,3.259979248046875,-1.708184838294983,-0.0,2.0360770225524902,5.01479788401679,-0.0,0.2819543182849884,-1.5415862242328089,-0.0,-0.014300811104476452,0.5813784599304199,-0.0,-0.001329453894868493,1.0728647708892822,0.0,-0.03665889799594879
209.0,262.0,0.216,0.0305,9.6497,-0.0341,0.0263,-0.1213,-1.85992493251943,0.0,3.259275436401367,-1.7081129550933838,-0.0,2.0158660411834717,5.014813887863912,-0.0,0.2855633497238159,-1.5415862242328089,-0.0,-0.0021801586262881756,0.5814107656478882,-0.0,0.00936722382903099,1.0729174613952637,0.0,-0.0163258109241724
209.0,262.0,0.216,0.0305,9.6497,-0.0341,0.0263,-0.1213,-1.8599206409850062,0.0,3.2743077278137207,-1.7081525325775146,-0.0,2.074612855911255,5.0148260472114465,-0.0,0.28494569659233093,-1.5415661970721644,-0.0,-0.016095325350761414,0.5814307928085327,-0.0,0.00469879899173975,1.0728607177734375,0.0,-0.02014419622719288
209.0,262.0,0.216,0.0305,9.6497,-0.0341,0.0263,-0.1213,-1.8599330387511195,0.0,3.232830047607422,-1.7081247568130493,-0.0,1.979162573814392,5.014830189734258,-0.0,0.28625547885894775,-1.5415781180011194,-0.0,-0.013339212164282799,0.5814025402069092,-0.0,0.015475383959710598,1.0728728771209717,0.0,-0.02930396795272827
209.0,262.0,0.216,0.0305,9.6497,-0.0341,0.0263,-0.1213,-1.8599087200560511,0.0,3.2293949127197266,-1.7081410884857178,-0.0,2.003632068634033,5.014809715538778,-0.0,0.2756703794002533,-1.5415743033038538,-0.0,-0.002359543228521943,0.5814225673675537,-0.0,0.008459195494651794,1.0728323459625244,0.0,-0.007743434049189091
209.0,262.0,0.216,0.0305,9.6497,-0.0341,0.0263,-0.1213,-1.8599206409850062,0.0,3.224797248840332,-1.7081611156463623,-0.0,2.026233434677124,5.014790075808325,-0.0,0.2860713005065918,-1.541602913533346,-0.0,-0.014310993254184723,0.5813624262809753,-0.0,0.0013248190516605973,1.0728528499603271,0.0,0.03475307673215866
209.0,262.0,0.216,0.0305,9.6497,-0.0341,0.0263,-0.1213,-1.8599449596800746,0.0,3.2361340522766113,-1.7081564664840698,-0.0,2.0343289375305176,5.014805722027578,-0.0,0.28588205575942993,-1.5415619055377405,-0.0,0.003842479083687067,0.5814065933227539,-0.0,0.007128174416720867,1.0728607177734375,0.0,0.0374707467854023
209.0,262.0,0.216,0.0305,9.6497,-0.0341,0.0263,-0.1213,-1.8599173031248988,0.0,3.2196807861328125,-1.7081485986709595,-0.0,2.05422043800354,5.0147979138191126,-0.0,0.28427594900131226,-1.5416181723224085,-0.0,-0.010045633651316166,0.5813502073287964,-0.0,0.0052563403733074665,1.0728930234909058,0.0,0.028373457491397858
209.0,262.0,0.216,0.0305,9.6497,-0.0341,0.0263,-0.1213,-1.8599292240538539,0.0,3.2439422607421875,-1.708136796951294,-0.0,2.0178678035736084,5.01481385806159,-0.0,0.2781694531440735,-1.5415986219989222,-0.0,-0.01437847688794136,0.5813661813735962,-0.0,-0.004811862949281931,1.0728607177734375,0.0,0.006500770803540945
209.0,262.0,0.216,0.0305,9.6497,-0.0341,0.0263,-0.1213,-1.8599292240538539,0.0,3.2509098052978516,-1.7081564664840698,-0.0,2.0045535564422607,5.014801966934957,-0.0,0.288114994764328,-1.5415862242328089,-0.0,-0.0061602420173585415,0.5814147591590881,-0.0,-0.002320334780961275,1.0728365182876587,0.0,0.07387623190879822
209.0,262.0,0.216,0.0305,9.6497,-0.0341,0.0263,-0.1213,-1.8599168262877406,0.0,3.2248454093933105,-1.7081406116485596,-0.0,1.9927713871002197,5.01483832576827,-0.0,0.2867427170276642,-1.5415905157672327,-0.0,-0.015437940135598183,0.581418514251709,-0.0,-0.01119028776884079,1.0728405714035034,0.0,0.018356628715991974
209.0,262.0,0.216,0.0305,9.6497,-0.0341,0.0263,-0.1213,-1.8599487743773402,0.0,3.2182674407958984,-1.7081564664840698,-0.0,1.988050103187561,5.014813887863912,-0.0,0.28273165225982666,-1.5415375868426722,-0.0,-0.017258290201425552,0.5814427733421326,-0.0,0.009351636283099651,1.0728487968444824,0.0,0.002313345903530717
207.0,264.0,0.2357,0.4265,9.5498,-0.0173,0.0212,-0.148,-1.8598562679686488,0.0,3.256896495819092,-1.7080811262130737,-0.0,2.001582145690918,5.01479788401679,-0.0,0.28131788969039917,-1.5416067282306116,-0.0,-0.018916485831141472,0.5813542604446411,-0.0,0.0076445117592811584,1.072877049446106,0.0,0.015853971242904663
207.0,264.0,0.2357,0.4265,9.5498,-0.0173,0.0212,-0.148,-1.8599049053587855,0.0,3.2168126106262207,-1.7081371545791626,-0.0,2.0509722232818604,5.01481385806159,-0.0,0.2977186143398285,-1.5416305700885218,-0.0,-0.0124707892537117,0.5814066529273987,-0.0,0.024152111262083054,1.0728405714035034,0.0,-0.007582727819681168
207.0,264.0,0.2357,0.4265,9.5498,-0.0173,0.0212,-0.148,-1.859913011590475,0.0,3.2055225372314453,-1.7081332206726074,-0.0,2.0181081295013428,5.01479788401679,-0.0,0.28075093030929565,-1.5415986219989222,-0.0,-0.009876842610538006,0.581418514251709,-0.0,0.012797541916370392,1.0728528499603271,0.0,-0.016237273812294006
207.0,264.0,0.2357,0.4265,9.5498,-0.0173,0.0212,-0.148,-1.8599330387511195,0.0,3.246091365814209,-1.7081650495529175,-0.0,2.0026638507843018,5.014842051058569,-0.0,0.27754223346710205,-1.5415986219989222,-0.0,-0.014753089286386967,0.5813820958137512,-0.0,0.005602038465440273,1.072896957397461,0.0,-0.029020491987466812
207.0,264.0,0.2357,0.4265,9.5498,-0.0173,0.0212,-0.148,-1.8599568806090296,0.0,3.238156318664551,-1.7081208229064941,-0.0,2.0542006492614746,5.014794128924169,-0.0,0.28744828701019287,-1.541610066090719,-0.0,-0.01174536906182766,0.5814065933227539,-0.0,-0.008183322846889496,1.0728487968444824,0.0,0.004912103526294231
207.0,264.0,0.2357,0.4265,9.5498,-0.0173,0.0212,-0.148,-1.8599010906615199,0.0,3.228383779525757,-1.7081605195999146,-0.0,2.0234298706054688,5.014853971987524,-0.0,0.29214197397232056,-1.5415781180011194,-0.0,-0.026628678664565086,0.5814144611358643,-0.0,-0.0006661321967840195,1.0728646516799927,0.0,0.0040795872919261456
207.0,264.0,0.2357,0.4265,9.5498,-0.0173,0.0212,-0.148,-1.859896799127096,0.0,3.265974760055542,-1.7081650495529175,-0.0,2.0450823307037354,5.014849889069357,-0.0,0.28594541549682617,-1.541581932698385,-0.0,-0.014267947524785995,0.5814065933227539,-0.0,-0.012940800748765469,1.072868824005127,0.0,-0.0029139043763279915
207.0,264.0,0.2357,0.4265,9.5498,-0.0173,0.0212,-0.148,-1.8598886928954066,0.0,3.2538533210754395,-1.7081371545791626,-0.0,2.0380516052246094,5.014846193581381,-0.0,0.2855927646160126,-1.5416067282306116,-0.0,-0.005843522027134895,0.581418514251709,-0.0,-0.0009553971467539668,1.0728728771209717,0.0,0.025159727782011032
207.0,264.0,0.2357,0.4265,9.5498,-0.0173,0.0212,-0.148,-1.859941144982809,0.0,3.259596586227417,-1.7081485986709595,-0.0,1.9840888977050781,5.0148260472114465,-0.0,0.2795921564102173,-1.5415986219989222,-0.0,-0.015223486348986626,0.5813862085342407,-0.0,0.003317426424473524,1.0728447437286377,0.0,0.014868095517158508
207.0,264.0,0.2357,0.4265,9.5498,-0.0173,0.0212,-0.148,-1.8599087200560511,0.0,3.2428345680236816,-1.7081727981567383,-0.0,2.0085628032684326,5.014809715538778,-0.0,0.2926088273525238,-1.5416181723224085,-0.0,-0.014631975442171097,0.5813903212547302,-0.0,0.008268025703728199,1.0728405714035034,0.0,0.0007754690013825893
207.0,264.0,0.2357,0.4265,9.5498,-0.0173,0.0212,-0.148,-1.85992493251943,0.0,3.2707366943359375,-1.7081327438354492,-0.0,2.0154638290405273,5.014813887863912,-0.0,0.2894633412361145,-1.5415986219989222,-0.0,-0.0070919073186814785,0.5813985466957092,-0.0,-0.00027559377485886216,1.0728888511657715,0.0,0.04612501710653305
207.0,264.0,0.2357,0.4265,9.5498,-0.0173,0.0212,-0.148,-1.8599449596800746,0.0,3.263766288757324,-1.7081371545791626,-0.0,2.0047266483306885,5.014757650881567,-0.0,0.2853772044181824,-1.5416305700885218,-0.0,-0.01400047168135643,0.5814225673675537,-0.0,-0.01076788641512394,1.0728524923324585,0.0,0.013616744428873062
207.0,264.0,0.2357,0.4265,9.5498,-0.0173,0.0212,-0.148,-1.8599373302855433,0.0,3.229527473449707,-1.7081729173660278,-0.0,2.009979248046875,5.014821964293279,-0.0,0.27973121404647827,-1.5415905157672327,-0.0,-0.020695623010396957,0.581402599811554,-0.0,-0.009263929910957813,1.072917103767395,0.0,0.011707458645105362
207.0,264.0,0.2357,0.4265,9.5498,-0.0173,0.0212,-0.148,-1.8598929844298304,0.0,3.2618250846862793,-1.7081485986709595,-0.0,2.045912027359009,5.014817881375112,-0.0,0.2818298935890198,-1.5415619055377405,-0.0,-0.021123841404914856,0.5813701748847961,-0.0,0.008878881111741066,1.0729172229766846,0.0,-0.016629254445433617
207.0,264.0,0.2357,0.4265,9.5498,-0.0173,0.0212,-0.148,-1.8598724804320277,0.0,3.2315189838409424,-1.7081564664840698,-0.0,2.0004515647888184,5.014793741493978,-0.0,0.28839972615242004,-1.5416305700885218,-0.0,-0.0150823425501585,0.5813984870910645,-0.0,0.013351185247302055,1.0729129314422607,0.0,0.004336767829954624
204.0,264.0,0.1633,-0.1759,9.7226,-0.0414,0.0382,-0.1361,-1.8598844013609828,0.0,3.250277042388916,-1.708088994026184,-0.0,2.03495454788208,5.014785575657644,-0.0,0.28867632150650024,-1.5416224638568323,-0.0,-0.02228831686079502,0.5814267992973328,-0.0,-0.0039152842946350574,1.0729334354400635,0.0,-0.034031059592962265
204.0,264.0,0.1633,-0.1759,9.7226,-0.0414,0.0382,-0.1361,-1.8599134884276332,0.0,3.2472615242004395,-1.7080811262130737,-0.0,2.0228500366210938,5.014813887863912,-0.0,0.28554949164390564,-1.5416505972491663,-0.0,-0.014323759824037552,0.5814344882965088,-0.0,-0.003090022597461939,1.0729047060012817,0.0005204006447456777,-0.0016322927549481392
204.0,264.0,0.1633,-0.1759,9.7226,-0.0414,0.0382,-0.1361,-1.8599168262877406,0.0,3.1862127780914307,-1.708088994026184,-0.0,2.017695188522339,5.014781880169668,-0.0,0.29356878995895386,-1.5416424910174769,-0.0,-0.017925184220075607,0.5814025402069092,-0.0,-0.003710075281560421,1.0729771852493286,0.0026059821248054504,0.0045805880799889565
204.0,264.0,0.1633,-0.1759,9.7226,-0.0414,0.0382,-0.1361,-1.8599173031248988,0.0,3.229630947113037,-1.7080975770950317,-0.0,2.0085666179656982,5.014793741493978,-0.0,0.2890419363975525,-1.5416424910174769,-0.0,-0.01185983419418335,0.5814025402069092,-0.0,0.004199727438390255,1.0729647874832153,0.003226687666028738,0.004751227330416441
204.0,264.0,0.1633,-0.1759,9.7226,-0.0414,0.0382,-0.1361,-1.8599206409850062,0.0,3.284599781036377,-1.7080975770950317,-0.0,2.0591652393341064,5.014781880169668,-0.0,0.28907662630081177,-1.5416343847857874,-0.0,-0.01192160788923502,0.5814346075057983,-0.0,-0.006124562583863735,1.073016881942749,0.002639674348756671,0.02880985662341118
204.0,264.0,0.1633,-0.1759,9.7226,-0.0414,0.0382,-0.1361,-1.8599125347533167,0.0,3.221224308013916,-1.7081564664840698,-0.0,2.0393857955932617,5.014814275294103,-0.0,0.2805197834968567,-1.5416224638568323,-0.0,-0.019815444946289062,0.5814225673675537,-0.0,0.006217724643647671,1.073016881942749,0.0021863647270947695,0.02712951973080635
204.0,264.0,0.1633,-0.1759,9.7226,-0.0414,0.0382,-0.1361,-1.859913011590475,0.0,3.2207281589508057,-1.7080731391906738,-0.0,2.0178942680358887,5.0148179707820795,-0.0,0.2709023058414459,-1.541654411946432,-0.0,-0.010993046686053276,0.5814670324325562,-0.0,-0.000863049877807498,1.0730209350585938,0.002409757114946842,-0.013886649161577225
204.0,264.0,0.1633,-0.1759,9.7226,-0.0414,0.0382,-0.1361,-1.85992493251943,0.0,3.223280429840088,-1.708145022392273,-0.0,1.9228792190551758,5.0148342726524255,-0.0,0.2781986594200134,-1.5415938536273401,-0.0,-0.010189712047576904,0.5813784599304199,-0.0,-0.0018332444597035646,1.0730689764022827,0.003087099175900221,0.020913781598210335
204.0,264.0,0.1633,-0.1759,9.7226,-0.0414,0.0382,-0.1361,-1.859913011590475,0.0,3.207273006439209,-1.7081247568130493,0.00020023909746669233,1.997392177581787,5.014838355570593,-0.0,0.2755797207355499,-1.5416420141803187,-1.1820167600262721e-07,-0.021347198635339737,0.5814144015312195,-2.301593895026599e-06,-0.005923975724726915,1.0731010437011719,0.004202657844871283,0.036872245371341705
204.0,264.0,0.1633,-0.1759,9.7226,-0.0414,0.0382,-0.1361,-1.8599292240538539,0.0,3.239626884460449,-1.7081490755081177,0.00021199803450144827,2.019803285598755,5.0148260472114465,-0.0,0.2666653096675873,-1.5416539351092737,-3.2901872198953797e-11,-0.017082778736948967,0.5814225673675537,-6.406569719175081e-10,-0.005780253559350967,1.073108434677124,0.005842225160449743,0.1207665354013443
204.0,264.0,0.1633,-0.1759,9.7226,-0.0414,0.0382,-0.1361,-1.8599492512144984,0.0,3.2149903774261475,-1.708113431930542,0.00022126871044747531,1.9923841953277588,5.014806020050802,-0.0,0.2656647861003876,-1.5416582266436976,-9.15835654790578e-15,-0.031399041414260864,0.5813862085342407,-1.7832926162229118e-13,0.009072201326489449,1.0731768608093262,0.006821392569690943,0.10615217685699463
204.0,264.0,0.1633,-0.1759,9.7226,-0.0414,0.0382,-0.1361,-1.8599292240538539,0.0,3.1778171062469482,-1.708077073097229,0.00022863829508423805,2.0446577072143555,5.0147979138191126,-0.0,0.2705850303173065,-1.5416539351092737,-2.549262287228187e-18,-0.036866217851638794,0.5813742876052856,-4.963860563349476e-17,0.003462177002802491,1.073148488998413,0.006629631854593754,0.08926410228013992
204.0,264.0,0.1633,-0.1759,9.7226,-0.0414,0.0382,-0.1361,-1.8599006138243617,0.0,3.2096524238586426,-1.7080975770950317,0.00020886461425106972,2.03133487701416,5.0148179707820795,-0.0,0.2571295499801636,-1.5416539351092737,-7.095966663353839e-22,-0.022345654666423798,0.5814308524131775,-1.3817089242766527e-20,0.006390659138560295,1.073241114616394,0.005997256841510534,0.11053428053855896
204.0,264.0,0.1633,-0.1759,9.7226,-0.0414,0.0382,-0.1361,-1.8599292240538539,0.0,3.1854259967803955,-1.708113431930542,0.00019214283383917063,2.0182087421417236,5.014793711691656,-0.0,0.259922057390213,-1.5416539351092737,-1.9751886379805318e-25,-0.03740010783076286,0.5813701748847961,-3.846037700863488e-24,0.0071110837161540985,1.0732324123382568,0.00524243526160717,0.12587684392929077
204.0,264.0,0.1633,-0.1759,9.7226,-0.0414,0.0382,-0.1361,-1.859896799127096,0.0,3.171139717102051,-1.7081371545791626,0.00017790032143238932,2.0366404056549072,5.014806049853124,-0.0,0.25999200344085693,-1.5416582266436976,-5.498009990140574e-29,-0.029643045738339424,0.581394374370575,-1.0705587818737608e-27,0.00867089070379734,1.0732810497283936,0.004542751237750053,0.1662413775920868
208.0,260.0,0.2973,-0.07,9.5157,-0.0283,0.0308,-0.0993,-1.8599325619139613,-2.3913165932754055e-05,3.1258370876312256,-1.708113431930542,0.0001656234380789101,2.0428214073181152,5.014769959240713,-0.0,0.2582368850708008,-1.541593376790182,-1.5303913767620968e-32,-0.03662380576133728,0.5814304351806641,-2.979940010337352e-31,0.023541975766420364,1.0733331441879272,0.0039028802420943975,0.13180941343307495
208.0,260.0,0.2973,-0.07,9.5157,-0.0283,0.0308,-0.0993,-1.8599487743773402,-4.615391299012117e-05,3.1143434047698975,-1.7081491947174072,0.00015493157843593508,2.028899908065796,5.014854359417715,-0.0,0.25137683749198914,-1.5416300932513636,-4.2598999788697374e-36,-0.027854640036821365,0.5814225673675537,-8.294774293559847e-35,0.01573130115866661,1.0733249187469482,0.003333619562909007,0.1249159574508667
208.0,260.0,0.2973,-0.07,9.5157,-0.0283,0.0308,-0.0993,-1.859964986840719,-0.0007333512185141444,3.222161054611206,-1.7081049680709839,0.0001815716823330149,1.992955207824707,5.0148260472114465,-0.0,0.2542482018470764,-1.5416744391070765,-1.1857591423331597e-39,-0.0377916544675827,0.581394374370575,-2.3088808038303857e-38,0.014370361343026161,1.0733331441879272,0.002610623836517334,0.10883203148841858
208.0,260.0,0.2973,-0.07,9.5157,-0.0283,0.0308,-0.0993,-1.859988351861471,-0.0026210700161755085,3.1931049823760986,-1.7080408334732056,0.005195739213377237,1.9888038635253906,5.01486628034667,-0.0,0.2518899142742157,-1.5416582266436976,-3.3070643758065683e-43,-0.02329157665371895,0.581418514251709,-6.426354757393611e-42,0.025597989559173584,1.0733528137207031,0.001421342371031642,0.14394354820251465
208.0,260.0,0.2973,-0.07,9.5157,-0.0283,0.0308,-0.0993,-1.85996737102651,-0.006924282293766737,3.1768550872802734,-1.7079931497573853,0.012501095421612263,2.1014394760131836,5.014793741493978,-0.0,0.25715500116348267,-1.541666332875387,-0.0,-0.03761153295636177,0.5813902616500854,-1.401298464324817e-45,0.012508826330304146,1.0733085870742798,0.0007286477484740317,0.11404629051685333
208.0,260.0,0.2973,-0.07,9.5157,-0.0283,0.0308,-0.0993,-1.8601252041258753,-0.01200637686997652,3.1420321464538574,-1.7079048156738281,0.012813610956072807,2.071288585662842,5.01479788401679,-0.00010874961299123242,0.26183733344078064,-1.5416300932513636,-9.361568800159148e-07,-0.03678188472986221,0.5814423561096191,-0.0,0.0013754331739619374,1.073328971862793,0.0002956322568934411,0.1312159299850464
208.0,260.0,0.2973,-0.07,9.5157,-0.0283,0.0308,-0.0993,-1.8601929150023402,-0.014971251599490643,3.157031536102295,-1.707932710647583,0.006922608707100153,2.0355734825134277,5.014785963087835,-0.0009909202344715595,0.2648143172264099,-1.5416057745562952,-4.529294528765604e-05,-0.028189977630972862,0.5814505219459534,-0.0,0.034803781658411026,1.073349118232727,0.0002924576692748815,0.12541000545024872
208.0,260.0,0.2973,-0.07,9.5157,-0.0283,0.0308,-0.0993,-1.8602801762022914,-0.013186539523303509,3.0924301147460938,-1.7078646421432495,0.0038065332919359207,2.038159132003784,5.014826166420736,-0.0006147369276732206,0.25892773270606995,-1.541666332875387,-4.2125233449041843e-05,-0.027705587446689606,0.5814222693443298,-0.0,-0.0008661807514727116,1.073328971862793,0.00014089903561398387,0.16985473036766052
208.0,260.0,0.2973,-0.07,9.5157,-0.0283,0.0308,-0.0993,-1.8603078327574671,-0.007575402036309242,3.124037027359009,-1.7077687978744507,0.0035165997687727213,2.046030282974243,5.014794128924169,-0.0004333734104875475,0.2625068128108978,-1.5416386763202112,-3.936157008865848e-05,-0.036112457513809204,0.5813984274864197,-0.0,0.013857643119990826,1.07332444190979,0.001219757366925478,0.14285817742347717
208.0,260.0,0.2973,-0.07,9.5157,-0.0283,0.0308,-0.0993,-1.860385080377096,-0.0031779585406184196,3.1195058822631836,-1.7078129053115845,0.002975757233798504,2.0332255363464355,5.014745491534033,-0.00033615255961194634,0.25695621967315674,-1.5416424910174769,-3.6938232369720936e-05,-0.0374523289501667,0.581418514251709,-0.0,0.018285205587744713,1.073368787765503,0.002516763051971793,0.16623876988887787
208.0,260.0,0.2973,-0.07,9.5157,-0.0283,0.0308,-0.0993,-1.8603970013060511,-0.0016962962690740824,3.1172471046447754,-1.7077851295471191,0.0012824099976569414,2.0109589099884033,5.014778125077047,-0.00027457973919808865,0.24671019613742828,-1.5416463057147425,-3.4796004911186174e-05,-0.024861501529812813,0.5814344882965088,-0.0,0.0307915098965168,1.0734047889709473,0.002468651393428445,0.2277384251356125
208.0,260.0,0.2973,-0.07,9.5157,-0.0283,0.0308,-0.0993,-1.8604003391661585,-0.0036458796821534634,3.11763858795166,-1.7077810764312744,0.000690470973495394,1.9755264520645142,5.01477404215888,-0.00027846559532918036,0.24841079115867615,-1.5416343847857874,-3.288863808847964e-05,-0.033785026520490646,0.5815066695213318,-0.0,0.027472980320453644,1.0734007358551025,0.0020424730610102415,0.1760616898536682
208.0,260.0,0.2973,-0.07,9.5157,-0.0283,0.0308,-0.0993,-1.8604971371092738,-0.0068071987479925156,3.104599952697754,-1.707793116569519,0.0005670531536452472,2.048748016357422,5.014826106816091,-0.0002411708701401949,0.24846333265304565,-1.541654411946432,-3.1179522920865566e-05,-0.038748033344745636,0.5814144611358643,-0.0,0.020851286128163338,1.0734007358551025,0.0012915137922391295,0.2044931948184967
208.0,260.0,0.2973,-0.07,9.5157,-0.0283,0.0308,-0.0993,-1.8605371914305628,-0.008938699029386044,3.0934813022613525,-1.7077291011810303,0.0005031292093917727,2.031897783279419,5.014790046006002,-0.00021267026022542268,0.2500149607658386,-1.5416424910174769,-4.420537516125478e-05,-0.035379767417907715,0.5814225673675537,-0.0,0.009009519591927528,1.0733731985092163,0.000799392641056329,0.25145387649536133
208.0,260.0,0.2973,-0.07,9.5157,-0.0283,0.0308,-0.0993,-1.8605929813780726,-0.008701062761247158,3.062645435333252,-1.7077414989471436,0.00040587663534097373,2.049163818359375,5.014786439924993,-0.00019019520550500602,0.23274090886116028,-1.5416625181781214,-4.236596214468591e-05,-0.04585658386349678,0.5814464688301086,-0.0,0.014985276386141777,1.0733567476272583,0.0005788977723568678,0.22903230786323547
221.0,262.0,0.7609,0.0814,9.4116,-0.0173,-0.0312,-0.102,-1.8606039486327113,-0.00802996288985014,3.066793441772461,-1.7077810764312744,0.00038293309626169503,2.0356333255767822,5.014778125077047,-0.00020043064432684332,0.2389371544122696,-1.5416267553912562,-4.046140020363964e-05,-0.04902678728103638,0.5814226269721985,-0.0,0.03068125993013382,1.0734572410583496,0.0004304425383452326,0.26264870166778564
221.0,262.0,0.7609,0.0814,9.4116,-0.0173,-0.0312,-0.102,-1.8606606922545375,-0.00740174250677228,3.0922279357910156,-1.7078208923339844,0.00024380975810345262,2.0465199947357178,5.01479788401679,-0.00018317942158319056,0.23951080441474915,-1.5416463057147425,-3.872060187859461e-05,-0.03550480306148529,0.5814144611358643,-0.0,0.01165599562227726,1.0734089612960815,0.0004231191414874047,0.21337786316871643
221.0,262.0,0.7609,0.0814,9.4116,-0.0173,-0.0312,-0.102,-1.8607198200621546,-0.006837713066488504,3.0342724323272705,-1.7077534198760986,0.0002687622036319226,2.0515336990356445,5.014790046006002,-0.00016409336240030825,0.2358311414718628,-1.5416343847857874,-3.661996015580371e-05,-0.041029371321201324,0.5814344882965088,-0.0,0.02372165583074093,1.0733567476272583,0.0003350843326188624,0.23668831586837769
221.0,262.0,0.7609,0.0814,9.4116,-0.0173,-0.0312,-0.102,-1.86076082805776,-0.006687986198812723,3.0401830673217773,-1.707824945449829,0.00027231196872889996,1.9835853576660156,5.0147414086158655,-0.0001738931896397844,0.23439735174179077,-1.5416267553912562,-3.518820813042112e-05,-0.05048888921737671,0.5814222097396851,-0.0,0.022230245172977448,1.0733649730682373,0.0002130132488673553,0.24181750416755676
221.0,262.0,0.7609,0.0814,9.4116,-0.0173,-0.0312,-0.102,-1.860784193078512,-0.00718351174145937,3.0584020614624023,-1.707801103591919,0.00021399180695880204,2.0277442932128906,5.01480649688796,-0.00010978923091897741,0.2310882806777954,-1.5416424910174769,-3.3864180295495316e-05,-0.04308053106069565,0.5814344882965088,-0.0,0.021668458357453346,1.0733609199523926,7.02788311173208e-05,0.30742332339286804
221.0,262.0,0.7609,0.0814,9.4116,-0.0173,-0.0312,-0.102,-1.8608199558653773,-0.006631805095821619,3.0381500720977783,-1.7078208923339844,0.00019420214812271297,2.0994040966033936,5.014794665365972,-0.0001225914602400735,0.24859663844108582,-1.5416863600360315,-3.263619146309793e-05,-0.039961762726306915,0.581394374370575,-0.0,0.04120100289583206,1.0733445882797241,2.2754229576094076e-06,0.30091482400894165
221.0,262.0,0.7609,0.0814,9.4116,-0.0173,-0.0312,-0.102,-1.8608437977232875,-0.005908265709877014,3.0807390213012695,-1.7078129053115845,0.00017776284948922694,2.0573787689208984,5.014798331051626,-0.00012900852016173303,0.24170474708080292,-1.5416424910174769,-3.149412805214524e-05,-0.052413444966077805,0.581394374370575,-0.0,0.04722016304731369,1.0733368396759033,5.4948784238006976e-12,0.26605069637298584
221.0,262.0,0.7609,0.0814,9.4116,-0.0173,-0.0312,-0.102,-1.860875745812887,-0.005264858715236187,3.089165687561035,-1.7077810764312744,0.00016388938820455223,2.059492588043213,5.014725553780355,-0.00012591744598466903,0.2376394271850586,-1.5416386763202112,1.7237933207070455e-05,-0.04941454902291298,0.5814505219459534,-0.0,0.05100603401660919,1.0734134912490845,1.3269484148426636e-17,0.3393281400203705
221.0,262.0,0.7609,0.0814,9.4116,-0.0173,-0.0312,-0.102,-1.8609286747374476,-0.0036339317448437214,3.0575332641601562,-1.707793116569519,0.00015202496433630586,2.087350368499756,5.0147578594978235,-0.00011879570956807584,0.2457142174243927,-1.5416057745562952,1.639638139749877e-05,-0.0510750338435173,0.5814783573150635,-0.0,0.03711941838264465,1.0733368396759033,3.20442399448922e-23,0.3047529458999634
221.0,262.0,0.7609,0.0814,9.4116,-0.0173,-0.0312,-0.102,-1.8609444103636683,-0.002555247861891985,3.09664249420166,-1.707761287689209,0.00015508239448536187,2.042405843734741,5.014725553780355,-0.00011243506014579907,0.2490735948085785,-1.5416305700885218,1.5546680515399203e-05,-0.050291430205106735,0.581426739692688,-0.0,0.03870667517185211,1.0733368396759033,7.7383064700846e-29,0.2825416028499603
221.0,262.0,0.7609,0.0814,9.4116,-0.0173,-0.0312,-0.102,-1.8609606228270472,-0.0018502966267988086,3.058314323425293,-1.7077810764312744,0.00015176909801084548,2.010066032409668,5.01475008109168,-0.00010672125063138083,0.25459161400794983,-1.5416267553912562,1.4780725905438885e-05,-0.04962974414229393,0.5814304947853088,-0.0,0.03598492592573166,1.0733364820480347,1.868709887001706e-34,0.2444848120212555
221.0,262.0,0.7609,0.0814,9.4116,-0.0173,-0.0312,-0.102,-1.8609968624510707,-0.001432824064977467,3.0742392539978027,-1.7077969312667847,0.00014274245768319815,2.0352001190185547,5.014765965729513,-0.00010155990457860753,0.25113362073898315,-1.5416706244098108,1.408666776114842e-05,-0.04885018244385719,0.5814385414123535,-0.0,0.03432980552315712,1.0733245611190796,4.512713548542354e-40,0.28818777203559875
221.0,262.0,0.7609,0.0814,9.4116,-0.0173,-0.0312,-0.102,-1.8609639606871546,-0.0013549963477998972,3.1200194358825684,-1.7077606916427612,0.00013084297825116664,2.037801742553711,5.014770138054647,-9.68749591265805e-05,0.24647650122642517,-1.5416143576251429,1.345488453807775e-05,-0.03995402902364731,0.5814304351806641,-0.0,0.03720371425151825,1.0733445882797241,1.401298464324817e-45,0.2720187306404114
221.0,262.0,0.7609,0.0814,9.4116,-0.0173,-0.0312,-0.102,-1.8609596691527308,-0.0016031358391046524,3.0722861289978027,-1.707813024520874,0.00011996338434983045,2.0233731269836426,5.014717805176534,-9.260309889214113e-05,0.2583995461463928,-1.541581932698385,1.2877335393568501e-05,-0.04597214609384537,0.5814381837844849,-0.0,0.03619232028722763,1.07342529296875,0.0,0.23237654566764832
204.0,263.0,0.1741,-0.1926,9.5252,-0.0136,0.0241,-0.1136,-1.8609920940794886,-0.0019404141930863261,3.155590534210205,-1.707776665687561,0.00014790314889978617,2.0190885066986084,5.014802473574438,-8.869202429195866e-05,0.2573185861110687,-1.5416224638568323,1.234733372257324e-05,-0.05691613629460335,0.5815107822418213,-0.0,0.04621385037899017,1.0734130144119263,0.0,0.21180590987205505
204.0,263.0,0.1741,-0.1926,9.5252,-0.0136,0.0241,-0.1136,-1.8609758816161097,-0.0025159025099128485,3.081840991973877,-1.7077534198760986,0.00016546013648621738,2.062211036682129,5.014766025334158,-8.50980359246023e-05,0.2611631751060486,-1.5416587034808558,1.1859242476930376e-05,-0.05368345230817795,0.5814505219459534,-0.0,0.03780355304479599,1.073437213897705,0.0009357049129903316,0.2796553671360016
204.0,263.0,0.1741,-0.1926,9.5252,-0.0136,0.0241,-0.1136,-1.8610159359373988,-0.003872196190059185,3.114215612411499,-1.7077807188034058,0.0005505033768713474,2.0572354793548584,5.014753806381979,-8.178396092262119e-05,0.25882384181022644,-1.5416343847857874,1.1408263162593357e-05,-0.050136469304561615,0.5814586877822876,-0.0,0.03692897409200668,1.0733723640441895,0.0017739696195349097,0.21088823676109314
204.0,263.0,0.1741,-0.1926,9.5252,-0.0136,0.0241,-0.1136,-1.861096521417135,-0.003887321101501584,3.0488905906677246,-1.70774507522583,0.001065899501554668,2.0797886848449707,5.014713692456045,-4.4094260374549776e-05,0.264873743057251,-1.5416424910174769,1.0990327609761152e-05,-0.04537642002105713,0.5814263224601746,-0.0,0.039115145802497864,1.0734367370605469,0.0027549623046070337,0.2479669749736786
204.0,263.0,0.1741,-0.1926,9.5252,-0.0136,0.0241,-0.1136,-1.8610836468138636,-0.004304054193198681,3.1392035484313965,-1.707732915878296,0.0012446907348930836,2.085435152053833,5.0147496340568445,-4.0821105358190835e-05,0.27378642559051514,-1.5416305700885218,1.0601940630294848e-05,-0.04081791639328003,0.5814746618270874,-0.0,0.0299709253013134,1.0734889507293701,0.0035689063370227814,0.22163331508636475
204.0,263.0,0.1741,-0.1926,9.5252,-0.0136,0.0241,-0.1136,-1.8611284695067347,-0.004597973078489304,3.1537976264953613,-1.7077330350875854,0.0014275427674874663,2.0352728366851807,5.014737802534857,-3.822060898528434e-05,0.2617399990558624,-1.5416057745562952,1.0240059964417014e-05,-0.046490009874105453,0.5814668536186218,-0.0,0.03792121261358261,1.073477029800415,0.00333635276183486,0.2171938717365265
204.0,263.0,0.1741,-0.1926,9.5252,-0.0136,0.0241,-0.1136,-1.8611403904356898,-0.005129140801727772,3.122760772705078,-1.7077250480651855,0.0018961259629577398,2.0599799156188965,5.014790552645483,-3.5931647289544344e-05,0.2773776352405548,-1.541654411946432,2.544219114497537e-06,-0.0675831139087677,0.5814463496208191,-0.0,0.046508219093084335,1.0735331773757935,0.0027885918971151114,0.2754935324192047
204.0,263.0,0.1741,-0.1926,9.5252,-0.0136,0.0241,-0.1136,-1.8611837826170863,-0.005770965479314327,3.1241886615753174,-1.7077330350875854,0.0026345185469835997,2.0709714889526367,5.014737832337179,-3.390137862879783e-05,0.28106528520584106,-1.541581932698385,7.081928932173298e-10,-0.04953707754611969,0.5815430879592896,-0.0,0.053104422986507416,1.0734808444976807,0.001904766191728413,0.2402888983488083
204.0,263.0,0.1741,-0.1926,9.5252,-0.0136,0.0241,-0.1136,-1.8611751995482386,-0.007117536850273609,3.1427626609802246,-1.7076808214187622,0.002873322693631053,2.1187798976898193,5.014774191170492,-3.208829730283469e-05,0.2718614935874939,-1.5416057745562952,1.9712808046069147e-13,-0.04830782860517502,0.5814906358718872,0.0001364832278341055,0.03571351245045662,1.0735291242599487,0.0012464672327041626,0.2357942759990692
204.0,263.0,0.1741,-0.1926,9.5252,-0.0136,0.0241,-0.1136,-1.8612071476378382,-0.007680912502110004,3.1392812728881836,-1.707648515701294,0.0032364537473767996,2.079123020172119,5.014774220972814,-3.0459310437436216e-05,0.27856117486953735,-1.541558090840475,5.487132371872561e-17,-0.05164758861064911,0.5814423561096191,0.0001499424979556352,0.05174766480922699,1.0735208988189697,0.0005295028677210212,0.20793771743774414
204.0,263.0,0.1741,-0.1926,9.5252,-0.0136,0.0241,-0.1136,-1.8613573513426722,-0.008130409754812717,3.143071413040161,-1.707633137702942,0.003690226236358285,2.0514214038848877,5.014774191170492,-2.8987760742893443e-05,0.2938278913497925,-1.541581932698385,1.52736347480245e-20,-0.06445463001728058,0.5814300179481506,0.00013878360914532095,0.062048010528087616,1.0735172033309937,0.00036630351678468287,0.20442739129066467
204.0,263.0,0.1741,-0.1926,9.5252,-0.0136,0.0241,-0.1136,-1.861368318597311,-0.008840697817504406,3.115269660949707,-1.7076605558395386,0.003678708104416728,2.0549840927124023,5.014794665365972,-2.7651802156469785e-05,0.2679409682750702,-1.5416181723224085,4.251471974240922e-24,-0.05831274762749672,0.5814586877822876,0.00015029845235403627,0.051486678421497345,1.0735008716583252,0.00021046042093075812,0.1585051566362381
204.0,263.0,0.1741,-0.1926,9.5252,-0.0136,0.0241,-0.1136,-1.8614808521666468,-0.009301349520683289,3.1441972255706787,-1.7075730562210083,0.0038233622908592224,2.0828754901885986,5.014782297402181,-2.643356674525421e-05,0.28206172585487366,-1.5416305700885218,1.1834128840110085e-27,-0.050722695887088776,0.5814463496208191,0.00014028092846274376,0.05221111327409744,1.0735089778900146,-0.0001388266682624817,0.14668986201286316
204.0,263.0,0.1741,-0.1926,9.5252,-0.0136,0.0241,-0.1136,-1.861520906487936,-0.009401638060808182,3.1085867881774902,-1.7075453996658325,0.0038964804261922836,2.070197582244873,5.014765965729513,-2.5318169718957506e-05,0.26555225253105164,-1.541558090840475,3.2940739484759566e-31,-0.030615318566560745,0.5814946889877319,0.00015027628978714347,0.06892060488462448,1.0734848976135254,-0.0001821410987759009,0.10662315040826797
204.0,263.0,0.1741,-0.1926,9.5252,-0.0136,0.0241,-0.1136,-1.861544748345846,-0.009714461863040924,3.133004665374756,-1.7075451612472534,0.003630279330536723,2.0634679794311523,5.014737802534857,-2.429307824058924e-05,0.28671905398368835,-1.5415986219989222,9.169176786678545e-35,-0.02890816330909729,0.5813902020454407,0.00021265129907988012,0.05509411543607712,1.0734889507293701,-0.00018463192100171,0.12876304984092712
212.0,275.0,0.3996,-0.0054,9.5163,-0.0504,0.0128,-0.1231,-1.8615719280638636,-0.00977055262774229,3.0990853309631348,-1.7075049877166748,0.0030351292807608843,2.110445976257324,5.0147496340568445,-2.3347767637460493e-05,0.28339165449142456,-1.5415905157672327,2.5522737353974275e-38,-0.0413026437163353,0.5814304947853088,0.00019499321933835745,0.05385628342628479,1.0735172033309937,-0.00017294347344432026,0.05617095157504082
212.0,275.0,0.3996,-0.0054,9.5163,-0.0504,0.0128,-0.1231,-1.8616639576353968,-0.010428101755678654,3.1432580947875977,-1.7075611352920532,0.002292107557877898,2.0670385360717773,5.014753806381979,-2.2196150894160382e-05,0.28269070386886597,-1.5415862242328089,4.6382979169151445e-43,-0.035163845866918564,0.5814623236656189,0.00019941991195082664,0.06928490847349167,1.073521375656128,-0.00018133127014152706,0.09544232487678528
212.0,275.0,0.3996,-0.0054,9.5163,-0.0504,0.0128,-0.1231,-1.8617760143675746,-0.010785005055367947,3.1193158626556396,-1.7075368165969849,0.002022699685767293,2.0551328659057617,5.014770138054647,-2.1404346625786275e-05,0.28665488958358765,-1.5416143576251429,0.0,-0.03121885284781456,0.5815025568008423,0.00020892606698907912,0.06858601421117783,1.0735172033309937,-0.0001617747184354812,0.06861531734466553
212.0,275.0,0.3996,-0.0054,9.5163,-0.0504,0.0128,-0.1231,-1.8618160686888636,-0.010584158822894096,3.1093130111694336,-1.7075045108795166,0.0017348750261589885,2.0532097816467285,5.014762031822958,-2.066708475467749e-05,0.2804224491119385,-1.5415661970721644,0.0,-0.03336256742477417,0.581506609916687,0.0001904534437926486,0.0660158097743988,1.0734808444976807,-0.00022713851649314165,0.03584964945912361
212.0,275.0,0.3996,-0.0054,9.5163,-0.0504,0.0128,-0.1231,-1.8618513546385707,-0.010724694468080997,3.1525754928588867,-1.7075010538101196,0.001457809703424573,2.047196388244629,5.014713185816564,-1.9978911950602196e-05,0.27959227561950684,-1.5415905157672327,0.0,-0.02363540604710579,0.5815266370773315,0.00019953194714616984,0.05836367607116699,1.0734926462173462,-0.00023671738745179027,0.034392450004816055
212.0,275.0,0.3996,-0.0054,9.5163,-0.0504,0.0128,-0.1231,-1.8619147739806117,-0.012147647328674793,3.076068162918091,-1.7075209617614746,0.0012270879233255982,2.0434823036193848,5.014741885453024,-2.1643753456146442e-08,0.28328636288642883,-1.5415862242328089,0.0,-0.03660215437412262,0.5814382433891296,0.00018424013978801668,0.05313999205827713,1.0735410451889038,-0.0002440711105009541,0.02619580551981926
212.0,275.0,0.3996,-0.0054,9.5163,-0.0504,0.0128,-0.1231,-1.8620125255980433,-0.011784771457314491,3.1195740699768066,-1.7075687646865845,0.00102775520645082,2.077591896057129,5.014737802534857,-6.02461743687277e-12,0.28693315386772156,-1.5416181723224085,0.0,-0.02972741797566414,0.5814381837844849,0.00019704003352671862,0.060704540461301804,1.0735172033309937,-0.00024989357916638255,0.016275323927402496
212.0,275.0,0.3996,-0.0054,9.5163,-0.0504,0.0128,-0.1231,-1.862035413781637,-0.012866469100117683,3.1734728813171387,-1.7074528932571411,0.0008099305559881032,2.0641298294067383,5.0147297261054895,-1.6769741460615482e-15,0.27660030126571655,-1.5415781180011194,0.0,-0.04070322960615158,0.5815183520317078,0.0001750111987348646,0.06926766782999039,1.07350492477417,-0.00030364192207343876,-0.02590816654264927
212.0,275.0,0.3996,-0.0054,9.5163,-0.0504,0.0128,-0.1231,-1.8621846638121546,-0.014812024310231209,3.0846962928771973,-1.7075010538101196,0.0007254710071720183,2.057159900665283,5.014697718411245,-4.667919266377221e-19,0.28236714005470276,-1.5415943304644983,0.0,-0.030946720391511917,0.5814545154571533,0.000187924291822128,0.06291109323501587,1.0734889507293701,-0.00025498727336525917,0.018406398594379425
212.0,275.0,0.3996,-0.0054,9.5163,-0.0504,0.0128,-0.1231,-1.862227579156393,-0.015909284353256226,3.0909883975982666,-1.7075164318084717,0.000658994831610471,2.0368824005126953,5.0147215006645105,-1.2993325445540389e-22,0.2825000584125519,-1.541602913533346,0.0,-0.03507091850042343,0.5814783573150635,0.00017027449212037027,0.07427290081977844,1.0734848976135254,-0.00021793547784909606,-0.029318735003471375
212.0,275.0,0.3996,-0.0054,9.5163,-0.0504,0.0128,-0.1231,-1.8623277149596156,-0.01729218289256096,3.141439914703369,-1.7074648141860962,0.0007390162209048867,2.0412354469299316,5.014774191170492,-3.61674020412214e-26,0.2916452884674072,-1.54157001176943,0.0,-0.03542868793010712,0.5814664363861084,0.00015555540448985994,0.07222874462604523,1.0734885931015015,-0.00015223196533042938,0.012306631542742252
212.0,275.0,0.3996,-0.0054,9.5163,-0.0504,0.0128,-0.1231,-1.8624311886229457,-0.019213929772377014,3.0889954566955566,-1.707472801208496,0.0015446809120476246,2.0414013862609863,5.014770138054647,-1.0067327834227562e-29,0.2884489893913269,-1.5415905157672327,0.0,-0.021219439804553986,0.5814743041992188,0.00016389934171456844,0.058010414242744446,1.0734808444976807,-7.087901030899957e-05,-0.053759098052978516
212.0,275.0,0.3996,-0.0054,9.5163,-0.0504,0.0128,-0.1231,-1.8626042805113734,-0.021739086136221886,3.0994725227355957,-1.7074086666107178,0.0021766996942460537,2.0577995777130127,5.014782446413793,-2.8022775133145596e-33,0.2891412079334259,-1.5415986219989222,0.0,-0.030107364058494568,0.5814701318740845,0.00015473416715394706,0.06809403002262115,1.0734726190567017,-5.6756580306682736e-05,-0.020859915763139725
212.0,275.0,0.3996,-0.0054,9.5163,-0.0504,0.0128,-0.1231,-1.8627001247801722,-0.024268250912427902,3.0480637550354004,-1.7074410915374756,0.0026373874861747026,2.0495612621307373,5.014765965729513,-7.800241581678692e-37,0.28170281648635864,-1.5415986219989222,0.0,-0.04157815873622894,0.5814943313598633,0.00014411559095606208,0.06640477478504181,1.0734968185424805,-9.54426359385252e-05,-0.07608070969581604
212.0,275.0,0.3996,-0.0054,9.5163,-0.0504,0.0128,-0.1231,-1.862863679925436,-0.025372540578246117,3.0606272220611572,-1.7074092626571655,0.0036182361654937267,2.0562334060668945,5.0147215006645105,-2.1712278925634446e-40,0.2820695638656616,-1.5415943304644983,0.0,-0.025523096323013306,0.5814545154571533,0.0001348601363133639,0.06214757263660431,1.073513150215149,-8.23499503894709e-05,-0.09200109541416168
200.0,277.0,0.1926,0.0377,9.4361,-0.0162,0.016,-0.1179,-1.8630243740477503,-0.02686617150902748,3.091623306274414,-1.707349181175232,0.0041325511410832405,2.0491034984588623,5.014794099121847,-6.025583396596713e-44,0.28123971819877625,-1.541581932698385,0.0,-0.026842370629310608,0.5814783573150635,0.00012672187585849315,0.06727968901395798,1.0735089778900146,-0.00010861607734113932,-0.10884486138820648
200.0,277.0,0.1926,0.0377,9.4361,-0.0162,0.016,-0.1179,-1.8631516895689906,-0.027489107102155685,3.049511432647705,-1.707361102104187,0.0042612007819116116,2.04651141166687,5.014753776579656,-0.0,0.2784423232078552,-1.5415943304644983,0.0,-0.02941570058465004,0.5814704895019531,0.00013654431677423418,0.07447445392608643,1.0735050439834595,-0.0002732894499786198,-0.10077087581157684
200.0,277.0,0.1926,0.0377,9.4361,-0.0162,0.016,-0.1179,-1.8633271656432093,-0.028518788516521454,3.070779323577881,-1.7073650360107422,0.0043895551934838295,2.041653633117676,5.0147578594978235,-0.0,0.29908034205436707,-1.5416067282306116,0.0,-0.023450419306755066,0.581482470035553,0.00012922812311444432,0.07012166827917099,1.0735291242599487,-0.00036059351987205446,-0.12078163027763367
200.0,277.0,0.1926,0.0377,9.4361,-0.0162,0.016,-0.1179,-1.863523622552389,-0.028675461187958717,3.034630298614502,-1.707361102104187,0.004711527843028307,2.068985939025879,5.0147496340568445,-0.0,0.2836194932460785,-1.5415542761432093,0.0,-0.029328711330890656,0.5814380645751953,0.00012262527889106423,0.06742177903652191,1.0734729766845703,-0.0009328388841822743,-0.13665969669818878
200.0,277.0,0.1926,0.0377,9.4361,-0.0162,0.016,-0.1179,-1.8637234173216761,-0.028572827577590942,3.0750083923339844,-1.7073287963867188,0.004063109867274761,2.053576946258545,5.014770138054647,-0.0,0.2842329740524292,-1.5415223280536097,0.0,-0.021534906700253487,0.5814545154571533,0.00011666439968394116,0.07612423598766327,1.0734729766845703,-0.0012423538137227297,-0.08109605312347412
200.0,277.0,0.1926,0.0377,9.4361,-0.0162,0.016,-0.1179,-1.8638631306090296,-0.027622152119874954,3.066441059112549,-1.7073287963867188,0.003976317122578621,2.0315918922424316,5.01476605513648,-0.0,0.281134694814682,-1.541602913533346,0.0,-0.025459039956331253,0.5814463496208191,0.00011125614400953054,0.08118876814842224,1.0734570026397705,-0.0013403358170762658,-0.16232606768608093
200.0,277.0,0.1926,0.0377,9.4361,-0.0162,0.016,-0.1179,-1.8639990291991175,-0.028927933424711227,3.0611491203308105,-1.70725679397583,0.003387231146916747,2.025599479675293,5.014774220972814,-0.0,0.2760549485683441,-1.5415666739093226,0.0,-0.006915092468261719,0.5815187692642212,0.00010632716293912381,0.07238484174013138,1.0734652280807495,-0.0015028496272861958,-0.13481631875038147
200.0,277.0,0.1926,0.0377,9.4361,-0.0162,0.016,-0.1179,-1.8641463718810023,-0.02845551073551178,3.0633747577667236,-1.7072771787643433,0.0026788755785673857,2.0204901695251465,5.014762031822958,-0.0,0.28312984108924866,-1.5416224638568323,6.31917544069438e-07,-0.016644729301333427,0.5814099907875061,0.00010181626566918567,0.07866824418306351,1.0734570026397705,-0.001328668207861483,-0.1771608293056488
200.0,277.0,0.1926,0.0377,9.4361,-0.0162,0.016,-0.1179,-1.8643423519530238,-0.030744383111596107,3.0709166526794434,-1.7072290182113647,0.0019513091538101435,2.0343923568725586,5.014753806381979,-0.0,0.2763853073120117,-1.541558090840475,1.7589658896088878e-10,-0.003284584963694215,0.5814463496208191,9.767265146365389e-05,0.06901070475578308,1.0734729766845703,-0.0008188332431018353,-0.20716063678264618
200.0,277.0,0.1926,0.0377,9.4361,-0.0162,0.016,-0.1179,-1.8645473919310511,-0.032371215522289276,3.0521090030670166,-1.7071887254714966,0.001979790162295103,2.0969815254211426,5.014774191170492,-0.0,0.2869877815246582,-1.541558090840475,4.896146557848216e-14,-0.00965726375579834,0.5814984440803528,8.325752423843369e-05,0.07391158491373062,1.0734447240829468,-0.0006353632197715342,-0.18109175562858582
200.0,277.0,0.1926,0.0377,9.4361,-0.0162,0.016,-0.1179,-1.86474670986318,-0.03418150916695595,3.0470314025878906,-1.7072210311889648,0.0029232846572995186,2.0849852561950684,5.014778393297949,-0.0,0.28309813141822815,-1.5415905157672327,1.362860378418592e-17,-0.0073637329041957855,0.5814660787582397,7.748873758828267e-05,0.07089123129844666,1.0734243392944336,-0.0005476536462083459,-0.23994268476963043
200.0,277.0,0.1926,0.0377,9.4361,-0.0162,0.016,-0.1179,-1.864934583703512,-0.035916537046432495,3.0382635593414307,-1.7071529626846313,0.004469394218176603,2.059704542160034,5.014757889300146,-0.0,0.28975823521614075,-1.5416067282306116,3.793572265996794e-21,-0.007695604581385851,0.581506609916687,7.368189835688099e-05,0.07745492458343506,1.0734447240829468,-0.00043443756294436753,-0.15026339888572693
200.0,277.0,0.1926,0.0377,9.4361,-0.0162,0.016,-0.1179,-1.8651429615416468,-0.03938988968729973,3.0542612075805664,-1.7071326971054077,0.006024049129337072,2.071727991104126,5.014733660012045,-0.0,0.28678494691848755,-1.541558090840475,1.0559548110173261e-24,-0.016345202922821045,0.5814424157142639,7.023201760603115e-05,0.08728370070457458,1.0735013484954834,-0.0003599580086302012,-0.18584372103214264
200.0,277.0,0.1926,0.0377,9.4361,-0.0162,0.016,-0.1179,-1.8654266796507777,-0.043664149940013885,3.0600357055664062,-1.7070928812026978,0.007914665155112743,2.0841004848480225,5.014798271446981,-0.0,0.2887055277824402,-1.541602913533346,2.93928879950569e-28,-9.790528565645218e-05,0.5814743041992188,8.047882874961942e-05,0.08300377428531647,1.0734325647354126,-0.0001102193709812127,-0.14123812317848206
215.0,287.0,0.1884,-0.1131,9.4493,-0.0247,-0.0011,-0.1208,-1.8656660519041957,-0.048676177859306335,2.971804618835449,-1.707025408744812,0.010382828302681446,2.0686988830566406,5.014725404768743,-0.0,0.28198933601379395,-1.5415943304644983,8.181618769117271e-32,-0.01746339164674282,0.5814582705497742,7.706200267421082e-05,0.07301522046327591,1.0734812021255493,-9.109020902542397e-05,-0.19385851919651031
215.0,287.0,0.1884,-0.1131,9.4493,-0.0247,-0.0011,-0.1208,-1.8660899601378382,-0.05542836710810661,3.0734872817993164,-1.7069687843322754,0.013201995752751827,2.0347068309783936,5.014822500735082,-0.0,0.2789965271949768,-1.54157001176943,1.4869689647045928e-36,-0.022548750042915344,0.5815225839614868,8.502366836182773e-05,0.08412573486566544,1.073513150215149,-7.575451309094205e-05,-0.1512669324874878
215.0,287.0,0.1884,-0.1131,9.4493,-0.0247,-0.0011,-0.1208,-1.8664576015868128,-0.05916289985179901,3.014617443084717,-1.7069369554519653,0.016184911131858826,2.0874876976013184,5.014725434571066,-0.0,0.2846929430961609,-1.541610066090719,4.1390292870608554e-40,-0.03392379358410835,0.5815221071243286,8.174015238182619e-05,0.0760386511683464,1.0734689235687256,-3.760034451261163e-05,-0.12450973689556122
215.0,287.0,0.1884,-0.1131,9.4493,-0.0247,-0.0011,-0.1208,-1.8668176136412562,-0.062253981828689575,3.025623321533203,-1.7067452669143677,0.0194773618131876,2.063178300857544,5.014770138054647,-0.0,0.2821480929851532,-1.5415619055377405,1.14906474074635e-43,-0.030427226796746254,0.5814942717552185,8.421797247137874e-05,0.0774700865149498,1.0734652280807495,-3.0240700652939267e-05,-0.0997169017791748
215.0,287.0,0.1884,-0.1131,9.4493,-0.0247,-0.0011,-0.1208,-1.8672100506224574,-0.06632223725318909,2.9912712574005127,-1.7066528797149658,0.02360769361257553,2.0675718784332275,5.01472948768691,-0.0,0.2848944664001465,-1.541610066090719,0.0,-0.026676705107092857,0.5815466642379761,8.6668660514988e-05,0.07479721307754517,1.073440670967102,-2.747140206338372e-05,-0.04422011971473694
215.0,287.0,0.1884,-0.1131,9.4493,-0.0247,-0.0011,-0.1208,-1.8676339588561,-0.06972797960042953,3.000112295150757,-1.7064567804336548,0.02675030007958412,2.1080679893493652,5.014774071961202,-0.0,0.2807789444923401,-1.5415943304644983,0.0,-0.042588938027620316,0.581498384475708,8.364947279915214e-05,0.08518028259277344,1.073477029800415,-2.5166820705635473e-05,-0.15633557736873627
215.0,287.0,0.1884,-0.1131,9.4493,-0.0247,-0.0011,-0.1208,-1.8680697880186976,-0.0705590695142746,3.0137577056884766,-1.7063167095184326,0.030520131811499596,2.115628719329834,5.014790046006002,-0.0,0.2719747722148895,-1.5416305700885218,0.0,-0.03530871495604515,0.581506609916687,8.08321638032794e-05,0.07424604892730713,1.0734812021255493,-3.84843660867773e-05,-0.07298783957958221
215.0,287.0,0.1884,-0.1131,9.4493,-0.0247,-0.0011,-0.1208,-1.8684731922545375,-0.06924057751893997,3.0033230781555176,-1.7061171531677246,0.036482807248830795,2.1463236808776855,5.014774191170492,-0.0,0.2914544939994812,-1.5415943304644983,0.0,-0.030106909573078156,0.5815306901931763,1.3262642823974602e-06,0.08255750685930252,1.0734447240829468,-4.310201984480955e-05,-0.07993202656507492
215.0,287.0,0.1884,-0.1131,9.4493,-0.0247,-0.0011,-0.1208,-1.868932386437887,-0.0685887411236763,3.0209500789642334,-1.7058528661727905,0.03901612386107445,2.138765811920166,5.014798271446981,-0.0,0.2823069095611572,-1.5416143576251429,0.0,-0.04613284766674042,0.5814821124076843,3.6917049972551297e-10,0.07945005595684052,1.0734082460403442,-4.021319909952581e-05,-0.09215005487203598
215.0,287.0,0.1884,-0.1131,9.4493,-0.0247,-0.0011,-0.1208,-1.8693567715086878,-0.06974396854639053,3.014559268951416,-1.7056409120559692,0.042156171053647995,2.0897409915924072,5.014765965729513,-0.0,0.2803584039211273,-1.5415461699115198,0.0,-0.03831858932971954,0.5814902782440186,6.918852886883542e-05,0.07417304068803787,1.073420763015747,-3.768734313780442e-05,-0.06384116411209106
215.0,287.0,0.1884,-0.1131,9.4493,-0.0247,-0.0011,-0.1208,-1.869791646996969,-0.07532595843076706,2.994515895843506,-1.705344796180725,0.04333306476473808,2.128174304962158,5.014790046006002,-0.0,0.2828952670097351,-1.5415661970721644,0.0,-0.044601090252399445,0.5815262794494629,9.664957906352356e-05,0.08016062527894974,1.073465347290039,-3.546001607901417e-05,-0.10680396854877472
215.0,287.0,0.1884,-0.1131,9.4493,-0.0247,-0.0011,-0.1208,-1.8702322445311488,-0.0816887617111206,3.0217084884643555,-1.7051652669906616,0.04618196189403534,2.0770628452301025,5.014761793404379,-0.0,0.27142393589019775,-1.5415738264666956,0.0,-0.04366877302527428,0.5815585851669312,9.080734162125736e-05,0.09375250339508057,1.073448896408081,-3.348130849190056e-05,-0.09748245030641556
215.0,287.0,0.1884,-0.1131,9.4493,-0.0247,-0.0011,-0.1208,-1.870744367639059,-0.08627470582723618,2.9986822605133057,-1.7047609090805054,0.05186544731259346,2.0928192138671875,5.014826136618414,-0.0,0.27753812074661255,-1.5415986219989222,0.0,-0.04527890682220459,0.581462025642395,8.562370203435421e-05,0.09745540469884872,1.0734165906906128,-3.171173739247024e-05,-0.05484806001186371
215.0,287.0,0.1884,-0.1131,9.4493,-0.0247,-0.0011,-0.1208,-1.8712393246092738,-0.08939715474843979,3.025646209716797,-1.7044892311096191,0.05983980745077133,2.14859676361084,5.01483844497756,-0.0,0.27170321345329285,-1.5416019598590296,0.0,-0.03286832571029663,0.581498384475708,8.099999104160815e-05,0.08326824009418488,1.0734248161315918,-3.011981061717961e-05,-0.046054400503635406
215.0,287.0,0.1884,-0.1131,9.4493,-0.0247,-0.0011,-0.1208,-1.8717509708800257,-0.09077125042676926,3.009521961212158,-1.7041049003601074,0.06620926409959793,2.1615757942199707,5.014769899636068,-0.0,0.2745015323162079,-1.5415738264666956,0.0,-0.05477610230445862,0.5815061926841736,7.685006130486727e-05,0.08767533302307129,1.0734895467758179,-2.8680111427092925e-05,0.005066259764134884
225.0,328.0,0.5348,-0.1184,9.5091,-0.0316,-0.007,-0.121,-1.8723308048644007,-0.09565562754869461,3.0048742294311523,-1.7037211656570435,0.07348283380270004,2.1507315635681152,5.014785963087835,-0.0,0.2864719331264496,-1.5415943304644983,-9.713193321658764e-06,-0.041383128613233566,0.5815385580062866,7.310461660381407e-05,0.07830081880092621,1.073440670967102,-2.7371754185878672e-05,-0.002024296671152115
225.0,328.0,0.5348,-0.1184,9.5091,-0.0316,-0.007,-0.121,-1.8729258976378382,-0.09929744154214859,2.9425644874572754,-1.703225016593933,0.07869674265384674,2.1926660537719727,5.014826136618414,-0.0,0.27930065989494324,-1.541610066090719,-2.5367304260726087e-05,-0.051986560225486755,0.581498384475708,6.970727554289624e-05,0.07741594314575195,1.0734612941741943,-2.6177574909524992e-05,0.001655289437621832
225.0,328.0,0.5348,-0.1184,9.5091,-0.0316,-0.007,-0.121,-1.8736192188658656,-0.10207011550664902,3.041760206222534,-1.7027289867401123,0.08106160163879395,2.1550633907318115,5.014834511071005,-0.0,0.2786935865879059,-1.5415781180011194,-2.4342605684068985e-05,-0.0584864467382431,0.5815262794494629,6.661174120381474e-05,0.07850374281406403,1.0734694004058838,-2.5083218133659102e-05,0.020442510023713112
225.0,328.0,0.5348,-0.1184,9.5091,-0.0316,-0.007,-0.121,-1.8742295704283656,-0.09964323788881302,2.96386456489563,-1.7022652626037598,0.08079146593809128,2.1908392906188965,5.014749514847555,-0.0,0.28756392002105713,-1.5415986219989222,-2.3393518858938478e-05,-0.046259962022304535,0.5814861059188843,6.377942918334156e-05,0.08748817443847656,1.073448896408081,-2.407670399406925e-05,0.0016606859862804413
225.0,328.0,0.5348,-0.1184,9.5091,-0.0316,-0.007,-0.121,-1.8748532734312953,-0.09578022360801697,3.0286974906921387,-1.7017525434494019,0.07896699011325836,2.175457000732422,5.014769959240713,-0.0,0.27730709314346313,-1.5415862242328089,-2.2515649106935598e-05,-0.06062236428260803,0.5815184116363525,6.117815792094916e-05,0.10426166653633118,1.0734367370605469,-2.314785342605319e-05,-0.029395615682005882
225.0,328.0,0.5348,-0.1184,9.5091,-0.0316,-0.007,-0.121,-1.875436922112936,-0.10194401443004608,3.0081844329833984,-1.7013132572174072,0.07955188304185867,2.1635007858276367,5.014830249338903,-0.0,0.2822209894657135,-1.5416181723224085,-2.1701282093999907e-05,-0.05220658332109451,0.5815626382827759,5.878079173271544e-05,0.06971640884876251,1.0734449625015259,-2.228800076409243e-05,0.01176318246871233
225.0,328.0,0.5348,-0.1184,9.5091,-0.0316,-0.007,-0.121,-1.8760200939574183,-0.10692720115184784,2.9832799434661865,-1.7008171081542969,0.08255737274885178,2.178039073944092,5.01479788401679,-0.0,0.28630778193473816,-1.5415619055377405,-2.094377123285085e-05,-0.06384112685918808,0.5815262794494629,5.656420034938492e-05,0.08155034482479095,1.0734325647354126,-1.0890768862736877e-05,-0.002114885486662388
225.0,328.0,0.5348,-0.1184,9.5091,-0.0316,-0.007,-0.121,-1.8766967258849085,-0.11616750061511993,2.973132610321045,-1.7003164291381836,0.08793577551841736,2.1986169815063477,5.01478590348319,-0.0,0.267053484916687,-1.5416181723224085,-2.0237377611920238e-05,-0.06001709774136543,0.5815106630325317,6.538631714647636e-05,0.08533670753240585,1.0734367370605469,-1.0373350050940644e-05,0.07585623860359192
225.0,328.0,0.5348,-0.1184,9.5091,-0.0316,-0.007,-0.121,-1.877392431298727,-0.11998357623815536,2.9886250495910645,-1.6996886730194092,0.09467200189828873,2.167520761489868,5.014813887863912,-0.0,0.28275370597839355,-1.541602913533346,-4.76435928931096e-07,-0.06388495862483978,0.5815343856811523,6.311686593107879e-05,0.07284443080425262,1.0734124183654785,-1.0026653399108909e-05,0.04442005604505539
225.0,328.0,0.5348,-0.1184,9.5091,-0.0316,-0.007,-0.121,-1.8781033955016078,-0.12246706336736679,2.9268412590026855,-1.6990644931793213,0.10602888464927673,2.1843276023864746,5.014801549702444,0.000126660757814534,0.28155070543289185,-1.5415862242328089,-1.3261768072592162e-10,-0.053802479058504105,0.5815184116363525,6.097869481891394e-05,0.07939652353525162,1.0734530687332153,-1.7848774680473412e-09,0.048762597143650055
225.0,328.0,0.5348,-0.1184,9.5091,-0.0316,-0.007,-0.121,-1.87888826946401,-0.1204199343919754,3.016414165496826,-1.6984046697616577,0.11820372194051743,2.1710050106048584,5.014833915024557,0.00014212670794222504,0.2791387140750885,-1.5416467825519007,-3.691462080132081e-14,-0.0636642649769783,0.5815262794494629,3.8935399970796425e-06,0.072360560297966,1.0734530687332153,-4.310268606605699e-15,0.06088527664542198
225.0,328.0,0.5348,-0.1184,9.5091,-0.0316,-0.007,-0.121,-1.87963928798818,-0.11563089489936829,3.011950969696045,-1.697641134262085,0.12507033348083496,2.214449405670166,5.014838355570593,0.0001317317073699087,0.28802594542503357,-1.5415943304644983,-1.0275320287194965e-17,-0.06435172259807587,0.5815184116363525,1.0837810648922641e-09,0.07738940417766571,1.0734283924102783,-1.0408792502937645e-20,0.06446769088506699
225.0,328.0,0.5348,-0.1184,9.5091,-0.0316,-0.007,-0.121,-1.8803745708861292,-0.11538317054510117,3.0006051063537598,-1.6969850063323975,0.1215517595410347,2.2110471725463867,5.01479788401679,0.000122748184367083,0.28262272477149963,-1.5416267553912562,-2.8601730597904694e-21,-0.06687236577272415,0.5814943313598633,3.0167440268936974e-13,0.08442909270524979,1.073420763015747,-2.5136008120465706e-26,0.08682729303836823
225.0,328.0,0.5348,-0.1184,9.5091,-0.0316,-0.007,-0.121,-1.8811389408507289,-0.1224808469414711,3.014913558959961,-1.6962486505508423,0.12202127277851105,2.235074996948242,5.01477404215888,9.640907228458673e-05,0.2806922495365143,-1.5416181723224085,-7.961396754896795e-25,-0.07507434487342834,0.5815024375915527,8.397217294305156e-17,0.07758286595344543,1.0734694004058838,-6.070051230365127e-32,0.08670748770236969
225.0,328.0,0.5348,-0.1184,9.5091,-0.0316,-0.007,-0.121,-1.8817926845946253,-0.12819480895996094,3.0224013328552246,-1.695572853088379,0.12056990712881088,2.2201807498931885,5.014741378813543,9.00134036783129e-05,0.2720426321029663,-1.5415943304644983,-2.2160842905362975e-28,-0.07356883585453033,0.5815384984016418,2.3373959223989146e-20,0.07720736414194107,1.0734325647354126,-1.465845971019564e-37,0.07659018784761429
226.0,358.0,-0.1866,0.3918,9.9553,-0.0214,0.0458,-0.1303,-1.882857461968893,-0.1330534666776657,3.0082147121429443,-1.6945568323135376,0.12690706551074982,2.1926655769348145,5.014749544649877,8.334466838277876e-05,0.2735123634338379,-1.5416267553912562,-4.027623844871251e-33,-0.07855777442455292,0.5814381241798401,4.248102256276657e-25,0.0724598839879036,1.0734128952026367,-4.203895392974451e-45,0.08603958040475845
226.0,358.0,-0.1866,0.3918,9.9553,-0.0214,0.0458,-0.1303,-1.8835565052428187,-0.13666178286075592,2.9828364849090576,-1.6937248706817627,0.13771994411945343,2.2253687381744385,5.014850276499548,9.471340308664367e-05,0.2742544114589691,-1.5415943304644983,-1.1211038813917e-36,-0.08243981003761292,0.5814701914787292,1.182474643164476e-28,0.07607095688581467,1.0734611749649048,0.0,0.09442399442195892
226.0,358.0,-0.1866,0.3918,9.9553,-0.0214,0.0458,-0.1303,-1.8843561611571253,-0.13117997348308563,3.0102391242980957,-1.6928051710128784,0.14822855591773987,2.2488038539886475,5.0148260472114465,9.001078433357179e-05,0.2866395115852356,-1.5416463057147425,-3.1206356281127946e-40,-0.0859258621931076,0.581498384475708,3.291462058803147e-32,0.08446478098630905,1.0734448432922363,0.0,0.13013099133968353
226.0,358.0,-0.1866,0.3918,9.9553,-0.0214,0.0458,-0.1303,-1.885172029534811,-0.1259298473596573,3.0029802322387695,-1.6919019222259521,0.15222159028053284,2.2141215801239014,5.014830219536581,8.572411024942994e-05,0.2875390648841858,-1.5415943304644983,-8.688050478813866e-44,-0.08319202065467834,0.5814542174339294,9.161904419833571e-36,0.08105593174695969,1.073400616645813,0.0,0.12098346650600433
226.0,358.0,-0.1866,0.3918,9.9553,-0.0214,0.0458,-0.1303,-1.88590731243276,-0.12307029217481613,3.0220584869384766,-1.691053032875061,0.15281832218170166,2.266897201538086,5.014813887863912,8.182714373106137e-05,0.27712351083755493,-1.5416467825519007,-0.0,-0.08186480402946472,0.5814701318740845,2.5502496998955568e-39,0.0736854076385498,1.073448896408081,0.0,0.15242794156074524
226.0,358.0,-0.1866,0.3918,9.9553,-0.0214,0.0458,-0.1303,-1.8866826496519984,-0.1259731501340866,3.013979911804199,-1.6901088953018188,0.15382513403892517,2.259809732437134,5.0147777674491785,7.826904766261578e-05,0.2802520990371704,-1.5416744391070765,-0.0,-0.09799463301897049,0.5815466642379761,7.1045832141268225e-43,0.0746256560087204,1.0734610557556152,0.0,0.11297069489955902
226.0,358.0,-0.1866,0.3918,9.9553,-0.0214,0.0458,-0.1303,-1.8874951801695765,-0.13137583434581757,3.034902334213257,-1.6891405582427979,0.15521369874477386,2.2848572731018066,5.0148097453411005,6.251344893826172e-05,0.2723032236099243,-1.5415986219989222,-6.933172699064016e-05,-0.08963404595851898,0.5815629959106445,0.0,0.07515501230955124,1.073417067527771,0.0,0.1304410845041275
226.0,358.0,-0.1866,0.3918,9.9553,-0.0214,0.0458,-0.1303,-1.888209959069723,-0.1376386433839798,2.9744887351989746,-1.6882250308990479,0.1555328518152237,2.2726519107818604,5.0147699294383905,4.801818067790009e-05,0.272270530462265,-1.5416057745562952,-6.710456364089623e-05,-0.1079738587141037,0.5814219117164612,0.0,0.07651780545711517,1.0734128952026367,0.0,0.12563413381576538
226.0,358.0,-0.1866,0.3918,9.9553,-0.0214,0.0458,-0.1303,-1.8890539608397425,-0.13673296570777893,3.016226053237915,-1.6872164011001587,0.16047002375125885,2.2711949348449707,5.014830189734258,2.115390270773787e-05,0.264924556016922,-1.5416424910174769,-6.423131708288565e-05,-0.09408412128686905,0.5814780592918396,0.0,0.06661153584718704,1.0734047889709473,-3.4208569559268653e-05,0.17581719160079956
226.0,358.0,-0.1866,0.3918,9.9553,-0.0214,0.0458,-0.1303,-1.889780660668844,-0.12784111499786377,3.0469493865966797,-1.6862367391586304,0.16300159692764282,2.2774932384490967,5.0148260472114465,3.76873831555713e-05,0.27299100160598755,-1.5416224638568323,-6.159383337944746e-05,-0.0862039178609848,0.5815384984016418,0.0,0.07669694721698761,1.0734491348266602,-3.077129440498538e-05,0.12830288708209991
226.0,358.0,-0.1866,0.3918,9.9553,-0.0214,0.0458,-0.1303,-1.8905517063536585,-0.12185604870319366,3.0226035118103027,-1.6852080821990967,0.16716153919696808,2.274094820022583,5.014862257033148,5.3613832278642803e-05,0.2744022011756897,-1.5416424910174769,-5.9164365666219965e-05,-0.09600137919187546,0.5815103054046631,0.0,0.07226566225290298,1.0734367370605469,-1.8378589761169906e-09,0.19500747323036194
226.0,358.0,-0.1866,0.3918,9.9553,-0.0214,0.0458,-0.1303,-1.8913117847838343,-0.12066049873828888,3.0528883934020996,-1.6841663122177124,0.17033196985721588,2.2888002395629883,5.014773654728689,5.060894545749761e-05,0.2745991349220276,-1.5416019598590296,-5.691935439244844e-05,-0.09208618104457855,0.5815024375915527,0.0,0.06431912630796432,1.0734449625015259,-4.438212933288461e-15,0.2019435465335846
226.0,358.0,-0.1866,0.3918,9.9553,-0.0214,0.0458,-0.1303,-1.891954084435934,-0.12172331660985947,3.039008617401123,-1.6832270622253418,0.1725170761346817,2.264378786087036,5.01479788401679,0.0001365837233606726,0.26187601685523987,-1.5416300932513636,-5.483841596287675e-05,-0.09668333828449249,0.5814821124076843,0.0,0.06093577295541763,1.0734491348266602,-1.071776304097824e-20,0.15484434366226196
226.0,358.0,-0.1866,0.3918,9.9553,-0.0214,0.0458,-0.1303,-1.8927909336485804,-0.1253765970468521,2.9918417930603027,-1.6821423768997192,0.17391124367713928,2.252368927001953,5.014813887863912,0.00011140860442537814,0.2736140489578247,-1.5416057745562952,-5.2904295444022864e-05,-0.10531963407993317,0.5815065503120422,0.0,0.07395912706851959,1.073400616645813,-2.588213803282461e-26,0.17532968521118164
226.0,358.0,-0.1866,0.3918,9.9553,-0.0214,0.0458,-0.1303,-1.8935023746886195,-0.12479712814092636,3.0683186054229736,-1.6810846328735352,0.17016208171844482,2.2508082389831543,5.014805662422933,9.395537927048281e-05,0.259007066488266,-1.5416224638568323,-5.110198617330752e-05,-0.09237341582775116,0.5814423561096191,0.0,0.06829167157411575,1.0734248161315918,0.00021921817096881568,0.16076430678367615
241.0,383.0,0.3218,-0.1292,9.8219,-0.0495,0.0684,-0.1242,-1.894282957116598,-0.12714366614818573,3.039236068725586,-1.680016040802002,0.1724487692117691,2.277313709259033,5.014837968140402,8.123143197735772e-05,0.2716493606567383,-1.5416386763202112,-1.521497415524209e-05,-0.09598192572593689,0.5814943313598633,0.0,0.06618146598339081,1.0734531879425049,0.00016818147560115904,0.1423249989748001
241.0,383.0,0.3218,-0.1292,9.8219,-0.0495,0.0684,-0.1242,-1.8949696026244105,-0.12296763807535172,3.0415124893188477,-1.6789805889129639,0.17741356790065765,2.324777603149414,5.014813828259268,7.154331251513213e-05,0.2711038887500763,-1.5416505972491663,-4.235144235309463e-09,-0.09803324937820435,0.5815265774726868,0.0,0.07245951890945435,1.0733965635299683,0.00013135075278114527,0.22792735695838928
241.0,383.0,0.3218,-0.1292,9.8219,-0.0495,0.0684,-0.1242,-1.8956366978087367,-0.11532017588615417,3.0682449340820312,-1.6779067516326904,0.1802973747253418,2.298055648803711,5.014846193581381,6.392025534296408e-05,0.27062422037124634,-1.5416300932513636,-1.1788680925536865e-12,-0.09526433050632477,0.5815024375915527,0.0,0.07656650990247726,1.073437213897705,0.00010775601549539715,0.22105681896209717
