ramyac6/ROB537/final_project/csv/all/good_176.csv
tof_0,tof_1,accelx,accely,accelz,gyrox,gyroy,gyroz,shoulder_lift_joint_position,shoulder_lift_joint_velocity,shoulder_lift_joint_effort,elbow_joint_position,elbow_joint_velocity,elbow_joint_effort,wrist_1_joint_position,wrist_1_joint_velocity,wrist_1_joint_effort,wrist_2_joint_position,wrist_2_joint_velocity,wrist_2_joint_effort,wrist_3_joint_position,wrist_3_joint_velocity,wrist_3_joint_effort,shoulder_pan_joint_position,shoulder_pan_joint_velocity,shoulder_pan_joint_effort
406.0,391.0,-0.213,0.7167,9.6305,-0.0399,0.0223,-0.12,-1.5828119717040003,0.0,2.045328140258789,-2.0064280033111572,-0.0,2.0009078979492188,5.053290891438284,0.0,0.2903568148612976,-1.6524222532855433,0.0,0.018956616520881653,0.8185833096504211,-0.0,0.00256994622759521,0.7983580827713013,0.0,-0.01528094056993723
406.0,391.0,-0.213,0.7167,9.6305,-0.0399,0.0223,-0.12,-1.5827838383116664,0.0,2.0390708446502686,-2.0064921379089355,-0.0,2.0365076065063477,5.0533112464244745,0.0,0.2845180332660675,-1.6523574034320276,0.0,-0.0028560240752995014,0.818599283695221,-0.0,-0.006936275865882635,0.7983381748199463,0.0,-0.020685264840722084
406.0,391.0,-0.213,0.7167,9.6305,-0.0399,0.0223,-0.12,-1.5828238926329554,0.0,2.078181028366089,-2.0064518451690674,-0.0,1.9937784671783447,5.053319233446874,0.0,0.2897292673587799,-1.6524017492877405,0.0,0.0023169652558863163,0.8185873627662659,-0.0,-0.01014656014740467,0.7983059883117676,0.0,-0.008964025415480137
406.0,391.0,-0.213,0.7167,9.6305,-0.0399,0.0223,-0.12,-1.5828076801695765,0.0,2.0566041469573975,-2.0064640045166016,-0.0,1.9655044078826904,5.053367185383596,0.0,0.28746891021728516,-1.6523693243609827,0.0,0.01388731598854065,0.818510890007019,-0.0,0.0034960710909217596,0.7983219623565674,0.0,-0.013062262907624245
406.0,391.0,-0.213,0.7167,9.6305,-0.0399,0.0223,-0.12,-1.5828200779356898,0.0,2.058913230895996,-2.006455898284912,-0.0,2.016847848892212,5.0533112464244745,0.0,0.2796560227870941,-1.652381722127096,0.0,0.008372977375984192,0.8185312747955322,-0.0,-7.666950114071369e-05,0.7982816100120544,0.0,0.027026716619729996
406.0,391.0,-0.213,0.7167,9.6305,-0.0399,0.0223,-0.12,-1.5827800236144007,0.0,2.023045539855957,-2.006455898284912,-0.0,1.987013578414917,5.053363162070074,0.0,0.27433598041534424,-1.6523497740374964,0.0,-0.012822438962757587,0.8185350298881531,-0.0,-0.00019457738380879164,0.798334002494812,0.0,-0.018584145233035088
412.0,388.0,-0.2028,0.7184,9.5593,-0.0396,0.0284,-0.1294,-1.5827957592406214,0.0,2.0412003993988037,-2.006443500518799,-0.0,2.017266273498535,5.053331094771185,0.0,0.286692351102829,-1.6524179617511194,0.0,-0.0013302662409842014,0.818543553352356,-0.0,-0.00956800952553749,0.7983540892601013,0.0,-0.005958303343504667
412.0,388.0,-0.2028,0.7184,9.5593,-0.0396,0.0284,-0.1294,-1.5828520260252894,0.0,2.0055854320526123,-2.0064196586608887,-0.0,2.0602846145629883,5.0533271608646295,0.0,0.279278039932251,-1.65240985551943,0.0,-0.0010474951704964042,0.8185390830039978,-0.0,0.002064713044092059,0.7983421683311462,0.0,-0.01147111039608717
412.0,388.0,-0.2028,0.7184,9.5593,-0.0396,0.0284,-0.1294,-1.5828238926329554,0.0,2.059885025024414,-2.006455898284912,-0.0,2.0509791374206543,5.053315269737997,0.0,0.2875678539276123,-1.6523574034320276,0.0,0.006212078034877777,0.8186033368110657,-0.0,-0.001570841297507286,0.7983059883117676,0.0,0.016563914716243744
412.0,388.0,-0.2028,0.7184,9.5593,-0.0396,0.0284,-0.1294,-1.5828081570067347,0.0,2.080066680908203,-2.0064518451690674,-0.0,2.0256009101867676,5.05327923873023,0.0,0.2870306372642517,-1.6523540655719202,0.0,0.001608769060112536,0.8185632228851318,-0.0,0.004876791965216398,0.7983381152153015,0.0,0.012738161720335484
412.0,388.0,-0.2028,0.7184,9.5593,-0.0396,0.0284,-0.1294,-1.582747598687643,0.0,2.0914015769958496,-2.006455898284912,-0.0,1.9438202381134033,5.053383010416784,0.0,0.2886866331100464,-1.6523454825030726,0.0,0.0047202822752296925,0.8185431957244873,-0.0,-0.009840089827775955,0.7983301281929016,0.0,0.04299751669168472
412.0,388.0,-0.2028,0.7184,9.5593,-0.0396,0.0284,-0.1294,-1.5828200779356898,0.0,2.0818405151367188,-2.006443500518799,-0.0,1.9964847564697266,5.053323137551107,0.0,0.26950669288635254,-1.6523659865008753,0.0,-0.0042604003101587296,0.8185434937477112,-0.0,-0.004359319340437651,0.7982978224754333,0.0,0.020656224340200424
412.0,388.0,-0.2028,0.7184,9.5593,-0.0396,0.0284,-0.1294,-1.582803865472311,0.0,2.0775187015533447,-2.0064961910247803,-0.0,2.0478055477142334,5.053335088282385,0.0,0.2846282422542572,-1.6523574034320276,0.0,-0.009929390624165535,0.8186074495315552,-0.0,-0.007014627568423748,0.7983499765396118,0.0,-0.044626958668231964
412.0,388.0,-0.2028,0.7184,9.5593,-0.0396,0.0284,-0.1294,-1.5828162632384242,0.0,2.03753662109375,-2.0064074993133545,-0.0,2.025341510772705,5.053351241141119,0.0,0.2777743637561798,-1.6524055639850062,0.0,0.015048781409859657,0.8186110854148865,-0.0,0.0030320887453854084,0.7983059287071228,0.0,-0.024256691336631775
412.0,388.0,-0.2028,0.7184,9.5593,-0.0396,0.0284,-0.1294,-1.5827962360777796,0.0,2.0647428035736084,-2.006476640701294,-0.0,1.99367356300354,5.053343254118719,0.0,0.2761824131011963,-1.6524055639850062,0.0,-0.0029158974066376686,0.8185595273971558,-0.0,-0.001688587130047381,0.7983301281929016,0.0,0.0036968467757105827
412.0,388.0,-0.2028,0.7184,9.5593,-0.0396,0.0284,-0.1294,-1.5828319988646449,0.0,2.0583181381225586,-2.0064351558685303,-0.0,2.0338048934936523,5.053351241141119,0.0,0.28407615423202515,-1.6523779074298304,0.0,-0.0099675627425313,0.8185393810272217,-0.0,0.0016272570937871933,0.7983343005180359,0.0,-0.03510531410574913
412.0,388.0,-0.2028,0.7184,9.5593,-0.0396,0.0284,-0.1294,-1.5828281841673792,0.0,2.0280816555023193,-2.0065126419067383,-0.0,1.9639400243759155,5.053303378611364,0.0,0.28289079666137695,-1.6523898283587855,0.0,0.0018503675237298012,0.8185632228851318,-0.0,0.0023948969319462776,0.7982977628707886,0.0,-0.005940863862633705
399.0,379.0,-0.2429,0.6951,9.6251,-0.0354,0.0304,-0.1219,-1.582787653008932,0.0,2.0891330242156982,-2.006439447402954,-0.0,1.9822311401367188,5.053311276226797,0.0,0.29566892981529236,-1.6523736158954065,0.0,-0.004214193671941757,0.8185672760009766,-0.0,-0.002004110487177968,0.7983059883117676,0.0,-0.009678379632532597
399.0,379.0,-0.2429,0.6951,9.6251,-0.0354,0.0304,-0.1219,-1.5828319988646449,0.0,2.011514186859131,-2.006444215774536,-0.0,2.002553939819336,5.053359228163519,0.0,0.28688764572143555,-1.6523855368243616,0.0,0.00019186409190297127,0.8185755014419556,-0.0,-0.014126963913440704,0.7983260154724121,0.0,0.010901699773967266
399.0,379.0,-0.2429,0.6951,9.6251,-0.0354,0.0304,-0.1219,-1.5828119717040003,0.0,2.046548843383789,-2.0064196586608887,-0.0,1.9617606401443481,5.053347039013662,0.0,0.27405470609664917,-1.6523779074298304,0.0,-0.0077936407178640366,0.8185513019561768,-0.0,-0.003485723864287138,0.7983417510986328,0.0,-0.03167887032032013
399.0,379.0,-0.2429,0.6951,9.6251,-0.0354,0.0304,-0.1219,-1.5827957592406214,0.0,2.026987075805664,-2.0064516067504883,-0.0,2.0016932487487793,5.053295361786642,0.0,0.29145509004592896,-1.6523898283587855,0.0,-0.0018214286537840962,0.8185751438140869,-0.0,0.002860123524442315,0.7983260154724121,0.0,-0.005398296285420656
399.0,379.0,-0.2429,0.6951,9.6251,-0.0354,0.0304,-0.1219,-1.5828281841673792,0.0,1.9855012893676758,-2.0064921379089355,-0.0,2.0272693634033203,5.053331184178152,0.0,0.2990754246711731,-1.652381722127096,0.0,0.0042548468336462975,0.8185553550720215,-0.0,-0.0024947156198322773,0.7983219623565674,0.0,0.01089470461010933
399.0,379.0,-0.2429,0.6951,9.6251,-0.0354,0.0304,-0.1219,-1.5828162632384242,0.0,2.0914134979248047,-2.006455898284912,-0.0,1.9663240909576416,5.053327101259985,0.0,0.276505708694458,-1.6523736158954065,0.0,-0.0074471826665103436,0.8185230493545532,-0.0,-0.002970022615045309,0.798325777053833,0.0,-0.013723628595471382
399.0,379.0,-0.2429,0.6951,9.6251,-0.0354,0.0304,-0.1219,-1.5827557049193324,0.0,2.0639963150024414,-2.006411552429199,-0.0,1.9886159896850586,5.053319203644552,0.0,0.28382959961891174,-1.6523297468768519,0.0,-0.0022101805079728365,0.8185513019561768,-0.0,-0.003118189051747322,0.7983141541481018,0.0,-0.01186973787844181
399.0,379.0,-0.2429,0.6951,9.6251,-0.0354,0.0304,-0.1219,-1.5828319988646449,0.0,2.075845718383789,-2.006443500518799,-0.0,2.0095410346984863,5.053303348809042,0.0,0.2883950173854828,-1.6523616949664515,0.0,0.001628815196454525,0.8184866905212402,-0.0,-0.006298559717833996,0.7982977628707886,0.0,-0.013050548732280731
399.0,379.0,-0.2429,0.6951,9.6251,-0.0354,0.0304,-0.1219,-1.5827881298460902,0.0,2.0734100341796875,-2.006459951400757,-0.0,2.0325212478637695,5.0533353863056085,0.0,0.2897304594516754,-1.652381722127096,0.0,0.0030543762259185314,0.8185791969299316,-0.0,-0.009285423904657364,0.7982574701309204,0.0,-0.0015786015428602695
399.0,379.0,-0.2429,0.6951,9.6251,-0.0354,0.0304,-0.1219,-1.5828319988646449,0.0,2.042506217956543,-2.0064280033111572,-0.0,1.9631117582321167,5.053303348809042,0.0,0.280837744474411,-1.652353588734762,0.0,0.0026591254863888025,0.8185791969299316,-0.0,-0.0017678725998848677,0.7983417510986328,0.0,0.048727262765169144
399.0,379.0,-0.2429,0.6951,9.6251,-0.0354,0.0304,-0.1219,-1.5828319988646449,0.0,2.052762031555176,-2.006399154663086,-0.0,1.988173484802246,5.053271281510153,0.0,0.2875860333442688,-1.6524298826800745,0.0,-0.0045466977171599865,0.8186193704605103,-0.0,-0.005039873532950878,0.7983178496360779,0.0,0.035997483879327774
392.0,375.0,-0.2423,0.6748,9.7173,-0.0322,0.0211,-0.1187,-1.5828000507750453,0.0,2.096752882003784,-2.0064404010772705,-0.0,1.9981145858764648,5.0533112464244745,0.0,0.2849879264831543,-1.6523860136615198,0.0,0.0038040303625166416,0.8185189962387085,-0.0,0.0006193097215145826,0.798325777053833,0.0,0.042428527027368546
392.0,375.0,-0.2423,0.6748,9.7173,-0.0322,0.0211,-0.1187,-1.5827800236144007,0.0,2.070390462875366,-2.0064280033111572,-0.0,2.031764268875122,5.053287195950308,0.0,0.28076815605163574,-1.6523574034320276,0.0,-0.010022807866334915,0.8185513019561768,-0.0,-0.0015575885772705078,0.7983540892601013,0.0,0.015796367079019547
392.0,375.0,-0.2423,0.6748,9.7173,-0.0322,0.0211,-0.1187,-1.5828000507750453,0.0,2.0492148399353027,-2.0064516067504883,-0.0,1.968082308769226,5.053371059685507,0.0,0.27851179242134094,-1.652353588734762,0.0,-0.001439919462427497,0.8185873627662659,-0.0,0.002033512108027935,0.7983178496360779,0.0,-0.002540877554565668
392.0,375.0,-0.2423,0.6748,9.7173,-0.0322,0.0211,-0.1187,-1.5827676258482875,0.0,2.085526466369629,-2.006455898284912,-0.0,2.0019192695617676,5.053319203644552,0.0,0.29368478059768677,-1.6523454825030726,0.0,-0.0013543760869652033,0.8185595870018005,-0.0,0.0028606881387531757,0.7983742356300354,0.0,-0.04662313684821129
392.0,375.0,-0.2423,0.6748,9.7173,-0.0322,0.0211,-0.1187,-1.5828119717040003,0.0,2.0408060550689697,-2.0064921379089355,-0.0,2.0161352157592773,5.053367125778951,0.0,0.287335067987442,-1.6523574034320276,0.0,0.013160502538084984,0.8185513019561768,-0.0,-0.0008314548758789897,0.7983540892601013,0.0,0.03922786936163902
392.0,375.0,-0.2423,0.6748,9.7173,-0.0322,0.0211,-0.1187,-1.5827633343138636,0.0,2.055360794067383,-2.0064351558685303,-0.0,2.0035064220428467,5.053327101259985,0.0,0.2771892547607422,-1.6523574034320276,0.0,-0.004663338419049978,0.8185393810272217,-0.0,-0.0006286146235652268,0.7983055114746094,0.0,-0.016215752810239792
392.0,375.0,-0.2423,0.6748,9.7173,-0.0322,0.0211,-0.1187,-1.5828482113280238,0.0,2.0389912128448486,-2.0064518451690674,-0.0,2.0381155014038086,5.053307282715597,0.0,0.2877539098262787,-1.6523574034320276,0.0,-0.0040312595665454865,0.8185673356056213,-0.0,-0.0019105210667476058,0.7983219623565674,0.0,-0.00444432720541954
392.0,375.0,-0.2423,0.6748,9.7173,-0.0322,0.0211,-0.1187,-1.582792421380514,0.0,2.0456128120422363,-2.006443500518799,-0.0,1.972949743270874,5.053343045502462,0.0,0.2747940421104431,-1.6523736158954065,0.0,0.005021668504923582,0.8185352683067322,-0.0,-0.00020085438154637814,0.7983018755912781,0.0,-0.033411186188459396
392.0,375.0,-0.2423,0.6748,9.7173,-0.0322,0.0211,-0.1187,-1.582855840722555,0.0,2.025742530822754,-2.0064074993133545,-0.0,2.0341403484344482,5.0533112464244745,0.0,0.28082275390625,-1.6524017492877405,0.0,0.004507123492658138,0.8185832500457764,-0.0,0.0011808568378910422,0.7983541488647461,0.0,0.0038051335141062737
392.0,375.0,-0.2423,0.6748,9.7173,-0.0322,0.0211,-0.1187,-1.582804342309469,0.0,2.010596752166748,-2.006459951400757,-0.0,1.9761779308319092,5.053339320212164,0.0,0.300540030002594,-1.6523898283587855,0.0,0.0029702987521886826,0.8184788823127747,-0.0,-0.0037292749620974064,0.798342227935791,0.0,0.040458373725414276
392.0,375.0,-0.2423,0.6748,9.7173,-0.0322,0.0211,-0.1187,-1.5827881298460902,0.0,2.0683908462524414,-2.0064640045166016,-0.0,1.9648067951202393,5.053343283921041,0.0,0.29307979345321655,-1.6524055639850062,0.0,-0.007882543839514256,0.818547248840332,-0.0,0.005760448519140482,0.7982856631278992,0.0,-0.017215894535183907
425.0,376.0,-0.1639,0.6867,9.603,-0.0363,0.0257,-0.1185,-1.582787653008932,0.0,2.0346148014068604,-2.0064311027526855,-0.0,1.9410526752471924,5.0533790467079065,0.0,0.28921785950660706,-1.6524341742144983,0.0,-0.006248134188354015,0.8186071515083313,-0.0,-0.01834809221327305,0.798334002494812,0.0,0.04067571833729744
425.0,376.0,-0.1639,0.6867,9.603,-0.0363,0.0257,-0.1185,-1.5827676258482875,0.0,2.0688302516937256,-2.0065042972564697,-0.0,1.9810311794281006,5.05333902218894,0.0,0.28660130500793457,-1.6523616949664515,0.0,-0.0012165536172688007,0.8186033964157104,-0.0,-0.0051286593079566956,0.7983540892601013,0.0,-0.0112572917714715
425.0,376.0,-0.1639,0.6867,9.603,-0.0363,0.0257,-0.1185,-1.582775732079977,0.0,2.050274610519409,-2.006443500518799,-0.0,2.021068572998047,5.0533311543758295,0.0,0.2780660092830658,-1.6523736158954065,0.0,-0.0003027544589713216,0.8185553550720215,-0.0,-0.002435111440718174,0.7983018755912781,0.0,-0.012350762262940407
425.0,376.0,-0.1639,0.6867,9.603,-0.0363,0.0257,-0.1185,-1.5828081570067347,0.0,2.0952186584472656,-2.0064239501953125,-0.0,1.9818921089172363,5.053343283921041,0.0,0.29585111141204834,-1.652381722127096,0.0,0.001887964433990419,0.8185312151908875,-0.0,-0.0038322769105434418,0.7983499765396118,0.0,-0.0004159235395491123
425.0,376.0,-0.1639,0.6867,9.603,-0.0363,0.0257,-0.1185,-1.5827676258482875,0.0,2.0499396324157715,-2.0064806938171387,-0.0,2.0086097717285156,5.05332316735343,0.0,0.29103049635887146,-1.6523736158954065,0.0,-0.0051635983400046825,0.8185189962387085,-0.0,-0.0002718290488701314,0.7983178496360779,0.0,-0.028145428746938705
425.0,376.0,-0.1639,0.6867,9.603,-0.0363,0.0257,-0.1185,-1.5828319988646449,0.0,2.027944803237915,-2.0063867568969727,-0.0,2.025094985961914,5.05331917384223,0.0,0.27917805314064026,-1.652341667805807,0.0,0.005535685457289219,0.8185793161392212,-0.0,0.002371023641899228,0.7983137965202332,0.0,0.0029204729944467545
425.0,376.0,-0.1639,0.6867,9.603,-0.0363,0.0257,-0.1185,-1.582759519616598,0.0,2.0274107456207275,-2.006500244140625,-0.0,1.9894931316375732,5.053363221674719,0.0,0.28659701347351074,-1.6523616949664515,0.0,0.009932258166372776,0.8185513019561768,-0.0,-0.011424730531871319,0.7982936501502991,0.0,0.011186709627509117
425.0,376.0,-0.1639,0.6867,9.603,-0.0363,0.0257,-0.1185,-1.582804342309469,0.0,2.0142416954040527,-2.0064640045166016,-0.0,1.9812753200531006,5.0533311543758295,0.0,0.2970864176750183,-1.6523574034320276,0.0,-0.0012629893608391285,0.8185349702835083,-0.0,-0.0011512786149978638,0.7983704805374146,0.0,0.002214680891484022
425.0,376.0,-0.1639,0.6867,9.603,-0.0363,0.0257,-0.1185,-1.582804342309469,0.0,2.08874249458313,-2.0064032077789307,-0.0,1.9826151132583618,5.05333502867774,0.0,0.29047849774360657,-1.6523659865008753,0.0,-0.016328345984220505,0.8185952305793762,-0.0,0.01270877756178379,0.7983141541481018,0.0,0.040517598390579224
425.0,376.0,-0.1639,0.6867,9.603,-0.0363,0.0257,-0.1185,-1.5828081570067347,0.0,2.054927110671997,-2.0064516067504883,-0.0,1.987633466720581,5.053319203644552,0.0,0.288316011428833,-1.652337376271383,0.0,-0.010371961630880833,0.8186153769493103,-0.0,-0.0037447824142873287,0.7983500361442566,0.0,0.02567201480269432
425.0,376.0,-0.1639,0.6867,9.603,-0.0363,0.0257,-0.1185,-1.5827676258482875,0.0,2.0334720611572266,-2.0064682960510254,-0.0,2.0262703895568848,5.053347307234564,0.0,0.2946287989616394,-1.6523335615741175,0.0,-0.0015976564027369022,0.818535327911377,-0.0,-0.001423385227099061,0.7983100414276123,0.0,0.038074955344200134
392.0,395.0,-0.1418,0.6467,9.5629,-0.0429,0.0185,-0.1179,-1.5827919445433558,0.0,2.1014044284820557,-2.0064516067504883,-0.0,2.0498571395874023,5.053311216622152,0.0,0.2809825539588928,-1.6523574034320276,0.0,-0.006128890905529261,0.8185393810272217,-0.0,-0.005108764860779047,0.7983704209327698,0.0,0.02234676294028759
392.0,395.0,-0.1418,0.6467,9.5629,-0.0429,0.0185,-0.1179,-1.5828119717040003,0.0,2.02730393409729,-2.0064196586608887,-0.0,1.9798555374145508,5.053351241141119,0.0,0.28767409920692444,-1.6523454825030726,0.0,-0.007546615786850452,0.81856769323349,-0.0,-0.0019005052745342255,0.7983339428901672,0.0,0.009568975307047367
392.0,395.0,-0.1418,0.6467,9.5629,-0.0429,0.0185,-0.1179,-1.582759519616598,0.0,2.102294921875,-2.006411552429199,-0.0,2.0461301803588867,5.053319203644552,0.0,0.2931636869907379,-1.6523454825030726,0.0,0.001826828345656395,0.8185393810272217,-0.0,-0.015235252678394318,0.7983417510986328,0.0,0.030682504177093506
392.0,395.0,-0.1418,0.6467,9.5629,-0.0429,0.0185,-0.1179,-1.5827838383116664,0.0,2.047593116760254,-2.0064029693603516,-0.0,1.981057047843933,5.053343313723364,0.0,0.28230464458465576,-1.6523774305926722,0.0,0.006730698514729738,0.8185312151908875,-0.0,-0.004206080920994282,0.7983381152153015,0.0,-0.006406921893358231
392.0,395.0,-0.1418,0.6467,9.5629,-0.0429,0.0185,-0.1179,-1.582747598687643,0.0,2.0509276390075684,-2.0064642429351807,-0.0,1.9980229139328003,5.053307312517919,0.0,0.2931792140007019,-1.6523454825030726,0.0,-0.0029555652290582657,0.818535327911377,-0.0,-4.916486795991659e-05,0.7983059883117676,0.0,-0.027180489152669907
392.0,395.0,-0.1418,0.6467,9.5629,-0.0429,0.0185,-0.1179,-1.582803865472311,0.0,2.0965237617492676,-2.0064361095428467,-0.0,1.9425922632217407,5.053355234652319,0.0,0.2916734218597412,-1.6523779074298304,0.0,0.005918190348893404,0.818599283695221,-0.0,-0.0006208948907442391,0.7983260750770569,0.0,0.0339827686548233
392.0,395.0,-0.1418,0.6467,9.5629,-0.0429,0.0185,-0.1179,-1.5828081570067347,0.0,2.059847116470337,-2.0064518451690674,-0.0,2.0032098293304443,5.053343254118719,0.0,0.28290700912475586,-1.6523779074298304,0.0,-0.007498406805098057,0.8185312151908875,-0.0,-0.001085359137505293,0.7983216643333435,0.0,-0.014207916334271431
392.0,395.0,-0.1418,0.6467,9.5629,-0.0429,0.0185,-0.1179,-1.5827838383116664,0.0,2.065765380859375,-2.0063867568969727,-0.0,1.9532947540283203,5.053311306029119,0.0,0.28394025564193726,-1.6524017492877405,0.0,-0.0040391478687524796,0.8184829950332642,-0.0,0.001564965583384037,0.798334002494812,0.0,-0.03688330948352814
392.0,395.0,-0.1418,0.6467,9.5629,-0.0429,0.0185,-0.1179,-1.5828362903990687,0.0,2.022162914276123,-2.0064311027526855,-0.0,1.9672622680664062,5.0533072529132745,0.0,0.28767651319503784,-1.6524017492877405,0.0,0.001996593317016959,0.8185312151908875,-0.0,9.838968981057405e-05,0.7983137965202332,0.0,0.041732028126716614
392.0,395.0,-0.1418,0.6467,9.5629,-0.0429,0.0185,-0.1179,-1.582804342309469,0.0,2.068835735321045,-2.0064196586608887,-0.0,1.993741750717163,5.053247380047598,0.0,0.2892983853816986,-1.652393643056051,0.0,-0.007902921177446842,0.8185833096504211,-0.0,-0.011113418266177177,0.7983499765396118,0.0,-0.012266057543456554
392.0,395.0,-0.1418,0.6467,9.5629,-0.0429,0.0185,-0.1179,-1.5828081570067347,0.0,2.0377566814422607,-2.0064961910247803,-0.0,2.011003255844116,5.053339051991262,0.0,0.2865387797355652,-1.6523693243609827,0.0,-0.010284016840159893,0.8185148239135742,-0.0,-0.006779405754059553,0.7982935905456543,0.0,-0.024790426716208458
427.0,384.0,-0.1807,0.7442,9.5282,-0.0286,0.0221,-0.128,-1.5828162632384242,0.0,2.043541431427002,-2.0064921379089355,-0.0,1.978100061416626,5.053327101259985,0.0,0.29567253589630127,-1.6523779074298304,0.0,0.009670384228229523,0.8185836672782898,-0.0,0.0071099926717579365,0.7983059883117676,0.0,-0.04050788655877113
427.0,384.0,-0.1807,0.7442,9.5282,-0.0286,0.0221,-0.128,-1.5828281841673792,0.0,2.071977138519287,-2.006459951400757,-0.0,2.026867628097534,5.053347039013662,0.0,0.28774091601371765,-1.65240985551943,0.0,-0.000570039264857769,0.8185230493545532,-0.0,-0.0022472983691841364,0.7983540892601013,0.0,0.014432918280363083
427.0,384.0,-0.1807,0.7442,9.5282,-0.0286,0.0221,-0.128,-1.5828200779356898,0.0,2.042377233505249,-2.0064475536346436,-0.0,2.018429756164551,5.053331124573507,0.0,0.2876782715320587,-1.6523736158954065,0.0,0.010060785338282585,0.8186235427856445,-0.0,-0.0031308659818023443,0.7983018755912781,0.0,-0.02077135257422924
427.0,384.0,-0.1807,0.7442,9.5282,-0.0286,0.0221,-0.128,-1.5827800236144007,0.0,2.0395753383636475,-2.0064477920532227,-0.0,1.9900963306427002,5.053367155581274,0.0,0.28485000133514404,-1.6523855368243616,0.0,-0.000891346950083971,0.818535327911377,-0.0,-0.018347889184951782,0.7983381152153015,0.0,-0.014425468631088734
427.0,384.0,-0.1807,0.7442,9.5282,-0.0286,0.0221,-0.128,-1.5828439197936,0.0,2.065927028656006,-2.0064475536346436,-0.0,2.01080060005188,5.053327101259985,0.0,0.28404688835144043,-1.6524017492877405,0.0,0.0024832207709550858,0.8185230493545532,-0.0,0.007716952823102474,0.7983137369155884,0.0,0.005824508145451546
427.0,384.0,-0.1807,0.7442,9.5282,-0.0286,0.0221,-0.128,-1.582787653008932,0.0,2.0562033653259277,-2.0064280033111572,-0.0,2.0160486698150635,5.0533311543758295,0.0,0.29093214869499207,-1.6524055639850062,0.0,0.0024156090803444386,0.8185431361198425,-0.0,0.0006679429206997156,0.7983178496360779,0.0,-0.001621790463104844
427.0,384.0,-0.1807,0.7442,9.5282,-0.0286,0.0221,-0.128,-1.5827633343138636,0.0,2.072300910949707,-2.0063908100128174,-0.0,2.0002729892730713,5.053287136345663,0.0,0.27813759446144104,-1.6523659865008753,0.0,0.008403241634368896,0.8185874223709106,-0.0,0.006720159202814102,0.7982980012893677,0.0,-0.0028504342772066593
427.0,384.0,-0.1807,0.7442,9.5282,-0.0286,0.0221,-0.128,-1.5828200779356898,0.0,2.070448160171509,-2.0064280033111572,-0.0,2.0087504386901855,5.053379076510229,0.0,0.27596616744995117,-1.6523812452899378,0.0,0.005778714548796415,0.8185513615608215,-0.0,-0.003750187810510397,0.7983059883117676,0.0,0.0007363622426055372
427.0,384.0,-0.1807,0.7442,9.5282,-0.0286,0.0221,-0.128,-1.582792421380514,0.0,2.0616912841796875,-2.0064518451690674,-0.0,2.0068728923797607,5.053323137551107,0.0,0.28724420070648193,-1.6523736158954065,0.0,0.004631871823221445,0.8185030817985535,-0.0,0.003100627101957798,0.7983499765396118,0.0,-0.04118015617132187
427.0,384.0,-0.1807,0.7442,9.5282,-0.0286,0.0221,-0.128,-1.5827633343138636,0.0,2.0436010360717773,-2.006443500518799,-0.0,1.9902005195617676,5.053355234652319,0.0,0.2847757637500763,-1.6524136702166956,0.0,-0.01389284711331129,0.8185550570487976,-0.0,-0.010535305365920067,0.7983059883117676,0.0,-0.006151457317173481
427.0,384.0,-0.1807,0.7442,9.5282,-0.0286,0.0221,-0.128,-1.5827957592406214,0.0,2.072214126586914,-2.006443500518799,-0.0,2.000443935394287,5.053319203644552,0.0,0.29280370473861694,-1.6523578802691858,0.0,-0.004630184732377529,0.8185030221939087,-0.0,-0.0032386761158704758,0.7983178496360779,0.0,0.04057060554623604
414.0,388.0,-0.1663,0.673,9.5761,-0.0415,0.0211,-0.1162,-1.5828081570067347,0.0,2.038479804992676,-2.0064239501953125,-0.0,2.008165121078491,5.053307312517919,0.0,0.29435721039772034,-1.6523931662188929,0.0,-0.003755812533199787,0.8185632228851318,-0.0,0.0075525338761508465,0.7983906865119934,0.0,0.025640681385993958
414.0,388.0,-0.1663,0.673,9.5761,-0.0415,0.0211,-0.1162,-1.5827676258482875,0.0,2.051973581314087,-2.006455898284912,-0.0,2.00575852394104,5.053311216622152,0.0,0.27548614144325256,-1.6523616949664515,0.0,-0.002885260386392474,0.8185669779777527,-0.0,-0.005074572749435902,0.7983096241950989,0.0,-0.020845599472522736
414.0,388.0,-0.1663,0.673,9.5761,-0.0415,0.0211,-0.1162,-1.5827881298460902,0.0,2.051309585571289,-2.006500244140625,-0.0,2.0018680095672607,5.053303319006719,0.0,0.29478567838668823,-1.6523297468768519,0.0,-0.012282593175768852,0.8185230493545532,-0.0,-0.005880499724298716,0.7983865737915039,0.0,-0.054112859070301056
414.0,388.0,-0.1663,0.673,9.5761,-0.0415,0.0211,-0.1162,-1.5828119717040003,0.0,2.043818950653076,-2.006411552429199,-0.0,2.0190796852111816,5.053287195950308,0.0,0.289372056722641,-1.6523779074298304,0.0,-0.0010248220060020685,0.818551242351532,-0.0,-0.006017469801008701,0.7983381152153015,0.0,-0.00014022947289049625
414.0,388.0,-0.1663,0.673,9.5761,-0.0415,0.0211,-0.1162,-1.5828362903990687,0.0,2.022040367126465,-2.006455898284912,-0.0,1.9682694673538208,5.053291368275442,0.0,0.28915372490882874,-1.6523616949664515,0.0,-0.005118501838296652,0.8185632228851318,-0.0,0.00938478298485279,0.7983018755912781,0.0,-0.006462645251303911
414.0,388.0,-0.1663,0.673,9.5761,-0.0415,0.0211,-0.1162,-1.5828601322569789,0.0,2.061398983001709,-2.006455898284912,-0.0,2.0227389335632324,5.053283172636785,0.0,0.28754475712776184,-1.6523736158954065,0.0,0.009551744908094406,0.8185431361198425,-0.0,-0.005127886310219765,0.7983540892601013,0.0,-0.005018192809075117
414.0,388.0,-0.1663,0.673,9.5761,-0.0415,0.0211,-0.1162,-1.5827676258482875,0.0,2.0421605110168457,-2.006476640701294,-0.0,1.9864678382873535,5.053343283921041,0.0,0.2887900173664093,-1.65240985551943,0.0,-0.004862377420067787,0.8185833096504211,-0.0,-0.01189710758626461,0.798285722732544,0.0,0.034853193908929825
414.0,388.0,-0.1663,0.673,9.5761,-0.0415,0.0211,-0.1162,-1.5828119717040003,0.0,2.0621423721313477,-2.006455898284912,-0.0,2.0115463733673096,5.05329110005454,0.0,0.2930530607700348,-1.652353588734762,0.0,0.0058366358280181885,0.818535327911377,-0.0,-0.0001261326251551509,0.798346221446991,0.0,-0.008980074897408485
414.0,388.0,-0.1663,0.673,9.5761,-0.0415,0.0211,-0.1162,-1.5828319988646449,0.0,2.0466909408569336,-2.0064516067504883,-0.0,2.0130062103271484,5.053319203644552,0.0,0.2844146490097046,-1.6523574034320276,0.0,-0.000629170797765255,0.818535327911377,-0.0,0.002591766882687807,0.7983141541481018,0.0,0.01744266040623188
414.0,388.0,-0.1663,0.673,9.5761,-0.0415,0.0211,-0.1162,-1.5827838383116664,0.0,2.1118111610412598,-2.0064196586608887,-0.0,2.008061170578003,5.053331124573507,0.0,0.2946341335773468,-1.652393643056051,0.0,-0.0030894360970705748,0.8185390830039978,-0.0,-0.0014579938724637032,0.7983463406562805,0.0,0.029335450381040573
414.0,388.0,-0.1663,0.673,9.5761,-0.0415,0.0211,-0.1162,-1.5828200779356898,0.0,2.0547049045562744,-2.006443500518799,-0.0,2.0020675659179688,5.0533830402191064,0.0,0.28773799538612366,-1.6524179617511194,0.0,0.0036986572667956352,0.8184787631034851,-0.0,-0.0012913289247080684,0.7983376383781433,0.0,0.015473133884370327
415.0,390.0,-0.2064,0.7436,9.6766,-0.0341,0.0163,-0.1202,-1.5828162632384242,0.0,2.058051109313965,-2.006459951400757,-0.0,2.027642250061035,5.053331124573507,0.0,0.2799818813800812,-1.652341667805807,0.0,-0.0046295663341879845,0.8185067176818848,-0.0,-0.016093935817480087,0.7982777953147888,0.0,0.006704793311655521
415.0,390.0,-0.2064,0.7436,9.6766,-0.0341,0.0163,-0.1202,-1.5827957592406214,0.0,2.0499184131622314,-2.0063793659210205,-0.0,1.9970102310180664,5.053327101259985,0.0,0.28481876850128174,-1.6524017492877405,0.0,-0.004611286800354719,0.8185632228851318,-0.0,0.0009367443853989244,0.7983499765396118,0.0,-0.03428898751735687
415.0,390.0,-0.2064,0.7436,9.6766,-0.0341,0.0163,-0.1202,-1.5827957592406214,0.0,2.046461820602417,-2.006399154663086,-0.0,1.993307113647461,5.053311216622152,0.0,0.28559359908103943,-1.6524136702166956,0.0,0.0005772750009782612,0.8185673356056213,-0.0,-0.007969371043145657,0.798334002494812,0.0,-0.04144056513905525
415.0,390.0,-0.2064,0.7436,9.6766,-0.0341,0.0163,-0.1202,-1.582804342309469,0.0,2.030268907546997,-2.006459951400757,-0.0,2.025304079055786,5.053287166147985,0.0,0.2844752371311188,-1.6523855368243616,0.0,-0.0075120446272194386,0.8185476064682007,-0.0,-0.007433820515871048,0.7983580827713013,0.0,-0.027919158339500427
415.0,390.0,-0.2064,0.7436,9.6766,-0.0341,0.0163,-0.1202,-1.5828076801695765,0.0,2.079655885696411,-2.006411552429199,-0.0,2.008847236633301,5.053319203644552,0.0,0.2940978407859802,-1.6523855368243616,0.0,-0.016709038987755775,0.8185149431228638,-0.0,0.005640031304210424,0.7983219623565674,0.0,0.006632443517446518
415.0,390.0,-0.2064,0.7436,9.6766,-0.0341,0.0163,-0.1202,-1.582771440545553,0.0,2.015843391418457,-2.0064237117767334,-0.0,2.033116340637207,5.053327101259985,0.0,0.2844789922237396,-1.6523492972003382,0.0,-0.0032405208330601454,0.8185955882072449,-0.0,-0.0028267044108361006,0.7983260154724121,0.0,-0.024898208677768707
415.0,390.0,-0.2064,0.7436,9.6766,-0.0341,0.0163,-0.1202,-1.5827957592406214,0.0,2.0561532974243164,-2.0064361095428467,-0.0,2.0308990478515625,5.0533430753047845,0.0,0.28469017148017883,-1.652353588734762,0.0,0.006409916095435619,0.8184948563575745,-0.0,-0.0025674772914499044,0.7983381152153015,0.0,-0.0011772895231842995
415.0,390.0,-0.2064,0.7436,9.6766,-0.0341,0.0163,-0.1202,-1.5828200779356898,0.0,2.074504852294922,-2.0064401626586914,-0.0,2.0017247200012207,5.053327101259985,0.0,0.2758164703845978,-1.652365509663717,0.0,0.0010562801035121083,0.8185070753097534,-0.0,-0.002033065538853407,0.7982936501502991,0.0,0.014518385753035545
415.0,390.0,-0.2064,0.7436,9.6766,-0.0341,0.0163,-0.1202,-1.5828362903990687,0.0,2.0707929134368896,-2.006460189819336,-0.0,2.0348622798919678,5.053355234652319,0.0,0.2929679751396179,-1.652393643056051,0.0,0.005044273566454649,0.8185673356056213,-0.0,-0.0056886919774115086,0.7983178496360779,0.0,-0.01808961108326912
415.0,390.0,-0.2064,0.7436,9.6766,-0.0341,0.0163,-0.1202,-1.5827919445433558,0.0,2.0679538249969482,-2.006439208984375,-0.0,1.9942657947540283,5.053303319006719,0.0,0.2819782495498657,-1.6524341742144983,0.0,0.0012946553761139512,0.8185189962387085,-0.0,-0.018309026956558228,0.7983178496360779,0.0,-0.033636752516031265
415.0,390.0,-0.2064,0.7436,9.6766,-0.0341,0.0163,-0.1202,-1.5827957592406214,0.0,2.0369482040405273,-2.006443500518799,-0.0,2.0259861946105957,5.053315239935674,0.0,0.29321321845054626,-1.652437988911764,0.0,0.002563203452154994,0.8185189366340637,-0.0,0.005659457296133041,0.798334002494812,0.0,0.0015421919524669647
423.0,383.0,-0.073,0.7196,9.2315,-0.0406,0.0347,-0.128,-1.5828396282591761,0.0,2.053858518600464,-2.006375312805176,-0.0,1.9886045455932617,5.053355234652319,0.0,0.28331664204597473,-1.6524542013751429,0.0,-0.001246781786903739,0.8185189962387085,-0.0,-0.0023818695917725563,0.7982898354530334,0.0,0.02080562151968479
423.0,383.0,-0.073,0.7196,9.2315,-0.0406,0.0347,-0.128,-1.582775732079977,0.0,2.0278351306915283,-2.0064797401428223,-0.0,2.0110838413238525,5.053271221905508,0.0,0.29618483781814575,-1.652397934590475,0.0,-0.0004864733200520277,0.8185229897499084,-0.0,0.002471213461831212,0.7983260154724121,0.0,-0.03222142159938812
423.0,383.0,-0.073,0.7196,9.2315,-0.0406,0.0347,-0.128,-1.5828119717040003,0.0,2.0593910217285156,-2.0064806938171387,-0.0,2.0302882194519043,5.05332316735343,0.0,0.269387423992157,-1.6523492972003382,0.0,-0.010906306095421314,0.8185431361198425,-0.0,-0.013176609762012959,0.7983663082122803,0.0,-0.04513724893331528
423.0,383.0,-0.073,0.7196,9.2315,-0.0406,0.0347,-0.128,-1.582792421380514,0.0,2.0555458068847656,-2.0064642429351807,-0.0,2.032449960708618,5.053311335831442,0.0,0.2834789752960205,-1.6523931662188929,0.0,0.0008937576785683632,0.8185510039329529,-0.0,0.0002010582247748971,0.798334002494812,0.0,-0.017977621406316757
423.0,383.0,-0.073,0.7196,9.2315,-0.0406,0.0347,-0.128,-1.5827957592406214,0.0,2.0500705242156982,-2.0064280033111572,-0.0,2.0176241397857666,5.05332316735343,0.0,0.28130802512168884,-1.652365509663717,0.0,-0.01290032360702753,0.8184988498687744,-0.0,-0.006574548780918121,0.7983622550964355,0.0,-0.02472701668739319
423.0,383.0,-0.073,0.7196,9.2315,-0.0406,0.0347,-0.128,-1.5828520260252894,0.0,2.0598702430725098,-2.0065250396728516,-0.0,2.012753486633301,5.05332316735343,0.0,0.29963627457618713,-1.6523574034320276,0.0,-0.005845183506608009,0.8185915946960449,-0.0,-0.00229426147416234,0.7983417510986328,0.0,0.010562775656580925
423.0,383.0,-0.073,0.7196,9.2315,-0.0406,0.0347,-0.128,-1.5828076801695765,0.0,2.0723612308502197,-2.006395101547241,-0.0,2.0149707794189453,5.053335088282385,0.0,0.284818172454834,-1.6523893515216272,0.0,0.015835192054510117,0.8185672760009766,-0.0,-0.0016709192423149943,0.7983299493789673,0.0,0.007554163690656424
423.0,383.0,-0.073,0.7196,9.2315,-0.0406,0.0347,-0.128,-1.5828076801695765,0.0,2.0467052459716797,-2.0064475536346436,-0.0,1.9647483825683594,5.053315299540319,0.0,0.2700721025466919,-1.6524179617511194,0.0,-0.003347281366586685,0.8185911178588867,-0.0,0.00234547583386302,0.7983621954917908,0.0,0.008591443300247192
423.0,383.0,-0.073,0.7196,9.2315,-0.0406,0.0347,-0.128,-1.5827719173827113,0.0,2.0514721870422363,-2.006427049636841,-0.0,2.008434772491455,5.05329509356574,0.0,0.2783048748970032,-1.6523492972003382,0.0,-0.004102478735148907,0.8185390830039978,-0.0,0.001770388800650835,0.7983580827713013,0.0,-0.029388904571533203
423.0,383.0,-0.073,0.7196,9.2315,-0.0406,0.0347,-0.128,-1.5828119717040003,0.0,2.0303733348846436,-2.0064682960510254,-0.0,1.966196060180664,5.053311306029119,0.0,0.2872185707092285,-1.6523731390582483,0.0,-0.002691019093617797,0.8185393810272217,-0.0,-0.010086797177791595,0.7983539700508118,0.0,0.029537111520767212
423.0,383.0,-0.073,0.7196,9.2315,-0.0406,0.0347,-0.128,-1.5828401050963343,0.0,2.057443380355835,-2.0064196586608887,-0.0,1.9621407985687256,5.053271311312475,0.0,0.28086987137794495,-1.65240985551943,0.0,-0.003624637145549059,0.8185591697692871,-0.0,-0.004584102891385555,0.7983417510986328,0.0,0.023305702954530716
378.0,370.0,-0.2483,0.5503,9.3966,-0.0565,0.0298,-0.1121,-1.5828238926329554,0.0,2.0647521018981934,-2.0064074993133545,-0.0,2.006631374359131,5.053255367069998,0.0,0.2873961925506592,-1.652393643056051,0.0,-0.009358490817248821,0.818599283695221,-0.0,-0.025276269763708115,0.7983701229095459,0.0,-0.002409939654171467
378.0,370.0,-0.2483,0.5503,9.3966,-0.0565,0.0298,-0.1121,-1.5828281841673792,0.0,2.0544233322143555,-2.006504535675049,-0.0,1.9479936361312866,5.053263085871496,0.0,0.27730265259742737,-1.6523893515216272,0.0,-0.005566655658185482,0.8185390830039978,-0.0,-0.005180782172828913,0.7983742356300354,0.0,-0.0003054691478610039
378.0,370.0,-0.2483,0.5503,9.3966,-0.0565,0.0298,-0.1121,-1.5828238926329554,-1.3638753754846578e-12,2.07489013671875,-2.006500244140625,-0.0,1.9927477836608887,5.053271311312475,0.0,0.27647724747657776,-1.6523855368243616,0.0,0.004452047869563103,0.8185189962387085,-0.0,0.00120511744171381,0.7983299493789673,0.0,0.0054276371374726295
378.0,370.0,-0.2483,0.5503,9.3966,-0.0565,0.0298,-0.1121,-1.5828844509520472,-4.418782353269508e-20,2.081834316253662,-2.0064682960510254,-4.289159915060736e-05,1.9847965240478516,5.053231286793508,-0.0002903738641180098,0.2805885076522827,-1.6523779074298304,0.0,0.0024862841237336397,0.8185591697692871,-0.0,-0.009700515307486057,0.7983299493789673,0.0,0.022662855684757233
378.0,370.0,-0.2483,0.5503,9.3966,-0.0565,0.0298,-0.1121,-1.5827795467772425,-1.431629142656066e-27,2.0438930988311768,-2.006455898284912,-6.094124910305254e-05,2.02885103225708,5.053238886385717,-0.0002994195674546063,0.2890253961086273,-1.6523855368243616,0.0,0.00042534107342362404,0.8185713291168213,-0.0,0.00036662223283201456,0.7982937097549438,0.0,-0.014022892341017723
378.0,370.0,-0.2483,0.5503,9.3966,-0.0565,0.0298,-0.1121,-1.5828315220274867,-4.638295800393944e-35,2.0588393211364746,-2.0064682960510254,-4.759560033562593e-05,2.0000863075256348,5.053247201233663,-0.00030609595705755055,0.28529274463653564,-1.6524017492877405,0.0,-0.004452240653336048,0.8186074495315552,-0.0,0.004255794920027256,0.7983459234237671,0.0,0.0017193456878885627
378.0,370.0,-0.2483,0.5503,9.3966,-0.0565,0.0298,-0.1121,-1.5828639469542445,-1.502191953756204e-42,2.0614850521087646,-2.006460189819336,-4.398750024847686e-05,1.9988315105438232,5.053247231035986,-0.00029146356973797083,0.28554224967956543,-1.6523616949664515,0.0,0.004050539806485176,0.8185911178588867,-0.0,-0.0012786192819476128,0.7983459234237671,0.0,0.002166187856346369
378.0,370.0,-0.2483,0.5503,9.3966,-0.0565,0.0298,-0.1121,-1.5828196010985316,0.0,2.0275840759277344,-2.0064475536346436,-5.514058648259379e-05,2.0284881591796875,5.053235280304708,-0.00037876161513850093,0.292426198720932,-1.6523812452899378,0.0,-0.004506741650402546,0.8185672760009766,-0.0,0.01176690123975277,0.7983499765396118,0.0,0.035063572227954865
378.0,370.0,-0.2483,0.5503,9.3966,-0.0565,0.0298,-0.1121,-1.5828639469542445,-4.024803729407722e-06,2.046015501022339,-2.006476640701294,-4.428620377439074e-05,2.0231261253356934,5.053223359375753,-0.0006411965005099773,0.27613621950149536,-1.6523574034320276,0.0,-0.01804022118449211,0.8186350464820862,-0.0,0.0009353862260468304,0.7983219623565674,0.0,-0.015480519272387028
378.0,370.0,-0.2483,0.5503,9.3966,-0.0565,0.0298,-0.1121,-1.5828596554198207,-0.00019466932280920446,2.021984577178955,-2.006500244140625,-3.554113209247589e-05,2.0332143306732178,5.053219395666876,-0.0005019641830585897,0.2830672264099121,-1.6523173491107386,0.0,-0.0014274800196290016,0.8185750842094421,-0.0,-0.003966538235545158,0.798334002494812,0.0,-0.021155644208192825
378.0,370.0,-0.2483,0.5503,9.3966,-0.0565,0.0298,-0.1121,-1.5828801594176234,-0.00019835424609482288,2.0527095794677734,-2.0064756870269775,-3.069270678679459e-05,2.0032761096954346,5.053195076971807,-0.00041326062637381256,0.2874809801578522,-1.6523855368243616,0.0,-0.007056315895169973,0.818539023399353,-0.0,-0.008634681813418865,0.7983580827713013,0.0,0.02669619396328926
397.0,382.0,-0.0293,0.6909,9.4941,-0.0443,0.0131,-0.1145,-1.5829040012755335,-0.0003457305137999356,2.032480001449585,-2.0064756870269775,-2.7008400138583966e-05,1.9770753383636475,5.053243177920141,-0.00027605731156654656,0.28642788529396057,-1.652353588734762,0.0,-0.002836819039657712,0.8185914754867554,-0.0,0.006428094115108252,0.7983943223953247,0.0,0.09214159846305847
397.0,382.0,-0.0293,0.6909,9.4941,-0.0443,0.0131,-0.1145,-1.5829040012755335,-0.00031733521609567106,2.0574352741241455,-2.0064516067504883,-2.5519131079121404e-12,1.964449405670166,5.053183036833563,-0.00022160806111060083,0.2931331992149353,-1.6523736158954065,0.0,0.0014031269820407033,0.8185788989067078,-0.0,0.006595714949071407,0.7983459234237671,0.0,-0.007595380302518606
397.0,382.0,-0.0293,0.6909,9.4941,-0.0443,0.0131,-0.1145,-1.58286776165151,-0.0002997543488163501,2.059842109680176,-2.006500244140625,-8.267874432681236e-20,1.9825210571289062,5.053223359375753,-0.00018513084796722978,0.2863904535770416,-1.6523693243609827,0.0,0.007119064684957266,0.8185833096504211,-0.0,-0.009605527855455875,0.798334002494812,0.0,-0.004498161841183901
397.0,382.0,-0.0293,0.6909,9.4941,-0.0443,0.0131,-0.1145,-1.582895895043844,-0.00025182432727888227,2.0609781742095947,-2.0064518451690674,-2.678685826126809e-27,2.0164685249328613,5.053223359375753,-0.00015896669356152415,0.28122973442077637,-1.6523693243609827,0.0,0.016977865248918533,0.8186075091362,-0.0,-0.0025829412043094635,0.7983902096748352,0.0,-0.03517390787601471
397.0,382.0,-0.0293,0.6909,9.4941,-0.0443,0.0131,-0.1145,-1.5828882656493128,-0.00024797720834612846,2.059868812561035,-2.0064642429351807,-8.678600749752171e-35,2.0281522274017334,5.053227412491598,-0.00013928317639511079,0.29512515664100647,-1.6523812452899378,0.0,-0.0062697408720850945,0.8185669779777527,-0.0,-0.0008510348270647228,0.7983701229095459,0.0,0.024244090542197227
397.0,382.0,-0.0293,0.6909,9.4941,-0.0443,0.0131,-0.1145,-1.5828353367247523,-0.00021165458019822836,2.036698818206787,-2.006455898284912,-3.783505853677006e-44,1.9938496351242065,5.0532551286514185,-0.00012061520101269707,0.2899478077888489,-1.6523893515216272,0.0,0.0023110676556825638,0.8186030387878418,-0.0,0.003267602762207389,0.7983376979827881,3.983342128366374e-11,0.032336629927158356
397.0,382.0,-0.0293,0.6909,9.4941,-0.0443,0.0131,-0.1145,-1.5828796825804652,-0.0001893851876957342,2.006831645965576,-2.0064475536346436,-0.0,2.0223097801208496,5.053211200028219,-0.00010893523722188547,0.2816556692123413,-1.6524055639850062,0.0,0.005034749396145344,0.8186071515083313,-0.0,-0.0017775201704353094,0.7984182238578796,1.2905521990566313e-18,0.02369724214076996
397.0,382.0,-0.0293,0.6909,9.4941,-0.0443,0.0131,-0.1145,-1.5828472576537074,-0.00017135585949290544,2.0457921028137207,-2.00647234916687,-0.0,2.009632110595703,5.053183185845175,-0.00011917531082872301,0.29383227229118347,-1.6524055639850062,0.0,-0.002965917345136404,0.8185989856719971,-0.0,0.01002135407179594,0.7983742356300354,4.181224724143799e-26,0.010348920710384846
397.0,382.0,-0.0293,0.6909,9.4941,-0.0443,0.0131,-0.1145,-1.5828396282591761,-0.0001239038974745199,2.0528171062469482,-2.0064961910247803,-0.0,1.9491310119628906,5.053194957762518,-0.00012537103611975908,0.2926020324230194,-1.6524260679828089,0.0,-0.017503149807453156,0.8185749053955078,-0.0,0.008065417408943176,0.7983580827713013,0.0003020258154720068,0.04642033204436302
397.0,382.0,-0.0293,0.6909,9.4941,-0.0443,0.0131,-0.1145,-1.582883974114889,-0.00013382772158365697,2.044294834136963,-2.006459951400757,-0.0,2.02807879447937,5.05319498756484,-0.00013498598127625883,0.2772839665412903,-1.6523492972003382,0.0,-0.003246188862249255,0.8186109066009521,-0.0,0.006784945726394653,0.7982973456382751,0.0002857158542610705,0.10031944513320923
397.0,382.0,-0.0293,0.6909,9.4941,-0.0443,0.0131,-0.1145,-1.5828796825804652,-0.00015550776151940227,2.006486177444458,-2.0064961910247803,-0.0,1.9936134815216064,5.053219187050619,-0.00011925655417144299,0.2839019000530243,-1.652381722127096,0.0,-0.008054007776081562,0.8185710906982422,-0.0,0.0038511729799211025,0.7983860969543457,0.00023580508423037827,0.03332972526550293
376.0,388.0,-0.1848,0.6784,9.6144,-0.0338,0.0168,-0.1229,-1.5828429661192835,-0.00031269105966202915,2.002493381500244,-2.006439447402954,-0.0,2.002713680267334,5.053203004389562,-0.00013304203457664698,0.2806467115879059,-1.6524141470538538,0.0,-0.0038889143615961075,0.8185948729515076,-0.0,0.014370091259479523,0.7983943819999695,0.00020073966879863292,0.0789649486541748
376.0,388.0,-0.1848,0.6784,9.6144,-0.0338,0.0168,-0.1229,-1.582912107507223,-0.00032503422698937356,1.9964474439620972,-2.006476640701294,-0.0,1.9775516986846924,5.053174990206518,-0.00037777971010655165,0.2694877088069916,-1.6523454825030726,0.0,0.00786086916923523,0.818626880645752,-0.0,0.004039390943944454,0.7983742356300354,0.00019748814520426095,0.079229936003685
376.0,388.0,-0.1848,0.6784,9.6144,-0.0338,0.0168,-0.1229,-1.582883974114889,-0.0005159031134098768,1.9943907260894775,-2.0064311027526855,-0.0,2.019455671310425,5.053187149554052,-0.00034998098271898925,0.2802034914493561,-1.6523736158954065,0.0,-0.006185741163790226,0.8186269402503967,-0.0,0.01632016897201538,0.7983660697937012,0.00017548406322021037,0.11664178967475891
376.0,388.0,-0.1848,0.6784,9.6144,-0.0338,0.0168,-0.1229,-1.5829116306700648,-0.000889988208655268,1.9604891538619995,-2.0064475536346436,-0.0,2.0192184448242188,5.05319910028533,-0.0003253385948482901,0.27753952145576477,-1.6523335615741175,0.0,0.001590765081346035,0.8185185790061951,-0.0,0.007651068270206451,0.7983376979827881,0.00018044718308374286,0.14180798828601837
376.0,388.0,-0.1848,0.6784,9.6144,-0.0338,0.0168,-0.1229,-1.5829278431334437,-0.0010881922207772732,1.9647009372711182,-2.0064806938171387,-0.0,1.9854387044906616,5.053159314184942,-0.00030839224928058684,0.27116233110427856,-1.6524260679828089,0.0,-0.0049941157922148705,0.8186190724372864,-0.0,0.033710986375808716,0.7983819842338562,0.0001697894185781479,0.14740636944770813
376.0,388.0,-0.1848,0.6784,9.6144,-0.0338,0.0168,-0.1229,-1.5829478702940882,-0.0013153088511899114,1.991457223892212,-2.0064682960510254,-0.0,2.000580072402954,5.053195076971807,-0.00026634972891770303,0.2565097212791443,-1.652393643056051,0.0,-0.00580575130879879,0.818635106086731,-0.0,0.017046809196472168,0.7983620166778564,0.00020110153127461672,0.14172321557998657
376.0,388.0,-0.1848,0.6784,9.6144,-0.0338,0.0168,-0.1229,-1.5829922161498011,-0.003852440044283867,1.979705572128296,-2.006455898284912,-0.0,2.014930009841919,5.0531553504760645,-0.00029024624382145703,0.26013630628585815,-1.6523297468768519,0.0,-0.015448436141014099,0.8185990452766418,-0.0,0.028429552912712097,0.7983701229095459,0.0005439690430648625,0.2023496776819229
376.0,388.0,-0.1848,0.6784,9.6144,-0.0338,0.0168,-0.1229,-1.5830522976317347,-0.007963893003761768,1.9682457447052002,-2.0064311027526855,-0.0,1.9997069835662842,5.053171235113897,-0.00028888953966088593,0.27127310633659363,-1.652393643056051,0.0,-0.019423017278313637,0.8186350464820862,9.141849295701832e-05,0.005811288952827454,0.7984100580215454,0.0009189327829517424,0.1667347550392151
376.0,388.0,-0.1848,0.6784,9.6144,-0.0338,0.0168,-0.1229,-1.5830956898131312,-0.007379386108368635,1.9045584201812744,-2.006411552429199,-0.0,1.9985835552215576,5.053135174303808,-0.00029889409779570997,0.2623354196548462,-1.6523578802691858,0.0,-0.012582216411828995,0.8186191320419312,0.00010241368727292866,0.019060127437114716,0.7983856201171875,0.002433990826830268,0.17095932364463806
376.0,388.0,-0.1848,0.6784,9.6144,-0.0338,0.0168,-0.1229,-1.5831314525999964,-0.005804166197776794,1.9240044355392456,-2.0064475536346436,-0.0,2.0417919158935547,5.053179162531652,-0.0002829947043210268,0.25267839431762695,-1.6524055639850062,0.0,-0.012705272063612938,0.8186789155006409,0.00010327673953725025,0.0242181234061718,0.7984502911567688,0.0069129872135818005,0.2693175971508026
376.0,388.0,-0.1848,0.6784,9.6144,-0.0338,0.0168,-0.1229,-1.5832239590086878,-0.006303478963673115,1.8761773109436035,-2.0064475536346436,0.00010051277786260471,2.0578653812408447,5.053111272841253,-0.0004932445008307695,0.2724345028400421,-1.6523574034320276,0.0,-0.02644137293100357,0.8186104893684387,0.00011131621431559324,0.02747430093586445,0.7984699606895447,0.01004922017455101,0.26425230503082275
383.0,395.0,-0.4427,0.8776,9.6712,-0.0528,0.0041,-0.108,-1.5832835636534632,-0.007275799755007029,1.9268994331359863,-2.006415605545044,8.21599387563765e-05,1.9833109378814697,5.053163546114721,-0.0013334399554878473,0.27679669857025146,-1.65240985551943,0.0,-0.022461097687482834,0.8185866475105286,0.0001114951737690717,0.025461845099925995,0.798590362071991,0.008805600926280022,0.2352987825870514
383.0,395.0,-0.4427,0.8776,9.6712,-0.0528,0.0041,-0.108,-1.5833198032774867,-0.006083535496145487,1.88334059715271,-2.006455898284912,0.0001375389692839235,2.049675226211548,5.053094404726782,-0.00148519198410213,0.25303584337234497,-1.6523898283587855,0.0,-0.007058452814817429,0.8186268210411072,0.00022357662965077907,0.030989881604909897,0.7986422777175903,0.008955853059887886,0.3070756196975708
383.0,395.0,-0.4427,0.8776,9.6712,-0.0528,0.0041,-0.108,-1.5833631954588832,-0.004177593160420656,1.8753879070281982,-2.006371021270752,0.00017982057761400938,2.0345287322998047,5.053110915213384,-0.002479334594681859,0.2592029869556427,-1.6524017492877405,0.0,-0.02542690932750702,0.8186665773391724,0.00020693497208412737,0.03735586255788803,0.7987183332443237,0.008597825653851032,0.26586106419563293
383.0,395.0,-0.4427,0.8776,9.6712,-0.0528,0.0041,-0.108,-1.5833713016905726,-0.002934711519628763,1.8560432195663452,-2.0064682960510254,0.00019003779743798077,1.9957573413848877,5.053103405028143,-0.011937892064452171,0.24283012747764587,-1.6523779074298304,0.0,-0.022161182016134262,0.8186628818511963,0.00020933125051669776,0.040683697909116745,0.798802375793457,0.00802752748131752,0.3234206438064575
383.0,395.0,-0.4427,0.8776,9.6712,-0.0528,0.0041,-0.108,-1.5834275684752406,-0.004208337049931288,1.8185349702835083,-2.0064196586608887,0.00018793852359522134,2.059628486633301,5.052846538811483,-0.021904876455664635,0.22853130102157593,-1.6524055639850062,0.0,-0.024255461990833282,0.8186227083206177,0.0002051487535936758,0.04868371784687042,0.7988864183425903,0.008641958236694336,0.3061118423938751
383.0,395.0,-0.4427,0.8776,9.6712,-0.0528,0.0041,-0.108,-1.5834719143309535,-0.005475108977407217,1.8125141859054565,-2.0064239501953125,0.00029357633320614696,2.0406248569488525,5.052719104080953,-0.0197161715477705,0.23198984563350677,-1.6523616949664515,0.0,-0.02109469100832939,0.818651020526886,0.00021671339345630258,0.04349423199892044,0.7989464402198792,0.007125956006348133,0.3787684440612793
383.0,395.0,-0.4427,0.8776,9.6712,-0.0528,0.0041,-0.108,-1.583487173120016,-0.0074863857589662075,1.8204467296600342,-2.0064682960510254,0.0002328130358364433,1.9890227317810059,5.0525830564792535,-0.013142148032784462,0.2384890615940094,-1.652393643056051,0.0,-0.02526526339352131,0.8186789155006409,0.00018219863704871386,0.04822609946131706,0.7989704608917236,0.005444945301860571,0.33282339572906494
383.0,395.0,-0.4427,0.8776,9.6712,-0.0528,0.0041,-0.108,-1.583595415154928,-0.011246372945606709,1.777597427368164,-2.0064072608947754,0.00019289185001980513,2.02915096282959,5.05249901393012,-0.006160435266792774,0.235379159450531,-1.6524222532855433,0.0,-0.022033974528312683,0.8187146782875061,0.00018815443036146462,0.06124865263700485,0.7989699840545654,0.005096180830150843,0.3397673964500427
383.0,395.0,-0.4427,0.8776,9.6712,-0.0528,0.0041,-0.108,-1.5837274990477503,-0.01347540132701397,1.8192138671875,-2.006455898284912,0.00016465838416479528,2.0158028602600098,5.052482950478353,-0.0014777251053601503,0.2360919713973999,-1.6523898283587855,0.0,-0.02458919771015644,0.818630576133728,0.00016513986338395625,0.0607759915292263,0.7990908026695251,0.004037194419652224,0.3817138671875
383.0,395.0,-0.4427,0.8776,9.6712,-0.0528,0.0041,-0.108,-1.5838071308531703,-0.016540812328457832,1.7721912860870361,-2.006439447402954,0.00014363489754032344,2.082169532775879,5.0525110242660425,-0.0007293271482922137,0.21782010793685913,-1.652353588734762,0.0,-0.020906107500195503,0.8186870217323303,0.00017164777091238648,0.05061439424753189,0.7990423440933228,0.0034003593027591705,0.3826025128364563
383.0,395.0,-0.4427,0.8776,9.6712,-0.0528,0.0041,-0.108,-1.5839468441405238,-0.01946317031979561,1.7374458312988281,-2.0064280033111572,0.00015284630353562534,2.0786936283111572,5.052575009852209,-0.00047428079415112734,0.23208121955394745,-1.6523454825030726,0.0,-0.019421618431806564,0.8187511563301086,0.00015479017747566104,0.049766987562179565,0.7990781664848328,0.002697120187804103,0.37637412548065186
405.0,371.0,-0.3404,0.6413,9.2243,-0.0371,-0.0031,-0.1196,-1.5841590366759242,-0.023765016347169876,1.7149901390075684,-2.006459951400757,0.00015621306374669075,2.095489978790283,5.052503096848287,-0.0003842567093670368,0.21859456598758698,-1.6523578802691858,0.0,-0.017940307036042213,0.8186911940574646,0.00013785410556010902,0.06540883332490921,0.799094557762146,0.0017159990966320038,0.37115025520324707
405.0,371.0,-0.3404,0.6413,9.2243,-0.0371,-0.0031,-0.1196,-1.584330221215719,-0.02513464353978634,1.7041113376617432,-2.0064072608947754,0.00016238749958574772,2.0880987644195557,5.052467036038198,-0.0003528884262777865,0.20664167404174805,-1.6523574034320276,0.0,-0.018639113754034042,0.8186789155006409,0.0001442542125005275,0.05169926956295967,0.7991023063659668,0.0014687043149024248,0.3842846751213074
405.0,371.0,-0.3404,0.6413,9.2243,-0.0371,-0.0031,-0.1196,-1.5845219097533167,-0.02893131598830223,1.7178595066070557,-2.0063884258270264,0.00012276790221221745,2.0692687034606934,5.052483218699255,-0.0002951783244498074,0.21676546335220337,-1.652365509663717,0.0,-0.025393933057785034,0.8187023401260376,0.00013407632650341839,0.07567138969898224,0.7991225123405457,0.001958256820216775,0.38749951124191284
405.0,371.0,-0.3404,0.6413,9.2243,-0.0371,-0.0031,-0.1196,-1.584822794000143,-0.03245618939399719,1.706732988357544,-2.0064361095428467,0.0001744992914609611,2.0568225383758545,5.052499192744055,-0.0001666692696744576,0.22768256068229675,-1.6523335615741175,0.0,-0.014010685496032238,0.8185781836509705,0.0001247815234819427,0.052795082330703735,0.799203097820282,0.002584029221907258,0.3827834129333496
405.0,371.0,-0.3404,0.6413,9.2243,-0.0371,-0.0031,-0.1196,-1.5850497684874476,-0.03676014021039009,1.6412700414657593,-2.0064122676849365,0.0011531590716913342,2.04193115234375,5.052479016571798,-0.00017301087791565806,0.2150973081588745,-1.6523616949664515,0.0,-0.019961534067988396,0.8187109231948853,0.00011669188097584993,0.06694676727056503,0.7991908192634583,0.0028200671076774597,0.426616907119751
405.0,371.0,-0.3404,0.6413,9.2243,-0.0371,-0.0031,-0.1196,-1.585369726220602,-0.04075631499290466,1.659730315208435,-2.006335735321045,0.0038117929361760616,2.070563316345215,5.052495229035177,-0.00017894888878799975,0.22120091319084167,-1.6523616949664515,0.0,-0.0010569803416728973,0.8186146020889282,0.00010958738130284473,0.07471033930778503,0.7992347478866577,0.0034114837180823088,0.3915071189403534
405.0,371.0,-0.3404,0.6413,9.2243,-0.0371,-0.0031,-0.1196,-1.5857459507384242,-0.04571348428726196,1.6368963718414307,-2.0062921047210693,0.010290691629052162,2.0762083530426025,5.052470701723852,-0.0003641911025624722,0.20567911863327026,-1.6523574034320276,0.0,-0.029208902269601822,0.8186707496643066,0.00010329827637178823,0.055533312261104584,0.7992425560951233,0.0032738533336669207,0.3812921643257141
405.0,371.0,-0.3404,0.6413,9.2243,-0.0371,-0.0031,-0.1196,-1.5861417255797328,-0.051861368119716644,1.6184611320495605,-2.0062320232391357,0.011699212715029716,2.046692132949829,5.052442866354742,-0.0011378551134839654,0.21408717334270477,-1.6523540655719202,0.0,-0.00807192362844944,0.8186911344528198,9.769194002728909e-05,0.05889061093330383,0.7992587089538574,0.0033428207971155643,0.3887134790420532
405.0,371.0,-0.3404,0.6413,9.2243,-0.0371,-0.0031,-0.1196,-1.586740633050436,-0.05985090509057045,1.6233577728271484,-2.006096363067627,0.013640263117849827,2.03529691696167,5.052471148758688,-0.001105186645872891,0.20470735430717468,-1.6523259321795862,0.0,-0.005143980961292982,0.8186748623847961,9.148539538728073e-05,0.06593518704175949,0.7992746233940125,0.0033228721003979445,0.35244324803352356
405.0,371.0,-0.3404,0.6413,9.2243,-0.0371,-0.0031,-0.1196,-1.587212701837057,-0.06366243213415146,1.5869642496109009,-2.005983591079712,0.016004372388124466,2.1045632362365723,5.052454936295309,-0.0005896022194065154,0.21886485815048218,-1.6523540655719202,0.0,-0.011087016202509403,0.8186665773391724,8.706051448825747e-05,0.061439648270606995,0.7992905974388123,0.0028079471085220575,0.42582839727401733
405.0,371.0,-0.3404,0.6413,9.2243,-0.0371,-0.0031,-0.1196,-1.587764402429098,-0.06433314830064774,1.6236107349395752,-2.0058114528656006,0.016891302540898323,2.064601421356201,5.0524469194705866,-0.0006076471763662994,0.2123909592628479,-1.6523540655719202,0.0,-0.0035713459365069866,0.8186268210411072,8.304385846713558e-05,0.06632909178733826,0.7993629574775696,0.0023541348055005074,0.3608624041080475
405.0,392.0,-0.7866,0.6724,9.2734,-0.0406,-0.0206,-0.1191,-1.5883199177184046,-0.06571660935878754,1.625914216041565,-2.0057318210601807,0.018289407715201378,2.099524974822998,5.052414971380987,-0.0006897083367221057,0.19756238162517548,-1.6523497740374964,0.0,-0.0007915287278592587,0.8186506032943726,4.0236860513687134e-05,0.047140393406152725,0.7993991374969482,0.0020486372523009777,0.3155849874019623
405.0,392.0,-0.7866,0.6724,9.2734,-0.0406,-0.0206,-0.1191,-1.5888754330077113,-0.0676521584391594,1.631638765335083,-2.005596876144409,0.018386436626315117,2.099013566970825,5.052443194180288,-0.002106870524585247,0.21057674288749695,-1.6523259321795862,0.0,0.008409818634390831,0.8187309503555298,7.312849770180208e-10,0.06772620975971222,0.7993709444999695,0.001507131732068956,0.3434981107711792
405.0,392.0,-0.7866,0.6724,9.2734,-0.0406,-0.0206,-0.1191,-1.589442869225973,-0.07480647414922714,1.597757339477539,-2.0054569244384766,0.018204495310783386,2.0980234146118164,5.052391159325399,-0.004616106860339642,0.19994273781776428,-1.652318302785055,0.0,0.014317227527499199,0.8186829090118408,1.3290743153390391e-14,0.06306566298007965,0.7993829846382141,0.0009975049179047346,0.2737200856208801
405.0,392.0,-0.7866,0.6724,9.2734,-0.0406,-0.0206,-0.1191,-1.5900703869261683,-0.0858590379357338,1.6018574237823486,-2.005215883255005,0.019622378051280975,2.0988011360168457,5.052366870432653,-0.005546134430915117,0.18963780999183655,-1.6522977987872522,9.005424362840131e-05,0.006603166460990906,0.8186185956001282,2.4155268794166987e-19,0.04998748004436493,0.7993627190589905,0.0005780207575298846,0.3211292624473572
405.0,392.0,-0.7866,0.6724,9.2734,-0.0406,-0.0206,-0.1191,-1.590978284875387,-0.09407992660999298,1.5796499252319336,-2.0050652027130127,0.027169562876224518,2.1517093181610107,5.05235909202651,-0.002043016953393817,0.19204223155975342,-1.6523140112506312,9.825272718444467e-05,0.0009503362234681845,0.818702757358551,2.866422488062403e-25,0.03941205143928528,0.7993749976158142,0.0001352220424450934,0.20658665895462036
405.0,392.0,-0.7866,0.6724,9.2734,-0.0406,-0.0206,-0.1191,-1.591785570184225,-0.10455307364463806,1.5768318176269531,-2.0047411918640137,0.03236846253275871,2.127830982208252,5.052386867790975,-0.0009866997133940458,0.2056245356798172,-1.6523259321795862,0.0001068511774064973,-0.011442994698882103,0.818702757358551,5.2095810665730954e-30,0.03942637890577316,0.7993348836898804,5.1854287448804826e-05,0.24103224277496338
405.0,392.0,-0.7866,0.6724,9.2734,-0.0406,-0.0206,-0.1191,-1.5926891765990199,-0.11506547033786774,1.561990737915039,-2.004379987716675,0.037463314831256866,2.136070489883423,5.0523471412952325,-0.0006369103793986142,0.194830983877182,-1.6523140112506312,0.0001138764782808721,0.01486961543560028,0.8186911344528198,9.468157575914203e-35,0.04539743438363075,0.7993469834327698,2.885466310331708e-09,0.2580118179321289
405.0,392.0,-0.7866,0.6724,9.2734,-0.0406,-0.0206,-0.1191,-1.593668123284811,-0.1191435232758522,1.5444250106811523,-2.004169225692749,0.04030640423297882,2.138291597366333,5.052347171097555,-0.00047034668386913836,0.21352890133857727,-1.652262036000387,0.00022693730716127902,0.02274000644683838,0.8186588287353516,1.7207903102954824e-39,0.0502152293920517,0.7993708848953247,9.348543158423613e-17,0.19772881269454956
405.0,392.0,-0.7866,0.6724,9.2734,-0.0406,-0.0206,-0.1191,-1.5947157345213832,-0.12257668375968933,1.600895881652832,-2.003817319869995,0.03614005446434021,2.139702320098877,5.052343058377065,-0.00036975505645386875,0.2073865681886673,-1.652262036000387,0.00022701523266732693,0.018680023029446602,0.8185982704162598,3.0828566215145976e-44,0.04251764714717865,0.7993913888931274,3.028808963060276e-24,0.1889658272266388
405.0,392.0,-0.7866,0.6724,9.2734,-0.0406,-0.0206,-0.1191,-1.5957714519896449,-0.13456569612026215,1.558518648147583,-2.003504514694214,0.029317231848835945,2.105955123901367,5.052307206183233,-0.0020963423885405064,0.2029971182346344,-1.6522772947894495,0.00022650434402748942,0.014423652552068233,0.8186145424842834,0.0,0.0453885979950428,0.7993632555007935,-0.0006680068327113986,0.17352324724197388
405.0,392.0,-0.7866,0.6724,9.2734,-0.0406,-0.0206,-0.1191,-1.596825738946432,-0.1495915651321411,1.597717523574829,-2.0033299922943115,0.022303463891148567,2.1196556091308594,5.052323090821066,-0.0014868786092847586,0.19638291001319885,-1.6523383299456995,0.0002265007351525128,0.029469266533851624,0.8186829686164856,0.0,0.04526417702436447,0.7993067502975464,-0.0007988517754711211,0.13079503178596497
400.0,410.0,-0.8662,0.6425,8.79,-0.0444,-0.1547,-0.1141,-1.5983249149718226,-0.15589779615402222,1.5635151863098145,-2.0030577182769775,0.01868189126253128,2.143080711364746,5.052311110287466,-0.0005234865820966661,0.19345104694366455,-1.6523101965533655,0.000280077219940722,0.026343384757637978,0.8186386823654175,0.0,0.035288941115140915,0.7992664575576782,-0.0010285142343491316,0.0963805764913559
400.0,410.0,-0.8662,0.6425,8.79,-0.0444,-0.1547,-0.1141,-1.5995799503722132,-0.14170518517494202,1.565047025680542,-2.003047227859497,0.01406976580619812,2.0893497467041016,5.052335041552343,-0.00035701910383068025,0.20393948256969452,-1.652302090321676,0.00023633129603695124,0.023401249200105667,0.8186268210411072,0.0,0.04332038760185242,0.79933100938797,-0.0007118441280908883,0.12067650258541107
400.0,410.0,-0.8662,0.6425,8.79,-0.0444,-0.1547,-0.1141,-1.6008192501463832,-0.14670640230178833,1.603518009185791,-2.002934217453003,0.0056804814375936985,2.109046459197998,5.052307057171621,-0.0003515232529025525,0.19805945456027985,-1.6523101965533655,0.00020111716003157198,0.017237845808267593,0.8185744285583496,0.0,0.03744059056043625,0.7993108630180359,-0.00044631684431806207,0.10250388830900192
400.0,410.0,-0.8662,0.6425,8.79,-0.0444,-0.1547,-0.1141,-1.6020742855467738,-0.16486789286136627,1.5721018314361572,-2.0029375553131104,-0.0025650374591350555,2.0496644973754883,5.0522944805915735,-0.00026991177583113313,0.1959327906370163,-1.6522701422320765,0.000175037159351632,0.020197927951812744,0.8186707496643066,0.0,0.04385573789477348,0.7993388175964355,-0.0001225541636813432,0.1208462342619896
400.0,410.0,-0.8662,0.6425,8.79,-0.0444,-0.1547,-0.1141,-1.603321214715475,-0.17748945951461792,1.568304181098938,-2.0030150413513184,-0.0029888167046010494,2.059080123901367,5.052311169892111,-0.00027934039826504886,0.2122756838798523,-1.6522939840899866,0.00018076185369864106,0.030062703415751457,0.8186585307121277,0.0,0.04485681280493736,0.7992783784866333,-0.00014446588465943933,0.1309344470500946
400.0,410.0,-0.8662,0.6425,8.79,-0.0444,-0.1547,-0.1141,-1.6046644649901332,-0.17434793710708618,1.5907008647918701,-2.0029499530792236,-2.393156250946049e-07,2.1040334701538086,5.052326935320654,-0.00020012975437566638,0.22076654434204102,-1.652285401021139,0.00016215672076214105,0.02414892055094242,0.8186588287353516,0.0,0.03386220708489418,0.799278736114502,-0.00016615063941571862,0.09511703252792358
400.0,410.0,-0.8662,0.6425,8.79,-0.0444,-0.1547,-0.1141,-1.6060954533019007,-0.16447797417640686,1.6358776092529297,-2.002878427505493,0.005280965473502874,2.048112630844116,5.052359121828832,-6.926374771865085e-05,0.21202543377876282,-1.6522701422320765,0.00016801594756543636,0.022020384669303894,0.8186829686164856,0.0,0.03686152398586273,0.799302875995636,-0.00012145735672675073,0.04426604509353638
400.0,410.0,-0.8662,0.6425,8.79,-0.0444,-0.1547,-0.1141,-1.6079265079894007,-0.17281219363212585,1.6201043128967285,-2.002854585647583,0.002770888851955533,2.094667434692383,5.052311140089788,-4.99958659929689e-05,0.21963286399841309,-1.6522658506976526,0.00013949742424301803,0.03073849156498909,0.8186829686164856,0.0,0.036602891981601715,0.7993067502975464,-9.081380994757637e-05,0.05755608528852463
400.0,410.0,-0.8662,0.6425,8.79,-0.0444,-0.1547,-0.1141,-1.6092850170531214,-0.18931810557842255,1.591930866241455,-2.002930164337158,4.447902028914541e-07,2.1111114025115967,5.052318978100576,-6.179213960422203e-05,0.2203250527381897,-1.652278248463766,0.00012119411258026958,0.042648863047361374,0.818702757358551,0.0,0.03517436981201172,0.7993108630180359,-7.556330092484131e-05,0.00692047830671072
400.0,410.0,-0.8662,0.6425,8.79,-0.0444,-0.1547,-0.1141,-1.610704084435934,-0.19293241202831268,1.5855755805969238,-2.0028858184814453,-0.0004981345264241099,2.057769298553467,5.052315044194021,-3.461091182543896e-05,0.20698198676109314,-1.6522701422320765,0.00015169921971391886,0.03075236827135086,0.8186506032943726,0.0,0.036810971796512604,0.7993269562721252,-6.469866639235988e-05,0.06728194653987885
400.0,410.0,-0.8662,0.6425,8.79,-0.0444,-0.1547,-0.1141,-1.6121670208373011,-0.19004249572753906,1.581549882888794,-2.002878189086914,0.002247654600068927,2.1227729320526123,5.052347171097555,-2.0260436031094287e-06,0.21862970292568207,-1.6522496382342737,0.0002572495141066611,0.029948268085718155,0.8186509609222412,0.0,0.02378142438828945,0.7993356585502625,-0.0001380695030093193,0.03014206700026989
415.0,462.0,-0.2411,0.7059,9.7448,-0.0531,-0.1707,-0.104,-1.6137110195555628,-0.18149970471858978,1.6078412532806396,-2.0027778148651123,0.005380911286920309,2.055851936340332,5.0523269949252985,-3.682234378521443e-11,0.22567254304885864,-1.6522701422320765,0.00032949226442724466,0.04312378913164139,0.8186506032943726,0.0,0.045079901814460754,0.799278736114502,-0.00019603768305387348,-0.02539273351430893
415.0,462.0,-0.2411,0.7059,9.7448,-0.0531,-0.1707,-0.104,-1.615176340142721,-0.17812825739383698,1.6863645315170288,-2.0027942657470703,0.005169490352272987,2.0896010398864746,5.0523551283176324,-6.692278673127363e-16,0.21872484683990479,-1.6522415320025843,0.0003091644321102649,0.04645953327417374,0.8186625838279724,0.0,0.050590138882398605,0.7992746829986572,-0.00018019182607531548,-0.001068241661414504
415.0,462.0,-0.2411,0.7059,9.7448,-0.0531,-0.1707,-0.104,-1.6166392765440882,-0.1893371343612671,1.6486907005310059,-2.002734422683716,0.002325768116861582,2.110950469970703,5.052319067507543,-1.2162886345199593e-20,0.21329617500305176,-1.6522496382342737,0.0002953457005787641,0.042797695845365524,0.8187229037284851,0.0,0.0327291414141655,0.7992987632751465,-0.00015897247067186981,-0.025897661224007607
415.0,462.0,-0.2411,0.7059,9.7448,-0.0531,-0.1707,-0.104,-1.618542333642477,-0.20017218589782715,1.6588897705078125,-2.0027263164520264,0.0009398586698807776,2.0416321754455566,5.05238704660491,6.38572164461948e-05,0.21708369255065918,-1.6522296110736292,0.0003146307135466486,0.03966851532459259,0.8186268210411072,0.0,0.03347805142402649,0.7993231415748596,-0.00013857457088306546,0.027977246791124344
415.0,462.0,-0.2411,0.7059,9.7448,-0.0531,-0.1707,-0.104,-1.620084901849264,-0.1871037483215332,1.6646240949630737,-2.002730131149292,0.003687797114253044,2.045687198638916,5.05238692739562,0.0001030990679282695,0.21338479220867157,-1.6522420088397425,0.0002926977176684886,0.05712947994470596,0.8186665773391724,0.0,0.02541208267211914,0.7992666363716125,-0.00016776959819253534,-0.061723463237285614
415.0,462.0,-0.2411,0.7059,9.7448,-0.0531,-0.1707,-0.104,-1.6215998135008753,-0.18263782560825348,1.7140991687774658,-2.002678394317627,0.007212224416434765,2.0702342987060547,5.0523352203662775,0.00016834067355375737,0.22714769840240479,-1.6522539297686976,0.00025086564710363746,0.04847008362412453,0.8186547756195068,0.0,0.04619917646050453,0.7993190288543701,-0.0008256016881205142,-0.07628583163022995
415.0,462.0,-0.2411,0.7059,9.7448,-0.0531,-0.1707,-0.104,-1.6231547794737757,-0.194333016872406,1.6660691499710083,-2.0025739669799805,0.006571588106453419,2.0899903774261475,5.052371012955465,0.0001418473693775013,0.23165582120418549,-1.6522014776812952,0.00021639307669829577,0.04466801509261131,0.8186547756195068,0.0,0.03209054842591286,0.7992868423461914,-0.0005637421272695065,-0.08731722086668015
415.0,462.0,-0.2411,0.7059,9.7448,-0.0531,-0.1707,-0.104,-1.624761243859762,-0.2005736529827118,1.657920002937317,-2.0025789737701416,0.005635084584355354,2.1031854152679443,5.052363055735388,0.00012253229215275496,0.23503151535987854,-1.6522496382342737,0.00021742944954894483,0.04883747920393944,0.8186911344528198,0.0,0.029936600476503372,0.7993108630180359,-0.00037548234104178846,-0.05008022487163544
415.0,462.0,-0.2411,0.7059,9.7448,-0.0531,-0.1707,-0.104,-1.6263324222960414,-0.1933586746454239,1.6864864826202393,-2.0025219917297363,0.006163082551211119,2.017458915710449,5.0523511348064325,0.0001078475615940988,0.2313108742237091,-1.6522701422320765,0.0001939942012540996,0.02786678448319435,0.8186748027801514,0.0,0.043141670525074005,0.7992987632751465,-0.00028150371508672833,-0.01745450682938099
415.0,462.0,-0.2411,0.7059,9.7448,-0.0531,-0.1707,-0.104,-1.6278869114317835,-0.1951061487197876,1.7690825462341309,-2.0024545192718506,0.006691957823932171,2.041368246078491,5.05235909202651,0.00017140731506515294,0.24596887826919556,-1.6522296110736292,0.00017512007616460323,0.04025506600737572,0.8186628818511963,0.0,0.028380047529935837,0.7993069291114807,-0.00022515669115819037,-0.0183417908847332
415.0,462.0,-0.2411,0.7059,9.7448,-0.0531,-0.1707,-0.104,-1.6299296818175257,-0.20266513526439667,1.734508991241455,-2.0023467540740967,0.008356824517250061,2.0837528705596924,5.052363025933065,0.00015212690050248057,0.237155020236969,-1.652302090321676,0.0001561316748848185,0.037541020661592484,0.8186829686164856,0.0,0.03528640419244766,0.7992827892303467,-0.00018009731138590723,0.03127509355545044
450.0,670.0,0.3936,0.7525,10.2754,-0.0373,-0.1402,-0.1153,-1.6314722500243128,-0.18725517392158508,1.718216061592102,-2.002338409423828,0.009849478490650654,2.0576014518737793,5.0523670492465875,0.00013400433817878366,0.22915470600128174,-1.6522658506976526,0.00014366932737175375,0.04691721126437187,0.8186349868774414,0.0,0.03623461723327637,0.7992827892303467,-0.00015524400805588812,-0.013052979484200478
450.0,670.0,0.3936,0.7525,10.2754,-0.0373,-0.1402,-0.1153,-1.632974763909811,-0.19319747388362885,1.7035951614379883,-2.002246379852295,0.009200089611113071,2.0037074089050293,5.05235909202651,0.00011974038352491334,0.2438780665397644,-1.652273956929342,0.00013304961612448096,0.04110860452055931,0.8186870813369751,0.0,0.03972771018743515,0.7992464303970337,-0.00011023527622455731,-0.00034024406340904534
450.0,670.0,0.3936,0.7525,10.2754,-0.0373,-0.1402,-0.1153,-1.6345259151854457,-0.2034744769334793,1.7677793502807617,-2.0021262168884277,0.007890772074460983,2.093712568283081,5.052359062224188,0.00010822103649843484,0.23703408241271973,-1.6522701422320765,0.00010843997006304562,0.025641731917858124,0.8186428546905518,0.0,0.03516322746872902,0.7992746233940125,-9.733206388773397e-05,-0.04192395135760307
450.0,670.0,0.3936,0.7525,10.2754,-0.0373,-0.1402,-0.1153,-1.6360651455321253,-0.19469647109508514,1.7442982196807861,-2.0020391941070557,0.011045151390135288,2.0754966735839844,5.052355009108343,0.0001133670739363879,0.24741558730602264,-1.6522658506976526,0.00010142433893634006,0.02866474539041519,0.8186346292495728,0.0,0.03895913437008858,0.7993148565292358,-8.78330974956043e-05,0.005414322484284639
450.0,670.0,0.3936,0.7525,10.2754,-0.0373,-0.1402,-0.1153,-1.637655874291891,-0.18368835747241974,1.7472530603408813,-2.001966714859009,0.016929494217038155,2.063300609588623,5.052351164608755,0.00010891072452068329,0.24200071394443512,-1.6522296110736292,9.528808732284233e-05,0.04583066329360008,0.8186628818511963,0.0,0.02866240218281746,0.799238383769989,-2.1842621208634228e-05,-0.016849668696522713
450.0,670.0,0.3936,0.7525,10.2754,-0.0373,-0.1402,-0.1153,-1.6391264400877894,-0.18379199504852295,1.780334711074829,-2.001758575439453,0.019132690504193306,2.0104572772979736,5.052363055735388,0.00010078027116833255,0.23044952750205994,-1.652318302785055,8.985197928268462e-05,0.025013752281665802,0.8186428546905518,0.0,0.02095950022339821,0.7992865443229675,-4.393922448109322e-10,0.013025051914155483
450.0,670.0,0.3936,0.7525,10.2754,-0.0373,-0.1402,-0.1153,-1.640977521935934,-0.18732212483882904,1.816145420074463,-2.0016424655914307,0.019375016912817955,2.04498291015625,5.052398967533865,7.681552233407274e-05,0.25120407342910767,-1.652302090321676,3.083085539401509e-05,0.02790144830942154,0.8186870813369751,0.0,0.03854883462190628,0.7993228435516357,-1.9099074308678614e-19,0.018732549622654915
450.0,670.0,0.3936,0.7525,10.2754,-0.0373,-0.1402,-0.1153,-1.6424080334105433,-0.18873073160648346,1.817771315574646,-2.0014588832855225,0.02055278606712818,2.0581092834472656,5.052394884615698,7.190558244474232e-05,0.23923084139823914,-1.652273956929342,2.7234116714680567e-05,0.020395681262016296,0.8187034130096436,0.0,0.025856997817754745,0.7992746233940125,-6.187857296176682e-27,0.010392230935394764
450.0,670.0,0.3936,0.7525,10.2754,-0.0373,-0.1402,-0.1153,-1.6438623867430628,-0.18390429019927979,1.8196353912353516,-2.001295328140259,0.024227064102888107,2.027838945388794,5.052371102362432,7.933701272122562e-05,0.23566991090774536,-1.652262036000387,2.567993760749232e-05,0.020189952105283737,0.8186707496643066,0.0,0.03396550193428993,0.7992746233940125,-2.0047870186394394e-34,0.05035987123847008
450.0,670.0,0.3936,0.7525,10.2754,-0.0373,-0.1402,-0.1153,-1.645290037194723,-0.17442287504673004,1.8200201988220215,-2.001039505004883,0.029587842524051666,2.0992085933685303,5.05238293388442,7.650670886505395e-05,0.24909067153930664,-1.652302090321676,1.2950734344485682e-05,0.014316611923277378,0.8186588287353516,0.0,0.02998225763440132,0.799278736114502,-6.495018382145527e-42,0.08989372849464417
450.0,670.0,0.3936,0.7525,10.2754,-0.0373,-0.1402,-0.1153,-1.6466528377928675,-0.16651110351085663,1.9204864501953125,-2.0007710456848145,0.03514464572072029,2.0610947608947754,5.05235909202651,7.240350532811135e-05,0.25201714038848877,-1.6522615591632288,5.844191946380306e-06,0.017196951434016228,0.8186547756195068,9.833432557115884e-08,0.02279198169708252,0.799318790435791,0.0,0.09409172087907791
558.0,8190.0,0.8931,0.8471,9.9063,-0.038,-0.073,-0.1165,-1.6480595074095667,-0.17378763854503632,1.873981237411499,-2.0004708766937256,0.03754698485136032,2.0849525928497314,5.052367138653555,6.871798541396856e-05,0.24100583791732788,-1.6522977987872522,1.0621530738275098e-10,0.005831366404891014,0.8186227083206177,1.7871778276029593e-12,0.04237464815378189,0.799318790435791,0.00028490120894275606,0.05036674439907074
558.0,8190.0,0.8931,0.8471,9.9063,-0.038,-0.073,-0.1165,-1.6494184933104457,-0.17859895527362823,1.8650188446044922,-2.0001020431518555,0.0418475978076458,2.0728001594543457,5.05235909202651,6.538956222357228e-05,0.26126593351364136,-1.6522896925555628,1.930411168440363e-15,0.014181354083120823,0.8186752200126648,3.248107316668715e-17,0.027619853615760803,0.7993147373199463,0.0002518079418223351,0.13652899861335754
558.0,8190.0,0.8931,0.8471,9.9063,-0.038,-0.073,-0.1165,-1.6511479816832484,-0.16035136580467224,1.8579814434051514,-1.9996644258499146,0.05564162880182266,2.098785400390625,5.052338319807806,7.695444946875796e-05,0.23503294587135315,-1.6522701422320765,2.2907512965143417e-21,0.004677957855165005,0.8186026215553284,3.854415719221297e-23,0.04242926836013794,0.7992865443229675,0.00015888067719060928,0.07504749298095703
558.0,8190.0,0.8931,0.8471,9.9063,-0.038,-0.073,-0.1165,-1.6524721584715785,-0.15109041333198547,1.9027447700500488,-1.9990875720977783,0.06813101470470428,2.1249518394470215,5.052331167250433,5.189775947656017e-06,0.2501380145549774,-1.6522825399981897,4.1633274423565975e-26,0.007622151169925928,0.8186425566673279,7.005210505291456e-28,0.02347223460674286,0.7993348836898804,0.00011740355694200844,0.08429763466119766
558.0,8190.0,0.8931,0.8471,9.9063,-0.038,-0.073,-0.1165,-1.6537662945189417,-0.16221976280212402,1.9135067462921143,-1.9984960556030273,0.07798060774803162,2.1349377632141113,5.05235509851531,9.432161302003195e-11,0.2478059083223343,-1.6523144880877894,7.566640679322153e-31,-0.0065007563680410385,0.8186309337615967,1.2731623560754712e-32,0.03072402998805046,0.7993106245994568,9.310839232057333e-05,0.13050884008407593
558.0,8190.0,0.8931,0.8471,9.9063,-0.038,-0.073,-0.1165,-1.6550642452635707,-0.16959263384342194,1.9240520000457764,-1.9978361129760742,0.0819406509399414,2.0958285331726074,5.05235509851531,1.714248677938421e-15,0.254722535610199,-1.6522658506976526,1.3751996772744924e-35,0.008741142228245735,0.8186952471733093,2.3139098958630318e-37,0.021268174052238464,0.7993067502975464,7.714509411016479e-05,0.0743379145860672
558.0,8190.0,0.8931,0.8471,9.9063,-0.038,-0.073,-0.1165,-1.6563588581480921,-0.15555988252162933,1.9451658725738525,-1.9971563816070557,0.09021594375371933,2.1134297847747803,5.0523871062095544,0.0008856714121066034,0.2540128231048584,-1.6522939840899866,2.4993559409697437e-40,0.004563486203551292,0.8186588287353516,4.205296691438776e-42,0.024071108549833298,0.7993269562721252,6.585481605725363e-05,0.049518078565597534
558.0,8190.0,0.8931,0.8471,9.9063,-0.038,-0.073,-0.1165,-1.657621522943014,-0.14003777503967285,1.9730573892593384,-1.9963337182998657,0.09894415736198425,2.124220609664917,5.052387136011877,0.0008186072227545083,0.24844980239868164,-1.6522534529315394,4.203895392974451e-45,0.005520426202565432,0.8186350464820862,0.0,0.027081724256277084,0.7993108034133911,5.7447527069598436e-05,0.06143214553594589
558.0,8190.0,0.8931,0.8471,9.9063,-0.038,-0.073,-0.1165,-1.6588160000243128,-0.14579521119594574,1.9898556470870972,-1.9955545663833618,0.10282086580991745,2.175513982772827,5.05238692739562,0.0002595354162622243,0.2527272701263428,-1.6522577444659632,0.0,0.003489285707473755,0.8186870813369751,0.0,0.025424621999263763,0.799290657043457,5.0943832320626825e-05,0.0834818184375763
558.0,8190.0,0.8931,0.8471,9.9063,-0.038,-0.073,-0.1165,-1.6603228054442347,-0.1595977246761322,1.9589831829071045,-1.9944666624069214,0.10863706469535828,2.143125534057617,5.05238692739562,0.00020210101502016187,0.25833067297935486,-1.6522415320025843,0.0,-0.0019179265946149826,0.8186829090118408,0.0,0.03369380161166191,0.799318790435791,4.462842480279505e-05,0.0823347419500351
558.0,8190.0,0.8931,0.8471,9.9063,-0.038,-0.073,-0.1165,-1.661520620385641,-0.14530068635940552,1.9583299160003662,-1.9934660196304321,0.12259621918201447,2.1773905754089355,5.052407014160909,0.00015561495092697442,0.2709749639034271,-1.652278248463766,0.0,-0.0034128352999687195,0.8187109231948853,0.0,0.040706466883420944,0.7993108034133911,2.0579518604790792e-05,0.0696691945195198
714.0,923.0,0.1107,0.786,10.133,-0.0359,0.1046,-0.1286,-1.6626354656615199,-0.12454090267419815,2.012537717819214,-1.9924185276031494,0.13039228320121765,2.1807920932769775,5.0523511348064325,0.0001264523743884638,0.2586531639099121,-1.6522496382342737,0.0,0.00980375800281763,0.8186265230178833,0.0,0.016802044585347176,0.7993028163909912,1.8620785340317525e-05,0.04663749039173126
714.0,923.0,0.1107,0.786,10.133,-0.0359,0.1046,-0.1286,-1.6636630497374476,-0.12499780207872391,2.0450258255004883,-1.991355538368225,0.13586772978305817,2.199404716491699,5.05236296632842,-5.139402492204681e-05,0.251912921667099,-1.6522825399981897,0.0,0.0035901907831430435,0.8186588287353516,0.0,0.021779173985123634,0.7993588447570801,4.9580314225750044e-05,0.04432803392410278
714.0,923.0,0.1107,0.786,10.133,-0.0359,0.1046,-0.1286,-1.664685388604635,-0.13854989409446716,2.003121852874756,-1.99027681350708,0.14210081100463867,2.141855001449585,5.052343088179388,-4.183950659353286e-05,0.24920490384101868,-1.6522658506976526,0.0,-0.000899698119610548,0.8186665773391724,0.0,0.02693762257695198,0.7993186116218567,6.390566704794765e-05,0.01956447958946228
714.0,923.0,0.1107,0.786,10.133,-0.0359,0.1046,-0.1286,-1.6657287083067835,-0.13757912814617157,1.9993386268615723,-1.9890813827514648,0.15032032132148743,2.1989762783050537,5.05238692739562,-3.527793523971923e-05,0.2480892688035965,-1.6522577444659632,0.0,0.007171813864260912,0.8186788558959961,0.0,0.034875333309173584,0.7993148565292358,4.495519897318445e-05,0.06821310520172119
714.0,923.0,0.1107,0.786,10.133,-0.0359,0.1046,-0.1286,-1.6667396030821742,-0.1235138326883316,2.023104667663574,-1.9877655506134033,0.1635863482952118,2.225090265274048,5.052370923548498,-3.049577026104089e-05,0.252371609210968,-1.6522825399981897,0.0,0.012290232814848423,0.8186387419700623,0.0,0.03840531408786774,0.7992865443229675,-1.642741699470207e-05,0.030029140412807465
714.0,923.0,0.1107,0.786,10.133,-0.0359,0.1046,-0.1286,-1.66788973430776,-0.11078579723834991,2.053408622741699,-1.9861027002334595,0.17838948965072632,2.2286527156829834,5.052407163172521,-2.607725400594063e-05,0.2530239522457123,-1.6522334257708948,0.0,0.006424781866371632,0.8186789155006409,0.0,0.03866233676671982,0.7993026971817017,-1.119655687609189e-10,0.050751544535160065
714.0,923.0,0.1107,0.786,10.133,-0.0359,0.1046,-0.1286,-1.6688810787596644,-0.11492165178060532,2.009676218032837,-1.9847432374954224,0.18444733321666718,2.2413806915283203,5.05237494686202,-8.701201295480132e-05,0.2529914379119873,-1.652278248463766,0.0,0.013038641773164272,0.8186788558959961,0.0,0.024211151525378227,0.7992985844612122,-3.6275418465278116e-18,0.11617438495159149
714.0,923.0,0.1107,0.786,10.133,-0.0359,0.1046,-0.1286,-1.6697842083373011,-0.12576307356357574,1.9845328330993652,-1.9832494258880615,0.1893542855978012,2.2311196327209473,5.052335011750021,-0.00021922927408013493,0.2442350685596466,-1.6522939840899866,0.0,0.024620696902275085,0.8185781836509705,0.0,0.025622565299272537,0.7993588447570801,-1.1752775171106038e-25,0.06057912856340408
714.0,923.0,0.1107,0.786,10.133,-0.0359,0.1046,-0.1286,-1.6706873379149378,-0.12988689541816711,2.011855125427246,-1.9816333055496216,0.19429481029510498,2.246748447418213,5.05235909202651,-0.00024179044703487307,0.2541424632072449,-1.652233902608053,0.0,0.020528685301542282,0.8186391592025757,-1.0524000572331715e-05,0.034222427755594254,0.7993628978729248,-3.80774983060185e-33,0.04793785512447357
714.0,923.0,0.1107,0.786,10.133,-0.0359,0.1046,-0.1286,-1.671621938745016,-0.11324886232614517,1.9909459352493286,-1.980079174041748,0.21012626588344574,2.2405123710632324,5.05236308553771,-7.865118095651269e-05,0.24318745732307434,-1.652273956929342,0.0,0.006664554122835398,0.818730890750885,-1.016842907120008e-05,0.03531598672270775,0.7993108034133911,-1.2336611290376392e-40,0.056076839566230774
714.0,923.0,0.1107,0.786,10.133,-0.0359,0.1046,-0.1286,-1.6725408039488734,-0.1012788936495781,2.030355930328369,-1.9783954620361328,0.22929871082305908,2.3027005195617676,5.052307176380911,-0.00011438014189479873,0.24635085463523865,-1.6522615591632288,0.0,0.014165172353386879,0.8186227679252625,-2.1488032686534098e-08,0.039377883076667786,0.7993348836898804,0.0,0.07972551882266998
652.0,861.0,0.2423,0.6879,10.4154,-0.0244,0.2001,-0.1423,-1.673476358453268,-0.11008846014738083,2.0025885105133057,-1.976596713066101,0.23085206747055054,2.2833750247955322,5.05229868271903,-0.00014831169391982257,0.24013690650463104,-1.6522539297686976,0.0,0.012014339677989483,0.8186829686164856,-3.9053442012389195e-13,0.029935356229543686,0.7993226647377014,0.0,0.05755208805203438
652.0,861.0,0.2423,0.6879,10.4154,-0.0244,0.2001,-0.1423,-1.6746231518187464,-0.12783914804458618,1.9681668281555176,-1.9742536544799805,0.24016661942005157,2.320666790008545,5.052323090821066,-0.00017720025789458305,0.22786319255828857,-1.6522420088397425,0.0,0.02104812115430832,0.8186469078063965,-4.634337284471216e-19,0.025134176015853882,0.7993226647377014,0.0,0.03225169703364372
652.0,861.0,0.2423,0.6879,10.4154,-0.0244,0.2001,-0.1423,-1.6755339107909144,-0.12740127742290497,1.9870269298553467,-1.972266435623169,0.25131040811538696,2.309396743774414,5.052307176380911,-0.0003760087420232594,0.2369508445262909,-1.652245823537008,0.0,0.029131904244422913,0.818702757358551,-8.422679717958321e-24,0.03480859845876694,0.7993308305740356,0.0,0.08803816884756088
652.0,861.0,0.2423,0.6879,10.4154,-0.0244,0.2001,-0.1423,-1.676504751245016,-0.11628987640142441,1.9858367443084717,-1.9702327251434326,0.2513309419155121,2.25728178024292,5.052335190563955,-0.00032051594462245703,0.23225030303001404,-1.6522658506976526,0.0,0.018714886158704758,0.8185622096061707,-1.530780518054366e-28,0.04081995040178299,0.7992945313453674,0.0,0.04603106901049614
652.0,861.0,0.2423,0.6879,10.4154,-0.0244,0.2001,-0.1423,-1.677415510217184,-0.11191975325345993,1.9923616647720337,-1.9681109189987183,0.2679043114185333,2.3757898807525635,5.0523552177246,-0.0002494186337571591,0.24157172441482544,-1.6522658506976526,0.0,0.01672796905040741,0.8186466097831726,-2.7821179688689497e-33,0.0319882407784462,0.7993147373199463,0.0,0.036551013588905334
652.0,861.0,0.2423,0.6879,10.4154,-0.0244,0.2001,-0.1423,-1.6783987484373988,-0.12069304287433624,2.0014100074768066,-1.9659340381622314,0.2732754945755005,2.3541507720947266,5.052278446942129,-0.00032137049129232764,0.23371782898902893,-1.6522896925555628,0.0,0.030268821865320206,0.8186829686164856,-5.056361861281196e-38,0.03680066019296646,0.7992985844612122,0.0,0.045726578682661057
652.0,861.0,0.2423,0.6879,10.4154,-0.0244,0.2001,-0.1423,-1.6793533764281214,-0.1381196528673172,2.035512924194336,-1.9637317657470703,0.2667822539806366,2.3359317779541016,5.052259015827932,-0.0026181358844041824,0.23077526688575745,-1.6522415320025843,0.0,0.02576747164130211,0.8186104893684387,-9.1925179259708e-43,0.037318021059036255,0.7993229031562805,0.0,0.023113327100872993
652.0,861.0,0.2423,0.6879,10.4154,-0.0244,0.2001,-0.1423,-1.6804524860777796,-0.1403753012418747,1.9516146183013916,-1.961469292640686,0.2792613208293915,2.3572888374328613,5.052327084332266,-0.0005566523759625852,0.23485103249549866,-1.6522496382342737,0.0,0.02483747899532318,0.8185985684394836,-0.0,0.030495094135403633,0.7992784380912781,0.0,-0.014080212451517582
652.0,861.0,0.2423,0.6879,10.4154,-0.0244,0.2001,-0.1423,-1.6815115414061488,-0.1321394443511963,2.0025839805603027,-1.9592725038528442,0.2901325821876526,2.3387255668640137,5.0523153124149225,0.00013002143532503396,0.21764099597930908,-1.6522377173053187,0.0,0.014368046075105667,0.8186469078063965,-0.0,0.04240084066987038,0.7993067502975464,0.0,-0.05426708608865738
652.0,861.0,0.2423,0.6879,10.4154,-0.0244,0.2001,-0.1423,-1.682958265344137,-0.12486167252063751,2.045018196105957,-1.9563677310943604,0.29341834783554077,2.367978572845459,5.052286851197042,5.618664644657656e-09,0.21694037318229675,-1.6522939840899866,0.0,0.030153371393680573,0.8186666369438171,-0.0,0.031682148575782776,0.7993547320365906,0.0,0.0090025058016181
652.0,861.0,0.2423,0.6879,10.4154,-0.0244,0.2001,-0.1423,-1.6840688190855921,-0.14345714449882507,2.0591158866882324,-1.9540338516235352,0.29543980956077576,2.4131884574890137,5.052246796875753,1.021164557535488e-13,0.2220611870288849,-1.652245823537008,0.0,0.019748583436012268,0.8186309337615967,-0.0,0.028962399810552597,0.7993550896644592,0.0,0.0613282173871994
504.0,630.0,0.6383,0.9488,9.6335,-0.0394,0.1455,-0.1347,-1.6852556667723597,-0.16509078443050385,1.9797096252441406,-1.9516812562942505,0.3011195957660675,2.3886380195617676,5.052210974484243,1.8559159822686357e-18,0.23936757445335388,-1.6522939840899866,0.0,0.03440357372164726,0.8186993598937988,-0.0,0.02553599700331688,0.7993106842041016,0.0,0.05159938707947731
504.0,630.0,0.6383,0.9488,9.6335,-0.0394,0.1455,-0.1347,-1.6865583858885707,-0.16461452841758728,1.9768321514129639,-1.9492191076278687,0.3012118339538574,2.34584641456604,5.052310722857275,-0.00033425024594180286,0.21614530682563782,-1.652233902608053,0.0,0.03505728393793106,0.8186547756195068,-0.0,0.01976797543466091,0.7993267774581909,0.0,0.014297613874077797
504.0,630.0,0.6383,0.9488,9.6335,-0.0394,0.1455,-0.1347,-1.687817235986227,-0.1437903493642807,2.0671005249023438,-1.9467471837997437,0.3265042006969452,2.4432320594787598,5.052234846144476,0.0001400819601258263,0.21975457668304443,-1.6522896925555628,0.0,0.04304708540439606,0.8186428546905518,-0.0,0.02949794940650463,0.7994071841239929,0.0,-0.020255472511053085
504.0,630.0,0.6383,0.9488,9.6335,-0.0394,0.1455,-0.1347,-1.6890794239439906,-0.14892029762268066,2.055537700653076,-1.94414484500885,0.3262592852115631,2.417290449142456,5.05221905091361,1.7112636641058998e-08,0.23325243592262268,-1.6522701422320765,0.0,0.03142113238573074,0.8186547756195068,-0.0,0.02624954842031002,0.7993388772010803,0.0,-0.0009327651932835579
504.0,630.0,0.6383,0.9488,9.6335,-0.0394,0.1455,-0.1347,-1.6904736957945765,-0.17555029690265656,2.0111935138702393,-1.9415559768676758,0.32828718423843384,2.400644063949585,5.0521583435829065,-0.0026999020483344793,0.2245711088180542,-1.6522577444659632,0.0,0.024482183158397675,0.8186870813369751,-0.0,0.028470061719417572,0.7994149923324585,0.0,0.03737112134695053
504.0,630.0,0.6383,0.9488,9.6335,-0.0394,0.1455,-0.1347,-1.6922723255553187,-0.19656342267990112,2.0101518630981445,-1.9381601810455322,0.32562580704689026,2.403217315673828,5.052235054760732,-0.0031266333535313606,0.2235783040523529,-1.6522496382342737,0.0,0.029980506747961044,0.8186146020889282,-0.0,0.021045390516519547,0.799346923828125,0.0,0.022846080362796783
504.0,630.0,0.6383,0.9488,9.6335,-0.0394,0.1455,-0.1347,-1.6937023601927699,-0.1734878122806549,2.0400969982147217,-1.935483694076538,0.34290146827697754,2.448904037475586,5.0521908579166315,-0.000347442488418892,0.24300670623779297,-1.6522377173053187,0.0,0.04213270545005798,0.8186911344528198,-0.0,0.021570954471826553,0.7993348836898804,5.928680548095144e-05,-0.003207726404070854
504.0,630.0,0.6383,0.9488,9.6335,-0.0394,0.1455,-0.1347,-1.6951447925963343,-0.16976569592952728,2.1091554164886475,-1.9326694011688232,0.340313196182251,2.3944525718688965,5.0522029278571985,-0.00034014700213447213,0.2175370752811432,-1.6522863546954554,0.0,0.03168129920959473,0.8186669945716858,-0.0,0.02098941057920456,0.7994071245193481,5.239118399913423e-05,-0.046704962849617004
504.0,630.0,0.6383,0.9488,9.6335,-0.0394,0.1455,-0.1347,-1.6966473064818324,-0.1860625147819519,2.071305274963379,-1.9299484491348267,0.34182730317115784,2.440051317214966,5.052187132626333,-0.00018401189299765974,0.21736189723014832,-1.6522496382342737,0.0,0.04333529248833656,0.8186748027801514,-0.0,0.015334952622652054,0.7993748188018799,9.291119204135612e-05,-0.05098239332437515
504.0,630.0,0.6383,0.9488,9.6335,-0.0394,0.1455,-0.1347,-1.6981259785094203,-0.19637781381607056,2.0967297554016113,-1.927255630493164,0.3444884419441223,2.453895092010498,5.052155214339056,-0.00019576636259444058,0.22157347202301025,-1.6522052923785608,0.0,0.02605280466377735,0.8186788558959961,-0.0,0.023769812658429146,0.79936683177948,8.499177056364715e-05,-0.031213488429784775
504.0,630.0,0.6383,0.9488,9.6335,-0.0394,0.1455,-0.1347,-1.6996728382506312,-0.19080203771591187,2.0702099800109863,-1.924515724182129,0.34805721044540405,2.426755428314209,5.052182960301199,-0.0001517619239166379,0.2338528335094452,-1.652250115071432,0.0,0.03695448487997055,0.8186628818511963,-0.0,0.03216289356350899,0.7993348836898804,5.824372419738211e-05,-0.0098045589402318
409.0,421.0,0.0054,0.5988,9.3571,-0.0354,0.1868,-0.1312,-1.7011867962279261,-0.18605488538742065,2.0464184284210205,-1.9216665029525757,0.35433030128479004,2.4796180725097656,5.052178936987676,-0.00012389641779009253,0.22201675176620483,-1.6522415320025843,0.0,0.03769821673631668,0.8186387419700623,-0.0,0.033951982855796814,0.7993347644805908,-4.104009349248372e-05,-0.05170099064707756
409.0,421.0,0.0054,0.5988,9.3571,-0.0354,0.1868,-0.1312,-1.7030641041197718,-0.19212442636489868,2.0900912284851074,-1.918134093284607,0.355924129486084,2.4512805938720703,5.052179085999288,-0.000125614766147919,0.2266371250152588,-1.652302090321676,0.0,0.04368571937084198,0.8187392354011536,-0.0,0.0258655846118927,0.7993388175964355,-1.5059724029885951e-13,-0.07793474942445755
409.0,421.0,0.0054,0.5988,9.3571,-0.0354,0.1868,-0.1312,-1.704618593255514,-0.2005040943622589,2.0986902713775635,-1.9153058528900146,0.366778165102005,2.4837284088134766,5.052150952606954,-0.0001385407813359052,0.23044553399085999,-1.652233902608053,0.0,0.04221763461828232,0.8186985850334167,-0.0,0.02626940608024597,0.7993507385253906,-4.8791595782674124e-21,-0.06583569943904877
409.0,421.0,0.0054,0.5988,9.3571,-0.0354,0.1868,-0.1312,-1.706245561639303,-0.20413921773433685,2.0604238510131836,-1.9124082326889038,0.3628471791744232,2.4618401527404785,5.052179085999288,-0.0019002963090315461,0.21870377659797668,-1.652278248463766,0.0,0.030680565163493156,0.8186628818511963,-0.0,0.025638148188591003,0.7993428707122803,-1.5807856038716791e-28,-0.054545383900403976
409.0,421.0,0.0054,0.5988,9.3571,-0.0354,0.1868,-0.1312,-1.7078563175597132,-0.20590323209762573,2.060955762863159,-1.9095280170440674,0.36711958050727844,2.469451904296875,5.052130716830053,-0.0018183650681748986,0.2325197160243988,-1.6522539297686976,0.0,0.04703664779663086,0.8186227679252625,-0.0,0.019389435648918152,0.7992823123931885,-5.121543651712835e-36,-0.10479530692100525
409.0,421.0,0.0054,0.5988,9.3571,-0.0354,0.1868,-0.1312,-1.709466119805807,-0.2025180608034134,2.1217305660247803,-1.9064770936965942,0.36237770318984985,2.495209217071533,5.052163052349844,-0.0012316338252276182,0.23319540917873383,-1.6522977987872522,0.0,0.03573226183652878,0.8187068104743958,-0.0,0.01870383322238922,0.7993388175964355,-1.6535321879032841e-43,-0.08978339284658432
409.0,421.0,0.0054,0.5988,9.3571,-0.0354,0.1868,-0.1312,-1.7111402950682582,-0.20941369235515594,2.1075613498687744,-1.903598427772522,0.36719387769699097,2.4517128467559814,5.052074807673254,-0.0007718174601905048,0.2145058661699295,-1.652302090321676,0.0,0.03247695416212082,0.8186469078063965,-0.0,0.01002550683915615,0.7993268370628357,0.0,-0.09345327317714691
409.0,421.0,0.0054,0.5988,9.3571,-0.0354,0.1868,-0.1312,-1.7128077946104945,-0.21158146858215332,2.106048583984375,-1.9006513357162476,0.3655753433704376,2.4903335571289062,5.052146839886465,-0.0005560076097026467,0.21745827794075012,-1.6522906462298792,0.0,0.05798107385635376,0.8186748027801514,-0.0,0.021779384464025497,0.7993388772010803,0.0,-0.09029355645179749
409.0,421.0,0.0054,0.5988,9.3571,-0.0354,0.1868,-0.1312,-1.714938303033346,-0.20777802169322968,2.150327205657959,-1.8969306945800781,0.3627171516418457,2.4771502017974854,5.052179264813223,-0.00035160905099473894,0.23163405060768127,-1.652278248463766,0.0,0.06639937311410904,0.8186509609222412,-0.0,0.011946474201977253,0.7993428707122803,0.0,-0.12755697965621948
409.0,421.0,0.0054,0.5988,9.3571,-0.0354,0.1868,-0.1312,-1.7166925869383753,-0.22168907523155212,2.138338088989258,-1.8940037488937378,0.36717963218688965,2.469550609588623,5.052110868483343,-0.00032541982363909483,0.21997523307800293,-1.6522701422320765,0.0,0.04629586264491081,0.8186428546905518,-0.0,0.013775389641523361,0.7993628978729248,0.0,-0.07623069733381271
409.0,421.0,0.0054,0.5988,9.3571,-0.0354,0.1868,-0.1312,-1.7184788189330042,-0.22029928863048553,2.1762120723724365,-1.8911123275756836,0.3682340085506439,2.4879324436187744,5.052122759609976,-0.0003081857576034963,0.22385743260383606,-1.6522496382342737,0.0,0.049592308700084686,0.8186911344528198,-0.0,0.016325149685144424,0.7993348836898804,0.0,-0.12384624779224396
360.0,348.0,-0.1298,0.6784,9.6162,-0.0269,0.15,-0.1429,-1.7203332386412562,-0.21698680520057678,2.140331745147705,-1.8881685733795166,0.36934906244277954,2.465139865875244,5.05214278677062,-0.000266216229647398,0.226608008146286,-1.6522496382342737,0.0,0.05145658552646637,0.8185986280441284,-0.0,0.014004972763359547,0.7993267774581909,0.0,-0.10470551997423172
360.0,348.0,-0.1298,0.6784,9.6162,-0.0269,0.15,-0.1429,-1.722123762170309,-0.23388732969760895,2.0878500938415527,-1.8852506875991821,0.37358757853507996,2.5419459342956543,5.052130716830053,-0.0003333060012664646,0.22487476468086243,-1.6522539297686976,0.0,0.06055252626538277,0.8186707496643066,-0.0,0.022412508726119995,0.7993388772010803,0.0,-0.17563794553279877
360.0,348.0,-0.1298,0.6784,9.6162,-0.0269,0.15,-0.1429,-1.724126478234762,-0.2415502518415451,2.148207664489746,-1.8823518753051758,0.3741183876991272,2.490532398223877,5.0520949242408655,-0.000579148530960083,0.23013991117477417,-1.6522496382342737,0.0,0.054960571229457855,0.8186588287353516,-0.0,0.012193075381219387,0.7993307113647461,0.0,-0.10566418617963791
360.0,348.0,-0.1298,0.6784,9.6162,-0.0269,0.15,-0.1429,-1.7259723148741664,-0.23154355585575104,2.177220582962036,-1.8793838024139404,0.37868401408195496,2.509526491165161,5.052042948990621,-0.0010127087589353323,0.22462084889411926,-1.6522658506976526,0.0,0.06420205533504486,0.8186432123184204,-0.0,0.02590745873749256,0.7993789911270142,0.0,-0.18904924392700195
360.0,348.0,-0.1298,0.6784,9.6162,-0.0269,0.15,-0.1429,-1.7284108601012171,-0.24983926117420197,2.1543877124786377,-1.8755394220352173,0.3677050769329071,2.4718003273010254,5.052074837475576,-0.0027427421882748604,0.21767282485961914,-1.6522582213031214,0.0,0.05960353463888168,0.8186951279640198,-0.0,0.009710423648357391,0.7993428707122803,0.0,-0.15814274549484253
360.0,348.0,-0.1298,0.6784,9.6162,-0.0269,0.15,-0.1429,-1.730349679986471,-0.2521219551563263,2.178408145904541,-1.8726379871368408,0.37042832374572754,2.4811525344848633,5.052095013647833,-0.001491342089138925,0.22402521967887878,-1.6522701422320765,0.0,0.06619833409786224,0.8186466693878174,-0.0,0.01590796746313572,0.7993025779724121,0.0,-0.1957753598690033
360.0,348.0,-0.1298,0.6784,9.6162,-0.0269,0.15,-0.1429,-1.732372900048727,-0.2478320449590683,2.1710472106933594,-1.8695659637451172,0.36704879999160767,2.5160305500030518,5.052114981203832,-0.0008167077321559191,0.22252756357192993,-1.652273956929342,0.00013507626135833561,0.06645303964614868,0.8186628818511963,-0.0,0.011934639886021614,0.7993388772010803,0.0,-0.1803123652935028
360.0,348.0,-0.1298,0.6784,9.6162,-0.0269,0.15,-0.1429,-1.7342902622618617,-0.247580423951149,2.1890945434570312,-1.8666391372680664,0.3657262921333313,2.4999959468841553,5.052074837475576,-0.0005625719204545021,0.2179236263036728,-1.652250115071432,0.0001565942948218435,0.05469239130616188,0.8186105489730835,-0.0,0.018710749223828316,0.7993066310882568,-8.99779042811133e-05,-0.1565236747264862
360.0,348.0,-0.1298,0.6784,9.6162,-0.0269,0.15,-0.1429,-1.7362567387022914,-0.2478283792734146,2.220308780670166,-1.8636599779129028,0.36961254477500916,2.480929374694824,5.052070873766699,-0.00023737145238555968,0.22193974256515503,-1.6522300879107874,0.00017284808563999832,0.07569408416748047,0.8185946345329285,-0.0,0.015862945467233658,0.7993267774581909,-8.435652125626802e-05,-0.1908661276102066
360.0,348.0,-0.1298,0.6784,9.6162,-0.0269,0.15,-0.1429,-1.7382198772826136,-0.25015199184417725,2.1725549697875977,-1.8607885837554932,0.36717489361763,2.4668080806732178,5.0520910797412775,-0.0002844443661160767,0.2275845855474472,-1.6522257963763636,0.0003530199464876205,0.06942610442638397,0.8186951279640198,-0.0,0.021107908338308334,0.79936683177948,-7.939545321278274e-05,-0.18591630458831787
360.0,348.0,-0.1298,0.6784,9.6162,-0.0269,0.15,-0.1429,-1.7402101955809535,-0.24978597462177277,2.232243299484253,-1.8577970266342163,0.364593505859375,2.516676902770996,5.052070814162054,-0.0007017850875854492,0.23435023427009583,-1.6522181669818323,0.0003804410807788372,0.06753731518983841,0.8186023831367493,-0.0,0.0045397523790597916,0.7993588447570801,-8.731310663279146e-05,-0.1742255985736847
322.0,320.0,-0.2459,0.0688,9.3697,-0.0677,0.1498,-0.1298,-1.7427450619139613,-0.25608932971954346,2.224531650543213,-1.854185938835144,0.3701239824295044,2.4302492141723633,5.052062916546621,-0.0005037946393713355,0.2332182079553604,-1.6521418730365198,0.0020459305960685015,0.0856650322675705,0.8187189698219299,-0.0,0.015774840489029884,0.799262523651123,-9.348348248749971e-05,-0.2202708125114441
322.0,320.0,-0.2459,0.0688,9.3697,-0.0677,0.1498,-0.1298,-1.7447554073729457,-0.2485339492559433,2.230512857437134,-1.8512070178985596,0.3772318363189697,2.475040912628174,5.052078830986776,-0.00043072341941297054,0.22063055634498596,-1.6521623770343226,0.0078072985634207726,0.06981174647808075,0.8186469078063965,-0.0,0.02452886663377285,0.7993470430374146,-0.00024922197917476296,-0.22185704112052917
322.0,320.0,-0.2459,0.0688,9.3697,-0.0677,0.1498,-0.1298,-1.7468258343138636,-0.24981386959552765,2.2278294563293457,-1.8481910228729248,0.38359448313713074,2.4979045391082764,5.052010941296377,-0.0003499840968288481,0.22435861825942993,-1.6520379225360315,0.019830718636512756,0.08866149187088013,0.8186187148094177,-0.0,0.005989889148622751,0.7993470430374146,-0.0009099062299355865,-0.24411585927009583
