ramyac6/ROB537/final_project/csv/all/good_137.csv
tof_0,tof_1,accelx,accely,accelz,gyrox,gyroy,gyroz,shoulder_lift_joint_position,shoulder_lift_joint_velocity,shoulder_lift_joint_effort,elbow_joint_position,elbow_joint_velocity,elbow_joint_effort,wrist_1_joint_position,wrist_1_joint_velocity,wrist_1_joint_effort,wrist_2_joint_position,wrist_2_joint_velocity,wrist_2_joint_effort,wrist_3_joint_position,wrist_3_joint_velocity,wrist_3_joint_effort,shoulder_pan_joint_position,shoulder_pan_joint_velocity,shoulder_pan_joint_effort
927.0,889.0,2.0046,-0.2895,9.2734,-0.0408,0.0264,-0.1147,-1.6927458248534144,0.0,2.6100034713745117,-1.8542413711547852,-0.0,2.046692371368408,4.835304233222761,0.0,0.2979024052619934,-1.5830381552325647,0.0,-0.002805893775075674,0.9079747796058655,0.0,-0.006971348077058792,0.7839550971984863,0.0,-0.016661064699292183
927.0,889.0,2.0046,-0.2895,9.2734,-0.0408,0.0264,-0.1147,-1.6927296123900355,0.0,2.5567712783813477,-1.8542134761810303,-0.0,2.057163953781128,4.835288199573316,0.0,0.29927369952201843,-1.583033863698141,0.0,-0.007641978561878204,0.9079990983009338,0.0,-0.012477435171604156,0.7839951515197754,0.0,0.015651095658540726
927.0,889.0,2.0046,-0.2895,9.2734,-0.0408,0.0264,-0.1147,-1.6928140125670375,0.0,2.5367674827575684,-1.8542332649230957,-0.0,2.0510318279266357,4.835272218077936,0.0,0.29940009117126465,-1.5829861799823206,0.0,-0.0033825894352048635,0.9079990983009338,0.0,-0.002131261397153139,0.7839468121528625,0.0,-0.017871476709842682
927.0,889.0,2.0046,-0.2895,9.2734,-0.0408,0.0264,-0.1147,-1.6927458248534144,0.0,2.5613229274749756,-1.8542053699493408,-0.0,2.0552423000335693,4.83525217601613,0.0,0.2922498285770416,-1.5829899946795862,0.0,-0.01496019959449768,0.9079906940460205,0.0,-0.017077110707759857,0.7839910984039307,0.0,0.006592877209186554
927.0,889.0,2.0046,-0.2895,9.2734,-0.0408,0.0264,-0.1147,-1.692805906335348,0.0,2.530707836151123,-1.8542134761810303,-0.0,2.015394449234009,4.835260379105367,0.0,0.29669976234436035,-1.5829694906817835,0.0,-0.0060690054669976234,0.9080231785774231,0.0,-0.007440066896378994,0.7839710712432861,0.0,0.02172597497701645
927.0,889.0,2.0046,-0.2895,9.2734,-0.0408,0.0264,-0.1147,-1.6927734814085902,0.0,2.56050968170166,-1.854217767715454,-0.0,2.064209461212158,4.8353004706795595,0.0,0.30309802293777466,-1.5829818884478968,0.0,-0.010079943574965,0.9080150127410889,0.0,0.005381274968385696,0.7840155363082886,0.0,-0.025044230744242668
911.0,892.0,1.9777,-0.341,9.2692,-0.0417,0.0228,-0.1141,-1.6927858791747035,0.0,2.568558692932129,-1.8542662858963013,-0.0,2.0299112796783447,4.83528038391427,0.0,0.289686918258667,-1.5830262343036097,0.0,-0.01819448173046112,0.9079865217208862,0.0,-0.011271048337221146,0.7839224934577942,0.0,0.013646050356328487
911.0,892.0,1.9777,-0.341,9.2692,-0.0417,0.0228,-0.1141,-1.6928097210326136,0.0,2.5790023803710938,-1.8542540073394775,-0.0,2.048769474029541,4.835328425257959,0.0,0.2958366572856903,-1.5829780737506312,0.0,-0.007533300668001175,0.9079906940460205,0.0,-0.0012964324560016394,0.7839468717575073,0.0,0.0038173941429704428
911.0,892.0,1.9777,-0.341,9.2692,-0.0417,0.0228,-0.1141,-1.6927696667113246,0.0,2.542461395263672,-1.8542053699493408,-0.0,2.0998785495758057,4.835276308446684,0.0,0.30075082182884216,-1.5830143133746546,0.0,-0.006078085862100124,0.9079784154891968,0.0,-0.0005954289808869362,0.7839550971984863,0.0,-0.0013821660540997982
911.0,892.0,1.9777,-0.341,9.2692,-0.0417,0.0228,-0.1141,-1.692777772943014,0.0,2.5725960731506348,-1.854217767715454,-0.0,1.9861973524093628,4.835292722075739,0.0,0.29844045639038086,-1.5830181280719202,0.0,-0.013546464964747429,0.9079950451850891,0.0,-0.008017219603061676,0.7839628458023071,0.0,-0.01468135230243206
911.0,892.0,1.9777,-0.341,9.2692,-0.0417,0.0228,-0.1141,-1.692777772943014,0.0,2.5449156761169434,-1.8542299270629883,-0.0,2.0289440155029297,4.835268462985315,0.0,0.2882757782936096,-1.5830143133746546,0.0,-0.006451948545873165,0.9079705476760864,0.0,-0.009019407443702221,0.7839749455451965,0.0,0.040616005659103394
911.0,892.0,1.9777,-0.341,9.2692,-0.0417,0.0228,-0.1141,-1.6928140125670375,0.0,2.6099913120269775,-1.8542540073394775,-0.0,2.0283899307250977,4.83532469251708,0.0,0.28767693042755127,-1.5830629507647913,0.0,0.003856439609080553,0.9080113172531128,0.0,-0.002900494961068034,0.7839468717575073,0.0,0.027482138946652412
911.0,892.0,1.9777,-0.341,9.2692,-0.0417,0.0228,-0.1141,-1.6928054294981898,0.0,2.5396101474761963,-1.8542745113372803,-0.0,2.0649869441986084,4.83528038391427,0.0,0.2864515483379364,-1.5830023924456995,0.0,0.004755990579724312,0.9080471992492676,0.0,0.00040665920823812485,0.7839464545249939,0.0,-0.02323940582573414
911.0,892.0,1.9777,-0.341,9.2692,-0.0417,0.0228,-0.1141,-1.6927901707091273,0.0,2.545334815979004,-1.8542373180389404,-0.0,1.987541675567627,4.835300448327818,0.0,0.30854660272598267,-1.5829818884478968,0.0,0.009923739358782768,0.9080150127410889,0.0,0.004638865124434233,0.7839667201042175,0.0,0.051949672400951385
911.0,892.0,1.9777,-0.341,9.2692,-0.0417,0.0228,-0.1141,-1.692777772943014,0.0,2.5611236095428467,-1.8541854619979858,-0.0,2.000953197479248,4.83530422577218,0.0,0.3020526170730591,-1.5829694906817835,0.0,-0.007333050947636366,0.9079950451850891,0.0,0.005978408269584179,0.7839387059211731,0.0,0.0157057736068964
911.0,892.0,1.9777,-0.341,9.2692,-0.0417,0.0228,-0.1141,-1.6927534542479457,0.0,2.552229404449463,-1.8542413711547852,-0.0,2.0559446811676025,4.835240225284853,0.0,0.3005697727203369,-1.5830100218402308,0.0,-0.006276560015976429,0.9080310463905334,0.0,0.000886055058799684,0.7839828729629517,3.5951723820204506e-09,-0.010217385366559029
911.0,892.0,1.9777,-0.341,9.2692,-0.0417,0.0228,-0.1141,-1.6928097210326136,0.0,2.568824052810669,-1.8542413711547852,-0.0,2.0522983074188232,4.835276695876875,0.0,0.292093962430954,-1.5830019156085413,0.0,-0.0048745605163276196,0.9079747796058655,0.0,-0.0013564593391492963,0.7839750051498413,1.1647900782273606e-16,-0.003139784326776862
931.0,884.0,1.998,-0.3039,9.2225,-0.0325,0.0247,-0.1156,-1.692805906335348,0.0,2.5902090072631836,-1.8542373180389404,-0.0,2.061859607696533,4.835276308446684,0.0,0.29152530431747437,-1.5830143133746546,0.0,-0.01075553148984909,0.9080150127410889,0.0,-0.00834290124475956,0.7839387059211731,3.7737717310580016e-24,0.02200242504477501
931.0,884.0,1.998,-0.3039,9.2225,-0.0325,0.0247,-0.1156,-1.6927577457823695,0.0,2.5897626876831055,-1.8542499542236328,-0.0,2.034909725189209,4.835240225284853,0.0,0.3006848096847534,-1.5830300490008753,0.0,0.00729646161198616,0.9079950451850891,0.0,0.003009520471096039,0.7839749455451965,1.2226540086829269e-31,-0.0019281941931694746
931.0,884.0,1.998,-0.3039,9.2225,-0.0325,0.0247,-0.1156,-1.6927854023375453,0.0,2.5443906784057617,-1.854201316833496,-0.0,2.0113883018493652,4.835288534849443,0.0,0.2870315909385681,-1.5830100218402308,0.0,-0.011166871525347233,0.9080432057380676,0.0,-0.007094773463904858,0.7839628458023071,3.961243748295037e-39,0.0017310138791799545
931.0,884.0,1.998,-0.3039,9.2225,-0.0325,0.0247,-0.1156,-1.6927577457823695,0.0,2.573493003845215,-1.8542300462722778,-0.0,2.0456671714782715,4.835227991431513,0.0,0.28783172369003296,-1.5830300490008753,0.0,-0.0163637176156044,0.9080190062522888,0.0,-0.00451654614880681,0.7839872241020203,0.0,-0.032576512545347214
931.0,884.0,1.998,-0.3039,9.2225,-0.0325,0.0247,-0.1156,-1.6928140125670375,0.0,2.594684600830078,-1.854217767715454,-0.0,2.0646660327911377,4.835268470435896,0.0,0.28727972507476807,-1.5830262343036097,0.0,-0.009305252693593502,0.908042848110199,0.0,-0.012306230142712593,0.7839550971984863,0.0,0.02924349159002304
931.0,884.0,1.998,-0.3039,9.2225,-0.0325,0.0247,-0.1156,-1.6927582226195277,0.0,2.5778098106384277,-1.8542455434799194,-0.0,2.0169737339019775,4.835264342814245,0.0,0.296417236328125,-1.5830100218402308,0.0,0.0009122926276177168,0.9079950451850891,0.0,-0.0014414614997804165,0.7839749455451965,0.0,-0.019339730963110924
931.0,884.0,1.998,-0.3039,9.2225,-0.0325,0.0247,-0.1156,-1.6928020916380824,0.0,2.583228826522827,-1.8541898727416992,-0.0,2.0234124660491943,4.83525217601613,0.0,0.30356818437576294,-1.5829981009112757,0.0,-0.01914333924651146,0.9079787731170654,0.0,0.01698358729481697,0.7839869856834412,0.0,0.003466598689556122
931.0,884.0,1.998,-0.3039,9.2225,-0.0325,0.0247,-0.1156,-1.6927901707091273,0.0,2.587524890899658,-1.8541929721832275,-0.0,2.040531873703003,4.835284474283018,0.0,0.28329551219940186,-1.5830219427691858,0.0,-0.008967815898358822,0.9079586267471313,0.0,-0.007788953837007284,0.7839587926864624,0.0,-0.006002980284392834
931.0,884.0,1.998,-0.3039,9.2225,-0.0325,0.0247,-0.1156,-1.6927415333189906,0.0,2.528703212738037,-1.8542218208312988,-0.0,2.06998610496521,4.835344734578886,0.0,0.2868063151836395,-1.5830181280719202,0.0,-0.0032834031153470278,0.9080507755279541,0.0,-0.015370756387710571,0.7839952111244202,0.0,0.011447882279753685
931.0,884.0,1.998,-0.3039,9.2225,-0.0325,0.0247,-0.1156,-1.692789693871969,0.0,2.5855870246887207,-1.8541929721832275,-0.0,2.060699462890625,4.835296380310812,0.0,0.2955176830291748,-1.583050552998678,0.0,-0.005447092931717634,0.908026933670044,0.0,-0.004560280591249466,0.7839387059211731,0.0,0.026851819828152657
931.0,884.0,1.998,-0.3039,9.2225,-0.0325,0.0247,-0.1156,-1.692793985406393,0.0,2.59594464302063,-1.8542134761810303,-0.0,2.058501720428467,4.835280361562528,0.0,0.2990100681781769,-1.5830343405352991,0.0,-0.0053269751369953156,0.9080391526222229,0.0,-0.0010761525481939316,0.7839428186416626,0.0,-0.022596001625061035
917.0,881.0,2.004,-0.3254,9.2183,-0.0418,0.0185,-0.1127,-1.692793985406393,0.0,2.6221587657928467,-1.854217767715454,-0.0,2.0597686767578125,4.835328857391634,0.0,0.2937534749507904,-1.5830100218402308,0.0,-0.010121660307049751,0.9079950451850891,0.0,-0.009528419934213161,0.7840151786804199,0.0,0.0035183008294552565
917.0,881.0,2.004,-0.3254,9.2183,-0.0418,0.0185,-0.1127,-1.6927458248534144,0.0,2.5329666137695312,-1.8542053699493408,-0.0,2.0627853870391846,4.835220198124208,0.0,0.2970644235610962,-1.5829780737506312,0.0,-0.010990671813488007,0.9079788327217102,0.0,-0.0005609889049082994,0.7839952111244202,0.0,0.006821607705205679
917.0,881.0,2.004,-0.3254,9.2183,-0.0418,0.0185,-0.1127,-1.6927696667113246,0.0,2.5872631072998047,-1.8542094230651855,-0.0,2.0899815559387207,4.835312369256773,0.0,0.2988588809967041,-1.5830181280719202,0.0,-0.004042539279907942,0.9080030918121338,0.0,-0.001157264458015561,0.7839993238449097,0.0,-0.03389998897910118
917.0,881.0,2.004,-0.3254,9.2183,-0.0418,0.0185,-0.1127,-1.6928054294981898,0.0,2.5811352729797363,-1.8542258739471436,-0.0,1.9964470863342285,4.835292304843225,0.0,0.28266406059265137,-1.5829694906817835,0.0,-0.013139814138412476,0.9079987406730652,0.0,-0.0006806289893575013,0.7839147448539734,0.0,-0.011926514096558094
917.0,881.0,2.004,-0.3254,9.2183,-0.0418,0.0185,-0.1127,-1.6927458248534144,0.0,2.581925392150879,-1.8541733026504517,-0.0,2.0784292221069336,4.8352762637432,0.0,0.29498860239982605,-1.5830062071429651,0.0,0.00036696932511404157,0.9080072641372681,0.0,-0.00012307334691286087,0.7839428186416626,0.0,0.015911966562271118
917.0,881.0,2.004,-0.3254,9.2183,-0.0418,0.0185,-0.1127,-1.6928140125670375,0.0,2.6164398193359375,-1.8542258739471436,-0.0,2.018198013305664,4.835272553354063,0.0,0.2889753580093384,-1.583033863698141,0.0,-0.017981693148612976,0.9079666137695312,0.0,0.004194950684905052,0.7839828729629517,0.0,-0.059952933341264725
917.0,881.0,2.004,-0.3254,9.2183,-0.0418,0.0185,-0.1127,-1.6928020916380824,0.0,2.56894850730896,-1.8542579412460327,-0.0,2.034581422805786,4.835288549750604,0.0,0.2888309061527252,-1.5830062071429651,0.0,-0.0103470329195261,0.9080153107643127,0.0,-0.0072064814157783985,0.783934473991394,0.0,0.03518374264240265
917.0,881.0,2.004,-0.3254,9.2183,-0.0418,0.0185,-0.1127,-1.6927978001036585,0.0,2.556786298751831,-1.854217767715454,-0.0,2.006171941757202,4.835296365409651,0.0,0.2825777530670166,-1.5829938093768519,0.0,-0.010328302159905434,0.9080309271812439,0.0,-0.0029867691919207573,0.7839667201042175,0.0,0.04691929742693901
917.0,881.0,2.004,-0.3254,9.2183,-0.0418,0.0185,-0.1127,-1.6927978001036585,0.0,2.5839667320251465,-1.8542580604553223,-0.0,2.0644497871398926,4.835320564895429,0.0,0.2889334261417389,-1.583022419606344,0.0,-0.024465657770633698,0.9080349206924438,0.0,0.0009012416703626513,0.7839550971984863,0.0,-0.04786591976881027
917.0,881.0,2.004,-0.3254,9.2183,-0.0418,0.0185,-0.1127,-1.6927815876402796,0.0,2.5905003547668457,-1.8542258739471436,-0.0,2.042389392852783,4.835280838399687,0.0,0.29542458057403564,-1.5830181280719202,0.0,-0.013995169661939144,0.9080031514167786,0.0,-0.008799503557384014,0.7839993238449097,0.0,-0.00541695998981595
917.0,881.0,2.004,-0.3254,9.2183,-0.0418,0.0185,-0.1127,-1.692777772943014,0.0,2.550178050994873,-1.8542413711547852,-0.0,2.0785751342773438,4.835227983980932,0.0,0.29856595396995544,-1.5830343405352991,0.0,-0.01643688790500164,0.9079785346984863,0.0,-0.0040088798850774765,0.7839831709861755,0.0,-0.04216160252690315
945.0,878.0,2.0148,-0.3212,9.1843,-0.0367,0.0266,-0.12,-1.6927734814085902,0.0,2.5473647117614746,-1.854193925857544,-0.0,2.015385627746582,4.83527252355174,0.0,0.29803481698036194,-1.583017651234762,0.0,-0.010588057339191437,0.9080150723457336,0.0,-0.0035040215589106083,0.7839025259017944,0.0,0.01015375554561615
945.0,878.0,2.0148,-0.3212,9.1843,-0.0367,0.0266,-0.12,-1.692789693871969,0.0,2.5686912536621094,-1.8542218208312988,-0.0,2.045306921005249,4.835300530284204,0.0,0.2950730323791504,-1.5829861799823206,0.0,-0.001350250793620944,0.9079951047897339,0.0,-0.010720795951783657,0.7839952111244202,0.0,0.016872743144631386
945.0,878.0,2.0148,-0.3212,9.1843,-0.0367,0.0266,-0.12,-1.692777772943014,0.0,2.5532493591308594,-1.854166030883789,-0.0,2.050769805908203,4.835260356753626,0.0,0.3057856559753418,-1.5830181280719202,0.0,-0.007882927544414997,0.9079825282096863,0.0,-0.005963228642940521,0.7839587926864624,0.0,-0.03198134899139404
945.0,878.0,2.0148,-0.3212,9.1843,-0.0367,0.0266,-0.12,-1.692817827264303,0.0,2.5623183250427246,-1.8542373180389404,-0.0,2.03623366355896,4.835248003690996,0.0,0.30380257964134216,-1.5829938093768519,0.0,-0.004415838047862053,0.9080390930175781,0.0,-0.012162704020738602,0.7839546799659729,0.0,0.03576704487204552
945.0,878.0,2.0148,-0.3212,9.1843,-0.0367,0.0266,-0.12,-1.6927415333189906,0.0,2.5968165397644043,-1.8542053699493408,-0.0,2.0228030681610107,4.835232588439741,0.0,0.29268622398376465,-1.5829899946795862,0.0,-0.014201197773218155,0.908011257648468,0.0,-0.009203699417412281,0.7840072512626648,0.0,0.017417313531041145
945.0,878.0,2.0148,-0.3212,9.1843,-0.0367,0.0266,-0.12,-1.692805906335348,0.0,2.589160919189453,-1.8542332649230957,-0.0,2.0178887844085693,4.835268448084154,0.0,0.3032197952270508,-1.5830143133746546,0.0,-0.007283717393875122,0.9080390334129333,0.0,-0.004049135372042656,0.7839628458023071,0.0,0.014102369546890259
945.0,878.0,2.0148,-0.3212,9.1843,-0.0367,0.0266,-0.12,-1.692793985406393,0.0,2.5390243530273438,-1.8541898727416992,-0.0,2.043497085571289,4.835268448084154,0.0,0.29214760661125183,-1.5829818884478968,0.0,-0.01018549595028162,0.9079947471618652,0.0,-0.009534036740660667,0.7839307188987732,0.0,0.02384832873940468
945.0,878.0,2.0148,-0.3212,9.1843,-0.0367,0.0266,-0.12,-1.692793985406393,0.0,2.585574150085449,-1.8541858196258545,-0.0,2.014521360397339,4.8352684555347345,0.0,0.29141145944595337,-1.5830181280719202,0.0,-0.002776762470602989,0.9080030918121338,0.0,-0.009879007935523987,0.7839629054069519,0.0,-0.016122421249747276
945.0,878.0,2.0148,-0.3212,9.1843,-0.0367,0.0266,-0.12,-1.6927978001036585,0.0,2.5165250301361084,-1.854253888130188,-0.0,2.0430970191955566,4.8352325958903215,0.0,0.2900204658508301,-1.5830343405352991,0.0,-0.0039674751460552216,0.9080390930175781,0.0,0.001825889339670539,0.783970832824707,0.0,0.025877350941300392
945.0,878.0,2.0148,-0.3212,9.1843,-0.0367,0.0266,-0.12,-1.69274963955068,0.0,2.5457465648651123,-1.854245662689209,-0.0,2.074150562286377,4.8353201923663995,0.0,0.2922367453575134,-1.5830100218402308,0.0,-0.009404037147760391,0.9079467058181763,0.0,-0.0038258000276982784,0.7839831709861755,0.0,-0.004075055010616779
930.0,881.0,2.0118,-0.2812,9.323,-0.0397,0.0202,-0.1213,-1.6927820644774378,0.0,2.5981333255767822,-1.8542053699493408,-0.0,2.0160653591156006,4.835296380310812,0.0,0.29320138692855835,-1.583022419606344,0.0,0.0003300607204437256,0.9079388976097107,0.0,-0.009343435056507587,0.7839628458023071,0.0,0.024463780224323273
930.0,881.0,2.0118,-0.2812,9.323,-0.0397,0.0202,-0.1213,-1.692789693871969,0.0,2.546170949935913,-1.854201316833496,-0.0,2.0286448001861572,4.83528051057414,0.0,0.2946813106536865,-1.5829899946795862,0.0,-0.004172817338258028,0.9079316854476929,0.0,-0.013149692676961422,0.7839505076408386,0.0,-0.05557449534535408
930.0,881.0,2.0118,-0.2812,9.323,-0.0397,0.0202,-0.1213,-1.6928016148009242,0.0,2.5510354042053223,-1.854270339012146,-0.0,2.031895399093628,4.835268589645185,0.0,0.29490455985069275,-1.583005730305807,0.0,-0.012819970026612282,0.907966673374176,0.0,-0.011414446868002415,0.7839749455451965,0.0,0.02598060481250286
930.0,881.0,2.0118,-0.2812,9.323,-0.0397,0.0202,-0.1213,-1.692761560479635,0.0,2.5460033416748047,-1.8542135953903198,-0.0,2.017822742462158,4.83528051057414,0.0,0.28965896368026733,-1.5830100218402308,0.0,-0.007457437925040722,0.9080507755279541,0.0,0.0021600197069346905,0.7839952111244202,0.0,-0.020939595997333527
930.0,881.0,2.0118,-0.2812,9.323,-0.0397,0.0202,-0.1213,-1.6927820644774378,0.0,2.5730514526367188,-1.8542094230651855,-0.0,2.0682387351989746,4.835276584118166,0.0,0.29903483390808105,-1.583033863698141,0.0,-0.011007522232830524,0.9080390334129333,0.0,-0.0010169342858716846,0.7839628458023071,0.0,-0.01716317981481552
930.0,881.0,2.0118,-0.2812,9.323,-0.0397,0.0202,-0.1213,-1.6927734814085902,0.0,2.5622005462646484,-1.8542662858963013,-0.0,1.992491602897644,4.835292431503095,0.0,0.29911407828330994,-1.5830023924456995,0.0,0.0026768436655402184,0.9080550074577332,0.0,-0.0003461411688476801,0.7839789986610413,0.0,-0.03223012760281563
930.0,881.0,2.0118,-0.2812,9.323,-0.0397,0.0202,-0.1213,-1.692789693871969,0.0,2.5939888954162598,-1.8542817831039429,-0.0,2.0241878032684326,4.835300381272592,0.0,0.29174062609672546,-1.5830262343036097,0.0,-0.007893651723861694,0.908003032207489,0.0,0.006857187021523714,0.783979058265686,0.0,0.03225813806056976
930.0,881.0,2.0118,-0.2812,9.323,-0.0397,0.0202,-0.1213,-1.6927820644774378,0.0,2.559523582458496,-1.8542299270629883,-0.0,2.049332857131958,4.835272680013933,0.0,0.29531243443489075,-1.583005730305807,0.0,-0.02174268290400505,0.9079990983009338,0.0,-0.01571556180715561,0.7839345335960388,0.0,-0.011213162913918495
930.0,881.0,2.0118,-0.2812,9.323,-0.0397,0.0202,-0.1213,-1.692805906335348,0.0,2.5748043060302734,-1.8541858196258545,-0.0,2.029116630554199,4.835260699480333,0.0,0.2976836860179901,-1.5829981009112757,0.0,-0.0021316432394087315,0.907982587814331,0.0,-0.0002525769523344934,0.7839910984039307,0.0,-0.011135542765259743
930.0,881.0,2.0118,-0.2812,9.323,-0.0397,0.0202,-0.1213,-1.6927577457823695,0.0,2.5525529384613037,-1.8542218208312988,-0.0,2.037008285522461,4.835256355791845,0.0,0.30061885714530945,-1.583038632069723,0.0,-0.008913920260965824,0.9080390334129333,0.0,-0.011422192677855492,0.7839428186416626,0.0,0.012380513362586498
930.0,881.0,2.0118,-0.2812,9.323,-0.0397,0.0202,-0.1213,-1.6927458248534144,0.0,2.586927890777588,-1.854202151298523,-0.0,2.042327404022217,4.835264692991533,0.0,0.2928295433521271,-1.5829899946795862,0.0,-0.009465371258556843,0.9079786539077759,0.0,0.001167618203908205,0.7839387059211731,0.0,0.004577436484396458
948.0,877.0,1.9573,-0.3326,9.2824,-0.0356,0.0177,-0.1069,-1.6927458248534144,0.0,2.5805089473724365,-1.854253888130188,-0.0,2.062687397003174,4.835300329118528,0.0,0.3135915994644165,-1.5830219427691858,0.0,-0.01796558126807213,0.9080150127410889,0.0,-0.0067760031670331955,0.7839667201042175,0.0,0.012025361880660057
948.0,877.0,1.9573,-0.3326,9.2824,-0.0356,0.0177,-0.1069,-1.6927734814085902,0.0,2.583190441131592,-1.8542579412460327,-0.0,2.0029025077819824,4.835300329118528,0.0,0.29172900319099426,-1.5829861799823206,0.0,-0.018236471340060234,0.9080111980438232,0.0,-0.004507725592702627,0.7839749455451965,0.0,0.013017361983656883
948.0,877.0,1.9573,-0.3326,9.2824,-0.0356,0.0177,-0.1069,-1.692777772943014,0.0,2.633734703063965,-1.854193925857544,-0.0,2.0722663402557373,4.83528849014596,0.0,0.28276538848876953,-1.583005730305807,0.0,-0.02299022302031517,0.9079826474189758,0.0,-0.003201042767614126,0.7839387059211731,0.0,0.024651462212204933
948.0,877.0,1.9573,-0.3326,9.2824,-0.0356,0.0177,-0.1069,-1.6928259334959925,0.0,2.577756404876709,-1.8542454242706299,-0.0,2.0668723583221436,4.835252406984129,0.0,0.29540038108825684,-1.583010498677389,0.0,-0.02390332520008087,0.9080390334129333,0.0,0.011710438877344131,0.7839869856834412,0.0,0.008073335513472557
948.0,877.0,1.9573,-0.3326,9.2824,-0.0356,0.0177,-0.1069,-1.6927978001036585,0.0,2.588207244873047,-1.854253888130188,-0.0,2.085350513458252,4.835256393044748,0.0,0.29926860332489014,-1.5830143133746546,0.0,-0.008086608722805977,0.9079787731170654,0.0,-0.02117331139743328,0.7839910984039307,0.0,-0.05029378831386566
948.0,877.0,1.9573,-0.3326,9.2824,-0.0356,0.0177,-0.1069,-1.6927820644774378,0.0,2.5727152824401855,-1.8542743921279907,-0.0,2.0206708908081055,4.835308301239767,0.0,0.2937929928302765,-1.5829861799823206,0.0,-0.01338331401348114,0.9080467224121094,0.0,-0.000998824485577643,0.7839468717575073,0.0,-0.02154407650232315
948.0,877.0,1.9573,-0.3326,9.2824,-0.0356,0.0177,-0.1069,-1.6928140125670375,0.0,2.565713882446289,-1.854253888130188,-0.0,2.0256688594818115,4.835284459381857,0.0,0.3072414994239807,-1.5829899946795862,0.0,-0.023278623819351196,0.9080072045326233,0.0,0.001940353773534298,0.783979058265686,0.0,-0.027914077043533325
948.0,877.0,1.9573,-0.3326,9.2824,-0.0356,0.0177,-0.1069,-1.692777772943014,0.0,2.5779809951782227,-1.8542218208312988,-0.0,2.0355052947998047,4.835252406984129,0.0,0.293781042098999,-1.5829780737506312,0.0,-0.009398622438311577,0.9079946875572205,0.0,0.00756578054279089,0.7839789986610413,0.0,0.017621075734496117
948.0,877.0,1.9573,-0.3326,9.2824,-0.0356,0.0177,-0.1069,-1.692761560479635,0.0,2.6002426147460938,-1.854209542274475,-0.0,2.0571703910827637,4.835284459381857,0.0,0.2968958020210266,-1.5830343405352991,0.0,-0.0018689424032345414,0.9080190062522888,0.0,-0.011255590245127678,0.7839345335960388,0.0,-0.05515079200267792
948.0,877.0,1.9573,-0.3326,9.2824,-0.0356,0.0177,-0.1069,-1.6927858791747035,0.0,2.5871834754943848,-1.8542094230651855,-0.0,2.017094612121582,4.83528849014596,0.0,0.286567360162735,-1.5830219427691858,0.0,-0.00031862081959843636,0.9080626964569092,0.0,-0.012329334393143654,0.7839345335960388,0.0,-0.0009211990982294083
948.0,877.0,1.9573,-0.3326,9.2824,-0.0356,0.0177,-0.1069,-1.6927415333189906,0.0,2.5453362464904785,-1.8542218208312988,-0.0,2.02164626121521,4.835288408189573,0.0,0.30785152316093445,-1.5830143133746546,0.0,-0.006883881986141205,0.9080507755279541,0.0,-0.011163837276399136,0.7839422821998596,0.0,0.014371740631759167
929.0,904.0,2.001,-0.2913,9.2477,-0.0447,0.0238,-0.1138,-1.6927973232665003,0.0,2.511286735534668,-1.854193925857544,-0.0,2.027876377105713,4.835320147662916,0.0,0.28849488496780396,-1.5830143133746546,0.0,-0.009798010811209679,0.9080310463905334,0.0,0.0003813338407780975,0.7839509844779968,0.0,-0.02605639211833477
929.0,904.0,2.001,-0.2913,9.2477,-0.0447,0.0238,-0.1138,-1.692817827264303,0.0,2.5675783157348633,-1.8542218208312988,-0.0,2.0516414642333984,4.835340033262529,0.0,0.3087996244430542,-1.5829938093768519,0.0,-0.007326105609536171,0.907966673374176,0.0,0.005470079369843006,0.7839147448539734,0.0,0.00953920278698206
929.0,904.0,2.001,-0.2913,9.2477,-0.0447,0.0238,-0.1138,-1.692793985406393,0.0,2.5590336322784424,-1.8542218208312988,-0.0,2.0454177856445312,4.835276524513521,0.0,0.3015276789665222,-1.5829780737506312,0.0,-0.015455926768481731,0.9079196453094482,0.0,0.0025128922425210476,0.7839546203613281,0.0,-0.004293985664844513
929.0,904.0,2.001,-0.2913,9.2477,-0.0447,0.0238,-0.1138,-1.692817827264303,0.0,2.552988290786743,-1.8542176485061646,-0.0,2.019070625305176,4.835268589645185,0.0,0.2947986423969269,-1.583005730305807,0.0,-0.012912221252918243,0.9080468416213989,0.0,-0.0033147188369184732,0.7839509844779968,0.0,-0.02904873713850975
929.0,904.0,2.001,-0.2913,9.2477,-0.0447,0.0238,-0.1138,-1.6927734814085902,0.0,2.5618019104003906,-1.8541896343231201,-0.0,2.0516855716705322,4.8352646482880495,0.0,0.30175352096557617,-1.5830262343036097,0.0,0.008036930114030838,0.9080111980438232,0.0,-0.0005487177986651659,0.7839468717575073,0.0,-0.009662275202572346
929.0,904.0,2.001,-0.2913,9.2477,-0.0447,0.0238,-0.1138,-1.6927696667113246,0.0,2.5751101970672607,-1.8541971445083618,-0.0,2.0278165340423584,4.835304270475664,0.0,0.2946442663669586,-1.5829818884478968,0.0,-0.017707202583551407,0.9080031514167786,0.0,-0.006238863803446293,0.783979058265686,0.0,-0.013702142983675003
929.0,904.0,2.001,-0.2913,9.2477,-0.0447,0.0238,-0.1138,-1.692777772943014,0.0,2.519360065460205,-1.8542299270629883,-0.0,2.0898208618164062,4.835312250047483,0.0,0.2922026813030243,-1.5830419699298304,0.0,-0.015383826568722725,0.9079826474189758,0.0,-0.008316840045154095,0.7839789986610413,0.0,0.040874920785427094
929.0,904.0,2.001,-0.2913,9.2477,-0.0447,0.0238,-0.1138,-1.6927696667113246,0.0,2.5553102493286133,-1.8542053699493408,-0.0,2.0473999977111816,4.83528051057414,0.0,0.2827725410461426,-1.5830462614642542,0.0,-0.0008980997372418642,0.9079991579055786,0.0,-0.00759518425911665,0.7839749455451965,0.0,-3.95309180021286e-05
929.0,904.0,2.001,-0.2913,9.2477,-0.0447,0.0238,-0.1138,-1.6927739582457484,0.0,2.637162208557129,-1.8541979789733887,-0.0,2.031496286392212,4.835324163525858,0.0,0.2890254259109497,-1.5830019156085413,0.0,-0.005204892251640558,0.9080350399017334,0.0,0.00021338555961847305,0.7839669585227966,0.0,-0.004941082559525967
929.0,904.0,2.001,-0.2913,9.2477,-0.0447,0.0238,-0.1138,-1.69274963955068,0.0,2.571840763092041,-1.8542373180389404,-0.0,2.062690496444702,4.835296380310812,0.0,0.2988463044166565,-1.5830023924456995,0.0,0.0017017144709825516,0.9080030918121338,0.0,-0.003852316178381443,0.7839708924293518,0.0,0.05373668670654297
929.0,904.0,2.001,-0.2913,9.2477,-0.0447,0.0238,-0.1138,-1.6928097210326136,0.0,2.5940821170806885,-1.8542332649230957,-0.0,2.064606189727783,4.835308293789186,0.0,0.2966870069503784,-1.5829981009112757,0.0,-0.009817378595471382,0.9080230593681335,0.0,-0.009017670527100563,0.7839428186416626,0.0,0.0029827766120433807
933.0,873.0,2.0201,-0.3278,9.1508,-0.0385,0.0286,-0.1226,-1.692793985406393,0.0,2.607193946838379,-1.854209542274475,-0.0,2.0158004760742188,4.835300366371431,0.0,0.28828591108322144,-1.5830143133746546,0.0,-0.005615489091724157,0.9079991579055786,0.0,0.006695006508380175,0.7839789986610413,0.0,-0.00506065646186471
933.0,873.0,2.0201,-0.3278,9.1508,-0.0385,0.0286,-0.1226,-1.6927653751769007,0.0,2.5772976875305176,-1.854193925857544,-0.0,2.023453712463379,4.835292431503095,0.0,0.284012109041214,-1.5830181280719202,0.0,-0.011467279866337776,0.9081064462661743,0.0,-0.0038062946405261755,0.7839469313621521,0.0,-0.010835886001586914
933.0,873.0,2.0201,-0.3278,9.1508,-0.0385,0.0286,-0.1226,-1.692817827264303,0.0,2.5589890480041504,-1.8542218208312988,-0.0,2.040452003479004,4.835296380310812,0.0,0.2915650010108948,-1.5830100218402308,0.0,-0.01317198108881712,0.9080111384391785,0.0,0.0031720802653580904,0.7839509844779968,0.0,0.018305685371160507
933.0,873.0,2.0201,-0.3278,9.1508,-0.0385,0.0286,-0.1226,-1.6927734814085902,0.0,2.570645809173584,-1.8542054891586304,-0.0,2.0788652896881104,4.835312250047483,0.0,0.30788958072662354,-1.5829818884478968,0.0,-0.004377878736704588,0.9080667495727539,0.0,0.005250670947134495,0.7839628458023071,0.0,-0.02062832936644554
933.0,873.0,2.0201,-0.3278,9.1508,-0.0385,0.0286,-0.1226,-1.6928383312621058,0.0,2.56327486038208,-1.8542373180389404,-0.0,2.015083074569702,4.83528051057414,0.0,0.3068867325782776,-1.5830343405352991,0.0,-0.0054163141176104546,0.9080387949943542,0.0,-0.004885545000433922,0.7839749455451965,0.0,-0.028723474591970444
933.0,873.0,2.0201,-0.3278,9.1508,-0.0385,0.0286,-0.1226,-1.6928259334959925,0.0,2.5450665950775146,-1.8542094230651855,-0.0,2.0598387718200684,4.835256355791845,0.0,0.3002355694770813,-1.5829780737506312,0.0,-0.006609294563531876,0.9079951047897339,0.0,-0.0140065373852849,0.7839667201042175,0.0,-0.0008204039186239243
933.0,873.0,2.0201,-0.3278,9.1508,-0.0385,0.0286,-0.1226,-1.6927577457823695,0.0,2.5749950408935547,-1.8542134761810303,-0.0,2.0869250297546387,4.83528051057414,0.0,0.30440667271614075,-1.5830419699298304,0.0,-0.015701809898018837,0.9080308675765991,0.0,0.0024661459028720856,0.7839629054069519,0.0,-0.0031432469841092825
933.0,873.0,2.0201,-0.3278,9.1508,-0.0385,0.0286,-0.1226,-1.692793985406393,0.0,2.5714328289031982,-1.8542454242706299,-0.0,2.0439271926879883,4.835328112333574,0.0,0.3066621720790863,-1.5830419699298304,0.0,-0.00026513682678341866,0.9080190658569336,0.0,-0.006917117163538933,0.7839910984039307,0.0,0.05997982248663902
933.0,873.0,2.0201,-0.3278,9.1508,-0.0385,0.0286,-0.1226,-1.6927978001036585,0.0,2.6293349266052246,-1.8542498350143433,-0.0,2.0214595794677734,4.835292431503095,0.0,0.29429230093955994,-1.583050552998678,0.0,0.0026051695458590984,0.9080071449279785,0.0,-0.00035442481748759747,0.7839428186416626,0.0,-0.006330560892820358
933.0,873.0,2.0201,-0.3278,9.1508,-0.0385,0.0286,-0.1226,-1.6927978001036585,0.0,2.581515312194824,-1.8542135953903198,-0.0,2.033196210861206,4.835300366371431,0.0,0.28934139013290405,-1.583005730305807,0.0,-0.002659497084096074,0.9079707264900208,0.0,-0.0037704312708228827,0.7839307188987732,0.0,-0.020608503371477127
933.0,873.0,2.0201,-0.3278,9.1508,-0.0385,0.0286,-0.1226,-1.6927696667113246,0.0,2.568666458129883,-1.854193925857544,-0.0,2.0466628074645996,4.8352646482880495,0.0,0.2999267280101776,-1.5830462614642542,0.0,-0.01748996414244175,0.9079548120498657,0.0,0.0016161770327016711,0.7839505672454834,0.0,-0.04291648417711258
910.0,879.0,1.9825,-0.3224,9.2435,-0.0357,0.0252,-0.1118,-1.6927458248534144,0.0,2.597059488296509,-1.854253888130188,-0.0,2.047827959060669,4.835272620409288,0.0,0.28467369079589844,-1.5830023924456995,0.0,-0.008964110165834427,0.907986581325531,0.0,-0.0010198773816227913,0.7839708924293518,0.0,0.01512158289551735
910.0,879.0,1.9825,-0.3224,9.2435,-0.0357,0.0252,-0.1118,-1.6927415333189906,0.0,2.5890514850616455,-1.854217767715454,-0.0,2.0501978397369385,4.835276539414682,0.0,0.28916728496551514,-1.5830100218402308,0.0,-0.004847726318985224,0.9079787135124207,0.0,-0.008440743200480938,0.7838943004608154,0.0,0.06641044467687607
910.0,879.0,1.9825,-0.3224,9.2435,-0.0357,0.0252,-0.1118,-1.692777772943014,0.0,2.5560903549194336,-1.8542134761810303,-0.0,2.0334243774414062,4.835228647082605,0.0,0.3025926351547241,-1.5830262343036097,0.0,-0.004412410780787468,0.9080030918121338,0.0,0.0022769132629036903,0.7839546799659729,0.0,0.049723610281944275
910.0,879.0,1.9825,-0.3224,9.2435,-0.0357,0.0252,-0.1118,-1.692805906335348,0.0,2.5569005012512207,-1.8542134761810303,-0.0,2.030923366546631,4.835288408189573,0.0,0.288357138633728,-1.583078686391012,0.0,-0.010460952296853065,0.9079946279525757,0.0,0.0022474280558526516,0.7839546799659729,0.0,-0.009450983256101608
910.0,879.0,1.9825,-0.3224,9.2435,-0.0357,0.0252,-0.1118,-1.692834039727682,0.0,2.5993950366973877,-1.8542290925979614,-0.0,2.061457633972168,4.8353440193231485,0.0,0.30325043201446533,-1.5830262343036097,0.0,-0.008051950484514236,0.9079629182815552,0.0,0.010303979739546776,0.783970832824707,0.0,0.0033802923280745745
910.0,879.0,1.9825,-0.3224,9.2435,-0.0357,0.0252,-0.1118,-1.6927978001036585,9.971272163511458e-08,2.5586485862731934,-1.854262113571167,-0.0,2.0347769260406494,4.835296380310812,0.0,0.30262041091918945,-1.5829938093768519,0.0,-0.0022142110392451286,0.9079906940460205,0.0,-0.009737287648022175,0.7839266061782837,0.0,-0.0007144997362047434
910.0,879.0,1.9825,-0.3224,9.2435,-0.0357,0.0252,-0.1118,-1.692777772943014,3.230565026103062e-15,2.5865225791931152,-1.854217767715454,-0.0,1.9894046783447266,4.8352765692170045,0.0,0.2886212468147278,-1.583017651234762,0.0,-0.008049973286688328,0.9080507159233093,0.0,-0.012296291068196297,0.783970832824707,0.0,-0.019625600427389145
910.0,879.0,1.9825,-0.3224,9.2435,-0.0357,0.0252,-0.1118,-1.6927458248534144,-0.0001063389572664164,2.5920863151550293,-1.8541898727416992,-0.0,2.0467867851257324,4.835304285376825,0.0,0.29110029339790344,-1.5829857031451624,0.0,-0.013601642102003098,0.9080030918121338,0.0,-0.004389745183289051,0.7839669585227966,0.0,0.03506637364625931
910.0,879.0,1.9825,-0.3224,9.2435,-0.0357,0.0252,-0.1118,-1.6927858791747035,-7.219950202852488e-05,2.5716774463653564,-1.8542053699493408,-0.0,2.0271100997924805,4.835312250047483,0.0,0.30041173100471497,-1.5830262343036097,0.0,-0.004571118857711554,0.9079549312591553,0.0,-0.0015399344265460968,0.7839787602424622,0.0,0.02140127681195736
910.0,879.0,1.9825,-0.3224,9.2435,-0.0357,0.0252,-0.1118,-1.6927901707091273,-5.465702633955516e-05,2.56040620803833,-1.8542062044143677,-0.0,2.030215263366699,4.835284459381857,0.0,0.29650431871414185,-1.5830100218402308,0.0,-0.018554793670773506,0.9079748392105103,0.0,-0.007778674364089966,0.7839505076408386,0.0,-0.048394255340099335
910.0,879.0,1.9825,-0.3224,9.2435,-0.0357,0.0252,-0.1118,-1.692777772943014,-4.192498090560548e-05,2.5433602333068848,-1.8542579412460327,-0.0,2.10561466217041,4.835312250047483,0.0,0.29505330324172974,-1.583005730305807,0.0,0.004728903993964195,0.9079991579055786,0.0,0.007090402767062187,0.783950924873352,0.0,-0.012639052234590054
924.0,901.0,1.9914,-0.3188,9.2746,-0.0345,0.0231,-0.1121,-1.692777772943014,-3.53395844285842e-05,2.5863699913024902,-1.8541650772094727,-0.0,2.036236047744751,4.835308293789186,0.0,0.296133816242218,-1.583017651234762,0.0,-0.009175272658467293,0.9079668521881104,0.0,-0.007545776665210724,0.7839468717575073,0.0,0.015064992941915989
924.0,901.0,1.9914,-0.3188,9.2746,-0.0345,0.0231,-0.1121,-1.692737718621725,-3.054229819099419e-05,2.5768914222717285,-1.8541970252990723,-0.0,2.0433688163757324,4.8352523920829675,0.0,0.2933557629585266,-1.5830181280719202,0.0,-0.0017175558023154736,0.9080150127410889,0.0,0.009788843803107738,0.783962607383728,0.0,-0.02506237104535103
924.0,901.0,1.9914,-0.3188,9.2746,-0.0345,0.0231,-0.1121,-1.6928264103331507,-2.6891812012763694e-05,2.6130008697509766,-1.8542218208312988,-0.0,2.057102680206299,4.835248465626993,0.0,0.29741165041923523,-1.5830543676959437,0.0,-0.0033843042328953743,0.9080435037612915,0.0,-0.0035870978608727455,0.7839869856834412,0.0,0.020311264321208
924.0,901.0,1.9914,-0.3188,9.2746,-0.0345,0.0231,-0.1121,-1.6927815876402796,-2.4020811906666495e-05,2.5509912967681885,-1.854278564453125,-0.0,2.0412325859069824,4.83528051057414,0.0,0.29056668281555176,-1.583033863698141,0.0,-0.021695658564567566,0.9080309867858887,0.0,-0.0006798940594308078,0.7839468717575073,0.0,0.019510166719555855
924.0,901.0,1.9914,-0.3188,9.2746,-0.0345,0.0231,-0.1121,-1.6927577457823695,-2.1703728634747677e-05,2.5467827320098877,-1.8542218208312988,-0.0,2.0870611667633057,4.835284459381857,0.0,0.28755444288253784,-1.5829899946795862,0.0,-0.005720875691622496,0.9080031514167786,0.0,-0.010620416142046452,0.7839787602424622,0.0,0.006145187187939882
924.0,901.0,1.9914,-0.3188,9.2746,-0.0345,0.0231,-0.1121,-1.6927734814085902,-1.9794362742686644e-05,2.5307412147521973,-1.8542373180389404,-0.0,2.0174617767333984,4.835272598057546,0.0,0.29572102427482605,-1.5830023924456995,0.0,0.0020031360909342766,0.9080073833465576,0.0,0.0045174648985266685,0.7839628458023071,0.0,0.004313588608056307
924.0,901.0,1.9914,-0.3188,9.2746,-0.0345,0.0231,-0.1121,-1.6927458248534144,-1.7833268429967575e-05,2.524592876434326,-1.8542373180389404,-0.0,2.0459256172180176,4.835272583156385,0.0,0.29506534337997437,-1.5829861799823206,0.0,-0.0012986534275114536,0.9079864621162415,0.0,-0.0009186634561046958,0.7839509844779968,0.0,0.004665093496441841
924.0,901.0,1.9914,-0.3188,9.2746,-0.0345,0.0231,-0.1121,-1.6927734814085902,-1.652362334425561e-05,2.613538980484009,-1.8542299270629883,-0.0,2.0252532958984375,4.835300314217367,0.0,0.2919783294200897,-1.583005730305807,0.0,0.0012459598947316408,0.9080030918121338,0.0,-0.005168450064957142,0.7839464545249939,0.0,8.832663297653198e-06
924.0,901.0,1.9914,-0.3188,9.2746,-0.0345,0.0231,-0.1121,-1.692777772943014,-1.5393190551549196e-05,2.512261390686035,-1.8542499542236328,-0.0,2.068098306655884,4.835284466832437,0.0,0.2905580997467041,-1.5830219427691858,0.0,-0.008771296590566635,0.9080191254615784,0.0,-0.004011256154626608,0.7839546799659729,0.0,-0.025747409090399742
924.0,901.0,1.9914,-0.3188,9.2746,-0.0345,0.0231,-0.1121,-1.6928140125670375,-1.440752839698689e-05,2.552638292312622,-1.8542454242706299,-0.0,2.0519297122955322,4.835308286338606,0.0,0.28948336839675903,-1.5829981009112757,0.0,-0.005160802975296974,0.9080274105072021,0.0,-0.004192336928099394,0.7839307188987732,0.0,0.012057920917868614
924.0,901.0,1.9914,-0.3188,9.2746,-0.0345,0.0231,-0.1121,-1.6928097210326136,-1.3540491636376828e-05,2.6187849044799805,-1.8542094230651855,-0.0,2.0564420223236084,4.835292431503095,0.0,0.2992378771305084,-1.5829780737506312,0.0,-0.0061159743927419186,0.9079826474189758,0.0,-0.008493684232234955,0.7839592099189758,0.0,0.008024570532143116
935.0,881.0,2.016,-0.3123,9.2046,-0.0338,0.0273,-0.1217,-1.692765852014059,-1.2771893125318456e-05,2.5540049076080322,-1.854169249534607,-0.0,2.0848278999328613,4.835240575462141,0.0,0.30006909370422363,-1.5829981009112757,0.0,-0.002092061098664999,0.908035159111023,0.0,0.01924922689795494,0.7839348316192627,0.0,0.003541886806488037
935.0,881.0,2.016,-0.3123,9.2046,-0.0338,0.0273,-0.1217,-1.692777772943014,-1.2085860362276435e-05,2.5311355590820312,-1.854233980178833,-0.0,2.0435643196105957,4.835296350508489,0.0,0.3030478358268738,-1.5830300490008753,0.0,0.0009750083554536104,0.9079782366752625,0.0,0.003785804845392704,0.7839065194129944,0.0,0.007819321937859058
935.0,881.0,2.016,-0.3123,9.2046,-0.0338,0.0273,-0.1217,-1.6927577457823695,-1.1325444575049914e-05,2.5560572147369385,-1.8541858196258545,-0.0,2.0398926734924316,4.835312272399225,0.0,0.3037993311882019,-1.5830100218402308,0.0,-0.00167380110360682,0.9079864621162415,0.0,0.0011143535375595093,0.783970832824707,0.0,-0.021741138771176338
935.0,881.0,2.016,-0.3123,9.2046,-0.0338,0.0273,-0.1217,-1.6927420101561488,-1.0782706340251025e-05,2.5748586654663086,-1.854202151298523,-0.0,2.009023904800415,4.835272627859869,0.0,0.2995931804180145,-1.5829938093768519,0.0,-0.01351341512054205,0.9080310463905334,0.0,-0.004318031016737223,0.7839869856834412,0.0,0.021235374733805656
935.0,881.0,2.016,-0.3123,9.2046,-0.0338,0.0273,-0.1217,-1.692793985406393,-1.0289605597790796e-05,2.514539957046509,-1.8541897535324097,-0.0,2.045736312866211,4.835284459381857,0.0,0.29346728324890137,-1.5830262343036097,0.0,-0.004096771590411663,0.90799480676651,0.0,-0.0021256054751574993,0.7839587926864624,0.0,0.021264350041747093
935.0,881.0,2.016,-0.3123,9.2046,-0.0338,0.0273,-0.1217,-1.6927415333189906,-3.910790553618426e-07,2.5507559776306152,-1.8542454242706299,-0.0,2.021688461303711,4.8353003216679475,0.0,0.3032006621360779,-1.5829899946795862,0.0,-0.003795367432758212,0.9080031514167786,0.0,-0.006739148870110512,0.7839789986610413,0.0,-0.010814652778208256
935.0,881.0,2.016,-0.3123,9.2046,-0.0338,0.0273,-0.1217,-1.6928016148009242,-1.2670461773149014e-14,2.5556252002716064,-1.8542290925979614,-0.0,2.089409351348877,4.8353043524320505,0.0,0.2944457232952118,-1.5830300490008753,0.0,0.0046571362763643265,0.9080073237419128,0.0,-0.008443977683782578,0.7839509844779968,0.0,0.016849976032972336
935.0,881.0,2.016,-0.3123,9.2046,-0.0338,0.0273,-0.1217,-1.6927734814085902,-4.1050688250083285e-22,2.59468412399292,-1.8541898727416992,-0.0,2.0451712608337402,4.835296380310812,0.0,0.28182104229927063,-1.5829861799823206,0.0,-0.012343117967247963,0.9080114364624023,0.0,-0.006553639192134142,0.783930778503418,0.0,0.03830388933420181
935.0,881.0,2.016,-0.3123,9.2046,-0.0338,0.0273,-0.1217,-1.6927978001036585,-1.329990043548601e-29,2.569805860519409,-1.8541898727416992,-0.0,2.067392587661743,4.835280518024721,0.0,0.28856271505355835,-1.5830143133746546,0.0,-0.013617360964417458,0.9079742431640625,0.0,-0.0070845927111804485,0.7839748859405518,0.0,0.012361719273030758
935.0,881.0,2.016,-0.3123,9.2046,-0.0338,0.0273,-0.1217,-1.6927458248534144,-5.7810722288551404e-39,2.530280351638794,-1.8542827367782593,-0.0,2.074845314025879,4.835284451931276,0.0,0.28724244236946106,-1.5830300490008753,0.0,-0.00891442596912384,0.9080073237419128,0.0,0.002156645292416215,0.7839307188987732,0.0,-0.017381934449076653
936.0,907.0,1.9412,-0.3386,9.2877,-0.0365,0.029,-0.1231,-1.692817827264303,-0.0,2.573073387145996,-1.8542258739471436,-0.0,2.0219907760620117,4.835304270475664,0.0,0.30119967460632324,-1.583005730305807,0.0,-0.014011804945766926,0.9080030918121338,0.0,-0.0017164302989840508,0.7839951515197754,0.0,2.778228372335434e-05
936.0,907.0,1.9412,-0.3386,9.2877,-0.0365,0.029,-0.1231,-1.6928216419615687,0.0,2.591549873352051,-1.8541929721832275,-0.0,2.0598034858703613,4.835272553354063,0.0,0.29729852080345154,-1.5829780737506312,0.0,0.0019778308924287558,0.907982349395752,0.0,-0.012550940737128258,0.7839749455451965,0.0,0.018644515424966812
936.0,907.0,1.9412,-0.3386,9.2877,-0.0365,0.029,-0.1231,-1.6928020916380824,0.0,2.6300852298736572,-1.8542094230651855,-0.0,2.044464111328125,4.835308301239767,0.0,0.301032692193985,-1.5830019156085413,0.0,-0.008868150413036346,0.9080233573913574,0.0,-0.011556961573660374,0.783970832824707,0.0,-0.023363202810287476
936.0,907.0,1.9412,-0.3386,9.2877,-0.0365,0.029,-0.1231,-1.692761560479635,0.0,2.550844669342041,-1.854225993156433,-0.0,2.0858817100524902,4.835248487978735,0.0,0.29562515020370483,-1.583005730305807,0.0,-0.012433299794793129,0.9079989790916443,0.0,-0.014350555837154388,0.7839666604995728,0.0,0.019647827371954918
936.0,907.0,1.9412,-0.3386,9.2877,-0.0365,0.029,-0.1231,-1.6927696667113246,0.0,2.5807785987854004,-1.8542745113372803,-0.0,2.010484218597412,4.83528050312356,0.0,0.2890961766242981,-1.5829981009112757,0.0,-0.007249043323099613,0.9079906940460205,0.0,0.003800363512709737,0.7839345335960388,0.0,-0.007148969918489456
936.0,907.0,1.9412,-0.3386,9.2877,-0.0365,0.029,-0.1231,-1.692789693871969,0.0,2.5988056659698486,-1.8542340993881226,-0.0,2.0449767112731934,4.835288415640154,0.0,0.3033522963523865,-1.5830381552325647,0.0,0.0020190351642668247,0.9080068469047546,0.0,-0.0011099863331764936,0.7839428782463074,0.0,-0.0012500396696850657
936.0,907.0,1.9412,-0.3386,9.2877,-0.0365,0.029,-0.1231,-1.6927734814085902,0.0,2.5410993099212646,-1.8542413711547852,-0.0,2.0253565311431885,4.835264670639791,0.0,0.3018086552619934,-1.5830300490008753,0.0,-0.011704509146511555,0.9080434441566467,0.0,0.0016002906486392021,0.7839505672454834,2.0521083499147608e-08,-0.03796226531267166
936.0,907.0,1.9412,-0.3386,9.2877,-0.0365,0.029,-0.1231,-1.6927901707091273,0.0,2.539426803588867,-1.854209542274475,-0.0,2.0177865028381348,4.835272650211611,0.0,0.29451268911361694,-1.583033863698141,0.0,-0.004832638893276453,0.9079947471618652,0.0,-0.008425891399383545,0.7839667201042175,6.648571243653449e-16,0.009701293893158436
936.0,907.0,1.9412,-0.3386,9.2877,-0.0365,0.029,-0.1231,-1.6928020916380824,0.0,2.545841693878174,-1.854193925857544,-0.0,2.009115695953369,4.835252436786451,0.0,0.30073460936546326,-1.5830219427691858,0.0,-0.006082689855247736,0.9079704284667969,0.0,-0.010096579790115356,0.7839828729629517,2.1540523859716407e-23,-0.06020914018154144
936.0,907.0,1.9412,-0.3386,9.2877,-0.0365,0.029,-0.1231,-1.692761560479635,0.0,2.5487523078918457,-1.8541773557662964,-0.0,2.0457518100738525,4.835284474283018,0.0,0.2922828495502472,-1.5830419699298304,0.0,-0.0037323669530451298,0.9080233573913574,0.0,-0.00838417187333107,0.7839422225952148,0.00034790392965078354,0.05321851372718811
936.0,907.0,1.9412,-0.3386,9.2877,-0.0365,0.029,-0.1231,-1.692777772943014,0.0,2.5364952087402344,-1.8542134761810303,-0.0,2.0304489135742188,4.835288415640154,0.0,0.2830740511417389,-1.5829780737506312,0.0,-0.009149879217147827,0.9080155491828918,0.0,-0.004438715521246195,0.7840229868888855,0.0003717984654940665,0.021924592554569244
908.0,897.0,1.9837,-0.3733,9.3589,-0.0431,0.0122,-0.1043,-1.6927577457823695,0.0,2.5925188064575195,-1.8542176485061646,-0.0,2.032466411590576,4.835244479566374,0.0,0.30194371938705444,-1.5829899946795862,0.0,0.0012331141624599695,0.9079906940460205,0.0,0.0017461340175941586,0.7839866876602173,0.00043222130625508726,-0.018044110387563705
908.0,897.0,1.9837,-0.3733,9.3589,-0.0431,0.0122,-0.1043,-1.6927458248534144,0.0,2.58707857131958,-1.8542495965957642,-0.0,2.0403714179992676,4.835288415640154,0.0,0.29095280170440674,-1.5830419699298304,0.0,-0.017978200688958168,0.9080030918121338,0.0,-0.0029750983230769634,0.7839866876602173,0.0003551941190380603,0.03546435385942459
908.0,897.0,1.9837,-0.3733,9.3589,-0.0431,0.0122,-0.1043,-1.6927820644774378,0.0,2.5369985103607178,-1.8541816473007202,-0.0,2.032034158706665,4.8352646855409525,0.0,0.29055121541023254,-1.5829899946795862,0.0,-0.03093746118247509,0.9080269932746887,0.0,-0.0011775769526138902,0.7840070128440857,0.0002827454300131649,0.008675312623381615
908.0,897.0,1.9837,-0.3733,9.3589,-0.0431,0.0122,-0.1043,-1.69274963955068,0.0,2.557413339614868,-1.8541898727416992,-0.0,2.042327880859375,4.835296380310812,0.0,0.2862536311149597,-1.583062473927633,0.0,-0.009018147364258766,0.9079704284667969,0.0,7.746508345007896e-05,0.7840110659599304,0.00023377790057566017,-0.06213214993476868
908.0,897.0,1.9837,-0.3733,9.3589,-0.0431,0.0122,-0.1043,-1.6928020916380824,0.0,2.5775461196899414,-1.854225754737854,-0.0,2.029024362564087,4.835276576667585,0.0,0.2896609902381897,-1.5829857031451624,0.0,-0.01766509748995304,0.908039391040802,0.0,-0.020080264657735825,0.7839828729629517,0.0001660575217101723,-0.015118515118956566
908.0,897.0,1.9837,-0.3733,9.3589,-0.0431,0.0122,-0.1043,-1.6928097210326136,0.0,2.5653939247131348,-1.854217767715454,-0.0,2.0684986114501953,4.835268589645185,0.0,0.29777517914772034,-1.5830262343036097,0.0,0.010871371254324913,0.9080030918121338,0.0,-0.013412103056907654,0.7839505672454834,0.00014469849702436477,-0.018075842410326004
908.0,897.0,1.9837,-0.3733,9.3589,-0.0431,0.0122,-0.1043,-1.6927734814085902,0.0,2.5285801887512207,-1.8542332649230957,2.7728066243071225e-07,2.0548038482666016,4.8351968107517145,0.0,0.2937096953392029,-1.582961384450094,0.0,-0.013821670785546303,0.907934308052063,0.0,-0.012877057306468487,0.7839749455451965,0.00010260795534122735,0.0032631102949380875
908.0,897.0,1.9837,-0.3733,9.3589,-0.0431,0.0122,-0.1043,-1.692777772943014,0.0,2.617295503616333,-1.8542053699493408,8.983542500119648e-15,2.0515503883361816,4.835244509368696,0.0,0.2976536154747009,-1.5830143133746546,0.0,-0.018592890352010727,0.9080030918121338,0.0,0.0010577486827969551,0.7839505076408386,9.207340917782858e-05,-0.005829846486449242
908.0,897.0,1.9837,-0.3733,9.3589,-0.0431,0.0122,-0.1043,-1.6927334270873011,0.0,2.5305237770080566,-1.8542218208312988,3.904879230214376e-24,2.0292065143585205,4.8352524665887735,0.0,0.29017511010169983,-1.5830100218402308,0.0,-0.009796268306672573,0.907966136932373,0.0,-0.003450087271630764,0.7839667201042175,8.16339670564048e-05,0.0472959540784359
908.0,897.0,1.9837,-0.3733,9.3589,-0.0431,0.0122,-0.1043,-1.692793985406393,0.0,2.6094400882720947,-1.8542258739471436,1.2651310847970656e-31,2.051194429397583,4.835272583156385,0.0,0.29995036125183105,-1.5830219427691858,0.0,-0.006991893984377384,0.9079864621162415,0.0,-0.012923536822199821,0.7839749455451965,7.484521484002471e-05,-0.00503550423309207
908.0,897.0,1.9837,-0.3733,9.3589,-0.0431,0.0122,-0.1043,-1.6928020916380824,0.0,2.5580081939697266,-1.854217767715454,-5.245918873697519e-05,2.0623350143432617,4.835320207267561,0.0,0.2931395173072815,-1.5829857031451624,0.0,-0.004988504573702812,0.908026933670044,0.0,0.003859901800751686,0.783970832824707,6.909886724315584e-05,0.019630132243037224
922.0,902.0,2.0812,-0.2835,8.866,-0.0258,0.0345,-0.1141,-1.6927257976927699,0.0,2.540623664855957,-1.8542454242706299,-4.254700252204202e-05,2.0568454265594482,4.835268701403894,0.0,0.2892823815345764,-1.5830262343036097,0.0,-0.014689807780086994,0.9079990386962891,0.0,0.007800969760864973,0.7839911580085754,6.417201802833006e-05,0.006326878443360329
922.0,902.0,2.0812,-0.2835,8.866,-0.0258,0.0345,-0.1141,-1.692777772943014,0.0010886898962780833,2.583646535873413,-1.8542373180389404,-5.912886180681198e-08,2.0569472312927246,4.8353440193231485,0.0,0.2991434931755066,-1.5830419699298304,0.0,-0.006007755640894175,0.9079462289810181,0.0,-0.0012078194413334131,0.783970832824707,5.990099089103751e-05,-0.007481984328478575
922.0,902.0,2.0812,-0.2835,8.866,-0.0258,0.0345,-0.1141,-1.6927620373167933,0.001484340988099575,2.5584096908569336,-1.854169249534607,-1.91569926493774e-15,2.089510440826416,4.835244472115793,0.0,0.2958243489265442,-1.5830381552325647,0.0,-0.006201642099767923,0.9079864621162415,0.0,-0.00830308347940445,0.783970832824707,1.6548983694519848e-05,-0.01691524125635624
922.0,902.0,2.0812,-0.2835,8.866,-0.0258,0.0345,-0.1141,-1.6927339039244593,0.0008176626870408654,2.5583014488220215,-1.8541814088821411,-6.206622549291947e-23,2.012458562850952,4.835308375745573,0.0,0.2856786847114563,-1.5830219427691858,0.0,-0.0033056677784770727,0.9080233573913574,0.0,-0.005846514366567135,0.7840031385421753,1.5415156667586416e-05,-0.005896804854273796
922.0,902.0,2.0812,-0.2835,8.866,-0.0258,0.0345,-0.1141,-1.6927815876402796,0.00038767451769672334,2.6012372970581055,-1.8543065786361694,-2.697834179028427e-32,2.0445189476013184,4.835264625936308,0.0,0.30346786975860596,-1.5830743948565882,0.0,-0.008690647780895233,0.9079828262329102,0.0,0.00772386509925127,0.7839705348014832,2.674058123375289e-05,-0.01927049644291401
922.0,902.0,2.0812,-0.2835,8.866,-0.0258,0.0345,-0.1141,-1.6927172146239222,0.0002306403184775263,2.5922365188598633,-1.854201316833496,-8.740641210179976e-40,2.053098678588867,4.835256370693006,0.0,0.2965606451034546,-1.5830419699298304,0.0,0.003059390000998974,0.9079868793487549,0.0,-0.0074233245104551315,0.7839949131011963,2.6712616090662777e-05,-0.02869591861963272
922.0,902.0,2.0812,-0.2835,8.866,-0.0258,0.0345,-0.1141,-1.6927815876402796,5.4665360949002206e-05,2.558340072631836,-1.854270339012146,-0.0,1.9779393672943115,4.835296395211973,0.0,0.3023546040058136,-1.5830586592303675,0.0,-0.01071995124220848,0.9080274701118469,0.0,0.0038158544339239597,0.7839787602424622,3.7652109313057736e-05,-0.005507864058017731
922.0,902.0,2.0812,-0.2835,8.866,-0.0258,0.0345,-0.1141,-1.6927172146239222,4.276741310604848e-05,2.587148427963257,-1.854245662689209,-0.0,2.050830841064453,4.835340003460207,0.0,0.2936388850212097,-1.5830381552325647,0.0,-0.01081773079931736,0.9080150127410889,0.0,-0.00292877946048975,0.7840552926063538,0.00020779043552465737,-0.019592955708503723
922.0,902.0,2.0812,-0.2835,8.866,-0.0258,0.0345,-0.1141,-1.6927296123900355,3.593624569475651e-05,2.539520025253296,-1.8542135953903198,-0.0,2.024294853210449,4.835304330080309,0.0,0.2812812030315399,-1.583050552998678,0.0,-0.0026036386843770742,0.9079704284667969,0.0,-0.01020326092839241,0.7839987874031067,0.0014365052338689566,0.03337782621383667
922.0,902.0,2.0812,-0.2835,8.866,-0.0258,0.0345,-0.1141,-1.6927019558348597,3.098691740888171e-05,2.5817089080810547,-1.8542413711547852,-0.0,2.0532538890838623,4.835308293789186,0.0,0.3029577136039734,-1.5830095450030726,0.0,-0.008705571293830872,0.9080027341842651,0.0,0.00909777358174324,0.7840991020202637,0.0031997980549931526,0.03904779255390167
922.0,902.0,2.0812,-0.2835,8.866,-0.0258,0.0345,-0.1141,-1.6927815876402796,3.2031641694629798e-06,2.554036855697632,-1.8541933298110962,-0.0,2.0364441871643066,4.835264678090372,0.0,0.3015595078468323,-1.5830381552325647,0.0,-0.004449506290256977,0.907927393913269,1.7811963015645915e-09,-0.009893234819173813,0.7840388417243958,0.005507093854248524,0.009904102422297001
913.0,889.0,2.461,-0.1693,9.0371,-0.0389,0.018,-0.1219,-1.6927734814085902,1.3923203596863864e-15,2.593226194381714,-1.8542094230651855,-0.0,2.1005401611328125,4.83525242188529,0.0,0.2882877290248871,-1.5830419699298304,0.0,-0.020130792632699013,0.9079504013061523,2.113683898996013e-15,-0.011300249956548214,0.7841269969940186,0.005548697430640459,0.023206545040011406
913.0,889.0,2.461,-0.1693,9.0371,-0.0389,0.018,-0.1219,-1.692765852014059,4.510941105514777e-23,2.541249990463257,-1.8542258739471436,-0.0,2.053713083267212,4.835232551186838,0.0,0.2891518771648407,-1.5830019156085413,0.0,-0.009303134866058826,0.908003032207489,3.8415156219886246e-20,-0.008802679367363453,0.7841671109199524,0.003389154328033328,0.010635356418788433
913.0,889.0,2.461,-0.1693,9.0371,-0.0389,0.018,-0.1219,-1.6927458248534144,1.4614878945976871e-30,2.561631679534912,-1.8541979789733887,-0.0,2.0562050342559814,4.835276576667585,0.0,0.3017353415489197,-1.5830138365374964,0.0,-0.0055549126118421555,0.908026933670044,6.981763151775857e-25,0.006511402316391468,0.7841832637786865,0.0018406088929623365,0.009355002082884312
913.0,889.0,2.461,-0.1693,9.0371,-0.0389,0.018,-0.1219,-1.6927858791747035,4.735034594581958e-38,2.5558624267578125,-1.8541815280914307,-0.0,1.9932861328125,4.835288423090734,0.0,0.2857293486595154,-1.583005730305807,0.0,-0.01704104244709015,0.908051073551178,1.26890089988213e-29,-0.0005149550270289183,0.7841470241546631,0.0010407648514956236,0.031121190637350082
913.0,889.0,2.461,-0.1693,9.0371,-0.0389,0.018,-0.1219,-1.692777772943014,1.401298464324817e-45,2.5995004177093506,-1.8542218208312988,-0.0,2.0328588485717773,4.835260379105367,0.0,0.28920304775238037,-1.583033863698141,0.0,-0.009774777106940746,0.9080830812454224,2.3061644847360807e-34,-0.005901337135583162,0.7841067910194397,0.0005768888513557613,-0.04011298343539238
913.0,889.0,2.461,-0.1693,9.0371,-0.0389,0.018,-0.1219,-1.692765852014059,0.0,2.5564820766448975,-1.8542299270629883,-0.0,2.029139995574951,4.835268597095766,0.0,0.27567058801651,-1.5830219427691858,0.0,-0.004225936718285084,0.9079743027687073,4.191339758734101e-39,0.013381815515458584,0.784122884273529,0.0004238903056830168,0.008162936195731163
913.0,889.0,2.461,-0.1693,9.0371,-0.0389,0.018,-0.1219,-1.692817827264303,0.0,2.557558059692383,-1.8542258739471436,-0.0,2.083897829055786,4.835284474283018,0.0,0.2836419343948364,-1.5830143133746546,0.0,-0.009447638876736164,0.9079864621162415,7.567011707354012e-44,-0.004375721327960491,0.7840785384178162,5.3380837925942615e-05,0.025113672018051147
913.0,889.0,2.461,-0.1693,9.0371,-0.0389,0.018,-0.1219,-1.6927734814085902,0.0,2.5802128314971924,-1.8541898727416992,-0.0,1.9789721965789795,4.835276539414682,0.0,0.29673388600349426,-1.583050552998678,0.0,-0.013316391967236996,0.9079906940460205,0.0,-0.006637644954025745,0.7841429710388184,3.923307859143854e-11,-0.006535421125590801
913.0,889.0,2.461,-0.1693,9.0371,-0.0389,0.018,-0.1219,-1.6927653751769007,-5.398725625127554e-05,2.5503697395324707,-1.8541815280914307,-0.0,2.0209741592407227,4.8352844444806955,0.0,0.31187066435813904,-1.583005730305807,0.0,-0.007834972813725471,0.9080109596252441,0.0,0.007183945272117853,0.784187376499176,1.2711017707354828e-18,-0.0333402045071125
913.0,889.0,2.461,-0.1693,9.0371,-0.0389,0.018,-0.1219,-1.6927973232665003,-0.00019965202955063432,2.560896873474121,-1.8542454242706299,-0.0,2.0251076221466064,4.83528050312356,0.0,0.2879611849784851,-1.5829938093768519,0.0,-0.003929564729332924,0.9080109596252441,0.0,0.0008819237118586898,0.7841914892196655,4.118207988214658e-26,0.023573584854602814
913.0,889.0,2.461,-0.1693,9.0371,-0.0389,0.018,-0.1219,-1.6928335628905238,-0.0014534995425492525,2.59689998626709,-1.854169249534607,-0.0,2.0533645153045654,4.8352844817335985,-2.7754524126066826e-05,0.29000067710876465,-1.5830219427691858,0.0,-0.003298128955066204,0.9079700708389282,0.0,0.003025691956281662,0.7841470241546631,1.3342470669527452e-33,-0.010435709729790688
934.0,891.0,1.6481,-0.6778,9.5246,-0.0299,0.026,-0.1374,-1.6928616962828578,-0.0024765946436673403,2.6106061935424805,-1.8542454242706299,-0.0,2.0703444480895996,4.835332120745935,-2.6142424758290872e-05,0.2972334921360016,-1.5829780737506312,0.0,-0.007363810669630766,0.9079906940460205,0.0,-0.002803536131978035,0.7842235565185547,0.0014125957386568189,-0.0062990691512823105
934.0,891.0,1.6481,-0.6778,9.5246,-0.0299,0.026,-0.1374,-1.6929217777647914,-0.0029783030040562153,2.5716543197631836,-1.854201316833496,-0.0,2.108161211013794,4.835304374783792,-1.2768384294759016e-05,0.29800277948379517,-1.5829938093768519,0.0,-0.004457724746316671,0.9079543948173523,0.0,0.008825918659567833,0.7842355370521545,0.003731528529897332,0.04336734861135483
934.0,891.0,1.6481,-0.6778,9.5246,-0.0299,0.026,-0.1374,-1.6929298839964808,-0.0017719549359753728,2.581071376800537,-1.8542300462722778,0.0008474976639263332,2.0492148399353027,4.83531233200387,-2.6004858710848566e-08,0.28584569692611694,-1.5829861799823206,0.0,-0.0042752455919981,0.908051609992981,0.0,0.007321259006857872,0.784210741519928,0.006307133939117193,0.0258940439671278
934.0,891.0,1.6481,-0.6778,9.5246,-0.0299,0.026,-0.1374,-1.6929298839964808,-0.0002633385010994971,2.576967716217041,-1.85416579246521,0.0022458257153630257,2.0503334999084473,4.835328112333574,-3.08590636767872e-14,0.30128663778305054,-1.5829938093768519,0.0,-0.003029804676771164,0.9080030918121338,0.0,-0.012407850474119186,0.7843148708343506,0.007685820106416941,0.015305678360164165
934.0,891.0,1.6481,-0.6778,9.5246,-0.0299,0.026,-0.1374,-1.6929341755309046,-0.000166079742484726,2.556898593902588,-1.8541254997253418,0.003922824747860432,2.025961399078369,4.835284541338243,-5.60848307645654e-19,0.29524484276771545,-1.5830343405352991,0.0,0.0003835526295006275,0.90799480676651,0.0,-0.0010505560785531998,0.7844317555427551,0.007342910394072533,-0.0026074727065861225
934.0,891.0,1.6481,-0.6778,9.5246,-0.0299,0.026,-0.1374,-1.6929336986937464,-0.0002353221643716097,2.5672481060028076,-1.8540819883346558,0.005674037616699934,2.0710344314575195,4.835312257498064,-1.0193140757929374e-23,0.2979029417037964,-1.58299428621401,0.0,-0.0061757490038871765,0.9079195261001587,0.0,-0.003504701890051365,0.7843949794769287,0.00561194121837616,0.004439584445208311
934.0,891.0,1.6481,-0.6778,9.5246,-0.0299,0.026,-0.1374,-1.692965646783346,-0.0015658960910513997,2.5549635887145996,-1.8540736436843872,0.006316471844911575,2.035036325454712,4.835300336569109,-1.8525529764710544e-28,0.30357104539871216,-1.5829861799823206,0.0,-0.012979358434677124,0.9079948663711548,0.0,0.0030662990175187588,0.7844632863998413,0.003228721907362342,-0.014063594862818718
934.0,891.0,1.6481,-0.6778,9.5246,-0.0299,0.026,-0.1374,-1.6929732761778773,-0.004399061668664217,2.577976703643799,-1.8540384769439697,0.005776746664196253,2.0574848651885986,4.83528849014596,-3.366923653338153e-33,0.30246037244796753,-1.582949463521139,0.0,-0.00960080511868,0.9079742431640625,0.0,0.0010578983929008245,0.7844471335411072,0.0015530595555901527,0.021504858508706093
934.0,891.0,1.6481,-0.6778,9.5246,-0.0299,0.026,-0.1374,-1.6930295429625453,-0.004699161741882563,2.551624298095703,-1.854013442993164,0.005023640114814043,2.0665416717529297,4.835316191404619,-6.119217599463512e-38,0.29054027795791626,-1.5830023924456995,0.0,-0.005719942972064018,0.9080073237419128,0.0,-0.004120170138776302,0.7844591736793518,0.0006497784634120762,0.008469178341329098
934.0,891.0,1.6481,-0.6778,9.5246,-0.0299,0.026,-0.1374,-1.6930695972838343,-0.003987119998782873,2.6194276809692383,-1.8539493083953857,0.0036671084817498922,2.0619826316833496,4.835272620409288,-1.1126309806739048e-42,0.29945260286331177,-1.58299428621401,0.0,-0.007756487466394901,0.9079947471618652,0.0,-0.00032611354254186153,0.7844717502593994,0.0002474917273502797,0.01018519513309002
934.0,891.0,1.6481,-0.6778,9.5246,-0.0299,0.026,-0.1374,-1.693141599694723,-0.0033892339561134577,2.559774875640869,-1.8539265394210815,0.0021724405232816935,2.0378878116607666,4.835332098394193,-0.0,0.3036155700683594,-1.583010498677389,0.0,-0.00852228794246912,0.9079906940460205,0.0,-0.006916832644492388,0.7843990921974182,-0.0008004755363799632,-0.03892945125699043
944.0,866.0,2.1888,-0.3015,9.2776,-0.0585,0.0284,-0.1217,-1.6931292019286097,-0.004186701495200396,2.5615921020507812,-1.8539420366287231,0.0013301941798999906,2.091001272201538,4.835292424052515,-0.0,0.30061429738998413,-1.5829499403582972,0.0,-0.013523382134735584,0.907982349395752,0.0,-0.017782852053642273,0.7843830585479736,-0.0017263147747144103,0.021068548783659935
944.0,866.0,2.1888,-0.3015,9.2776,-0.0585,0.0284,-0.1217,-1.6932336292662562,-0.004968085326254368,2.5396363735198975,-1.8538975715637207,0.0008476614602841437,2.0666120052337646,4.835308301239767,-0.0,0.30149924755096436,-1.5829861799823206,0.0,-0.011967375874519348,0.9079787731170654,0.0,-0.0056383986957371235,0.7843709588050842,-0.0013160859234631062,0.01665378175675869
944.0,866.0,2.1888,-0.3015,9.2776,-0.0585,0.0284,-0.1217,-1.6932574711241664,-0.004932222422212362,2.605923891067505,-1.8539575338363647,0.0004676578682847321,2.0165727138519287,4.835316213756361,-0.0,0.3084840178489685,-1.5829861799823206,0.0,-0.0067930868826806545,0.9080029129981995,-0.00011092994100181386,-0.022684719413518906,0.7843390107154846,-0.002416793256998062,-0.034016236662864685
944.0,866.0,2.1888,-0.3015,9.2776,-0.0585,0.0284,-0.1217,-1.693277498284811,-0.005691005382686853,2.5680127143859863,-1.8538614511489868,0.0005091167404316366,2.0300047397613525,4.835276546865263,-0.0,0.3103603720664978,-1.5829737822162073,0.0,-0.008265407755970955,0.907946765422821,-0.00011992703366558999,-0.015763867646455765,0.7843231558799744,-0.00386556563898921,-0.0685688778758049
944.0,866.0,2.1888,-0.3015,9.2776,-0.0585,0.0284,-0.1217,-1.6933657131590785,-0.006188489962369204,2.584151268005371,-1.8538458347320557,0.0014669537777081132,2.105316162109375,4.83528050312356,-0.0,0.29945436120033264,-1.5829656759845179,0.0,-0.016188358888030052,0.9079704284667969,-0.00011127979087177664,-0.0168912336230278,0.784267008304596,-0.006463454570621252,-0.015674103051424026
944.0,866.0,2.1888,-0.3015,9.2776,-0.0585,0.0284,-0.1217,-1.6934615574278773,-0.0065645030699670315,2.6275601387023926,-1.8538260459899902,0.0028184563852846622,2.0902719497680664,4.8352646482880495,-0.0,0.30094748735427856,-1.5829904715167444,0.0,-0.006674814037978649,0.9079395532608032,-0.00010088471753988415,-0.020640306174755096,0.7842111587524414,-0.005934683606028557,-0.0147295743227005
944.0,866.0,2.1888,-0.3015,9.2776,-0.0585,0.0284,-0.1217,-1.6935011349120082,-0.006664970889687538,2.614940881729126,-1.8538508415222168,0.004276533145457506,2.0770864486694336,4.83528050312356,-0.0,0.3069743812084198,-1.582966152821676,0.0,-0.01365949958562851,0.9079748392105103,-9.386979945702478e-05,-0.022774282842874527,0.784151017665863,-0.0032492841128259897,-0.001997120678424835
944.0,866.0,2.1888,-0.3015,9.2776,-0.0585,0.0284,-0.1217,-1.6935492954649867,-0.006324470043182373,2.549037456512451,-1.8537214994430542,0.006528512109071016,2.0355284214019775,4.835292431503095,-0.0,0.30430445075035095,-1.5829656759845179,0.0,-0.017345573753118515,0.9079787731170654,-8.776687900535762e-05,-0.018245477229356766,0.7842276096343994,-0.0014046347932890058,-0.018422819674015045
944.0,866.0,2.1888,-0.3015,9.2776,-0.0585,0.0284,-0.1217,-1.6936050854124964,-0.00620669312775135,2.5407700538635254,-1.8536697626113892,0.008737998083233833,2.093292474746704,4.835252369731226,-0.0,0.3000827133655548,-1.5829337278949183,0.0,-0.015746254473924637,0.9079231023788452,-8.240926399594173e-05,-0.0215158611536026,0.7842154502868652,-0.000699288328178227,0.00843416154384613
944.0,866.0,2.1888,-0.3015,9.2776,-0.0585,0.0284,-0.1217,-1.6936847172179164,-0.007601364981383085,2.5689220428466797,-1.8536055088043213,0.011265688575804234,2.0764830112457275,4.835292438953676,-0.0,0.3082948625087738,-1.5829499403582972,0.0,-0.009509759023785591,0.9079588651657104,-7.766803173581138e-05,-0.02330203913152218,0.7841907739639282,-4.784517670941568e-08,-0.03369613364338875
944.0,866.0,2.1888,-0.3015,9.2776,-0.0585,0.0284,-0.1217,-1.69374479869985,-0.007636246271431446,2.577423572540283,-1.8535133600234985,0.011936265975236893,2.058521270751953,4.835312235146322,-0.0,0.30604037642478943,-1.5829575697528284,0.0,-0.02305116131901741,0.9079787731170654,-7.344275218201801e-05,-0.024695726111531258,0.7841745615005493,0.0005824245745316148,-0.01951129361987114
918.0,890.0,2.059,-0.2997,9.4493,-0.0327,0.0489,-0.1106,-1.6937772236266078,-0.00830599945038557,2.586263656616211,-1.8534417152404785,0.01252361573278904,2.087235450744629,4.835236507445135,-0.0,0.2960602641105652,-1.5829981009112757,0.0,-0.018425259739160538,0.9080030918121338,-6.965341890463606e-05,-0.030652504414319992,0.7842549681663513,0.0013547595590353012,0.022180046886205673
918.0,890.0,2.059,-0.2997,9.4493,-0.0327,0.0489,-0.1106,-1.693836351434225,-0.009544278495013714,2.5888500213623047,-1.8532894849777222,0.014967460185289383,2.053145170211792,4.8352563483412645,-0.0,0.2934132516384125,-1.582966152821676,0.0,-0.016033831983804703,0.9080029129981995,-6.543334893649444e-05,-0.013635702431201935,0.7842305898666382,0.0009729996672831476,-0.03957062214612961
918.0,890.0,2.059,-0.2997,9.4493,-0.0327,0.0489,-0.1106,-1.6939407787718714,-0.010726788081228733,2.5603132247924805,-1.8531372547149658,0.014779818244278431,2.0667543411254883,4.835204812675276,-0.0,0.31019672751426697,-1.5829179922686976,0.0,-0.009068712592124939,0.9079549312591553,-6.24084786977619e-05,-0.011578768491744995,0.7842631936073303,0.0007048050756566226,-0.014257315546274185
918.0,890.0,2.059,-0.2997,9.4493,-0.0327,0.0489,-0.1106,-1.694101472894186,-0.013206114992499352,2.580564498901367,-1.8530057668685913,0.014411781914532185,2.046907901763916,4.835252459138193,-0.0,0.29114288091659546,-1.5829780737506312,0.0,-0.008821371011435986,0.9079828858375549,-5.965053424006328e-05,-0.01338106393814087,0.7842467427253723,0.0005199693259783089,0.02893899194896221
918.0,890.0,2.059,-0.2997,9.4493,-0.0327,0.0489,-0.1106,-1.694104333917135,-0.015456106513738632,2.555933952331543,-1.8530186414718628,0.01354873739182949,2.0854663848876953,4.835220682411947,-0.0,0.31539350748062134,-1.582926098500387,0.0,-0.01056784950196743,0.9079709053039551,-1.08411901678096e-09,-0.011736231856048107,0.7842711210250854,0.0004379064484965056,-0.03779226168990135
918.0,890.0,2.059,-0.2997,9.4493,-0.0327,0.0489,-0.1106,-1.6943003139891566,-0.01643209345638752,2.5535778999328613,-1.85283362865448,0.012005554512143135,2.086824417114258,4.835232603340902,-0.0,0.30593377351760864,-1.5829299131976526,0.0,-0.012393908575177193,0.9079467058181763,-1.9703326359257582e-14,-0.0011486625298857689,0.7842954993247986,0.0003915678826160729,0.03214143216609955
918.0,890.0,2.059,-0.2997,9.4493,-0.0327,0.0489,-0.1106,-1.6944161854186,-0.01924610696732998,2.541858673095703,-1.852754831314087,0.010640213266015053,2.0640790462493896,4.835264350264826,-0.0,0.3097114861011505,-1.5829456488238733,0.0,-0.014060990884900093,0.9079864025115967,-3.580982227991463e-19,-0.00920398160815239,0.7842790484428406,0.00032160611590370536,0.08493508398532867
918.0,890.0,2.059,-0.2997,9.4493,-0.0327,0.0489,-0.1106,-1.6945563755431117,-0.022891903296113014,2.5231614112854004,-1.85262131690979,0.008696154691278934,2.045257091522217,4.835264342814245,-0.0,0.31080397963523865,-1.5829137007342737,0.0,-0.02220959961414337,0.9080030918121338,-6.508257873671676e-24,-0.0032109925523400307,0.7842549681663513,0.00027285332907922566,0.016875041648745537
918.0,890.0,2.059,-0.2997,9.4493,-0.0327,0.0489,-0.1106,-1.6947838268675746,-0.027161508798599243,2.4947316646575928,-1.8525900840759277,0.006054412107914686,2.029353618621826,4.83526040890769,-0.0,0.30309194326400757,-1.5829456488238733,0.0,-0.0033748724963515997,0.9079622626304626,-7.72312427405503e-30,-0.005121412221342325,0.7842631936073303,0.00022938696201890707,-0.001106729032471776
918.0,890.0,2.059,-0.2997,9.4493,-0.0327,0.0489,-0.1106,-1.695031305352682,-0.031038478016853333,2.489499568939209,-1.8525341749191284,0.004573770798742771,2.0662498474121094,4.835304337530889,-0.0,0.3200452923774719,-1.582966152821676,0.0,-0.019969532266259193,0.9079906940460205,-1.4036396668064023e-34,-0.007677125744521618,0.7842794060707092,0.00020345844677649438,-0.004018440842628479
918.0,890.0,2.059,-0.2997,9.4493,-0.0327,0.0489,-0.1106,-1.6952792606749476,-0.036579620093107224,2.569265604019165,-1.8525259494781494,0.0032963212579488754,1.996523141860962,4.835284474283018,-0.0,0.3115139305591583,-1.58299428621401,0.0,-0.024821165949106216,0.908051073551178,-2.5510456374232933e-39,-0.013349425978958607,0.7842790484428406,0.00018279645883012563,0.03855381906032562
911.0,880.0,1.5326,-0.3882,9.1017,-0.0418,-0.0177,-0.1037,-1.6956025562682093,-0.0409901961684227,2.545607328414917,-1.8525340557098389,0.0023654403630644083,2.0384106636047363,4.835192519217291,-0.0,0.29042649269104004,-1.582966152821676,0.0,-0.01866878569126129,0.9079864025115967,-4.624284932271896e-44,0.0038309642113745213,0.7843115329742432,0.00011806121619883925,-0.0034256246872246265
911.0,880.0,1.5326,-0.3882,9.1017,-0.0418,-0.0177,-0.1037,-1.695958753625387,-0.04519433155655861,2.4742629528045654,-1.852506160736084,0.0023344275541603565,2.0166897773742676,4.835216673999586,-0.0,0.3064195215702057,-1.5829337278949183,0.0,-0.02323951944708824,0.9080790281295776,-0.0,-0.006571443285793066,0.7842467427253723,0.00012571252591442317,-0.02211715839803219
911.0,880.0,1.5326,-0.3882,9.1017,-0.0418,-0.0177,-0.1037,-1.696362634698385,-0.05246259272098541,2.5088863372802734,-1.852454423904419,0.0029795493464916945,2.0815563201904297,4.835220630257883,-0.0,0.29940566420555115,-1.5829456488238733,0.0,-0.01709853485226631,0.908051609992981,-5.704978267573324e-09,-0.016427572816610336,0.7843235731124878,0.00013660857803188264,-0.026047568768262863
911.0,880.0,1.5326,-0.3882,9.1017,-0.0418,-0.0177,-0.1037,-1.6968022785582484,-0.06049764156341553,2.562185049057007,-1.852409839630127,0.002909834962338209,2.053116798400879,4.835248458176412,-0.0,0.3189704418182373,-1.5829537550555628,0.0,-0.018497489392757416,0.9080150127410889,-1.0368516077186377e-13,-0.004471682012081146,0.784315288066864,0.000427640276029706,-0.014880048111081123
911.0,880.0,1.5326,-0.3882,9.1017,-0.0418,-0.0177,-0.1037,-1.6974135837950648,-0.06322667747735977,2.5161218643188477,-1.8524138927459717,0.003911089617758989,2.0519564151763916,4.83524455407218,-0.0,0.31867527961730957,-1.5829904715167444,0.0,-0.026901258155703545,0.9079949259757996,-1.2303957475026537e-19,-0.006941500119864941,0.784298837184906,0.0014552008360624313,-0.025452282279729843
911.0,880.0,1.5326,-0.3882,9.1017,-0.0418,-0.0177,-0.1037,-1.698001047173971,-0.06355483084917068,2.518192768096924,-1.852390170097351,0.00520576536655426,2.0543100833892822,4.835216420679846,-0.0,0.321307510137558,-1.5829299131976526,0.0,-0.021314579993486404,0.9080594182014465,-2.236183810814776e-24,-0.010925276204943657,0.7843675017356873,0.002389350673183799,0.04538648575544357
911.0,880.0,1.5326,-0.3882,9.1017,-0.0418,-0.0177,-0.1037,-1.6985207996764125,-0.0656796246767044,2.537860870361328,-1.8523941040039062,0.004700182471424341,2.0874886512756348,4.835228661983766,-6.838034460088238e-05,0.3074760437011719,-1.5829618612872522,0.0,-0.02188567817211151,0.9080309867858887,-4.0641539428380615e-29,-0.0031743422150611877,0.7844036221504211,0.00465399632230401,0.03732508048415184
911.0,880.0,1.5326,-0.3882,9.1017,-0.0418,-0.0177,-0.1037,-1.6990357838072718,-0.07148425281047821,2.538137197494507,-1.8523021936416626,0.0034932338166981936,2.0644373893737793,4.8352286396320245,-0.00034627856803126633,0.3137280344963074,-1.5829699675189417,0.0,-0.03002043068408966,0.9080868363380432,-7.386397832609352e-34,-0.006180309224873781,0.7844229936599731,0.008651901967823505,0.07718353718519211
911.0,880.0,1.5326,-0.3882,9.1017,-0.0418,-0.0177,-0.1037,-1.6996962032713832,-0.07599494606256485,2.534402370452881,-1.8522700071334839,0.0036280101630836725,2.0941450595855713,4.8352083815033815,-0.00048581798910163343,0.32655584812164307,-1.5830023924456995,0.0,-0.039605144411325455,0.9079786539077759,-1.3424415466157854e-38,-0.0028538897167891264,0.7844789624214172,0.008676616474986076,-0.02022409439086914
911.0,880.0,1.5326,-0.3882,9.1017,-0.0418,-0.0177,-0.1037,-1.7002345524229945,-0.07729247957468033,2.5239970684051514,-1.852250337600708,0.006076861638575792,2.089411973953247,4.835192563920774,-0.00035761628532782197,0.32522475719451904,-1.5829418341266077,0.0,-0.03320995345711708,0.9080188274383545,-2.4382593279251817e-43,-0.000880361651070416,0.7845754027366638,0.007837003096938133,-0.01145528256893158
931.0,892.0,1.9609,-0.1549,9.3242,-0.0318,-0.0451,-0.11,-1.7008377514281214,-0.08102751523256302,2.5558695793151855,-1.8521900177001953,0.010079076513648033,2.081313371658325,4.835220369487562,-0.0002826943527907133,0.3255639672279358,-1.5829618612872522,0.0,-0.009137554094195366,0.9080347418785095,0.00012609663826879114,0.0033677227329462767,0.7846798300743103,0.008029581047594547,-0.000249368604272604
931.0,892.0,1.9609,-0.1549,9.3242,-0.0318,-0.0451,-0.11,-1.701705118218893,-0.0876186415553093,2.5455234050750732,-1.8520989418029785,0.014755699783563614,2.170058250427246,4.83522870668725,-0.00022403647017199546,0.3322162330150604,-1.5829780737506312,0.0,-0.021302148699760437,0.9080228209495544,0.00013283711450640112,0.0006287948926910758,0.7847312688827515,0.00946104247123003,0.025862442329525948
931.0,892.0,1.9609,-0.1549,9.3242,-0.0318,-0.0451,-0.11,-1.7024241886534632,-0.09399529546499252,2.5373010635375977,-1.8519622087478638,0.019312137737870216,2.1311745643615723,4.835240515857496,-0.0001921435323311016,0.31557515263557434,-1.5829456488238733,0.0,-0.023891985416412354,0.9080429077148438,0.0001410480181220919,-0.0027625346556305885,0.7848194241523743,0.01041913591325283,0.00694937352091074
931.0,892.0,1.9609,-0.1549,9.3242,-0.0318,-0.0451,-0.11,-1.70316805462026,-0.09193035215139389,2.5923495292663574,-1.851730227470398,0.026667803525924683,2.1646666526794434,4.835188570409574,-0.00016820106247905642,0.3302088975906372,-1.5829904715167444,0.0,-0.01496920920908451,0.9080467224121094,0.00014798896154388785,0.005746413022279739,0.7849034667015076,0.010599414817988873,0.04432601481676102
931.0,892.0,1.9609,-0.1549,9.3242,-0.0318,-0.0451,-0.11,-1.7039391003050746,-0.09498286247253418,2.553389549255371,-1.8514900207519531,0.035354070365428925,2.176056146621704,4.835204507201471,-0.00014956441009417176,0.3346869945526123,-1.5829375425921839,0.0,-0.02292018011212349,0.9079908132553101,0.0002747085236478597,0.014221659861505032,0.7849756479263306,0.010906537994742393,0.0019837375730276108
931.0,892.0,1.9609,-0.1549,9.3242,-0.0318,-0.0451,-0.11,-1.7046901188292445,-0.10319409519433975,2.5097765922546387,-1.8511738777160645,0.04139944911003113,2.2156996726989746,4.835208441108026,-0.00015632288705091923,0.3319697976112366,-1.5829904715167444,0.0,-0.02014780044555664,0.9080306887626648,0.00026817715843208134,0.02300826832652092,0.7850794792175293,0.011422699317336082,0.0685344785451889
931.0,892.0,1.9609,-0.1549,9.3242,-0.0318,-0.0451,-0.11,-1.7055331669249476,-0.10818213224411011,2.575685739517212,-1.8507978916168213,0.05150720477104187,2.157822847366333,4.835196587234297,-0.00014284013013821095,0.3301752805709839,-1.5829737822162073,0.0,-0.024613328278064728,0.9080548286437988,0.0002618801372591406,0.010204359889030457,0.7851963639259338,0.011812710203230381,0.029136845842003822
931.0,892.0,1.9609,-0.1549,9.3242,-0.0318,-0.0451,-0.11,-1.7063962421812953,-0.11056303232908249,2.56594181060791,-1.8503026962280273,0.06303342431783676,2.230942726135254,4.835212538927355,-0.00013096249313093722,0.3267338275909424,-1.58299428621401,0.0,-0.02909238077700138,0.9080667495727539,0.00022905608057044446,0.013465901836752892,0.7852397561073303,0.011150166392326355,0.09226441383361816
931.0,892.0,1.9609,-0.1549,9.3242,-0.0318,-0.0451,-0.11,-1.7074948749937953,-0.1150718554854393,2.5526134967803955,-1.8496137857437134,0.079493448138237,2.1975486278533936,4.835224385350504,-0.00011863166582770646,0.34087443351745605,-1.5829780737506312,0.0,-0.029342398047447205,0.9080868363380432,0.00022194645134732127,0.004524909891188145,0.7853921055793762,0.009857293218374252,0.05834289640188217
931.0,892.0,1.9609,-0.1549,9.3242,-0.0318,-0.0451,-0.11,-1.7084785900511683,-0.11590012162923813,2.5453362464904785,-1.8488978147506714,0.09422937035560608,2.2708277702331543,4.835200521140852,-0.00011032199836336076,0.3363417983055115,-1.5829985777484339,0.0,-0.024415452033281326,0.9080746173858643,0.00022243727289605886,0.017440427094697952,0.7855005264282227,0.009931899607181549,-0.004111316055059433
931.0,892.0,1.9609,-0.1549,9.3242,-0.0318,-0.0451,-0.11,-1.7093802891173304,-0.12357908487319946,2.542090892791748,-1.8480533361434937,0.1040167286992073,2.2308428287506104,4.835176679282942,-0.00011590274516493082,0.32400232553482056,-1.5829618612872522,0.0,-0.03006908670067787,0.9080589413642883,0.00021857388492207974,0.012909019365906715,0.7855519652366638,0.009683801792562008,0.01872582733631134
916.0,870.0,1.5368,-0.0485,10.0086,-0.0341,0.0214,-0.1095,-1.7103997669615687,-0.1361437737941742,2.5474369525909424,-1.8471860885620117,0.10572383552789688,2.2375869750976562,4.835212501674452,-0.00011058945528930053,0.33602792024612427,-1.5829861799823206,0.0,-0.02293824404478073,0.9080548286437988,0.00019518334011081606,0.02389432117342949,0.7856243848800659,0.009093682281672955,0.060693126171827316
916.0,870.0,1.5368,-0.0485,10.0086,-0.0341,0.0214,-0.1095,-1.7114631138243617,-0.13965755701065063,2.5083305835723877,-1.846306562423706,0.11134973168373108,2.2130303382873535,4.835208441108026,-9.116851288126782e-05,0.3225320279598236,-1.5829575697528284,0.0,-0.030667953193187714,0.9080426096916199,0.0001736605481710285,0.021929318085312843,0.7856802344322205,0.008396700024604797,0.07205835729837418
916.0,870.0,1.5368,-0.0485,10.0086,-0.0341,0.0214,-0.1095,-1.712590833703512,-0.13452641665935516,2.5640406608581543,-1.8453646898269653,0.12286894023418427,2.3138487339019775,4.835256400495329,-8.617666026111692e-05,0.34202954173088074,-1.5829537550555628,0.0,-0.020694810897111893,0.9080868363380432,0.0001673922670306638,0.012840979732573032,0.7857685685157776,0.007009311579167843,0.056330472230911255
916.0,870.0,1.5368,-0.0485,10.0086,-0.0341,0.0214,-0.1095,-1.7137037716307582,-0.1296743005514145,2.5718417167663574,-1.8443433046340942,0.13450825214385986,2.3198320865631104,4.835260505765238,-8.170613000402227e-05,0.34313052892684937,-1.5829375425921839,0.0,-0.02499641478061676,0.9081113338470459,0.00016260836855508387,0.013445159420371056,0.7858286499977112,0.006323377601802349,0.058879297226667404
916.0,870.0,1.5368,-0.0485,10.0086,-0.0341,0.0214,-0.1095,-1.7152182064452113,-0.1506311446428299,2.5402727127075195,-1.842883825302124,0.14754557609558105,2.3571457862854004,4.835176694184103,-6.709842273266986e-05,0.32568061351776123,-1.5829818884478968,0.0,-0.01644892245531082,0.9080708622932434,0.00014610897051170468,0.024749847128987312,0.7858923673629761,0.009624176658689976,0.040280260145664215
916.0,870.0,1.5368,-0.0485,10.0086,-0.0341,0.0214,-0.1095,-1.716459413568014,-0.17593494057655334,2.4862747192382812,-1.8416666984558105,0.14941062033176422,2.283459186553955,4.8351806504424,-6.829870108049363e-05,0.31644243001937866,-1.5829737822162073,0.0,-0.017081741243600845,0.908078670501709,0.00013513927115127444,0.014101328328251839,0.7859483361244202,0.009642981924116611,0.04050604999065399
916.0,870.0,1.5368,-0.0485,10.0086,-0.0341,0.0214,-0.1095,-1.7178536854186,-0.18282388150691986,2.5487594604492188,-1.8403334617614746,0.16125354170799255,2.322319984436035,4.835224601417341,-3.837442272924818e-05,0.3313238322734833,-1.5829861799823206,0.0,-0.015615571290254593,0.9080306887626648,0.00012570172839332372,0.009775127284228802,0.7860409617424011,0.008415606804192066,0.017773523926734924
916.0,870.0,1.5368,-0.0485,10.0086,-0.0341,0.0214,-0.1095,-1.7193027935423792,-0.16666314005851746,2.5323643684387207,-1.8389400243759155,0.17967885732650757,2.2974448204040527,4.835236581950941,0.0002843174443114549,0.3273078501224518,-1.583010498677389,0.0,-0.009923798963427544,0.9080787301063538,0.00011749637633329257,0.0054756393656134605,0.7860761284828186,0.006605516187846661,0.01523411925882101
916.0,870.0,1.5368,-0.0485,10.0086,-0.0341,0.0214,-0.1095,-1.7207685909666957,-0.1736709177494049,2.553328275680542,-1.8374662399291992,0.18902716040611267,2.371020555496216,4.835204447596826,0.00013589687296189368,0.32710570096969604,-1.5829656759845179,0.0,-0.012724675238132477,0.9080426096916199,0.00011029664165107533,0.008755558170378208,0.7861685752868652,0.008724643848836422,0.0262221097946167
916.0,870.0,1.5368,-0.0485,10.0086,-0.0341,0.0214,-0.1095,-1.7223879299559535,-0.2055141031742096,2.494314193725586,-1.8359811305999756,0.18718881905078888,2.345062494277954,4.835164788156309,4.628492700220477e-09,0.3365582227706909,-1.5829737822162073,0.0,-0.02562812715768814,0.9080667495727539,0.00010392838885309175,0.0010591419413685799,0.7862808108329773,0.014890927821397781,0.11415672302246094
916.0,870.0,1.5368,-0.0485,10.0086,-0.0341,0.0214,-0.1095,-1.7245060406126917,-0.22314444184303284,2.42000675201416,-1.8339473009109497,0.1966833770275116,2.3321380615234375,4.835180680244722,5.4924703735061576e-15,0.3295702636241913,-1.5830023924456995,0.0,-0.02555333822965622,0.9080708026885986,9.693254833109677e-05,0.015016975812613964,0.7864046692848206,0.016609007492661476,0.0476636067032814
904.0,845.0,1.6241,-0.134,9.6389,-0.009,-0.0024,-0.0948,-1.7263127766051234,-0.2148510217666626,2.5379104614257812,-1.832435131072998,0.20465914905071259,2.3325891494750977,4.835208433657446,9.982290908963201e-20,0.3193972110748291,-1.5829904715167444,0.0,-0.006347851827740669,0.9080507755279541,8.050745236687362e-05,0.01011042669415474,0.7865450382232666,0.013908407650887966,0.06361935287714005
904.0,845.0,1.6241,-0.134,9.6389,-0.009,-0.0024,-0.0948,-1.728058477441305,-0.2261108011007309,2.490077018737793,-1.8308221101760864,0.2047351747751236,2.2995059490203857,4.835216428130426,1.814231973373372e-24,0.3069053292274475,-1.5829694906817835,0.0,-0.02710786461830139,0.9080626964569092,7.656929665245116e-05,0.010050760582089424,0.7866488695144653,0.014739319682121277,0.02282179892063141
904.0,845.0,1.6241,-0.134,9.6389,-0.009,-0.0024,-0.0948,-1.7299405537047328,-0.23804137110710144,2.486131191253662,-1.8291003704071045,0.2131546139717102,2.3312277793884277,4.835236537247457,3.297277227005676e-29,0.31714004278182983,-1.5829656759845179,0.0,-0.015729613602161407,0.908038854598999,7.301945879589766e-05,0.011220721527934074,0.7868701219558716,0.018395205959677696,0.05307026579976082
904.0,845.0,1.6241,-0.134,9.6389,-0.009,-0.0024,-0.0948,-1.7318231068053187,-0.24686114490032196,2.4483070373535156,-1.8274120092391968,0.21973778307437897,2.3396313190460205,4.835212442069807,-4.2841860704356804e-05,0.3176589012145996,-1.5829694906817835,0.0,-0.026558417826890945,0.908014714717865,6.978416786296293e-05,0.00141831673681736,0.7869576215744019,0.020608099177479744,0.019640890881419182
904.0,845.0,1.6241,-0.134,9.6389,-0.009,-0.0024,-0.0948,-1.733882566491598,-0.25898975133895874,2.4738478660583496,-1.8256675004959106,0.21867431700229645,2.3082189559936523,4.835216405778684,-3.492096220725216e-05,0.3088493347167969,-1.5829737822162073,0.0,-0.030930137261748314,0.9079983234405518,2.502030804762967e-09,0.020757613703608513,0.7870849967002869,0.021287379786372185,0.06040512025356293
904.0,845.0,1.6241,-0.134,9.6389,-0.009,-0.0024,-0.0948,-1.7358280620970667,-0.2641928791999817,2.47645902633667,-1.8238537311553955,0.2248671054840088,2.3714516162872314,4.835228647082605,-3.0228586183511652e-05,0.30021849274635315,-1.5829618612872522,0.0,-0.03283124417066574,0.9081315994262695,4.547317383751803e-14,0.007588798180222511,0.7873545289039612,0.02232987806200981,0.08697351813316345
904.0,845.0,1.6241,-0.134,9.6389,-0.009,-0.0024,-0.0948,-1.7384797535338343,-0.26894840598106384,2.5133414268493652,-1.8215903043746948,0.23380951583385468,2.320150375366211,4.835196564882555,-2.5881688998197205e-05,0.2939991354942322,-1.583010498677389,0.0,-0.028116680681705475,0.9080225825309753,5.396144714614927e-20,0.01830984093248844,0.7875095009803772,0.023484785109758377,0.0032209819182753563
904.0,845.0,1.6241,-0.134,9.6389,-0.009,-0.0024,-0.0948,-1.7406584225096644,-0.27440690994262695,2.510014772415161,-1.8196903467178345,0.23498296737670898,2.347437620162964,4.835216696351328,-7.916138997643429e-07,0.3133576810359955,-1.5830062071429651,0.0,-0.01228260062634945,0.9080228805541992,9.807226256005955e-25,0.01758582890033722,0.7877058386802673,0.025860946625471115,0.08150540292263031
904.0,845.0,1.6241,-0.134,9.6389,-0.009,-0.0024,-0.0948,-1.742913385430807,-0.2883893847465515,2.497035026550293,-1.8178579807281494,0.24751050770282745,2.34385085105896,4.835268321424284,-1.438719195862026e-11,0.30079084634780884,-1.5829861799823206,0.0,-0.015339786186814308,0.9080467224121094,1.782414610219637e-29,-0.0009425088064745069,0.787934422492981,0.028017010539770126,0.09965118765830994
904.0,845.0,1.6241,-0.134,9.6389,-0.009,-0.0024,-0.0948,-1.7452403507628382,-0.29187899827957153,2.4957292079925537,-1.815885066986084,0.2481115758419037,2.3658406734466553,4.835240463703432,-2.61480103138807e-16,0.2973712086677551,-1.5829575697528284,0.0,-0.015726463869214058,0.9080507755279541,3.239450061281359e-34,0.019639000296592712,0.7882105708122253,0.0274418443441391,0.09483776986598969
904.0,845.0,1.6241,-0.134,9.6389,-0.009,-0.0024,-0.0948,-1.7476760349669398,-0.30273476243019104,2.464956283569336,-1.8137561082839966,0.24916061758995056,2.3274054527282715,4.835276584118166,7.422448106808588e-05,0.2996371388435364,-1.5829985777484339,0.0,-0.02381213754415512,0.9080228805541992,5.887540083577611e-39,-0.001621271949261427,0.7883985638618469,0.027004217728972435,0.0660390704870224
894.0,835.0,1.6732,-0.1789,9.5575,-0.0344,-0.0218,-0.1016,-1.750190874139303,-0.3087826073169708,2.5249056816101074,-1.8117808103561401,0.26391342282295227,2.4292232990264893,4.835304330080309,0.0019393679685890675,0.32012611627578735,-1.5830023924456995,0.0,-0.003514530835673213,0.9080626964569092,1.064986832886861e-43,0.013244528323411942,0.7885943651199341,0.027287501841783524,0.07761367410421371
894.0,835.0,1.6732,-0.1789,9.5575,-0.0344,-0.0218,-0.1016,-1.7528101406493128,-0.3129565417766571,2.5260372161865234,-1.8096040487289429,0.26244935393333435,2.353789806365967,4.835316228657522,0.0008707074448466301,0.3072969615459442,-1.5830023924456995,0.0,-0.00804566964507103,0.9080469608306885,0.0,0.0003791979979723692,0.7888307571411133,0.025410860776901245,0.0258670412003994
894.0,835.0,1.6732,-0.1789,9.5575,-0.0344,-0.0218,-0.1016,-1.7560416660704554,-0.322183221578598,2.5900464057922363,-1.8069407939910889,0.2692616879940033,2.3918278217315674,4.835324126272955,0.0005017186049371958,0.32916510105133057,-1.5829656759845179,0.0,-0.019132524728775024,0.9080309271812439,0.0,-0.000883351662196219,0.7890950441360474,0.026494229212403297,0.09180687367916107
894.0,835.0,1.6732,-0.1789,9.5575,-0.0344,-0.0218,-0.1016,-1.758653303185934,-0.32640373706817627,2.5490152835845947,-1.8048290014266968,0.2739708125591278,2.384509563446045,4.835343989520826,0.00040401172009296715,0.3209035396575928,-1.5829694906817835,0.0,-0.02428322099149227,0.9080507755279541,0.0,-0.00670368317514658,0.7892951965332031,0.027422113344073296,0.02101583406329155
894.0,835.0,1.6732,-0.1789,9.5575,-0.0344,-0.0218,-0.1016,-1.7612768612303675,-0.33390989899635315,2.5617785453796387,-1.8025966882705688,0.27358490228652954,2.4055676460266113,4.835292424052515,0.00031092457356862724,0.3127567768096924,-1.5829780737506312,0.0,-0.016119739040732384,0.9079949259757996,0.0,0.005471961572766304,0.7895798683166504,0.02910684607923031,0.05428408831357956
894.0,835.0,1.6732,-0.1789,9.5575,-0.0344,-0.0218,-0.1016,-1.7639395199217738,-0.33153635263442993,2.5666747093200684,-1.800308346748352,0.28123632073402405,2.3985049724578857,4.835388007550993,0.000460699200630188,0.3307850956916809,-1.5829537550555628,0.0,-0.023137034848332405,0.9080307483673096,0.0,0.012140586040914059,0.7897635102272034,0.03062753565609455,0.07930278778076172
894.0,835.0,1.6732,-0.1789,9.5575,-0.0344,-0.0218,-0.1016,-1.7664619884886683,-0.32765984535217285,2.610297203063965,-1.7980802059173584,0.2907670736312866,2.4261882305145264,4.835348303406992,0.0009887822670862079,0.32622265815734863,-1.582949463521139,0.0,-0.025861019268631935,0.9080749154090881,0.0,0.0054392386227846146,0.7899755239486694,0.029690193012356758,0.06284940987825394
894.0,835.0,1.6732,-0.1789,9.5575,-0.0344,-0.0218,-0.1016,-1.769005914727682,-0.32705697417259216,2.572964668273926,-1.7957648038864136,0.29692167043685913,2.501479148864746,4.835380124836721,0.0005871198954991996,0.3323090076446533,-1.5829818884478968,0.0,-0.03158519044518471,0.9080309867858887,0.0,0.004833165090531111,0.7902761101722717,0.02944444864988327,0.011668777093291283
894.0,835.0,1.6732,-0.1789,9.5575,-0.0344,-0.0218,-0.1016,-1.771587987939352,-0.3290554881095886,2.704296350479126,-1.7933495044708252,0.3010980486869812,2.4243075847625732,4.835364173143663,0.0005054139182902873,0.3340340554714203,-1.5829575697528284,0.0,-0.022594083100557327,0.908051073551178,0.0,-0.006293517537415028,0.7905568480491638,0.030661342665553093,0.06442096084356308
894.0,835.0,1.6732,-0.1789,9.5575,-0.0344,-0.0218,-0.1016,-1.7748810253539027,-0.3370566666126251,2.674075126647949,-1.79026198387146,0.3187449276447296,2.4644532203674316,4.835360179632463,0.00047921366058290005,0.3331902325153351,-1.5829537550555628,0.0,-0.03386104851961136,0.9080987572669983,0.0,0.0016128425486385822,0.7908005118370056,0.02897835336625576,0.00655030831694603
894.0,835.0,1.6732,-0.1789,9.5575,-0.0344,-0.0218,-0.1016,-1.7775684795775355,-0.33192694187164307,2.6360583305358887,-1.7877150774002075,0.32698068022727966,2.4839651584625244,4.835356156318941,0.000763438583817333,0.33799514174461365,-1.5829861799823206,0.0,-0.021266460418701172,0.9080030918121338,0.0,-0.001631088787689805,0.7910245060920715,0.026163823902606964,0.07381326705217361
904.0,853.0,2.3192,-0.1813,9.4618,-0.0308,0.0231,-0.0997,-1.78029265026235,-0.3362673819065094,2.6700491905212402,-1.7850353717803955,0.3418021500110626,2.490248680114746,4.83541605153636,0.00215108972042799,0.35338959097862244,-1.5830062071429651,0.0,-0.021332718431949615,0.9080671072006226,0.0,0.0035113352350890636,0.7912691831588745,0.024952175095677376,0.04390993341803551
904.0,853.0,2.3192,-0.1813,9.4618,-0.0308,0.0231,-0.0997,-1.7830282650389613,-0.3356999456882477,2.678589344024658,-1.7822266817092896,0.3464325964450836,2.5308732986450195,4.835439908295431,0.0011915278155356646,0.3388080596923828,-1.5830023924456995,0.0,-0.036527566611766815,0.9080348014831543,0.0,-0.006437940988689661,0.7914289832115173,0.02438010834157467,0.039394963532686234
904.0,853.0,2.3192,-0.1813,9.4618,-0.0308,0.0231,-0.0997,-1.785849233666891,-0.3520255386829376,2.7073585987091064,-1.779405951499939,0.35666173696517944,2.5310754776000977,4.835467721312799,0.0015921579906716943,0.3328837752342224,-1.5829456488238733,0.0,-0.018480662256479263,0.9080150127410889,5.835505589857348e-07,4.742381861433387e-05,0.7916170358657837,0.024344300851225853,0.038421791046857834
904.0,853.0,2.3192,-0.1813,9.4618,-0.0308,0.0231,-0.0997,-1.7886725864806117,-0.3465603291988373,2.7310028076171875,-1.7764806747436523,0.36277908086776733,2.5489702224731445,4.835459778993883,0.000915631593670696,0.3327408730983734,-1.5829375425921839,0.0,-0.014801044948399067,0.9080470204353333,1.0605742846447885e-11,-0.0016179101075977087,0.7917608618736267,0.02409416064620018,0.03778771683573723
904.0,853.0,2.3192,-0.1813,9.4618,-0.0308,0.0231,-0.0997,-1.7914005718626917,-0.35118135809898376,2.762378692626953,-1.7736250162124634,0.3670901954174042,2.5314996242523193,4.835451829224386,0.00041498561040498316,0.33587735891342163,-1.5830023924456995,0.0,-0.014464808627963066,0.9080708622932434,1.927541261996388e-16,-0.003971072845160961,0.7920455932617188,0.023265255615115166,0.03496035560965538
904.0,853.0,2.3192,-0.1813,9.4618,-0.0308,0.0231,-0.0997,-1.794873376885885,-0.3452962636947632,2.7300238609313965,-1.7697858810424805,0.37634027004241943,2.6003665924072266,4.835475671082296,0.0002804199466481805,0.33245110511779785,-1.5829985777484339,0.0,-0.014934098348021507,0.9080749154090881,2.2873467495522506e-22,-0.003827245905995369,0.7922295331954956,0.022779017686843872,0.06015738099813461
904.0,853.0,2.3192,-0.1813,9.4618,-0.0308,0.0231,-0.0997,-1.797525545159811,-0.3399426341056824,2.785092353820801,-1.766857385635376,0.38376614451408386,2.5720248222351074,4.835463750153341,0.0002686808875296265,0.34034523367881775,-1.5829694906817835,0.0,-0.006536482367664576,0.9080309867858887,4.157140199817259e-27,0.01039857231080532,0.7924014329910278,0.021475426852703094,0.045461852103471756
904.0,853.0,2.3192,-0.1813,9.4618,-0.0308,0.0231,-0.0997,-1.8002335033812464,-0.33334532380104065,2.7984578609466553,-1.7637561559677124,0.3892047703266144,2.631025791168213,4.835435937135973,0.00020688648510258645,0.331049382686615,-1.5829456488238733,0.0,-0.01706511527299881,0.9080429673194885,7.555396488109363e-32,-0.005847810767591,0.7925977110862732,0.0202943067997694,0.06775475293397903
904.0,853.0,2.3192,-0.1813,9.4618,-0.0308,0.0231,-0.0997,-1.8028975925841273,-0.32903528213500977,2.751873016357422,-1.760614037513733,0.3956100046634674,2.597149133682251,4.835459778993883,0.00016820640303194523,0.3397061824798584,-1.5829575697528284,0.0,-0.01991834118962288,0.9079826474189758,1.3731559070060889e-36,0.0041197133250534534,0.7927699089050293,0.020262759178876877,0.062271058559417725
904.0,853.0,2.3192,-0.1813,9.4618,-0.0308,0.0231,-0.0997,-1.8055254421629847,-0.33283793926239014,2.759221076965332,-1.7574824094772339,0.4010244309902191,2.5799808502197266,4.835479888110914,0.00014171452494338155,0.3218584656715393,-1.5829337278949183,0.0,-0.01822909340262413,0.908014714717865,2.495712564962499e-41,0.0016903055366128683,0.7929702997207642,0.01932024396955967,0.08320747315883636
904.0,853.0,2.3192,-0.1813,9.4618,-0.0308,0.0231,-0.0997,-1.8080769977965296,-0.3215996325016022,2.8325562477111816,-1.7543020248413086,0.41442161798477173,2.6539130210876465,4.835515643447199,6.859255518065766e-05,0.347066193819046,-1.5829780737506312,0.0,-0.027686726301908493,0.9079989194869995,0.0,0.0006218878552317619,0.7931023836135864,0.0159512497484684,0.03854023665189743
886.0,845.0,2.5226,-0.0191,9.5862,-0.0194,0.117,-0.1139,-1.8107768497862757,-0.32546401023864746,2.8249144554138184,-1.75092351436615,0.4144233465194702,2.6136558055877686,4.835455733328619,0.00011967758473474532,0.335276335477829,-1.5829618612872522,0.0,-0.017157135531306267,0.9080150127410889,0.0,-0.0018513700924813747,0.7931659817695618,0.01222240086644888,0.015125476755201817
886.0,845.0,2.5226,-0.0191,9.5862,-0.0194,0.117,-0.1139,-1.8140493832030238,-0.3199281692504883,2.831019163131714,-1.7466421127319336,0.42443352937698364,2.626467227935791,4.835479888110914,0.00015433947555720806,0.32394716143608093,-1.5829618612872522,0.0,-0.012876998633146286,0.908026933670044,0.0,-0.00043721473775804043,0.7933107614517212,0.008669561706483364,0.02116534113883972
886.0,845.0,2.5226,-0.0191,9.5862,-0.0194,0.117,-0.1139,-1.8166853390135707,-0.33009833097457886,2.8072524070739746,-1.7431552410125732,0.43213126063346863,2.543987274169922,4.835499751358785,0.00018117747094947845,0.3212631344795227,-1.58299428621401,0.0,-0.01133134588599205,0.9080114364624023,0.0,-0.01311146467924118,0.793293833732605,0.006308452691882849,0.0069974809885025024
886.0,845.0,2.5226,-0.0191,9.5862,-0.0194,0.117,-0.1139,-1.8194219074644984,-0.32380765676498413,2.8662004470825195,-1.7396074533462524,0.43667635321617126,2.6197171211242676,4.835491890996256,0.00013144050899427384,0.3253134489059448,-1.5829618612872522,0.0,-0.01743169128894806,0.9080429077148438,0.0,-8.864596020430326e-05,0.7933420538902283,0.0024165126960724592,-0.01459444873034954
886.0,845.0,2.5226,-0.0191,9.5862,-0.0194,0.117,-0.1139,-1.821940084496969,-0.32475730776786804,2.8703818321228027,-1.736104965209961,0.4470396935939789,2.582306146621704,4.835475671082296,0.00017839347128756344,0.31851282715797424,-1.5829861799823206,0.0,-0.013513386249542236,0.9080228805541992,0.0,-0.007421053946018219,0.7933703660964966,0.0010975043987855315,0.02530018612742424
886.0,845.0,2.5226,-0.0191,9.5862,-0.0194,0.117,-0.1139,-1.8244925938048304,-0.31838664412498474,2.861372709274292,-1.7325981855392456,0.4493827521800995,2.585024356842041,4.83545187392787,-7.302787707885727e-05,0.3221580386161804,-1.5829861799823206,0.0,-0.025419902056455612,0.9080068469047546,0.0,-4.717428237199783e-05,0.7933502197265625,0.0006815975648351014,0.029560349881649017
886.0,845.0,2.5226,-0.0191,9.5862,-0.0194,0.117,-0.1139,-1.8269835911192835,-0.31905001401901245,2.875825881958008,-1.728961706161499,0.4542359411716461,2.6394429206848145,4.835491890996256,-5.519847400137223e-05,0.32374534010887146,-1.5829499403582972,0.0,-0.016131676733493805,0.9079907536506653,0.0,-0.012660260312259197,0.7932934761047363,0.000432557484600693,-0.044201768934726715
886.0,845.0,2.5226,-0.0191,9.5862,-0.0194,0.117,-0.1139,-1.8300487003722132,-0.30921584367752075,2.877847194671631,-1.7244750261306763,0.46292030811309814,2.6167385578155518,4.835539641767301,-4.2243380448780954e-05,0.32330137491226196,-1.5829337278949183,0.0,-0.019501943141222,0.9080589413642883,0.0,-0.00685500493273139,0.7932976484298706,0.00017571896023582667,-0.029852718114852905
886.0,845.0,2.5226,-0.0191,9.5862,-0.0194,0.117,-0.1139,-1.8324634037413539,-0.30304819345474243,2.870487689971924,-1.7207363843917847,0.46152934432029724,2.5688958168029785,4.835447858064928,-0.00012283693649806082,0.32649287581443787,-1.5829580465899866,0.0,-0.009396012872457504,0.9080713391304016,0.0,-0.0009476029081270099,0.7933223247528076,4.0569571865489706e-05,0.026092253625392914
886.0,845.0,2.5226,-0.0191,9.5862,-0.0194,0.117,-0.1139,-1.8347703419127406,-0.2967167794704437,2.8847951889038086,-1.7170201539993286,0.45632749795913696,2.564608097076416,4.835471670120516,-0.0002746529062278569,0.31501346826553345,-1.5829499403582972,0.0,-0.018670769408345222,0.9080190658569336,0.0,-0.009173737838864326,0.7933261394500732,3.432318408158608e-05,0.02649066224694252
886.0,845.0,2.5226,-0.0191,9.5862,-0.0194,0.117,-0.1139,-1.8371697864928187,-0.2965252995491028,2.8719801902770996,-1.7133687734603882,0.4613317847251892,2.6087422370910645,4.835455688625135,-0.00015349028399214149,0.3074955940246582,-1.5829899946795862,0.0,-0.015545593574643135,0.9080511331558228,0.0,0.008323038928210735,0.7933542728424072,2.9780132535961457e-05,0.01249988004565239
903.0,863.0,2.0818,-0.5204,9.4427,-0.0145,0.2114,-0.1237,-1.839456697503561,-0.2790103852748871,2.9333462715148926,-1.7097090482711792,0.46105697751045227,2.5666451454162598,4.835479642241754,-0.0001539645018056035,0.3004918694496155,-1.582897965108053,0.0,-0.0009792809141799808,0.9080306887626648,0.0,-0.0004937254707328975,0.7932979464530945,8.19430200776905e-12,0.010227391496300697
