ramyac6/ROB537/final_project/csv/all/good_156.csv
tof_0,tof_1,accelx,accely,accelz,gyrox,gyroy,gyroz,shoulder_lift_joint_position,shoulder_lift_joint_velocity,shoulder_lift_joint_effort,elbow_joint_position,elbow_joint_velocity,elbow_joint_effort,wrist_1_joint_position,wrist_1_joint_velocity,wrist_1_joint_effort,wrist_2_joint_position,wrist_2_joint_velocity,wrist_2_joint_effort,wrist_3_joint_position,wrist_3_joint_velocity,wrist_3_joint_effort,shoulder_pan_joint_position,shoulder_pan_joint_velocity,shoulder_pan_joint_effort
551.0,346.0,4.5344,-0.274,7.9735,-0.0313,0.0205,-0.1197,-1.5592247650823374,0.0,2.0132107734680176,-1.2962347269058228,-0.0,2.1504883766174316,3.874215288753174,0.0,0.2947023808956146,-1.5831382910357874,-0.0,-0.00036464864388108253,0.853203535079956,-0.0,-0.011046377010643482,0.7787951827049255,0.0,-0.0036201532930135727
551.0,346.0,4.5344,-0.274,7.9735,-0.0313,0.0205,-0.1197,-1.5592045255801459,0.0,2.089445114135742,-1.2962712049484253,-0.0,2.160475969314575,3.8742596346088867,0.0,0.2876549959182739,-1.5831459204303187,-0.0,-0.013030478730797768,0.8532074689865112,-0.0,0.009408535435795784,0.7787749171257019,0.0,0.022376760840415955
551.0,346.0,4.5344,-0.274,7.9735,-0.0313,0.0205,-0.1197,-1.5592168134501954,0.0,2.0519509315490723,-1.2961747646331787,-0.0,2.136888027191162,3.8742596346088867,0.0,0.2891353368759155,-1.5831063429461878,-0.0,0.004754087887704372,0.8532314300537109,-0.0,-0.010378139093518257,0.7787543535232544,0.0,-0.011031795293092728
551.0,346.0,4.5344,-0.274,7.9735,-0.0313,0.0205,-0.1197,-1.5592329830727358,0.0,2.0616326332092285,-1.296238899230957,-0.0,2.12984037399292,3.874215288753174,0.0,0.293215811252594,-1.5831425825702112,-0.0,-0.0030023851431906223,0.8531313538551331,-0.0,-0.01151999644935131,0.7787546515464783,0.0,-0.00289839506149292
551.0,346.0,4.5344,-0.274,7.9735,-0.0313,0.0205,-0.1197,-1.5592086029103776,0.0,2.093337297439575,-1.2962108850479126,-0.0,2.105449914932251,3.874199076289795,0.0,0.2927849590778351,-1.5831545034991663,-0.0,-0.010879898443818092,0.8532875776290894,-0.0,-0.006672639865428209,0.7787829041481018,0.0,0.038954682648181915
551.0,346.0,4.5344,-0.274,7.9735,-0.0313,0.0205,-0.1197,-1.55922885358844,0.0,2.0688278675079346,-1.2961591482162476,-0.0,2.1438069343566895,3.874222441310547,0.0,0.282753586769104,-1.5831063429461878,-0.0,-0.011033102869987488,0.8532273769378662,-0.0,-0.006537831854075193,0.77872633934021,0.0,0.02051592990756035
551.0,346.0,4.5344,-0.274,7.9735,-0.0313,0.0205,-0.1197,-1.5592049009031435,0.0,2.080432891845703,-1.2962226867675781,-0.0,2.137110710144043,3.8742191034504394,0.0,0.3023070693016052,-1.5830939451800745,-0.0,0.0004487624391913414,0.8532273769378662,-0.0,-0.004271370358765125,0.7787184119224548,0.0,0.00677085667848587
551.0,346.0,4.5344,-0.274,7.9735,-0.0313,0.0205,-0.1197,-1.5592329830727358,0.0,2.0731048583984375,-1.2962671518325806,-0.0,2.095357894897461,3.874255343074463,0.0,0.29784491658210754,-1.583102051411764,-0.0,-0.0031938483007252216,0.8532716035842896,-0.0,-0.004092973656952381,0.778766930103302,0.0,-0.003802875056862831
557.0,376.0,4.3944,-0.3374,8.3294,-0.0307,0.0235,-0.1219,-1.5592008040151377,0.0,2.0472683906555176,-1.296215295791626,-0.0,2.0692453384399414,3.874206705684326,0.0,0.28826701641082764,-1.5831063429461878,-0.0,-0.0022954591549932957,0.8532554507255554,-0.0,0.005171948112547398,0.7788151502609253,0.0,0.034793101251125336
557.0,376.0,4.3944,-0.3374,8.3294,-0.0307,0.0235,-0.1219,-1.5592126839658995,0.0,2.030513048171997,-1.2962028980255127,-0.0,2.100543975830078,3.874215288753174,0.0,0.2960784435272217,-1.583158318196432,-0.0,-0.005043091252446175,0.8532276749610901,-0.0,0.003011680906638503,0.7787666916847229,0.0,0.0036656903102993965
557.0,376.0,4.3944,-0.3374,8.3294,-0.0307,0.0235,-0.1219,-1.5592085945284744,0.0,2.0625176429748535,-1.296263337135315,-0.0,2.1369681358337402,3.8742233949848632,0.0,0.2893822491168976,-1.5831425825702112,-0.0,-0.0034338468685746193,0.8532631397247314,-0.0,0.0013248149771243334,0.778782844543457,0.0,0.0016237958334386349
557.0,376.0,4.3944,-0.3374,8.3294,-0.0307,0.0235,-0.1219,-1.5592769740945478,0.0,2.0949413776397705,-1.2962428331375122,-0.0,2.120710849761963,3.8742305475422363,0.0,0.28723758459091187,-1.5831463972674769,-0.0,-0.005882090423256159,0.8532314896583557,-0.0,-0.013058238662779331,0.7788151502609253,0.0,0.013172457925975323
557.0,376.0,4.3944,-0.3374,8.3294,-0.0307,0.0235,-0.1219,-1.55922885358844,0.0,2.083798408508301,-1.2962186336517334,-0.0,2.1458334922790527,3.8742429453083496,0.0,0.29626715183258057,-1.583102051411764,-0.0,-0.0048571438528597355,0.8531793355941772,-0.0,0.00021916953846812248,0.778742790222168,0.0,0.004796623717993498
557.0,376.0,4.3944,-0.3374,8.3294,-0.0307,0.0235,-0.1219,-1.5592609925991674,0.0,2.061145305633545,-1.296167016029358,-0.0,2.135096311569214,3.874215288753174,0.0,0.28554660081863403,-1.583102051411764,-0.0,-0.010972149670124054,0.8531956672668457,-0.0,-0.0034639835357666016,0.7788151502609253,0.0,0.04777329042553902
557.0,376.0,4.3944,-0.3374,8.3294,-0.0307,0.0235,-0.1219,-1.559220634666719,0.0,2.0682764053344727,-1.2962028980255127,-0.0,2.123960018157959,3.874206705684326,0.0,0.29293400049209595,-1.5831463972674769,-0.0,-0.007397681009024382,0.8532395362854004,-0.0,0.0029449756257236004,0.7787907719612122,0.0,0.03336663544178009
557.0,376.0,4.3944,-0.3374,8.3294,-0.0307,0.0235,-0.1219,-1.5592126839658995,0.0,2.0610740184783936,-1.2962472438812256,-0.0,2.092423439025879,3.8742596346088867,0.0,0.28788524866104126,-1.5831025282489222,-0.0,0.007132315542548895,0.8531953692436218,-0.0,-0.009621022269129753,0.7787464261054993,0.0,0.009683816693723202
557.0,376.0,4.3944,-0.3374,8.3294,-0.0307,0.0235,-0.1219,-1.559220901956298,0.0,2.0945353507995605,-1.2961591482162476,-0.0,2.1108028888702393,3.8741909700581054,0.0,0.2918689250946045,-1.583102051411764,-0.0,-0.014674089848995209,0.8532630801200867,-0.0,-0.0011949484469369054,0.7788152098655701,0.0,0.010805887170135975
557.0,376.0,4.3944,-0.3374,8.3294,-0.0307,0.0235,-0.1219,-1.5591925850934167,0.0,2.05320405960083,-1.2962234020233154,-0.0,2.103661298751831,3.874262972468994,0.0,0.2977059781551361,-1.5831134955035608,-0.0,-0.008881069719791412,0.8532155156135559,-0.0,-0.018912212923169136,0.7787666916847229,0.0,0.023854557424783707
557.0,376.0,4.3944,-0.3374,8.3294,-0.0307,0.0235,-0.1219,-1.559220901956298,0.0,2.0758519172668457,-1.2962028980255127,-0.0,2.1240298748016357,3.8742710787006835,0.0,0.30069440603256226,-1.583085838948385,-0.0,-0.010220193304121494,0.8532427549362183,-0.0,-0.0006242120871320367,0.7787951827049255,0.0,0.025052327662706375
557.0,376.0,4.3944,-0.3374,8.3294,-0.0307,0.0235,-0.1219,-1.5592329830727358,0.0,2.085479497909546,-1.296151041984558,-0.0,2.157156229019165,3.874255343074463,0.0,0.2931813895702362,-1.5831063429461878,-0.0,-0.0018592318519949913,0.8532590270042419,-0.0,-0.0018700691871345043,0.7788193225860596,0.0,0.0037837745621800423
557.0,376.0,4.3944,-0.3374,8.3294,-0.0307,0.0235,-0.1219,-1.5592008040151377,0.0,2.0607781410217285,-1.296215295791626,-0.0,2.1601476669311523,3.874251528377197,0.0,0.29219067096710205,-1.5830939451800745,-0.0,0.0006453951937146485,0.8531914353370667,-0.0,0.0016753684030845761,0.7787749171257019,0.0,0.05440758913755417
557.0,376.0,4.3944,-0.3374,8.3294,-0.0307,0.0235,-0.1219,-1.5592569162002583,0.0,2.088663101196289,-1.2962307929992676,-0.0,2.1472878456115723,3.874194784755371,0.0,0.29549509286880493,-1.5831096808062952,-0.0,0.0021729511208832264,0.8532554507255554,-0.0,-0.011130044236779213,0.7788030505180359,0.0,0.013551264069974422
557.0,376.0,4.3944,-0.3374,8.3294,-0.0307,0.0235,-0.1219,-1.5591722850552578,0.0,2.106583595275879,-1.2962274551391602,-0.0,2.1181392669677734,3.874194784755371,0.0,0.301458477973938,-1.5830982367144983,-0.0,0.004395614378154278,0.8531994819641113,-0.0,0.0038991400506347418,0.7787787318229675,0.0,0.05056433752179146
557.0,376.0,4.3944,-0.3374,8.3294,-0.0307,0.0235,-0.1219,-1.5591925850934167,0.0,2.067542314529419,-1.296198844909668,-0.0,2.128247022628784,3.87421099721875,0.0,0.2946917712688446,-1.5831502119647425,-0.0,-0.005094229243695736,0.853246808052063,-0.0,0.0041962857358157635,0.7787505388259888,0.0,-0.03546997904777527
8190.0,393.0,4.4435,-0.32,8.1631,-0.0376,0.0125,-0.1179,-1.55922885358844,0.0,2.055074691772461,-1.2962307929992676,-0.0,2.112403631210327,3.8741909700581054,0.0,0.2962178885936737,-1.5831463972674769,-0.0,0.007090832106769085,0.853246808052063,-0.0,0.002568037249147892,0.7787546515464783,0.0,0.005530169233679771
8190.0,393.0,4.4435,-0.32,8.1631,-0.0376,0.0125,-0.1179,-1.5592008040151377,0.0,2.089937210083008,-1.296238899230957,-0.0,2.098989963531494,3.8742357927509765,0.0,0.2857632040977478,-1.5831502119647425,-0.0,-0.0028710607439279556,0.8532074689865112,-0.0,-0.007625027559697628,0.7787831425666809,0.0,-0.025982413440942764
8190.0,393.0,4.4435,-0.32,8.1631,-0.0376,0.0125,-0.1179,-1.559240774517395,0.0,2.0729732513427734,-1.2962348461151123,-0.0,2.1273488998413086,3.874239130611084,0.0,0.29298368096351624,-1.5831106344806116,-0.0,-0.006484895944595337,0.8532110452651978,-0.0,0.0019913464784622192,0.7787183523178101,0.0,0.01235014759004116
8190.0,393.0,4.4435,-0.32,8.1631,-0.0376,0.0125,-0.1179,-1.5592448630234976,0.0,2.0595967769622803,-1.2962348461151123,-0.0,2.1098480224609375,3.8742028909870605,0.0,0.30607688426971436,-1.5831382910357874,-0.0,-0.011908481828868389,0.8531875610351562,-0.0,-0.01505078561604023,0.778782844543457,0.0,-0.020656175911426544
8190.0,393.0,4.4435,-0.32,8.1631,-0.0376,0.0125,-0.1179,-1.5591684638387342,0.0,2.0562491416931152,-1.296215295791626,-0.0,2.132866859436035,3.87423483907666,0.0,0.29276376962661743,-1.5831220785724085,-0.0,-0.0100245987996459,0.853179395198822,-0.0,-0.008265082724392414,0.7788234353065491,0.0,-0.013154525309801102
8190.0,393.0,4.4435,-0.32,8.1631,-0.0376,0.0125,-0.1179,-1.559237072510161,0.0,2.087977409362793,-1.2962632179260254,-0.0,2.1784825325012207,3.874194784755371,0.0,0.29479172825813293,-1.5830939451800745,-0.0,-0.00410887785255909,0.8531671762466431,-0.0,-0.014225145801901817,0.7787708044052124,0.0,-0.005190041847527027
8190.0,393.0,4.4435,-0.32,8.1631,-0.0376,0.0125,-0.1179,-1.5592168134501954,0.0,2.087956666946411,-1.2961909770965576,-0.0,2.0966038703918457,3.8742710787006835,0.0,0.28134652972221375,-1.5831344763385218,-0.0,-0.011421240866184235,0.8532716035842896,-0.0,-0.0016418222803622484,0.7787869572639465,0.0,-0.014885351993143559
8190.0,393.0,4.4435,-0.32,8.1631,-0.0376,0.0125,-0.1179,-1.5591764154708763,0.0,2.0487213134765625,-1.296295404434204,-0.0,2.1477649211883545,3.8742233949848632,0.0,0.2844299376010895,-1.5831502119647425,-0.0,-0.00753126572817564,0.8531756401062012,-0.0,-0.003334150882437825,0.7787666916847229,0.0,-0.020595652982592583
8190.0,393.0,4.4435,-0.32,8.1631,-0.0376,0.0125,-0.1179,-1.5592048925212403,0.0,2.1116316318511963,-1.296215295791626,-0.0,2.072037935256958,3.8742305475422363,0.0,0.28467053174972534,-1.5831502119647425,-0.0,-0.004872062709182501,0.8532388210296631,-0.0,-0.0028059363830834627,0.7787749171257019,0.0,-0.03831407055258751
8190.0,393.0,4.4435,-0.32,8.1631,-0.0376,0.0125,-0.1179,-1.5592044650441785,0.0,2.055708408355713,-1.2962348461151123,-0.0,2.122317314147949,3.8742710787006835,0.0,0.2895519435405731,-1.5830939451800745,-0.0,0.0004301323788240552,0.853246808052063,-0.0,0.0010731476359069347,0.7787869572639465,0.0,-0.02357221022248268
8190.0,393.0,4.4435,-0.32,8.1631,-0.0376,0.0125,-0.1179,-1.5592126839658995,0.0,2.071810722351074,-1.296215295791626,-0.0,2.1034791469573975,3.8742305475422363,0.0,0.2906762957572937,-1.5831344763385218,-0.0,-0.016932187601923943,0.8532273769378662,-0.0,-0.011347097344696522,0.778791069984436,0.0,-0.009994623251259327
8190.0,393.0,4.4435,-0.32,8.1631,-0.0376,0.0125,-0.1179,-1.5592412019944568,0.0,2.056232213973999,-1.2962307929992676,-0.0,2.1176788806915283,3.8742191034504394,0.0,0.29750317335128784,-1.5831344763385218,-0.0,-0.009519265964627266,0.8532195091247559,-0.0,-0.011765527538955212,0.778782844543457,0.0,0.006338357925415039
8190.0,393.0,4.4435,-0.32,8.1631,-0.0376,0.0125,-0.1179,-1.5592366450330992,0.0,2.047849655151367,-1.2962428331375122,-0.0,2.1391263008117676,3.874267740840576,0.0,0.2828849256038666,-1.5831502119647425,-0.0,-0.012733863666653633,0.8531514406204224,-0.0,-0.00549836503341794,0.7787790298461914,0.0,-0.008019176311790943
8190.0,393.0,4.4435,-0.32,8.1631,-0.0376,0.0125,-0.1179,-1.5592528146556397,0.0,2.0896453857421875,-1.2962028980255127,-0.0,2.109679937362671,3.874182863826416,0.0,0.2902081608772278,-1.583130184804098,-0.0,0.00316756428219378,0.853246808052063,-0.0,-0.005966860800981522,0.7788152098655701,0.0,0.06134355068206787
8190.0,393.0,4.4435,-0.32,8.1631,-0.0376,0.0125,-0.1179,-1.5592329830727358,0.0,2.0632951259613037,-1.2961829900741577,-0.0,2.170285940170288,3.874194784755371,0.0,0.2946367859840393,-1.5831344763385218,-0.0,-0.012267421931028366,0.8531994223594666,-0.0,-0.005493813659995794,0.7788031697273254,0.0,0.01061355508863926
536.0,360.0,4.4788,-0.332,8.0842,-0.0345,0.0231,-0.1211,-1.5592329830727358,0.0,2.0430197715759277,-1.2962193489074707,-0.0,2.0844099521636963,3.874255343074463,0.0,0.2924375832080841,-1.583085838948385,-0.0,-0.00165123725309968,0.8532554507255554,-0.0,-0.016036678105592728,0.7788270711898804,0.0,-0.02236100286245346
536.0,360.0,4.4788,-0.332,8.0842,-0.0345,0.0231,-0.1211,-1.559200376538076,0.0,2.0727832317352295,-1.296198844909668,-0.0,2.1100869178771973,3.874255343074463,0.0,0.2889268100261688,-1.5831344763385218,-0.0,-0.001866369042545557,0.8532508611679077,-0.0,-0.013826966285705566,0.778782844543457,0.0,0.01410676259547472
536.0,360.0,4.4788,-0.332,8.0842,-0.0345,0.0231,-0.1211,-1.5592329830727358,0.0,2.104771137237549,-1.2961430549621582,-0.0,2.126673936843872,3.874239130611084,0.0,0.28989309072494507,-1.5831382910357874,-0.0,0.004139439202845097,0.8531994819641113,-0.0,0.0037891084793955088,0.778750479221344,0.0,0.028687549754977226
536.0,360.0,4.4788,-0.332,8.0842,-0.0345,0.0231,-0.1211,-1.5592250323719163,0.0,2.1056501865386963,-1.2962313890457153,-0.0,2.0940675735473633,3.8742596346088867,0.0,0.28831660747528076,-1.5831382910357874,-0.0,-0.005354623310267925,0.8531834483146667,-0.0,-0.0032692437525838614,0.778782844543457,0.0,-0.031318727880716324
536.0,360.0,4.4788,-0.332,8.0842,-0.0345,0.0231,-0.1211,-1.5592329830727358,0.0,2.0722155570983887,-1.2962512969970703,-0.0,2.1216025352478027,3.874178572291992,0.0,0.2914322018623352,-1.583130184804098,-0.0,-0.003130684606730938,0.8531954288482666,-0.0,0.0002565204631537199,0.7787870168685913,0.0,-0.0010533512104302645
536.0,360.0,4.4788,-0.332,8.0842,-0.0345,0.0231,-0.1211,-1.559220901956298,0.0,2.089285373687744,-1.2961751222610474,-0.0,2.126887083053589,3.8741866785236816,0.0,0.287965327501297,-1.5830982367144983,-0.0,-0.012326721101999283,0.8532468676567078,-0.0,-0.015126471407711506,0.7788072228431702,0.0,0.016409672796726227
536.0,360.0,4.4788,-0.332,8.0842,-0.0345,0.0231,-0.1211,-1.5592610335773607,0.0,2.0756402015686035,-1.2962110042572021,-0.0,2.162874698638916,3.874215288753174,0.0,0.290158212184906,-1.5831134955035608,-0.0,-0.003618420334532857,0.8532074689865112,-0.0,-0.0006163365324027836,0.7787990570068359,0.0,0.014542888849973679
536.0,360.0,4.4788,-0.332,8.0842,-0.0345,0.0231,-0.1211,-1.5592811724967142,0.0,2.134275436401367,-1.2962234020233154,-0.0,2.114964246749878,3.874215288753174,0.0,0.2748950123786926,-1.5831344763385218,-0.0,0.004222736228257418,0.8532235622406006,-0.0,-0.0019756166730076075,0.7787749171257019,0.0,0.012079211883246899
536.0,360.0,4.4788,-0.332,8.0842,-0.0345,0.0231,-0.1211,-1.5592448630234976,0.0,2.0528159141540527,-1.2962267398834229,-0.0,2.115424156188965,3.8742667871662597,0.0,0.2969779074192047,-1.583130184804098,-0.0,0.0036047266330569983,0.8531954288482666,-0.0,-0.0026452732272446156,0.7787666916847229,0.0,-0.008161257952451706
536.0,360.0,4.4788,-0.332,8.0842,-0.0345,0.0231,-0.1211,-1.559240774517395,0.0,2.073248863220215,-1.2962512969970703,-0.0,2.1256847381591797,3.874262972468994,0.0,0.28921476006507874,-1.5831463972674769,-0.0,-0.011064902879297733,0.8531875610351562,-0.0,-0.018962722271680832,0.7788393497467041,0.0,0.02607680857181549
536.0,360.0,4.4788,-0.332,8.0842,-0.0345,0.0231,-0.1211,-1.5592168134501954,0.0,2.0744290351867676,-1.296255111694336,-0.0,2.133615016937256,3.8742305475422363,0.0,0.29259830713272095,-1.5831258932696741,-0.0,-0.010958993807435036,0.8532634377479553,-0.0,-0.0016846377402544022,0.7787745594978333,0.0,0.03210705146193504
536.0,360.0,4.4788,-0.332,8.0842,-0.0345,0.0231,-0.1211,-1.559220634666719,0.0,2.051326274871826,-1.2962193489074707,-0.0,2.1176841259002686,3.8742877680012207,0.0,0.28959059715270996,-1.5831177870379847,-0.0,-0.0018502024468034506,0.8532116413116455,-0.0,-0.004327177070081234,0.7788233757019043,0.0,-0.0021891831420361996
536.0,360.0,4.4788,-0.332,8.0842,-0.0345,0.0231,-0.1211,-1.5592044650441785,0.0,2.108325958251953,-1.2962632179260254,-0.0,2.1194307804107666,3.874239130611084,0.0,0.2919345498085022,-1.5831258932696741,-0.0,-0.00690633337944746,0.8531712889671326,-0.0,-0.0024606871884316206,0.7787787318229675,0.0,-0.056912098079919815
536.0,360.0,4.4788,-0.332,8.0842,-0.0345,0.0231,-0.1211,-1.5591681965491553,0.0,2.0829787254333496,-1.2962226867675781,-0.0,2.158616542816162,3.874199076289795,0.0,0.2980262339115143,-1.5831134955035608,-0.0,-0.010365640744566917,0.8532634377479553,-0.0,0.008775321766734123,0.778782844543457,0.0,0.0742705687880516
536.0,360.0,4.4788,-0.332,8.0842,-0.0345,0.0231,-0.1211,-1.5592247650823374,0.0,2.0834031105041504,-1.296246886253357,-0.0,2.1156563758850098,3.874199076289795,0.0,0.29048967361450195,-1.5831063429461878,-0.0,-0.0026655951514840126,0.8532634377479553,-0.0,0.0030830861069262028,0.7787787318229675,0.0,-0.018794868141412735
581.0,364.0,4.3567,-0.3559,8.406,-0.0367,0.0217,-0.1173,-1.559248993439116,0.0,2.0952134132385254,-1.2962234020233154,-0.0,2.1370997428894043,3.8741952615925292,0.0,0.29263725876808167,-1.5831134955035608,-0.0,-0.008166766725480556,0.8532116413116455,-0.0,-0.011352241039276123,0.7788152098655701,0.0,-0.03657883405685425
581.0,364.0,4.3567,-0.3559,8.406,-0.0367,0.0217,-0.1173,-1.5592329830727358,0.0,2.088026523590088,-1.2962110042572021,-0.0,2.1136465072631836,3.8742305475422363,0.0,0.2909338176250458,-1.5831134955035608,-0.0,0.0032171369530260563,0.8532426953315735,-0.0,0.006278879474848509,0.7787869572639465,0.0,0.025389516726136208
581.0,364.0,4.3567,-0.3559,8.406,-0.0367,0.0217,-0.1173,-1.5592044650441785,0.0,2.069685220718384,-1.2962429523468018,-0.0,2.1748876571655273,3.8742305475422363,0.0,0.2806507647037506,-1.5830777327166956,-0.0,-0.014490602537989616,0.8531875610351562,-0.0,0.0075364429503679276,0.7788031697273254,0.0,0.016993515193462372
581.0,364.0,4.3567,-0.3559,8.406,-0.0367,0.0217,-0.1173,-1.5592366450330992,0.0,2.066617012023926,-1.2962193489074707,-0.0,2.068143367767334,3.8742191034504394,0.0,0.28630149364471436,-1.5831344763385218,-0.0,-0.006720225792378187,0.8531954288482666,-0.0,-0.009685184806585312,0.778791069984436,0.0,-0.04205026477575302
581.0,364.0,4.3567,-0.3559,8.406,-0.0367,0.0217,-0.1173,-1.5591966735995193,0.0,2.0680267810821533,-1.2961629629135132,-0.0,2.1172733306884766,3.8742191034504394,0.0,0.29746609926223755,-1.5831258932696741,-0.0,-0.00590940285474062,0.8532074689865112,-0.0,-0.011643800884485245,0.7787911295890808,0.0,0.0013136686757206917
581.0,364.0,4.3567,-0.3559,8.406,-0.0367,0.0217,-0.1173,-1.5592610093629737,0.0,2.0723347663879395,-1.2962069511413574,-0.0,2.129693031311035,3.8742028909870605,0.0,0.2918679714202881,-1.5831134955035608,-0.0,-0.012204880826175213,0.8531631827354431,-0.0,-0.00447999918833375,0.7787911295890808,0.0,0.05120249092578888
581.0,364.0,4.3567,-0.3559,8.406,-0.0367,0.0217,-0.1173,-1.5592048925212403,0.0,2.0504631996154785,-1.2962713241577148,-0.0,2.117540121078491,3.874206705684326,0.0,0.29544878005981445,-1.583142105733053,-0.0,-0.016548363491892815,0.8532035946846008,-0.0,-0.006552559323608875,0.7787386775016785,0.0,0.002495325170457363
581.0,364.0,4.3567,-0.3559,8.406,-0.0367,0.0217,-0.1173,-1.5592168134501954,0.0,2.054640054702759,-1.2962315082550049,-0.0,2.178375244140625,3.8741866785236816,0.0,0.3020661771297455,-1.5831177870379847,-0.0,-0.006025765091180801,0.8532074689865112,-0.0,0.003105741459876299,0.7787790298461914,0.0,0.0010080509819090366
581.0,364.0,4.3567,-0.3559,8.406,-0.0367,0.0217,-0.1173,-1.55922885358844,0.0,2.058894634246826,-1.2962193489074707,-0.0,2.1058926582336426,3.8742028909870605,0.0,0.29288557171821594,-1.583142105733053,-0.0,0.0058743031695485115,0.8532354831695557,-0.0,-0.007080872543156147,0.778791069984436,0.0,-0.009943526238203049
581.0,364.0,4.3567,-0.3559,8.406,-0.0367,0.0217,-0.1173,-1.5592811724967142,0.0,2.046538829803467,-1.2962031364440918,-0.0,2.1122875213623047,3.8742233949848632,0.0,0.29266414046287537,-1.5831258932696741,-0.0,-0.0028013447299599648,0.8532154560089111,-0.0,-0.004257344175130129,0.7787989974021912,0.0,-0.03989825025200844
581.0,364.0,4.3567,-0.3559,8.406,-0.0367,0.0217,-0.1173,-1.5592366571402927,0.0,2.083357334136963,-1.2961909770965576,-0.0,2.117626667022705,3.8742710787006835,0.0,0.2900485396385193,-1.583102051411764,-0.0,-0.01727116107940674,0.8531956672668457,-0.0,-0.014426280744373798,0.7787306308746338,0.0,-0.00576538173481822
581.0,364.0,4.3567,-0.3559,8.406,-0.0367,0.0217,-0.1173,-1.5592530819452186,0.0,2.035902976989746,-1.296246886253357,-0.0,2.1509666442871094,3.874251528377197,0.0,0.2817382216453552,-1.5831177870379847,-0.0,-0.005323573015630245,0.8532314300537109,-0.0,-0.0008123422740027308,0.7788193225860596,0.0,-0.0005279695615172386
581.0,364.0,4.3567,-0.3559,8.406,-0.0367,0.0217,-0.1173,-1.559240774517395,0.0,2.0470821857452393,-1.2962071895599365,-0.0,2.084885597229004,3.874206705684326,0.0,0.29223230481147766,-1.583085838948385,-0.0,-0.001999553292989731,0.8532273769378662,-0.0,-0.0025041205808520317,0.7787505388259888,0.0,0.01094144582748413
581.0,364.0,4.3567,-0.3559,8.406,-0.0367,0.0217,-0.1173,-1.5592770430124183,0.0,2.0620646476745605,-1.2962193489074707,-0.0,2.1149039268493652,3.8742710787006835,0.0,0.29390785098075867,-1.583130184804098,-0.0,0.006035489030182362,0.8531873226165771,-0.0,-0.006988647393882275,0.7787307500839233,0.0,-0.02804757095873356
581.0,364.0,4.3567,-0.3559,8.406,-0.0367,0.0217,-0.1173,-1.5592126839658995,0.0,2.090392589569092,-1.296255350112915,-0.0,2.1177878379821777,3.8742429453083496,0.0,0.30108940601348877,-1.5831502119647425,-0.0,-0.008408945053815842,0.8531873226165771,-0.0,-0.005108029581606388,0.7787951827049255,0.0,0.007557753007858992
581.0,364.0,4.3567,-0.3559,8.406,-0.0367,0.0217,-0.1173,-1.5591885031065722,0.0,2.0830907821655273,-1.2962348461151123,-0.0,2.127399444580078,3.8742429453083496,0.0,0.28884291648864746,-1.5831177870379847,-0.0,0.0045726303942501545,0.8532630801200867,-0.0,0.009615801274776459,0.778791069984436,0.0,0.03314114734530449
563.0,356.0,4.4728,-0.3296,8.0818,-0.0354,0.0246,-0.1118,-1.5592489766753097,0.0,2.047394275665283,-1.296246886253357,-0.0,2.149810314178467,3.8742028909870605,0.0,0.30243244767189026,-1.583102051411764,-0.0,0.0017780456691980362,0.8532314300537109,-0.0,-0.00026243150932714343,0.7786938548088074,0.0,-0.0315537303686142
563.0,356.0,4.4728,-0.3296,8.0818,-0.0354,0.0246,-0.1118,-1.55922885358844,0.0,2.046649932861328,-1.2962267398834229,-0.0,2.1218841075897217,3.874215288753174,0.0,0.277614027261734,-1.5831177870379847,-0.0,0.004350846633315086,0.8532354831695557,-0.0,-0.0038978043012320995,0.7787546515464783,0.0,0.02525106817483902
563.0,356.0,4.4728,-0.3296,8.0818,-0.0354,0.0246,-0.1118,-1.5592086187428613,0.0,2.034217357635498,-1.2962794303894043,-0.0,2.116765260696411,3.8741909700581054,0.0,0.298017293214798,-1.5831258932696741,-0.0,-0.01137686800211668,0.8532508015632629,-0.0,-0.006591598968952894,0.7787705063819885,0.0,-0.0020690355449914932
563.0,356.0,4.4728,-0.3296,8.0818,-0.0354,0.0246,-0.1118,-1.559212696073093,0.0,2.0928497314453125,-1.2962234020233154,-0.0,2.114333152770996,3.8742586809345703,0.0,0.29256758093833923,-1.583130184804098,-0.0,-0.0066062891855835915,0.8532508015632629,-0.0,-0.008590197190642357,0.7787708044052124,0.0,-0.023344997316598892
563.0,356.0,4.4728,-0.3296,8.0818,-0.0354,0.0246,-0.1118,-1.559248969224729,0.0,2.0491244792938232,-1.2962234020233154,-0.0,2.1329345703125,3.8742472368427734,0.0,0.29099705815315247,-1.5831783453570765,-0.0,0.0021670758724212646,0.8532548546791077,-0.0,-0.008342213928699493,0.7787625789642334,0.0,-0.0250859335064888
563.0,356.0,4.4728,-0.3296,8.0818,-0.0354,0.0246,-0.1118,-1.559204501365759,0.0,2.038837432861328,-1.2962234020233154,-0.0,2.096508502960205,3.8742472368427734,0.0,0.290708065032959,-1.5830939451800745,-0.0,-0.005381880793720484,0.8532235622406006,-0.0,0.0012617707252502441,0.7787545919418335,0.0,-0.013439496979117393
563.0,356.0,4.4728,-0.3296,8.0818,-0.0354,0.0246,-0.1118,-1.55922885358844,0.0,2.059049606323242,-1.2962234020233154,-0.0,2.109622001647949,3.874222441310547,0.0,0.2954249978065491,-1.5831502119647425,-0.0,-0.001010621665045619,0.8532314300537109,-0.0,-0.006580038461834192,0.7787628173828125,0.0,0.0013201723340898752
563.0,356.0,4.4728,-0.3296,8.0818,-0.0354,0.0246,-0.1118,-1.5591887350058933,0.0,2.0607614517211914,-1.2962112426757812,-0.0,2.1321048736572266,3.8742315012165527,0.0,0.30157470703125,-1.5831459204303187,-0.0,0.008866655640304089,0.853203535079956,-0.0,-0.001837418181821704,0.7787708044052124,0.0,0.005927663296461105
563.0,356.0,4.4728,-0.3296,8.0818,-0.0354,0.0246,-0.1118,-1.5592528146556397,0.0,2.084597587585449,-1.2962672710418701,-0.0,2.1211700439453125,3.87421099721875,0.0,0.29014983773231506,-1.5831664244281214,-0.0,-0.012431256473064423,0.8531794548034668,-0.0,-0.00770557951182127,0.7787666916847229,0.0,-0.022639110684394836
563.0,356.0,4.4728,-0.3296,8.0818,-0.0354,0.0246,-0.1118,-1.5592086187428613,0.0,2.0425915718078613,-1.2962226867675781,-0.0,2.1020002365112305,3.8742596346088867,0.0,0.2848169207572937,-1.5831344763385218,-0.0,-0.008706665597856045,0.8532508015632629,-0.0,-0.006840780843049288,0.7787869572639465,0.0,-0.003651537001132965
563.0,356.0,4.4728,-0.3296,8.0818,-0.0354,0.0246,-0.1118,-1.5592329709655424,0.0,2.07039213180542,-1.2961947917938232,-0.0,2.1249446868896484,3.874239130611084,0.0,0.2945808172225952,-1.5831177870379847,-0.0,0.0017887568101286888,0.8531875610351562,-0.0,-0.0021257917396724224,0.7788352966308594,0.0,-0.008544908836483955
563.0,356.0,4.4728,-0.3296,8.0818,-0.0354,0.0246,-0.1118,-1.5591685001603146,0.0,2.005230665206909,-1.2962112426757812,-0.0,2.154050827026367,3.8742233949848632,0.0,0.28711795806884766,-1.5831344763385218,-0.0,-0.0207907035946846,0.8531675338745117,-0.0,0.0006901414599269629,0.7788150906562805,0.0,-0.0014160741120576859
563.0,356.0,4.4728,-0.3296,8.0818,-0.0354,0.0246,-0.1118,-1.559236636651196,0.0,2.040851354598999,-1.2962071895599365,-0.0,2.1393394470214844,3.874251528377197,0.0,0.2929611802101135,-1.5831177870379847,-0.0,-0.004302226938307285,0.8532114028930664,-0.0,-0.0030088515486568213,0.7787708044052124,0.0,0.010630439035594463
563.0,356.0,4.4728,-0.3296,8.0818,-0.0354,0.0246,-0.1118,-1.559240774517395,0.0,2.094866991043091,-1.2962112426757812,-0.0,2.1014089584350586,3.8741866785236816,0.0,0.2922855615615845,-1.5830815474139612,-0.0,-0.0037960298359394073,0.8531994819641113,-0.0,-0.019786087796092033,0.7788352370262146,0.0,-0.019163701683282852
563.0,356.0,4.4728,-0.3296,8.0818,-0.0354,0.0246,-0.1118,-1.5592086187428613,0.0,2.122802257537842,-1.2962274551391602,-0.0,2.126436710357666,3.87423483907666,0.0,0.2836718261241913,-1.5830982367144983,-0.0,-0.010764634236693382,0.8532314300537109,-0.0,-0.007056891918182373,0.7787386775016785,0.0,0.016630295664072037
552.0,388.0,4.5458,-0.277,7.9914,-0.0406,0.0283,-0.1213,-1.5592247762582083,0.0,2.0459048748016357,-1.296215295791626,-0.0,2.0934672355651855,3.87423483907666,0.0,0.2851440906524658,-1.5831177870379847,-0.0,-0.007022282108664513,0.8532395362854004,-0.0,-0.011428454890847206,0.7787989974021912,0.0,0.009314698167145252
552.0,388.0,4.5458,-0.277,7.9914,-0.0406,0.0283,-0.1213,-1.5592448630234976,0.0,2.0863101482391357,-1.2962348461151123,-0.0,2.119013547897339,3.8742429453083496,0.0,0.28571054339408875,-1.5831344763385218,-0.0,-0.005363787990063429,0.8531875610351562,-0.0,0.0017837139312177896,0.7787708044052124,0.0,0.008347192779183388
552.0,388.0,4.5458,-0.277,7.9914,-0.0406,0.0283,-0.1213,-1.5592528146556397,0.0,2.1084203720092773,-1.296186923980713,-0.0,2.1092119216918945,3.874215288753174,0.0,0.29368799924850464,-1.5831425825702112,-0.0,-0.0037185605615377426,0.8532435297966003,-0.0,-0.006186327897012234,0.7788031101226807,0.0,0.007255983538925648
552.0,388.0,4.5458,-0.277,7.9914,-0.0406,0.0283,-0.1213,-1.559248993439116,0.0,2.0586984157562256,-1.2962307929992676,-0.0,2.113682746887207,3.8742305475422363,0.0,0.2854560315608978,-1.5831502119647425,-0.0,-0.006324063986539841,0.8532467484474182,-0.0,0.004630016162991524,0.7787505984306335,0.0,-0.027829041704535484
552.0,388.0,4.5458,-0.277,7.9914,-0.0406,0.0283,-0.1213,-1.5592651267400761,0.0,2.050360679626465,-1.2961591482162476,-0.0,2.1647090911865234,3.874215288753174,0.0,0.2926042973995209,-1.5831177870379847,-0.0,-0.011554728262126446,0.8532075881958008,-0.0,-0.0014655736740678549,0.7788192629814148,0.0,0.013310790061950684
552.0,388.0,4.5458,-0.277,7.9914,-0.0406,0.0283,-0.1213,-1.5592168134501954,0.0,2.044524908065796,-1.2962274551391602,-0.0,2.1220784187316895,3.8742472368427734,0.0,0.29119932651519775,-1.5831502119647425,-0.0,-0.007600946351885796,0.8531954288482666,-0.0,0.0005176712293177843,0.778791069984436,0.0,-0.006896303500980139
552.0,388.0,4.5458,-0.277,7.9914,-0.0406,0.0283,-0.1213,-1.5592164884186168,0.0,2.084440231323242,-1.2962234020233154,-0.0,2.129364490509033,3.87421099721875,0.0,0.29972872138023376,-1.5831344763385218,-0.0,-0.008948499336838722,0.853203535079956,-0.0,-0.001422665547579527,0.7787667512893677,0.0,-0.05275999754667282
552.0,388.0,4.5458,-0.277,7.9914,-0.0406,0.0283,-0.1213,-1.559220890780427,0.0,2.072848320007324,-1.2962307929992676,-0.0,2.153634548187256,3.87421099721875,0.0,0.291246622800827,-1.5831177870379847,-0.0,-0.00838418211787939,0.8531994819641113,-0.0,-0.005495213437825441,0.7787587642669678,0.0,-0.033695340156555176
552.0,388.0,4.5458,-0.277,7.9914,-0.0406,0.0283,-0.1213,-1.5592168134501954,0.0,2.0639379024505615,-1.296215295791626,-0.0,2.1365292072296143,3.8742667871662597,0.0,0.28393492102622986,-1.5831220785724085,-0.0,-0.012962394393980503,0.8532114028930664,-0.0,-0.006258820183575153,0.778782844543457,0.0,0.01032453216612339
552.0,388.0,4.5458,-0.277,7.9914,-0.0406,0.0283,-0.1213,-1.5592651351219793,0.0,2.0661373138427734,-1.2961828708648682,-0.0,2.159515380859375,3.87423483907666,0.0,0.2922416925430298,-1.5831134955035608,-0.0,-0.010434319265186787,0.8532314300537109,-0.0,0.008711984381079674,0.7787787318229675,0.0,0.018020465970039368
552.0,388.0,4.5458,-0.277,7.9914,-0.0406,0.0283,-0.1213,-1.5591846576756616,0.0,2.0936903953552246,-1.2962472438812256,-0.0,2.1004505157470703,3.8742429453083496,0.0,0.3013448119163513,-1.583130184804098,-0.0,-0.015365156345069408,0.8532314300537109,-0.0,-0.009783575311303139,0.7787708044052124,0.0,-0.009027017280459404
552.0,388.0,4.5458,-0.277,7.9914,-0.0406,0.0283,-0.1213,-1.559212696073093,0.0,2.1028361320495605,-1.2962193489074707,-0.0,2.1456010341644287,3.874251528377197,0.0,0.28511345386505127,-1.5830982367144983,-0.0,-0.01889166608452797,0.8531437516212463,-0.0,0.004875876009464264,0.7787989974021912,0.0,0.0037938514724373817
552.0,388.0,4.5458,-0.277,7.9914,-0.0406,0.0283,-0.1213,-1.5591805039769788,0.0,2.090758800506592,-1.296198844909668,-0.0,2.098041534423828,3.8742429453083496,0.0,0.2912845313549042,-1.5831258932696741,-0.0,-0.0028002853505313396,0.853203535079956,-0.0,-0.0020786046516150236,0.7787543535232544,0.0,-0.010973142459988594
552.0,388.0,4.5458,-0.277,7.9914,-0.0406,0.0283,-0.1213,-1.559204501365759,0.0,2.0570101737976074,-1.296238899230957,-0.0,2.102400779724121,3.87423483907666,0.0,0.28851738572120667,-1.5830982367144983,-0.0,0.0018336446955800056,0.8532114028930664,-0.0,-0.0035806677769869566,0.7787869572639465,0.0,0.018063336610794067
552.0,388.0,4.5458,-0.277,7.9914,-0.0406,0.0283,-0.1213,-1.559248969224729,0.0,2.024415969848633,-1.2962069511413574,-0.0,2.1134729385375977,3.874178572291992,0.0,0.2866208553314209,-1.5830939451800745,-0.0,0.0006689283763989806,0.8531875610351562,-0.0,0.006711095571517944,0.7788031101226807,0.0,-0.002147629391402006
562.0,379.0,4.4321,-0.3224,8.1882,-0.0354,0.0232,-0.1205,-1.559204501365759,0.0,2.0915260314941406,-1.2962112426757812,-0.0,2.131700038909912,3.874251528377197,0.0,0.29318591952323914,-1.5831096808062952,-0.0,-0.00201667589135468,0.8532508015632629,-0.0,-0.0029305738862603903,0.7787666916847229,0.0,0.0638546273112297
562.0,379.0,4.4321,-0.3224,8.1882,-0.0354,0.0232,-0.1205,-1.5592530819452186,0.0,2.0730972290039062,-1.2962348461151123,-0.0,2.1341142654418945,3.87421099721875,0.0,0.292023241519928,-1.5831382910357874,-0.0,0.003758463077247143,0.8532314300537109,-0.0,-0.0021267924457788467,0.7788270115852356,0.0,-0.002833899110555649
562.0,379.0,4.4321,-0.3224,8.1882,-0.0354,0.0232,-0.1205,-1.5592448267019172,0.0,2.0951921939849854,-1.2962307929992676,-0.0,2.167745351791382,3.8742233949848632,0.0,0.2935706675052643,-1.5831344763385218,-0.0,-0.008657528087496758,0.8532673716545105,-0.0,0.0062613883055746555,0.7788031101226807,0.0,-0.016151202842593193
562.0,379.0,4.4321,-0.3224,8.1882,-0.0354,0.0232,-0.1205,-1.5592086187428613,0.0,2.1173882484436035,-1.296215295791626,-0.0,2.0926058292388916,3.8742028909870605,0.0,0.29688555002212524,-1.5831220785724085,-0.0,-0.0036835111677646637,0.8532673716545105,-0.0,0.005097075365483761,0.7787869572639465,0.0,-0.005786187946796417
562.0,379.0,4.4321,-0.3224,8.1882,-0.0354,0.0232,-0.1205,-1.55922885358844,0.0,2.041062116622925,-1.2962307929992676,-0.0,2.1192169189453125,3.8742233949848632,0.0,0.2851621210575104,-1.5830815474139612,-0.0,-0.006643151864409447,0.8532388806343079,-0.0,-0.00915573351085186,0.7787749171257019,0.0,0.012463570572435856
562.0,379.0,4.4321,-0.3224,8.1882,-0.0354,0.0232,-0.1205,-1.5592208823985239,0.0,2.0513954162597656,-1.2962632179260254,-0.0,2.1056666374206543,3.87423483907666,0.0,0.2973424792289734,-1.5831177870379847,-0.0,-0.01886136829853058,0.8532235026359558,-0.0,-0.011597962118685246,0.7787584662437439,0.0,0.007953699678182602
562.0,379.0,4.4321,-0.3224,8.1882,-0.0354,0.0232,-0.1205,-1.5592329709655424,0.0,2.0305838584899902,-1.2962193489074707,-0.0,2.1774230003356934,3.87421099721875,0.0,0.2887789011001587,-1.5831220785724085,-0.0,-0.004166834056377411,0.8532273769378662,-0.0,-0.013797516003251076,0.7787505388259888,0.0,0.011425080709159374
562.0,379.0,4.4321,-0.3224,8.1882,-0.0354,0.0232,-0.1205,-1.559237048295774,0.0,2.071948528289795,-1.2962028980255127,-0.0,2.081063747406006,3.8742233949848632,0.0,0.2949305474758148,-1.5831063429461878,-0.0,-0.00821500364691019,0.8532034158706665,-0.0,-0.006250341888517141,0.778782844543457,0.0,-0.00028473976999521255
562.0,379.0,4.4321,-0.3224,8.1882,-0.0354,0.0232,-0.1205,-1.5591846576756616,0.0,2.1006531715393066,-1.296238899230957,-0.0,2.1316986083984375,3.8742596346088867,0.0,0.29384326934814453,-1.5831177870379847,-0.0,-0.001877378672361374,0.8531756401062012,-0.0,-0.007292029447853565,0.7787505388259888,0.0,0.05916769802570343
562.0,379.0,4.4321,-0.3224,8.1882,-0.0354,0.0232,-0.1205,-1.5592610093629737,0.0,2.0933287143707275,-1.296215295791626,-0.0,2.133897304534912,3.8741985994526367,0.0,0.30569344758987427,-1.5831177870379847,-0.0,-0.0012946551432833076,0.8532235026359558,-0.0,-0.002601150656118989,0.7787666916847229,0.0,-0.05742727220058441
562.0,379.0,4.4321,-0.3224,8.1882,-0.0354,0.0232,-0.1205,-1.5592325304499646,0.0,2.1032910346984863,-1.2962193489074707,2.2486926098963522e-08,2.088657855987549,3.874206705684326,0.0,0.29786935448646545,-1.5831134955035608,-0.0,-0.002430749125778675,0.8532235026359558,-0.0,-0.00955115258693695,0.778734564781189,0.0,0.011486547999083996
562.0,379.0,4.4321,-0.3224,8.1882,-0.0354,0.0232,-0.1205,-1.55922885358844,0.0,2.0900182723999023,-1.2962068319320679,5.430327208407783e-14,2.114872932434082,3.874255343074463,0.0,0.2895936071872711,-1.5831177870379847,-0.0,-0.002827051328495145,0.8532235026359558,-0.0,-0.0021454556845128536,0.7787830233573914,0.0,0.014646057970821857
562.0,379.0,4.4321,-0.3224,8.1882,-0.0354,0.0232,-0.1205,-1.559237048295774,0.0,2.069924831390381,-1.2962071895599365,1.3113603151063148e-19,2.1266701221466064,3.8742233949848632,0.0,0.29638180136680603,-1.583085838948385,-0.0,-0.023522797971963882,0.8532275557518005,-0.0,-0.021257976070046425,0.7788069248199463,0.0,-0.006038564257323742
562.0,379.0,4.4321,-0.3224,8.1882,-0.0354,0.0232,-0.1205,-1.5592610093629737,0.0,2.0175445079803467,-1.2962672710418701,3.1667807846872376e-25,2.132361888885498,3.8742233949848632,0.0,0.2887236475944519,-1.5830982367144983,-0.0,-0.009747166186571121,0.8531994819641113,-0.0,0.0037944025825709105,0.778782844543457,0.0,-0.01680407114326954
562.0,379.0,4.4321,-0.3224,8.1882,-0.0354,0.0232,-0.1205,-1.5592329709655424,0.0,2.0632362365722656,-1.296223521232605,7.647401843201048e-31,2.111337661743164,3.8742305475422363,0.0,0.2839301526546478,-1.5830982367144983,-0.0,-0.007712424732744694,0.8532075881958008,-0.0,-0.0007035578601062298,0.7787868976593018,0.0,-0.031309254467487335
562.0,379.0,4.4321,-0.3224,8.1882,-0.0354,0.0232,-0.1205,-1.559248969224729,0.0,2.088141441345215,-1.296198844909668,1.3765053771397112e-34,2.098580837249756,3.874215288753174,0.0,0.2847042679786682,-1.5831134955035608,-0.0,-0.01786224916577339,0.853203535079956,-0.0,-0.0087454067543149,0.778782844543457,0.0,0.019719738513231277
8190.0,392.0,4.3687,-0.3511,8.2762,-0.0371,0.0191,-0.1151,-1.5592247762582083,0.0,2.0573129653930664,-1.2962307929992676,3.324104165132758e-40,2.1037564277648926,3.874251528377197,0.0,0.29330211877822876,-1.5831220785724085,-0.0,-0.0048651425167918205,0.8531437516212463,-0.0,-0.0011163961607962847,0.7787224650382996,0.0,0.03095238283276558
8190.0,392.0,4.3687,-0.3511,8.2762,-0.0371,0.0191,-0.1151,-1.5592527978918334,0.0,2.0801658630371094,-1.2962149381637573,1.401298464324817e-45,2.1553759574890137,3.8742872911640625,0.0,0.2964760661125183,-1.5831177870379847,-0.0,-0.005947161931544542,0.8532314300537109,-0.0,-0.002644054824486375,0.7787948846817017,0.0,0.04018039628863335
8190.0,392.0,4.3687,-0.3511,8.2762,-0.0371,0.0191,-0.1151,-1.559256932032742,0.0,2.0712876319885254,-1.2962594032287598,-0.0,2.142275810241699,3.8741985994526367,0.0,0.29243460297584534,-1.5831258932696741,-0.0,-0.003393591847270727,0.8532154560089111,-0.0,-0.009427988901734352,0.7787789702415466,0.0,-0.010606666095554829
8190.0,392.0,4.3687,-0.3511,8.2762,-0.0371,0.0191,-0.1151,-1.55922885358844,0.0,2.0576510429382324,-1.2961751222610474,-0.0,2.1442277431488037,3.8742429453083496,0.0,0.2929409146308899,-1.5831459204303187,-0.0,-0.011665037833154202,0.8532673120498657,-0.0,-0.013971155509352684,0.7787546515464783,0.0,0.01392289437353611
8190.0,392.0,4.3687,-0.3511,8.2762,-0.0371,0.0191,-0.1151,-1.559225090113916,0.0,2.0541841983795166,-1.296223521232605,-0.0,2.137265682220459,3.87423483907666,0.0,0.2921581566333771,-1.5830896536456507,-0.0,-0.007049067877233028,0.8532114028930664,-0.0,-0.0147305428981781,0.7787748575210571,0.0,0.03923816606402397
8190.0,392.0,4.3687,-0.3511,8.2762,-0.0371,0.0191,-0.1151,-1.5592126876911898,0.0,2.0852580070495605,-1.2961909770965576,-0.0,2.1128249168395996,3.8742028909870605,0.0,0.29132986068725586,-1.5830815474139612,-0.0,-0.012210234999656677,0.853203535079956,-0.0,-0.009504951536655426,0.7787584662437439,0.0,-0.01418394222855568
8190.0,392.0,4.3687,-0.3511,8.2762,-0.0371,0.0191,-0.1151,-1.5592329635149618,0.0,2.083665132522583,-1.296215295791626,-0.0,2.129814863204956,3.8742710787006835,0.0,0.289574533700943,-1.5831134955035608,-0.0,-0.001610449980944395,0.8532467484474182,-0.0,-0.005301477387547493,0.7788110375404358,0.0,0.025338970124721527
8190.0,392.0,4.3687,-0.3511,8.2762,-0.0371,0.0191,-0.1151,-1.5592849704301734,0.0,2.078369617462158,-1.296246886253357,-0.0,2.089327573776245,3.874227686519287,0.0,0.28726646304130554,-1.5830896536456507,-0.0,-0.0017557335086166859,0.8532194495201111,-0.0,0.0057527064345777035,0.77881920337677,0.0,0.0023084357380867004
8190.0,392.0,4.3687,-0.3511,8.2762,-0.0371,0.0191,-0.1151,-1.55921275288377,0.0,2.1035900115966797,-1.2961550951004028,-0.0,2.1030640602111816,3.874283476466797,0.0,0.29120418429374695,-1.5830982367144983,-0.0,-0.012682965025305748,0.8532154560089111,-0.0,-0.004153276327997446,0.778782844543457,0.0,-0.022615408524870872
8190.0,392.0,4.3687,-0.3511,8.2762,-0.0371,0.0191,-0.1151,-1.5592168134501954,0.0,2.0884523391723633,-1.2961828708648682,-0.0,2.1141748428344727,3.8742596346088867,0.0,0.27663975954055786,-1.5831177870379847,-0.0,-0.006088351830840111,0.8531954884529114,-0.0,-0.006415068171918392,0.7787787318229675,0.0,-0.008072379976511002
8190.0,392.0,4.3687,-0.3511,8.2762,-0.0371,0.0191,-0.1151,-1.5592530465549608,0.0,2.0525925159454346,-1.2962193489074707,-0.0,2.0818634033203125,3.874215288753174,0.0,0.30390533804893494,-1.5831177870379847,-0.0,-0.0008408896392211318,0.8532154560089111,-0.0,-0.014262929558753967,0.7787907719612122,0.0,-0.014316221699118614
8190.0,392.0,4.3687,-0.3511,8.2762,-0.0371,0.0191,-0.1151,-1.5592448350838204,0.0,2.0738368034362793,-1.2962069511413574,-0.0,2.1734442710876465,3.8742028909870605,0.0,0.2871876358985901,-1.583158318196432,-0.0,-0.0017458174843341112,0.853259265422821,-0.0,0.006728820968419313,0.7787666916847229,0.0,0.019970962777733803
8190.0,392.0,4.3687,-0.3511,8.2762,-0.0371,0.0191,-0.1151,-1.559248737325408,0.0,2.0598504543304443,-1.2962509393692017,-0.0,2.115443706512451,3.8742429453083496,0.0,0.290227472782135,-1.5831053892718714,-0.0,0.0007140706293284893,0.8532466888427734,-0.0,0.004444793798029423,0.7788151502609253,0.0,-0.022955121472477913
8190.0,392.0,4.3687,-0.3511,8.2762,-0.0371,0.0191,-0.1151,-1.5592651267400761,0.0,2.0781025886535645,-1.2962554693222046,-0.0,2.092909574508667,3.874251528377197,0.0,0.2939678430557251,-1.5831025282489222,-0.0,-0.01271367259323597,0.8531835675239563,-0.0,-0.006026620976626873,0.7787989974021912,0.0,-0.03668557107448578
8190.0,392.0,4.3687,-0.3511,8.2762,-0.0371,0.0191,-0.1151,-1.5592811892605205,0.0,2.0938241481781006,-1.2962028980255127,-0.0,2.127687692642212,3.8742195802875976,0.0,0.28923317790031433,-1.5831134955035608,-0.0,-0.011907843872904778,0.8532354235649109,-0.0,-0.00810238253325224,0.7787666916847229,0.0,0.009309541434049606
8190.0,393.0,4.4106,-0.4427,8.1565,-0.031,0.0249,-0.1112,-1.5592168460464855,0.0,2.1142356395721436,-1.2961632013320923,6.988284440012649e-05,2.140632390975952,3.874279184932373,0.0,0.2914460599422455,-1.5831502119647425,-0.0,-0.013186655938625336,0.8532273769378662,-0.0,0.0015031811781227589,0.7787989974021912,0.0,-0.021275267004966736
8190.0,393.0,4.4106,-0.4427,8.1565,-0.031,0.0249,-0.1112,-1.5592452513850112,0.0,2.0503835678100586,-1.2961831092834473,0.00011032854672521353,2.1165037155151367,3.874262972468994,2.040055901986193e-09,0.2940988540649414,-1.5831134955035608,-0.0,-0.014110798947513103,0.853191614151001,-0.0,0.002655009739100933,0.7787708044052124,0.0,0.0171706173568964
8190.0,393.0,4.4106,-0.4427,8.1565,-0.031,0.0249,-0.1112,-1.5592131282067676,0.0,2.0811283588409424,-1.296199083328247,0.0010527814738452435,2.122257709503174,3.874250574702881,5.678570677916661e-13,0.29234957695007324,-1.5831134955035608,-0.0,-0.011401550844311714,0.8531396389007568,-0.0,0.0017940262332558632,0.77872633934021,0.0,0.052125707268714905
8190.0,393.0,4.4106,-0.4427,8.1565,-0.031,0.0249,-0.1112,-1.5592412019944568,0.0,2.075718641281128,-1.296167016029358,0.001220419188030064,2.0920181274414062,3.874307318324707,1.580651226895904e-16,0.29262375831604004,-1.5831502119647425,-0.0,0.010545049794018269,0.8532075881958008,-0.0,-0.00738317146897316,0.7788228988647461,0.0,0.002257977146655321
8190.0,393.0,4.4106,-0.4427,8.1565,-0.031,0.0249,-0.1112,-1.5591845924830814,0.0,2.061042308807373,-1.296118974685669,0.0011125598102807999,2.0973119735717773,3.8742829996296386,4.39980017379855e-20,0.28956103324890137,-1.5831134955035608,-0.0,-0.005434419494122267,0.8532991409301758,-0.0,-0.011875495314598083,0.7788232564926147,0.0,0.0018698014318943024
8190.0,393.0,4.4106,-0.4427,8.1565,-0.031,0.0249,-0.1112,-1.5591646426222106,0.0,2.062666416168213,-1.296183466911316,0.0012145163491368294,2.1031341552734375,3.8742710787006835,1.2247006388988317e-23,0.3049858808517456,-1.5831463972674769,-0.0,0.01031676959246397,0.8532394170761108,-0.0,-0.00024349539307877421,0.7787910103797913,0.0,0.02521217241883278
8190.0,393.0,4.4106,-0.4427,8.1565,-0.031,0.0249,-0.1112,-1.5591646510041137,0.0,2.070009469985962,-1.296142816543579,0.0014628948410972953,2.1138713359832764,3.8742667871662597,0.00022366753546521068,0.2913591265678406,-1.5831664244281214,-0.0,-0.004032074939459562,0.853203535079956,-0.0,-0.0032559377141296864,0.778754711151123,0.0,-0.03670470416545868
8190.0,393.0,4.4106,-0.4427,8.1565,-0.031,0.0249,-0.1112,-1.5591564237004896,0.0,2.0700550079345703,-1.296110987663269,0.0018116168212145567,2.1185708045959473,3.874250574702881,0.00023152833455242217,0.29754742980003357,-1.5831220785724085,-0.0,-0.014144424349069595,0.8532388210296631,-0.0,-0.002515218686312437,0.7788031101226807,0.0,0.006107717286795378
8190.0,393.0,4.4106,-0.4427,8.1565,-0.031,0.0249,-0.1112,-1.559172849436738,0.0,2.104260206222534,-1.2961188554763794,0.002644623164087534,2.1103243827819824,3.8742548662373046,0.0002006726135732606,0.29258573055267334,-1.5831096808062952,-0.0,-0.00932626985013485,0.8532235622406006,-0.0,-0.0074667781591415405,0.7787705659866333,0.0,-0.031460750848054886
8190.0,393.0,4.4106,-0.4427,8.1565,-0.031,0.0249,-0.1112,-1.5591646426222106,0.0,2.0311527252197266,-1.2960699796676636,0.004938464146107435,2.141944169998169,3.8742429453083496,0.00017698992451187223,0.3000546395778656,-1.5831220785724085,-0.0,-0.019223086535930634,0.8532313704490662,-0.0,-0.013368437066674232,0.7787869572639465,0.0,-0.033200252801179886
8190.0,393.0,4.4106,-0.4427,8.1565,-0.031,0.0249,-0.1112,-1.5591808448410411,0.0,2.0556423664093018,-1.2961159944534302,0.005402405746281147,2.1351776123046875,3.8742543894001464,0.00013084612146485597,0.2874375879764557,-1.5831502119647425,-0.0,-0.018780965358018875,0.8532075881958008,-0.0,-0.00974252074956894,0.778791069984436,0.0,0.0020472947508096695
8190.0,393.0,4.4106,-0.4427,8.1565,-0.031,0.0249,-0.1112,-1.5592048925212403,0.0,2.067964792251587,-1.2960267066955566,0.004335540812462568,2.1441383361816406,3.8742543894001464,0.00011455606727395207,0.294495165348053,-1.5831425825702112,-0.0,-0.009423292241990566,0.853175699710846,-0.0,-0.015910226851701736,0.7787869572639465,0.0,-0.009758925065398216
8190.0,393.0,4.4106,-0.4427,8.1565,-0.031,0.0249,-0.1112,-1.559180836459138,0.0,2.073233127593994,-1.2960147857666016,0.002857303014025092,2.1297316551208496,3.874251528377197,0.00010457116877660155,0.2918033301830292,-1.5831344763385218,-0.0,-0.012674792669713497,0.8532313704490662,-0.0,-0.0034210574813187122,0.7787869572639465,0.0,0.015155071392655373
8190.0,393.0,4.4106,-0.4427,8.1565,-0.031,0.0249,-0.1112,-1.5592167473262926,0.0,2.063101291656494,-1.2959823608398438,0.001535023795440793,2.1596431732177734,3.874255343074463,9.61884725256823e-05,0.29202428460121155,-1.5831425825702112,-0.0,-0.0030901639256626368,0.8532235622406006,-0.0,-0.008090546354651451,0.7787225842475891,0.0,0.04327313229441643
8190.0,393.0,4.4106,-0.4427,8.1565,-0.031,0.0249,-0.1112,-1.5591925850934167,5.035036156186834e-05,2.070225715637207,-1.296046495437622,0.0005701637710444629,2.103856086730957,3.874178572291992,6.679426587652415e-05,0.2918155789375305,-1.5830896536456507,-0.0,-0.009538107551634312,0.8532388806343079,-0.0,-0.005907569546252489,0.7787587642669678,0.0,-0.03194393590092659
8190.0,393.0,4.4106,-0.4427,8.1565,-0.031,0.0249,-0.1112,-1.559256932032742,9.342077191831777e-07,2.0614254474639893,-1.2960587739944458,-0.0005474092322401702,2.074923276901245,3.8742639261433105,-8.422983955824748e-05,0.29475122690200806,-1.5830939451800745,-0.0,-0.002385857980698347,0.8531956076622009,-0.0,-0.0053091999143362045,0.7787266969680786,0.0,0.013345910236239433
558.0,371.0,4.3932,-0.4038,8.1948,-0.0275,0.0307,-0.115,-1.559220634666719,2.2560018089756717e-12,2.0518431663513184,-1.2961074113845825,-0.0012814986985176802,2.1516170501708984,3.8742028909870605,-0.0001197442616103217,0.2857587933540344,-1.5831344763385218,-0.0,-0.009399089962244034,0.853191614151001,-0.0,-0.01227329671382904,0.7787307500839233,0.0,0.014238663949072361
558.0,371.0,4.3932,-0.4038,8.1948,-0.0275,0.0307,-0.115,-1.5592606303146859,-0.0015503152972087264,2.0982301235198975,-1.2960669994354248,-0.0010171987814828753,2.1160378456115723,3.874215288753174,-0.00013774217222817242,0.30029746890068054,-1.5830863157855433,-0.0,-0.002813662402331829,0.8532466888427734,-0.0,0.0015844597946852446,0.7787666916847229,0.0,-0.003407612442970276
558.0,371.0,4.3932,-0.4038,8.1948,-0.0275,0.0307,-0.115,-1.5593689179844041,-0.006776496302336454,2.0528194904327393,-1.296046495437622,-0.0008657192811369896,2.114053726196289,3.8742315012165527,-0.0004322792519815266,0.287452757358551,-1.5830658117877405,-0.0,-0.020090848207473755,0.853207528591156,-0.0,-0.0061768293380737305,0.7787145376205444,-6.22476072749123e-05,-0.004324628040194511
558.0,371.0,4.3932,-0.4038,8.1948,-0.0275,0.0307,-0.115,-1.5594250422767182,-0.010817144997417927,1.999222993850708,-1.2961483001708984,-0.0007112591993063688,2.0963058471679688,3.8741952615925292,-0.0004045013920404017,0.29013603925704956,-1.5831063429461878,-0.0,0.0008830846636556089,0.8531956076622009,-0.0,-0.008473215624690056,0.7788072228431702,-9.011012298287824e-05,0.015161365270614624
558.0,371.0,4.3932,-0.4038,8.1948,-0.0275,0.0307,-0.115,-1.5594445031932374,-0.014964623376727104,2.035118341445923,-1.2961187362670898,-0.0004613584605976939,2.140211343765259,3.8741909700581054,-0.00038539053639397025,0.2811059355735779,-1.5830743948565882,-0.0,-0.001203887164592743,0.8531232476234436,-0.0,0.005442905705422163,0.7787386775016785,-7.834844291210175e-05,-0.03472122550010681
558.0,371.0,4.3932,-0.4038,8.1948,-0.0275,0.0307,-0.115,-1.55957646787677,-0.016823606565594673,2.0738978385925293,-1.2961190938949585,-0.00035280268639326096,2.1325016021728516,3.874159021968506,-0.0003256361815147102,0.2866598963737488,-1.5830777327166956,-0.0,-0.008531288243830204,0.8531795740127563,-0.0,-0.004464052617549896,0.7787546515464783,-6.929877417860553e-05,-0.01116288173943758
558.0,371.0,4.3932,-0.4038,8.1948,-0.0275,0.0307,-0.115,-1.559688440789916,-0.018129345029592514,2.058598279953003,-1.2961074113845825,-0.0002856098872143775,2.1515183448791504,3.874159021968506,-0.00028190945158712566,0.28524050116539,-1.5830777327166956,-0.0,-0.008794434368610382,0.8532273769378662,-0.0,-0.011628924869000912,0.778782844543457,-6.21234648860991e-05,-0.013919253833591938
558.0,371.0,4.3932,-0.4038,8.1948,-0.0275,0.0307,-0.115,-1.5598327380469819,-0.020121324807405472,2.03078556060791,-1.2960827350616455,-0.00023992134083528072,2.0975699424743652,3.8742233949848632,-0.0002485380682628602,0.28877556324005127,-1.5830500761615198,-0.0,-0.013071773573756218,0.8531715869903564,-0.0,-0.0074675194919109344,0.7787708044052124,-3.3121368687716313e-06,0.0002823416143655777
558.0,371.0,4.3932,-0.4038,8.1948,-0.0275,0.0307,-0.115,-1.5599564139596005,-0.023210540413856506,2.0301170349121094,-1.2960950136184692,-0.0002481989795342088,2.0830886363983154,3.8741471010395507,-0.0002222324546892196,0.29372668266296387,-1.5831063429461878,-0.0,-0.013693129643797874,0.853207528591156,-0.0,-0.0004565258277580142,0.7787989974021912,-7.9984205023087e-12,-0.020713062956929207
558.0,371.0,4.3932,-0.4038,8.1948,-0.0275,0.0307,-0.115,-1.5601040881923218,-0.0256242286413908,2.0237345695495605,-1.2960588932037354,-0.00021812318300362676,2.1141042709350586,3.8742233949848632,-0.00020096314256079495,0.2907959818840027,-1.5830701033221644,-0.0,-0.004351913463324308,0.8531955480575562,-0.0,-0.010274513624608517,0.778774619102478,-1.9315244675180758e-17,-0.016554836183786392
558.0,371.0,4.3932,-0.4038,8.1948,-0.0275,0.0307,-0.115,-1.5602800345844408,-0.027655992656946182,2.0041050910949707,-1.296054482460022,-0.00014083257701713592,2.147787570953369,3.8742634493061523,-0.00018340976384934038,0.2774697542190552,-1.5830743948565882,-0.0,-0.0062713115476071835,0.8532114624977112,-0.0,-0.008094806224107742,0.7787951231002808,-4.6644051593833866e-23,0.011536750942468643
558.0,371.0,4.3932,-0.4038,8.1948,-0.0275,0.0307,-0.115,-1.5604441783255716,-0.02767801843583584,2.0093374252319336,-1.296046495437622,-8.819100185064599e-05,2.1583433151245117,3.8742233949848632,-0.00016867667727638036,0.2880062460899353,-1.5830782095538538,-0.0,-0.00123741221614182,0.8532353639602661,-0.0,-0.003087027696892619,0.7788068652153015,-1.1263991465330757e-28,0.00020283699268475175
558.0,371.0,4.3932,-0.4038,8.1948,-0.0275,0.0307,-0.115,-1.56060785454277,-0.02625405602157116,2.009261131286621,-1.2960342168807983,-7.998356159077957e-05,2.1126139163970947,3.874239130611084,-6.0353308072080836e-05,0.2983872592449188,-1.5830701033221644,-0.0,0.0027353186160326004,0.8532426953315735,-0.0,-0.0064328378066420555,0.7787787914276123,-2.7201214784516207e-34,0.026280472055077553
558.0,371.0,4.3932,-0.4038,8.1948,-0.0275,0.0307,-0.115,-1.5607476758635421,-0.02368488907814026,1.9934271574020386,-1.2960950136184692,-7.345542690018192e-05,2.120882034301758,3.874283476466797,-5.3448988182935864e-05,0.2892806828022003,-1.583061997090475,-0.0,-0.0041749984957277775,0.8532466888427734,-0.0,-0.0004977346397936344,0.7787787318229675,-6.568768720322942e-40,0.0477321557700634
558.0,371.0,4.3932,-0.4038,8.1948,-0.0275,0.0307,-0.115,-1.5608154863915225,-0.022189924493432045,2.057645082473755,-1.2960702180862427,-6.966479122638702e-05,2.130689859390259,3.874199076289795,-5.045222496846691e-05,0.2781064212322235,-1.5830701033221644,-0.0,0.004631560295820236,0.8532792329788208,-0.0,-0.017952419817447662,0.7788431644439697,-1.1770907100328463e-43,0.015475176274776459
550.0,381.0,4.4285,-0.3428,8.2211,-0.0505,-0.0182,-0.1162,-1.5609552425197144,-0.02102680318057537,2.007371425628662,-1.2960587739944458,-7.883321086410433e-05,2.0899555683135986,3.8742634493061523,-4.6538636524928734e-05,0.2847398817539215,-1.5830538908587855,-0.0,0.001356063992716372,0.8531557321548462,-0.0,-0.008804511278867722,0.7788431644439697,0.0,-0.02936905436217785
550.0,381.0,4.4285,-0.3428,8.2211,-0.0505,-0.0182,-0.1162,-1.5611234999126573,-0.022643759846687317,2.0325214862823486,-1.2960669994354248,-8.04342344054021e-05,2.05047869682312,3.874194784755371,-4.318855280871503e-05,0.2838956415653229,-1.583045784627096,-0.0,0.003380079986527562,0.853266716003418,-0.0,-0.008713499642908573,0.7788069248199463,0.0,-0.04329979792237282
550.0,381.0,4.4285,-0.3428,8.2211,-0.0505,-0.0182,-0.1162,-1.561247094800212,-0.022691991180181503,1.9946584701538086,-1.2960827350616455,-2.1907537302467972e-05,2.1205718517303467,3.874170942897461,-6.0084839788032696e-05,0.2801510691642761,-1.5830658117877405,-0.0,-0.002049085684120655,0.8531995415687561,-0.0,-0.006388999987393618,0.7788028717041016,0.00025278498651459813,-0.007027347572147846
550.0,381.0,4.4285,-0.3428,8.2211,-0.0505,-0.0182,-0.1162,-1.5614154341495414,-0.02344096265733242,1.9676759243011475,-1.2960342168807983,-4.081537917954847e-05,2.0533089637756348,3.874142809505127,-5.662988041876815e-05,0.27392828464508057,-1.583062473927633,-0.0,0.00909404456615448,0.8532313704490662,-0.0,-0.015413862653076649,0.7787665128707886,0.0001731027296045795,-0.01872529275715351
550.0,381.0,4.4285,-0.3428,8.2211,-0.0505,-0.0182,-0.1162,-1.5615228333375235,-0.024667993187904358,1.9357542991638184,-1.296099066734314,-3.821610880549997e-05,2.044490098953247,3.874159021968506,-8.081951091298833e-05,0.26344847679138184,-1.5830743948565882,-0.0,0.012560717761516571,0.853203535079956,-0.0,-0.0016413116827607155,0.7787866592407227,0.000126448881928809,-0.03981664031744003
550.0,381.0,4.4285,-0.3428,8.2211,-0.0505,-0.0182,-0.1162,-1.5617150527289887,-0.023720836266875267,1.9040359258651733,-1.2961032390594482,-5.317268369253725e-05,2.0606136322021484,3.8742033678242187,-0.0001110775992856361,0.27206191420555115,-1.5830257574664515,-0.0,0.003183064516633749,0.8531676530838013,-0.0,-3.553213900886476e-06,0.7787907123565674,-0.00013103462697472423,-0.062252894043922424
550.0,381.0,4.4285,-0.3428,8.2211,-0.0505,-0.0182,-0.1162,-1.5618548656678577,-0.024760670959949493,1.8932266235351562,-1.2961033582687378,-6.58139688312076e-05,2.070131778717041,3.8741800028034667,-0.00014816946350038052,0.25459200143814087,-1.5830214659320276,8.205946505768225e-05,0.0030497857369482517,0.853187620639801,-0.0,-0.007628110237419605,0.7787907719612122,-0.00019164796685799956,-0.09905514866113663
550.0,381.0,4.4285,-0.3428,8.2211,-0.0505,-0.0182,-0.1162,-1.562022703965642,-0.026864608749747276,1.8190580606460571,-1.2961146831512451,-0.00024200440384447575,1.9886170625686646,3.8741800028034667,-0.00014865558478049934,0.2587840259075165,-1.5830095450030726,9.944501653080806e-05,0.02112424746155739,0.853191614151001,-0.0,-0.012811058200895786,0.7787707448005676,-0.0002109500055667013,-0.11254245787858963
550.0,381.0,4.4285,-0.3428,8.2211,-0.0505,-0.0182,-0.1162,-1.5622265518507739,-0.02905687689781189,1.8158811330795288,-1.2961511611938477,-0.00027128326473757625,2.013122081756592,3.874199076289795,-0.00036540106520988047,0.2457091510295868,-1.583078686391012,0.00010905289673246443,0.03561390936374664,0.853151798248291,-0.0,-0.002351445611566305,0.7787505984306335,-0.00022426247596740723,-0.08894173800945282
550.0,381.0,4.4285,-0.3428,8.2211,-0.0505,-0.0182,-0.1162,-1.5623823919198294,-0.031908612698316574,1.8076024055480957,-1.2961106300354004,-0.0003128071257378906,2.026963710784912,3.8741471010395507,-0.00035278205177746713,0.2436927855014801,-1.5829899946795862,0.00011760316556319594,0.03132706508040428,0.8532353639602661,-0.0,0.00430049654096365,0.7787708044052124,-0.00034054950810968876,-0.12914112210273743
550.0,381.0,4.4285,-0.3428,8.2211,-0.0505,-0.0182,-0.1162,-1.5625661493143816,-0.03494428098201752,1.7071735858917236,-1.2961430549621582,-0.0004759375879075378,1.9545552730560303,3.8742033678242187,-0.0003803361323662102,0.23035022616386414,-1.5830100218402308,0.00011388428538339213,0.03003169223666191,0.8531995415687561,-0.0,0.0004292222729418427,0.7788031101226807,-0.0002909418835770339,-0.16340088844299316
550.0,381.0,4.4285,-0.3428,8.2211,-0.0505,-0.0182,-0.1162,-1.5627259009382506,-0.03664099797606468,1.6875505447387695,-1.2961148023605347,-0.0004715726536232978,1.9300878047943115,3.8741800028034667,-0.000393200694816187,0.230463445186615,-1.583033863698141,0.0002871082106139511,0.049405667930841446,0.8531995415687561,-0.0,-0.009889965876936913,0.7788110375404358,-0.000257623556535691,-0.17450007796287537
550.0,381.0,4.4285,-0.3428,8.2211,-0.0505,-0.0182,-0.1162,-1.56294971917335,-0.038211431354284286,1.7154583930969238,-1.296066164970398,-0.00037374114617705345,1.9490317106246948,3.874215288753174,-0.00040564819937571883,0.23038512468338013,-1.5830019156085413,0.0002988800697494298,0.04382505267858505,0.8531599044799805,-0.0,-0.012186199426651001,0.7787625789642334,-0.00021985842613503337,-0.18995404243469238
550.0,381.0,4.4285,-0.3428,8.2211,-0.0505,-0.0182,-0.1162,-1.5632619660212477,-0.039886437356472015,1.6624093055725098,-1.296155333518982,-0.00030947287450544536,1.949470043182373,3.874159021968506,-0.0004385966749396175,0.23012320697307587,-1.5829938093768519,0.0002947986649814993,0.04805378615856171,0.8532353639602661,-0.0,-0.01744735985994339,0.7787705063819885,-0.00019175087800249457,-0.22221475839614868
550.0,381.0,4.4285,-0.3428,8.2211,-0.0505,-0.0182,-0.1162,-1.5634452959387382,-0.043426401913166046,1.6095781326293945,-1.2961390018463135,-0.0002640667953528464,1.9111175537109375,3.8741800028034667,-0.0005401025991886854,0.21616171300411224,-1.5830023924456995,0.00029066926799714565,0.056975357234478,0.8532475829124451,-0.0,-0.005706139840185642,0.7787708044052124,-0.00017001589003484696,-0.15658967196941376
575.0,355.0,4.5272,0.2273,8.2307,-0.0234,-0.0255,-0.1234,-1.563753414699324,-0.04859590530395508,1.6118597984313965,-1.2960418462753296,-0.0002302809589309618,1.9159343242645264,3.8742071825214843,-0.0004459871561266482,0.22702747583389282,-1.5829981009112757,0.00026703227194957435,0.04964899271726608,0.8532154560089111,-0.0,-0.011609832756221294,0.7788147330284119,-0.00015270686708390713,-0.16642025113105774
575.0,355.0,4.5272,0.2273,8.2307,-0.0234,-0.0255,-0.1234,-1.5640290885097166,-0.05491340905427933,1.5883668661117554,-1.2960501909255981,-0.00018182361964136362,1.905013084411621,3.8741471010395507,-0.0004169061139691621,0.20672175288200378,-1.5830181280719202,0.0002811392769217491,0.06385980546474457,0.8531995415687561,-0.0,-0.011732928454875946,0.7787543535232544,-0.00013859673344995826,-0.19106276333332062
575.0,355.0,4.5272,0.2273,8.2307,-0.0234,-0.0255,-0.1234,-1.5643524302034457,-0.06018660217523575,1.5934970378875732,-1.2960827350616455,-0.0001226659951498732,1.894041895866394,3.874163790340088,-0.00034784889430738986,0.21653752028942108,-1.5829861799823206,0.00023710643290542066,0.05958999693393707,0.8532155156135559,-0.0,0.005401641130447388,0.7788228988647461,-0.00012687366688624024,-0.1400855928659439
575.0,355.0,4.5272,0.2273,8.2307,-0.0234,-0.0255,-0.1234,-1.564708403111883,-0.06630230695009232,1.5619603395462036,-1.2960505485534668,-8.336519385920838e-05,1.8747841119766235,3.8741909700581054,-0.0002984037855640054,0.20530986785888672,-1.5830300490008753,0.00022474284924101084,0.05207157880067825,0.853187620639801,-0.0,-0.010946113616228104,0.7787746787071228,-0.00011697915033437312,-0.18124227225780487
575.0,355.0,4.5272,0.2273,8.2307,-0.0234,-0.0255,-0.1234,-1.565136188907065,-0.07103313505649567,1.5725446939468384,-1.2960994243621826,0.00011940439435420558,1.9030094146728516,3.874206705684326,-0.00026127000455744565,0.2135910987854004,-1.5829737822162073,0.00021616336016450077,0.06788244098424911,0.853167712688446,-0.0,-0.00982343778014183,0.7788110375404358,-0.00010851631668629125,-0.21329566836357117
575.0,355.0,4.5272,0.2273,8.2307,-0.0234,-0.0255,-0.1234,-1.5655715430951496,-0.07849768549203873,1.5194964408874512,-1.2960864305496216,0.00014685944188386202,1.9125951528549194,3.8741866785236816,-0.00011057093797717243,0.2021130919456482,-1.5829904715167444,0.0001929883292177692,0.05897098034620285,0.8532353639602661,-0.0,-0.009149234741926193,0.778774619102478,-0.00010119547368958592,-0.22209134697914124
575.0,355.0,4.5272,0.2273,8.2307,-0.0234,-0.0255,-0.1234,-1.566135918987431,-0.08659502863883972,1.553544521331787,-1.2960505485534668,0.00013410169049166143,1.8622537851333618,3.8742191034504394,-7.980451482580975e-05,0.22518450021743774,-1.5830143133746546,0.00017429854779038578,0.0680311918258667,0.8532546162605286,-0.0,-0.013020436279475689,0.7788192629814148,-0.00011300046753603965,-0.2113175094127655
575.0,355.0,4.5272,0.2273,8.2307,-0.0234,-0.0255,-0.1234,-1.5664715713686128,-0.09174332767724991,1.5318278074264526,-1.2960588932037354,0.00012655857426580042,1.882620096206665,3.8741747575947265,-7.329884829232469e-05,0.21513113379478455,-1.5829618612872522,0.0001637278328416869,0.04885510355234146,0.8531637787818909,-0.0,0.005065928678959608,0.7787989974021912,-0.00010916053724940866,-0.2017962634563446
575.0,355.0,4.5272,0.2273,8.2307,-0.0234,-0.0255,-0.1234,-1.5670308277807017,-0.09765610843896866,1.5455076694488525,-1.2960864305496216,9.337054507341236e-05,1.8554694652557373,3.874215288753174,-6.531790131703019e-05,0.20936867594718933,-1.5830143133746546,0.00015007580805104226,0.06781773269176483,0.853175699710846,-0.0,-0.014511809684336185,0.7788110375404358,-0.00010291914804838598,-0.2531322240829468
575.0,355.0,4.5272,0.2273,8.2307,-0.0234,-0.0255,-0.1234,-1.5676621080240984,-0.09746433794498444,1.577518105506897,-1.296046495437622,8.662866457598284e-05,1.8515136241912842,3.874199076289795,-8.828833961160854e-05,0.20758488774299622,-1.5830062071429651,0.00016140926163643599,0.05463612079620361,0.8531956076622009,-0.0,-0.013327354565262794,0.7787826061248779,-0.00011357718904037029,-0.23303669691085815
575.0,355.0,4.5272,0.2273,8.2307,-0.0234,-0.0255,-0.1234,-1.5682581242038687,-0.09738275408744812,1.5572094917297363,-1.2960755825042725,5.042512930231169e-05,1.8502190113067627,3.8742033678242187,-8.045713911997154e-05,0.19445493817329407,-1.5829575697528284,0.00015006354078650475,0.06961976736783981,0.8532035946846008,-0.0,0.001363513758406043,0.7787989974021912,-0.00010775066766655073,-0.21402212977409363
575.0,355.0,4.5272,0.2273,8.2307,-0.0234,-0.0255,-0.1234,-1.5688414043146004,-0.10028669983148575,1.509421467781067,-1.2961033582687378,9.299711556387535e-10,1.847348928451538,3.874159021968506,-0.000100220218882896,0.20746338367462158,-1.5829904715167444,0.00015988752420525998,0.0639432892203331,0.853171706199646,-0.0,-0.011971009895205498,0.778782844543457,-3.732054028660059e-05,-0.24870213866233826
575.0,355.0,4.5272,0.2273,8.2307,-0.0234,-0.0255,-0.1234,-1.5694648279207577,-0.109214186668396,1.477749228477478,-1.2961146831512451,-0.0014037226792424917,1.8358097076416016,3.8741556841083984,-0.0017259276937693357,0.19369694590568542,-1.5829818884478968,0.00015007886395324022,0.07698042690753937,0.8532513380050659,-0.0,-0.011031722649931908,0.7788228988647461,-3.4334545489400625e-05,-0.22613179683685303
575.0,355.0,4.5272,0.2273,8.2307,-0.0234,-0.0255,-0.1234,-1.5701643367395555,-0.12251888960599899,1.4374496936798096,-1.296147108078003,-0.0011540037812665105,1.862959861755371,3.8741394716450195,-0.0025412882678210735,0.19568292796611786,-1.5830062071429651,0.00012253850582055748,0.08689838647842407,0.8532155156135559,-0.0,-0.011288147419691086,0.7787867188453674,-3.247613858547993e-05,-0.21097102761268616
575.0,355.0,4.5272,0.2273,8.2307,-0.0234,-0.0255,-0.1234,-1.5708638630309046,-0.13549263775348663,1.389583706855774,-1.296102523803711,-0.000528058735653758,1.816171407699585,3.874159498805664,-0.0019365763291716576,0.19356469810009003,-1.5829618612872522,0.00015560176689177752,0.08570170402526855,0.853211522102356,-0.0,-0.018544059246778488,0.7788228988647461,-4.618833554559387e-05,-0.28397637605667114
575.0,355.0,4.5272,0.2273,8.2307,-0.0234,-0.0255,-0.1234,-1.5716635189452113,-0.14383967220783234,1.3937220573425293,-1.2960337400436401,0.0006567084928974509,1.8209125995635986,3.8741351801105957,-0.0013819552259519696,0.1917048990726471,-1.5829137007342737,0.0001681548892520368,0.07613353431224823,0.853223443031311,-0.0,-0.002608903916552663,0.7788228988647461,-4.395585347083397e-05,-0.2581093907356262
535.0,354.0,3.4941,0.1244,7.9274,-0.0342,-0.0125,-0.1313,-1.5725027523436488,-0.14698517322540283,1.421831727027893,-1.296046495437622,0.002005558693781495,1.7950607538223267,3.87413136541333,-0.0008816519984975457,0.1873878538608551,-1.5829699675189417,0.0003806188760790974,0.08157925307750702,0.8531996011734009,-0.0,-0.01566748134791851,0.7788110375404358,-5.4247935622697696e-05,-0.2548014521598816
535.0,354.0,3.4941,0.1244,7.9274,-0.0342,-0.0125,-0.1313,-1.5733772716917933,-0.1447206288576126,1.4146409034729004,-1.2960586547851562,0.0010503869270905852,1.8071038722991943,3.874215288753174,-0.0006444986793212593,0.18405000865459442,-1.5829618612872522,0.00036603788612410426,0.09732887893915176,0.8531677722930908,-0.0,-0.008843766525387764,0.778782844543457,-5.339256313163787e-05,-0.29832372069358826
535.0,354.0,3.4941,0.1244,7.9274,-0.0342,-0.0125,-0.1313,-1.5742370090880335,-0.1424720734357834,1.3888254165649414,-1.296046495437622,0.0003758362727239728,1.7392677068710327,3.8742076593586425,-0.0005079659749753773,0.18108314275741577,-1.5829618612872522,0.0003547563392203301,0.08302755653858185,0.8531996011734009,-0.0,-0.00045460276305675507,0.7787666916847229,-5.1118146075168625e-05,-0.2946653366088867
535.0,354.0,3.4941,0.1244,7.9274,-0.0342,-0.0125,-0.1313,-1.57484831432485,-0.14642798900604248,1.3924919366836548,-1.2961245775222778,-0.00047821569023653865,1.751601219177246,3.874171419734619,-0.00044512172462418675,0.18068881332874298,-1.5829742590533655,0.0003189361887052655,0.09383565187454224,0.8531876802444458,-0.0,-0.02017456851899624,0.7788188457489014,-3.728220326593146e-05,-0.31059765815734863
535.0,354.0,3.4941,0.1244,7.9274,-0.0342,-0.0125,-0.1313,-1.5758234463133753,-0.15761837363243103,1.4201092720031738,-1.296074390411377,-0.0016046641394495964,1.792006492614746,3.8741275507160644,-0.00035198451951146126,0.17927390336990356,-1.5829456488238733,0.00027687428519129753,0.09143948554992676,0.853207528591156,-0.0,-0.01928826794028282,0.7787867188453674,-3.5797162126982585e-05,-0.342475950717926
535.0,354.0,3.4941,0.1244,7.9274,-0.0342,-0.0125,-0.1313,-1.576851030389303,-0.17484241724014282,1.3620283603668213,-1.2960702180862427,-0.0016664682189002633,1.829795479774475,3.87410752355542,-0.0027133196126669645,0.18507497012615204,-1.5829818884478968,0.0002749118139036,0.09193536639213562,0.8532273769378662,-0.0,-0.010064368136227131,0.7788188457489014,-3.4427826903993264e-05,-0.32407429814338684
535.0,354.0,3.4941,0.1244,7.9274,-0.0342,-0.0125,-0.1313,-1.577897687951559,-0.19116929173469543,1.299145221710205,-1.296066164970398,-0.0012766491854563355,1.7197844982147217,3.874079390163086,-0.005879814270883799,0.16468960046768188,-1.5829299131976526,0.0002503886353224516,0.09096045792102814,0.853203535079956,-0.0,-0.011013813316822052,0.7787867188453674,-3.31593764713034e-05,-0.2840547561645508
535.0,354.0,3.4941,0.1244,7.9274,-0.0342,-0.0125,-0.1313,-1.5789810619749964,-0.19662795960903168,1.344219446182251,-1.2960909605026245,-0.0003330863546580076,1.7456053495407104,3.8740522104450683,-0.007108862977474928,0.17548763751983643,-1.5829618612872522,0.0002074114017887041,0.09953014552593231,0.853191614151001,-0.0,-0.017912045121192932,0.7787907719612122,-4.263569280738011e-05,-0.3020990192890167
535.0,354.0,3.4941,0.1244,7.9274,-0.0342,-0.0125,-0.1313,-1.5801521740355433,-0.20251940190792084,1.3518421649932861,-1.2960995435714722,-8.072644774870241e-09,1.7790873050689697,3.8740359979816894,-0.003941324073821306,0.1776197850704193,-1.582954231892721,0.00021592795383185148,0.08890186250209808,0.8531597852706909,-0.0,-0.011513875797390938,0.7788193225860596,-6.123774801380932e-05,-0.31294453144073486
535.0,354.0,3.4941,0.1244,7.9274,-0.0342,-0.0125,-0.1313,-1.5813876591124476,-0.2064443975687027,1.3035030364990234,-1.2960622310638428,0.0014648879878222942,1.7402989864349365,3.8740359979816894,-0.0004440635384526104,0.15836873650550842,-1.582954231892721,0.00021067018678877503,0.0971570685505867,0.853187620639801,-0.0,-0.0070698875933885574,0.7788110375404358,-8.530540071660653e-05,-0.3750552535057068
535.0,354.0,3.4941,0.1244,7.9274,-0.0342,-0.0125,-0.1313,-1.582585950891012,-0.20786671340465546,1.3713539838790894,-1.296054720878601,0.0012967269867658615,1.7142685651779175,3.87405173360791,-1.8873232932037354e-07,0.18126866221427917,-1.5829818884478968,0.00020503577252384275,0.09332028031349182,0.8532273769378662,-0.0,-0.003246788401156664,0.778758704662323,-9.986395161831751e-05,-0.3137000799179077
535.0,354.0,3.4941,0.1244,7.9274,-0.0342,-0.0125,-0.1313,-1.583909650842184,-0.20881424844264984,1.3540096282958984,-1.2960187196731567,0.0007816713768988848,1.7695345878601074,3.8741280275532226,-5.253434146035296e-11,0.1600743979215622,-1.5829699675189417,0.00018679998174775392,0.10167358815670013,0.8531917929649353,-0.0,-0.01808619312942028,0.7787989974021912,-7.710404315730557e-05,-0.3162025213241577
535.0,354.0,3.4941,0.1244,7.9274,-0.0342,-0.0125,-0.1313,-1.5851718387999476,-0.21528808772563934,1.3695473670959473,-1.296074390411377,0.0003646218974608928,1.7905718088150024,3.8740951257893066,-1.46231276734873e-14,0.1757945567369461,-1.5829861799823206,0.00017153935914393514,0.09412630647420883,0.853207528591156,-0.0,-0.015425538644194603,0.7788311839103699,-0.00010665220179362223,-0.2930305004119873
535.0,354.0,3.4941,0.1244,7.9274,-0.0342,-0.0125,-0.1313,-1.586538930932516,-0.22888951003551483,1.3777141571044922,-1.2960869073867798,-0.00023992994101718068,1.7890403270721436,3.8741556841083984,-4.070401525189208e-18,0.1776522547006607,-1.582966152821676,0.00015858450205996633,0.08448675274848938,0.8531996011734009,-0.0,-0.019171038642525673,0.7787745594978333,-0.00010431226110085845,-0.29760295152664185
535.0,354.0,3.4941,0.1244,7.9274,-0.0342,-0.0125,-0.1313,-1.5874783001341761,-0.2370755821466446,1.315818428993225,-1.296074390411377,-0.00022623274708166718,1.7605044841766357,3.874135656947754,-1.7352761295612206e-20,0.18708378076553345,-1.5829904715167444,0.00015098291623871773,0.08459614217281342,0.8531996011734009,-0.0,-0.018715182319283485,0.7788592576980591,-9.347691957373172e-05,-0.29518336057662964
463.0,349.0,1.797,-0.3236,9.4283,-0.0308,-0.1132,-0.1124,-1.5889574489989222,-0.23937799036502838,1.3839738368988037,-1.2960586547851562,-2.537327645768528e-06,1.7864539623260498,3.874075098628662,-4.830204788999118e-24,0.1757904291152954,-1.5829499403582972,0.00014085551083553582,0.08357861638069153,0.853203535079956,-0.0,-0.011331392452120781,0.7787625193595886,-8.08757176855579e-05,-0.33038949966430664
463.0,349.0,1.797,-0.3236,9.4283,-0.0308,-0.1132,-0.1124,-1.5903955898680628,-0.2401345819234848,1.4176937341690063,-1.29603910446167,-6.1273477611201166e-12,1.8361279964447021,3.8741113382526855,-1.34450517568634e-27,0.19085901975631714,-1.5829537550555628,0.00013200125249568373,0.08634544163942337,0.8532154560089111,-0.0,-0.035641998052597046,0.7787948846817017,-7.12686451151967e-05,-0.30495259165763855
463.0,349.0,1.797,-0.3236,9.4283,-0.0308,-0.1132,-0.1124,-1.591914793054098,-0.2518158257007599,1.4205951690673828,-1.296079158782959,0.0007751832599751651,1.800191044807434,3.8740755754658203,0.0002106524189002812,0.18722306191921234,-1.5829375425921839,0.000124194601085037,0.08362410962581635,0.8532313704490662,-0.0,-0.020261116325855255,0.7787948846817017,-6.3701780163683e-05,-0.2898401916027069
463.0,349.0,1.797,-0.3236,9.4283,-0.0308,-0.1132,-0.1124,-1.5935098133482875,-0.25538405776023865,1.4833958148956299,-1.296059012413025,0.0005772711592726409,1.8306679725646973,3.874119921321533,0.0002205495402449742,0.1923145353794098,-1.5829780737506312,8.61302250996232e-05,0.07156620919704437,0.8531677722930908,-0.0,-0.015931563451886177,0.7788229584693909,-2.8799311621696688e-05,-0.25374335050582886
463.0,349.0,1.797,-0.3236,9.4283,-0.0308,-0.1132,-0.1124,-1.5950566730894984,-0.24929213523864746,1.4709577560424805,-1.2960472106933594,0.0005330723943188787,1.833458662033081,3.8741394716450195,0.00027005880838260055,0.19147732853889465,-1.5829456488238733,4.9481128371553496e-05,0.08221016079187393,0.853223443031311,-0.0,-0.012103546410799026,0.7788106203079224,-2.6272111426806077e-05,-0.2855432629585266
463.0,349.0,1.797,-0.3236,9.4283,-0.0308,-0.1132,-0.1124,-1.59661926845693,-0.256253719329834,1.4477810859680176,-1.2959985733032227,0.0004253748629707843,1.8281891345977783,3.8741318422504882,0.0005555406678467989,0.18763487040996552,-1.5829575697528284,4.570353121380322e-05,0.07038217782974243,0.8531836867332458,-0.0,-0.02543250471353531,0.7788267731666565,-4.594749913877649e-09,-0.3013112545013428
463.0,349.0,1.797,-0.3236,9.4283,-0.0308,-0.1132,-0.1124,-1.5982662640013636,-0.2697380483150482,1.4948476552963257,-1.296047329902649,0.00012431964569259435,1.8322217464447021,3.874159498805664,0.000428608589572832,0.19907717406749725,-1.5829456488238733,4.246845855959691e-05,0.06762221455574036,0.8531599640846252,-0.0,-0.011106912977993488,0.778830885887146,-1.1095780937391171e-14,-0.27545273303985596
463.0,349.0,1.797,-0.3236,9.4283,-0.0308,-0.1132,-0.1124,-1.599816461602682,-0.2706000804901123,1.477892518043518,-1.2960752248764038,0.00010294716048520058,1.8430490493774414,3.874163790340088,0.00034613243769854307,0.2005240023136139,-1.5829818884478968,3.966109943576157e-05,0.07330810278654099,0.8532194495201111,-0.0,-0.01591229811310768,0.7788267731666565,-2.679500860085941e-20,-0.246784508228302
463.0,349.0,1.797,-0.3236,9.4283,-0.0308,-0.1132,-0.1124,-1.6014601192870082,-0.26841577887535095,1.5271098613739014,-1.2960587739944458,8.786881517153233e-05,1.8762459754943848,3.874115152949951,0.00029028591234236956,0.20519211888313293,-1.5829694906817835,1.864298974396661e-05,0.06861960142850876,0.8532153964042664,-0.0,-0.010774480178952217,0.7788591384887695,-6.470679029989179e-26,-0.2754594087600708
463.0,349.0,1.797,-0.3236,9.4283,-0.0308,-0.1132,-0.1124,-1.603098531762594,-0.27740341424942017,1.5285006761550903,-1.29597008228302,7.664370787097141e-05,1.8650888204574585,3.8741437631794433,0.0002499615657143295,0.19736379384994507,-1.5829985777484339,1.751493437041063e-05,0.07356171309947968,0.8531519174575806,-0.0,-0.000869656796567142,0.7788147330284119,-1.5625928690085225e-31,-0.2659914493560791
463.0,349.0,1.797,-0.3236,9.4283,-0.0308,-0.1132,-0.1124,-1.6047412357726039,-0.28045740723609924,1.5301964282989502,-1.2960184812545776,0.00013454277359414846,1.863696813583374,3.8741351801105957,0.0002554061939008534,0.2021200805902481,-1.58299428621401,1.6548741768929176e-05,0.0690644159913063,0.8532154560089111,-0.0,-0.0063836113549768925,0.7788509726524353,-3.773477489243035e-37,-0.23465649783611298
463.0,349.0,1.797,-0.3236,9.4283,-0.0308,-0.1132,-0.1124,-1.6058527431883753,-0.2786598205566406,1.5897425413131714,-1.2959781885147095,0.00016235574730671942,1.8020830154418945,3.874119444484375,0.00023680076992604882,0.20302674174308777,-1.5829618612872522,1.5961722965585068e-05,0.06777825951576233,0.8531995415687561,-0.0,-0.010318858548998833,0.778830885887146,-6.792093656582388e-41,-0.20877057313919067
463.0,349.0,1.797,-0.3236,9.4283,-0.0308,-0.1132,-0.1124,-1.6074711285033167,-0.27373918890953064,1.609787940979004,-1.2960063219070435,0.0011995559325441718,1.8597187995910645,3.874115152949951,0.0002431945176795125,0.20370782911777496,-1.5830023924456995,1.5155361325014383e-05,0.047364242374897,0.8531836867332458,-0.0,-0.005668222904205322,0.778839111328125,-0.0,-0.23590275645256042
463.0,349.0,1.797,-0.3236,9.4283,-0.0308,-0.1132,-0.1124,-1.609105726281637,-0.27600231766700745,1.561597466468811,-1.296034812927246,0.0008772697183303535,1.8730642795562744,3.8740784364887695,0.00022082432406023145,0.2031855285167694,-1.5829537550555628,1.4426553207158577e-05,0.07588386535644531,0.853203535079956,-0.0,0.0021081361919641495,0.7788345217704773,0.00016734011296648532,-0.2226833999156952
463.0,349.0,1.797,-0.3236,9.4283,-0.0308,-0.1132,-0.1124,-1.6107694111266078,-0.2763535976409912,1.6094510555267334,-1.296034812927246,0.0006186488317325711,1.8608506917953491,3.8741232591816406,0.00020221705199219286,0.20358410477638245,-1.5829375425921839,1.7985466911341064e-06,0.077116459608078,0.8531917929649353,-0.0,-0.010331080295145512,0.7788426876068115,0.00024725982802920043,-0.2532470226287842
463.0,349.0,1.797,-0.3236,9.4283,-0.0308,-0.1132,-0.1124,-1.6123959026732386,-0.28126928210258484,1.5694037675857544,-1.2960267066955566,9.445218893233687e-05,1.8926030397415161,3.87410752355542,0.00018650160927791148,0.2055305540561676,-1.5829861799823206,5.006320913381046e-10,0.06747063249349594,0.8531717658042908,-0.0,-0.003552048234269023,0.7789113521575928,0.00025413883849978447,-0.23666635155677795
426.0,343.0,3.8865,-0.7113,7.9364,-0.0797,-0.2309,-0.1122,-1.614054342309469,-0.2852243483066559,1.623645305633545,-1.2959741353988647,4.256049734863154e-08,1.8547499179840088,3.8741318422504882,0.0001515184121672064,0.20964738726615906,-1.582961384450094,1.3935278983263216e-13,0.06679550558328629,0.8531796932220459,-0.0,-0.004985043313354254,0.7788185477256775,0.00022980461653787643,-0.2741491198539734
426.0,343.0,3.8865,-0.7113,7.9364,-0.0797,-0.2309,-0.1122,-1.6157342396178187,-0.2823191285133362,1.662298560142517,-1.2959986925125122,1.0277859834907643e-13,1.8260776996612549,3.874119921321533,0.00014123707660473883,0.1968080699443817,-1.5829694906817835,3.87893609675309e-17,0.0675104483962059,0.8531360030174255,-0.0,-0.0069522736594080925,0.7788185477256775,0.0002097226242767647,-0.2757599651813507
426.0,343.0,3.8865,-0.7113,7.9364,-0.0797,-0.2309,-0.1122,-1.6173840961852015,-0.2846062481403351,1.607123851776123,-1.2959946393966675,2.481982052841326e-19,1.8560290336608887,3.8741275507160644,0.00013233651407063007,0.2009105086326599,-1.5830062071429651,1.0797160262879827e-20,0.07505586743354797,0.8532273769378662,-0.0,-0.01621849462389946,0.7788428068161011,0.00019286884344182909,-0.28394803404808044
426.0,343.0,3.8865,-0.7113,7.9364,-0.0797,-0.2309,-0.1122,-1.6191112003722132,-0.2842908799648285,1.5972864627838135,-1.2959657907485962,0.0015408415347337723,1.8342242240905762,3.874103232020996,0.00012449118366930634,0.195556640625,-1.583010498677389,3.005429492412241e-24,0.0814904123544693,0.8532512187957764,-0.0,-0.014857964590191841,0.7788751125335693,0.00015620750491507351,-0.27748095989227295
426.0,343.0,3.8865,-0.7113,7.9364,-0.0797,-0.2309,-0.1122,-1.620828767816061,-0.27390941977500916,1.6364576816558838,-1.295864462852478,0.002863320056349039,1.8434116840362549,3.8741113382526855,0.00011752407590392977,0.18751025199890137,-1.583010498677389,8.365724492158029e-28,0.07372968643903732,0.8531637787818909,-0.0,-0.006564028095453978,0.7788268327713013,0.00014539214316755533,-0.28514254093170166
426.0,343.0,3.8865,-0.7113,7.9364,-0.0797,-0.2309,-0.1122,-1.6224924526610316,-0.27450600266456604,1.6332356929779053,-1.2959301471710205,0.003467635717242956,1.8162569999694824,3.8741232591816406,0.00011129542690468952,0.1857403665781021,-1.5829904715167444,2.3286300937953246e-31,0.07537291198968887,0.8531956076622009,-0.0,-0.03023909591138363,0.7788668870925903,0.00013597776705864817,-0.2673725485801697
426.0,343.0,3.8865,-0.7113,7.9364,-0.0797,-0.2309,-0.1122,-1.6236268482603968,-0.27786871790885925,1.6292587518692017,-1.2959388494491577,0.002777473069727421,1.8794658184051514,3.8741318422504882,0.00010749721695901826,0.18864884972572327,-1.583010498677389,9.927315197278115e-34,0.07279352843761444,0.853211522102356,-0.0,-0.0010333985555917025,0.7788386344909668,0.00013035081792622805,-0.25085845589637756
426.0,343.0,3.8865,-0.7113,7.9364,-0.0797,-0.2309,-0.1122,-1.625333925286764,-0.27599769830703735,1.645437479019165,-1.2958942651748657,0.0013543304521590471,1.8282558917999268,3.874163790340088,0.00010226260201307014,0.1871607005596161,-1.5829370657550257,2.7633045197099663e-37,0.07791565358638763,0.8531439900398254,-0.0,-0.012897370383143425,0.7788467407226562,0.00012273271568119526,-0.2548549771308899
426.0,343.0,3.8865,-0.7113,7.9364,-0.0797,-0.2309,-0.1122,-1.6270252666869105,-0.2708733081817627,1.6431069374084473,-1.2959024906158447,0.0007285808678716421,1.8720941543579102,3.8740874963947753,3.166067835991271e-05,0.18667733669281006,-1.5829656759845179,7.691727270678921e-41,0.07286841422319412,0.8531758785247803,-0.0,-0.01845884881913662,0.7787864804267883,0.00011595585965551436,-0.276511549949646
426.0,343.0,3.8865,-0.7113,7.9364,-0.0797,-0.2309,-0.1122,-1.628650804559225,-0.27677735686302185,1.6684550046920776,-1.2959303855895996,-6.342555570881814e-05,1.8319463729858398,3.8740836816975097,5.193576839701564e-07,0.18972232937812805,-1.5829938093768519,2.1019476964872256e-44,0.06920857727527618,0.8532114624977112,-0.0,-0.02219623699784279,0.7788349986076355,0.00010988819121848792,-0.22765621542930603
426.0,343.0,3.8865,-0.7113,7.9364,-0.0797,-0.2309,-0.1122,-1.6303173504271449,-0.27870067954063416,1.644129991531372,-1.2959587574005127,-0.0003586981038097292,1.868762493133545,3.8740874963947753,1.445650960052447e-10,0.17974303662776947,-1.5830019156085413,0.0,0.06704602390527725,0.8531757593154907,-0.0,-0.012305010110139847,0.7787541151046753,4.717097181128338e-05,-0.23277786374092102
426.0,343.0,3.8865,-0.7113,7.9364,-0.0797,-0.2309,-0.1122,-1.631989141503805,-0.26742902398109436,1.6825700998306274,-1.2959628105163574,-0.0002903906279243529,1.8664237260818481,3.874072237605713,4.02402246181717e-14,0.19298067688941956,-1.5830023924456995,0.0,0.0707353800535202,0.8531234860420227,-0.0,-0.007980365306138992,0.7788509726524353,1.2133387627955017e-08,-0.29524773359298706
426.0,343.0,3.8865,-0.7113,7.9364,-0.0797,-0.2309,-0.1122,-1.6334988079466761,-0.2688360810279846,1.6699864864349365,-1.2959587574005127,-0.00028147772536613047,1.82828950881958,3.874067946071289,1.1201014801980608e-17,0.19139543175697327,-1.5829938093768519,0.0,0.08689858019351959,0.8531678318977356,-0.0,-0.011951357126235962,0.7788791656494141,2.930069923669232e-14,-0.34620627760887146
426.0,343.0,3.8865,-0.7113,7.9364,-0.0797,-0.2309,-0.1122,-1.6351543865599574,-0.27269700169563293,1.6482036113739014,-1.295962929725647,-0.00029502096003852785,1.849531888961792,3.8740755754658203,3.1178434556717888e-21,0.18159769475460052,-1.5829818884478968,0.0,0.07914599031209946,0.8531479239463806,-0.0,-0.021354008466005325,0.7787702083587646,7.07577404561249e-20,-0.2840232849121094
426.0,343.0,3.8865,-0.7113,7.9364,-0.0797,-0.2309,-0.1122,-1.6366521320738734,-0.2668774425983429,1.649981141090393,-1.2959061861038208,-0.00017770254635252059,1.7703049182891846,3.874091787929199,8.678630569037936e-25,0.18877914547920227,-1.5829618612872522,0.0,0.0821140855550766,0.8531836867332458,-0.0,-0.015130548737943172,0.7788106203079224,1.7087163545775316e-25,-0.27930161356925964
370.0,301.0,4.5308,-0.6138,7.7521,-0.0673,-0.2442,-0.1234,-1.6382762394347132,-0.25990888476371765,1.7070355415344238,-1.2959386110305786,0.00018768045993056148,1.8285870552062988,3.874091787929199,2.415728595983909e-28,0.17666399478912354,-1.5830023924456995,0.0,0.08659936487674713,0.8532273173332214,-0.0,-0.006197058595716953,0.778830885887146,4.126348634239503e-31,-0.33404290676116943
370.0,301.0,4.5308,-0.6138,7.7521,-0.0673,-0.2442,-0.1234,-1.6398388348021449,-0.2604725956916809,1.609278917312622,-1.2959789037704468,0.00021423348516691476,1.839674949645996,3.874091787929199,6.724270260326569e-32,0.1727025806903839,-1.5830062071429651,0.0,0.07929180562496185,0.8532352447509766,-0.0,-0.01434176042675972,0.7788714170455933,-0.0002033166674664244,-0.2809251546859741
370.0,301.0,4.5308,-0.6138,7.7521,-0.0673,-0.2442,-0.1234,-1.641409536401266,-0.2557757496833801,1.7101926803588867,-1.295865535736084,0.00018179997277911752,1.8196556568145752,3.8740874963947753,-7.914804155007005e-05,0.18026287853717804,-1.5829413572894495,0.0,0.08311966806650162,0.8531559109687805,-0.0,-0.023073675110936165,0.7788188457489014,-7.705600000917912e-05,-0.2988162636756897
370.0,301.0,4.5308,-0.6138,7.7521,-0.0673,-0.2442,-0.1234,-1.6423613033690394,-0.25583308935165405,1.6987922191619873,-1.2959225177764893,0.0001255260140169412,1.8384652137756348,3.874135656947754,-7.264604937518016e-05,0.18499237298965454,-1.5830181280719202,0.0,0.08652785420417786,0.8532074689865112,-0.0,-0.0202601607888937,0.7787581086158752,-6.497478170786053e-05,-0.35727012157440186
370.0,301.0,4.5308,-0.6138,7.7521,-0.0673,-0.2442,-0.1234,-1.6438590488829554,-0.2559677064418793,1.6722831726074219,-1.2959184646606445,0.0001243207952938974,1.8234987258911133,3.874098940486572,-6.479892908828333e-05,0.1771824210882187,-1.5829818884478968,0.0,0.07590168714523315,0.8531995415687561,-0.0,-0.009805087931454182,0.778830885887146,-5.340555071597919e-05,-0.31021562218666077
370.0,301.0,4.5308,-0.6138,7.7521,-0.0673,-0.2442,-0.1234,-1.6453944645323695,-0.2574584186077118,1.6927433013916016,-1.2958776950836182,0.00016218380187638104,1.8994381427764893,3.8741518694111328,-4.414201612235047e-05,0.1874655783176422,-1.5829938093768519,0.0,0.07528847455978394,0.8532273769378662,-0.0,-0.0060957870446145535,0.7788064479827881,-4.5334181777434424e-05,-0.32766902446746826
370.0,301.0,4.5308,-0.6138,7.7521,-0.0673,-0.2442,-0.1234,-1.6469413242735804,-0.2561549246311188,1.7005815505981445,-1.2958896160125732,0.0005152431549504399,1.836927056312561,3.8741394716450195,-1.7968726524486556e-06,0.1799067258834839,-1.5830300490008753,0.0,0.06864450871944427,0.8531956076622009,-0.0,-0.0069923908449709415,0.7788028120994568,-3.1762564800530413e-10,-0.2877946197986603
370.0,301.0,4.5308,-0.6138,7.7521,-0.0673,-0.2442,-0.1234,-1.6484881840147914,-0.2569538652896881,1.7388947010040283,-1.2959104776382446,0.0019972342997789383,1.8322248458862305,3.874123736018799,-5.001661862458207e-10,0.1834365874528885,-1.5830143133746546,0.0,0.08284935355186462,0.8531836867332458,-0.0,-0.017900500446558,0.7788509726524353,-7.670286207433227e-16,-0.2954427897930145
370.0,301.0,4.5308,-0.6138,7.7521,-0.0673,-0.2442,-0.1234,-1.6500188312926234,-0.2565816044807434,1.7544341087341309,-1.2958868741989136,0.003656303510069847,1.8149347305297852,3.8741676050373535,-1.3922309214774858e-13,0.1919855773448944,-1.5830181280719202,0.0,0.060182955116033554,0.8531439900398254,-0.0,-0.014204614795744419,0.7787825465202332,-1.8522839776017574e-21,-0.26224589347839355
370.0,301.0,4.5308,-0.6138,7.7521,-0.0673,-0.2442,-0.1234,-1.6515890560545863,-0.24538379907608032,1.7728337049484253,-1.2958420515060425,0.005828555207699537,1.8906476497650146,3.8741633135029296,-3.875326280559909e-17,0.18975555896759033,-1.583050552998678,0.0,0.06805343925952911,0.8532193303108215,-0.0,-0.007606986910104752,0.7788792252540588,-4.473047792293175e-27,-0.28753358125686646
370.0,301.0,4.5308,-0.6138,7.7521,-0.0673,-0.2442,-0.1234,-1.653051038781637,-0.24178633093833923,1.7894458770751953,-1.2958145141601562,0.008015190251171589,1.9083783626556396,3.874119444484375,0.0005389078869484365,0.18586263060569763,-1.583005730305807,0.0,0.0781257227063179,0.8531678915023804,-0.0,-0.015191703103482723,0.7788345813751221,-1.080188648403875e-32,-0.32269755005836487
370.0,301.0,4.5308,-0.6138,7.7521,-0.0673,-0.2442,-0.1234,-1.6546179256834925,-0.24932831525802612,1.7935528755187988,-1.2957017421722412,0.008404855616390705,1.8738082647323608,3.8741838175007324,0.00041388985118828714,0.18935570120811462,-1.583022419606344,0.0,0.07623116672039032,0.8531599044799805,-0.0,-0.01245835330337286,0.7788226008415222,-2.6085283017283616e-38,-0.2567915618419647
370.0,301.0,4.5308,-0.6138,7.7521,-0.0673,-0.2442,-0.1234,-1.6561442814269007,-0.24800948798656464,1.8111945390701294,-1.2957143783569336,0.007610843982547522,1.8952994346618652,3.8741232591816406,0.0003243233950342983,0.2116381675004959,-1.583005730305807,0.0,0.07652953267097473,0.853207528591156,-0.0,-0.019180895760655403,0.7788188457489014,-6.305843089461677e-44,-0.2865369915962219
370.0,301.0,4.5308,-0.6138,7.7521,-0.0673,-0.2442,-0.1234,-1.6576343975462855,-0.24010159075260162,1.8615062236785889,-1.295698642730713,0.007749606855213642,1.926546335220337,3.8741437631794433,0.0002666386717464775,0.19767974317073822,-1.583017651234762,0.0,0.07102248072624207,0.853191614151001,-0.0,-0.013532457873225212,0.7788751125335693,0.0,-0.20152905583381653
370.0,301.0,4.5308,-0.6138,7.7521,-0.0673,-0.2442,-0.1234,-1.6586171589293421,-0.2402040809392929,1.8618013858795166,-1.2956011295318604,0.007770994678139687,1.913844347000122,3.8741232591816406,0.00023837837215978652,0.1945616602897644,-1.5829899946795862,0.0,0.06093901768326759,0.8531995415687561,-0.0,-0.017778169363737106,0.778822660446167,0.0,-0.2363218069076538
331.0,280.0,5.8074,-0.3242,7.6044,-0.0368,-0.2526,-0.1097,-1.6600476704039515,-0.2440575659275055,1.9594320058822632,-1.295569896697998,0.006687851622700691,1.886704921722412,3.8741442400166015,0.00020568135369103402,0.20837293565273285,-1.5830219427691858,0.0,0.08104723691940308,0.8531995415687561,-0.0,-0.010722339153289795,0.778878927230835,0.0,-0.2558867931365967
331.0,280.0,5.8074,-0.3242,7.6044,-0.0368,-0.2526,-0.1097,-1.6614982090392054,-0.2412950098514557,1.9014503955841064,-1.2955410480499268,0.006332955788820982,1.9547717571258545,3.874176188106201,0.0001808738015824929,0.21443943679332733,-1.5830143133746546,0.0,0.061156269162893295,0.8531400561332703,-0.0,-0.012262186035513878,0.7787904739379883,0.0,-0.24351534247398376
331.0,280.0,5.8074,-0.3242,7.6044,-0.0368,-0.2526,-0.1097,-1.6629449329771937,-0.22722892463207245,1.924849271774292,-1.2955257892608643,0.006393352523446083,1.9750816822052002,3.8741437631794433,0.00016140774823725224,0.21509923040866852,-1.5830300490008753,0.0,0.07457907497882843,0.8531955480575562,-0.0,-0.01434469036757946,0.7788673043251038,0.0,-0.23289519548416138
331.0,280.0,5.8074,-0.3242,7.6044,-0.0368,-0.2526,-0.1097,-1.6642796001830042,-0.2254762500524521,1.9324486255645752,-1.2955139875411987,0.005457993131130934,1.9299430847167969,3.87413136541333,0.00017386763647664338,0.2106090784072876,-1.5830419699298304,0.0,0.04625551402568817,0.8531836271286011,-0.0,-0.020114175975322723,0.7788673043251038,0.0,-0.2265053391456604
331.0,280.0,5.8074,-0.3242,7.6044,-0.0368,-0.2526,-0.1097,-1.6656657658019007,-0.2313527911901474,1.945716381072998,-1.2955098152160645,0.003139674663543701,1.9089807271957397,3.8741671282001953,0.000159384188009426,0.22207897901535034,-1.5830019156085413,0.0,0.051234278827905655,0.8531558513641357,-0.0,-0.02073117531836033,0.7788792252540588,0.0,-0.2524586617946625
331.0,280.0,5.8074,-0.3242,7.6044,-0.0368,-0.2526,-0.1097,-1.6669441662230433,-0.23214581608772278,1.99049973487854,-1.2955061197280884,0.001835653674788773,1.9171710014343262,3.8741351801105957,0.0001703970629023388,0.20964838564395905,-1.5830262343036097,0.0,0.0586763471364975,0.8532312512397766,-0.0,-0.027453448623418808,0.7788591384887695,0.0,-0.2367611974477768
331.0,280.0,5.8074,-0.3242,7.6044,-0.0368,-0.2526,-0.1097,-1.668302675286764,-0.22240354120731354,1.9861738681793213,-1.2954497337341309,0.0025831391103565693,1.9765002727508545,3.874188109035156,0.0001394466671627015,0.21515652537345886,-1.5830419699298304,0.0,0.057573217898607254,0.8531439900398254,-0.0,-0.014410123229026794,0.778822660446167,0.0,-0.24980448186397552
331.0,280.0,5.8074,-0.3242,7.6044,-0.0368,-0.2526,-0.1097,-1.6696177921690882,-0.2140679508447647,2.0025599002838135,-1.2954093217849731,0.00594062265008688,1.9751120805740356,3.8742028909870605,0.00019845071074087173,0.21604235470294952,-1.5830219427691858,0.0,0.054786741733551025,0.8531757593154907,-0.0,-0.014396030455827713,0.7788268327713013,0.0,-0.25617167353630066
331.0,280.0,5.8074,-0.3242,7.6044,-0.0368,-0.2526,-0.1097,-1.670835634271139,-0.2129478007555008,1.9999920129776,-1.295373558998108,0.00788180436939001,1.9755302667617798,3.8741718965717773,0.0007735825493000448,0.21610406041145325,-1.5830019156085413,0.0,0.048134125769138336,0.8532431721687317,-0.0,-0.018922334536910057,0.7788591980934143,0.0,-0.19541886448860168
331.0,280.0,5.8074,-0.3242,7.6044,-0.0368,-0.2526,-0.1097,-1.6721421680846156,-0.21048927307128906,2.0626800060272217,-1.295296549797058,0.007994277402758598,2.035536050796509,3.8741389948078613,0.0005504219443537295,0.23020191490650177,-1.5830381552325647,0.0,0.0450076162815094,0.8532034754753113,-0.0,-0.008861243724822998,0.7788185477256775,2.1753938199253753e-05,-0.22612056136131287
331.0,280.0,5.8074,-0.3242,7.6044,-0.0368,-0.2526,-0.1097,-1.6733528576292933,-0.20911943912506104,2.046847343444824,-1.2953294515609741,0.007841533981263638,1.9989686012268066,3.8741351801105957,0.0005431760801002383,0.23906125128269196,-1.5830262343036097,-0.0001057574845617637,0.05427104979753494,0.8531439900398254,-0.0,-0.015808722004294395,0.7788185477256775,2.0282453988329507e-05,-0.21711042523384094
331.0,280.0,5.8074,-0.3242,7.6044,-0.0368,-0.2526,-0.1097,-1.6741920910277308,-0.20670509338378906,2.0865159034729004,-1.2953016757965088,0.007869154214859009,1.981438159942627,3.8741909700581054,0.0004858967731706798,0.23177117109298706,-1.583033863698141,-0.00010168134031118825,0.0452711284160614,0.8531479835510254,-0.0,-0.012370358221232891,0.7788510322570801,1.940770926012192e-05,-0.1647338569164276
331.0,280.0,5.8074,-0.3242,7.6044,-0.0368,-0.2526,-0.1097,-1.675370832482809,-0.20628534257411957,2.071409225463867,-1.2951842546463013,0.0077414861880242825,2.014045476913452,3.8741351801105957,0.0004041074716951698,0.24044014513492584,-1.583050552998678,-9.522902109893039e-05,0.03575129806995392,0.853139340877533,-0.0,-0.01009337231516838,0.7788267731666565,1.8228462067781948e-05,-0.20712020993232727
331.0,280.0,5.8074,-0.3242,7.6044,-0.0368,-0.2526,-0.1097,-1.676589151422018,-0.20223474502563477,2.067953109741211,-1.2951771020889282,0.009165064431726933,1.993795394897461,3.874211474055908,0.00027440712437964976,0.24460726976394653,-1.5830462614642542,-8.954382792580873e-05,0.0328100211918354,0.8531836271286011,-0.0,-0.010669026523828506,0.7788469195365906,1.718432758934796e-05,-0.1569560468196869
331.0,280.0,5.8074,-0.3242,7.6044,-0.0368,-0.2526,-0.1097,-1.6777359447874964,-0.1951088160276413,2.1362905502319336,-1.2951297760009766,0.010589814744889736,2.0134270191192627,3.8741718965717773,0.00023152100038714707,0.2365594506263733,-1.583033863698141,-0.00010138953075511381,0.05346197262406349,0.8531314730644226,-0.0,-0.009731108322739601,0.778822660446167,1.625333788979333e-05,-0.17740538716316223
331.0,280.0,5.8074,-0.3242,7.6044,-0.0368,-0.2526,-0.1097,-1.678922792474264,-0.19480109214782715,2.1257660388946533,-1.294995665550232,0.013245061039924622,2.0025668144226074,3.87415520727124,0.00024064278113655746,0.24123403429985046,-1.583033863698141,-9.599182521924376e-05,0.05893808975815773,0.8531354069709778,-0.0,-0.018390538170933723,0.7788270711898804,1.5418028851854615e-05,-0.14944562315940857
279.0,254.0,5.817,-0.2919,7.6116,-0.0425,-0.2115,-0.1261,-1.6800371609129847,-0.19274909794330597,2.120596408843994,-1.2949495315551758,0.01515465322881937,2.0405795574188232,3.8742357927509765,0.0002470315375830978,0.23255810141563416,-1.5830262343036097,-9.113174746744335e-05,0.039264705032110214,0.8531757593154907,-0.0,-0.023454368114471436,0.7788556218147278,1.4664381524198689e-05,-0.16260743141174316
279.0,254.0,5.817,-0.2919,7.6116,-0.0425,-0.2115,-0.1261,-1.681160112420553,-0.19185000658035278,2.143533945083618,-1.2947719097137451,0.0179471243172884,2.040661334991455,3.8741952615925292,0.0003089572419412434,0.24608218669891357,-1.5830262343036097,-8.67401686264202e-05,0.050459008663892746,0.8531638383865356,-0.0,-0.010329879820346832,0.7788106203079224,1.3980975381855387e-05,-0.20467443764209747
279.0,254.0,5.817,-0.2919,7.6116,-0.0425,-0.2115,-0.1261,-1.6823507748045863,-0.18223032355308533,2.129089832305908,-1.2946916818618774,0.02031055837869644,2.059391975402832,3.8741790491291503,0.00037753398646600544,0.25154972076416016,-1.583033863698141,-8.275232539745048e-05,0.04044867679476738,0.8531479835510254,-0.0,-0.00929410569369793,0.7788226008415222,1.3358437172428239e-05,-0.1684742271900177
279.0,254.0,5.817,-0.2919,7.6116,-0.0425,-0.2115,-0.1261,-1.6834575138487757,-0.17905086278915405,2.2125213146209717,-1.2946029901504517,0.021636998280882835,2.1023077964782715,3.874215288753174,0.0006834848318248987,0.24223142862319946,-1.5830219427691858,-7.911516877356917e-05,0.03347840905189514,0.8531802296638489,-0.0,-0.025069989264011383,0.7788591384887695,2.557785228418652e-05,-0.2055368721485138
279.0,254.0,5.817,-0.2919,7.6116,-0.0425,-0.2115,-0.1261,-1.6845842800536097,-0.18360570073127747,2.2268784046173096,-1.2944591045379639,0.021686304360628128,2.0352001190185547,3.8741866785236816,0.000579601910430938,0.24286915361881256,-1.5830257574664515,-7.578419899800792e-05,0.04993570223450661,0.8531715273857117,-0.0,-0.01047712005674839,0.778863251209259,2.4532158931833692e-05,-0.21583881974220276
