ramyac6/ROB537/final_project/csv/all/good_178.csv
tof_0,tof_1,accelx,accely,accelz,gyrox,gyroy,gyroz,shoulder_lift_joint_position,shoulder_lift_joint_velocity,shoulder_lift_joint_effort,elbow_joint_position,elbow_joint_velocity,elbow_joint_effort,wrist_1_joint_position,wrist_1_joint_velocity,wrist_1_joint_effort,wrist_2_joint_position,wrist_2_joint_velocity,wrist_2_joint_effort,wrist_3_joint_position,wrist_3_joint_velocity,wrist_3_joint_effort,shoulder_pan_joint_position,shoulder_pan_joint_velocity,shoulder_pan_joint_effort
394.0,655.0,-0.012,0.7137,9.7101,-0.036,0.0258,-0.12,-1.815920969048971,0.0,3.020789861679077,-1.8186304569244385,-0.0,1.9697518348693848,5.087306546955862,-0.0,0.2950543761253357,-1.6520431677447718,-0.0,-0.004349773749709129,0.7881317734718323,0.0,-0.0021599202882498503,0.8156955242156982,0.0,-0.016440343111753464
394.0,655.0,-0.012,0.7137,9.7101,-0.036,0.0258,-0.12,-1.8159247837462367,0.0,3.0134830474853516,-1.81864595413208,-0.0,1.9588549137115479,5.087366777449407,-0.0,0.2769000828266144,-1.6520307699786585,-0.0,0.003457921091467142,0.7880997657775879,0.0,0.004795987159013748,0.8156672716140747,0.0,-0.024843987077474594
394.0,655.0,-0.012,0.7137,9.7101,-0.036,0.0258,-0.12,-1.8159247837462367,0.0,3.0196213722229004,-1.8186097145080566,-0.0,1.9783375263214111,5.087331074267187,-0.0,0.28452497720718384,-1.6520221869098108,-0.0,0.014487463980913162,0.7880397439002991,0.0,0.003234955482184887,0.815699577331543,0.0,-0.004413553513586521
394.0,655.0,-0.012,0.7137,9.7101,-0.036,0.0258,-0.12,-1.815989156762594,0.0,2.9802699089050293,-1.8186179399490356,-0.0,1.950215220451355,5.087314682989874,-0.0,0.2767532765865326,-1.6520708242999476,-0.0,-0.003994953818619251,0.7880841493606567,0.0,0.00279864645563066,0.8156914710998535,0.0,-0.01941504329442978
394.0,655.0,-0.012,0.7137,9.7101,-0.036,0.0258,-0.12,-1.8159333668150843,0.0,3.0010249614715576,-1.81864595413208,-0.0,1.9664802551269531,5.087290513306417,-0.0,0.28845906257629395,-1.652046028767721,-0.0,0.0016629451420158148,0.7881239652633667,0.0,0.008025910705327988,0.8156310319900513,0.0,-0.021724680438637733
394.0,655.0,-0.012,0.7137,9.7101,-0.036,0.0258,-0.12,-1.8159529171385707,0.0,3.019911766052246,-1.8185932636260986,-0.0,1.9905798435211182,5.087274539261617,-0.0,0.2795465886592865,-1.6520751158343714,-0.0,0.0020753205753862858,0.7881641387939453,0.0,0.00014341739006340504,0.815635085105896,0.0,0.01040644384920597
394.0,655.0,-0.012,0.7137,9.7101,-0.036,0.0258,-0.12,-1.8159004650511683,0.0,3.0079293251037598,-1.8186583518981934,-0.0,1.9341094493865967,5.087334769755163,-0.0,0.2863048315048218,-1.6520503203021448,-0.0,0.0010061346692964435,0.7880557775497437,0.0,-0.020670663565397263,0.8156590461730957,0.0,0.01032735500484705
382.0,637.0,0.1083,0.789,9.4911,-0.0304,0.0218,-0.118,-1.8159285984435023,0.0,2.992860794067383,-1.8186419010162354,-0.0,1.92684805393219,5.0872782347495935,-0.0,0.2892383337020874,-1.652038876210348,-0.0,-0.005191517993807793,0.7881399393081665,0.0,-0.00643108319491148,0.815707802772522,0.0,0.006216215901076794
382.0,637.0,0.1083,0.789,9.4911,-0.0304,0.0218,-0.118,-1.815949102441305,0.0,2.981823205947876,-1.8186264038085938,-0.0,1.9788503646850586,5.087298381119528,-0.0,0.29617536067962646,-1.6520183722125452,-0.0,0.007485071197152138,0.7881280183792114,0.0,-0.0008287884411402047,0.815699577331543,0.0,0.0035340150352567434
382.0,637.0,0.1083,0.789,9.4911,-0.0304,0.0218,-0.118,-1.8159333668150843,0.0,2.936077117919922,-1.8186582326889038,-0.0,1.9513704776763916,5.087326514511862,-0.0,0.27862828969955444,-1.6520345846759241,-0.0,0.004906930960714817,0.788111686706543,0.0,-0.004490174353122711,0.8156552910804749,0.0,0.022105500102043152
382.0,637.0,0.1083,0.789,9.4911,-0.0304,0.0218,-0.118,-1.8159367046751917,0.0,3.0376150608062744,-1.818613886833191,-0.0,1.9406421184539795,5.08729054310874,-0.0,0.28256532549858093,-1.6520422140704554,-0.0,0.004884044174104929,0.7880476713180542,0.0,0.014726047404110432,0.8156791925430298,0.0,0.03139322251081467
382.0,637.0,0.1083,0.789,9.4911,-0.0304,0.0218,-0.118,-1.8159285984435023,0.0,2.9920973777770996,-1.8186419010162354,-0.0,1.943052053451538,5.087318795710363,-0.0,0.29257261753082275,-1.6520503203021448,-0.0,-0.004235985688865185,0.7880957126617432,0.0,0.004569896496832371,0.815695583820343,0.0,0.027803409844636917
382.0,637.0,0.1083,0.789,9.4911,-0.0304,0.0218,-0.118,-1.81593718151235,0.0,3.0100114345550537,-1.8186419010162354,-0.0,1.9741976261138916,5.087278651982107,-0.0,0.28845077753067017,-1.6520431677447718,-0.0,0.0005184895126149058,0.7880957126617432,0.0,0.003883849363774061,0.8156754970550537,0.0,-0.0016805259510874748
382.0,637.0,0.1083,0.789,9.4911,-0.0304,0.0218,-0.118,-1.815965314904684,0.0,3.0041911602020264,-1.8186386823654175,-0.0,1.9524834156036377,5.087314682989874,-0.0,0.27629148960113525,-1.6520221869098108,-0.0,-0.00036719487980008125,0.7881317734718323,0.0,0.00952938199043274,0.8156754970550537,0.0,0.012632010504603386
382.0,637.0,0.1083,0.789,9.4911,-0.0304,0.0218,-0.118,-1.8159290752806605,0.0,3.0510594844818115,-1.8186790943145752,-0.0,1.9330568313598633,5.087318765908041,-0.0,0.28890261054039,-1.6520345846759241,-0.0,0.015008143149316311,0.7880637049674988,0.0,-0.01049690693616867,0.8156832456588745,0.0,0.034408118575811386
382.0,637.0,0.1083,0.789,9.4911,-0.0304,0.0218,-0.118,-1.8159085712828578,0.0,2.991619348526001,-1.8186014890670776,-0.0,1.9874730110168457,5.087314653187551,-0.0,0.2964707911014557,-1.6520345846759241,-0.0,-0.003657777328044176,0.7880997657775879,0.0,-0.006906324066221714,0.815635085105896,0.0,0.04579322412610054
382.0,637.0,0.1083,0.789,9.4911,-0.0304,0.0218,-0.118,-1.8159648380675257,0.0,2.993302345275879,-1.81862211227417,-0.0,1.9902913570404053,5.087310510664739,-0.0,0.285929799079895,-1.6520546118365687,-0.0,0.003938084468245506,0.7881037592887878,0.0,0.004732278175652027,0.8156750798225403,0.0,-0.015642866492271423
382.0,637.0,0.1083,0.789,9.4911,-0.0304,0.0218,-0.118,-1.8159648380675257,0.0,2.986644744873047,-1.8186180591583252,-0.0,1.9850519895553589,5.087242144137182,-0.0,0.2896263897418976,-1.6519902388202112,-0.0,-0.012837914749979973,0.788084089756012,0.0,-0.002790152793750167,0.8156754970550537,0.0,-0.026717275381088257
382.0,637.0,0.1083,0.789,9.4911,-0.0304,0.0218,-0.118,-1.815949102441305,0.0,2.968932867050171,-1.8186626434326172,-0.0,2.0058083534240723,5.087254541903295,-0.0,0.2865353226661682,-1.652046028767721,-0.0,-0.004092893563210964,0.7881520986557007,0.0,0.003920227289199829,0.8156874179840088,0.0,0.030554398894309998
387.0,652.0,0.0114,0.7065,9.3422,-0.0438,0.0244,-0.1202,-1.8158966503539027,0.0,2.9565868377685547,-1.818670630455017,-0.0,1.9412684440612793,5.087282377272405,-0.0,0.2754673659801483,-1.6520345846759241,-0.0,-0.006620560772716999,0.7881441116333008,0.0,-0.00224559404887259,0.8157119750976562,0.0,-0.016217786818742752
387.0,652.0,0.0114,0.7065,9.3422,-0.0438,0.0244,-0.1202,-1.815920969048971,0.0,3.0125088691711426,-1.81868314743042,-0.0,1.954784870147705,5.087262648134985,-0.0,0.2826650142669678,-1.6520221869098108,-0.0,0.004327031318098307,0.7880997657775879,0.0,0.008731166832149029,0.8156713843345642,0.0,0.037215057760477066
387.0,652.0,0.0114,0.7065,9.3422,-0.0438,0.0244,-0.1202,-1.8159247837462367,0.0,2.981160879135132,-1.8186262845993042,-0.0,1.9438810348510742,5.087294596224584,-0.0,0.288221150636673,-1.652038876210348,-0.0,0.004047207999974489,0.7881035208702087,0.0,-0.0038470416329801083,0.8156754970550537,0.0,0.06557997316122055
387.0,652.0,0.0114,0.7065,9.3422,-0.0438,0.0244,-0.1202,-1.8159290752806605,0.0,2.9953784942626953,-1.818674921989441,-0.0,1.988229513168335,5.087294208794393,-0.0,0.27273041009902954,-1.651994530354635,-0.0,-0.000505996635183692,0.7880716919898987,0.0,-0.00662267068400979,0.815671443939209,0.0,0.011737240478396416
387.0,652.0,0.0114,0.7065,9.3422,-0.0438,0.0244,-0.1202,-1.8159367046751917,0.0,3.018921375274658,-1.818613886833191,-0.0,1.9573031663894653,5.087310480862417,-0.0,0.29211634397506714,-1.652067009602682,-0.0,-0.009177641943097115,0.7881357669830322,0.0,-0.005349140148609877,0.815707802772522,0.0,0.027949143201112747
387.0,652.0,0.0114,0.7065,9.3422,-0.0438,0.0244,-0.1202,-1.8159085712828578,0.0,3.0256028175354004,-1.8186707496643066,-0.0,1.9762821197509766,5.087258147984304,-0.0,0.28571948409080505,-1.652046028767721,-0.0,0.004442418925464153,0.7881154417991638,0.0,-0.00627661868929863,0.8156230449676514,0.0,-0.02467234432697296
387.0,652.0,0.0114,0.7065,9.3422,-0.0438,0.0244,-0.1202,-1.815977235833639,0.0,3.0204405784606934,-1.8187141418457031,-0.0,2.000823497772217,5.087286489992895,-0.0,0.2854796051979065,-1.6520503203021448,-0.0,-0.0013133261818438768,0.7880997657775879,0.0,0.010957909747958183,0.8156673312187195,0.0,0.02762005850672722
387.0,652.0,0.0114,0.7065,9.3422,-0.0438,0.0244,-0.1202,-1.815920969048971,0.0,2.979830741882324,-1.8186873197555542,-0.0,1.9535102844238281,5.087314712792196,-0.0,0.2799621820449829,-1.6520546118365687,-0.0,-0.0022168601863086224,0.7881481051445007,0.0,-0.0015927795320749283,0.8156672120094299,0.0,0.0002362225204706192
387.0,652.0,0.0114,0.7065,9.3422,-0.0438,0.0244,-0.1202,-1.8159414730467738,0.0,3.0202603340148926,-1.8186789751052856,-0.0,1.949469804763794,5.08727045634345,-0.0,0.28472355008125305,-1.6520140806781214,-0.0,-0.004513206426054239,0.7881239652633667,0.0,0.0072712041437625885,0.8156956434249878,0.0,-0.013517824932932854
387.0,652.0,0.0114,0.7065,9.3422,-0.0438,0.0244,-0.1202,-1.8159085712828578,0.0,2.9843249320983887,-1.8186944723129272,-0.0,1.9365766048431396,5.087334769755163,-0.0,0.289162814617157,-1.6520870367633265,-0.0,0.007442757021635771,0.7880880832672119,0.0,0.0022020696196705103,0.8156151175498962,0.0,-0.018163183704018593
387.0,652.0,0.0114,0.7065,9.3422,-0.0438,0.0244,-0.1202,-1.8159166775145472,0.0,3.00123929977417,-1.818613886833191,-0.0,1.9723750352859497,5.087306457548895,-0.0,0.28838253021240234,-1.652062718068258,-0.0,-0.010840674862265587,0.7880880832672119,0.0,0.008417394943535328,0.8156754970550537,0.0,0.0032549332827329636
387.0,652.0,0.0114,0.7065,9.3422,-0.0438,0.0244,-0.1202,-1.8159409962096156,0.0,3.043975830078125,-1.8186098337173462,-0.0,1.963422179222107,5.087294238596716,-0.0,0.2781241536140442,-1.652038876210348,-0.0,0.006305573042482138,0.7881157398223877,0.0,0.001645588781684637,0.81566321849823,0.0,0.06109553202986717
387.0,652.0,0.0114,0.7065,9.3422,-0.0438,0.0244,-0.1202,-1.8159166775145472,0.0,2.9732279777526855,-1.8186500072479248,-0.0,1.9638590812683105,5.087274181633749,-0.0,0.27551978826522827,-1.6520503203021448,-0.0,-0.006779533810913563,0.788111686706543,0.0,-0.0070329406298696995,0.8157037496566772,0.0,-0.03929877281188965
385.0,663.0,0.0586,0.7531,9.6066,-0.0397,0.0214,-0.1213,-1.815920969048971,0.0,3.0053515434265137,-1.8186872005462646,-0.0,1.9592564105987549,5.087318765908041,-0.0,0.28143587708473206,-1.6520751158343714,-0.0,-0.0025025038048624992,0.7880997657775879,0.0,-0.0003896497655659914,0.8156874179840088,0.0,-0.020586280152201653
385.0,663.0,0.0586,0.7531,9.6066,-0.0397,0.0214,-0.1213,-1.8159572086729945,0.0,3.021747589111328,-1.8185933828353882,-0.0,1.9660897254943848,5.087298381119528,-0.0,0.291253924369812,-1.6520870367633265,-0.0,0.0015284190885722637,0.7880637049674988,0.0,-0.0064368960447609425,0.8156914710998535,0.0,-0.001064034178853035
385.0,663.0,0.0586,0.7531,9.6066,-0.0397,0.0214,-0.1213,-1.8159452877440394,0.0,3.0055670738220215,-1.8187028169631958,-0.0,1.9048426151275635,5.087262230902471,-0.0,0.28917592763900757,-1.652067009602682,-0.0,-0.008572015911340714,0.7881037592887878,0.0,0.0038246968761086464,0.8157156109809875,0.0,0.014849955216050148
385.0,663.0,0.0586,0.7531,9.6066,-0.0397,0.0214,-0.1213,-1.8159409962096156,0.0,2.986234188079834,-1.8186335563659668,-0.0,1.964459776878357,5.0873106000717065,-0.0,0.28847140073776245,-1.6520989576922815,-0.0,-0.00917818397283554,0.7881197333335876,0.0,0.001296684262342751,0.8157037496566772,0.0,0.029470687732100487
385.0,663.0,0.0586,0.7531,9.6066,-0.0397,0.0214,-0.1213,-1.8159247837462367,0.0,3.061748504638672,-1.81862211227417,-0.0,1.958260178565979,5.087294208794393,-0.0,0.2819170653820038,-1.6520751158343714,-0.0,0.0023569660261273384,0.7881361246109009,0.0,-0.0017780419439077377,0.8156592845916748,0.0,-0.04318493604660034
385.0,663.0,0.0586,0.7531,9.6066,-0.0397,0.0214,-0.1213,-1.81589998821401,0.0,3.0585784912109375,-1.8186097145080566,-0.0,1.9635944366455078,5.087314712792196,-0.0,0.29843151569366455,-1.652038876210348,-0.0,-0.007557612843811512,0.7881239652633667,0.0,-0.01839253678917885,0.815707802772522,0.0,-0.027910888195037842
385.0,663.0,0.0586,0.7531,9.6066,-0.0397,0.0214,-0.1213,-1.815965314904684,0.0,3.0093655586242676,-1.8186821937561035,-0.0,1.9517946243286133,5.087310540467062,-0.0,0.2814748287200928,-1.6520503203021448,-0.0,-0.004205113742500544,0.7881037592887878,0.0,0.002465504454448819,0.815695583820343,0.0,0.018347175791859627
385.0,663.0,0.0586,0.7531,9.6066,-0.0397,0.0214,-0.1213,-1.8159529171385707,0.0,3.0143983364105225,-1.8186707496643066,-0.0,1.9541711807250977,5.087322461396017,-0.0,0.2845959961414337,-1.6520546118365687,-0.0,-0.00561163853853941,0.788144052028656,0.0,0.002306329319253564,0.8156754970550537,0.0,-0.028766270726919174
385.0,663.0,0.0586,0.7531,9.6066,-0.0397,0.0214,-0.1213,-1.8159409962096156,0.0,3.065204620361328,-1.8186789751052856,-0.0,1.9324305057525635,5.087302464037695,-0.0,0.2855752110481262,-1.6520264784442347,-0.0,0.00417917687445879,0.7880517840385437,0.0,0.0021862564608454704,0.8156796097755432,0.0,-0.010643227957189083
385.0,663.0,0.0586,0.7531,9.6066,-0.0397,0.0214,-0.1213,-1.8159452877440394,0.0,3.028632164001465,-1.8186014890670776,-0.0,1.9509546756744385,5.087246227055349,-0.0,0.2841152548789978,-1.6520708242999476,-0.0,-0.0031400625593960285,0.7880595922470093,0.0,0.0004995845956727862,0.8156590461730957,0.0,0.0018803561106324196
385.0,663.0,0.0586,0.7531,9.6066,-0.0397,0.0214,-0.1213,-1.815920969048971,0.0,2.9866318702697754,-1.8186904191970825,-0.0,1.9636282920837402,5.08727045634345,-0.0,0.2802373468875885,-1.6520546118365687,-0.0,-0.003993347752839327,0.788135826587677,0.0,-0.00981057994067669,0.8156796097755432,0.0,0.0013352585956454277
385.0,663.0,0.0586,0.7531,9.6066,-0.0397,0.0214,-0.1213,-1.815949102441305,0.0,3.0242724418640137,-1.81864595413208,-0.0,1.966736912727356,5.0872864601905725,-0.0,0.2837759256362915,-1.6520221869098108,-0.0,-0.016490282490849495,0.7880435585975647,0.0,0.002010471187531948,0.8156552314758301,0.0,0.0013417601585388184
385.0,663.0,0.0586,0.7531,9.6066,-0.0397,0.0214,-0.1213,-1.8158804378905238,0.0,2.9712400436401367,-1.818613886833191,-0.0,1.93873929977417,5.087310540467062,-0.0,0.28156837821006775,-1.6520584265338343,-0.0,0.0018909908831119537,0.7881439328193665,0.0,0.0011308537796139717,0.8157037496566772,0.0,-0.029076680541038513
388.0,656.0,0.149,0.7813,9.4828,-0.0194,0.0281,-0.1148,-1.815949102441305,0.0,3.0386481285095215,-1.8186419010162354,-0.0,1.9664440155029297,5.08727045634345,-0.0,0.28141075372695923,-1.652005974446432,-0.0,0.009510618634521961,0.7880956530570984,0.0,-0.008277936838567257,0.815716028213501,0.0,0.04417024180293083
388.0,656.0,0.149,0.7813,9.4828,-0.0194,0.0281,-0.1148,-1.8159166775145472,0.0,3.0155107975006104,-1.8186665773391724,-0.0,1.9748142957687378,5.087294626026907,-0.0,0.2849135100841522,-1.6520345846759241,-0.0,-0.007050617132335901,0.7881481051445007,0.0,0.0021451651118695736,0.8156956434249878,0.0,0.029944945126771927
388.0,656.0,0.149,0.7813,9.4828,-0.0194,0.0281,-0.1148,-1.8159452877440394,0.0,3.0253658294677734,-1.8186304569244385,-0.0,1.971663475036621,5.087314712792196,-0.0,0.2813851833343506,-1.6520546118365687,-0.0,0.0007824793574400246,0.7881521582603455,0.0,-0.004049370996654034,0.8157115578651428,0.0,0.002624168060719967
388.0,656.0,0.149,0.7813,9.4828,-0.0194,0.0281,-0.1148,-1.8159367046751917,0.0,3.0043153762817383,-1.8186419010162354,-0.0,1.981581687927246,5.087242144137182,-0.0,0.293481707572937,-1.6520541349994105,-0.0,0.00449023861438036,0.7881317734718323,0.0,0.010269831866025925,0.8156837224960327,0.0,0.008327599614858627
388.0,656.0,0.149,0.7813,9.4828,-0.0194,0.0281,-0.1148,-1.8159247837462367,0.0,2.9833598136901855,-1.818674921989441,-0.0,1.9765633344650269,5.087262230902471,-0.0,0.2780277729034424,-1.6520345846759241,-0.0,-0.0014416901394724846,0.7880357503890991,0.0,-0.01633717305958271,0.8156914710998535,0.0,0.0098369549959898
388.0,656.0,0.149,0.7813,9.4828,-0.0194,0.0281,-0.1148,-1.8159166775145472,0.0,2.983599901199341,-1.818654179573059,-0.0,1.9668338298797607,5.087318765908041,-0.0,0.29157912731170654,-1.652107063923971,-0.0,0.008978336118161678,0.7881119847297668,0.0,-0.006217137444764376,0.8156796097755432,0.0,-0.02125462517142296
388.0,656.0,0.149,0.7813,9.4828,-0.0194,0.0281,-0.1148,-1.8159414730467738,0.0,2.96616792678833,-1.81864595413208,-0.0,2.000035047531128,5.087298381119528,-0.0,0.2845442593097687,-1.652038876210348,-0.0,-0.0032458750065416098,0.7881157398223877,0.0,-0.008957612328231335,0.8156713843345642,0.0,-0.006530769169330597
388.0,656.0,0.149,0.7813,9.4828,-0.0194,0.0281,-0.1148,-1.8158766231932582,0.0,3.004638195037842,-1.8186179399490356,-0.0,2.0055065155029297,5.08728643038825,-0.0,0.28791120648384094,-1.6520345846759241,-0.0,-0.017845550552010536,0.7880678176879883,0.0,-0.0020031053572893143,0.8157119154930115,0.0,-0.0032182298600673676
388.0,656.0,0.149,0.7813,9.4828,-0.0194,0.0281,-0.1148,-1.8158923588194789,0.0,2.983543634414673,-1.818613886833191,-0.0,1.9851199388504028,5.08730240443305,-0.0,0.2945469319820404,-1.6520989576922815,-0.0,0.0037546984385699034,0.788103461265564,0.0,0.017031515017151833,0.8156796097755432,0.0,0.005218029022216797
388.0,656.0,0.149,0.7813,9.4828,-0.0194,0.0281,-0.1148,-1.8159367046751917,0.0,2.9375481605529785,-1.818605661392212,-0.0,1.9218006134033203,5.087282377272405,-0.0,0.2843943238258362,-1.6520989576922815,-0.0,0.0012050092918798327,0.7881197929382324,0.0,0.003623858094215393,0.815699577331543,0.0,0.005679788067936897
388.0,656.0,0.149,0.7813,9.4828,-0.0194,0.0281,-0.1148,-1.8159290752806605,0.0,2.986020803451538,-1.8186345100402832,-0.0,1.9586081504821777,5.0873228190238855,-0.0,0.27884042263031006,-1.652046028767721,-0.0,-0.0023261732421815395,0.7881481051445007,0.0,-0.013869235292077065,0.8156309723854065,0.0,-0.031004739925265312
388.0,656.0,0.149,0.7813,9.4828,-0.0194,0.0281,-0.1148,-1.8159247837462367,0.0,3.0248637199401855,-1.818654179573059,-0.0,1.986893892288208,5.087258624821462,-0.0,0.277235209941864,-1.6520183722125452,-0.0,0.011792255565524101,0.7880759835243225,0.0,-0.006462084129452705,0.8157721757888794,0.0,-0.019102251157164574
372.0,663.0,-0.0156,0.7424,9.6012,-0.0389,0.0275,-0.1127,-1.8159572086729945,0.0,3.0314536094665527,-1.8186098337173462,-0.0,1.9263412952423096,5.08727045634345,-0.0,0.2862444818019867,-1.6520546118365687,-0.0,-0.0049235643818974495,0.7881439924240112,0.0,-0.009219828993082047,0.8156713843345642,0.0,0.04342896118760109
372.0,663.0,-0.0156,0.7424,9.6012,-0.0389,0.0275,-0.1127,-1.8159409962096156,0.0,3.0225095748901367,-1.818613886833191,-0.0,1.979143738746643,5.087314682989874,-0.0,0.2901620864868164,-1.6520345846759241,-0.0,-0.004810904618352652,0.7881320118904114,0.0,-0.005882240831851959,0.8156672716140747,0.0,-0.007444411516189575
372.0,663.0,-0.0156,0.7424,9.6012,-0.0389,0.0275,-0.1127,-1.8159247837462367,0.0,3.0165610313415527,-1.8186500072479248,-0.0,1.9671289920806885,5.087290155678549,-0.0,0.28532159328460693,-1.6520546118365687,-0.0,0.009098866954445839,0.7881119847297668,0.0,0.0035385210067033768,0.8156474828720093,0.0,-0.019316140562295914
372.0,663.0,-0.0156,0.7424,9.6012,-0.0389,0.0275,-0.1127,-1.8159452877440394,0.0,3.020845890045166,-1.8186583518981934,-0.0,1.945428490638733,5.087270486145773,-0.0,0.2786579430103302,-1.6520264784442347,-0.0,-0.007726559415459633,0.788084089756012,0.0,-0.003873447421938181,0.8156956434249878,0.0,0.009098952636122704
372.0,663.0,-0.0156,0.7424,9.6012,-0.0389,0.0275,-0.1127,-1.81593718151235,0.0,3.0635645389556885,-1.8186179399490356,-0.0,1.9582751989364624,5.087310510664739,-0.0,0.2889319956302643,-1.652062718068258,-0.0,-0.018023114651441574,0.7880717515945435,0.0,-0.0035194791853427887,0.8156914710998535,0.0,-0.02202899008989334
372.0,663.0,-0.0156,0.7424,9.6012,-0.0389,0.0275,-0.1127,-1.815965314904684,0.0,3.0058071613311768,-1.8186264038085938,-0.0,2.0002195835113525,5.087282407074728,-0.0,0.29146668314933777,-1.652078930531637,-0.0,-0.0028383841272443533,0.7880517840385437,0.0,-0.0008326058741658926,0.815699577331543,0.0,-0.041592951864004135
372.0,663.0,-0.0156,0.7424,9.6012,-0.0389,0.0275,-0.1127,-1.8159691296019496,0.0,3.0599117279052734,-1.8186262845993042,-0.0,1.985360026359558,5.087322938233175,-0.0,0.2875860631465912,-1.6520584265338343,-0.0,0.005017383489757776,0.7880677580833435,0.0,0.007124805357307196,0.815671443939209,0.0,-0.0011593867093324661
372.0,663.0,-0.0156,0.7424,9.6012,-0.0389,0.0275,-0.1127,-1.8159367046751917,0.0,3.041506767272949,-1.8186097145080566,-0.0,1.9422528743743896,5.08732287862853,-0.0,0.2772980034351349,-1.6520264784442347,-0.0,0.006315821781754494,0.7880880832672119,0.0,0.0011248115915805101,0.815716028213501,0.0,0.0015555371064692736
372.0,663.0,-0.0156,0.7424,9.6012,-0.0389,0.0275,-0.1127,-1.8159848652281703,0.0,2.983051300048828,-1.8186873197555542,-0.0,1.9512038230895996,5.087350386172094,-0.0,0.28948426246643066,-1.6520870367633265,-0.0,-0.004956088960170746,0.788123607635498,0.0,-0.007826956920325756,0.8156552314758301,0.0,-0.01278623752295971
372.0,663.0,-0.0156,0.7424,9.6012,-0.0389,0.0275,-0.1127,-1.8159409962096156,0.0,3.029266357421875,-1.8186137676239014,-0.0,1.9426829814910889,5.087282377272405,-0.0,0.29427653551101685,-1.652090851460592,-0.0,0.0021762363612651825,0.7880963683128357,0.0,0.007672710809856653,0.8156672716140747,0.0,0.010420892387628555
372.0,663.0,-0.0156,0.7424,9.6012,-0.0389,0.0275,-0.1127,-1.815977235833639,0.0,3.001687526702881,-1.8186419010162354,-0.0,1.9746153354644775,5.087310480862417,-0.0,0.288152277469635,-1.6519988218890589,-0.0,0.011696107685565948,0.7880963087081909,0.0,-0.0015822412678971887,0.815651535987854,0.0,-0.01657438464462757
372.0,663.0,-0.0156,0.7424,9.6012,-0.0389,0.0275,-0.1127,-1.815977235833639,0.0,3.012345314025879,-1.818654179573059,-0.0,1.9551408290863037,5.087302464037695,-0.0,0.2905177175998688,-1.652038876210348,-0.0,-0.002836577594280243,0.788084089756012,0.0,0.005918960087001324,0.815699577331543,0.0,-0.006415691692382097
372.0,663.0,-0.0156,0.7424,9.6012,-0.0389,0.0275,-0.1127,-1.815960546533102,0.0,3.0318074226379395,-1.8186625242233276,-0.0,1.951731562614441,5.087226259499349,-0.0,0.28023236989974976,-1.652022663746969,-0.0,-0.005953614600002766,0.7880637049674988,0.0,9.851274080574512e-05,0.8156593441963196,0.0,0.013649843633174896
373.0,668.0,0.0664,0.7717,9.4911,-0.0382,0.0319,-0.1213,-1.8159085712828578,0.0,3.0494110584259033,-1.8186345100402832,-0.0,1.9689218997955322,5.087318706303396,-0.0,0.29966625571250916,-1.6520264784442347,-0.0,-0.001724207540974021,0.7881079316139221,0.0,-0.003193866228684783,0.8157201409339905,0.0,-0.03534486144781113
373.0,668.0,0.0664,0.7717,9.4911,-0.0382,0.0319,-0.1213,-1.8159247837462367,0.0,3.002654552459717,-1.8186264038085938,-0.0,1.9615015983581543,5.087294596224584,-0.0,0.2918691635131836,-1.6520307699786585,-0.0,0.00019838078878819942,0.7881079316139221,0.0,-0.012259598821401596,0.8157197833061218,0.0,0.0037792781367897987
373.0,668.0,0.0664,0.7717,9.4911,-0.0382,0.0319,-0.1213,-1.8159367046751917,0.0,2.9806265830993652,-1.8186345100402832,-0.0,1.9883649349212646,5.087294208794393,-0.0,0.2936209440231323,-1.6520150343524378,-0.0,-0.0020895106717944145,0.7880882024765015,0.0,0.0038587963208556175,0.8156874179840088,0.0,-0.01943894475698471
373.0,668.0,0.0664,0.7717,9.4911,-0.0382,0.0319,-0.1213,-1.8159448109068812,0.0,3.0234923362731934,-1.8186665773391724,-0.0,1.9774445295333862,5.087290513306417,-0.0,0.2857803404331207,-1.6520870367633265,-0.0,-0.007574934512376785,0.7880921959877014,0.0,-0.0014832420274615288,0.8156754970550537,0.0,0.0058826603926718235
373.0,668.0,0.0664,0.7717,9.4911,-0.0382,0.0319,-0.1213,-1.8159290752806605,0.0,2.9791650772094727,-1.81862211227417,-0.0,1.998098373413086,5.0872782347495935,-0.0,0.3007810115814209,-1.6520307699786585,-0.0,-0.0040221912786364555,0.7881078720092773,0.0,-0.012785852886736393,0.8156915307044983,0.0,0.042974065989255905
373.0,668.0,0.0664,0.7717,9.4911,-0.0382,0.0319,-0.1213,-1.8159729442992152,0.0,3.0006537437438965,-1.8186304569244385,-0.0,1.9650201797485352,5.087302464037695,-0.0,0.281404048204422,-1.6520503203021448,-0.0,3.02889384329319e-05,0.7881317734718323,0.0,0.004329020623117685,0.815671443939209,0.0,-0.017269399017095566
373.0,668.0,0.0664,0.7717,9.4911,-0.0382,0.0319,-0.1213,-1.8159247837462367,0.0,2.9659388065338135,-1.818674921989441,-0.0,1.988307237625122,5.087314712792196,-0.0,0.2911362051963806,-1.6519902388202112,-0.0,-0.0015462376177310944,0.788047730922699,0.0,-0.0017172872321680188,0.815671443939209,0.0,-0.011688178405165672
373.0,668.0,0.0664,0.7717,9.4911,-0.0382,0.0319,-0.1213,-1.8159123859801234,0.0,2.958611488342285,-1.818674921989441,-0.0,1.9764899015426636,5.087274151831426,-0.0,0.2840055823326111,-1.6520746389972132,-0.0,-0.0003701876848936081,0.7880558371543884,0.0,0.002418199786916375,0.8156672716140747,0.0,-0.017587941139936447
373.0,668.0,0.0664,0.7717,9.4911,-0.0382,0.0319,-0.1213,-1.8159452877440394,0.0,3.0006513595581055,-1.818613886833191,-0.0,1.9400017261505127,5.087294626026907,-0.0,0.2713342308998108,-1.6520584265338343,-0.0,0.0015419039409607649,0.788084089756012,0.0,-0.011641686782240868,0.8156914710998535,0.0,-0.03957800194621086
373.0,668.0,0.0664,0.7717,9.4911,-0.0382,0.0319,-0.1213,-1.81596102337026,0.0,2.9658327102661133,-1.818662405014038,-0.0,1.987453579902649,5.087334769755163,-0.0,0.2744174003601074,-1.652090851460592,-0.0,0.007353363558650017,0.7881197929382324,0.0,0.0005511533236131072,0.8156713843345642,0.0,-0.022705916315317154
373.0,668.0,0.0664,0.7717,9.4911,-0.0382,0.0319,-0.1213,-1.8159166775145472,0.0,2.9933254718780518,-1.81864595413208,-0.0,1.9760205745697021,5.087294208794393,-0.0,0.29300829768180847,-1.652010742818014,-0.0,0.005449474323540926,0.7880997657775879,0.0,0.0015719161601737142,0.815699577331543,0.0,-0.018150946125388145
373.0,668.0,0.0664,0.7717,9.4911,-0.0382,0.0319,-0.1213,-1.815920969048971,0.0,2.9816040992736816,-1.818613886833191,-0.0,1.9340465068817139,5.0872782347495935,-0.0,0.28895020484924316,-1.6520264784442347,-0.0,-0.005618072114884853,0.7881119847297668,0.0,-0.00022325455211102962,0.8156874179840088,0.0,-0.007006247062236071
373.0,668.0,0.0664,0.7717,9.4911,-0.0382,0.0319,-0.1213,-1.81596102337026,0.0,3.0634756088256836,-1.8186179399490356,-0.0,1.960902214050293,5.0872782347495935,-0.0,0.2918715476989746,-1.6520307699786585,-0.0,0.005146068520843983,0.7881239056587219,0.0,-0.00929227564483881,0.8156593441963196,0.0,0.0321492999792099
378.0,606.0,0.0766,0.7878,9.4546,-0.0339,0.0293,-0.119,-1.8159123859801234,0.0,3.0137529373168945,-1.8186583518981934,-0.0,1.9389350414276123,5.087310540467062,-0.0,0.30026209354400635,-1.651994530354635,-0.0,-0.00664678867906332,0.7880997657775879,0.0,0.00657300790771842,0.8157036900520325,0.0,0.032199278473854065
378.0,606.0,0.0766,0.7878,9.4546,-0.0339,0.0293,-0.119,-1.815965314904684,0.0,3.04292631149292,-1.8186264038085938,-0.0,1.9564907550811768,5.087298381119528,-0.0,0.28369012475013733,-1.6520345846759241,-0.0,-0.013891841284930706,0.788084089756012,0.0,-0.004402580205351114,0.8156914710998535,0.0,0.018492357805371284
378.0,606.0,0.0766,0.7878,9.4546,-0.0339,0.0293,-0.119,-1.8159290752806605,0.0,2.9820175170898438,-1.81862211227417,-0.0,1.9326612949371338,5.087294208794393,-0.0,0.29196563363075256,-1.6520183722125452,-0.0,0.006919083651155233,0.7880833745002747,0.0,0.01654694601893425,0.8156590461730957,0.0,0.014949459582567215
378.0,606.0,0.0766,0.7878,9.4546,-0.0339,0.0293,-0.119,-1.8159414730467738,0.0,3.010946273803711,-1.8186345100402832,-0.0,1.9634267091751099,5.0872782347495935,-0.0,0.2841196060180664,-1.6520069281207483,-0.0,-0.001237077172845602,0.7880357503890991,0.0,-0.0021972262766212225,0.8156552910804749,0.0,0.022594410926103592
378.0,606.0,0.0766,0.7878,9.4546,-0.0339,0.0293,-0.119,-1.8158961735167445,0.0,3.0221667289733887,-1.8186986446380615,-0.0,1.9592490196228027,5.087294208794393,-0.0,0.28377532958984375,-1.6520183722125452,-0.0,-0.00275762053206563,0.7881157994270325,0.0,-0.013734000734984875,0.8156955242156982,0.0,0.008319525048136711
378.0,606.0,0.0766,0.7878,9.4546,-0.0339,0.0293,-0.119,-1.8159328899779261,0.0,3.012035846710205,-1.8186665773391724,-0.0,1.9849269390106201,5.087302464037695,-0.0,0.28468582034111023,-1.6521032492267054,-0.0,0.005958595313131809,0.7881520986557007,0.0,0.006079947575926781,0.8156832456588745,0.0,-0.02388605661690235
378.0,606.0,0.0766,0.7878,9.4546,-0.0339,0.0293,-0.119,-1.8159328899779261,0.0,3.003251552581787,-1.818654179573059,-0.0,1.9486699104309082,5.087322848826208,-0.0,0.29144081473350525,-1.6520870367633265,-0.0,0.006666114553809166,0.7880759239196777,0.0,-0.010957833379507065,0.8156631588935852,0.0,0.019552048295736313
378.0,606.0,0.0766,0.7878,9.4546,-0.0339,0.0293,-0.119,-1.8159409962096156,0.0,2.976210117340088,-1.818613886833191,-0.0,1.9457781314849854,5.087274539261617,-0.0,0.2778048515319824,-1.652062718068258,-0.0,0.004665014334022999,0.7881923317909241,0.0,3.745077992789447e-05,0.8156914114952087,0.0,0.00639531621709466
378.0,606.0,0.0766,0.7878,9.4546,-0.0339,0.0293,-0.119,-1.8159166775145472,0.0,3.0083937644958496,-1.8186345100402832,-0.0,1.9572540521621704,5.087338822871008,-0.0,0.3028988242149353,-1.6520431677447718,-0.0,0.0006388885667547584,0.7881277203559875,0.0,-0.011796388775110245,0.8156755566596985,0.0,-0.00940193422138691
378.0,606.0,0.0766,0.7878,9.4546,-0.0339,0.0293,-0.119,-1.8159367046751917,0.0,3.0224609375,-1.8186386823654175,-0.0,1.9749549627304077,5.087290155678549,-0.0,0.29036885499954224,-1.6520264784442347,-0.0,-0.004400229547172785,0.7880997657775879,0.0,-0.01385347917675972,0.8156796097755432,0.0,-0.03373883664608002
378.0,606.0,0.0766,0.7878,9.4546,-0.0339,0.0293,-0.119,-1.8159452877440394,0.0,3.010331153869629,-1.8186625242233276,-0.0,1.967002511024475,5.087294238596716,-0.0,0.27987322211265564,-1.652107063923971,-0.0,-0.007338203024119139,0.7881075739860535,0.0,-0.013644643127918243,0.8156593441963196,0.0,0.024948973208665848
378.0,606.0,0.0766,0.7878,9.4546,-0.0339,0.0293,-0.119,-1.8159448109068812,0.0,2.995542287826538,-1.8186098337173462,-0.0,1.9127418994903564,5.08728643038825,-0.0,0.28284695744514465,-1.6520870367633265,-0.0,-0.000211209524422884,0.7880718111991882,0.0,-0.011354328133165836,0.8156874179840088,0.0,0.018177157267928123
370.0,643.0,0.0419,0.7364,9.5683,-0.0396,0.0226,-0.1177,-1.8159810505309046,0.0,3.0065488815307617,-1.8186500072479248,-0.0,1.957606554031372,5.087266403227606,-0.0,0.28821542859077454,-1.6520584265338343,-0.0,-0.0033523431047797203,0.7881079316139221,0.0,-0.01321524940431118,0.8156878352165222,0.0,0.03938448429107666
370.0,643.0,0.0419,0.7364,9.5683,-0.0396,0.0226,-0.1177,-1.815920969048971,0.0,3.02030086517334,-1.818605661392212,-0.0,1.9678010940551758,5.087306517153539,-0.0,0.29162004590034485,-1.6520345846759241,-0.0,-0.005952606908977032,0.7880915999412537,0.0,-0.010708444751799107,0.8156914710998535,0.0,-0.037230923771858215
370.0,643.0,0.0419,0.7364,9.5683,-0.0396,0.0226,-0.1177,-1.81593718151235,0.0,3.022641181945801,-1.8186419010162354,-0.0,1.9586327075958252,5.087346303253927,-0.0,0.2805897295475006,-1.6519988218890589,-0.0,-0.0006091680843383074,0.7880677580833435,0.0,0.002094715368002653,0.8156310319900513,0.0,-0.001150432974100113
370.0,643.0,0.0419,0.7364,9.5683,-0.0396,0.0226,-0.1177,-1.815960546533102,0.0,3.0107274055480957,-1.8186098337173462,-0.0,1.9295549392700195,5.087278204947271,-0.0,0.2768014073371887,-1.652062718068258,-0.0,0.0003587679238989949,0.7881116271018982,0.0,-0.0068192617036402225,0.8156754970550537,0.0,0.0008725132793188095
370.0,643.0,0.0419,0.7364,9.5683,-0.0396,0.0226,-0.1177,-1.8159691296019496,0.0,2.983682632446289,-1.8186262845993042,-0.0,1.9588191509246826,5.087314712792196,-0.0,0.2852488160133362,-1.6520708242999476,-0.0,-0.004430753644555807,0.788084089756012,0.0,-0.005111644044518471,0.8156313300132751,0.0,0.022411013022065163
370.0,643.0,0.0419,0.7364,9.5683,-0.0396,0.0226,-0.1177,-1.8158885441222132,0.0,3.001488208770752,-1.8186386823654175,-0.0,1.9931644201278687,5.087274151831426,-0.0,0.2925204932689667,-1.6520102659808558,-0.0,-0.003600888419896364,0.7881120443344116,0.0,0.0007779756560921669,0.8157320022583008,0.0,0.07274439185857773
370.0,643.0,0.0419,0.7364,9.5683,-0.0396,0.0226,-0.1177,-1.8159128628172816,0.0,3.003288507461548,-1.818605661392212,-0.0,1.9682996273040771,5.087306517153539,-0.0,0.26499947905540466,-1.652046028767721,-0.0,-0.00488439342007041,0.788103461265564,0.0,-0.005993060301989317,0.8156672716140747,0.0,-0.032072268426418304
370.0,643.0,0.0419,0.7364,9.5683,-0.0396,0.0226,-0.1177,-1.815965314904684,0.0,3.0353567600250244,-1.8186055421829224,-0.0,1.9669280052185059,5.087322908430853,-0.0,0.28568872809410095,-1.6519821325885218,-0.0,-0.00042476458474993706,0.7881238460540771,0.0,-0.007817011326551437,0.8156874179840088,0.0,0.025706425309181213
370.0,643.0,0.0419,0.7364,9.5683,-0.0396,0.0226,-0.1177,-1.815949102441305,0.0,3.0132150650024414,-1.8186179399490356,-0.0,1.9851584434509277,5.087290513306417,-0.0,0.2962713837623596,-1.6520422140704554,-0.0,0.00543989660218358,0.788148045539856,0.0,-0.016108088195323944,0.8157037496566772,0.0,-0.03305203467607498
370.0,643.0,0.0419,0.7364,9.5683,-0.0396,0.0226,-0.1177,-1.815904279748434,0.0,3.046670436859131,-1.8186016082763672,-0.0,1.9578468799591064,5.087322848826208,-0.0,0.2994585633277893,-1.6520708242999476,-0.0,-0.0006437161937355995,0.7880678176879883,0.0,-0.012792818248271942,0.8156874179840088,0.0,-0.04527953639626503
370.0,643.0,0.0419,0.7364,9.5683,-0.0396,0.0226,-0.1177,-1.81596102337026,0.0,3.007023811340332,-1.818654179573059,-0.0,1.9926732778549194,5.087270843773641,-0.0,0.2840542197227478,-1.6520832220660608,-0.0,-0.0012676150072366,0.7880915999412537,0.0,0.0023607867769896984,0.8156874179840088,0.0,-0.054269954562187195
370.0,643.0,0.0419,0.7364,9.5683,-0.0396,0.0226,-0.1177,-1.8159572086729945,0.0,3.0176284313201904,-1.818613886833191,-0.0,1.9561965465545654,5.087270486145773,-0.0,0.29190903902053833,-1.6520469824420374,-0.0,-0.00253365864045918,0.7880517840385437,0.0,-0.002010166412219405,0.815707802772522,0.0,0.0024104679469019175
370.0,643.0,0.0419,0.7364,9.5683,-0.0396,0.0226,-0.1177,-1.8158842525877894,0.0,3.0106871128082275,-1.8186264038085938,-0.0,1.9228310585021973,5.087250429182806,-0.0,0.28517138957977295,-1.6520751158343714,-0.0,0.004160020500421524,0.7881481647491455,0.0,-0.0023150001652538776,0.8156754970550537,0.0,-0.0002857034560292959
387.0,615.0,-0.0215,0.7376,9.5408,-0.0339,0.0241,-0.1193,-1.8159810505309046,0.0,3.0487513542175293,-1.8186264038085938,-0.0,1.9253404140472412,5.0872864601905725,-0.0,0.29406172037124634,-1.6520307699786585,-0.0,0.003965170122683048,0.7880640029907227,0.0,-0.004920837469398975,0.8157155513763428,0.0,-0.005596630275249481
387.0,615.0,-0.0215,0.7376,9.5408,-0.0339,0.0241,-0.1193,-1.8159367046751917,0.0,3.013127088546753,-1.8186583518981934,-0.0,1.9617332220077515,5.087306517153539,-0.0,0.2851431667804718,-1.6520379225360315,-0.0,0.006675531156361103,0.7880997657775879,0.0,-0.00012206612154841423,0.8156754970550537,0.0,-0.01034804992377758
387.0,615.0,-0.0215,0.7376,9.5408,-0.0339,0.0241,-0.1193,-1.8159691296019496,0.0,3.031604290008545,-1.8186098337173462,-0.0,1.983304738998413,5.087310510664739,-0.0,0.28953248262405396,-1.652010742818014,-0.0,-0.017190266400575638,0.7880997657775879,0.0,0.006214356515556574,0.8156675100326538,0.0,-0.0018216916359961033
387.0,615.0,-0.0215,0.7376,9.5408,-0.0339,0.0241,-0.1193,-1.8159572086729945,0.0,3.0369462966918945,-1.8186500072479248,-0.0,1.8998541831970215,5.08727045634345,-0.0,0.28494584560394287,-1.6520708242999476,-0.0,-4.7103152610361576e-05,0.7880717515945435,0.0,-0.002069634385406971,0.8156392574310303,0.0,-0.024414293467998505
387.0,615.0,-0.0215,0.7376,9.5408,-0.0339,0.0241,-0.1193,-1.8159247837462367,0.0,2.994981288909912,-1.8186664581298828,-0.0,1.940293550491333,5.087322461396017,-0.0,0.26963138580322266,-1.6520264784442347,-0.0,-0.010056535713374615,0.7880952954292297,0.0,0.007412498351186514,0.815671443939209,0.0,-0.012614356353878975
387.0,615.0,-0.0215,0.7376,9.5408,-0.0339,0.0241,-0.1193,-1.8159328899779261,0.0,2.9915621280670166,-1.8186500072479248,-0.0,1.9643287658691406,5.087306546955862,-0.0,0.2815845012664795,-1.652095142995016,-0.0,-0.011702108196914196,0.7880915999412537,0.0,0.0010595157509669662,0.8157119154930115,0.0,0.06426186114549637
387.0,615.0,-0.0215,0.7376,9.5408,-0.0339,0.0241,-0.1193,-1.815920969048971,0.0,3.0006561279296875,-1.818654179573059,-0.0,1.9622536897659302,5.087331014662542,-0.0,0.2876644432544708,-1.652046028767721,-0.0,0.0015392911154776812,0.7881239056587219,0.0,0.015481037087738514,0.8156874179840088,0.0,-0.014256729744374752
387.0,615.0,-0.0215,0.7376,9.5408,-0.0339,0.0241,-0.1193,-1.8159729442992152,0.0,3.010817527770996,-1.8186789751052856,-0.0,1.9676713943481445,5.0872782347495935,-0.0,0.28538310527801514,-1.6520307699786585,-0.0,-0.0016063060611486435,0.7880957126617432,0.0,-0.0012946089264005423,0.8156914710998535,0.0,-0.011309218592941761
387.0,615.0,-0.0215,0.7376,9.5408,-0.0339,0.0241,-0.1193,-1.8159848652281703,0.0,2.9916176795959473,-1.81862211227417,-0.0,1.9667646884918213,5.087310540467062,-0.0,0.28092971444129944,-1.6520140806781214,-0.0,-0.014047035947442055,0.7880357503890991,0.0,-0.0014770403504371643,0.8156433701515198,0.0,0.024730436503887177
387.0,615.0,-0.0215,0.7376,9.5408,-0.0339,0.0241,-0.1193,-1.815965314904684,0.0,2.9982926845550537,-1.8186302185058594,-0.0,1.967534065246582,5.087318765908041,-0.0,0.2987966537475586,-1.6520870367633265,-0.0,0.0060648564249277115,0.7880799770355225,0.0,-0.0046265218406915665,0.8156474828720093,0.0,0.00025626434944570065
387.0,615.0,-0.0215,0.7376,9.5408,-0.0339,0.0241,-0.1193,-1.8159285984435023,0.0,3.0523428916931152,-1.8186872005462646,-0.0,1.9677174091339111,5.087302464037695,-0.0,0.2896043658256531,-1.6520503203021448,-0.0,-0.0013636929215863347,0.788084089756012,0.0,0.0028269297908991575,0.815707802772522,0.0,-0.04292699322104454
387.0,615.0,-0.0215,0.7376,9.5408,-0.0339,0.0241,-0.1193,-1.8159696064391078,0.0,3.006941080093384,-1.8186181783676147,-0.0,1.95810866355896,5.087314712792196,-0.0,0.2757829427719116,-1.6520345846759241,-0.0,-0.004421554040163755,0.7881119847297668,0.0,-0.010971899144351482,0.8156874179840088,0.0,0.02442002482712269
387.0,615.0,-0.0215,0.7376,9.5408,-0.0339,0.0241,-0.1193,-1.8159486256041468,0.0,2.976538896560669,-1.8186583518981934,-0.0,1.9350661039352417,5.0873106000717065,-0.0,0.2805597186088562,-1.6520431677447718,-0.0,-0.00810062326490879,0.7880841493606567,0.0,-0.012451374903321266,0.8157238364219666,0.0,0.018053360283374786
384.0,642.0,0.1047,0.7669,9.5348,-0.0379,0.0215,-0.1187,-1.815989156762594,0.0,3.0080301761627197,-1.8186262845993042,-0.0,1.9135974645614624,5.087310540467062,-0.0,0.278026282787323,-1.6520345846759241,-0.0,-0.0032557628583163023,0.7881119847297668,0.0,-0.01204347237944603,0.8156955242156982,0.0,-0.004760426003485918
384.0,642.0,0.1047,0.7669,9.5348,-0.0379,0.0215,-0.1187,-1.815904279748434,0.0,2.974651575088501,-1.818613886833191,-0.0,1.9978206157684326,5.087229925185003,-0.0,0.2873307168483734,-1.6520221869098108,-0.0,-0.003991378005594015,0.7881116271018982,0.0,-0.0033704000525176525,0.8156796097755432,0.0,-0.0074583482928574085
384.0,642.0,0.1047,0.7669,9.5348,-0.0379,0.0215,-0.1187,-1.8159729442992152,0.0,3.0077056884765625,-1.8185973167419434,-0.0,1.9763665199279785,5.087294208794393,-0.0,0.293403685092926,-1.6520345846759241,-0.0,-0.0038702944293618202,0.7880997657775879,0.0,-0.004806950222700834,0.8156755566596985,0.0,-0.018517179414629936
384.0,642.0,0.1047,0.7669,9.5348,-0.0379,0.0215,-0.1187,-1.8159452877440394,0.0,2.979832172393799,-1.8186583518981934,-0.0,1.9736543893814087,5.087246227055349,-0.0,0.27794548869132996,-1.652038876210348,-0.0,0.003401038236916065,0.7880874276161194,0.0,-0.0045501235872507095,0.815727949142456,0.0,0.0004383111372590065
384.0,642.0,0.1047,0.7669,9.5348,-0.0379,0.0215,-0.1187,-1.8159367046751917,0.0,3.0241246223449707,-1.818613886833191,-0.0,1.9452557563781738,5.087274539261617,-0.0,0.28477251529693604,-1.6520307699786585,-0.0,0.017688095569610596,0.7881398797035217,0.0,-0.005943299736827612,0.8156915307044983,0.0,-0.030979830771684647
384.0,642.0,0.1047,0.7669,9.5348,-0.0379,0.0215,-0.1187,-1.815960546533102,0.0,2.9934749603271484,-1.8186140060424805,-0.0,1.9293986558914185,5.087290155678549,-0.0,0.29927170276641846,-1.6520264784442347,-0.0,0.0007600029930472374,0.7880677580833435,0.0,-0.0036093993112444878,0.8156433701515198,0.0,0.07887957990169525
384.0,642.0,0.1047,0.7669,9.5348,-0.0379,0.0215,-0.1187,-1.8159409962096156,0.0,2.9896817207336426,-1.81862211227417,-0.0,1.9303309917449951,5.0872782347495935,-0.0,0.29408013820648193,-1.6520431677447718,-0.0,-0.011871462687849998,0.7880874276161194,0.0,-0.007411023136228323,0.815671443939209,0.0,-0.04689750075340271
384.0,642.0,0.1047,0.7669,9.5348,-0.0379,0.0215,-0.1187,-1.8159166775145472,0.0,3.009899854660034,-1.8186386823654175,-0.0,1.9480478763580322,5.087302464037695,-0.0,0.28668904304504395,-1.652078930531637,-0.0,-0.001302266144193709,0.7881399393081665,0.0,0.0014364041853696108,0.8156914710998535,0.0,0.024978719651699066
384.0,642.0,0.1047,0.7669,9.5348,-0.0379,0.0215,-0.1187,-1.8159486256041468,0.0,2.9728565216064453,-1.818674921989441,-0.0,1.9636400938034058,5.0872782347495935,-0.0,0.2861471474170685,-1.652038876210348,-0.0,0.004259683191776276,0.7881357669830322,0.0,-0.004741469398140907,0.8156428933143616,0.0,0.012653440237045288
384.0,642.0,0.1047,0.7669,9.5348,-0.0379,0.0215,-0.1187,-1.8159247837462367,0.0,3.0218844413757324,-1.81862211227417,-0.0,2.018831729888916,5.087314682989874,-0.0,0.29561176896095276,-1.6520183722125452,-0.0,-0.0014489605091512203,0.7880997657775879,0.0,-0.002559314714744687,0.8156996965408325,0.0,0.008906269446015358
384.0,642.0,0.1047,0.7669,9.5348,-0.0379,0.0215,-0.1187,-1.8159247837462367,0.0,2.976853847503662,-1.8186264038085938,-0.0,1.9555753469467163,5.087294238596716,-0.0,0.2900879979133606,-1.6520221869098108,-0.0,0.004358367994427681,0.7881157398223877,0.0,-0.019833862781524658,0.8156635165214539,0.0,-0.013305471278727055
384.0,642.0,0.1047,0.7669,9.5348,-0.0379,0.0215,-0.1187,-1.81593718151235,0.0,3.0258140563964844,-1.8186863660812378,-0.0,1.989567756652832,5.087266373425283,-0.0,0.281287282705307,-1.652067009602682,-0.0,0.0009980048052966595,0.7881078720092773,0.0,0.0028626793064177036,0.8156593441963196,0.0,-0.01619175635278225
375.0,588.0,0.0305,0.7597,9.6269,-0.0386,0.0186,-0.1268,-1.815920969048971,0.0,3.0223026275634766,-1.8186583518981934,-0.0,1.9757003784179688,5.087318765908041,-0.0,0.2882513403892517,-1.6520503203021448,-0.0,-0.007051512598991394,0.7880957126617432,0.0,0.007404562085866928,0.8156675100326538,0.0,0.026577455922961235
375.0,588.0,0.0305,0.7597,9.6269,-0.0386,0.0186,-0.1268,-1.8159004650511683,0.0,3.0116610527038574,-1.8186501264572144,-0.0,1.965466022491455,5.087294596224584,-0.0,0.2963014543056488,-1.6520221869098108,-0.0,-0.001562764635309577,0.7880957126617432,0.0,-0.00303104380145669,0.815719723701477,0.0,0.016688266769051552
375.0,588.0,0.0305,0.7597,9.6269,-0.0386,0.0186,-0.1268,-1.81589998821401,0.0,2.9745168685913086,-1.8186179399490356,-0.0,1.9865084886550903,5.087229895382681,-0.0,0.28554341197013855,-1.6520584265338343,-0.0,-0.0031510312110185623,0.7881196737289429,0.0,0.0042722090147435665,0.8156874179840088,0.0,0.022576604038476944
375.0,588.0,0.0305,0.7597,9.6269,-0.0386,0.0186,-0.1268,-1.8159572086729945,0.0,3.028384208679199,-1.8186501264572144,-0.0,1.9473211765289307,5.0873188255126855,-0.0,0.28138700127601624,-1.652062718068258,-0.0,-0.004636489786207676,0.7881194353103638,0.0,-0.00722665386274457,0.8156228065490723,0.0,-0.05347973853349686
375.0,588.0,0.0305,0.7597,9.6269,-0.0386,0.0186,-0.1268,-1.8159409962096156,0.0,3.038234233856201,-1.8186264038085938,-0.0,1.9310355186462402,5.087254452496328,-0.0,0.2899511158466339,-1.6520584265338343,-0.0,-0.004925145301967859,0.7881280183792114,0.0,0.0029006239492446184,0.815711498260498,0.0,0.04821502044796944
375.0,588.0,0.0305,0.7597,9.6269,-0.0386,0.0186,-0.1268,-1.815977235833639,0.0,3.021803855895996,-1.8186862468719482,-0.0,1.9577921628952026,5.0872782347495935,-0.0,0.2755071818828583,-1.6520431677447718,-0.0,-0.007524844259023666,0.7881197333335876,0.0,-0.00647464394569397,0.8156631588935852,0.0,0.021980348974466324
375.0,588.0,0.0305,0.7597,9.6269,-0.0386,0.0186,-0.1268,-1.8159529171385707,0.0,2.967146396636963,-1.8186345100402832,-0.0,1.9810881614685059,5.0872864601905725,-0.0,0.2961646616458893,-1.6520746389972132,-0.0,0.006835739128291607,0.7880517840385437,0.0,0.00014766835374757648,0.815707802772522,0.0,-0.011090198531746864
375.0,588.0,0.0305,0.7597,9.6269,-0.0386,0.0186,-0.1268,-1.8159572086729945,0.0,3.0059821605682373,-1.8186500072479248,-0.0,1.927126407623291,5.087290155678549,-0.0,0.28800687193870544,-1.652038876210348,-0.0,-0.010737708769738674,0.7880957126617432,0.0,-0.0018647443503141403,0.8156791925430298,0.0,-0.009054737165570259
375.0,588.0,0.0305,0.7597,9.6269,-0.0386,0.0186,-0.1268,-1.81596102337026,0.0,2.974123954772949,-1.818662405014038,-0.0,1.9417884349822998,5.087266373425283,-0.0,0.29581496119499207,-1.6520751158343714,-0.0,0.012154566124081612,0.7881119847297668,0.0,0.0014978612307459116,0.8157119750976562,0.0,-0.02469758689403534
375.0,588.0,0.0305,0.7597,9.6269,-0.0386,0.0186,-0.1268,-1.8159572086729945,0.0,3.0156702995300293,-1.8186296224594116,-0.0,1.9734694957733154,5.087347018509664,-0.0,0.28342726826667786,-1.652067009602682,-0.0,-0.005170063115656376,0.7880963087081909,0.0,-0.0026028386782854795,0.815671443939209,0.0,0.022934027016162872
375.0,588.0,0.0305,0.7597,9.6269,-0.0386,0.0186,-0.1268,-1.8159290752806605,0.0,3.0103607177734375,-1.8186304569244385,-0.0,1.9208112955093384,5.087266403227606,-0.0,0.28395116329193115,-1.6520827452289026,-0.0,0.00500010559335351,0.7880880832672119,0.0,-0.007352265063673258,0.8156672716140747,0.0,-0.002216699067503214
375.0,588.0,0.0305,0.7597,9.6269,-0.0386,0.0186,-0.1268,-1.8159290752806605,0.0,2.9812827110290527,-1.8186345100402832,-0.0,1.9700520038604736,5.087294596224584,-0.0,0.27876991033554077,-1.6520870367633265,-0.0,0.014131909236311913,0.7881157398223877,0.0,0.01052926853299141,0.8156874179840088,0.0,0.0548236258327961
375.0,588.0,0.0305,0.7597,9.6269,-0.0386,0.0186,-0.1268,-1.8158961735167445,0.0,2.992037773132324,-1.818654179573059,-0.0,2.0123276710510254,5.087318765908041,-0.0,0.2965441048145294,-1.6520751158343714,-0.0,0.012002209201455116,0.7880476713180542,0.0,-0.00631320895627141,0.8157037496566772,0.0,0.005579901393502951
380.0,633.0,0.1699,0.6335,9.5623,-0.0432,0.0232,-0.1197,-1.8159290752806605,0.0,2.9843761920928955,-1.8186665773391724,-0.0,1.923617959022522,5.087262230902471,-0.0,0.2821093797683716,-1.652046028767721,-0.0,-0.011759543791413307,0.7880637049674988,0.0,-0.009160174056887627,0.8156836628913879,0.0,-0.020315416157245636
380.0,633.0,0.1699,0.6335,9.5623,-0.0432,0.0232,-0.1197,-1.8159247837462367,0.0,3.013169050216675,-1.8185858726501465,-0.0,1.9832748174667358,5.087242144137182,-0.0,0.2709294259548187,-1.6520069281207483,-0.0,-0.0034569420386105776,0.7881079316139221,0.0,0.008730500005185604,0.815707802772522,0.0,-0.004411347210407257
380.0,633.0,0.1699,0.6335,9.5623,-0.0432,0.0232,-0.1197,-1.8159166775145472,0.0,2.9890408515930176,-1.8186296224594116,-0.0,1.972318172454834,5.087318736105718,-0.0,0.28101640939712524,-1.6520264784442347,-0.0,2.7987058274447918e-05,0.7880957126617432,0.0,0.0031915882136672735,0.8157119154930115,0.0,0.02775983139872551
380.0,633.0,0.1699,0.6335,9.5623,-0.0432,0.0232,-0.1197,-1.8159166775145472,0.0,3.019746780395508,-1.8186262845993042,-0.0,1.992096185684204,5.0872864601905725,-0.0,0.2942439019680023,-1.6520345846759241,-0.0,-0.0008726576343178749,0.7880957126617432,0.0,0.00045812479220330715,0.815671443939209,0.0,-0.004057171754539013
380.0,633.0,0.1699,0.6335,9.5623,-0.0432,0.0232,-0.1197,-1.8158766231932582,0.0,2.998499631881714,-1.8186873197555542,-0.0,1.9201487302780151,5.087266373425283,-0.0,0.2889927923679352,-1.6520221869098108,-0.0,0.009854616597294807,0.7880957126617432,0.0,-0.00110667385160923,0.8156914710998535,0.0,-0.007756534032523632
380.0,633.0,0.1699,0.6335,9.5623,-0.0432,0.0232,-0.1197,-1.8159290752806605,0.0,3.0159292221069336,-1.8186500072479248,-0.0,1.9799070358276367,5.087282377272405,-0.0,0.28623801469802856,-1.6520546118365687,-0.0,-0.008258373476564884,0.7880880832672119,0.0,-0.00928281806409359,0.8156754970550537,0.0,-0.0012891816440969706
380.0,633.0,0.1699,0.6335,9.5623,-0.0432,0.0232,-0.1197,-1.8158723316588343,0.0,3.027311325073242,-1.8186304569244385,-0.0,1.953392744064331,5.0872782347495935,-0.0,0.2915802597999573,-1.6520546118365687,-0.0,-0.004564420785754919,0.7881079316139221,0.0,0.006030380725860596,0.815671443939209,0.0,-0.012672669254243374
380.0,633.0,0.1699,0.6335,9.5623,-0.0432,0.0232,-0.1197,-1.8159409962096156,0.0,3.031798839569092,-1.818670630455017,-0.0,1.9260414838790894,5.087354439287939,-0.0,0.28964725136756897,-1.6520546118365687,-0.0,-0.006049568299204111,0.788084089756012,0.0,0.006531807594001293,0.8156914710998535,0.0,-0.05024255812168121
380.0,633.0,0.1699,0.6335,9.5623,-0.0432,0.0232,-0.1197,-1.8159367046751917,0.0,3.008857250213623,-1.81862211227417,-0.0,1.970890998840332,5.087298381119528,-0.0,0.29957568645477295,-1.652046028767721,-0.0,-0.0002745967940427363,0.7880799770355225,0.0,0.0061224764212965965,0.815643310546875,0.0,-0.0672827810049057
380.0,633.0,0.1699,0.6335,9.5623,-0.0432,0.0232,-0.1197,-1.815920969048971,0.0,3.0044121742248535,-1.8186345100402832,-0.0,1.9147928953170776,5.087314682989874,-0.0,0.2836533486843109,-1.6520345846759241,-0.0,0.01427279133349657,0.7880922555923462,0.0,0.0023939628154039383,0.8156832456588745,0.0,-0.002809820231050253
380.0,633.0,0.1699,0.6335,9.5623,-0.0432,0.0232,-0.1197,-1.815888067285055,0.0,2.9950788021087646,-1.8186821937561035,-0.0,1.9885519742965698,5.087306487351217,-0.0,0.2831864058971405,-1.6520946661578577,-0.0,-0.017541445791721344,0.788139820098877,0.0,-0.0036156424321234226,0.8157238364219666,0.0,-0.035223208367824554
380.0,633.0,0.1699,0.6335,9.5623,-0.0432,0.0232,-0.1197,-1.8159085712828578,0.0,3.024406909942627,-1.8185933828353882,-0.0,1.949292778968811,5.087310540467062,-0.0,0.28771287202835083,-1.6520870367633265,-0.0,0.004620194435119629,0.788103461265564,0.0,0.0009745379211381078,0.8157238364219666,0.0,-0.04498464614152908
380.0,633.0,0.1699,0.6335,9.5623,-0.0432,0.0232,-0.1197,-1.8158923588194789,0.0,2.984297037124634,-1.8186345100402832,-0.0,2.018488883972168,5.087294238596716,1.2664714610366445e-08,0.2840847074985504,-1.6520703474627894,-0.0,-0.005130574572831392,0.7881120443344116,0.0,0.001373915234580636,0.815699577331543,0.0,0.0016375547274947166
389.0,597.0,0.0796,0.7161,9.664,-0.0273,0.0157,-0.1112,-1.8159691296019496,0.0,2.9504170417785645,-1.8186872005462646,-0.0,1.9520353078842163,5.087310540467062,3.52526948604881e-12,0.27166348695755005,-1.6520503203021448,-0.0,-0.005322110839188099,0.7880997657775879,0.0,0.0026958989910781384,0.8156955242156982,0.0,-0.015281075611710548
389.0,597.0,0.0796,0.7161,9.664,-0.0273,0.0157,-0.1112,-1.8159486256041468,0.0,3.0292696952819824,-1.8186264038085938,-0.0,1.971811294555664,5.08727045634345,6.407002211656851e-17,0.2908117473125458,-1.6520746389972132,-0.0,0.005105380434542894,0.7880800366401672,0.0,-0.005157058127224445,0.8156392574310303,0.0,-0.027120200917124748
389.0,597.0,0.0796,0.7161,9.664,-0.0273,0.0157,-0.1112,-1.8159247837462367,0.0,3.0241105556488037,-1.8186262845993042,-0.0,1.9417247772216797,5.087242233544149,1.7834130328916917e-20,0.2738639712333679,-1.652062718068258,-0.0,0.0006933584809303284,0.7880874276161194,0.0,-0.0009056460112333298,0.8156791925430298,0.0,0.02980104088783264
389.0,597.0,0.0796,0.7161,9.664,-0.0273,0.0157,-0.1112,-1.815949102441305,0.0,3.051988363265991,-1.8186140060424805,-0.0,1.955377221107483,5.0872786221797845,3.2412647848391726e-25,0.2855489253997803,-1.6520746389972132,-0.0,-0.006770191714167595,0.7880517840385437,0.0,0.0003699063090607524,0.8156672120094299,0.0,0.017348533496260643
389.0,597.0,0.0796,0.7161,9.664,-0.0273,0.0157,-0.1112,-1.8159367046751917,0.0,3.004818916320801,-1.818605661392212,-0.0,1.927005410194397,5.087262618332662,5.8908389116317e-30,0.28926756978034973,-1.6520422140704554,-0.0,-0.01110132597386837,0.7880763411521912,0.0,-0.01000844594091177,0.815707802772522,0.0,0.012379618361592293
389.0,597.0,0.0796,0.7161,9.664,-0.0273,0.0157,-0.1112,-1.8159648380675257,0.0,3.018692970275879,-1.818670630455017,-0.0,1.9647300243377686,5.087242233544149,1.639736742896349e-33,0.2889479398727417,-1.6520746389972132,-0.0,0.005594419315457344,0.7880759239196777,0.0,-5.162484012544155e-05,0.815711498260498,0.0,-0.002834861632436514
389.0,597.0,0.0796,0.7161,9.664,-0.0273,0.0157,-0.1112,-1.8159572086729945,0.0,2.978395462036133,-1.8186665773391724,-0.0,1.9753869771957397,5.087266373425283,2.98014060330051e-38,0.2775057852268219,-1.6520584265338343,-0.0,-0.006633177399635315,0.7881194353103638,0.0,0.00373315648175776,0.815719723701477,0.0,-0.05153314396739006
389.0,597.0,0.0796,0.7161,9.664,-0.0273,0.0157,-0.1112,-1.8159367046751917,0.0,3.0263772010803223,-1.8186986446380615,-0.0,1.973055362701416,5.08729054310874,8.295686908802917e-42,0.2781255841255188,-1.652067009602682,-0.0,0.0019056168384850025,0.7881317734718323,0.0,-0.015213840641081333,0.8156791925430298,3.9364664305985286e-11,0.04195217788219452
389.0,597.0,0.0796,0.7161,9.664,-0.0273,0.0157,-0.1112,-1.8159166775145472,0.0,3.031310558319092,-1.8186986446380615,-0.0,1.9339268207550049,5.0872864601905725,0.0,0.29398083686828613,-1.652046028767721,-0.0,-0.0015553291887044907,0.7880799770355225,0.0,-0.0024897430557757616,0.8157235383987427,1.2753652664077342e-18,0.02648492157459259
389.0,597.0,0.0796,0.7161,9.664,-0.0273,0.0157,-0.1112,-1.8159405193724574,0.0,3.036043405532837,-1.8186707496643066,-0.0,1.963020920753479,5.0872868476207636,0.0,0.2869858145713806,-1.6520584265338343,-0.0,0.001684930524788797,0.7881239056587219,0.0,-0.005565216764807701,0.815719485282898,0.0003093751147389412,-0.014274317771196365
389.0,597.0,0.0796,0.7161,9.664,-0.0273,0.0157,-0.1112,-1.8159972629942835,0.0,3.00410532951355,-1.8186626434326172,-0.0,1.9955267906188965,5.087226229697027,0.0,0.27286094427108765,-1.6520546118365687,-0.0,-0.006551741622388363,0.7881399393081665,0.0,-0.009002451784908772,0.815691351890564,0.00039708614349365234,-0.01623718813061714
389.0,597.0,0.0796,0.7161,9.664,-0.0273,0.0157,-0.1112,-1.8159285984435023,0.0,2.986034870147705,-1.8186501264572144,-0.0,1.9681371450424194,5.087250458985128,0.0,0.29126328229904175,-1.6520546118365687,-0.0,0.0017005826812237501,0.7880874276161194,0.0,-0.008212740533053875,0.8157238364219666,0.000308478920487687,0.01022752933204174
375.0,601.0,0.0401,0.7496,9.4726,-0.0391,0.0171,-0.115,-1.815960546533102,0.0,2.9703445434570312,-1.8186821937561035,-0.0,1.9143812656402588,5.087266760855474,0.0,0.2741270065307617,-1.6520746389972132,-0.0,-0.0040229205042123795,0.7881321310997009,0.0,-8.004636038094759e-05,0.8157235383987427,0.00030543701723217964,-0.008577852509915829
375.0,601.0,0.0401,0.7496,9.4726,-0.0391,0.0171,-0.115,-1.8159572086729945,0.0,2.960326671600342,-1.818710207939148,-0.0,1.9239213466644287,5.087274539261617,0.0,0.28256407380104065,-1.6520307699786585,-0.0,-0.013711911626160145,0.7881197333335876,0.0,0.004376353695988655,0.8157395720481873,0.0002960643032565713,0.08176552504301071
375.0,601.0,0.0401,0.7496,9.4726,-0.0391,0.0171,-0.115,-1.815993448297018,0.0,3.00339937210083,-1.8186789751052856,-0.0,1.9759154319763184,5.087210225849905,0.0,0.28826916217803955,-1.6520307699786585,-0.0,0.0019294775556772947,0.7880880832672119,0.0,-0.007763010915368795,0.8157276511192322,0.00029705275665037334,-0.010341482236981392
375.0,601.0,0.0401,0.7496,9.4726,-0.0391,0.0171,-0.115,-1.815920969048971,0.0,3.0067763328552246,-1.8186222314834595,-0.0,1.9354625940322876,5.087274539261617,0.0,0.2962322235107422,-1.652038876210348,-0.0,0.001660618232563138,0.7880997657775879,0.0,-0.00209177378565073,0.8157354593276978,0.00028417454450391233,0.014247640036046505
375.0,601.0,0.0401,0.7496,9.4726,-0.0391,0.0171,-0.115,-1.8159166775145472,0.0,3.0302963256835938,-1.818674921989441,-0.0,1.9471564292907715,5.08727045634345,0.0,0.28436851501464844,-1.6520264784442347,-0.0,0.0029959813691675663,0.7880997657775879,0.0,-0.002475281711667776,0.8157433867454529,0.0002503537689335644,0.03139064833521843
375.0,601.0,0.0401,0.7496,9.4726,-0.0391,0.0171,-0.115,-1.8159085712828578,0.0,2.9913620948791504,-1.8186665773391724,-0.0,1.9858019351959229,5.087214308768072,0.0,0.2952968180179596,-1.6520746389972132,-0.0,0.0019630971364676952,0.7881157398223877,0.0,0.002333797048777342,0.8157235383987427,0.0002160155272576958,0.007566915825009346
375.0,601.0,0.0401,0.7496,9.4726,-0.0391,0.0171,-0.115,-1.8159486256041468,0.0,3.017889976501465,-1.8186904191970825,5.891388505513406e-12,1.934180736541748,5.0872786221797845,0.0,0.28996193408966064,-1.652078930531637,-0.0,0.014961590990424156,0.7880997657775879,0.0,-0.00794181413948536,0.8157194256782532,0.00021709693828597665,-0.02641424909234047
375.0,601.0,0.0401,0.7496,9.4726,-0.0391,0.0171,-0.115,-1.815920969048971,0.0,3.010176658630371,-1.8186500072479248,1.422700857318332e-17,1.913439154624939,5.087254452496328,0.0,0.27880191802978516,-1.652067009602682,-0.0,-0.013210037723183632,0.788084089756012,0.0,0.01866927742958069,0.8157395720481873,0.0001990890596061945,0.02338135987520218
375.0,601.0,0.0401,0.7496,9.4726,-0.0391,0.0171,-0.115,-1.8159486256041468,0.0,2.9797720909118652,-1.818654179573059,4.609369489469737e-25,1.9897769689559937,5.087266790657797,0.0,0.2801440954208374,-1.652067009602682,-0.0,-0.003291940316557884,0.7881157994270325,0.0,-0.005102166440337896,0.8157516121864319,0.00017662704340182245,0.0015361607074737549
375.0,601.0,0.0401,0.7496,9.4726,-0.0391,0.0171,-0.115,-1.8159810505309046,0.0,3.0201687812805176,-1.8186872005462646,1.113108514635447e-30,1.9520964622497559,5.087250458985128,0.0,0.2870636582374573,-1.6520708242999476,-0.0,-0.008751874789595604,0.7880678176879883,0.0,0.012158170342445374,0.8157354593276978,0.00012641602370422333,0.01999489963054657
375.0,601.0,0.0401,0.7496,9.4726,-0.0391,0.0171,-0.115,-1.8159367046751917,0.0,2.980961799621582,-1.8186821937561035,3.606330440262555e-38,1.9504990577697754,5.087202060013571,0.0,0.2881602346897125,-1.652078930531637,-0.0,-0.0025371117517352104,0.7881157398223877,0.0,-0.002756263595074415,0.8157317638397217,0.00011084580910392106,0.004285047762095928
375.0,601.0,0.0401,0.7496,9.4726,-0.0391,0.0171,-0.115,-1.8159448109068812,0.0,2.9997129440307617,-1.818637728691101,1.401298464324817e-45,1.9772725105285645,5.087294626026907,0.0,0.26307666301727295,-1.652046028767721,-0.0,-0.0026704161427915096,0.7880513668060303,0.0,-0.0007311532972380519,0.815691351890564,9.869060886558145e-05,0.035264693200588226
375.0,601.0,0.0401,0.7496,9.4726,-0.0391,0.0171,-0.115,-1.8159691296019496,0.0,3.0280840396881104,-1.8186862468719482,-0.0,1.9107449054718018,5.087283092528143,0.0,0.28206542134284973,-1.6520264784442347,-0.0,0.0037039630115032196,0.7881680130958557,0.0,0.001342386705800891,0.8157156109809875,9.119089372688904e-05,0.0511908233165741
365.0,613.0,-0.1208,0.8638,9.5791,-0.0275,0.0336,-0.1219,-1.815993448297018,0.0,3.0283212661743164,-1.8186664581298828,-0.0,1.9206602573394775,5.0872868476207636,0.0,0.28535377979278564,-1.6521146933185022,-0.0,-0.009626282379031181,0.7880957126617432,0.0,-0.0047673569060862064,0.8157395720481873,8.28011252451688e-05,0.02170240879058838
365.0,613.0,-0.1208,0.8638,9.5791,-0.0275,0.0336,-0.1219,-1.8159686527647914,0.0,3.0388078689575195,-1.8187017440795898,-0.0,1.9723632335662842,5.0872462568576715,0.0,0.28615492582321167,-1.6520379225360315,-0.0,0.0004597494553308934,0.7880957126617432,0.0,0.0017046546563506126,0.815727174282074,7.745655602775514e-05,-0.0028603719547390938
365.0,613.0,-0.1208,0.8638,9.5791,-0.0275,0.0336,-0.1219,-1.8159767589964808,0.0,3.0001749992370605,-1.8186583518981934,-0.0,1.9468657970428467,5.087198662548818,0.0,0.27824801206588745,-1.652078930531637,-0.0,-0.0034551452845335007,0.7881840467453003,0.0,-0.017847172915935516,0.8157721757888794,7.131875463528559e-05,0.03801426291465759
365.0,613.0,-0.1208,0.8638,9.5791,-0.0275,0.0336,-0.1219,-1.815989156762594,0.0,2.9968414306640625,-1.818666696548462,-0.0,1.9654656648635864,5.087226587324896,0.0,0.28524091839790344,-1.6519988218890589,-0.0,0.0011048350716009736,0.7880997657775879,0.0,-0.00443690363317728,0.8157639503479004,6.731793837388977e-05,0.003954004961997271
365.0,613.0,-0.1208,0.8638,9.5791,-0.0275,0.0336,-0.1219,-1.815972467462057,0.0,3.0322132110595703,-1.8186179399490356,-0.0,1.9789807796478271,5.087246286659994,0.0,0.2929064929485321,-1.6520708242999476,-0.0,0.0006712847389280796,0.788084089756012,0.0,0.0025354446843266487,0.8157678246498108,6.263313844101503e-05,-0.0051338388584554195
365.0,613.0,-0.1208,0.8638,9.5791,-0.0275,0.0336,-0.1219,-1.8159648380675257,-2.208663590561044e-12,3.0233101844787598,-1.8186336755752563,-0.0,1.9849765300750732,5.087222534209051,0.0,0.27563467621803284,-1.652067009602682,-0.0,-0.002646593376994133,0.7881520986557007,0.0,-0.009794991463422775,0.8156991600990295,5.855801282450557e-05,-0.011850196868181229
365.0,613.0,-0.1208,0.8638,9.5791,-0.0275,0.0336,-0.1219,-1.815989156762594,-5.333662657693454e-18,2.999694347381592,-1.8186830282211304,-0.0,2.0187909603118896,5.087182599097051,0.0,0.2941829264163971,-1.6520584265338343,-0.0,0.0003530600806698203,0.7880957126617432,0.0,0.008535481058061123,0.8156832456588745,5.583344682236202e-05,-0.01914188638329506
365.0,613.0,-0.1208,0.8638,9.5791,-0.0275,0.0336,-0.1219,-1.8159767589964808,-1.7280387628938216e-25,2.9778504371643066,-1.81864595413208,-0.0,1.9160330295562744,5.087246286659994,-5.9345184126868844e-05,0.29017990827560425,-1.6520422140704554,-0.0,-0.0016077046748250723,0.7881439328193665,0.0,-0.0059006428346037865,0.8157557249069214,5.257208613329567e-05,-0.001866258680820465
365.0,613.0,-0.1208,0.8638,9.5791,-0.0275,0.0336,-0.1219,-1.815972467462057,-4.173010117594264e-31,3.0168609619140625,-1.818670630455017,-0.0,1.9699736833572388,5.087254541903295,-5.756335303885862e-05,0.3063146770000458,-1.6520546118365687,-0.0,-0.014423041604459286,0.7881157398223877,0.0,0.003423087764531374,0.8157433867454529,5.0365626520942897e-05,0.004928490146994591
365.0,613.0,-0.1208,0.8638,9.5791,-0.0275,0.0336,-0.1219,-1.8159848652281703,-0.0002545928582549095,3.0105013847351074,-1.818597435951233,-0.0,2.027263879776001,5.0872749266918085,-5.476142541738227e-05,0.2903822362422943,-1.6520345846759241,-0.0,-0.01292666606605053,0.7881197333335876,0.0,0.002278654370456934,0.8157392144203186,1.7287882656091824e-05,0.017733246088027954
365.0,613.0,-0.1208,0.8638,9.5791,-0.0275,0.0336,-0.1219,-1.8160129986205042,-0.000270018819719553,2.9906539916992188,-1.818658471107483,-0.0,1.9556608200073242,5.087194698839941,-5.2832692745141685e-05,0.2742927372455597,-1.652078930531637,-6.91054502510724e-09,-0.0052175018936395645,0.7881320118904114,0.0,0.0029901512898504734,0.8157194256782532,3.078081863350235e-05,-0.038537099957466125
365.0,613.0,-0.1208,0.8638,9.5791,-0.0275,0.0336,-0.1219,-1.8160206280150355,-0.0003000747528858483,2.968050956726074,-1.818594217300415,-0.0,2.007699966430664,5.087170380144872,-5.046285514254123e-05,0.28537046909332275,-1.6520345846759241,-1.2559575504177828e-13,0.005862770602107048,0.7881038188934326,0.0,-0.0007714842213317752,0.8157636523246765,4.550813537207432e-05,-0.0024928427301347256
365.0,613.0,-0.1208,0.8638,9.5791,-0.0275,0.0336,-0.1219,-1.8160168133177699,-0.000999260344542563,2.944793224334717,-1.8186179399490356,-0.0,1.9678657054901123,5.087214308768072,-2.7402871083381797e-08,0.28885704278945923,-1.6520307699786585,-2.2826406759015728e-18,-0.0013620287645608187,0.7881357073783875,0.0,-0.018932191655039787,0.8157636523246765,0.00043643557000905275,-0.03419165313243866
380.0,599.0,0.2381,1.0863,9.5085,-0.0156,0.0197,-0.1185,-1.8160573444762171,-0.0012828821782022715,2.988560199737549,-1.8186427354812622,-0.0,1.8883585929870605,5.087222534209051,-7.627690146172483e-12,0.2843719720840454,-1.6520183722125452,-6.35381440165758e-22,0.005572458729147911,0.7881037592887878,0.0,-0.0077229999005794525,0.8157715797424316,0.0011762105859816074,-0.022170260548591614
380.0,599.0,0.2381,1.0863,9.5085,-0.0156,0.0197,-0.1185,-1.8160931072630824,-0.0016423745546489954,2.9910125732421875,-1.818670630455017,-0.0,1.9735687971115112,5.087250488787451,-1.3862950172858726e-16,0.28680098056793213,-1.652046028767721,-1.1547744983309648e-26,-0.0059771230444312096,0.7880678772926331,0.0,0.006331820040941238,0.8157634139060974,0.0023169852793216705,-0.008364313282072544
380.0,599.0,0.2381,1.0863,9.5085,-0.0156,0.0197,-0.1185,-1.8161050281920375,-0.0022244842257350683,3.0210869312286377,-1.8186264038085938,0.00015195333980955184,1.9379322528839111,5.08726258853034,-3.858803696790983e-20,0.2789880037307739,-1.652038876210348,-3.214357516956299e-30,-0.005772964097559452,0.788111686706543,0.0,0.002281108871102333,0.8158118724822998,0.004483010154217482,-0.015267308801412582
380.0,599.0,0.2381,1.0863,9.5085,-0.0156,0.0197,-0.1185,-1.8161775074400843,-0.0030191252008080482,3.0148098468780518,-1.8186261653900146,0.00014437016216106713,1.939478874206543,5.087182539492407,-7.013185453783073e-25,0.294467031955719,-1.6520584265338343,-5.841936582844954e-35,0.0039000227116048336,0.7880922555923462,0.0,-0.00010596495121717453,0.8158316612243652,0.005495513789355755,0.057096242904663086
380.0,599.0,0.2381,1.0863,9.5085,-0.0156,0.0197,-0.1185,-1.8161050281920375,-0.0036262481007725,3.039015293121338,-1.8186264038085938,0.00013169490557629615,1.9498932361602783,5.087286877423086,-1.9521460639020995e-28,0.28643372654914856,-1.6520751158343714,-1.6261246116290943e-38,-0.006309485994279385,0.788043737411499,0.0,0.0011320386547595263,0.8158556222915649,0.00380808231420815,0.03444012254476547
380.0,599.0,0.2381,1.0863,9.5085,-0.0156,0.0197,-0.1185,-1.8161856136717738,-0.004494623746722937,2.9826765060424805,-1.8186179399490356,0.00014147243928164244,1.9560737609863281,5.0872385678584955,-3.547928844871661e-33,0.290437787771225,-1.6520751158343714,-2.956739759725364e-43,0.002072702394798398,0.7881520986557007,0.0,0.0018733172910287976,0.8159002661705017,0.002054577460512519,0.012055125087499619
380.0,599.0,0.2381,1.0863,9.5085,-0.0156,0.0197,-0.1185,-1.8161970577635707,-0.004567721858620644,2.991236686706543,-1.818613886833191,0.00014939533139113337,1.9868488311767578,5.087282764702596,-6.448186426948406e-38,0.2960152328014374,-1.6520345846759241,-0.0,-0.009521964937448502,0.7881800532341003,0.0,0.0013819821178913116,0.8158797025680542,0.0011724935611709952,-0.0012855804525315762
380.0,599.0,0.2381,1.0863,9.5085,-0.0156,0.0197,-0.1185,-1.8162538013853968,-0.003957558888942003,3.0259246826171875,-1.8186583518981934,0.00015930425433907658,1.9565824270248413,5.087222534209051,-1.7949232029536582e-41,0.2919575572013855,-1.6520140806781214,-0.0,-0.00743154576048255,0.7881317138671875,0.0,-0.003921338822692633,0.8158511519432068,0.0007731749792583287,0.003158885519951582
380.0,599.0,0.2381,1.0863,9.5085,-0.0156,0.0197,-0.1185,-1.8162857494749964,-0.0026859540957957506,3.0022835731506348,-1.818605661392212,0.000200007576495409,1.9428883790969849,5.0872385678584955,-0.0,0.28173691034317017,-1.6520503203021448,-0.0,0.005130048841238022,0.7881800532341003,0.0,0.017198113724589348,0.8159804344177246,0.0004980856319889426,0.028494754806160927
380.0,599.0,0.2381,1.0863,9.5085,-0.0156,0.0197,-0.1185,-1.8162609539427699,-0.001884721452370286,3.012399196624756,-1.8186261653900146,0.00021186382218729705,1.9657106399536133,5.087178605585851,-8.07335673016496e-05,0.28100132942199707,-1.6520469824420374,-0.0,0.000877660233527422,0.7881317734718323,0.0,0.013900866732001305,0.8159077763557434,0.0003901039599440992,0.020793303847312927
380.0,599.0,0.2381,1.0863,9.5085,-0.0156,0.0197,-0.1185,-1.8162695370116175,-0.0009003752493299544,3.0175600051879883,-1.818605661392212,0.0002442839613649994,2.0074899196624756,5.087162571936407,-0.0006794529035687447,0.2773842215538025,-1.6520751158343714,-0.0,-0.006086692214012146,0.7881194949150085,0.0,-0.003777905600145459,0.8158957362174988,0.0002522002614568919,-0.05593123659491539
380.0,599.0,0.2381,1.0863,9.5085,-0.0156,0.0197,-0.1185,-1.8162452183165492,-0.0005399410729296505,2.9804933071136475,-1.8185828924179077,0.001361209899187088,1.9762251377105713,5.087198632746496,-0.0007007649983279407,0.28996628522872925,-1.6520431677447718,-0.0,-0.004445203579962254,0.7881357669830322,0.0,-0.004893539473414421,0.8158797025680542,0.00020600984862539917,0.02197151631116867
390.0,666.0,0.0293,0.8943,9.5192,-0.0386,0.0301,-0.1147,-1.8162695370116175,-0.0004153130576014519,3.0118942260742188,-1.8186097145080566,0.0032008143607527018,1.9389283657073975,5.087179261236944,-0.0006115695578046143,0.27284106612205505,-1.6520193258868616,-0.0,0.00418259110301733,0.7881357669830322,0.0,-0.0020861895754933357,0.8159237504005432,0.00018113174883183092,-0.007635710760951042
390.0,666.0,0.0293,0.8943,9.5192,-0.0386,0.0301,-0.1147,-1.8162456951537074,-0.0003175894380547106,3.006690502166748,-1.8184938430786133,0.006516376975923777,1.954735517501831,5.087187129050054,-0.0005468173185363412,0.2745918333530426,-1.6519864241229456,-0.0,0.009532520547509193,0.7881357669830322,0.0,0.008984770625829697,0.8159278631210327,0.0001872143184300512,0.007374768145382404
390.0,666.0,0.0293,0.8943,9.5192,-0.0386,0.0301,-0.1147,-1.8162576160826625,-0.00026995333610102534,3.0112557411193848,-1.8185102939605713,0.008000600151717663,1.96331787109375,5.087150680809774,-0.0005013745976611972,0.29649245738983154,-1.6519864241229456,-0.0,-0.004006645176559687,0.7881636619567871,0.0,0.006157141178846359,0.8158994913101196,0.00016957624757196754,-0.008101701736450195
390.0,666.0,0.0293,0.8943,9.5192,-0.0386,0.0301,-0.1147,-1.8162695370116175,-0.00022496446035802364,2.9998507499694824,-1.8184149265289307,0.009509005583822727,2.0007359981536865,5.087142902403631,-0.000463262724224478,0.2843199074268341,-1.6520193258868616,-0.0,0.00815572403371334,0.788123607635498,0.0,0.007935238070786,0.8159077763557434,0.00015065220941323787,-0.00597558356821537
390.0,666.0,0.0293,0.8943,9.5192,-0.0386,0.0301,-0.1147,-1.8162533245482386,-0.00019997093477286398,2.9884583950042725,-1.818326711654663,0.009951789863407612,1.9469573497772217,5.087158936053076,-0.00042544578900560737,0.276589035987854,-1.651994530354635,-0.0,0.0029712961986660957,0.7881395816802979,0.0,0.015472181141376495,0.8158875107765198,0.0001621860428713262,-0.01876547560095787
390.0,666.0,0.0293,0.8943,9.5192,-0.0386,0.0301,-0.1147,-1.8162571392455042,-0.0002031975018326193,3.0251731872558594,-1.8182666301727295,0.010144705884158611,1.9245645999908447,5.087158936053076,-0.0003884982143063098,0.2765611410140991,-1.6520302931415003,-0.0,0.013300816528499126,0.7881235480308533,0.0,0.01970219612121582,0.8158916234970093,0.00013308860070537776,0.0025230897590517998
390.0,666.0,0.0293,0.8943,9.5192,-0.0386,0.0301,-0.1147,-1.816293855706686,-0.0001799790043151006,2.985305070877075,-1.8182271718978882,0.010171836242079735,1.9916276931762695,5.087150680809774,-0.0003196729812771082,0.2949051856994629,-1.651994530354635,-0.0,0.002658954355865717,0.7881194353103638,0.0,0.01586102321743965,0.8159478902816772,0.00014586164616048336,-0.035889461636543274
390.0,666.0,0.0293,0.8943,9.5192,-0.0386,0.0301,-0.1147,-1.8162170849242152,-0.000165771329193376,2.954763650894165,-1.818075180053711,0.010587570257484913,1.9727141857147217,5.087142902403631,-0.0002625508641358465,0.282418429851532,-1.651994530354635,-0.0,0.002165652345865965,0.7881276607513428,0.0,0.025228329002857208,0.8159196972846985,0.0007556401542387903,0.057233575731515884
390.0,666.0,0.0293,0.8943,9.5192,-0.0386,0.0301,-0.1147,-1.8162452183165492,-0.0001499850332038477,2.961887836456299,-1.8180232048034668,0.0129142040386796,1.9796137809753418,5.087170797377386,-0.00021285549155436456,0.26782041788101196,-1.652010742818014,-0.0,0.014762826263904572,0.7881476283073425,0.0002169305516872555,0.028588391840457916,0.8158953785896301,0.0008774571469984949,-0.011684339493513107
390.0,666.0,0.0293,0.8943,9.5192,-0.0386,0.0301,-0.1147,-1.8162452183165492,-0.00015997435548342764,2.9888668060302734,-1.8179031610488892,0.01494085043668747,2.0008955001831055,5.087150680809774,-0.00022113813611213118,0.26533323526382446,-1.6520469824420374,-0.0,0.003402959555387497,0.7881353497505188,0.00021755541092716157,0.01643547974526882,0.815915584564209,0.0008190337102860212,-0.04793121665716171
390.0,666.0,0.0293,0.8943,9.5192,-0.0386,0.0301,-0.1147,-1.816277643243307,-0.00011609959619818255,2.9804298877716064,-1.8178160190582275,0.017040355131030083,1.9712774753570557,5.087138879090109,-0.00022169524163473397,0.2729039192199707,-1.6519745031939905,-0.0,0.010045688599348068,0.788127601146698,0.00019464992510620505,0.02731950208544731,0.815943717956543,0.0007586930878460407,-0.05961243808269501
390.0,666.0,0.0293,0.8943,9.5192,-0.0386,0.0301,-0.1147,-1.8162819347777308,-0.0009224549285136163,2.9762589931488037,-1.8177154064178467,0.018842898309230804,2.030015468597412,5.087142962008276,-0.00023093397612683475,0.26522529125213623,-1.6519907156573694,-0.0,0.015497531741857529,0.7881153225898743,0.00017565270536579192,0.024300022050738335,0.8159195780754089,0.0007809235248714685,-0.06240900233387947
390.0,666.0,0.0293,0.8943,9.5192,-0.0386,0.0301,-0.1147,-1.8163377247252406,-0.0014826925471425056,2.9507946968078613,-1.8175404071807861,0.020386800169944763,2.0254287719726562,5.087158936053076,-0.000262375280726701,0.2581053078174591,-1.6519869009601038,-0.0,0.021382341161370277,0.7882083058357239,0.00018133045523427427,0.028203174471855164,0.8159359693527222,0.0007650113548152149,-0.08749587833881378
379.0,588.0,-0.3003,0.652,9.4068,-0.0354,0.0292,-0.1159,-1.8163091144957484,-0.0019067262765020132,2.9248576164245605,-1.817355990409851,0.02102476730942726,1.9887423515319824,5.087118702917852,-0.00029303616611287,0.26298877596855164,-1.6519787947284144,-0.0,0.024748101830482483,0.7881476879119873,0.00016260880511254072,0.03307956084609032,0.8159355521202087,0.0007477475446648896,-0.04726242274045944
379.0,588.0,-0.3003,0.652,9.4068,-0.0354,0.0292,-0.1159,-1.8163658581175746,-0.0022093607112765312,3.000253677368164,-1.8171839714050293,0.02217683009803295,2.01621150970459,5.087102401047506,-0.0005022329278290272,0.26367688179016113,-1.6519950071917933,0.00035747283254750073,0.027323001995682716,0.7882160544395447,0.00017103987920563668,0.03510230779647827,0.8159517049789429,0.0007297906558960676,-0.10016021132469177
379.0,588.0,-0.3003,0.652,9.4068,-0.0354,0.0292,-0.1159,-1.8163539371886195,-0.0029135188087821007,2.9234890937805176,-1.817021131515503,0.021788552403450012,2.0156540870666504,5.08718757608489,-0.0006516611319966614,0.26318106055259705,-1.6519745031939905,0.00037019330193288624,0.02606939524412155,0.7881960272789001,0.000157398812007159,0.037117794156074524,0.8159599304199219,0.00047587466542609036,-0.11836656928062439
379.0,588.0,-0.3003,0.652,9.4068,-0.0354,0.0292,-0.1159,-1.8164221249022425,-0.0033554169349372387,2.8951497077941895,-1.8168845176696777,0.020581696182489395,2.0030322074890137,5.087130981474676,-0.0009343756828457117,0.24573791027069092,-1.6519148985492151,0.0003827614418696612,0.03532574325799942,0.7881996631622314,0.00014771106361877173,0.03828082233667374,0.8159759044647217,0.00037634826730936766,-0.08831112086772919
379.0,588.0,-0.3003,0.652,9.4068,-0.0354,0.0292,-0.1159,-1.8164102039732875,-0.003815722418949008,2.9105677604675293,-1.8167455196380615,0.017621012404561043,2.026442050933838,5.0870945928390405,-0.0029118345119059086,0.24718573689460754,-1.6519067923175257,0.0005124075105413795,0.05357205122709274,0.7881919145584106,0.00012861330469604582,0.03726212680339813,0.8159355521202087,0.0002942924329545349,-0.18186290562152863
379.0,588.0,-0.3003,0.652,9.4068,-0.0354,0.0292,-0.1159,-1.8164578876891078,-0.004024163354188204,2.8501553535461426,-1.816614031791687,0.015281448140740395,1.9954979419708252,5.08705888965682,-0.00745988916605711,0.23128026723861694,-1.651931111012594,0.0004858631291426718,0.03714106231927872,0.788215696811676,0.00011844595428556204,0.034971222281455994,0.8159359693527222,0.00025293437647633255,-0.1434175670146942
379.0,588.0,-0.3003,0.652,9.4068,-0.0354,0.0292,-0.1159,-1.816477438012594,-0.004497082903981209,2.880345106124878,-1.816474199295044,0.012455021031200886,2.054886817932129,5.087003069906988,-0.015559033490717411,0.21587705612182617,-1.6519430319415491,0.0006001588772051036,0.059687890112400055,0.7881919145584106,0.00012786542356479913,0.029994376003742218,0.815980076789856,0.00017751734412740916,-0.157594695687294
379.0,588.0,-0.3003,0.652,9.4068,-0.0354,0.0292,-0.1159,-1.81651033977651,-0.004309634678065777,2.8611819744110107,-1.8164265155792236,0.00804070569574833,1.9965341091156006,5.086968081980505,-0.008076460100710392,0.2291417121887207,-1.6519268194781702,0.0005640661693178117,0.05260486900806427,0.7882157564163208,0.00011741052730940282,0.036648817360401154,0.8159071803092957,0.0001227085740538314,-0.1898929327726364
379.0,588.0,-0.3003,0.652,9.4068,-0.0354,0.0292,-0.1159,-1.8165461025633753,-0.004538712557405233,2.832838535308838,-1.816418170928955,0.005266727413982153,2.0016467571258545,5.08689563253478,-0.0024737613275647163,0.2227177917957306,-1.651919190083639,0.0005010077729821205,0.06224431097507477,0.7881595492362976,0.00011022092076018453,0.025777757167816162,0.8159396648406982,8.384745160583407e-05,-0.17820465564727783
379.0,588.0,-0.3003,0.652,9.4068,-0.0354,0.0292,-0.1159,-1.8165737591185511,-0.006387927569448948,2.848243236541748,-1.816374659538269,0.0023440096992999315,2.032315731048584,5.086895721941747,-0.000766546989325434,0.2164389193058014,-1.6519272963153284,0.0004865862720180303,0.07300093024969101,0.7881996631622314,0.00011880906095029786,0.04066348075866699,0.8158996105194092,-1.273719135497231e-05,-0.2210027575492859
379.0,588.0,-0.3003,0.652,9.4068,-0.0354,0.0292,-0.1159,-1.8166257343687953,-0.008547143079340458,2.8165931701660156,-1.816358208656311,0.0009055826812982559,2.0046441555023193,5.08689163902358,-0.0005937576061114669,0.21850815415382385,-1.6519234816180628,0.000427813152782619,0.06745888292789459,0.7882038354873657,0.00011251455725869164,0.04010144621133804,0.8159277439117432,-7.933822780614719e-05,-0.17743051052093506
379.0,588.0,-0.3003,0.652,9.4068,-0.0354,0.0292,-0.1159,-1.8167387447752894,-0.01173335500061512,2.7624449729919434,-1.8163902759552002,0.0005014345515519381,2.0251286029815674,5.086864042073049,-0.00047399982577189803,0.21272878348827362,-1.6519435087787073,0.00043172950972802937,0.07873634248971939,0.7881633043289185,0.00010500630742171779,0.03293841332197189,0.815980076789856,-0.00011884869309142232,-0.21124926209449768
379.0,588.0,-0.3003,0.652,9.4068,-0.0354,0.0292,-0.1159,-1.8168465099730433,-0.013941741548478603,2.7992701530456543,-1.816377878189087,0.0003467928327154368,1.9869410991668701,5.086864042073049,-0.001590834348462522,0.21046051383018494,-1.6518829504596155,0.000440154253738001,0.09237463772296906,0.7881997227668762,9.844724991125986e-05,0.03464191406965256,0.8159072995185852,-0.000633401155937463,-0.261253297328949
377.0,688.0,0.1507,0.792,9.4283,-0.0301,-0.0159,-0.1206,-1.8169709644713343,-0.01570786163210869,2.7478761672973633,-1.8163901567459106,0.0002816602645907551,2.0222578048706055,5.086876290827551,-0.0025345436297357082,0.2065199613571167,-1.651891056691305,0.0004155997303314507,0.08770516514778137,0.788236141204834,9.40384779823944e-05,0.04397936165332794,0.815883457660675,-0.0006520674214698374,-0.25215575098991394
377.0,688.0,0.1507,0.792,9.4283,-0.0301,-0.0159,-0.1206,-1.8170949421324671,-0.01770135760307312,2.7698423862457275,-1.8163303136825562,0.00027028232580050826,2.0448713302612305,5.086787748127737,-0.003293359884992242,0.18824318051338196,-1.6518667379962366,0.0005010023596696556,0.09028491377830505,0.7881550788879395,8.873650949681178e-05,0.04209696501493454,0.815883457660675,-0.0004950955044478178,-0.2724062502384186
377.0,688.0,0.1507,0.792,9.4283,-0.0301,-0.0159,-0.1206,-1.8171669445433558,-0.01840120367705822,2.7385075092315674,-1.8164067268371582,0.00023501331452280283,2.027709722518921,5.086828368693151,-0.004110089037567377,0.1961555927991867,-1.65187913576235,0.0005088650505058467,0.08211567997932434,0.7882115840911865,8.513885404681787e-05,0.049770258367061615,0.8158792853355408,-0.00044530490413308144,-0.2947171926498413
377.0,688.0,0.1507,0.792,9.4283,-0.0301,-0.0159,-0.1206,-1.8173757992186488,-0.0206951592117548,2.7603302001953125,-1.8163580894470215,0.00023217366833705455,2.079172372817993,5.086752104550161,-0.00558208953589201,0.1748913824558258,-1.6518667379962366,0.0005566856125369668,0.0976269394159317,0.7881878614425659,9.231104922946543e-05,0.034621626138687134,0.8159195780754089,-0.00040004472248256207,-0.3473653793334961
377.0,688.0,0.1507,0.792,9.4283,-0.0301,-0.0159,-0.1206,-1.8174430332579554,-0.02016095444560051,2.6880764961242676,-1.8163374662399292,0.00023664120817556977,2.013373613357544,5.086744743376531,-0.006358821876347065,0.18180587887763977,-1.6518872419940394,0.0006120607140474021,0.09494109451770782,0.7881996631622314,8.889245509635657e-05,0.04440584033727646,0.8159196972846985,-0.000278687832178548,-0.27256500720977783
377.0,688.0,0.1507,0.792,9.4283,-0.0301,-0.0159,-0.1206,-1.817643781701559,-0.022161459550261497,2.6813979148864746,-1.8163580894470215,0.00016887934179976583,2.0115041732788086,5.086640196829595,-0.005941242445260286,0.17733626067638397,-1.6518634001361292,0.0007007288513705134,0.09915727376937866,0.7881596088409424,8.470906323054805e-05,0.02780073508620262,0.8159400820732117,-0.0002673209528438747,-0.31416547298431396
377.0,688.0,0.1507,0.792,9.4283,-0.0301,-0.0159,-0.1206,-1.817820211450094,-0.02327415719628334,2.6922192573547363,-1.8163260221481323,0.000831182929687202,2.0450263023376465,5.086628961354055,-0.0053399777971208096,0.1854420304298401,-1.6518591086017054,0.0007325891638174653,0.10929606854915619,0.788191556930542,8.090175833785906e-05,0.05245214328169823,0.8159036636352539,-0.000297450867947191,-0.36735913157463074
377.0,688.0,0.1507,0.792,9.4283,-0.0301,-0.0159,-0.1206,-1.817939897576803,-0.023761093616485596,2.677511215209961,-1.8163137435913086,0.0009956342400982976,2.0664095878601074,5.086580979615011,-0.004619769752025604,0.17207367718219757,-1.6518152395831507,0.0010727358749136329,0.10904373228549957,0.7881353497505188,1.327387849414663e-06,0.036682967096567154,0.8159118890762329,-0.0004484136588871479,-0.41127800941467285
377.0,688.0,0.1507,0.792,9.4283,-0.0301,-0.0159,-0.1206,-1.8181845150389613,-0.02506342902779579,2.6468029022216797,-1.8163548707962036,0.00136874383315444,2.045508623123169,5.08658920505599,-0.0033253186848014593,0.18252119421958923,-1.6518352667437952,0.0015854800585657358,0.11307641863822937,0.7881153225898743,2.412462070389143e-11,0.02177290990948677,0.8158755898475647,-0.0009041477460414171,-0.3455539345741272
377.0,688.0,0.1507,0.792,9.4283,-0.0301,-0.0159,-0.1206,-1.8183089695372523,-0.025355227291584015,2.652947425842285,-1.8163186311721802,0.0015107830986380577,1.9859262704849243,5.086549150734701,-0.0025896625593304634,0.18106067180633545,-1.651811424885885,0.002698866417631507,0.1349090337753296,0.7881919145584106,6.71517640891137e-15,0.023671505972743034,0.815895676612854,-0.001329954480752349,-0.4089730679988861
377.0,688.0,0.1507,0.792,9.4283,-0.0301,-0.0159,-0.1206,-1.8185211620726527,-0.026246948167681694,2.638592481613159,-1.8163350820541382,0.001924885087646544,2.0602176189422607,5.086513328343191,-0.002703509759157896,0.16171205043792725,-1.6517756620990198,0.004613359458744526,0.12424290180206299,0.7881836891174316,1.22045006385944e-19,0.022806953638792038,0.8158961534500122,-0.0021340511739253998,-0.3763274550437927
377.0,688.0,0.1507,0.792,9.4283,-0.0301,-0.0159,-0.1206,-1.8186694584288539,-0.02803852967917919,2.6294145584106445,-1.8162699937820435,0.002306165872141719,2.1045188903808594,5.086489248066702,-0.0032202028669416904,0.16543331742286682,-1.651727024708883,0.0047906795516610146,0.11941319704055786,0.7881919145584106,3.397167326094956e-23,0.03431474417448044,0.8158676624298096,-0.003579670563340187,-0.41719892621040344
391.0,660.0,-0.4696,0.5103,9.3888,-0.0307,0.0018,-0.1184,-1.8188978634276332,-0.02843555435538292,2.60562801361084,-1.8162182569503784,0.002950333058834076,2.052583932876587,5.086481380253591,-0.003243650309741497,0.1603124737739563,-1.6517155806170862,0.003384076990187168,0.13725978136062622,0.7881513833999634,6.174184734315488e-28,0.03413884714245796,0.8158398270606995,-0.006798940245062113,-0.43836838006973267
391.0,660.0,-0.4696,0.5103,9.3888,-0.0307,0.0018,-0.1184,-1.819101472894186,-0.030347328633069992,2.614841938018799,-1.8162016868591309,0.003693916369229555,2.0371904373168945,5.086473601847448,-0.002568955533206463,0.1600944995880127,-1.6516717115985315,0.004450904205441475,0.1417713463306427,0.7882243394851685,1.1221272746369403e-32,0.017409423366189003,0.8157513737678528,-0.005289854481816292,-0.4364604949951172
391.0,660.0,-0.4696,0.5103,9.3888,-0.0307,0.0018,-0.1184,-1.8193103275694789,-0.03073089011013508,2.6109189987182617,-1.8162100315093994,0.0048157223500311375,2.0197908878326416,5.086445379048147,-0.0016878562746569514,0.15976068377494812,-1.6516311804400843,0.005914971232414246,0.1448563039302826,0.788167417049408,3.123482349127489e-36,0.041199032217264175,0.815719485282898,-0.005380997434258461,-0.42682307958602905
391.0,660.0,-0.4696,0.5103,9.3888,-0.0307,0.0018,-0.1184,-1.81959929088735,-0.034607063978910446,2.584211587905884,-1.8161828517913818,0.005483721848577261,2.078296422958374,5.086397695332327,-0.001064144540578127,0.15521982312202454,-1.6516392866717737,0.0020850826986134052,0.14673322439193726,0.7881713509559631,5.676800208826266e-41,0.02503962069749832,0.8156552314758301,-0.00652050506323576,-0.4624142050743103
391.0,660.0,-0.4696,0.5103,9.3888,-0.0307,0.0018,-0.1184,-1.8197552166380824,-0.038239866495132446,2.6470439434051514,-1.8161311149597168,0.00664104800671339,2.035566806793213,5.08644129612998,-0.000828969175927341,0.1547384113073349,-1.6515877882586878,0.00032001890940591693,0.1284872442483902,0.7881633043289185,1.5414283107572988e-44,0.023726338520646095,0.8156956434249878,-0.004369833506643772,-0.43278002738952637
391.0,660.0,-0.4696,0.5103,9.3888,-0.0307,0.0018,-0.1184,-1.8200756512083949,-0.04468059912323952,2.591867446899414,-1.8160865306854248,0.008435589261353016,2.0279226303100586,5.086437213211813,-0.0004867462848778814,0.15374711155891418,-1.6516478697406214,0.00020306347869336605,0.12722358107566833,0.7881673574447632,0.0,0.02622799575328827,0.8155992031097412,-0.002979893470183015,-0.42017215490341187
391.0,660.0,-0.4696,0.5103,9.3888,-0.0307,0.0018,-0.1184,-1.8203803501524867,-0.04852516949176788,2.5736403465270996,-1.816031575202942,0.010526543483138084,2.1214232444763184,5.086405235319891,-0.0003673512546811253,0.15624774992465973,-1.651623551045553,0.00022739014821127057,0.12751883268356323,0.7881796360015869,0.0,0.03241857513785362,0.815607488155365,-0.00294693885371089,-0.43863677978515625
391.0,660.0,-0.4696,0.5103,9.3888,-0.0307,0.0018,-0.1184,-1.8206836185851039,-0.051504768431186676,2.569802761077881,-1.8159434795379639,0.013574005104601383,2.047539234161377,5.086469518929281,-0.00027687789406627417,0.16240116953849792,-1.6516359488116663,0.00017011663294397295,0.1332351267337799,0.788215696811676,0.0,0.029595928266644478,0.8155835270881653,-0.0028377959970384836,-0.4332338869571686
391.0,660.0,-0.4696,0.5103,9.3888,-0.0307,0.0018,-0.1184,-1.821177145043844,-0.055901117622852325,2.5945940017700195,-1.8157830238342285,0.017075447365641594,2.090850830078125,5.0864330408866785,-0.00022217532387003303,0.16908997297286987,-1.651623551045553,0.00018109258962795138,0.13675636053085327,0.7882115840911865,0.0,0.027113042771816254,0.8155434131622314,-0.0027923223096877337,-0.4034918546676636
391.0,660.0,-0.4696,0.5103,9.3888,-0.0307,0.0018,-0.1184,-1.8214780292906703,-0.059272926300764084,2.5604984760284424,-1.8156235218048096,0.019960656762123108,2.0456113815307617,5.08644129612998,-0.00023185509780887514,0.16140854358673096,-1.651663605366842,0.0001573842455400154,0.13579753041267395,0.7881996631622314,0.0,0.031101979315280914,0.8155272603034973,-0.0028311782516539097,-0.413727343082428
391.0,660.0,-0.4696,0.5103,9.3888,-0.0307,0.0018,-0.1184,-1.822014947930807,-0.060810353606939316,2.546435832977295,-1.8155323266983032,0.02450031414628029,2.077338933944702,5.08644528964118,-0.00019812295795418322,0.15126322209835052,-1.6516321341144007,8.867506403476e-05,0.1354631930589676,0.7881555557250977,0.0,0.020909033715724945,0.8154871463775635,-0.002808713587000966,-0.4476850628852844
391.0,660.0,-0.4696,0.5103,9.3888,-0.0307,0.0018,-0.1184,-1.8223630390562953,-0.06119312718510628,2.566801071166992,-1.8153198957443237,0.028980562463402748,2.1029186248779297,5.086393642216482,-0.00017847584967967123,0.1755688190460205,-1.6516197363482874,6.481973105110228e-05,0.12839290499687195,0.7882075905799866,0.0,0.026141691952943802,0.8154751062393188,-0.0025216075591742992,-0.46421512961387634
391.0,660.0,-0.4696,0.5103,9.3888,-0.0307,0.0018,-0.1184,-1.8229285679259242,-0.061702486127614975,2.574596405029297,-1.8150887489318848,0.03485091030597687,2.0643715858459473,5.0864092884357355,-0.00020927480363752693,0.1566004902124405,-1.6516278425799769,8.497219096170738e-05,0.11952546238899231,0.7881916165351868,0.0,0.025447754189372063,0.8154509663581848,-0.002058799611404538,-0.48534542322158813
427.0,771.0,0.0114,0.7831,10.2885,-0.04,0.047,-0.1257,-1.8233605823912562,-0.062035564333200455,2.5338356494903564,-1.8147252798080444,0.04153173416852951,2.149249315261841,5.086421179562368,-0.00019970469293184578,0.15696173906326294,-1.6516278425799769,7.547748828073964e-05,0.13286614418029785,0.7881715297698975,0.0,0.02895900048315525,0.8154833316802979,-0.002348845824599266,-0.47698503732681274
427.0,771.0,0.0114,0.7831,10.2885,-0.04,0.047,-0.1257,-1.823733469048971,-0.06224451959133148,2.572932004928589,-1.8144848346710205,0.046218398958444595,2.1209158897399902,5.086405205517568,-0.000778846675530076,0.16680866479873657,-1.6516082922564905,9.274506737710908e-05,0.1391105055809021,0.7882038354873657,0.0,0.021729744970798492,0.8154391050338745,-0.002461317926645279,-0.45191532373428345
427.0,771.0,0.0114,0.7831,10.2885,-0.04,0.047,-0.1257,-1.824266096154684,-0.06510013341903687,2.575406074523926,-1.8140339851379395,0.05480918288230896,2.136796236038208,5.086417394667425,-0.0006031274097040296,0.1556093543767929,-1.651623551045553,8.416586933890358e-05,0.1342635601758957,0.7882038354873657,0.0,0.03528999537229538,0.8154193162918091,-0.002617008052766323,-0.499615877866745
427.0,771.0,0.0114,0.7831,10.2885,-0.04,0.047,-0.1257,-1.8246060810484828,-0.06566520035266876,2.5427401065826416,-1.813674807548523,0.06093810871243477,2.1315653324127197,5.086381363659658,-0.0005383571260608733,0.1591247320175171,-1.6516240278827112,9.572978160576895e-05,0.13685066998004913,0.7881715297698975,0.0,0.026587847620248795,0.8154316544532776,-0.003143362468108535,-0.4571250379085541
427.0,771.0,0.0114,0.7831,10.2885,-0.04,0.047,-0.1257,-1.8250943622984828,-0.06552992761135101,2.5857553482055664,-1.8131109476089478,0.07506755739450455,2.1323282718658447,5.086361604719915,-0.0004389790119603276,0.16025356948375702,-1.6515758673297327,9.04105618246831e-05,0.14844603836536407,0.7881755828857422,0.0,0.026089249178767204,0.8153748512268066,-0.003300885669887066,-0.4354413151741028
427.0,771.0,0.0114,0.7831,10.2885,-0.04,0.047,-0.1257,-1.825547834435934,-0.06861989945173264,2.602599620819092,-1.8126922845840454,0.08416874706745148,2.1633193492889404,5.08640934804038,-0.00035625402233563364,0.15956415235996246,-1.651583496724264,8.527089812560007e-05,0.1327924132347107,0.7882198095321655,0.0,0.028063487261533737,0.8153148293495178,-0.003115297295153141,-0.4667574465274811
427.0,771.0,0.0114,0.7831,10.2885,-0.04,0.047,-0.1257,-1.8260837994017542,-0.07428619265556335,2.6007652282714844,-1.8119091987609863,0.10036493092775345,2.1790590286254883,5.086369412928381,-0.00037412552046589553,0.16497483849525452,-1.6515677610980433,0.00013898451288696378,0.13687540590763092,0.7882038354873657,0.0,0.02069197967648506,0.8153674006462097,-0.0032241179142147303,-0.47017645835876465
427.0,771.0,0.0114,0.7831,10.2885,-0.04,0.047,-0.1257,-1.8266807995238246,-0.07737763971090317,2.6058177947998047,-1.8110508918762207,0.10801170021295547,2.2290942668914795,5.086389946728506,-0.0004187064478173852,0.16472667455673218,-1.6515796820269983,0.0001483653613831848,0.1302841454744339,0.7881113290786743,0.0,0.026204442605376244,0.8153312802314758,-0.003858329029753804,-0.45330971479415894
427.0,771.0,0.0114,0.7831,10.2885,-0.04,0.047,-0.1257,-1.8271376095213832,-0.07614318281412125,2.5997114181518555,-1.8103723526000977,0.11220346391201019,2.2280757427215576,5.086425649910726,-0.0006275392952375114,0.1590747833251953,-1.651588265095846,0.00015410599007736892,0.11987633258104324,0.7882038354873657,0.0,0.017029650509357452,0.8153073191642761,-0.004354576580226421,-0.44783082604408264
427.0,771.0,0.0114,0.7831,10.2885,-0.04,0.047,-0.1257,-1.8277346096434535,-0.07454758137464523,2.571765899658203,-1.809421181678772,0.12322969734668732,2.174039363861084,5.086389887123861,-0.000525421928614378,0.15805009007453918,-1.6515801588641565,0.00015546403301414102,0.1201983168721199,0.7881357669830322,0.0,0.01674097403883934,0.8152432441711426,-0.005633577238768339,-0.4216431975364685
427.0,771.0,0.0114,0.7831,10.2885,-0.04,0.047,-0.1257,-1.8282400570311488,-0.0764511376619339,2.6173055171966553,-1.8086751699447632,0.12955981492996216,2.217183828353882,5.08635755160407,-0.0005455616628751159,0.16986113786697388,-1.651560131703512,0.0002684920618776232,0.14195245504379272,0.7881592512130737,0.0,0.02403482235968113,0.8151947259902954,-0.006265496835112572,-0.44939330220222473
427.0,771.0,0.0114,0.7831,10.2885,-0.04,0.047,-0.1257,-1.8287884197630824,-0.07959309965372086,2.6279079914093018,-1.8075529336929321,0.14031673967838287,2.2600443363189697,5.0863820789153955,-0.001724153640680015,0.1632300317287445,-1.651560131703512,0.00026109471218660474,0.1385088711977005,0.7881919145584106,0.0,0.01763017289340496,0.8151387572288513,-0.007767988834530115,-0.4382607936859131
427.0,771.0,0.0114,0.7831,10.2885,-0.04,0.047,-0.1257,-1.829273363152975,-0.07904133945703506,2.6079375743865967,-1.8066784143447876,0.149219810962677,2.251099109649658,5.086373883276739,-0.0015086502535268664,0.154423788189888,-1.6515520254718226,0.00022861121396999806,0.13454025983810425,0.7881677150726318,0.0,0.020440872758626938,0.8151151537895203,-0.008814171887934208,-0.4603334665298462
412.0,648.0,0.0843,0.993,10.0648,-0.0345,0.1286,-0.1402,-1.8298737011351527,-0.07913726568222046,2.60634708404541,-1.8053967952728271,0.15848670899868011,2.265939474105835,5.086373913079061,-0.0006857707630842924,0.1589735597372055,-1.651560131703512,0.00022807935602031648,0.14661705493927002,0.7880831956863403,0.0,0.02083134651184082,0.8150108456611633,-0.010317073203623295,-0.446683406829834
412.0,648.0,0.0843,0.993,10.0648,-0.0345,0.1286,-0.1402,-1.8305751285948695,-0.08118116855621338,2.610046863555908,-1.804142951965332,0.17128847539424896,2.271824598312378,5.08629738071517,-0.0006747973966412246,0.1742386817932129,-1.6515725294696253,0.0002276843588333577,0.1318851262331009,0.7881836891174316,0.0,0.019343934953212738,0.8149549961090088,-0.011513397097587585,-0.4482966661453247
412.0,648.0,0.0843,0.993,10.0648,-0.0345,0.1286,-0.1402,-1.8310195408263148,-0.0833236500620842,2.602769374847412,-1.8029961585998535,0.1775936484336853,2.2320477962493896,5.086321908026495,-0.0011821266962215304,0.1692492812871933,-1.651531998311178,0.00020795786986127496,0.11903472244739532,0.7881796360015869,0.0,0.02544727548956871,0.8148304224014282,-0.012271727435290813,-0.46148741245269775
412.0,648.0,0.0843,0.993,10.0648,-0.0345,0.1286,-0.1402,-1.8317328892149867,-0.08660431951284409,2.5944461822509766,-1.8015921115875244,0.19253124296665192,2.3059325218200684,5.086273956089773,-0.0021308723371475935,0.16657793521881104,-1.6515443960772913,0.00019270455231890082,0.1303492784500122,0.7881714701652527,0.0,0.019075101241469383,0.8147788643836975,-0.014195871539413929,-0.45675384998321533
412.0,648.0,0.0843,0.993,10.0648,-0.0345,0.1286,-0.1402,-1.832161088983053,-0.0878351628780365,2.597104072570801,-1.8003652095794678,0.19933676719665527,2.269062042236328,5.086249667197027,-0.002399456687271595,0.15760865807533264,-1.6515238920794886,0.00020461584790609777,0.11605024337768555,0.7882079482078552,0.0,0.01911703683435917,0.8147109746932983,-0.015768887475132942,-0.4689663052558899
412.0,648.0,0.0843,0.993,10.0648,-0.0345,0.1286,-0.1402,-1.832902570764059,-0.08549252897500992,2.61479115486145,-1.7987724542617798,0.21107661724090576,2.314201831817627,5.086241918593206,-0.002947393571957946,0.16108427941799164,-1.6515362898456019,0.00020704575581476092,0.1298322081565857,0.7881836891174316,0.0,0.004080541431903839,0.814538300037384,-0.018387194722890854,-0.4955548346042633
412.0,648.0,0.0843,0.993,10.0648,-0.0345,0.1286,-0.1402,-1.8333832226195277,-0.08511722087860107,2.6502649784088135,-1.7975187301635742,0.22286754846572876,2.3148293495178223,5.086177545576849,-0.003030631225556135,0.16618996858596802,-1.6515281836139124,0.00018889346392825246,0.13003134727478027,0.788151741027832,0.0,0.009356112219393253,0.8144543170928955,-0.018887871876358986,-0.5054259300231934
412.0,648.0,0.0843,0.993,10.0648,-0.0345,0.1286,-0.1402,-1.8341242275633753,-0.09467117488384247,2.6014492511749268,-1.795588493347168,0.23067325353622437,2.3669660091400146,5.086206245213308,-0.004699366632848978,0.16714513301849365,-1.6515281836139124,0.0001927575358422473,0.1227416843175888,0.7882120013237,0.0,0.007741979323327541,0.8143101334571838,-0.020807582885026932,-0.49553775787353516
412.0,648.0,0.0843,0.993,10.0648,-0.0345,0.1286,-0.1402,-1.834905286828512,-0.10794713348150253,2.6033706665039062,-1.7936562299728394,0.24254482984542847,2.267585277557373,5.0861582336719415,-0.0046669417060911655,0.1689302623271942,-1.6515281836139124,0.00021893040684517473,0.11938139796257019,0.7881633639335632,0.0,0.01086030900478363,0.8141300678253174,-0.02266697771847248,-0.46706101298332214
412.0,648.0,0.0843,0.993,10.0648,-0.0345,0.1286,-0.1402,-1.835550447503561,-0.11050475388765335,2.6217145919799805,-1.7921630144119263,0.2585771679878235,2.360970973968506,5.086130308895864,-0.002760922536253929,0.15161415934562683,-1.6515362898456019,0.0002291032869834453,0.13089223206043243,0.7881636619567871,0.0,0.012525156140327454,0.8139376044273376,-0.025457650423049927,-0.5083532333374023
