ramyac6/ROB537/final_project/csv/all/good_28.csv
tof_0,tof_1,accelx,accely,accelz,gyrox,gyroy,gyroz,shoulder_lift_joint_position,shoulder_lift_joint_velocity,shoulder_lift_joint_effort,elbow_joint_position,elbow_joint_velocity,elbow_joint_effort,wrist_1_joint_position,wrist_1_joint_velocity,wrist_1_joint_effort,wrist_2_joint_position,wrist_2_joint_velocity,wrist_2_joint_effort,wrist_3_joint_position,wrist_3_joint_velocity,wrist_3_joint_effort,shoulder_pan_joint_position,shoulder_pan_joint_velocity,shoulder_pan_joint_effort
199.0,222.0,7.0475,0.0634,5.9605,-0.0374,0.0197,-0.1232,-1.671488424340719,0.0,2.5825071334838867,-1.2811532020568848,-0.0,2.176551342010498,3.7046233850666503,0.0,0.26423782110214233,-1.1755717436419886,0.0,-0.02759554423391819,0.42438432574272156,-0.0,-0.008874179795384407,1.2533468008041382,0.0,0.015489361248910427
199.0,222.0,7.0475,0.0634,5.9605,-0.0374,0.0197,-0.1232,-1.6714807949461878,0.0,2.5663928985595703,-1.2810721397399902,-0.0,2.2143144607543945,3.704563780421875,0.0,0.267800509929657,-1.1756075064288538,0.0,-0.03686614707112312,0.4244285821914673,-0.0,-0.0043768188916146755,1.2533671855926514,0.0,0.00035584717988967896
199.0,222.0,7.0475,0.0634,5.9605,-0.0374,0.0197,-0.1232,-1.6715413532652796,0.0,2.5504469871520996,-1.2811124324798584,-0.0,2.134328842163086,3.704559488887451,0.0,0.2521791458129883,-1.1756113211261194,0.0,-0.04592844843864441,0.42438843846321106,-0.0,-0.0009518457809463143,1.2533752918243408,0.0,-0.016403673216700554
199.0,222.0,7.0475,0.0634,5.9605,-0.0374,0.0197,-0.1232,-1.6715370617308558,0.0,2.548715353012085,-1.2810804843902588,-0.0,2.146409034729004,3.704559488887451,0.0,0.25589942932128906,-1.1756275335894983,0.0,-0.030913282185792923,0.4243520200252533,-0.0,-0.008806055411696434,1.2533752918243408,0.0,-0.010813279077410698
199.0,222.0,7.0475,0.0634,5.9605,-0.0374,0.0197,-0.1232,-1.671492715875143,0.0,2.5302507877349854,-1.2810282707214355,-0.0,2.13088321685791,3.7046310144611816,0.0,0.24810639023780823,-1.1755755583392542,0.0,-0.03833509236574173,0.42439255118370056,-0.0,-0.008305110968649387,1.2533912658691406,0.0,-0.02409658394753933
199.0,222.0,7.0475,0.0634,5.9605,-0.0374,0.0197,-0.1232,-1.6714607677855433,0.0,2.521031379699707,-1.281069040298462,-0.0,2.1252212524414062,3.70459954320874,0.0,0.25526973605155945,-1.1755793730365198,0.0,-0.05131373926997185,0.4243721067905426,-0.0,-0.013936555944383144,1.2534115314483643,0.0,-0.010625151917338371
199.0,222.0,7.0475,0.0634,5.9605,-0.0374,0.0197,-0.1232,-1.6715613804259242,0.0,2.563795566558838,-1.2810648679733276,-0.0,2.152322769165039,3.704615278834961,0.0,0.24871638417243958,-1.1756194273578089,0.0,-0.02995450794696808,0.4244285523891449,-0.0,-0.020915713161230087,1.253379464149475,0.0,-0.0035903966054320335
199.0,222.0,7.0475,0.0634,5.9605,-0.0374,0.0197,-0.1232,-1.6715008221068324,0.0,2.545246124267578,-1.2810405492782593,-0.0,2.2072718143463135,3.70457570135083,0.0,0.24053244292736053,-1.1756599585162562,0.0,-0.0258159376680851,0.42439624667167664,-0.0,-0.014215919189155102,1.253399133682251,0.0,0.04735172539949417
202.0,226.0,7.1587,0.1286,5.7398,-0.0415,0.0324,-0.1231,-1.671532770196432,0.0,2.609151840209961,-1.2811051607131958,-0.0,2.1460039615631104,3.704651041621826,0.0,0.26345089077949524,-1.1756561438189905,0.0,-0.03191923350095749,0.4243803322315216,-0.0,-0.0040470692329108715,1.2533549070358276,0.0,-0.025250226259231567
202.0,226.0,7.1587,0.1286,5.7398,-0.0415,0.0324,-0.1231,-1.6715008221068324,0.0,2.579070568084717,-1.2810722589492798,-0.0,2.088839530944824,3.704559488887451,0.0,0.2526988089084625,-1.1756117979632776,0.0,-0.05141589790582657,0.4243803322315216,-0.0,-0.02786264196038246,1.2534191608428955,0.0,-0.016756847500801086
202.0,226.0,7.1587,0.1286,5.7398,-0.0415,0.0324,-0.1231,-1.6715413532652796,0.0,2.6022698879241943,-1.2810442447662354,-0.0,2.1031908988952637,3.7046190935322265,0.0,0.2602730691432953,-1.1756075064288538,0.0,-0.03147885575890541,0.42434385418891907,-0.0,-0.009622476994991302,1.2533831596374512,0.0,-0.010706786066293716
202.0,226.0,7.1587,0.1286,5.7398,-0.0415,0.0324,-0.1231,-1.6715084515013636,0.0,2.588235378265381,-1.281068205833435,-0.0,2.135632038116455,3.704571409816406,0.0,0.24718895554542542,-1.175615135823385,0.0,-0.026695821434259415,0.42439210414886475,-0.0,-0.007464820519089699,1.2534031867980957,0.0,-0.0031768931075930595
202.0,226.0,7.1587,0.1286,5.7398,-0.0415,0.0324,-0.1231,-1.6715246639647425,0.0,2.6101672649383545,-1.2810887098312378,-0.0,2.1385345458984375,3.704587622279785,0.0,0.26324838399887085,-1.1756117979632776,0.0,-0.03129402920603752,0.42439204454421997,-0.0,-0.020366955548524857,1.2533912658691406,0.0,-0.016181640326976776
202.0,226.0,7.1587,0.1286,5.7398,-0.0415,0.0324,-0.1231,-1.671504636804098,0.0,2.6122312545776367,-1.2810969352722168,1.6574399808177986e-07,2.1436922550201416,3.704587622279785,0.0,0.26049357652664185,-1.1755836645709437,0.0,-0.04016425460577011,0.42441633343696594,-0.0,-0.015151217579841614,1.2533549070358276,0.0,-0.022323045879602432
202.0,226.0,7.1587,0.1286,5.7398,-0.0415,0.0324,-0.1231,-1.671492715875143,0.0,2.5496602058410645,-1.2810887098312378,4.0025215130093383e-13,2.096714496612549,3.7046071726032714,0.0,0.2394951432943344,-1.1755674521075647,0.0,-0.043022602796554565,0.42442449927330017,-0.0,0.003415570128709078,1.253411054611206,0.0,-0.0046195173636078835
202.0,226.0,7.1587,0.1286,5.7398,-0.0415,0.0324,-0.1231,-1.6714889011778773,0.0,2.588203191757202,-1.2810803651809692,9.665618899367082e-19,2.114302635192871,3.7045675951191406,0.0,0.25861066579818726,-1.1756318251239222,0.0,-0.032074615359306335,0.4244249761104584,-0.0,-0.008156739175319672,1.2534031867980957,0.0,0.02359979785978794
202.0,226.0,7.1587,0.1286,5.7398,-0.0415,0.0324,-0.1231,-1.6715413532652796,0.0,2.560399293899536,-1.2811331748962402,2.334132922326769e-24,2.1721103191375732,3.7045914369770507,0.0,0.2586571276187897,-1.1756318251239222,0.0,-0.04581860080361366,0.42436841130256653,-0.0,-0.012495836243033409,1.253399133682251,0.0,-0.046351268887519836
202.0,226.0,7.1587,0.1286,5.7398,-0.0415,0.0324,-0.1231,-1.671520849267477,0.0,2.56622576713562,-1.281077265739441,5.6366567840573495e-30,2.1760964393615723,3.70459954320874,0.0,0.2653582692146301,-1.1756117979632776,0.0,-0.03165239095687866,0.42442449927330017,-0.0,-0.007896357215940952,1.2533549070358276,0.0,0.07128308713436127
202.0,226.0,7.1587,0.1286,5.7398,-0.0415,0.0324,-0.1231,-1.6715122661986292,0.0,2.5866599082946777,-1.2810804843902588,1.3611862980255967e-35,2.1548848152160645,3.7045718866535644,0.0,0.24791371822357178,-1.1755512396441858,0.0,-0.035537704825401306,0.42434388399124146,-0.0,-0.015796802937984467,1.253387212753296,0.0,0.0478801354765892
202.0,226.0,7.1587,0.1286,5.7398,-0.0415,0.0324,-0.1231,-1.6715084515013636,0.0,2.6021711826324463,-1.2810969352722168,3.287165937613156e-41,2.151594877243042,3.7046190935322265,0.0,0.2596132457256317,-1.175591293965475,0.0,-0.03455657511949539,0.42438840866088867,-0.0,-0.021594751626253128,1.2533791065216064,0.0,-0.026889311149716377
202.0,226.0,7.1587,0.1286,5.7398,-0.0415,0.0324,-0.1231,-1.6715008221068324,0.0,2.574005126953125,-1.281129002571106,0.0,2.105231761932373,3.7046429353901367,0.0,0.26715195178985596,-1.1755998770343226,0.0,-0.03906693309545517,0.42436808347702026,-0.0,-0.004501156974583864,1.2533752918243408,0.0,0.0021725590340793133
202.0,226.0,7.1587,0.1286,5.7398,-0.0415,0.0324,-0.1231,-1.671488424340719,0.0,2.568483829498291,-1.281092882156372,-0.0,2.1245806217193604,3.7046071726032714,0.0,0.2517738342285156,-1.1756113211261194,0.0,-0.04002704098820686,0.4243762195110321,-0.0,-0.004160196520388126,1.2534031867980957,0.0,-0.01936746947467327
202.0,226.0,7.1587,0.1286,5.7398,-0.0415,0.0324,-0.1231,-1.6714807949461878,0.0,2.5654492378234863,-1.2810730934143066,-0.0,2.1498472690582275,3.70459954320874,0.0,0.26161491870880127,-1.1755955854998987,0.0,-0.024860799312591553,0.4243639409542084,-0.0,-0.0020436435006558895,1.2534151077270508,0.0,0.039444923400878906
201.0,231.0,7.0223,0.0634,5.8654,-0.038,0.0237,-0.1214,-1.6715051136412562,0.0,2.563856601715088,-1.281060814857483,-0.0,2.1635594367980957,3.7045795160480957,0.0,0.2504405677318573,-1.1756399313556116,0.0,-0.033808618783950806,0.4243762493133545,-0.0,-0.0013818189036101103,1.25340735912323,0.0,0.03715316951274872
201.0,231.0,7.0223,0.0634,5.8654,-0.038,0.0237,-0.1214,-1.6715451679625453,0.0,2.569113254547119,-1.2811009883880615,-0.0,2.114098072052002,3.704603357906006,0.0,0.26079806685447693,-1.1755755583392542,0.0,-0.03782646730542183,0.4244249761104584,-0.0,-0.015984293073415756,1.25340735912323,0.0,-0.04350380226969719
201.0,231.0,7.0223,0.0634,5.8654,-0.038,0.0237,-0.1214,-1.6715408764281214,0.0,2.594879388809204,-1.281140923500061,-0.0,2.138261079788208,3.704603357906006,0.0,0.26499664783477783,-1.1756356398211878,0.0,-0.0365234911441803,0.42444857954978943,-0.0,0.0006539963651448488,1.253371238708496,0.0,0.027657460421323776
201.0,231.0,7.0223,0.0634,5.8654,-0.038,0.0237,-0.1214,-1.6715089283385218,0.0,2.554532051086426,-1.2810969352722168,-0.0,2.162949562072754,3.7045675951191406,0.0,0.25613826513290405,-1.1756356398211878,0.0,-0.025853902101516724,0.42438840866088867,-0.0,-0.011059191077947617,1.25340735912323,0.0,0.0025954025331884623
201.0,231.0,7.0223,0.0634,5.8654,-0.038,0.0237,-0.1214,-1.671504636804098,0.0,2.5492100715637207,-1.281120777130127,-0.0,2.1345696449279785,3.704603357906006,0.0,0.2502193748950958,-1.1756075064288538,0.0,-0.03754181042313576,0.42435240745544434,-0.0,-0.006458180956542492,1.2533752918243408,0.0,-0.023454029113054276
201.0,231.0,7.0223,0.0634,5.8654,-0.038,0.0237,-0.1214,-1.6714846096434535,0.0,2.535429000854492,-1.2810845375061035,-0.0,2.173292875289917,3.704603357906006,0.0,0.2610650360584259,-1.1755755583392542,0.0,-0.028592247515916824,0.4243921637535095,-0.0,-0.002079277765005827,1.2533589601516724,0.0,-0.00239624734967947
201.0,231.0,7.0223,0.0634,5.8654,-0.038,0.0237,-0.1214,-1.6715008221068324,0.0,2.5395874977111816,-1.2810240983963013,-0.0,2.1034963130950928,3.7045914369770507,0.0,0.24977993965148926,-1.1755879561053675,0.0,-0.035776086151599884,0.42444896697998047,-0.0,-0.009671838954091072,1.253411054611206,0.0,-0.049756020307540894
201.0,231.0,7.0223,0.0634,5.8654,-0.038,0.0237,-0.1214,-1.671549459496969,0.0,2.583200454711914,-1.2811249494552612,-0.0,2.131173849105835,3.70459954320874,0.0,0.2558216452598572,-1.1756075064288538,0.0,-0.03838885575532913,0.42445266246795654,-0.0,-0.0032407024409621954,1.2533752918243408,0.0,0.02282724343240261
201.0,231.0,7.0223,0.0634,5.8654,-0.038,0.0237,-0.1214,-1.6715008221068324,0.0,2.587651014328003,-1.2811009883880615,-0.0,2.1175830364227295,3.7045914369770507,0.0,0.25497710704803467,-1.1755674521075647,0.0,-0.038323480635881424,0.42439255118370056,-0.0,0.004514691885560751,1.2534196376800537,0.0,-0.00982399471104145
201.0,231.0,7.0223,0.0634,5.8654,-0.038,0.0237,-0.1214,-1.6715051136412562,0.0,2.6080236434936523,-1.2810885906219482,-0.0,2.17166805267334,3.704634829158447,0.0,0.24783670902252197,-1.1755998770343226,0.0,-0.04937613010406494,0.4243803024291992,-0.0,0.0008915332145988941,1.253399133682251,0.0,0.012228811159729958
201.0,231.0,7.0223,0.0634,5.8654,-0.038,0.0237,-0.1214,-1.6715084515013636,0.0,2.5802831649780273,-1.2810401916503906,-0.0,2.1245317459106445,3.70459954320874,0.0,0.2538493871688843,-1.1755755583392542,0.0,-0.03895103186368942,0.42438438534736633,-0.0,-0.0016800195444375277,1.2533994913101196,0.0,-0.0075406720861792564
201.0,231.0,7.0223,0.0634,5.8654,-0.038,0.0237,-0.1214,-1.6715370617308558,0.0,2.5416111946105957,-1.281129002571106,-0.0,2.1316540241241455,3.7045675951191406,0.0,0.25785118341445923,-1.1756356398211878,0.0,-0.03659576177597046,0.4243720471858978,-0.0,-0.010310688987374306,1.253395438194275,0.0,0.03222411870956421
201.0,231.0,7.0223,0.0634,5.8654,-0.038,0.0237,-0.1214,-1.671464582482809,0.0,2.6111350059509277,-1.2810845375061035,-0.0,2.1386265754699707,3.704603357906006,0.0,0.2559589147567749,-1.1756275335894983,0.0,-0.03513941541314125,0.4243483543395996,-0.0,-0.008663058280944824,1.2533950805664062,0.0,0.016230536624789238
201.0,231.0,7.0223,0.0634,5.8654,-0.038,0.0237,-0.1214,-1.671532770196432,0.0,2.594994068145752,-1.2811408042907715,-0.0,2.135538101196289,3.7045795160480957,0.0,0.25449463725090027,-1.1756117979632776,0.0,-0.04192886874079704,0.42436397075653076,-0.0,-0.01707340031862259,1.2533912658691406,0.0,-0.06686729192733765
201.0,231.0,7.0223,0.0634,5.8654,-0.038,0.0237,-0.1214,-1.6714807949461878,0.0,2.5618772506713867,-1.2810885906219482,-0.0,2.128671407699585,3.7045838075825195,0.0,0.24966637790203094,-1.1755955854998987,0.0,-0.03272409737110138,0.42440855503082275,-0.0,-0.009813336655497551,1.2533912658691406,0.0,-0.0025142342783510685
201.0,227.0,7.0038,0.0,5.9671,-0.0367,0.0261,-0.12,-1.6714688740172328,0.0,2.522115707397461,-1.2810804843902588,-0.0,2.1358766555786133,3.7046429353901367,0.0,0.26212820410728455,-1.1756075064288538,0.0,-0.04072663187980652,0.42439255118370056,-0.0,0.0027157007716596127,1.2533671855926514,0.0,0.016884425655007362
201.0,227.0,7.0038,0.0,5.9671,-0.0367,0.0261,-0.12,-1.6715089283385218,0.0,2.56223201751709,-1.2810523509979248,-0.0,2.135389804840088,3.704651041621826,0.0,0.2512221932411194,-1.1756275335894983,0.0,-0.033763349056243896,0.424396276473999,-0.0,-0.009366963990032673,1.25340735912323,0.0,-0.03267339989542961
201.0,227.0,7.0038,0.0,5.9671,-0.0367,0.0261,-0.12,-1.6715451679625453,0.0,2.589745283126831,-1.2811166048049927,-0.0,2.1214756965637207,3.704587622279785,0.0,0.2575157880783081,-1.1756036917315882,0.0,-0.03517654165625572,0.42436397075653076,-0.0,-0.01995527185499668,1.253371238708496,0.0,0.018797222524881363
201.0,227.0,7.0038,0.0,5.9671,-0.0367,0.0261,-0.12,-1.6715370617308558,0.0,2.568953514099121,-1.2810927629470825,-0.0,2.1360793113708496,3.70455185949292,0.0,0.24977248907089233,-1.1756117979632776,0.0,-0.037435609847307205,0.4244125187397003,-0.0,-0.002766271820291877,1.2533996105194092,0.0,0.016420358791947365
201.0,227.0,7.0038,0.0,5.9671,-0.0367,0.0261,-0.12,-1.6715251408019007,0.0,2.562563180923462,-1.281129002571106,-0.0,2.1610889434814453,3.704587622279785,0.0,0.2484227418899536,-1.1756237188922327,0.0,-0.03060140088200569,0.42445677518844604,-0.0,-0.01025865413248539,1.2533831596374512,0.0,-0.016030680388212204
201.0,227.0,7.0038,0.0,5.9671,-0.0367,0.0261,-0.12,-1.6715008221068324,0.0,2.5864298343658447,-1.2811083793640137,-0.0,2.153961181640625,3.704603357906006,0.0,0.2556028366088867,-1.1755874792682093,0.0,-0.03653166443109512,0.4243963360786438,-0.0,-0.02189585193991661,1.253387212753296,0.0,0.019528014585375786
201.0,227.0,7.0038,0.0,5.9671,-0.0367,0.0261,-0.12,-1.6715084515013636,0.0,2.579319953918457,-1.2810804843902588,-0.0,2.122988700866699,3.7046071726032714,0.0,0.2620092034339905,-1.1756237188922327,0.0,-0.0473618283867836,0.4243721067905426,-0.0,-0.01255670003592968,1.253399133682251,0.0,0.017618536949157715
201.0,227.0,7.0038,0.0,5.9671,-0.0367,0.0261,-0.12,-1.671492715875143,0.0,2.606475591659546,-1.2811124324798584,-0.0,2.137678623199463,3.70459954320874,0.0,0.25428470969200134,-1.1756275335894983,0.0,-0.02532149851322174,0.424396276473999,-0.0,-0.014916978776454926,1.2533389329910278,0.0,0.006669631227850914
201.0,227.0,7.0038,0.0,5.9671,-0.0367,0.0261,-0.12,-1.6715170345702113,0.0,2.607196092605591,-1.2810804843902588,-0.0,2.10929274559021,3.704575224513672,0.0,0.26275718212127686,-1.175591770802633,0.0,-0.03955156356096268,0.4243602752685547,-0.0,-0.011257621459662914,1.2533671855926514,0.0,0.07280775904655457
201.0,227.0,7.0038,0.0,5.9671,-0.0367,0.0261,-0.12,-1.6715370617308558,0.0,2.5540857315063477,-1.2811249494552612,-0.0,2.184382915496826,3.704563780421875,0.0,0.255319744348526,-1.1756117979632776,0.0,-0.037150103598833084,0.42444083094596863,-0.0,-0.0033944696187973022,1.253371238708496,0.0,-0.01077211182564497
201.0,227.0,7.0038,0.0,5.9671,-0.0367,0.0261,-0.12,-1.6714607677855433,0.0,2.553032636642456,-1.2810804843902588,-0.0,2.160059928894043,3.704615278834961,0.0,0.2595956325531006,-1.1755312124835413,0.0,-0.027379516512155533,0.42436426877975464,-0.0,-0.0071239229291677475,1.2533912658691406,0.0,-0.04150817170739174
201.0,227.0,7.0038,0.0,5.9671,-0.0367,0.0261,-0.12,-1.6715008221068324,0.0,2.542454957962036,-1.281069040298462,-0.0,2.1234641075134277,3.7046310144611816,0.0,0.25651538372039795,-1.17560321489443,0.0,-0.03487995266914368,0.42439255118370056,-0.0,0.004120198544114828,1.25340735912323,0.0,-0.00158613920211792
201.0,227.0,7.0038,0.0,5.9671,-0.0367,0.0261,-0.12,-1.671520849267477,0.0,2.6182546615600586,-1.2810885906219482,-0.0,2.1532115936279297,3.7045675951191406,0.0,0.2602216601371765,-1.1755879561053675,0.0,-0.03950577229261398,0.4243720471858978,-0.0,-0.010698419995605946,1.2534072399139404,0.0,0.009002108126878738
201.0,227.0,7.0038,0.0,5.9671,-0.0367,0.0261,-0.12,-1.6714965305724085,0.0,2.564434289932251,-1.2811009883880615,-0.0,2.1035475730895996,3.7046071726032714,0.0,0.2525797486305237,-1.17560321489443,0.0,-0.05274241417646408,0.4243803024291992,-0.0,-0.012640059925615788,1.253399133682251,0.0,0.016397645696997643
201.0,227.0,7.0038,0.0,5.9671,-0.0367,0.0261,-0.12,-1.671532770196432,0.0,2.5704169273376465,-1.2810804843902588,-0.0,2.160540819168091,3.7046634393879394,0.0,0.25802358984947205,-1.1755998770343226,0.0,-0.03385794162750244,0.42442449927330017,-0.0,-0.00496236328035593,1.2533831596374512,0.0,-0.004683657083660364
201.0,227.0,7.0038,0.0,5.9671,-0.0367,0.0261,-0.12,-1.6714931927123011,0.0,2.5551297664642334,-1.2810845375061035,-0.0,2.1912546157836914,3.7046548563190917,0.0,0.2453870177268982,-1.1755393187152308,0.0,-0.04250945523381233,0.42436808347702026,-0.0,-0.012881352566182613,1.253371238708496,0.0,-0.02658098191022873
204.0,226.0,7.084,0.0556,5.8708,-0.0377,0.0156,-0.1141,-1.6715408764281214,0.0,2.588174343109131,-1.2811248302459717,-0.0,2.1481571197509766,3.7046353059956054,0.0,0.26250535249710083,-1.1755674521075647,0.0,-0.03766968846321106,0.42440032958984375,-0.0,-0.015425466001033783,1.2534031867980957,0.0,0.03343486040830612
204.0,226.0,7.084,0.0556,5.8708,-0.0377,0.0156,-0.1141,-1.6714846096434535,0.0,2.5875277519226074,-1.2811330556869507,-0.0,2.1096553802490234,3.7045795160480957,0.0,0.25349342823028564,-1.1756075064288538,0.0,-0.04202534630894661,0.4243680536746979,-0.0,-0.010735003277659416,1.2534151077270508,0.0,0.004448685795068741
204.0,226.0,7.084,0.0556,5.8708,-0.0377,0.0156,-0.1141,-1.671520849267477,0.0,2.605440616607666,-1.281092882156372,-0.0,2.1266653537750244,3.7045838075825195,0.0,0.24830347299575806,-1.1756075064288538,0.0,-0.04725978523492813,0.42442041635513306,-0.0,-0.011560151353478432,1.2533912658691406,0.0,-0.04766419529914856
204.0,226.0,7.084,0.0556,5.8708,-0.0377,0.0156,-0.1141,-1.6715008221068324,0.0,2.556884288787842,-1.2811009883880615,-0.0,2.1566410064697266,3.7045914369770507,0.0,0.244655579328537,-1.1756237188922327,0.0,-0.047671183943748474,0.42442449927330017,-0.0,-0.010790415108203888,1.253395438194275,0.0,-0.05970226228237152
204.0,226.0,7.084,0.0556,5.8708,-0.0377,0.0156,-0.1141,-1.671520849267477,0.0,2.574070930480957,-1.2811733484268188,-0.0,2.146291732788086,3.7045675951191406,0.0,0.251886248588562,-1.1756075064288538,0.0,-0.03292273357510567,0.4243925213813782,-0.0,-0.014536092057824135,1.2533831596374512,0.0,-0.00565232802182436
204.0,226.0,7.084,0.0556,5.8708,-0.0377,0.0156,-0.1141,-1.6715127430357875,0.0,2.5891668796539307,-1.2810730934143066,-0.0,2.1600921154022217,3.704571409816406,0.0,0.25146958231925964,-1.1755755583392542,0.0,-0.0346343033015728,0.4243762493133545,-0.0,-0.005302578676491976,1.253371238708496,0.0,-0.01469024084508419
204.0,226.0,7.084,0.0556,5.8708,-0.0377,0.0156,-0.1141,-1.6715370617308558,0.0,2.553341865539551,-1.2811050415039062,-0.0,2.1435511112213135,3.704627199763916,0.0,0.2469901740550995,-1.1755712668048304,0.0,-0.042253054678440094,0.4244285523891449,-0.0,0.0032089529559016228,1.253371238708496,0.0,-0.001866494189016521
204.0,226.0,7.084,0.0556,5.8708,-0.0377,0.0156,-0.1141,-1.6715084515013636,0.0,2.591968297958374,-1.281069040298462,-0.0,2.1740238666534424,3.7045795160480957,0.0,0.24607762694358826,-1.1755998770343226,0.0,-0.034107521176338196,0.42443227767944336,-0.0,-0.0001164403511211276,1.25340735912323,0.0,0.01214502565562725
204.0,226.0,7.084,0.0556,5.8708,-0.0377,0.0156,-0.1141,-1.671504636804098,0.0,2.5313339233398438,-1.2811206579208374,-0.0,2.1638898849487305,3.7045556741901855,0.0,0.2531317472457886,-1.175648037587301,0.0,-0.03012976609170437,0.4243721067905426,-0.0,0.001122589921578765,1.2534114122390747,0.0,0.011471864767372608
204.0,226.0,7.084,0.0556,5.8708,-0.0377,0.0156,-0.1141,-1.6715051136412562,0.0,2.5687687397003174,-1.2810442447662354,-0.0,2.172380208969116,3.70457570135083,0.0,0.2607564926147461,-1.1755793730365198,0.0,-0.025995289906859398,0.4243762493133545,-0.0,-0.007759103551506996,1.25340735912323,0.0,0.017172491177916527
204.0,226.0,7.084,0.0556,5.8708,-0.0377,0.0156,-0.1141,-1.6715170345702113,0.0,2.585728168487549,-1.2811248302459717,-0.0,2.163417339324951,3.7046233850666503,0.0,0.25337520241737366,-1.1756075064288538,0.0,-0.02888227067887783,0.424492746591568,-0.0,-0.013535065576434135,1.2534031867980957,0.0,0.00027564819902181625
204.0,226.0,7.084,0.0556,5.8708,-0.0377,0.0156,-0.1141,-1.6715127430357875,0.0,2.5959632396698,-1.2810484170913696,-0.0,2.14619779586792,3.70457570135083,0.0,0.2571384310722351,-1.1755793730365198,0.0,-0.029998496174812317,0.4244403839111328,-0.0,0.008668177761137486,1.2533831596374512,0.0,0.011593664065003395
204.0,226.0,7.084,0.0556,5.8708,-0.0377,0.0156,-0.1141,-1.6715008221068324,0.0,2.5925610065460205,-1.2811042070388794,-0.0,2.1349244117736816,3.704603357906006,0.0,0.25448766350746155,-1.175648037587301,0.0,-0.03649298846721649,0.4243963062763214,-0.0,-0.014178184792399406,1.2533549070358276,0.0,0.010433021932840347
204.0,226.0,7.084,0.0556,5.8708,-0.0377,0.0156,-0.1141,-1.6714965305724085,0.0,2.543062448501587,-1.2810401916503906,-0.0,2.130491018295288,3.704615278834961,0.0,0.2517610788345337,-1.1755755583392542,0.0,-0.04544077441096306,0.4244162440299988,-0.0,-0.012911356985569,1.2534191608428955,0.0,0.028311582282185555
204.0,226.0,7.084,0.0556,5.8708,-0.0377,0.0156,-0.1141,-1.6715008221068324,0.0,2.5757241249084473,-1.281140923500061,-0.0,2.0764825344085693,3.704622908229492,0.0,0.2415381669998169,-1.175591293965475,0.0,-0.05003519356250763,0.4244125783443451,-0.0,-0.00983731634914875,1.2533831596374512,0.0,0.0186235960572958
203.0,231.0,7.0068,0.0257,6.0287,-0.0394,0.0234,-0.1148,-1.6715246639647425,0.0,2.5596320629119873,-1.281101107597351,-0.0,2.1274237632751465,3.7045833307453613,0.0,0.25262171030044556,-1.1756318251239222,0.0,-0.047194935381412506,0.42438840866088867,-0.0,-0.0202115997672081,1.25340735912323,0.0,0.028988033533096313
203.0,231.0,7.0068,0.0257,6.0287,-0.0394,0.0234,-0.1148,-1.671504636804098,0.0,2.5957014560699463,-1.2811051607131958,-0.0,2.1640453338623047,3.7046071726032714,0.0,0.2651574909687042,-1.1756113211261194,0.0,-0.038806792348623276,0.42434802651405334,-0.0,-0.00816071406006813,1.2533912658691406,0.0,-0.006204540841281414
203.0,231.0,7.0068,0.0257,6.0287,-0.0394,0.0234,-0.1148,-1.6714889011778773,0.0,2.5548315048217773,-1.281036138534546,-0.0,2.140294313430786,3.704559488887451,0.0,0.2547842860221863,-1.1756356398211878,0.0,-0.04187430068850517,0.4243640601634979,-0.0,0.0009794333018362522,1.2533912658691406,0.0,0.009603938087821007
203.0,231.0,7.0068,0.0257,6.0287,-0.0394,0.0234,-0.1148,-1.6714846096434535,0.0,2.5937070846557617,-1.2811124324798584,-0.0,2.1120729446411133,3.704603357906006,0.0,0.2499712109565735,-1.1756113211261194,0.0,-0.02980814315378666,0.42438843846321106,-0.0,-0.001541282283142209,1.253427505493164,0.0,-0.034222401678562164
203.0,231.0,7.0068,0.0257,6.0287,-0.0394,0.0234,-0.1148,-1.6715051136412562,0.0,2.5656728744506836,-1.2811051607131958,-0.0,2.129110336303711,3.704587622279785,0.0,0.2536153197288513,-1.1755760351764124,0.0,-0.028830405324697495,0.4244203269481659,-0.0,-0.0056519098579883575,1.2533831596374512,0.0,-0.02581152133643627
203.0,231.0,7.0068,0.0257,6.0287,-0.0394,0.0234,-0.1148,-1.671520849267477,0.0,2.570744276046753,-1.2811051607131958,-0.0,2.140148401260376,3.7045795160480957,0.0,0.25239187479019165,-1.1755793730365198,0.0,-0.04719271510839462,0.42435991764068604,-0.0,-0.010280718095600605,1.2533831596374512,0.0,0.009849929250776768
203.0,231.0,7.0068,0.0257,6.0287,-0.0394,0.0234,-0.1148,-1.6715170345702113,0.0,2.574869155883789,-1.2811166048049927,-0.0,2.1682839393615723,3.7045795160480957,0.0,0.25847724080085754,-1.1755793730365198,0.0,-0.022679287940263748,0.4244484305381775,-0.0,-0.004508402664214373,1.2534072399139404,0.0,0.012998372316360474
203.0,231.0,7.0068,0.0257,6.0287,-0.0394,0.0234,-0.1148,-1.671476503411764,0.0,2.6194028854370117,-1.281101107597351,-0.0,2.155115842819214,3.704587622279785,0.0,0.25690120458602905,-1.175591293965475,0.0,-0.04278697073459625,0.42442870140075684,-0.0,-0.006507654208689928,1.2533631324768066,0.0,0.009672952815890312
203.0,231.0,7.0068,0.0257,6.0287,-0.0394,0.0234,-0.1148,-1.6715246639647425,0.0,2.571108818054199,-1.2811164855957031,-0.0,2.130542278289795,3.7046071726032714,0.0,0.2513423562049866,-1.1755998770343226,0.0,-0.03007257543504238,0.4244203269481659,-0.0,-0.0013713875086978078,1.2533912658691406,0.0,0.020666467025876045
203.0,231.0,7.0068,0.0257,6.0287,-0.0394,0.0234,-0.1148,-1.6715127430357875,0.0,2.622110366821289,-1.2810887098312378,-0.0,2.098370313644409,3.704622908229492,0.0,0.2587836980819702,-1.1755555311786097,0.0,-0.033828940242528915,0.42438435554504395,-0.0,0.006598691456019878,1.2533831596374512,0.0,0.004910703748464584
203.0,231.0,7.0068,0.0257,6.0287,-0.0394,0.0234,-0.1148,-1.6715370617308558,0.0,2.613704204559326,-1.2811083793640137,-0.0,2.1078379154205322,3.704559488887451,0.0,0.2541099786758423,-1.175607983266012,0.0,-0.04412568360567093,0.42440035939216614,-0.0,0.004757498856633902,1.2534031867980957,0.0,-0.04109647497534752
203.0,231.0,7.0068,0.0257,6.0287,-0.0394,0.0234,-0.1148,-1.6715008221068324,0.0,2.5569517612457275,-1.2810722589492798,-0.0,2.14847993850708,3.7045675951191406,0.0,0.24470482766628265,-1.1755712668048304,0.0,-0.04429541528224945,0.42440032958984375,-0.0,0.002145215403288603,1.253387212753296,0.0,-0.0027375146746635437
203.0,231.0,7.0068,0.0257,6.0287,-0.0394,0.0234,-0.1148,-1.671532770196432,0.0,2.5963287353515625,-1.2810722589492798,-0.0,2.1396448612213135,3.7045914369770507,0.0,0.24699360132217407,-1.1756156126605433,0.0,-0.03809622302651405,0.4244725704193115,-0.0,-0.007793147582560778,1.253371238708496,0.0,-0.050513144582509995
203.0,231.0,7.0068,0.0257,6.0287,-0.0394,0.0234,-0.1148,-1.6714889011778773,0.0,2.6014161109924316,-1.281137228012085,-0.0,2.13649320602417,3.704563780421875,0.0,0.2551414370536804,-1.1756156126605433,0.0,-0.03348885104060173,0.4244203269481659,-0.0,-0.011642998084425926,1.2533752918243408,0.0,-0.0161906611174345
203.0,231.0,7.0068,0.0257,6.0287,-0.0394,0.0234,-0.1148,-1.6715051136412562,0.0,2.550898790359497,-1.2810567617416382,-0.0,2.1470799446105957,3.7046190935322265,0.0,0.2587495446205139,-1.1756237188922327,0.0,-0.025853894650936127,0.4243803322315216,-0.0,-0.015961255878210068,1.2533912658691406,0.0,-0.030056171119213104
209.0,234.0,7.0235,0.0502,5.9169,-0.0247,0.0228,-0.1177,-1.6715532741942347,0.0,2.5866923332214355,-1.28114914894104,-0.0,2.1336543560028076,3.7045838075825195,0.0,0.26369568705558777,-1.1755793730365198,0.0,-0.02946087345480919,0.42435991764068604,-0.0,-0.006804499309509993,1.2534115314483643,0.0,0.01945936493575573
209.0,234.0,7.0235,0.0502,5.9169,-0.0247,0.0228,-0.1177,-1.6715170345702113,0.0,2.567366123199463,-1.28104829788208,-0.0,2.0924506187438965,3.7045556741901855,0.0,0.2634270191192627,-1.1756237188922327,0.0,-0.041599635034799576,0.4243480861186981,-0.0,-0.02028384618461132,1.253387212753296,0.0,-0.04129050299525261
209.0,234.0,7.0235,0.0502,5.9169,-0.0247,0.0228,-0.1177,-1.6714846096434535,0.0,2.551877021789551,-1.2811490297317505,-0.0,2.139307975769043,3.704587622279785,0.0,0.2478226125240326,-1.1755955854998987,0.0,-0.03364597260951996,0.4244164228439331,-0.0,-0.004742815159261227,1.253395438194275,0.0,-0.021814320236444473
209.0,234.0,7.0235,0.0502,5.9169,-0.0247,0.0228,-0.1177,-1.6714807949461878,0.0,2.5593628883361816,-1.2810845375061035,-0.0,2.1813769340515137,3.704547567958496,0.0,0.24976181983947754,-1.1756156126605433,0.0,-0.028613798320293427,0.4244043529033661,-0.0,-0.009529939852654934,1.253387212753296,0.0,0.018388375639915466
209.0,234.0,7.0235,0.0502,5.9169,-0.0247,0.0228,-0.1177,-1.6715089283385218,0.0,2.608340263366699,-1.281140923500061,-0.0,2.149014472961426,3.704571409816406,0.0,0.2526601552963257,-1.1756075064288538,0.0,-0.03418133407831192,0.42435216903686523,-0.0,-0.019617410376667976,1.253395438194275,0.0,0.05943119898438454
209.0,234.0,7.0235,0.0502,5.9169,-0.0247,0.0228,-0.1177,-1.6715008221068324,0.0,2.5695977210998535,-1.281129002571106,-0.0,2.1480302810668945,3.704615278834961,0.0,0.2634642720222473,-1.1755755583392542,0.0,-0.039955899119377136,0.42436403036117554,-0.0,-0.007264307700097561,1.2533752918243408,0.0,0.011544703505933285
209.0,234.0,7.0235,0.0502,5.9169,-0.0247,0.0228,-0.1177,-1.6715008221068324,0.0,2.5211353302001953,-1.2810969352722168,-0.0,2.1457343101501465,3.7046310144611816,0.0,0.26134994626045227,-1.1756117979632776,0.0,-0.046817392110824585,0.4244244694709778,-0.0,-0.0020093161147087812,1.2533831596374512,0.0,0.0074620358645915985
209.0,234.0,7.0235,0.0502,5.9169,-0.0247,0.0228,-0.1177,-1.6714889011778773,0.0,2.5946030616760254,-1.2810803651809692,-0.0,2.1454226970672607,3.7046591478535156,0.0,0.2546980381011963,-1.1756318251239222,0.0,-0.036813899874687195,0.4243640899658203,-0.0,-0.020279115065932274,1.253399133682251,0.0,-0.060248568654060364
209.0,234.0,7.0235,0.0502,5.9169,-0.0247,0.0228,-0.1177,-1.6714931927123011,0.0,2.5564098358154297,-1.2810804843902588,-0.0,2.15230655670166,3.704627199763916,0.0,0.2551782727241516,-1.1755593458758753,0.0,-0.03885406255722046,0.4244043529033661,-0.0,-0.01706802099943161,1.253371238708496,0.0,0.03338925167918205
209.0,234.0,7.0235,0.0502,5.9169,-0.0247,0.0228,-0.1177,-1.6715170345702113,0.0,2.573904514312744,-1.28109610080719,-0.0,2.111973524093628,3.7045795160480957,0.0,0.2652943730354309,-1.1756156126605433,0.0,-0.029225561767816544,0.424372136592865,-0.0,-0.0007755670230835676,1.2533831596374512,0.0,-0.031244592741131783
209.0,234.0,7.0235,0.0502,5.9169,-0.0247,0.0228,-0.1177,-1.6714807949461878,0.0,2.597020149230957,-1.2810804843902588,-0.0,2.113395929336548,3.704603357906006,0.0,0.24343356490135193,-1.1755955854998987,0.0,-0.03087247535586357,0.42438840866088867,-0.0,-0.0026762825436890125,1.2533912658691406,0.0,-0.044481776654720306
209.0,234.0,7.0235,0.0502,5.9169,-0.0247,0.0228,-0.1177,-1.6715127430357875,0.0,2.5558362007141113,-1.281092882156372,-0.0,2.147995710372925,3.7046190935322265,0.0,0.26903992891311646,-1.1755836645709437,0.0,-0.04729946330189705,0.4244685471057892,-0.0,-0.01980140246450901,1.2534072399139404,0.0,-0.022586125880479813
209.0,234.0,7.0235,0.0502,5.9169,-0.0247,0.0228,-0.1177,-1.671532770196432,0.0,2.5251998901367188,-1.2810730934143066,-0.0,2.1087915897369385,3.7046233850666503,0.0,0.25373196601867676,-1.1755793730365198,0.0,-0.04459155350923538,0.4243321120738983,-0.0,0.0014836785849183798,1.25340735912323,0.0,-0.018077034503221512
209.0,234.0,7.0235,0.0502,5.9169,-0.0247,0.0228,-0.1177,-1.6715084515013636,0.0,2.5686941146850586,-1.2811568975448608,-0.0,2.1397979259490967,3.704615278834961,0.0,0.26214340329170227,-1.175591293965475,0.0,-0.04754416644573212,0.4243965744972229,-0.0,-0.0017926715081557631,1.253419280052185,0.0,0.01390325278043747
209.0,234.0,7.0235,0.0502,5.9169,-0.0247,0.0228,-0.1177,-1.6715084515013636,0.0,2.531511068344116,-1.281069040298462,-0.0,2.1742396354675293,3.7045833307453613,0.0,0.26335158944129944,-1.1755998770343226,0.0,-0.033616580069065094,0.4243762493133545,-0.0,-0.008852992206811905,1.253387212753296,0.0,0.005929991602897644
198.0,238.0,7.1049,0.0843,5.8068,-0.0319,0.0279,-0.1219,-1.6715651951231898,0.0,2.574502944946289,-1.2810804843902588,-0.0,2.117902994155884,3.704571409816406,0.0,0.2565029263496399,-1.1756275335894983,0.0,-0.033151015639305115,0.42438435554504395,-0.0,-0.0019596756901592016,1.253399133682251,0.0,-0.005280262790620327
198.0,238.0,7.1049,0.0843,5.8068,-0.0319,0.0279,-0.1219,-1.6715127430357875,0.0,2.582609176635742,-1.2811609506607056,-0.0,2.152817726135254,3.7046190935322265,0.0,0.2563813328742981,-1.1756237188922327,0.0,-0.042617134749889374,0.42441627383232117,-0.0,-0.011578811332583427,1.253371238708496,0.0,0.002875935286283493
198.0,238.0,7.1049,0.0843,5.8068,-0.0319,0.0279,-0.1219,-1.671520849267477,0.0,2.5691025257110596,-1.2810887098312378,-0.0,2.125676155090332,3.7045833307453613,0.0,0.2582113742828369,-1.1756075064288538,0.0,-0.05439304932951927,0.42441630363464355,-0.0,0.0016154944896697998,1.253371238708496,0.0,-0.015483425930142403
198.0,238.0,7.1049,0.0843,5.8068,-0.0319,0.0279,-0.1219,-1.6714965305724085,0.0,2.5830721855163574,-1.281069040298462,-0.0,2.0985310077667236,3.7046071726032714,0.0,0.25617334246635437,-1.1756117979632776,0.0,-0.04396054148674011,0.4243963062763214,-0.0,-0.016335878521203995,1.253399133682251,0.0,0.010570621117949486
198.0,238.0,7.1049,0.0843,5.8068,-0.0319,0.0279,-0.1219,-1.671532770196432,0.0,2.5616517066955566,-1.281076431274414,-0.0,2.107167959213257,3.704539938563965,0.0,0.2566073536872864,-1.1756237188922327,0.0,-0.0410250648856163,0.4243925213813782,-0.0,-0.0032388148829340935,1.2533831596374512,0.0,-0.052823200821876526
198.0,238.0,7.1049,0.0843,5.8068,-0.0319,0.0279,-0.1219,-1.6714965305724085,0.0,2.5694470405578613,-1.2810845375061035,-0.0,2.1763715744018555,3.704571409816406,0.0,0.2614886462688446,-1.1755593458758753,0.0,-0.03496680408716202,0.4243721663951874,-0.0,-0.009509079158306122,1.2534233331680298,0.0,0.009585397318005562
198.0,238.0,7.1049,0.0843,5.8068,-0.0319,0.0279,-0.1219,-1.6715737781920375,0.0,2.531655788421631,-1.2810648679733276,-0.0,2.221008777618408,3.7046076494404296,0.0,0.2576600909233093,-1.175591293965475,0.0,-0.035256654024124146,0.42442038655281067,-0.0,-0.004927595146000385,1.253411054611206,0.0,-0.014591806568205357
198.0,238.0,7.1049,0.0843,5.8068,-0.0319,0.0279,-0.1219,-1.6715008221068324,0.0,2.5676608085632324,-1.2810887098312378,-0.0,2.1540889739990234,3.7046548563190917,0.0,0.25015461444854736,-1.175591293965475,0.0,-0.050248365849256516,0.42436036467552185,-0.0,-0.015336951240897179,1.253395438194275,0.0,0.0032215644605457783
198.0,238.0,7.1049,0.0843,5.8068,-0.0319,0.0279,-0.1219,-1.6714965305724085,0.0,2.5497350692749023,-1.2810122966766357,-0.0,2.162363052368164,3.7046233850666503,0.0,0.2663434147834778,-1.175648037587301,0.0,-0.038540881127119064,0.42440035939216614,-0.0,-0.003639423055574298,1.253371238708496,0.0,-0.016630055382847786
198.0,238.0,7.1049,0.0843,5.8068,-0.0319,0.0279,-0.1219,-1.6714807949461878,0.0,2.5687448978424072,-1.281092882156372,-0.0,2.1148180961608887,3.70459954320874,0.0,0.24755147099494934,-1.1755793730365198,0.0,-0.03883856534957886,0.42440035939216614,-0.0,0.007985828444361687,1.25340735912323,0.0,-0.009110532701015472
198.0,238.0,7.1049,0.0843,5.8068,-0.0319,0.0279,-0.1219,-1.6715170345702113,0.0,2.5919060707092285,-1.2811414003372192,-0.0,2.138742446899414,3.704559488887451,0.0,0.2497338056564331,-1.1756075064288538,0.0,-0.036012012511491776,0.42438027262687683,-0.0,-0.013017723336815834,1.2533752918243408,0.0,-0.018432408571243286
198.0,238.0,7.1049,0.0843,5.8068,-0.0319,0.0279,-0.1219,-1.6714965305724085,0.0,2.620215892791748,-1.281068205833435,-0.0,2.155241012573242,3.704571409816406,0.0,0.26140597462654114,-1.1755998770343226,0.0,-0.04242875799536705,0.42440029978752136,-0.0,-0.019550524652004242,1.253371238708496,0.0,0.013467245735228062
198.0,238.0,7.1049,0.0843,5.8068,-0.0319,0.0279,-0.1219,-1.671464582482809,0.0,2.512432813644409,-1.2811083793640137,3.958721805225052e-12,2.185032367706299,3.704587622279785,0.0,0.25100499391555786,-1.1756075064288538,0.0,-0.03473958745598793,0.4243883788585663,-0.0,-0.004137855023145676,1.253411054611206,0.0,-0.02705145813524723
198.0,238.0,7.1049,0.0843,5.8068,-0.0319,0.0279,-0.1219,-1.6714965305724085,0.0,2.572742462158203,-1.2811042070388794,1.2825755930122058e-19,2.178581714630127,3.704603357906006,0.0,0.25087839365005493,-1.175591293965475,0.0,-0.03730868920683861,0.4244248569011688,-0.0,-0.012715386226773262,1.253371238708496,0.0,0.005338774994015694
198.0,238.0,7.1049,0.0843,5.8068,-0.0319,0.0279,-0.1219,-1.6715008221068324,0.0,2.6151957511901855,-1.2810969352722168,3.097268826909491e-25,2.162418842315674,3.704587622279785,0.0,0.25270816683769226,-1.175619904194967,0.0,-0.042864181101322174,0.42436835169792175,-0.0,-0.0027011651545763016,1.253378987312317,0.0,0.03206334635615349
203.0,228.0,7.0355,0.0694,5.9384,-0.0341,0.0218,-0.1158,-1.6715084515013636,0.0,2.5799472332000732,-1.2811009883880615,7.479539839310404e-31,2.1448163986206055,3.7046190935322265,0.0,0.25239694118499756,-1.1756117979632776,0.0,-0.027890373021364212,0.42441245913505554,-8.221846314881986e-09,-0.007596032228320837,1.2533912658691406,0.0,0.002822287380695343
203.0,228.0,7.0355,0.0694,5.9384,-0.0341,0.0218,-0.1158,-1.6715170345702113,0.0,2.5639352798461914,-1.281129002571106,1.806220897167778e-36,2.1186046600341797,3.7046114641376953,0.0,0.25242093205451965,-1.1756275335894983,0.0,-0.025747261941432953,0.42441225051879883,-2.2885810000566886e-12,-0.004067996516823769,1.2533670663833618,0.0,-0.03840743750333786
203.0,228.0,7.0355,0.0694,5.9384,-0.0341,0.0218,-0.1158,-1.6714965305724085,0.0,2.5765411853790283,-1.2811051607131958,4.3622421194431555e-42,2.1058945655822754,3.7045957285114746,0.0,0.2645624577999115,-1.1755836645709437,0.0,-0.020091287791728973,0.42443254590034485,-6.370349507842381e-16,0.001800487283617258,1.253427505493164,0.0,-0.007619922049343586
203.0,228.0,7.0355,0.0694,5.9384,-0.0341,0.0218,-0.1158,-1.6715170345702113,0.0,2.5497748851776123,-1.2810804843902588,0.0,2.0903797149658203,3.7046114641376953,0.0,0.24216806888580322,-1.175619904194967,0.0,-0.03933339565992355,0.42438840866088867,-1.7732104062707037e-19,-0.014068502001464367,1.2534031867980957,0.0,0.023131422698497772
203.0,228.0,7.0355,0.0694,5.9384,-0.0341,0.0218,-0.1158,-1.6715170345702113,0.0,2.5418524742126465,-1.2810566425323486,-0.0,2.1505627632141113,3.7045914369770507,0.0,0.25128665566444397,-1.1756075064288538,0.0,-0.03841755539178848,0.42441627383232117,-4.935796345517847e-23,-0.011323187500238419,1.2533752918243408,0.0,-0.020533163100481033
203.0,228.0,7.0355,0.0694,5.9384,-0.0341,0.0218,-0.1158,-1.6715008221068324,0.0,2.585783004760742,-1.281129002571106,-0.0,2.1469669342041016,3.70459954320874,0.0,0.25731515884399414,-1.1755674521075647,0.0,-0.03279169276356697,0.4243603050708771,-1.3738971007164248e-26,0.0009678311180323362,1.253419280052185,0.0,-0.006197167560458183
203.0,228.0,7.0355,0.0694,5.9384,-0.0341,0.0218,-0.1158,-1.6715084515013636,0.0,2.5963540077209473,-1.281129002571106,-0.0,2.1438350677490234,3.7046071726032714,0.0,0.26051202416419983,-1.1755474249469202,0.0,-0.029927201569080353,0.42441627383232117,-3.824293135654468e-30,0.002195786451920867,1.2533912658691406,0.0,0.0008103782311081886
203.0,228.0,7.0355,0.0694,5.9384,-0.0341,0.0218,-0.1158,-1.6715251408019007,0.0,2.5985894203186035,-1.2811042070388794,-0.0,2.130399703979492,3.7045957285114746,0.0,0.2624879777431488,-1.1756156126605433,0.0,-0.04619929939508438,0.4244084358215332,-1.0645062864340588e-33,-0.012274163775146008,1.2533670663833618,0.0,0.0073651098646223545
203.0,228.0,7.0355,0.0694,5.9384,-0.0341,0.0218,-0.1158,-1.6715008221068324,0.0,2.559453010559082,-1.2810680866241455,-0.0,2.0968775749206543,3.704571409816406,0.0,0.261239618062973,-1.175676170979635,0.0,-0.03743112087249756,0.4244081676006317,-2.96309178961221e-37,-0.015557516366243362,1.2534031867980957,0.0,0.003458376508206129
203.0,228.0,7.0355,0.0694,5.9384,-0.0341,0.0218,-0.1158,-1.6714965305724085,0.0,2.5938050746917725,-1.281077265739441,-0.0,2.151608467102051,3.704523726100586,0.0,0.2664400339126587,-1.1756356398211878,0.0,-0.04576002061367035,0.4243599474430084,-8.247902631169441e-41,-0.012463713996112347,1.2534115314483643,0.0,-0.007056097500026226
203.0,228.0,7.0355,0.0694,5.9384,-0.0341,0.0218,-0.1158,-1.6715246639647425,0.0,2.603846549987793,-1.281101107597351,-0.0,2.111760139465332,3.704643412227295,0.0,0.2544788718223572,-1.1756117979632776,0.0,-0.0512082576751709,0.42440032958984375,-2.2420775429197073e-44,-0.005167725495994091,1.253363013267517,0.0,-0.061323922127485275
203.0,228.0,7.0355,0.0694,5.9384,-0.0341,0.0218,-0.1158,-1.6715251408019007,0.0,2.5998549461364746,-1.2810845375061035,-0.0,2.142265796661377,3.7045957285114746,0.0,0.25889530777931213,-1.1755998770343226,0.0,-0.02979685366153717,0.4244084656238556,-0.0,-0.012814400717616081,1.2534031867980957,0.0,-0.005800556391477585
203.0,228.0,7.0355,0.0694,5.9384,-0.0341,0.0218,-0.1158,-1.6715170345702113,0.0,2.545090913772583,-1.2810969352722168,-0.0,2.1514058113098145,3.7045556741901855,0.0,0.2600724697113037,-1.175619904194967,0.0,-0.03342022746801376,0.42441627383232117,-0.0,-0.008111991919577122,1.2533835172653198,0.0,0.027740202844142914
203.0,228.0,7.0355,0.0694,5.9384,-0.0341,0.0218,-0.1158,-1.671476503411764,0.0,2.5936670303344727,-1.2810969352722168,-0.0,2.1550745964050293,3.704575224513672,0.0,0.264980673789978,-1.1755955854998987,0.0,-0.04351251572370529,0.42438840866088867,-0.0,-0.014892108738422394,1.2533752918243408,0.0,0.027341023087501526
203.0,228.0,7.0355,0.0694,5.9384,-0.0341,0.0218,-0.1158,-1.6714807949461878,0.0,2.5860061645507812,-1.2810648679733276,-0.0,2.1390504837036133,3.704587622279785,0.0,0.2494359314441681,-1.1755755583392542,0.0,-0.033205680549144745,0.42441225051879883,-0.0,-0.01360376738011837,1.253371238708496,0.0,-0.023123987019062042
205.0,235.0,7.0062,0.0437,6.015,-0.0409,0.0209,-0.1122,-1.671464582482809,0.0,2.55190372467041,-1.2810969352722168,-0.0,2.16544508934021,3.7045952516743164,0.0,0.26095616817474365,-1.1756156126605433,0.0,-0.027885928750038147,0.42438021302223206,-0.0,0.0040725525468587875,1.2534031867980957,0.0,-0.007620195392519236
205.0,235.0,7.0062,0.0437,6.015,-0.0409,0.0209,-0.1122,-1.6715051136412562,0.0,2.5133652687072754,-1.281129002571106,-0.0,2.1532974243164062,3.704587622279785,0.0,0.26180699467658997,-1.1755836645709437,0.0,-0.036630988121032715,0.42437219619750977,-0.0,0.007570349611341953,1.2533671855926514,0.0,0.008646809495985508
205.0,235.0,7.0062,0.0437,6.015,-0.0409,0.0209,-0.1122,-1.6715051136412562,0.0,2.593024730682373,-1.2811009883880615,-0.0,2.1151576042175293,3.7045952516743164,0.0,0.2566661834716797,-1.1756036917315882,0.0,-0.031142767518758774,0.42438840866088867,-0.0,-0.0067690578289330006,1.2533589601516724,0.0,-0.0274928230792284
205.0,235.0,7.0062,0.0437,6.015,-0.0409,0.0209,-0.1122,-1.671532770196432,0.0,2.5984690189361572,-1.2811206579208374,-0.0,2.1051645278930664,3.7046591478535156,0.0,0.250254362821579,-1.1755955854998987,0.0,-0.04663631319999695,0.4243963062763214,-0.0,-0.011957378126680851,1.2533307075500488,0.0,0.005552207585424185
205.0,235.0,7.0062,0.0437,6.015,-0.0409,0.0209,-0.1122,-1.671549459496969,0.0,2.634793758392334,-1.2811124324798584,-0.0,2.08825945854187,3.7046071726032714,0.0,0.25394028425216675,-1.1755712668048304,0.0,-0.04109245538711548,0.4244205951690674,-4.1781254367379006e-07,-0.015208372846245766,1.253378987312317,0.0,-0.0034092236310243607
205.0,235.0,7.0062,0.0437,6.015,-0.0409,0.0209,-0.1122,-1.6715084515013636,0.0,2.598519802093506,-1.2810927629470825,-0.0,2.170971632003784,3.7045952516743164,0.0,0.2569047808647156,-1.175648037587301,0.0,-0.027269497513771057,0.4243641495704651,-1.1629966434334449e-10,-0.0013323880266398191,1.2533307075500488,0.0,0.009472940117120743
205.0,235.0,7.0062,0.0437,6.015,-0.0409,0.0209,-0.1122,-1.671488424340719,0.0,2.6106276512145996,-1.28114914894104,-0.0,2.133258104324341,3.704603357906006,0.0,0.2388308346271515,-1.1756156126605433,0.0,-0.032079700380563736,0.42440035939216614,-3.2372440502987515e-14,0.0016331386286765337,1.253387212753296,0.0,-0.0032138205133378506
205.0,235.0,7.0062,0.0437,6.015,-0.0409,0.0209,-0.1122,-1.6714965305724085,0.0,2.6218762397766113,-1.2811009883880615,-0.0,2.1425187587738037,3.7045833307453613,0.0,0.2534122169017792,-1.1755998770343226,0.0,-0.0498252809047699,0.4244202971458435,-9.01098712861685e-18,-0.012392868287861347,1.2533468008041382,0.0,0.015298698097467422
205.0,235.0,7.0062,0.0437,6.015,-0.0409,0.0209,-0.1122,-1.6715370617308558,0.0,2.5708131790161133,-1.2810845375061035,-0.0,2.071902275085449,3.704615278834961,0.0,0.26571890711784363,-1.1755555311786097,0.0,-0.038197435438632965,0.4244530498981476,-2.5082420403757513e-21,-0.014333975501358509,1.2533552646636963,0.0,-0.015175201930105686
205.0,235.0,7.0062,0.0437,6.015,-0.0409,0.0209,-0.1122,-1.6714807949461878,0.0,2.606811285018921,-1.281092882156372,-0.0,2.104102611541748,3.70459954320874,0.0,0.25360745191574097,-1.1755874792682093,0.0,-0.04522059112787247,0.4243803024291992,-6.981784352412685e-25,-0.00530769070610404,1.2533670663833618,0.0,-0.00573194632306695
205.0,235.0,7.0062,0.0437,6.015,-0.0409,0.0209,-0.1122,-1.6714846096434535,0.0,2.5948052406311035,-1.2810648679733276,-0.0,2.1246559619903564,3.70459954320874,0.0,0.2542248070240021,-1.1756237188922327,0.0,-0.04186597466468811,0.4243519902229309,-1.9434055919613626e-28,0.0043398612178862095,1.25340735912323,0.0,0.010717425495386124
205.0,235.0,7.0062,0.0437,6.015,-0.0409,0.0209,-0.1122,-1.6714569530882777,0.0,2.5605711936950684,-1.2811042070388794,-0.0,2.1862430572509766,3.7045952516743164,0.0,0.25875595211982727,-1.1755955854998987,0.0,-0.04206470400094986,0.42441225051879883,-5.409540366890908e-32,-0.004424820188432932,1.2534031867980957,0.0,-0.0077988095581531525
205.0,235.0,7.0062,0.0437,6.015,-0.0409,0.0209,-0.1122,-1.6715289554991664,0.0,2.5775299072265625,-1.2810606956481934,-0.0,2.132105827331543,3.7046591478535156,0.0,0.2493043839931488,-1.1755836645709437,0.0,-0.029803108423948288,0.42441636323928833,-1.5057655025004517e-35,-0.004478392656892538,1.25340735912323,0.0,0.005348570644855499
205.0,235.0,7.0062,0.0437,6.015,-0.0409,0.0209,-0.1122,-1.6715008221068324,0.0,2.565638542175293,-1.281120777130127,-0.0,2.0957062244415283,3.7045556741901855,0.0,0.262214720249176,-1.1755793730365198,0.0,-0.032875820994377136,0.4244162440299988,-4.191353771718744e-39,-0.0018184618093073368,1.2533388137817383,0.0,-0.007279097568243742
205.0,235.0,7.0062,0.0437,6.015,-0.0409,0.0209,-0.1122,-1.6715733013548792,0.0,2.6138997077941895,-1.2810609340667725,-0.0,2.1470823287963867,3.704535647029541,0.0,0.2663421034812927,-1.1756485144244593,0.0,-0.03733661025762558,0.42440032958984375,-1.1672816207825726e-42,-0.003211893141269684,1.2533589601516724,0.0,-0.02549910545349121
198.0,239.0,7.0301,0.064,5.9509,-0.0399,0.0257,-0.1229,-1.671532770196432,0.0,2.589122772216797,-1.281092882156372,-0.0,2.1310195922851562,3.7045952516743164,0.0,0.2596707046031952,-1.1755755583392542,0.0,-0.030401263386011124,0.42438840866088867,-0.0,-0.004183734301477671,1.2534031867980957,0.0,0.025509178638458252
198.0,239.0,7.0301,0.064,5.9509,-0.0399,0.0257,-0.1229,-1.6714807949461878,0.0,2.5723042488098145,-1.2811568975448608,-0.0,2.1645960807800293,3.704571409816406,0.0,0.2612171769142151,-1.1756275335894983,0.0,-0.0360683873295784,0.42444443702697754,-0.0,-0.01072166208177805,1.2533507347106934,0.0,-0.00375348050147295
198.0,239.0,7.0301,0.064,5.9509,-0.0399,0.0257,-0.1229,-1.671488424340719,0.0,2.5870699882507324,-1.2810163497924805,-0.0,2.0795364379882812,3.704575224513672,0.0,0.2507292330265045,-1.1756275335894983,0.0,-0.03151606768369675,0.4243721663951874,-0.0,-0.006975185126066208,1.2534233331680298,0.0,0.035738199949264526
198.0,239.0,7.0301,0.064,5.9509,-0.0399,0.0257,-0.1229,-1.6715008221068324,0.0,2.5728611946105957,-1.2810845375061035,-0.0,2.103764295578003,3.70459954320874,0.0,0.2585662603378296,-1.1756117979632776,0.0,-0.02827352285385132,0.42444849014282227,-0.0,-0.0033245906233787537,1.2533670663833618,0.0,0.015947522595524788
198.0,239.0,7.0301,0.064,5.9509,-0.0399,0.0257,-0.1229,-1.6715127430357875,0.0,2.54408860206604,-1.2811009883880615,-0.0,2.122023105621338,3.7046233850666503,0.0,0.2657185196876526,-1.1755955854998987,0.0,-0.046155594289302826,0.42436811327934265,-0.0,-0.002082821447402239,1.2534031867980957,0.0,-0.01626240462064743
198.0,239.0,7.0301,0.064,5.9509,-0.0399,0.0257,-0.1229,-1.671549459496969,0.0,2.5372674465179443,-1.281084656715393,-0.0,2.1763968467712402,3.7046114641376953,0.0,0.26529794931411743,-1.175567928944723,0.0,-0.032047055661678314,0.4243641495704651,-0.0,-0.011842450127005577,1.2533752918243408,0.0,0.02415831945836544
198.0,239.0,7.0301,0.064,5.9509,-0.0399,0.0257,-0.1229,-1.6714846096434535,0.0,2.5597317218780518,-1.2811166048049927,-0.0,2.1267647743225098,3.7046310144611816,0.0,0.2533940076828003,-1.1756117979632776,0.0,-0.036088667809963226,0.4244202673435211,-0.0,-0.009618616662919521,1.2533912658691406,0.0,-0.052258364856243134
198.0,239.0,7.0301,0.064,5.9509,-0.0399,0.0257,-0.1229,-1.6715008221068324,0.0,2.593174695968628,-1.2810969352722168,-0.0,2.1313397884368896,3.704603357906006,0.0,0.24735355377197266,-1.17560321489443,0.0,-0.03941110149025917,0.42435625195503235,-0.0,-0.008907303214073181,1.2533831596374512,0.0,0.014771465212106705
198.0,239.0,7.0301,0.064,5.9509,-0.0399,0.0257,-0.1229,-1.6715008221068324,0.0,2.56115460395813,-1.2810969352722168,-0.0,2.1542487144470215,3.7046071726032714,0.0,0.2565161883831024,-1.175607983266012,0.0,-0.03799355402588844,0.4243963360786438,-0.0,-0.001334695378318429,1.2533831596374512,0.0,0.03305761516094208
198.0,239.0,7.0301,0.064,5.9509,-0.0399,0.0257,-0.1229,-1.6714807949461878,0.0,2.5815930366516113,-1.281076431274414,-0.0,2.1004385948181152,3.7046114641376953,0.0,0.25758984684944153,-1.1756237188922327,0.0,-0.03577636182308197,0.4243561923503876,-0.0,-0.00018354225903749466,1.2533471584320068,0.0,-0.04061676561832428
198.0,239.0,7.0301,0.064,5.9509,-0.0399,0.0257,-0.1229,-1.6715051136412562,0.0,2.5725245475769043,-1.281120777130127,-0.0,2.1517229080200195,3.7045914369770507,0.0,0.25804927945137024,-1.1755874792682093,0.0,-0.033094197511672974,0.4243844151496887,-0.0,-0.00594840943813324,1.2533507347106934,0.0,-0.014538115821778774
198.0,239.0,7.0301,0.064,5.9509,-0.0399,0.0257,-0.1229,-1.671492715875143,0.0,2.60012149810791,-1.281076431274414,-0.0,2.1665830612182617,3.704575224513672,0.0,0.2626153826713562,-1.1755712668048304,0.0,-0.020277343690395355,0.4244043231010437,-0.0,-0.009173110127449036,1.2533671855926514,0.0,0.017232676967978477
198.0,239.0,7.0301,0.064,5.9509,-0.0399,0.0257,-0.1229,-1.6715084515013636,0.0,2.5601539611816406,-1.2811124324798584,-0.0,2.1387884616851807,3.7046515184589843,0.0,0.2655266225337982,-1.1756117979632776,0.0,-0.026177896186709404,0.4244324862957001,-0.0,-0.005541129037737846,1.2533912658691406,0.0,0.033824026584625244
198.0,239.0,7.0301,0.064,5.9509,-0.0399,0.0257,-0.1229,-1.6715008221068324,0.0,2.5675597190856934,-1.2811249494552612,-0.0,2.100309133529663,3.7046071726032714,0.0,0.2554207444190979,-1.1756318251239222,0.0,-0.03567057102918625,0.42441242933273315,-0.0,-0.01503194123506546,1.253399133682251,0.0,0.029692187905311584
198.0,239.0,7.0301,0.064,5.9509,-0.0399,0.0257,-0.1229,-1.6715289554991664,0.0,2.575408935546875,-1.281092882156372,-0.0,2.105441093444824,3.7045633035847167,0.0,0.2452240139245987,-1.1755674521075647,0.0,-0.036252040416002274,0.4243963062763214,-0.0,-0.005885881371796131,1.253399133682251,0.0,0.018527232110500336
198.0,239.0,7.0301,0.064,5.9509,-0.0399,0.0257,-0.1229,-1.671476503411764,0.0,2.590153217315674,-1.281092882156372,-0.0,2.1540143489837646,3.7046233850666503,0.0,0.2507435381412506,-1.175591293965475,0.0,-0.04138719290494919,0.42445242404937744,-0.0,-0.013704158365726471,1.2534191608428955,0.0,-0.021931549534201622
202.0,230.0,7.0475,0.067,5.8582,-0.0399,0.0249,-0.1232,-1.6715008221068324,0.0,2.5949764251708984,-1.2811247110366821,-0.0,2.163444995880127,3.7046071726032714,0.0,0.2431829422712326,-1.1756275335894983,0.0,-0.038501057773828506,0.4244043231010437,-0.0,-0.008514504879713058,1.2534114122390747,0.0,-0.010134371928870678
202.0,230.0,7.0475,0.067,5.8582,-0.0399,0.0249,-0.1232,-1.6715451679625453,0.0,2.5538277626037598,-1.281068205833435,-0.0,2.160778045654297,3.704587622279785,0.0,0.25060009956359863,-1.1756356398211878,0.0,-0.03895038738846779,0.4243963360786438,-0.0,-0.00164480519015342,1.253455638885498,0.0,-0.0032615375239402056
202.0,230.0,7.0475,0.067,5.8582,-0.0399,0.0249,-0.1232,-1.671464582482809,0.0,2.6099655628204346,-1.2811124324798584,-0.0,2.125373601913452,3.7045952516743164,0.0,0.25669142603874207,-1.1756237188922327,0.0,-0.037982434034347534,0.42448028922080994,-0.0,-0.01567694917321205,1.2533791065216064,0.0,0.009336354210972786
202.0,230.0,7.0475,0.067,5.8582,-0.0399,0.0249,-0.1232,-1.6714841328062953,0.0,2.5565030574798584,-1.2810887098312378,-0.0,2.0998497009277344,3.7045914369770507,0.0,0.25076571106910706,-1.1755793730365198,0.0,-0.031850311905145645,0.4244365096092224,-0.0,0.0009678620845079422,1.253371238708496,0.0,0.01913365349173546
202.0,230.0,7.0475,0.067,5.8582,-0.0399,0.0249,-0.1232,-1.6715008221068324,0.0,2.5546844005584717,-1.2811166048049927,-0.0,2.1218197345733643,3.7046233850666503,0.0,0.259147047996521,-1.1755955854998987,0.0,-0.0402819998562336,0.4244406223297119,-0.0,-0.007270547561347485,1.253395438194275,0.0,0.007514466531574726
202.0,230.0,7.0475,0.067,5.8582,-0.0399,0.0249,-0.1232,-1.6715084515013636,0.0,2.5546464920043945,-1.2810845375061035,-0.0,2.162722110748291,3.7046114641376953,0.0,0.2653045058250427,-1.1755998770343226,0.0,-0.035851798951625824,0.4244323968887329,-0.0,-0.004795106127858162,1.253371238708496,0.0,-0.02188558131456375
202.0,230.0,7.0475,0.067,5.8582,-0.0399,0.0249,-0.1232,-1.671520849267477,0.0,2.568124771118164,-1.2810885906219482,-0.0,2.1177310943603516,3.7046071726032714,0.0,0.24251392483711243,-1.1755793730365198,0.0,-0.04153771698474884,0.42438825964927673,-0.0,-0.00175352836959064,1.2533752918243408,0.0,-0.035523273050785065
202.0,230.0,7.0475,0.067,5.8582,-0.0399,0.0249,-0.1232,-1.6714846096434535,0.0,2.5823588371276855,-1.281129002571106,-0.0,2.1386187076568604,3.7046190935322265,0.0,0.25531336665153503,-1.1755793730365198,0.0,-0.03698395937681198,0.4244043231010437,-0.0,-0.00946677103638649,1.253427505493164,0.0,-0.0037815747782588005
202.0,230.0,7.0475,0.067,5.8582,-0.0399,0.0249,-0.1232,-1.671532770196432,0.0,2.5416336059570312,-1.2811206579208374,-0.0,2.1576924324035645,3.704575224513672,0.0,0.25896763801574707,-1.1755793730365198,0.0,-0.03724686801433563,0.4244081676006317,-0.0,-0.014336707070469856,1.2533831596374512,0.0,-0.005647832062095404
202.0,230.0,7.0475,0.067,5.8582,-0.0399,0.0249,-0.1232,-1.671492715875143,0.0,2.552722692489624,-1.2811124324798584,-0.0,2.1171507835388184,3.7046071726032714,0.0,0.24690678715705872,-1.1755674521075647,0.0,-0.037016838788986206,0.4244244396686554,-0.0,-0.0033485181629657745,1.253395438194275,0.0,0.003841616678982973
202.0,230.0,7.0475,0.067,5.8582,-0.0399,0.0249,-0.1232,-1.671476503411764,0.0,2.599958896636963,-1.281076431274414,-0.0,2.116572856903076,3.7045833307453613,0.0,0.2495015263557434,-1.1756117979632776,0.0,-0.04035062715411186,0.4244283139705658,-0.0,-0.009213520213961601,1.2534115314483643,0.0,0.0065415892750024796
202.0,230.0,7.0475,0.067,5.8582,-0.0399,0.0249,-0.1232,-1.671488424340719,0.0,2.5636186599731445,-1.2811248302459717,-0.0,2.189149856567383,3.7046190935322265,0.0,0.2515558898448944,-1.1756156126605433,0.0,-0.04171421751379967,0.4243762493133545,-0.0,-0.013014134019613266,1.253399133682251,0.0,0.03324286267161369
202.0,230.0,7.0475,0.067,5.8582,-0.0399,0.0249,-0.1232,-1.671549459496969,0.0,2.5538289546966553,-1.281145453453064,-0.0,2.147078037261963,3.704587622279785,0.0,0.2621351480484009,-1.1755955854998987,0.0,-0.02791265770792961,0.4244164228439331,-0.0,0.0028559360653162003,1.253387212753296,0.0,0.005163980647921562
202.0,230.0,7.0475,0.067,5.8582,-0.0399,0.0249,-0.1232,-1.671532770196432,0.0,2.5803263187408447,-1.281060814857483,-0.0,2.1104722023010254,3.7045914369770507,0.0,0.2510998845100403,-1.1755674521075647,0.0,-0.023765886202454567,0.4244523346424103,-0.0,-0.013125801458954811,1.253371238708496,0.0,0.04615943133831024
202.0,230.0,7.0475,0.067,5.8582,-0.0399,0.0249,-0.1232,-1.6715084515013636,0.0,2.534701108932495,-1.2811206579208374,-0.0,2.129002571105957,3.7045833307453613,0.0,0.2586698532104492,-1.1755793730365198,0.0,-0.04208521917462349,0.4244324564933777,-0.0,-0.00959655549377203,1.2533670663833618,0.0,-0.038547828793525696
199.0,231.0,7.1007,0.0766,5.7422,-0.0328,0.0286,-0.1264,-1.6715008221068324,0.0,2.5609536170959473,-1.2811083793640137,-0.0,2.1564345359802246,3.704603357906006,0.0,0.2603535056114197,-1.1755793730365198,0.0,-0.036934833973646164,0.4243922531604767,-0.0,-0.0036009701434522867,1.2533752918243408,0.0,0.043989069759845734
199.0,231.0,7.1007,0.0766,5.7422,-0.0328,0.0286,-0.1264,-1.6715413532652796,0.0,2.5233261585235596,-1.2811126708984375,-0.0,2.148315668106079,3.7046233850666503,0.0,0.2515043318271637,-1.1755874792682093,0.0,-0.04616682231426239,0.42436012625694275,-0.0,-0.016950497403740883,1.2533950805664062,0.0,-0.014953020960092545
199.0,231.0,7.1007,0.0766,5.7422,-0.0328,0.0286,-0.1264,-1.671520849267477,0.0,2.546736478805542,-1.2811051607131958,-0.0,2.1497700214385986,3.704587622279785,0.0,0.26415306329727173,-1.1756318251239222,0.0,-0.03524305671453476,0.42438840866088867,-0.0,-0.008395913057029247,1.253387212753296,0.0,0.03787367790937424
199.0,231.0,7.1007,0.0766,5.7422,-0.0328,0.0286,-0.1264,-1.6715570888915003,0.0,2.578688144683838,-1.281129002571106,-0.0,2.184685707092285,3.7045795160480957,0.0,0.257428377866745,-1.175607983266012,0.0,-0.03406792879104614,0.42439231276512146,-0.0,-0.0021040812134742737,1.2534114122390747,0.0,-0.02696096897125244
199.0,231.0,7.1007,0.0766,5.7422,-0.0328,0.0286,-0.1264,-1.6715051136412562,0.0,2.5966014862060547,-1.2810804843902588,-0.0,2.154517889022827,3.704627199763916,0.0,0.26754939556121826,-1.1755955854998987,0.0,-0.03569871932268143,0.4244004786014557,-0.0,-0.00381863908842206,1.2534115314483643,0.0,0.026972128078341484
199.0,231.0,7.1007,0.0766,5.7422,-0.0328,0.0286,-0.1264,-1.6715089283385218,0.0,2.5615622997283936,-1.28101646900177,-0.0,2.1519217491149902,3.7046190935322265,0.0,0.27206629514694214,-1.1755674521075647,0.0,-0.04456078261137009,0.42445263266563416,-0.0,-0.01399482786655426,1.253399133682251,0.0,0.0024583889171481133
199.0,231.0,7.1007,0.0766,5.7422,-0.0328,0.0286,-0.1264,-1.6715084515013636,0.0,2.5456857681274414,-1.2811042070388794,-0.0,2.1012139320373535,3.704603357906006,0.0,0.25966760516166687,-1.1756117979632776,0.0,-0.03739207237958908,0.42431244254112244,-0.0,-0.01782294549047947,1.253371238708496,0.0,0.011419910937547684
199.0,231.0,7.1007,0.0766,5.7422,-0.0328,0.0286,-0.1264,-1.6714607677855433,0.0,2.5856528282165527,-1.2811164855957031,-0.0,2.1557071208953857,3.7045914369770507,0.0,0.2568413317203522,-1.17560321489443,0.0,-0.03891269490122795,0.42442432045936584,-0.0,-0.011016136035323143,1.253379464149475,0.0,0.023793645203113556
199.0,231.0,7.1007,0.0766,5.7422,-0.0328,0.0286,-0.1264,-1.671492715875143,0.0,2.5805439949035645,-1.2811527252197266,-0.0,2.1147539615631104,3.7045795160480957,0.0,0.2545110583305359,-1.1756075064288538,0.0,-0.037730682641267776,0.42441239953041077,-0.0,-0.009981055743992329,1.253387212753296,0.0,-0.001955414190888405
199.0,231.0,7.1007,0.0766,5.7422,-0.0328,0.0286,-0.1264,-1.671520849267477,0.0,2.5891356468200684,-1.281160831451416,-0.0,2.064120054244995,3.7045914369770507,0.0,0.25464823842048645,-1.17560321489443,0.0,-0.0483037605881691,0.42442023754119873,-0.0,0.013842575252056122,1.253363013267517,0.0,0.020214218646287918
199.0,231.0,7.1007,0.0766,5.7422,-0.0328,0.0286,-0.1264,-1.6714965305724085,0.0,2.5686795711517334,-1.2811124324798584,-0.0,2.1584861278533936,3.7045513826557617,0.0,0.26388484239578247,-1.1756237188922327,0.0,-0.041239120066165924,0.4244162440299988,-0.0,-0.019256459549069405,1.2533912658691406,0.0,-0.00016050692647695541
199.0,231.0,7.1007,0.0766,5.7422,-0.0328,0.0286,-0.1264,-1.6714807949461878,0.0,2.521177291870117,-1.2810609340667725,-0.0,2.1628644466400146,3.7045914369770507,0.0,0.2388974130153656,-1.1755755583392542,0.0,-0.03372350335121155,0.4244162440299988,-0.0,-0.009563029743731022,1.2534233331680298,0.0,0.012686840258538723
199.0,231.0,7.1007,0.0766,5.7422,-0.0328,0.0286,-0.1264,-1.6715132198729457,0.0,2.5550103187561035,-1.281060814857483,-0.0,2.153071403503418,3.7045914369770507,0.0,0.245902881026268,-1.1756156126605433,0.0,-0.024392418563365936,0.42443230748176575,-0.0,-0.002118539297953248,1.2533748149871826,0.0,0.03188318386673927
199.0,231.0,7.1007,0.0766,5.7422,-0.0328,0.0286,-0.1264,-1.6715370617308558,0.0,2.593111753463745,-1.2811249494552612,-0.0,2.1477584838867188,3.704639120692871,0.0,0.2692670226097107,-1.1755874792682093,0.0,-0.0333683155477047,0.42438042163848877,-0.0,-0.014049030840396881,1.253399133682251,0.0,0.017366774380207062
199.0,231.0,7.1007,0.0766,5.7422,-0.0328,0.0286,-0.1264,-1.6715127430357875,0.0,2.5732133388519287,-1.2810524702072144,-0.0,2.1281065940856934,3.704615278834961,0.0,0.2436029314994812,-1.1755998770343226,0.0,-0.0433366633951664,0.4243476986885071,-0.0,0.003665490308776498,1.2534151077270508,0.0,0.008342107757925987
207.0,232.0,7.5661,-0.4134,5.8756,-0.0551,0.0183,-0.1165,-1.6714965305724085,0.0,2.520601272583008,-1.2811124324798584,-0.0,2.1162807941436768,3.7046071726032714,0.0,0.250064492225647,-1.1756156126605433,0.0,-0.039478547871112823,0.42439648509025574,-0.0,-0.0203055702149868,1.253399133682251,0.0,0.0361190065741539
207.0,232.0,7.5661,-0.4134,5.8756,-0.0551,0.0183,-0.1165,-1.6715084515013636,0.0,2.535642623901367,-1.2811331748962402,-0.0,2.0730297565460205,3.7045833307453613,0.0,0.26528093218803406,-1.175591293965475,0.0,-0.029584739357233047,0.42439648509025574,-0.0,-0.008669927716255188,1.2533228397369385,0.0,-0.012131786905229092
207.0,232.0,7.5661,-0.4134,5.8756,-0.0551,0.0183,-0.1165,-1.6714965305724085,0.0,2.575100898742676,-1.2810804843902588,-0.0,2.1375739574432373,3.7046114641376953,0.0,0.25496554374694824,-1.1755836645709437,0.0,-0.03194581717252731,0.4244247376918793,-0.0,-0.00766953406855464,1.253379464149475,0.0,-0.03156382590532303
207.0,232.0,7.5661,-0.4134,5.8756,-0.0551,0.0183,-0.1165,-1.6715570888915003,0.0,2.563446521759033,-1.2810813188552856,-0.0,2.1781134605407715,3.704587622279785,0.0,0.2612878680229187,-1.1755793730365198,0.0,-0.034896112978458405,0.4244043231010437,-0.0,-0.01933097280561924,1.2533752918243408,0.0,-0.015491088852286339
207.0,232.0,7.5661,-0.4134,5.8756,-0.0551,0.0183,-0.1165,-1.6715089283385218,0.0,2.5525763034820557,-1.2810887098312378,-0.0,2.169982671737671,3.7046190935322265,0.0,0.2730877697467804,-1.1756117979632776,0.0,-0.03295107185840607,0.4243844151496887,-0.0,-0.01320388913154602,1.2533831596374512,0.0,-0.038701631128787994
207.0,232.0,7.5661,-0.4134,5.8756,-0.0551,0.0183,-0.1165,-1.6715170345702113,0.0,2.5781126022338867,-1.28109610080719,-0.0,2.1588821411132812,3.704587622279785,0.0,0.2617492079734802,-1.175591770802633,0.0,-0.027634404599666595,0.4244162440299988,-0.0,-0.014497393742203712,1.2533632516860962,0.0,0.07042243331670761
207.0,232.0,7.5661,-0.4134,5.8756,-0.0551,0.0183,-0.1165,-1.671476503411764,0.0,2.5663886070251465,-1.2811249494552612,-0.0,2.132239580154419,3.704639120692871,0.0,0.2568390965461731,-1.1755955854998987,0.0,-0.04837071895599365,0.42437639832496643,-0.0,-0.0009322555270045996,1.2533831596374512,0.0,0.061250604689121246
207.0,232.0,7.5661,-0.4134,5.8756,-0.0551,0.0183,-0.1165,-1.6715008221068324,0.0,2.5707082748413086,-1.2811330556869507,-0.0,2.1200029850006104,3.7045318323322753,0.0,0.2653164267539978,-1.1755874792682093,0.0,-0.02348385378718376,0.4244324564933777,-0.0,-0.013648126274347305,1.253399133682251,0.0,0.0019260180415585637
207.0,232.0,7.5661,-0.4134,5.8756,-0.0551,0.0183,-0.1165,-1.6715289554991664,0.0,2.5729713439941406,-1.2810730934143066,-0.0,2.089901924133301,3.7046190935322265,0.0,0.2594389021396637,-1.17560321489443,0.0,-0.04229461029171944,0.4243721663951874,-0.0,0.005045723635703325,1.2533589601516724,0.0,-0.0009540966711938381
207.0,232.0,7.5661,-0.4134,5.8756,-0.0551,0.0183,-0.1165,-1.6715089283385218,0.0,2.525533676147461,-1.2810730934143066,-0.0,2.1381020545959473,3.704634829158447,2.245876906670219e-08,0.26136577129364014,-1.1755994001971644,0.0,-0.0328059159219265,0.4244162440299988,-0.0,-0.010489157401025295,1.2534232139587402,0.0,0.018455825746059418
207.0,232.0,7.5661,-0.4134,5.8756,-0.0551,0.0183,-0.1165,-1.6714607677855433,1.0694910912434352e-07,2.5376856327056885,-1.281093716621399,0.0020109887700527906,2.1353306770324707,3.7046748834797363,0.002653999486938119,0.2597680687904358,-1.1756399313556116,0.0,-0.037729013711214066,0.4244484007358551,-0.0,-0.009807166643440723,1.2534351348876953,0.0,-0.04101916402578354
207.0,232.0,7.5661,-0.4134,5.8756,-0.0551,0.0183,-0.1165,-1.6714688740172328,0.0012909164652228355,2.6196746826171875,-1.2810328006744385,0.002245258539915085,2.1885123252868652,3.7047154146381835,0.002307844115421176,0.24712926149368286,-1.1756919066058558,0.0,-0.039648622274398804,0.4243844449520111,-0.0,0.0019358685240149498,1.2534191608428955,0.0011575639946386218,0.053841732442379
207.0,232.0,7.5661,-0.4134,5.8756,-0.0551,0.0183,-0.1165,-1.6714893780150355,0.0019266953459009528,2.579301357269287,-1.2810450792312622,0.0016031546983867884,2.161372184753418,3.7047077852436523,0.0016568712890148163,0.2628490626811981,-1.1756556669818323,0.0,-0.03457356244325638,0.42442429065704346,-0.0,-0.013063235208392143,1.25343918800354,0.0007768747746013105,-0.0016238788375630975
207.0,232.0,7.5661,-0.4134,5.8756,-0.0551,0.0183,-0.1165,-1.6714931927123011,0.0016108077252283692,2.5953493118286133,-1.2810208797454834,0.0009262862731702626,2.1365129947662354,3.7047030168720703,0.0013865146320313215,0.25878867506980896,-1.175687615071432,0.0,-0.03545653074979782,0.42442846298217773,-0.0,-0.017515497282147408,1.2533944845199585,0.00040931269177235663,-0.004057367332279682
207.0,232.0,7.5661,-0.4134,5.8756,-0.0551,0.0183,-0.1165,-1.6714450321593226,0.0008456924115307629,2.5507712364196777,-1.2810167074203491,0.0007704123854637146,2.1263279914855957,3.704746885890625,0.004752406384795904,0.2594870626926422,-1.175643269215719,-0.00036885382723994553,-0.03408901393413544,0.42437636852264404,-0.0,-0.005500664468854666,1.2534273862838745,0.00011492673365864903,-0.012353269383311272
202.0,227.0,6.6461,0.7848,6.1627,-0.0675,0.0137,-0.1327,-1.671537538568014,0.00043244671542197466,2.531712532043457,-1.2810249328613281,0.0015817676903679967,2.148624897003174,3.704838438625,0.01956341788172722,0.2513159513473511,-1.1756871382342737,-0.0010583726689219475,-0.03185103088617325,0.4244081974029541,-0.0,-0.012102269567549229,1.2534269094467163,0.0002457064110785723,-0.002897808328270912
202.0,227.0,6.6461,0.7848,6.1627,-0.0675,0.0137,-0.1327,-1.6714769802489222,0.0003178358601871878,2.5495500564575195,-1.2810046672821045,0.0019420048920437694,2.15891170501709,3.704913778895996,0.022740906104445457,0.2765635848045349,-1.175659481679098,-0.0008687895606271923,-0.03522658348083496,0.4244523048400879,-0.0,0.0035053801257163286,1.2534871101379395,0.0008486539009027183,-0.005692687351256609
202.0,227.0,6.6461,0.7848,6.1627,-0.0675,0.0137,-0.1327,-1.6714650593199671,0.0002512659120839089,2.5467469692230225,-1.280968427658081,0.0020627768244594336,2.1836466789245605,3.7049895960041503,0.0174479391425848,0.2685219645500183,-1.1757195631610315,-0.000669849687255919,-0.04042144864797592,0.424364298582077,-0.0,-0.018543194979429245,1.253527283668518,0.003785931272432208,0.01653575897216797
202.0,227.0,6.6461,0.7848,6.1627,-0.0675,0.0137,-0.1327,-1.6714893780150355,0.00020775660232175142,2.531723737716675,-1.281029462814331,0.002271024975925684,2.1465485095977783,3.7051092821308593,0.008715145289897919,0.25705820322036743,-1.175699536000387,-0.0005235833814367652,-0.0501488521695137,0.42443618178367615,-0.0,-0.005361601244658232,1.2535957098007202,0.004466087557375431,0.06720402836799622
202.0,227.0,6.6461,0.7848,6.1627,-0.0675,0.0137,-0.1327,-1.6714450321593226,5.3139126976020634e-05,2.6024680137634277,-1.2810170650482178,0.0021080251317471266,2.148184299468994,3.7050811487385253,0.0015307923313230276,0.2655753493309021,-1.175699536000387,-0.0004297696868889034,-0.040609315037727356,0.4243641793727875,-0.0,-0.0059011830016970634,1.2535995244979858,0.00401694281026721,0.06661870330572128
202.0,227.0,6.6461,0.7848,6.1627,-0.0675,0.0137,-0.1327,-1.671425004998678,0.00017492781626060605,2.583794116973877,-1.2809808254241943,0.001450108247809112,2.096762180328369,3.7050372797199707,-0.0028660327661782503,0.2510071396827698,-1.175715748463766,-0.00036447710590437055,-0.049080319702625275,0.42441225051879883,-0.0,-0.019849121570587158,1.2535187005996704,0.0025650537572801113,0.03175923973321915
202.0,227.0,6.6461,0.7848,6.1627,-0.0675,0.0137,-0.1327,-1.6714211903014125,0.0009220198262482882,2.547055244445801,-1.280993103981018,0.0008854084298945963,2.136702537536621,3.705061121577881,-0.0013232456985861063,0.25745582580566406,-1.1756838003741663,-0.00031641125679016113,-0.05283792316913605,0.42437225580215454,-0.0,-0.020818660035729408,1.2535710334777832,0.001135070575401187,0.032391782850027084
202.0,227.0,6.6461,0.7848,6.1627,-0.0675,0.0137,-0.1327,-1.671429296533102,0.0018396867671981454,2.6157336235046387,-1.2809689044952393,0.0005932871717959642,2.189974784851074,3.7050410944172363,-0.0007607412990182638,0.25695863366127014,-1.1756838003741663,-0.0002537105174269527,-0.03977610915899277,0.4243762493133545,-0.0,-0.010814199224114418,1.2535510063171387,0.00046442265738733113,0.07870326936244965
202.0,227.0,6.6461,0.7848,6.1627,-0.0675,0.0137,-0.1327,-1.671429296533102,0.0017947073793038726,2.5763769149780273,-1.2809569835662842,0.00037288840394467115,2.179670810699463,3.7050654131123046,-0.0006200976786203682,0.25702935457229614,-1.1756919066058558,-0.00021908519556745887,-0.04821709543466568,0.4243762791156769,-0.0,-0.0032986411824822426,1.2535227537155151,-0.0001916999026434496,0.030352992936968803
202.0,227.0,6.6461,0.7848,6.1627,-0.0675,0.0137,-0.1327,-1.671425004998678,0.001511683571152389,2.585858106613159,-1.2810128927230835,0.0002979357086587697,2.1883482933044434,3.705028696651123,-0.0005479753599502146,0.2716699242591858,-1.1756675879107874,-0.00019838383013848215,-0.029385395348072052,0.42436039447784424,-0.0,-0.024407457560300827,1.2534583806991577,-0.0002978031407110393,-0.008287348784506321
202.0,227.0,6.6461,0.7848,6.1627,-0.0675,0.0137,-0.1327,-1.6714087925352992,0.0011569460621103644,2.5759010314941406,-1.280997395515442,0.000248557684244588,2.1495680809020996,3.704989119166992,-0.00036318571073934436,0.26489806175231934,-1.1756756941424769,-0.0001812799455365166,-0.03618808835744858,0.42443639039993286,-0.0,-0.019267087802290916,1.2535390853881836,-0.0006479842704720795,-0.021890273317694664
202.0,227.0,6.6461,0.7848,6.1627,-0.0675,0.0137,-0.1327,-1.6714126072325648,0.000983083271421492,2.5626204013824463,-1.280984878540039,0.000255865539656952,2.15771746635437,3.70502154409375,-0.00040692806942388415,0.2522643208503723,-1.1756675879107874,-5.2848216000711545e-05,-0.03862006962299347,0.4243924617767334,-0.0,-0.009824379347264767,1.2535150051116943,-0.0006228174897842109,-0.003709834534674883
202.0,227.0,6.6461,0.7848,6.1627,-0.0675,0.0137,-0.1327,-1.6714168987669886,0.0009406093158759177,2.550642490386963,-1.280924916267395,0.0002476198133081198,2.099534034729004,3.7050410944172363,-0.0007716824766248465,0.2654104232788086,-1.1756556669818323,-4.854084545513615e-05,-0.027526700869202614,0.42438840866088867,-0.0,-0.012979242950677872,1.2535113096237183,-0.0006002518348395824,-0.024673758074641228
202.0,227.0,6.6461,0.7848,6.1627,-0.0675,0.0137,-0.1327,-1.6713887653746546,0.0005982383154332638,2.546566963195801,-1.2809733152389526,0.0025106240063905716,2.08785343170166,3.7049733835407714,-0.0005654265405610204,0.23722487688064575,-1.1756675879107874,-4.490749051910825e-05,-0.02849859558045864,0.42440032958984375,-0.0,-0.009526070207357407,1.2534265518188477,-0.0006046348134987056,0.05432015657424927
202.0,227.0,6.6461,0.7848,6.1627,-0.0675,0.0137,-0.1327,-1.6714126072325648,0.0003433397214394063,2.59380841255188,-1.2809048891067505,0.0013704919256269932,2.1461381912231445,3.705005331630371,-0.0005045520374551415,0.25253772735595703,-1.1756475607501429,-2.363607745792251e-05,-0.01788671500980854,0.4243844151496887,-0.0,-0.013653319329023361,1.2534830570220947,-0.00069666956551373,0.015626929700374603
202.0,221.0,6.8243,0.4774,6.2566,-0.0567,0.0302,-0.1449,-1.6714335880675257,0.0002661716134753078,2.5401206016540527,-1.2809569835662842,-0.00011845576955238357,2.127317428588867,3.7049619394489746,-0.00037726250593550503,0.2556436359882355,-1.1756275335894983,-1.953087848960422e-05,-0.031893130391836166,0.42443642020225525,-0.0,-0.008031288161873817,1.2534871101379395,-0.0006544863572344184,0.007903434336185455
202.0,221.0,6.8243,0.4774,6.2566,-0.0567,0.0302,-0.1449,-1.671425004998678,0.00016338558634743094,2.559506893157959,-1.2809728384017944,-0.00024868224863894284,2.1348536014556885,3.7050129610249023,-0.00035728406510315835,0.2444887012243271,-1.1756556669818323,-1.2221352108099381e-06,-0.02601093426346779,0.42437636852264404,-0.0,-0.009357874281704426,1.2534788846969604,-0.0005075833178125322,0.02790563739836216
202.0,221.0,6.8243,0.4774,6.2566,-0.0567,0.0302,-0.1449,-1.6714126072325648,0.00013827632938046008,2.545321226119995,-1.280961036682129,-0.0001757761783665046,2.138134002685547,3.704981489772461,-0.00034940370824187994,0.24663984775543213,-1.1756399313556116,-3.4018579619932154e-10,-0.033094532787799835,0.4243403375148773,-0.0,-0.00899387989193201,1.2534871101379395,-0.00017337489407509565,-0.008740989491343498
202.0,221.0,6.8243,0.4774,6.2566,-0.0567,0.0302,-0.1449,-1.6714407406248988,0.00011476446525193751,2.5596306324005127,-1.2809375524520874,-0.00018958574219141155,2.1803674697875977,3.7050253587910156,-0.0002871390606742352,0.269120991230011,-1.1756113211261194,-6.182709051894214e-15,-0.03901935741305351,0.42440032958984375,-0.0,-0.010097583755850792,1.2535030841827393,-0.00012514318223111331,-0.0014763493090867996
202.0,221.0,6.8243,0.4774,6.2566,-0.0567,0.0302,-0.1449,-1.6714407406248988,0.00010195718641625717,2.6028921604156494,-1.2809611558914185,-0.0001565938291605562,2.1033332347869873,3.705017252559326,-0.0002525936288293451,0.2599356770515442,-1.1756599585162562,-1.720979766701662e-18,-0.03727458417415619,0.4244203269481659,-0.0,-0.0018448387272655964,1.253495454788208,-0.000103542952274438,-0.034497618675231934
202.0,221.0,6.8243,0.4774,6.2566,-0.0567,0.0302,-0.1449,-1.6714335880675257,-7.11293178028427e-05,2.5752017498016357,-1.2809529304504395,-0.00013338275311980397,2.1216137409210205,3.70499770223584,-0.00022546917898580432,0.24982950091362,-1.175636116658346,-4.7904097224477215e-22,-0.036161456257104874,0.4243523180484772,-0.0,-0.00730348564684391,1.2534748315811157,-0.00017136114183813334,0.03657187893986702
202.0,221.0,6.8243,0.4774,6.2566,-0.0567,0.0302,-0.1449,-1.6714488468565882,-0.00012673907622229308,2.602869987487793,-1.2809607982635498,-0.0001161654872703366,2.1565990447998047,3.7049738603779296,-0.00020360562484711409,0.2592036724090576,-1.1756237188922327,-1.3334279816107629e-25,-0.04209071770310402,0.4243399202823639,-0.0,-0.015068566426634789,1.253495454788208,-0.00016706471797078848,-0.00019532744772732258
202.0,221.0,6.8243,0.4774,6.2566,-0.0567,0.0302,-0.1449,-1.6714688740172328,-0.0005992952501401305,2.534085512161255,-1.28094482421875,-0.00017099682008847594,2.1470460891723633,3.704981489772461,-0.00020862127712462097,0.24975253641605377,-1.1756561438189905,-3.7116467721451123e-29,-0.032145433127880096,0.4244202673435211,-0.0,-0.013126390054821968,1.2534232139587402,-0.0015305662527680397,-0.014569874852895737
202.0,221.0,6.8243,0.4774,6.2566,-0.0567,0.0302,-0.1449,-1.6714726887144984,-0.001389059703797102,2.571155071258545,-1.2810055017471313,-0.00017885483975987881,2.139256477355957,3.7049776750751953,-0.00019489573605824262,0.25490936636924744,-1.1756637732135218,-1.033150507271752e-32,-0.03089687041938305,0.4243643283843994,-0.0,-0.00695690605789423,1.2533665895462036,-0.005451694596558809,0.01560964249074459
202.0,221.0,6.8243,0.4774,6.2566,-0.0567,0.0302,-0.1449,-1.6715251408019007,-0.002192362677305937,2.5408835411071777,-1.2809808254241943,-0.00019176477508153766,2.148138999938965,3.7050091463276367,-0.0001522275706520304,0.25447362661361694,-1.1756556669818323,-2.8758122398629823e-36,-0.029189180582761765,0.42442426085472107,-0.0,-0.012586493976414204,1.253350853919983,-0.008181321434676647,-0.02262323535978794
202.0,221.0,6.8243,0.4774,6.2566,-0.0567,0.0302,-0.1449,-1.6715289554991664,-0.003016185248270631,2.611807346343994,-1.2809767723083496,-0.00017330145055893809,2.186760187149048,3.7049853044697265,-0.00013801042223349214,0.2534368336200714,-1.1756275335894983,-8.00493149044016e-40,-0.026281442493200302,0.4244523346424103,-0.0,-0.008462703786790371,1.2533152103424072,-0.007579671684652567,-0.009824574925005436
202.0,221.0,6.8243,0.4774,6.2566,-0.0567,0.0302,-0.1449,-1.6715127430357875,-0.002917670411989093,2.5823135375976562,-1.2809767723083496,-0.00015808116586413234,2.1481640338897705,3.704970045680664,-0.0001263813319383189,0.24600529670715332,-1.1756399313556116,-2.228064558276459e-43,-0.03302355110645294,0.4243924617767334,-0.0,-0.020973877981305122,1.2533156871795654,-0.006545448675751686,0.023029262199997902
202.0,221.0,6.8243,0.4774,6.2566,-0.0567,0.0302,-0.1449,-1.6715084515013636,-0.0015297331847250462,2.563387870788574,-1.280924916267395,-0.00014531915076076984,2.087449550628662,3.704977198238037,-0.00011656005517579615,0.257549911737442,-1.1756237188922327,-0.0,-0.03288617730140686,0.42438027262687683,-0.0,-0.0020457312930375338,1.2532672882080078,-0.004470302723348141,-0.00985992606729269
202.0,221.0,6.8243,0.4774,6.2566,-0.0567,0.0302,-0.1449,-1.671532770196432,-7.569414719910128e-06,2.600896120071411,-1.2810254096984863,-0.00013446340744849294,2.0995397567749023,3.704993887538574,-8.726006490178406e-05,0.257127046585083,-1.1756275335894983,-0.0,-0.02923869714140892,0.4244162142276764,-0.0,0.0010924162343144417,1.2532155513763428,-0.002839089836925268,0.01548994705080986
202.0,221.0,6.8243,0.4774,6.2566,-0.0567,0.0302,-0.1449,-1.6714965305724085,-1.8279244437535702e-11,2.5900094509124756,-1.2809767723083496,-0.00012511690147221088,2.066263198852539,3.7050410944172363,-8.070500189205632e-05,0.25085893273353577,-1.175648037587301,-0.0,-0.029715202748775482,0.42441225051879883,-0.0,-0.028427816927433014,1.2532196044921875,-0.002165549900382757,-0.028623707592487335
205.0,237.0,7.6223,0.5503,5.9145,0.006,-0.0183,-0.1436,-1.6714488468565882,-4.4142225382373855e-17,2.5780234336853027,-1.2810254096984863,-0.00011698543676175177,2.1402196884155273,3.705005331630371,-7.561892562080175e-05,0.25161147117614746,-1.1756070295916956,-0.0,-0.03009037859737873,0.424392431974411,-0.0,-0.0009483450558036566,1.2531957626342773,-0.0023960135877132416,-0.05071748048067093
205.0,237.0,7.6223,0.5503,5.9145,0.006,-0.0183,-0.1436,-1.6714688740172328,-1.0659828187331047e-22,2.5824084281921387,-1.280972957611084,-0.00010984634718624875,2.1376452445983887,3.7050296503254394,-5.395385960582644e-05,0.2556273937225342,-1.1755994001971644,-0.0,-0.028474122285842896,0.424412339925766,-0.0,0.0005972557701170444,1.2532122135162354,-0.0031158970668911934,-0.003252672031521797
205.0,237.0,7.6223,0.5503,5.9145,0.006,-0.0183,-0.1436,-1.6715051136412562,-2.5742234822397426e-28,2.5965209007263184,-1.2809607982635498,-0.00010352853132644668,2.1219213008880615,3.7050177293964843,-5.0366441428195685e-05,0.2564231753349304,-1.1756156126605433,-0.0,-0.02834581956267357,0.42440834641456604,-0.0,0.008756142109632492,1.253195881843567,-0.0028114868327975273,-0.046497732400894165
205.0,237.0,7.6223,0.5503,5.9145,0.006,-0.0183,-0.1436,-1.6715170345702113,-6.2164466723351605e-34,2.6127407550811768,-1.2809648513793945,-9.789793693926185e-05,2.0973453521728516,3.7050368028828125,-4.769696533912793e-05,0.26743000745773315,-1.1756394545184534,-0.0,-0.030211973935365677,0.42443615198135376,-0.0,-0.017780620604753494,1.253187656402588,-0.0023103863932192326,0.02808680199086666
205.0,237.0,7.6223,0.5503,5.9145,0.006,-0.0183,-0.1436,-1.6715127430357875,-1.5011984331449976e-39,2.5823001861572266,-1.281013011932373,-0.00010825072240550071,2.105928421020508,3.7050091463276367,-4.529642319539562e-05,0.26136288046836853,-1.17560321489443,-0.0,-0.018498415127396584,0.4243844449520111,-0.0,-0.0038274084217846394,1.2531274557113647,-0.0016765327891334891,0.03770501911640167
205.0,237.0,7.6223,0.5503,5.9145,0.006,-0.0183,-0.1436,-1.6715289554991664,-0.0011209534713998437,2.5740013122558594,-1.281029462814331,-0.00011765652016038075,2.0957870483398438,3.7049895960041503,-4.312590681365691e-05,0.25965559482574463,-1.1756237188922327,-0.0,-0.02462010830640793,0.4243443012237549,-0.0,-0.0008771390421316028,1.2531315088272095,-0.001810474437661469,0.004849177785217762
205.0,237.0,7.6223,0.5503,5.9145,0.006,-0.0183,-0.1436,-1.6715566120543421,-0.0030989788938313723,2.577272891998291,-1.280996561050415,-0.00013126044359523803,2.1421964168548584,3.7049972253986816,-5.4637603170704097e-05,0.2552199959754944,-1.1756237188922327,-0.0,-0.03723094239830971,0.4243524372577667,-0.0,-0.014822210185229778,1.2530876398086548,-0.0019808518700301647,0.01694668084383011
205.0,237.0,7.6223,0.5503,5.9145,0.006,-0.0183,-0.1436,-1.6715804539122523,-0.003372550243511796,2.5767040252685547,-1.2810088396072388,-0.00012260118091944605,2.1492245197296143,3.7049895960041503,-5.2472409151960164e-05,0.24711796641349792,-1.1756275335894983,-0.0,-0.030388658866286278,0.42441627383232117,-0.0,-0.00755962822586298,1.2531158924102783,-0.0033599943853914738,-0.024947505444288254
205.0,237.0,7.6223,0.5503,5.9145,0.006,-0.0183,-0.1436,-1.6716090641417445,-0.0015189137775450945,2.6026341915130615,-1.280996561050415,-0.00011478306987555698,2.1577935218811035,3.704993887538574,-5.0274138629902154e-05,0.2629384994506836,-1.1756318251239222,-0.0,-0.01630059815943241,0.4243643581867218,-0.0,-0.001308390754275024,1.2530877590179443,-0.00439058244228363,0.04299185425043106
205.0,237.0,7.6223,0.5503,5.9145,0.006,-0.0183,-0.1436,-1.671617170373434,-0.0006028232164680958,2.571707010269165,-1.281029462814331,-0.00010790232045110315,2.1698050498962402,3.70502154409375,-4.825260475627147e-05,0.2512209713459015,-1.1756194273578089,-0.0,-0.03218098357319832,0.4243841767311096,-0.0,-0.028970930725336075,1.2530517578125,-0.005325095262378454,0.04251149296760559
205.0,237.0,7.6223,0.5503,5.9145,0.006,-0.0183,-0.1436,-1.6715971432127894,-0.00040106428787112236,2.568493366241455,-1.2809643745422363,-0.00010179994569625705,2.1196298599243164,3.7050210672565917,-3.489057417027652e-05,0.26306620240211487,-1.1756194273578089,-0.0,-0.03608568757772446,0.4243762493133545,-0.0,0.00033004675060510635,1.253068208694458,-0.005036882124841213,0.009029705077409744
205.0,237.0,7.6223,0.5503,5.9145,0.006,-0.0183,-0.1436,-1.671617170373434,-0.00022543907107319683,2.5762104988098145,-1.2809767723083496,-8.029274613363668e-05,2.13321590423584,3.7049895960041503,-3.3513191738165915e-05,0.25439751148223877,-1.1756318251239222,-0.0,-0.03275376558303833,0.4244122803211212,-0.0,-0.024801915511488914,1.2529919147491455,-0.0043747685849666595,-0.03348226100206375
205.0,237.0,7.6223,0.5503,5.9145,0.006,-0.0183,-0.1436,-1.6715527973570765,0.00013609271263703704,2.583685874938965,-1.2809607982635498,-5.093736035632901e-05,2.14726185798645,3.705049677486084,4.0276889194501564e-05,0.24971015751361847,-1.175636116658346,-0.0,-0.023243218660354614,0.42440834641456604,-0.0,-0.017961036413908005,1.2530161142349243,-0.003667811630293727,-0.02007462829351425
205.0,237.0,7.6223,0.5503,5.9145,0.006,-0.0183,-0.1436,-1.6715527973570765,0.0001664135925238952,2.5869760513305664,-1.2810333967208862,-4.3516782170627266e-05,2.1672327518463135,3.7050091463276367,5.935733861406334e-05,0.25729671120643616,-1.175676170979635,-0.0,-0.02933463826775551,0.42439642548561096,-0.0,-0.03310154378414154,1.2529759407043457,-0.0026245820336043835,-0.05430596321821213
205.0,237.0,7.6223,0.5503,5.9145,0.006,-0.0183,-0.1436,-1.6716052494444789,0.00014044161071069539,2.5948150157928467,-1.2809524536132812,-4.150972017669119e-05,2.161726713180542,3.7050973612019042,7.284944149432704e-05,0.26947423815727234,-1.1756318251239222,-0.0,-0.03533131629228592,0.42438021302223206,-0.0,-0.01798495650291443,1.252959966659546,-0.0020345915108919144,-0.02545095980167389
202.0,222.0,7.602,0.0532,5.3982,-0.0318,0.0461,-0.1153,-1.6715804539122523,8.578671258874238e-05,2.589721202850342,-1.2809648513793945,-3.967964948969893e-05,2.188748836517334,3.705073042506836,0.0003373494546394795,0.27564769983291626,-1.1756561438189905,-0.0,-0.03063124790787697,0.42437222599983215,-0.0,-0.007839493453502655,1.252943992614746,-0.0016097638290375471,-0.030465280637145042
202.0,222.0,7.602,0.0532,5.3982,-0.0318,0.0461,-0.1153,-1.6716371975340785,3.584957084967755e-05,2.6034655570983887,-1.2810015678405762,-3.800416743615642e-05,2.1490206718444824,3.7049967485615234,0.0003036174166481942,0.27887192368507385,-1.175591293965475,-0.0,-0.02802245505154133,0.4243762493133545,-0.0,-0.018660956993699074,1.2529196739196777,-0.0016907333629205823,-0.03979526832699776
202.0,222.0,7.602,0.0532,5.3982,-0.0318,0.0461,-0.1153,-1.6715890369811,2.510546492917598e-10,2.570326805114746,-1.2809933423995972,-4.8619156586937606e-05,2.117016315460205,3.705017252559326,0.0002524933952372521,0.27790403366088867,-1.175648037587301,-0.0,-0.030284054577350616,0.42440834641456604,-0.0,-0.00702719297260046,1.2529481649398804,-0.0019112396985292435,0.029914850369095802
202.0,222.0,7.602,0.0532,5.3982,-0.0318,0.0461,-0.1153,-1.6715966663756312,-0.0007672950159758329,2.6230335235595703,-1.2809685468673706,-2.364273495913949e-05,2.124938726425171,3.705017252559326,0.00025353400269523263,0.29547715187072754,-1.1756275335894983,-0.0,-0.02487545646727085,0.4243404269218445,-0.0,-0.01045917347073555,1.252883791923523,-0.0020137778483331203,-0.035690367221832275
202.0,222.0,7.602,0.0532,5.3982,-0.0318,0.0461,-0.1153,-1.6716729603209437,-0.002229610923677683,2.5498437881469727,-1.280948519706726,-2.1824571376782842e-05,2.164306640625,3.7050654131123046,0.00022666061704512686,0.292167067527771,-1.175636116658346,2.1828924218425527e-05,-0.03949877619743347,0.42438840866088867,-0.0,-0.018250878900289536,1.2529079914093018,-0.002003900008276105,0.01500886119902134
202.0,222.0,7.602,0.0532,5.3982,-0.0318,0.0461,-0.1153,-1.6716567478575648,-0.0031443238258361816,2.5914924144744873,-1.2810088396072388,-2.0344550648587756e-05,2.1495797634124756,3.7049857813068847,0.00023040098312776536,0.2806239426136017,-1.1756194273578089,1.1948369404990444e-08,-0.04252031072974205,0.4244162142276764,-0.0,-0.011517267674207687,1.2529001235961914,-0.0022120331414043903,-0.01796802133321762
202.0,222.0,7.602,0.0532,5.3982,-0.0318,0.0461,-0.1153,-1.67169251064443,-0.0026331746485084295,2.5356075763702393,-1.281013011932373,-3.58745819539763e-05,2.1869778633117676,3.705033465022705,0.00024113657127600163,0.28531232476234436,-1.1756556669818323,3.3258732139856972e-12,-0.04143274202942848,0.42442846298217773,-0.0,-0.014663280919194221,1.2528878450393677,-0.0019506184617057443,0.024595240131020546
202.0,222.0,7.602,0.0532,5.3982,-0.0318,0.0461,-0.1153,-1.6716729603209437,-0.0018081192392855883,2.5622220039367676,-1.280989170074463,-3.582959470804781e-05,2.124171018600464,3.704993410701416,0.00022930371051188558,0.29488468170166016,-1.1755994001971644,9.257690007454422e-16,-0.0419449657201767,0.42440834641456604,-0.0,-0.00813035387545824,1.2528800964355469,-0.0013750537764281034,0.00799144059419632
202.0,222.0,7.602,0.0532,5.3982,-0.0318,0.0461,-0.1153,-1.6717006168761195,-0.0011582967126742005,2.559276580810547,-1.2810046672821045,-3.381057467777282e-05,2.112517833709717,3.705057306880615,0.00022000339231453836,0.3005165755748749,-1.1756394545184534,2.5769124018652086e-19,-0.05771724134683609,0.42441225051879883,-0.0,-0.012145579792559147,1.2528882026672363,-0.0010736845433712006,0.04568924754858017
202.0,222.0,7.602,0.0532,5.3982,-0.0318,0.0461,-0.1153,-1.6717049084105433,-0.000734650413505733,2.5093531608581543,-1.2809767723083496,-3.200693754479289e-05,2.152740955352783,3.705032988185547,0.00019604325643740594,0.2934761643409729,-1.1756437460528772,7.172930457622097e-23,-0.060627855360507965,0.42437639832496643,-0.0,-0.00747965881600976,1.2528882026672363,-0.0007713250233791769,0.014208340086042881
202.0,222.0,7.602,0.0532,5.3982,-0.0318,0.0461,-0.1153,-1.6717049084105433,-0.0007869350374676287,2.46621036529541,-1.2810046672821045,-3.0386019716388546e-05,2.1239681243896484,3.705129309291504,0.0002062161365756765,0.3007391095161438,-1.1755951086627405,1.9966115733462474e-26,-0.05945393443107605,0.4243922829627991,-0.0,-0.00427530100569129,1.2528964281082153,-0.000718889117706567,-0.03739870339632034
202.0,222.0,7.602,0.0532,5.3982,-0.0318,0.0461,-0.1153,-1.671720644036764,-0.0017062402330338955,2.520904064178467,-1.2810088396072388,-2.8921387638547458e-05,2.0833189487457275,3.705057306880615,0.00021451147040352225,0.2920926511287689,-1.1756637732135218,5.557642122665133e-30,-0.07505116611719131,0.42441222071647644,-0.0,-0.019702458754181862,1.252868413925171,-0.0006368496106006205,0.0364614874124527
202.0,222.0,7.602,0.0532,5.3982,-0.0318,0.0461,-0.1153,-1.671720644036764,-0.0025181034579873085,2.4792652130126953,-1.2809934616088867,-2.7591480829869397e-05,2.1379406452178955,3.7050534921833496,0.00019701260316651314,0.3066800832748413,-1.1756556669818323,1.5469900549454783e-33,-0.07618513703346252,0.42440423369407654,-0.0,-0.010848850011825562,1.2528806924819946,-0.0005571565707214177,0.04484158754348755
202.0,222.0,7.602,0.0532,5.3982,-0.0318,0.0461,-0.1153,-1.6717969379820765,-0.0038104180712252855,2.4681787490844727,-1.280989170074463,-3.956520959036425e-05,2.1317453384399414,3.7050248819538574,0.00018206592358183116,0.2993837594985962,-1.1756442228900355,4.3061031882614976e-37,-0.07815999537706375,0.4244442880153656,-0.0,-0.004316146485507488,1.2528685331344604,-0.000563554116524756,0.030500350520014763
202.0,222.0,7.602,0.0532,5.3982,-0.0318,0.0461,-0.1153,-1.6718250713744105,-0.0055483197793364525,2.463176965713501,-1.281049132347107,-5.053490895079449e-05,2.1328907012939453,3.704989119166992,0.0001494887110311538,0.29636484384536743,-1.1756113211261194,1.1986146544448755e-40,-0.0813862606883049,0.4243796765804291,-0.0,-0.027896543964743614,1.2528806924819946,-0.0005709384568035603,0.08437252789735794
202.0,222.0,7.602,0.0532,5.3982,-0.0318,0.0461,-0.1153,-1.671885152856344,-0.00748731242492795,2.452862501144409,-1.2810088396072388,-0.00014492507034447044,2.106222629547119,3.7050248819538574,0.00013832104741595685,0.310409277677536,-1.1756194273578089,3.363116314379561e-44,-0.07943899184465408,0.4244641661643982,-0.0,-0.007324977312237024,1.2528483867645264,-0.000493104918859899,0.054156817495822906
200.0,221.0,6.5898,-0.0646,6.0024,-0.0197,0.0118,-0.121,-1.6719128094115199,-0.009586873464286327,2.4289042949676514,-1.2809851169586182,-0.00017154404486063868,2.0853452682495117,3.705028696651123,0.00012977261212654412,0.29762381315231323,-1.1756194273578089,0.0,-0.10490040481090546,0.42446812987327576,-0.0,0.002775506116449833,1.252852439880371,-0.00042429566383361816,0.1316688358783722
200.0,221.0,6.5898,-0.0646,6.0024,-0.0197,0.0118,-0.121,-1.6719685993590296,-0.010753141716122627,2.397213935852051,-1.2810689210891724,-0.000525438052136451,2.0721588134765625,3.70504538595166,0.0001222197461174801,0.29994040727615356,-1.1756718794452112,0.0,-0.09359216690063477,0.42446836829185486,-0.0,-0.004420814104378223,1.2528483867645264,-0.00034562815562821925,0.09492896497249603
200.0,221.0,6.5898,-0.0646,6.0024,-0.0197,0.0118,-0.121,-1.6720601520934046,-0.013420435599982738,2.3976757526397705,-1.2809809446334839,-0.00059711211360991,2.074319362640381,3.7050935465046386,0.00011549761256901547,0.3082091212272644,-1.1756838003741663,0.0,-0.09887867420911789,0.42444825172424316,-0.0,0.007800659164786339,1.252804160118103,-0.0003366176679264754,0.12034505605697632
200.0,221.0,6.5898,-0.0646,6.0024,-0.0197,0.0118,-0.121,-1.672168870965475,-0.015494308434426785,2.3336825370788574,-1.2810450792312622,-0.0004957993514835835,2.0485739707946777,3.70502154409375,4.852591882809065e-05,0.30990761518478394,-1.1756637732135218,0.0,-0.08964565396308899,0.42449256777763367,0.00023833118029870093,0.001833743997849524,1.2528201341629028,-0.00036188826197758317,0.11187170445919037
200.0,221.0,6.5898,-0.0646,6.0024,-0.0197,0.0118,-0.121,-1.6722523174681605,-0.01737895980477333,2.3532614707946777,-1.281061053276062,-0.00043852563248947263,2.0581045150756836,3.7049619394489746,4.3990748963551596e-05,0.29736003279685974,-1.1756880919085901,0.0,-0.10176868736743927,0.4244847297668457,0.00026885748957283795,0.025704436004161835,1.2528443336486816,-0.00044005276868119836,0.08707122504711151
200.0,221.0,6.5898,-0.0646,6.0024,-0.0197,0.0118,-0.121,-1.6723162136473597,-0.01972205378115177,2.3506298065185547,-1.281044602394104,-0.0003392968501430005,2.0639374256134033,3.704977198238037,4.098535646335222e-05,0.307128369808197,-1.1756318251239222,0.0,-0.1005556732416153,0.4244922697544098,0.0005594792892225087,0.01883826218545437,1.2528083324432373,-0.0004201119882054627,0.13890822231769562
200.0,221.0,6.5898,-0.0646,6.0024,-0.0197,0.0118,-0.121,-1.6724478207030238,-0.021943965926766396,2.276538848876953,-1.280988335609436,-0.00027669541304931045,2.050330638885498,3.7050415712543945,3.8364611100405455e-05,0.30223870277404785,-1.175636116658346,-0.00014196423580870032,-0.1113034188747406,0.4244723320007324,0.0004965268890373409,0.023036018013954163,1.252804160118103,-0.0003406268369872123,0.13457046449184418
200.0,221.0,6.5898,-0.0646,6.0024,-0.0197,0.0118,-0.121,-1.6725760898985804,-0.02377905696630478,2.28995943069458,-1.280988335609436,-0.00023359930492006242,2.039250373840332,3.7050248819538574,3.605891470215283e-05,0.3007422983646393,-1.17560321489443,-0.0001297413109568879,-0.09728020429611206,0.42450013756752014,0.00045437488006427884,0.033280789852142334,1.2528083324432373,-0.00033347884891554713,0.1105634868144989
200.0,221.0,6.5898,-0.0646,6.0024,-0.0197,0.0118,-0.121,-1.672743936578268,-0.025651652365922928,2.312053918838501,-1.281101942062378,-0.00020212031085975468,2.0558438301086426,3.7050410944172363,3.401465073693544e-05,0.3081039488315582,-1.1756194273578089,-0.00011941239790758118,-0.10850793123245239,0.42446044087409973,0.0004397884476929903,0.029277145862579346,1.2528283596038818,-0.0002882785920519382,0.14102065563201904
200.0,221.0,6.5898,-0.0646,6.0024,-0.0197,0.0118,-0.121,-1.672891756097311,-0.029481694102287292,2.2497262954711914,-1.2810447216033936,-0.00021373909839894623,2.020568370819092,3.705049677486084,3.2189749617828056e-05,0.2979142963886261,-1.1756518522845667,-0.00011060672113671899,-0.10406717658042908,0.4244961440563202,0.00034445265191607177,0.028354376554489136,1.252804160118103,-0.00025347984046675265,0.12407130002975464
200.0,221.0,6.5898,-0.0646,6.0024,-0.0197,0.0118,-0.121,-1.6730672321715296,-0.030834825709462166,2.262593984603882,-1.2810853719711304,-0.0001910539431264624,2.0074989795684814,3.70504538595166,4.575864295475185e-05,0.3034738302230835,-1.1756513754474085,-0.00010301049042027444,-0.10121919214725494,0.4244759976863861,0.00033607386285439134,0.022805090993642807,1.2528570890426636,-0.00022617804643232375,0.19532889127731323
200.0,221.0,6.5898,-0.0646,6.0024,-0.0197,0.0118,-0.121,-1.6733032665648402,-0.0348111055791378,2.24552321434021,-1.2810450792312622,-0.00019811875245068222,1.992018699645996,3.7050210672565917,4.360573075246066e-05,0.29997044801712036,-1.1756756941424769,-0.00011501518747536466,-0.12358725816011429,0.4244760572910309,0.00033037643879652023,0.017190564423799515,1.252824306488037,-0.00022992031881585717,0.14932291209697723
200.0,221.0,6.5898,-0.0646,6.0024,-0.0197,0.0118,-0.121,-1.673539777795309,-0.03594549000263214,2.2501840591430664,-1.281077265739441,-0.00018386406009085476,2.0157840251922607,3.705085440272949,4.159062882536091e-05,0.2963912785053253,-1.1756237188922327,-0.00010868423851206899,-0.1185600757598877,0.42448028922080994,0.00032616176758892834,0.03869578242301941,1.2528446912765503,-0.00021267611009534448,0.1556561440229416
200.0,221.0,6.5898,-0.0646,6.0024,-0.0197,0.0118,-0.121,-1.6737147770323695,-0.03963279724121094,2.2634530067443848,-1.2810208797454834,-0.00019321362196933478,2.042977809906006,3.7050816255756835,3.975353320129216e-05,0.2914246916770935,-1.175648037587301,-0.0001190007315017283,-0.10660607367753983,0.42450809478759766,0.00032169363112188876,0.043818920850753784,1.252804160118103,-0.00019536400213837624,0.1440119743347168
200.0,221.0,6.5898,-0.0646,6.0024,-0.0197,0.0118,-0.121,-1.6739875278868617,-0.04358832538127899,2.169304370880127,-1.2810689210891724,-0.00013689519255422056,2.0004777908325195,3.705073042506836,5.0748152716550976e-05,0.2960042655467987,-1.1756237188922327,-0.00011313582945149392,-0.11466363072395325,0.4244604706764221,0.00034001993481069803,0.02746991068124771,1.2527880668640137,-0.00018065772019326687,0.15897735953330994
200.0,228.0,6.81,0.0879,5.8469,-0.0046,-0.058,-0.1507,-1.6741863689818324,-0.0478217639029026,2.2067692279815674,-1.281064748764038,-0.0001504544197814539,2.0110554695129395,3.7050725656696777,6.581105844816193e-05,0.30120527744293213,-1.1756275335894983,-0.00012262078234925866,-0.12192361056804657,0.42450809478759766,0.00033719639759510756,0.05046966299414635,1.2527639865875244,-0.00016801107267383486,0.1963946521282196
200.0,228.0,6.81,0.0879,5.8469,-0.0046,-0.058,-0.1507,-1.6745058498778285,-0.05131736770272255,2.1863770484924316,-1.281072974205017,-0.00013886076339986175,2.0220541954040527,3.7050530153461914,0.00011034372437279671,0.3072677552700043,-1.1756237188922327,-0.00013229083560872823,-0.11381122469902039,0.4245564937591553,0.0004887428949587047,0.0372697189450264,1.2528406381607056,-0.00015701903612352908,0.1430877447128296
200.0,228.0,6.81,0.0879,5.8469,-0.0046,-0.058,-0.1507,-1.6748296223082484,-0.05280550569295883,2.217545747756958,-1.2810492515563965,-0.000128915547975339,2.007996082305908,3.7051212030598144,0.0008190402877517045,0.3116774559020996,-1.1756513754474085,-0.00015124167839530855,-0.12887629866600037,0.4245361089706421,0.000450467923656106,0.04944692552089691,1.2528566122055054,-0.00014737708261236548,0.13837620615959167
200.0,228.0,6.81,0.0879,5.8469,-0.0046,-0.058,-0.1507,-1.6751576862730921,-0.05338400974869728,2.2241361141204834,-1.2810611724853516,-0.00012029982462991029,1.9947818517684937,3.70512501775708,0.0012482343008741736,0.31178730726242065,-1.175687615071432,-0.00015717379574198276,-0.14068925380706787,0.42454808950424194,0.00042394164483994246,0.04614674299955368,1.2527885437011719,-0.0001387696247547865,0.2278243899345398
