ramyac6/ROB537/final_project/csv/all/good_126.csv
tof_0,tof_1,accelx,accely,accelz,gyrox,gyroy,gyroz,shoulder_lift_joint_position,shoulder_lift_joint_velocity,shoulder_lift_joint_effort,elbow_joint_position,elbow_joint_velocity,elbow_joint_effort,wrist_1_joint_position,wrist_1_joint_velocity,wrist_1_joint_effort,wrist_2_joint_position,wrist_2_joint_velocity,wrist_2_joint_effort,wrist_3_joint_position,wrist_3_joint_velocity,wrist_3_joint_effort,shoulder_pan_joint_position,shoulder_pan_joint_velocity,shoulder_pan_joint_effort
8190.0,8190.0,-1.663,-0.734,9.5186,-0.0264,0.0212,-0.1139,-1.4871924829534073,0.0,1.8257591724395752,-1.6260795593261719,-0.0,2.2106447219848633,4.778938206821241,-0.0,0.26736176013946533,-1.50006610551943,0.0,-0.013787452131509781,0.7287786602973938,-0.0,-0.003428478492423892,0.7732546925544739,0.0,-0.04177750647068024
8190.0,8190.0,-1.663,-0.734,9.5186,-0.0264,0.0212,-0.1139,-1.4872613337687035,0.0,1.8068220615386963,-1.6260671615600586,-0.0,2.1696975231170654,4.779002676695146,-0.0,0.25315478444099426,-1.500054184590475,0.0,-0.009287851862609386,0.7287265658378601,-0.0,-0.006122928112745285,0.773226261138916,0.0,-0.03810117021203041
8190.0,8190.0,-1.663,-0.734,9.5186,-0.0264,0.0212,-0.1139,-1.4872410234859963,0.0,1.8424978256225586,-1.6260467767715454,-0.0,2.1881632804870605,4.778958308487692,-0.0,0.2670077085494995,-1.5000503698932093,0.0,-0.030680231750011444,0.7287384271621704,-0.0,-0.004238932393491268,0.7732424139976501,0.0,-0.037071529775857925
8190.0,8190.0,-1.663,-0.734,9.5186,-0.0264,0.0212,-0.1139,-1.4872248259237786,0.0,1.7910774946212769,-1.6260311603546143,-0.0,2.191667079925537,4.778942282288828,-0.0,0.2538219094276428,-1.500078026448385,0.0,-0.02137913554906845,0.7287704944610596,-0.0,0.0019038687460124493,0.7732225060462952,0.0,-0.010003477334976196
8190.0,8190.0,-1.663,-0.734,9.5186,-0.0264,0.0212,-0.1139,-1.4872533616474648,0.0,1.813711404800415,-1.6260590553283691,-0.0,2.175912857055664,4.778990301280775,-0.0,0.2654208838939667,-1.5000980536090296,0.0,-0.015846963971853256,0.7287865281105042,-0.0,0.008367366157472134,0.7732424139976501,0.0,-0.008200608193874359
8190.0,8190.0,-1.8179,-0.7484,9.7352,-0.0325,0.024,-0.1074,-1.4872170996716996,0.0,1.7812492847442627,-1.6260186433792114,-0.0,2.144594669342041,4.778982530325212,-0.0,0.2555275857448578,-1.5000422636615198,0.0,-0.018947694450616837,0.7288347482681274,-0.0,-0.007951907813549042,0.7732830047607422,0.0,0.007031705230474472
8190.0,8190.0,-1.8179,-0.7484,9.7352,-0.0325,0.024,-0.1074,-1.4872289982489129,0.0,1.8092632293701172,-1.6260548830032349,-0.0,2.1543633937835693,4.778966571181574,-0.0,0.2669166624546051,-1.5000622908221644,0.0,-0.008169880136847496,0.7287506461143494,-0.0,-0.007126507814973593,0.7732303738594055,0.0,-0.01612674444913864
8190.0,8190.0,-1.8179,-0.7484,9.7352,-0.0325,0.024,-0.1074,-1.4872492787292977,0.0,1.8361237049102783,-1.6259984970092773,-0.0,2.1821787357330322,4.778950165003099,-0.0,0.25071024894714355,-1.50006610551943,0.0,-0.015353435650467873,0.7288188338279724,-0.0,0.007121771574020386,0.7732627391815186,0.0,0.0020087454468011856
8190.0,8190.0,-1.8179,-0.7484,9.7352,-0.0325,0.024,-0.1074,-1.4872492638281365,0.0,1.7851475477218628,-1.6260590553283691,-0.0,2.20204496383667,4.778954218118944,-0.0,0.2689027488231659,-1.500054184590475,0.0,-0.027633536607027054,0.7287346124649048,-0.0,0.01332944817841053,0.773218035697937,0.0,0.022786639630794525
8190.0,8190.0,-1.8179,-0.7484,9.7352,-0.0325,0.024,-0.1074,-1.4872451585582276,0.0,1.826921820640564,-1.6260755062103271,-0.0,2.183519124984741,4.778982180147924,-0.0,0.2530318796634674,-1.5000503698932093,0.0,-0.018476322293281555,0.7287228107452393,-0.0,-0.0012754877097904682,0.7732424139976501,0.0,-0.00017526140436530113
8190.0,8190.0,-1.8179,-0.7484,9.7352,-0.0325,0.024,-0.1074,-1.4872207579067727,0.0,1.8066890239715576,-1.6260507106781006,-0.0,2.1388087272644043,4.778958308487692,-0.0,0.26308995485305786,-1.5000265280352991,0.0,-0.015496009960770607,0.7287466526031494,-0.0,0.0021871281787753105,0.7732626795768738,0.0,0.010235886089503765
8190.0,8190.0,-1.8179,-0.7484,9.7352,-0.0325,0.024,-0.1074,-1.4872613188675423,0.0,1.8624845743179321,-1.6260310411453247,-0.0,2.185636520385742,4.77898624816493,-0.0,0.27239885926246643,-1.500014607106344,0.0,-0.018404386937618256,0.7287945747375488,-0.0,-0.0003251170855946839,0.7732626795768738,0.0,0.06124821677803993
8190.0,8190.0,-1.8179,-0.7484,9.7352,-0.0325,0.024,-0.1074,-1.4872171220234414,0.0,1.7895631790161133,-1.6259945631027222,-0.0,2.2042479515075684,4.778966541379251,-0.0,0.2638919949531555,-1.500054184590475,0.0,-0.017382504418492317,0.7287746071815491,-0.0,0.0013931038556620479,0.7732424139976501,0.0,-0.03795333579182625
8190.0,8190.0,-1.8179,-0.7484,9.7352,-0.0325,0.024,-0.1074,-1.4871806737831612,0.0,1.8205633163452148,-1.6260474920272827,-0.0,2.1460609436035156,4.77897838035182,-0.0,0.26388972997665405,-1.5000742117511194,0.0,-0.018931375816464424,0.7288026809692383,-0.0,0.0028359009884297848,0.7732424139976501,0.0,0.015162493102252483
8190.0,8190.0,-1.8179,-0.7484,9.7352,-0.0325,0.024,-0.1074,-1.4872654315880318,0.0,1.8477756977081299,-1.6259866952896118,-0.0,2.1846985816955566,4.778934094100752,-0.0,0.2586854100227356,-1.5000503698932093,0.0,-0.019326841458678246,0.7287786602973938,-0.0,0.009271131828427315,0.7732626795768738,0.0,0.005264151841402054
1069.0,1098.0,-1.718,-0.7687,9.597,-0.0405,0.0246,-0.1167,-1.4872410383871575,0.0,1.8227224349975586,-1.6260271072387695,-0.0,2.188920736312866,4.778921852796831,-0.0,0.2617672085762024,-1.5000346342669886,0.0,-0.004499000031501055,0.7287865877151489,-0.0,0.004602173808962107,0.773234486579895,0.0,-0.0006698225624859333
1069.0,1098.0,-1.718,-0.7687,9.597,-0.0405,0.0246,-0.1167,-1.4872695070556183,0.0,1.8324329853057861,-1.6260507106781006,-0.0,2.1559200286865234,4.778974312334814,-0.0,0.25250983238220215,-1.5000422636615198,0.0,-0.016486451029777527,0.7288065552711487,-0.0,0.0015454196836799383,0.7732788324356079,0.0,-0.02310263179242611
1069.0,1098.0,-1.718,-0.7687,9.597,-0.0405,0.0246,-0.1167,-1.487192564909794,0.0,1.8049941062927246,-1.6260508298873901,-0.0,2.1871936321258545,4.77896240630702,-0.0,0.2678685188293457,-1.5000742117511194,0.0,-0.004343965090811253,0.7287506461143494,-0.0,-0.0038058562204241753,0.7732709050178528,0.0,-0.016205046325922012
1069.0,1098.0,-1.718,-0.7687,9.597,-0.0405,0.0246,-0.1167,-1.487253100877144,0.0,1.8270454406738281,-1.6260145902633667,-0.0,2.1671142578125,4.778966109245577,-0.0,0.25526827573776245,-1.5000503698932093,0.0,-0.009174180217087269,0.7287907004356384,-0.0,-0.005559542216360569,0.7732424139976501,0.0,-0.019696809351444244
1069.0,1098.0,-1.718,-0.7687,9.597,-0.0405,0.0246,-0.1167,-1.4872170475176354,0.0,1.8221726417541504,-1.6260393857955933,-0.0,2.161201000213623,4.778958338290014,-0.0,0.26490849256515503,-1.5000584761248987,0.0,-0.015103538520634174,0.7287786602973938,-0.0,-0.0021677911281585693,0.7732626795768738,0.0,0.04212753102183342
1069.0,1098.0,-1.718,-0.7687,9.597,-0.0405,0.0246,-0.1167,-1.4872853469899674,0.0,1.8643877506256104,-1.6260548830032349,-0.0,2.1631393432617188,4.7789702145154855,-0.0,0.25914400815963745,-1.5000303427325647,0.0,-0.024878380820155144,0.7287188172340393,-0.0,0.015754997730255127,0.773234486579895,0.0,-0.0077526504173874855
1069.0,1098.0,-1.718,-0.7687,9.597,-0.0405,0.0246,-0.1167,-1.487241030936577,0.0,1.825049877166748,-1.6260713338851929,-0.0,2.1711041927337646,4.778938206821241,-0.0,0.27541297674179077,-1.5000980536090296,0.0,-0.012971274554729462,0.7287946343421936,-0.0,0.003215149976313114,0.7732102274894714,0.0,0.05381930619478226
1069.0,1098.0,-1.718,-0.7687,9.597,-0.0405,0.0246,-0.1167,-1.4872492936304589,0.0,1.839234709739685,-1.6260393857955933,-0.0,2.15972900390625,4.778966578632154,-0.0,0.2773411273956299,-1.5000227133380335,0.0,-0.017740633338689804,0.7287946343421936,-0.0,-0.011640961281955242,0.7732266783714294,0.0,0.022738205268979073
1069.0,1098.0,-1.718,-0.7687,9.597,-0.0405,0.0246,-0.1167,-1.4872413960150261,0.0,1.8017104864120483,-1.626035213470459,-0.0,2.178471088409424,4.778946395009317,-0.0,0.24889105558395386,-1.5000622908221644,0.0,-0.019003763794898987,0.7287786602973938,-0.0,0.011336548253893852,0.7732667922973633,0.0,-0.011317571625113487
1069.0,1098.0,-1.718,-0.7687,9.597,-0.0405,0.0246,-0.1167,-1.4872007754496117,0.0,1.8014168739318848,-1.6260186433792114,-0.0,2.172516345977783,4.778921942203798,-0.0,0.2613674998283386,-1.5000622908221644,0.0,-0.017896709963679314,0.7287867069244385,-0.0,-0.0028030457906425,0.7732747197151184,0.0,-0.0014240965247154236
1074.0,1103.0,-1.733,-0.7687,9.722,-0.0386,0.0199,-0.12,-1.48724930853162,0.0,1.8361852169036865,-1.625990390777588,-0.0,2.1793808937072754,4.778930055886068,-0.0,0.2659788131713867,-1.5000584761248987,0.0,-0.020858434960246086,0.7288306355476379,-0.0,-0.005201288498938084,0.7732626795768738,0.0,-0.023063670843839645
1074.0,1103.0,-1.733,-0.7687,9.722,-0.0386,0.0199,-0.12,-1.4872855109027405,0.0,1.8044278621673584,-1.6260393857955933,-0.0,2.1766858100891113,4.778982150345602,-0.0,0.2693972587585449,-1.5000265280352991,0.0,-0.01234721764922142,0.7287545204162598,-0.0,0.014506629668176174,0.7732465267181396,0.0,0.007884754799306393
1074.0,1103.0,-1.733,-0.7687,9.722,-0.0386,0.0199,-0.12,-1.487273209994175,0.0,1.8564338684082031,-1.6260393857955933,-0.0,2.212378978729248,4.778921882599153,-0.0,0.25784406065940857,-1.5000503698932093,0.0,-0.015535127371549606,0.7287664413452148,-0.0,-0.0029205805622041225,0.7732383012771606,0.0,0.0022066812962293625
1074.0,1103.0,-1.733,-0.7687,9.722,-0.0386,0.0199,-0.12,-1.4872492489269753,0.0,1.8210875988006592,-1.6260393857955933,-0.0,2.1759819984436035,4.778934295266428,-0.0,0.2575693428516388,-1.5000703970538538,0.0,-0.02481292188167572,0.7287867069244385,-0.0,-0.004820226226001978,0.7732626795768738,0.0,-0.0010874690487980843
1074.0,1103.0,-1.733,-0.7687,9.722,-0.0386,0.0199,-0.12,-1.4872248408249398,0.0,1.844797968864441,-1.6260268688201904,-0.0,2.208446502685547,4.778974319785394,-0.0,0.25678572058677673,-1.5000742117511194,0.0,-0.022574108093976974,0.7287664413452148,-0.0,-0.004582597874104977,0.7731940746307373,0.0,0.0008139517158269882
1074.0,1103.0,-1.733,-0.7687,9.722,-0.0386,0.0199,-0.12,-1.4872088444283982,0.0,1.7888866662979126,-1.6260145902633667,-0.0,2.2320642471313477,4.778966563730993,-0.0,0.25467151403427124,-1.5000465551959437,0.0,-0.022352177649736404,0.7287585735321045,-0.0,-0.0028479218017309904,0.7732506394386292,0.0,-0.002585603855550289
1074.0,1103.0,-1.733,-0.7687,9.722,-0.0386,0.0199,-0.12,-1.4872613039663811,0.0,1.7984905242919922,-1.6260026693344116,-0.0,2.1648850440979004,4.778982150345602,-0.0,0.27052566409111023,-1.50006610551943,0.0,-0.014768686145544052,0.7287307381629944,-0.0,0.00977967120707035,0.773226261138916,0.0,0.024146439507603645
1074.0,1103.0,-1.733,-0.7687,9.722,-0.0386,0.0199,-0.12,-1.4872369554689904,0.0,1.848015308380127,-1.6260311603546143,-0.0,2.1419310569763184,4.778950559883871,-0.0,0.26936355233192444,-1.500078026448385,0.0,-0.019302502274513245,0.7287704944610596,-0.0,0.0001802921760827303,0.7732465863227844,0.0,0.014165837317705154
1074.0,1103.0,-1.733,-0.7687,9.722,-0.0386,0.0199,-0.12,-1.4872088071754952,0.0,1.8180575370788574,-1.6260228157043457,-0.0,2.189863681793213,4.778954210668363,-0.0,0.2688521146774292,-1.5001066366778772,0.0,-0.01685153692960739,0.7287068963050842,-0.0,0.011380841955542564,0.7732547521591187,0.0,0.07032305002212524
1031.0,1103.0,-1.6863,-0.746,9.5468,-0.0403,0.0235,-0.1228,-1.487261326318123,0.0,1.8420264720916748,-1.626006841659546,-0.0,2.1540136337280273,4.77892596551732,-0.0,0.26026660203933716,-1.5000384489642542,0.0,-0.017445433884859085,0.7288187742233276,-0.0,0.002875505480915308,0.7732709050178528,0.0,0.021027272567152977
1031.0,1103.0,-1.6863,-0.746,9.5468,-0.0403,0.0235,-0.1228,-1.4872571986964722,0.0,1.8607709407806396,-1.6260149478912354,-0.0,2.238694906234741,4.778998586326399,-0.0,0.24339711666107178,-1.5000503698932093,0.0,-0.01758388988673687,0.7287867069244385,-0.0,-0.0014005040284246206,0.7733070850372314,0.0,-0.012724473141133785
1031.0,1103.0,-1.6863,-0.746,9.5468,-0.0403,0.0235,-0.1228,-1.4872612965158005,0.0,1.815429449081421,-1.6260714530944824,-0.0,2.163489818572998,4.778970229416647,-0.0,0.25250646471977234,-1.5000184218036097,0.0,-0.017648465931415558,0.7287746667861938,-0.0,0.020899832248687744,0.773234486579895,0.0,-0.02042619325220585
1031.0,1103.0,-1.6863,-0.746,9.5468,-0.0403,0.0235,-0.1228,-1.4872731950930138,0.0,1.7994405031204224,-1.626035213470459,-0.0,2.2185235023498535,4.778978059976854,-0.0,0.2549467086791992,-1.5000899473773401,0.0,-0.03269796818494797,0.7287826538085938,-0.0,0.0055982572957873344,0.7732626795768738,0.0,0.0059829941019415855
1031.0,1103.0,-1.6863,-0.746,9.5468,-0.0403,0.0235,-0.1228,-1.4872691345265885,0.0,1.8378404378890991,-1.6260713338851929,-0.0,2.17635440826416,4.778946387558737,-0.0,0.2687654197216034,-1.500094238911764,0.0,-0.021462593227624893,0.7287704944610596,-0.0,0.004118762444704771,0.7732585668563843,0.0,-0.04324384778738022
1031.0,1103.0,-1.6863,-0.746,9.5468,-0.0403,0.0235,-0.1228,-1.4872208026102562,0.0,1.835968255996704,-1.6260426044464111,-0.0,2.1738176345825195,4.779002676695146,-0.0,0.26345330476760864,-1.5000584761248987,0.0,-0.021297000348567963,0.7288426160812378,-0.0,0.008555443957448006,0.7732185125350952,0.0,7.453002035617828e-05
1031.0,1103.0,-1.6863,-0.746,9.5468,-0.0403,0.0235,-0.1228,-1.4872129645994683,0.0,1.7999426126480103,-1.6260671615600586,-0.0,2.1287927627563477,4.77892596551732,-0.0,0.2734224498271942,-1.5000465551959437,0.0,-0.011930789798498154,0.7288143634796143,-0.0,-0.0016904850490391254,0.7732143402099609,0.0,0.016765350475907326
1031.0,1103.0,-1.6863,-0.746,9.5468,-0.0403,0.0235,-0.1228,-1.4872289982489129,0.0,1.7832913398742676,-1.626010537147522,-0.0,2.1840403079986572,4.778962398856439,-0.0,0.2607215344905853,-1.500014607106344,0.0,-0.013064060360193253,0.7288147211074829,-0.0,-0.010466347448527813,0.7732465863227844,0.0,-0.019882285967469215
1031.0,1103.0,-1.6863,-0.746,9.5468,-0.0403,0.0235,-0.1228,-1.487233118419983,0.0,1.8243472576141357,-1.6260271072387695,-0.0,2.1995491981506348,4.778934123903074,-0.0,0.26754745841026306,-1.5000584761248987,0.0,-0.012298282235860825,0.7287427186965942,-0.0,0.0015330445021390915,0.7732143402099609,0.0,-0.034305110573768616
1031.0,1103.0,-1.6863,-0.746,9.5468,-0.0403,0.0235,-0.1228,-1.487233118419983,0.0,1.767624855041504,-1.6260590553283691,-0.0,2.153639316558838,4.778962361603536,-0.0,0.2598205506801605,-1.5000742117511194,0.0,-0.029742199927568436,0.7288028001785278,-0.0,-0.000687500461935997,0.7732668519020081,0.0,0.007127871736884117
1078.0,1093.0,-1.7354,-0.7807,9.6185,-0.0418,0.0246,-0.1176,-1.4872571986964722,0.0,1.7991373538970947,-1.6260507106781006,-0.0,2.1687469482421875,4.779010425298967,-0.0,0.2715979218482971,-1.5000622908221644,0.0,-0.012404031120240688,0.7288305759429932,-0.0,-0.0017117778770625591,0.7732424139976501,0.0,-0.04445503652095795
1078.0,1093.0,-1.7354,-0.7807,9.6185,-0.0418,0.0246,-0.1176,-1.4872410234859963,0.0,1.8195407390594482,-1.626035213470459,-0.0,2.154531240463257,4.778950127750196,-0.0,0.26553279161453247,-1.5000742117511194,0.0,-0.018133824691176414,0.7288187146186829,-0.0,-0.014678344130516052,0.7732667922973633,0.0,0.017405273392796516
1078.0,1093.0,-1.7354,-0.7807,9.6185,-0.0418,0.0246,-0.1176,-1.4872248333743592,0.0,1.8270763158798218,-1.6260548830032349,-0.0,2.1535146236419678,4.778970229416647,-0.0,0.25056561827659607,-1.500094238911764,0.0,-0.012952372431755066,0.7287664413452148,-0.0,-0.0049161361530423164,0.773234486579895,0.0,0.038984205573797226
1078.0,1093.0,-1.7354,-0.7807,9.6185,-0.0418,0.0246,-0.1176,-1.4872814428857346,0.0,1.8357131481170654,-1.6260993480682373,-0.0,2.193113327026367,4.778970229416647,-0.0,0.26057708263397217,-1.5001023451434534,0.0,-0.020565427839756012,0.7287307977676392,-0.0,-0.0009823727887123823,0.7732626795768738,0.0,0.012751934118568897
1078.0,1093.0,-1.7354,-0.7807,9.6185,-0.0418,0.0246,-0.1176,-1.4872731950930138,0.0,1.8088314533233643,-1.6259422302246094,-0.0,2.160766124725342,4.778917792230406,-0.0,0.25912392139434814,-1.500078026448385,0.0,-0.008896075189113617,0.7288191914558411,-0.0,0.010579965077340603,0.7731940746307373,0.0,-0.05491171032190323
1078.0,1093.0,-1.7354,-0.7807,9.6185,-0.0418,0.0246,-0.1176,-1.4872533318451424,0.0,1.7854630947113037,-1.6260466575622559,-0.0,2.1582863330841064,4.778962398856439,-0.0,0.27488240599632263,-1.5000422636615198,0.0,-0.024373482912778854,0.7287904024124146,-0.0,-0.01447698101401329,0.7732749581336975,0.0,-0.012135414406657219
1078.0,1093.0,-1.7354,-0.7807,9.6185,-0.0418,0.0246,-0.1176,-1.4872695294073601,0.0,1.807662010192871,-1.62602698802948,-0.0,2.1878437995910645,4.778946387558737,-0.0,0.2570657432079315,-1.5000503698932093,0.0,-0.01863775961101055,0.728786826133728,-0.0,-0.0006789471954107285,0.7732911705970764,0.0,0.022885985672473907
1078.0,1093.0,-1.7354,-0.7807,9.6185,-0.0418,0.0246,-0.1176,-1.4872773227146645,0.0,1.823146104812622,-1.6260145902633667,-0.0,2.2186481952667236,4.779002252012052,-0.0,0.2688015103340149,-1.5000823179828089,0.0,-0.01224360428750515,0.7287826538085938,-0.0,0.007295373361557722,0.7732385396957397,0.0,-0.0031287893652915955
1078.0,1093.0,-1.7354,-0.7807,9.6185,-0.0418,0.0246,-0.1176,-1.4872492787292977,0.0,1.8340213298797607,-1.625982642173767,-0.0,2.2403769493103027,4.778950127750196,-0.0,0.265572726726532,-1.5000465551959437,0.0,-0.027676064521074295,0.7288355231285095,-0.0,-0.012875843793153763,0.7732385396957397,0.0,0.03843516856431961
1078.0,1093.0,-1.7354,-0.7807,9.6185,-0.0418,0.0246,-0.1176,-1.4872489285520096,0.0,1.8105006217956543,-1.6260228157043457,-0.0,2.2015392780303955,4.778941954463281,-0.0,0.2522164583206177,-1.500054184590475,0.0,-0.017971131950616837,0.7287949919700623,-0.0,0.011477245949208736,0.7732465267181396,0.0,-0.0026449270080775023
1073.0,1076.0,-1.6648,-0.7364,9.4726,-0.0382,0.0212,-0.1144,-1.4872369480184098,0.0,1.824018120765686,-1.6260186433792114,-0.0,2.169696092605591,4.778946372657575,-0.0,0.26600658893585205,-1.50006610551943,0.0,-0.021928323432803154,0.7288351655006409,-0.0,-0.010319623164832592,0.7732750177383423,0.0,-0.0517190545797348
1073.0,1076.0,-1.6648,-0.7364,9.4726,-0.0382,0.0212,-0.1144,-1.4872492787292977,0.0,1.7825050354003906,-1.6260426044464111,-0.0,2.1739556789398193,4.778958308487692,-0.0,0.25279009342193604,-1.5000384489642542,0.0,-0.022628525272011757,0.7287785410881042,-0.0,-0.0002440169919282198,0.7732345461845398,0.0,0.044467829167842865
1073.0,1076.0,-1.6648,-0.7364,9.4726,-0.0382,0.0212,-0.1144,-1.487273209994175,0.0,1.8423928022384644,-1.626010537147522,-0.0,2.180222511291504,4.778910013824262,-0.0,0.26534900069236755,-1.500014607106344,0.0,-0.02107171155512333,0.7288109660148621,-0.0,-0.01188083365559578,0.7732303738594055,0.0,-0.008374469354748726
1073.0,1076.0,-1.6648,-0.7364,9.4726,-0.0382,0.0212,-0.1144,-1.4872129795006295,0.0,1.8563759326934814,-1.6260508298873901,-0.0,2.158367872238159,4.778917792230406,-0.0,0.27452296018600464,-1.5000584761248987,0.0,-0.007076944690197706,0.7287746071815491,-0.0,0.009470597840845585,0.7732465267181396,0.0,0.06531311571598053
1073.0,1076.0,-1.6648,-0.7364,9.4726,-0.0382,0.0212,-0.1144,-1.487192564909794,0.0,1.8054118156433105,-1.6260026693344116,-0.0,2.147096872329712,4.778978410154142,-0.0,0.26080772280693054,-1.5000584761248987,0.0,-0.016632603481411934,0.728786826133728,-0.0,0.00048479868564754725,0.7732747197151184,0.0,0.00434054434299469
1073.0,1076.0,-1.6648,-0.7364,9.4726,-0.0382,0.0212,-0.1144,-1.4872492787292977,0.0,1.829596996307373,-1.6260786056518555,-0.0,2.144531488418579,4.778958308487692,-0.0,0.26459115743637085,-1.5000346342669886,0.0,-0.01821264624595642,0.7287224531173706,-0.0,0.008561840280890465,0.7732303738594055,0.0,-0.004435134120285511
1073.0,1076.0,-1.6648,-0.7364,9.4726,-0.0382,0.0212,-0.1144,-1.4872129795006295,0.0,1.8861976861953735,-1.626002311706543,-0.0,2.144653797149658,4.778962398856439,-0.0,0.2520841360092163,-1.5000503698932093,0.0,-0.01768970862030983,0.7288192510604858,-0.0,0.01588835008442402,0.7732547521591187,0.0,-0.008534746244549751
1073.0,1076.0,-1.6648,-0.7364,9.4726,-0.0382,0.0212,-0.1144,-1.4872731950930138,0.0,1.7826651334762573,-1.6260311603546143,-0.0,2.179532289505005,4.778954218118944,-0.0,0.25657525658607483,-1.5000703970538538,0.0,-0.011178453452885151,0.7288392782211304,-0.0,0.02000175416469574,0.7732506394386292,0.0,-0.02252700738608837
1073.0,1076.0,-1.6648,-0.7364,9.4726,-0.0382,0.0212,-0.1144,-1.4872369405678292,0.0,1.871222734451294,-1.6260186433792114,-0.0,2.1529364585876465,4.7789783878024,-0.0,0.25541359186172485,-1.5000265280352991,0.0,-0.02229473367333412,0.7288069128990173,-0.0,0.004323453176766634,0.7732667922973633,0.0,-0.002000032225623727
1073.0,1076.0,-1.6648,-0.7364,9.4726,-0.0382,0.0212,-0.1144,-1.487277315264084,0.0,1.7968146800994873,-1.6260108947753906,-0.0,2.1738357543945312,4.778958308487692,-0.0,0.2608373463153839,-1.5000584761248987,0.0,-0.011386935599148273,0.7287585735321045,-0.0,0.0043188356794416904,0.7732465267181396,0.0,0.024952230975031853
8190.0,8190.0,-1.6331,-0.731,9.3517,-0.0342,0.0281,-0.1245,-1.4872731950930138,0.0,1.7856566905975342,-1.6260466575622559,-0.0,2.1680541038513184,4.778946387558737,-0.0,0.27864760160446167,-1.5000742117511194,0.0,-0.026217859238386154,0.7288028597831726,-0.0,-0.006628243252635002,0.7732184529304504,0.0,-0.010820958763360977
8190.0,8190.0,-1.6331,-0.731,9.3517,-0.0342,0.0281,-0.1245,-1.487285555606224,0.0,1.810361385345459,-1.6260466575622559,-0.0,2.179107666015625,4.778966571181574,-0.0,0.2674107551574707,-1.5000622908221644,0.0,-0.023527070879936218,0.7287622094154358,-0.0,-0.006804728880524635,0.7731981873512268,0.0,0.0025749821215867996
8190.0,8190.0,-1.6331,-0.731,9.3517,-0.0342,0.0281,-0.1245,-1.4872571986964722,0.0,1.810185432434082,-1.6260713338851929,-0.0,2.1387829780578613,4.778974304884233,-0.0,0.26322025060653687,-1.5000584761248987,0.0,-0.022237837314605713,0.7287585735321045,-0.0,-0.0007335999398492277,0.7732747197151184,0.0,-0.017401957884430885
8190.0,8190.0,-1.6331,-0.731,9.3517,-0.0342,0.0281,-0.1245,-1.4872691196254273,0.0,1.855886697769165,-1.6260268688201904,-0.0,2.19456148147583,4.778958308487692,-0.0,0.2559758126735687,-1.5000899473773401,0.0,-0.02047283947467804,0.7287503480911255,-0.0,-0.009401838295161724,0.7732424139976501,0.0,-0.023739803582429886
8190.0,8190.0,-1.6331,-0.731,9.3517,-0.0342,0.0281,-0.1245,-1.4872852873853226,0.0,1.8317886590957642,-1.6260271072387695,-0.0,2.183676242828369,4.778938206821241,-0.0,0.2798566222190857,-1.5000823179828089,0.0,-0.006176457274705172,0.7287703156471252,-0.0,-0.004645968787372112,0.7732506394386292,0.0,-0.02981405332684517
8190.0,8190.0,-1.6331,-0.731,9.3517,-0.0342,0.0281,-0.1245,-1.4872737166336556,0.0,1.7954745292663574,-1.6260186433792114,-0.0,2.181912899017334,4.778974304884233,-0.0,0.2666666507720947,-1.5000699202166956,0.0,-0.022649448364973068,0.7288150191307068,-0.0,0.004426180385053158,0.7732506394386292,0.0,0.04329761117696762
8190.0,8190.0,-1.6331,-0.731,9.3517,-0.0342,0.0281,-0.1245,-1.4872451585582276,0.0,1.8566701412200928,-1.6260271072387695,-0.0,2.1506786346435547,4.778990331083097,-0.0,0.26324406266212463,-1.5000465551959437,0.0,-0.025123562663793564,0.7287826538085938,-0.0,0.015238624066114426,0.7732906937599182,0.0,0.02243047207593918
8190.0,8190.0,-1.6331,-0.731,9.3517,-0.0342,0.0281,-0.1245,-1.487273209994175,0.0,1.790902853012085,-1.6260229349136353,-0.0,2.2055625915527344,4.778930055886068,-0.0,0.24659302830696106,-1.5000699202166956,0.0,-0.01768331229686737,0.728754460811615,-0.0,-0.0017308755777776241,0.7732667922973633,0.0,0.0222913958132267
8190.0,8190.0,-1.6331,-0.731,9.3517,-0.0342,0.0281,-0.1245,-1.487281435435154,0.0,1.8319364786148071,-1.6260385513305664,-0.0,2.1736807823181152,4.778917836933889,-0.0,0.26138168573379517,-1.5000422636615198,0.0,0.002327528316527605,0.7287667393684387,-0.0,-0.0023022727109491825,0.7732385396957397,0.0,-0.01739916205406189
1064.0,1105.0,-1.6971,-0.7507,9.5803,-0.0328,0.0252,-0.1199,-1.487273209994175,0.0,1.8499493598937988,-1.6260474920272827,-0.0,2.194828510284424,4.778962398856439,-0.0,0.24584895372390747,-1.5000222365008753,0.0,-0.016830462962388992,0.7287704944610596,-0.0,0.00020477059297263622,0.7732626795768738,0.0,0.014755436219274998
1064.0,1105.0,-1.6971,-0.7507,9.5803,-0.0328,0.0252,-0.1199,-1.4872571986964722,0.0,1.8292768001556396,-1.6260672807693481,-0.0,2.1744236946105957,4.77899435439662,-0.0,0.246401846408844,-1.5000303427325647,0.0,-0.02604624629020691,0.7287746071815491,-0.0,0.013936026021838188,0.7732948660850525,0.0,-0.0319015197455883
1064.0,1105.0,-1.6971,-0.7507,9.5803,-0.0328,0.0252,-0.1199,-1.4872131285122414,0.0,1.8267176151275635,-1.626010537147522,-0.0,2.1637988090515137,4.778921912401476,-0.0,0.2610458731651306,-1.5000465551959437,0.0,-0.014193650335073471,0.7288232445716858,-0.0,-0.0009976185392588377,0.7732585668563843,0.0,0.003204621374607086
1064.0,1105.0,-1.6971,-0.7507,9.5803,-0.0328,0.0252,-0.1199,-1.4872531083277245,0.0,1.7978483438491821,-1.626035213470459,-0.0,2.192866802215576,4.778954240470686,-0.0,0.26788172125816345,-1.5000465551959437,0.0,-0.01874011754989624,0.7287420034408569,-0.0,0.0017642260063439608,0.7733030915260315,0.0,-0.02083883248269558
1064.0,1105.0,-1.6971,-0.7507,9.5803,-0.0328,0.0252,-0.1199,-1.487261326318123,0.0,1.8599560260772705,-1.6260590553283691,-0.0,2.175718307495117,4.778958308487692,-0.0,0.26840269565582275,-1.5000579992877405,0.0,-0.026744777336716652,0.7287746071815491,-0.0,-0.0013830724637955427,0.7732788920402527,0.0,0.008505040779709816
1064.0,1105.0,-1.6971,-0.7507,9.5803,-0.0328,0.0252,-0.1199,-1.4872372087887307,0.0,1.8166884183883667,-1.626043438911438,-0.0,2.19511342048645,4.7789542255695245,-0.0,0.2509486973285675,-1.500054184590475,0.0,-0.03323763608932495,0.7288069128990173,-0.0,-0.0060410709120333195,0.7732424139976501,0.0,-0.04174080863595009
1064.0,1105.0,-1.6971,-0.7507,9.5803,-0.0328,0.0252,-0.1199,-1.4872773450664063,0.0,1.8027713298797607,-1.6260548830032349,-0.0,2.1351778507232666,4.778998541622915,-0.0,0.263205349445343,-1.500110928212301,0.0,-0.02310348115861416,0.7287744283676147,-0.0,-0.002819488989189267,0.7733110189437866,0.0,0.05000794678926468
1064.0,1105.0,-1.6971,-0.7507,9.5803,-0.0328,0.0252,-0.1199,-1.4872410532883187,0.0,1.8003169298171997,-1.6260671615600586,-0.0,2.1565773487091064,4.77897838035182,-0.0,0.2620532214641571,-1.5000742117511194,0.0,-0.026750506833195686,0.7287306785583496,-0.0,0.004667547065764666,0.7732829451560974,0.0,0.03696652874350548
1064.0,1105.0,-1.6971,-0.7507,9.5803,-0.0328,0.0252,-0.1199,-1.4872289907983323,0.0,1.77045738697052,-1.6260149478912354,-0.0,2.170832633972168,4.778950187354841,-0.0,0.27264273166656494,-1.5000622908221644,0.0,-0.019830476492643356,0.7287986874580383,-0.0,0.012005156837403774,0.7732221484184265,0.0,-0.02634745091199875
1064.0,1105.0,-1.6971,-0.7507,9.5803,-0.0328,0.0252,-0.1199,-1.4872451585582276,0.0,1.8179816007614136,-1.6260590553283691,-0.0,2.1692311763763428,4.778994406550684,-0.0,0.2643575966358185,-1.500094238911764,0.0,-0.024871695786714554,0.7287183403968811,-0.0,-0.004477368667721748,0.7732788324356079,0.0,-0.013341955840587616
1084.0,8190.0,-1.663,-0.7777,9.5647,-0.0388,0.0212,-0.11,-1.487204761510231,0.0,1.8413276672363281,-1.6260466575622559,-0.0,2.214588165283203,4.778946402459898,-0.0,0.25712859630584717,-1.5000222365008753,0.0,0.0008623157627880573,0.7287580370903015,-0.0,0.004186030477285385,0.773226261138916,0.0,0.004061147570610046
1084.0,8190.0,-1.663,-0.7777,9.5647,-0.0388,0.0212,-0.11,-1.487273209994175,0.0,1.8703148365020752,-1.625998616218567,-0.0,2.238913059234619,4.778946439712801,-0.0,0.2648245692253113,-1.5000622908221644,0.0,-0.02963738888502121,0.7287425398826599,-0.0,-0.007710019126534462,0.7732020616531372,0.0,0.006235389970242977
1084.0,8190.0,-1.663,-0.7777,9.5647,-0.0388,0.0212,-0.11,-1.4872451585582276,0.0,1.8324562311172485,-1.6260550022125244,-0.0,2.1753392219543457,4.778946439712801,-0.0,0.26132917404174805,-1.5000622908221644,0.0,-0.019939595833420753,0.7287663221359253,-0.0,0.005333300679922104,0.7732546925544739,0.0,0.014461266808211803
1084.0,8190.0,-1.663,-0.7777,9.5647,-0.0388,0.0212,-0.11,-1.4872328054955979,0.0,1.8310967683792114,-1.6260713338851929,-0.0,2.186116933822632,4.7789542255695245,-0.0,0.2636156380176544,-1.5000384489642542,0.0,-0.021851595491170883,0.7287786602973938,-0.0,-0.005094714462757111,0.7732667922973633,0.0,0.011491789482533932
1084.0,8190.0,-1.663,-0.7777,9.5647,-0.0388,0.0212,-0.11,-1.4872695592096825,0.0,1.8260595798492432,-1.6260311603546143,-0.0,2.1515121459960938,4.778934183507719,-0.0,0.26169759035110474,-1.4999983946429651,0.0,-0.008004475384950638,0.7287704944610596,-0.0,-0.006184692960232496,0.773234486579895,0.0,-0.05333379656076431
1084.0,8190.0,-1.663,-0.7777,9.5647,-0.0388,0.0212,-0.11,-1.4872289907983323,0.0,1.8077811002731323,-1.6260671615600586,-0.0,2.1692895889282227,4.778917836933889,-0.0,0.25071948766708374,-1.5000622908221644,0.0,-0.018686510622501373,0.728754460811615,-0.0,-0.001771614421159029,0.7732546925544739,0.0,0.017832402139902115
1084.0,8190.0,-1.663,-0.7777,9.5647,-0.0388,0.0212,-0.11,-1.4872533243945618,0.0,1.858482837677002,-1.626035213470459,-0.0,2.1574528217315674,4.778966541379251,-0.0,0.26108330488204956,-1.5000785032855433,0.0,-0.018489770591259003,0.7287580370903015,-0.0,0.004358398728072643,0.7732788324356079,0.0,-0.04689594358205795
1084.0,8190.0,-1.663,-0.7777,9.5647,-0.0388,0.0212,-0.11,-1.4872451064041634,0.0,1.830357313156128,-1.6260507106781006,-0.0,2.2013776302337646,4.778994019120493,-0.0,0.26274046301841736,-1.5000303427325647,0.0,-0.0050497157499194145,0.7287142872810364,-0.0,-0.011860935017466545,0.7731900215148926,0.0,0.005996713414788246
1084.0,8190.0,-1.663,-0.7777,9.5647,-0.0388,0.0212,-0.11,-1.4872327756932755,0.0,1.795338749885559,-1.6260631084442139,-0.0,2.1898813247680664,4.778938266425886,-0.0,0.2617006003856659,-1.5000503698932093,0.0,-0.023574136197566986,0.7287059426307678,-0.0,-0.003935063257813454,0.7732465267181396,0.0,0.02252604067325592
1084.0,8190.0,-1.663,-0.7777,9.5647,-0.0388,0.0212,-0.11,-1.4871965882233162,0.0,1.8071714639663696,-1.626010537147522,-0.0,2.1868035793304443,4.778986233263769,-0.0,0.25532373785972595,-1.5000818411456507,0.0,-0.021303152665495872,0.7287745475769043,-0.0,-0.002986746607348323,0.7732465267181396,0.0,0.018559396266937256
1070.0,1109.0,-1.5888,-0.3188,9.7035,-0.0264,0.0147,-0.1243,-1.4872448977879067,0.0,1.87022066116333,-1.6260910034179688,-0.0,2.1776621341705322,4.778990353434839,-0.0,0.25410300493240356,-1.5000584761248987,0.0,-0.027558982372283936,0.7287827730178833,-0.0,-0.0010446677915751934,0.773290753364563,0.0,-0.0035243076272308826
1070.0,1109.0,-1.5888,-0.3188,9.7035,-0.0264,0.0147,-0.1243,-1.4872252953103562,0.0,1.8028714656829834,-1.6260186433792114,-0.0,2.1448793411254883,4.778970229416647,-0.0,0.25939294695854187,-1.5000579992877405,0.0,-0.014875158667564392,0.7287745475769043,-0.0,0.001872646389529109,0.7732747197151184,0.0,0.011933929286897182
1070.0,1109.0,-1.5888,-0.3188,9.7035,-0.0264,0.0147,-0.1243,-1.4872855705073853,0.0,1.8048728704452515,-1.6260507106781006,-0.0,2.1930203437805176,4.778986635595121,-0.0,0.26691973209381104,-1.5000622908221644,0.0,-0.014026667922735214,0.7287826538085938,-0.0,0.004285441245883703,0.7732342481613159,0.0,-0.021523209288716316
1070.0,1109.0,-1.5888,-0.3188,9.7035,-0.0264,0.0147,-0.1243,-1.4872492861798783,0.0,1.8671364784240723,-1.626035213470459,-0.0,2.127380847930908,4.779006327479639,-0.0,0.270446240901947,-1.5000422636615198,0.0,-0.024032628163695335,0.7287785410881042,-0.0,0.013935969211161137,0.7732424139976501,0.0,-0.004157520830631256
1070.0,1109.0,-1.5888,-0.3188,9.7035,-0.0264,0.0147,-0.1243,-1.487224855726101,0.0,1.812851905822754,-1.6260466575622559,-0.0,2.1877737045288086,4.7789542255695245,-0.0,0.266145795583725,-1.500026051198141,0.0,-0.02134517952799797,0.7288069128990173,-0.0,-0.005463176406919956,0.7732544541358948,0.0,0.043918490409851074
1070.0,1109.0,-1.5888,-0.3188,9.7035,-0.0264,0.0147,-0.1243,-1.487208829527237,0.0,1.8096909523010254,-1.6260507106781006,-0.0,2.155886650085449,4.77901457527236,-0.0,0.25881585478782654,-1.5000584761248987,0.0,-0.017198260873556137,0.7287704944610596,-0.0,-0.0028691256884485483,0.7732102870941162,0.0,0.031787097454071045
1070.0,1109.0,-1.5888,-0.3188,9.7035,-0.0264,0.0147,-0.1243,-1.4872575488737603,0.0,1.791639804840088,-1.6260311603546143,-0.0,2.1655726432800293,4.778934131353655,-0.0,0.25944507122039795,-1.500054661427633,0.0,-0.008540070615708828,0.7287182807922363,-0.0,-0.004881580360233784,0.7732546925544739,0.0,0.04102985933423042
1070.0,1109.0,-1.5888,-0.3188,9.7035,-0.0264,0.0147,-0.1243,-1.487261363571026,0.0,1.8388211727142334,-1.6260550022125244,-0.0,2.2333240509033203,4.778986225813188,-0.0,0.25846993923187256,-1.5000579992877405,0.0,-0.019501082599163055,0.7287585735321045,-0.0,-0.004168965388089418,0.7732424139976501,0.0,0.03679763898253441
1070.0,1109.0,-1.5888,-0.3188,9.7035,-0.0264,0.0147,-0.1243,-1.4872616541436692,0.0,1.7991435527801514,-1.6260186433792114,-0.0,2.1772913932800293,4.778974349587717,-0.0,0.25348979234695435,-1.5000465551959437,0.0,-0.005419190973043442,0.7288109064102173,-0.0,-0.0022518339101225138,0.7732102274894714,0.0,-0.0015651076100766659
8190.0,1061.0,-2.0327,-0.7095,9.5946,-0.0423,0.0368,-0.1249,-1.4872129795006295,0.0,1.8239139318466187,-1.6260186433792114,-0.0,2.1991934776306152,4.778962056129732,-0.0,0.26480671763420105,-1.5000503698932093,0.0,-0.017435550689697266,0.7287545800209045,-0.0,-0.00671128835529089,0.773234486579895,0.0,-0.03457821533083916
8190.0,1061.0,-2.0327,-0.7095,9.5946,-0.0423,0.0368,-0.1249,-1.4872814577868958,0.0,1.8869746923446655,-1.6260713338851929,-0.0,2.193317413330078,4.778958338290014,-0.0,0.2620714604854584,-1.5000465551959437,0.0,-0.013454414904117584,0.728786826133728,-0.0,0.0009209059062413871,0.7732585668563843,0.0,-0.0016207145527005196
8190.0,1061.0,-2.0327,-0.7095,9.5946,-0.0423,0.0368,-0.1249,-1.4872129944017907,4.684575394264812e-09,1.8342242240905762,-1.6260228157043457,-0.0,2.1818482875823975,4.778946104436674,-0.0,0.2680629789829254,-1.50006610551943,0.0,-0.009733890183269978,0.7287580966949463,-0.0,0.007337468676269054,0.7732465267181396,0.0,-0.01603768765926361
8190.0,1061.0,-2.0327,-0.7095,9.5946,-0.0423,0.0368,-0.1249,-1.487188884322979,2.036246112093718e-18,1.8127589225769043,-1.626006841659546,-0.0,2.179844379425049,4.7790100304181955,-0.0,0.2593420445919037,-1.5000785032855433,0.0,-0.01106130238622427,0.7288190722465515,-0.0,0.003695749444887042,0.7732303738594055,0.0,-0.03650912642478943
8190.0,1061.0,-2.0327,-0.7095,9.5946,-0.0423,0.0368,-0.1249,-1.4872211974910279,6.59717903911719e-26,1.80086088180542,-1.6260950565338135,-0.0,2.198545455932617,4.778962071030893,-0.0,0.2699672281742096,-1.50006610551943,0.0,-0.01901535503566265,0.7287704944610596,-0.0,-0.0010725525207817554,0.7732424139976501,0.0,0.015690583735704422
8190.0,1061.0,-2.0327,-0.7095,9.5946,-0.0423,0.0368,-0.1249,-1.487168663447239,2.867597805844335e-35,1.8202335834503174,-1.6260671615600586,-0.0,2.1746344566345215,4.778998206346788,-0.0,0.255744069814682,-1.500049893056051,0.0,-0.01801210641860962,0.7287904024124146,-0.0,-0.0020520410034805536,0.7732627391815186,0.0,-0.027908938005566597
8190.0,1061.0,-2.0327,-0.7095,9.5946,-0.0423,0.0368,-0.1249,-1.4871768590858956,0.00026620354037731886,1.8262217044830322,-1.6260590553283691,-0.0,2.184244155883789,4.779006282776155,-0.0,0.25963976979255676,-1.500054184590475,0.0,-0.021137744188308716,0.7287826538085938,-0.0,0.009345289319753647,0.7732424139976501,0.0,-0.03271359205245972
8190.0,1061.0,-2.0327,-0.7095,9.5946,-0.0423,0.0368,-0.1249,-1.4872170996716996,0.0002965364546980709,1.807487964630127,-1.6260745525360107,-0.0,2.183807849884033,4.778982150345602,-0.0,0.26039713621139526,-1.500122372304098,0.0,-0.022021589800715446,0.7287502884864807,-0.0,-0.0020836240146309137,0.7732665538787842,0.0,-0.03280666097998619
8190.0,1061.0,-2.0327,-0.7095,9.5946,-0.0423,0.0368,-0.1249,-1.487193026845791,0.0003573212889023125,1.803094506263733,-1.6260508298873901,-0.0,2.1759839057922363,4.779046106129446,-0.0,0.2650333046913147,-1.500054184590475,0.0,-0.02007686346769333,0.728762686252594,-0.0,-0.0054160794243216515,0.7733069062232971,0.0,-0.005475195124745369
8190.0,1061.0,-2.0327,-0.7095,9.5946,-0.0423,0.0368,-0.1249,-1.4872294601849099,0.0002557997650001198,1.7638120651245117,-1.626006841659546,-0.0,2.1914641857147217,4.778998139291563,-0.0,0.2626311480998993,-1.5000465551959437,0.0,-0.02725094184279442,0.7287826538085938,-0.0,-0.006278607994318008,0.7732383012771606,0.0,0.031517136842012405
1068.0,1118.0,-1.2114,-0.533,9.4863,-0.0328,0.0029,-0.115,-1.4872575861266633,0.00013321591541171074,1.796708583831787,-1.6260671615600586,-0.0,2.196467638015747,4.779010365694322,-0.0,0.25563305616378784,-1.500026051198141,0.0,-0.024265948683023453,0.7288069128990173,-0.0,0.0030152369290590286,0.7732668519020081,0.0,0.018745483830571175
1068.0,1118.0,-1.2114,-0.533,9.4863,-0.0328,0.0029,-0.115,-1.487241008584835,-0.00011080158583354205,1.8411283493041992,-1.6260507106781006,-0.0,2.1806483268737793,4.779002252012052,-0.0,0.2598201036453247,-1.5000622908221644,0.0,-0.01813449338078499,0.7288028597831726,-0.0,0.013101078569889069,0.773230791091919,0.0,-0.007688586134463549
1068.0,1118.0,-1.2114,-0.533,9.4863,-0.0328,0.0029,-0.115,-1.4872493010810395,-0.0001296725240536034,1.8012306690216064,-1.6260186433792114,-0.0,2.1545519828796387,4.778954218118944,-0.0,0.24843227863311768,-1.5000785032855433,0.0,-0.03046371042728424,0.7287622094154358,-0.0,-0.00511083984747529,0.773226261138916,0.0,0.04331917688250542
1068.0,1118.0,-1.2114,-0.533,9.4863,-0.0328,0.0029,-0.115,-1.4872571986964722,-0.00039557021227665246,1.838356375694275,-1.6260590553283691,-0.0,2.151144504547119,4.778921890049734,-0.0,0.2655254602432251,-1.5000703970538538,0.0,-0.019115988165140152,0.7287909388542175,-0.0,0.007115567103028297,0.7732788324356079,0.0,0.005483326502144337
1068.0,1118.0,-1.2114,-0.533,9.4863,-0.0328,0.0029,-0.115,-1.487325669532158,-0.0010096646146848798,1.8291717767715454,-1.6260384321212769,-0.0,2.1745076179504395,4.778970579593935,-0.0,0.2604984641075134,-1.5000823179828089,0.0,-0.015874609351158142,0.7288191914558411,-0.0,-0.009098094888031483,0.773282527923584,0.0,-0.03601711243391037
1068.0,1118.0,-1.2114,-0.533,9.4863,-0.0328,0.0029,-0.115,-1.4873373222402115,-0.0037242029793560505,1.7846324443817139,-1.6260311603546143,-0.0,2.2259862422943115,4.778921912401476,-0.0,0.2643566131591797,-1.5000384489642542,0.0,-0.016345536336302757,0.728746235370636,-0.0,0.0074711749330163,0.773274302482605,0.001482379506342113,0.061791494488716125
1068.0,1118.0,-1.2114,-0.533,9.4863,-0.0328,0.0029,-0.115,-1.4874249261668702,-0.00961296260356903,1.7970350980758667,-1.6260870695114136,-0.0,2.199129581451416,4.778966586082735,-0.0,0.25289982557296753,-1.5000579992877405,0.0,-0.014375058934092522,0.728786826133728,-0.0,0.011820905841886997,0.7732982635498047,0.003916664980351925,0.011101690120995045
1068.0,1118.0,-1.2114,-0.533,9.4863,-0.0328,0.0029,-0.115,-1.4875852477601548,-0.011675195768475533,1.7981743812561035,-1.6260870695114136,-0.0,2.186807632446289,4.77895467260436,-0.0,0.26384708285331726,-1.5000460783587855,0.0,-0.017392847687005997,0.7287183403968811,-0.0,0.0037311441265046597,0.7734146118164062,0.007981628179550171,0.047683440148830414
1068.0,1118.0,-1.2114,-0.533,9.4863,-0.0328,0.0029,-0.115,-1.4876365673593064,-0.010338148102164268,1.8455318212509155,-1.6260508298873901,-0.0,2.1584112644195557,4.778938340931692,-0.0,0.2532380223274231,-1.500094238911764,0.0,-0.014464803040027618,0.72877436876297,-0.0,-0.01684693619608879,0.7734626531600952,0.010079680010676384,-0.0004170903703197837
1068.0,1118.0,-1.2114,-0.533,9.4863,-0.0328,0.0029,-0.115,-1.4877325606397171,-0.008544746786355972,1.8140990734100342,-1.6260870695114136,-0.0,2.136159896850586,4.778946387558737,-0.0,0.2571592628955841,-1.5000579992877405,0.0,-0.01618940383195877,0.7287704944610596,-0.0,-0.005811683833599091,0.7735790014266968,0.01195494830608368,0.014337590895593166
1085.0,1085.0,-1.9531,-0.7388,9.3811,-0.0434,-0.0014,-0.1275,-1.4878809464028855,-0.009508608840405941,1.7404835224151611,-1.6260985136032104,-0.00014478662342298776,2.1484198570251465,4.77892596551732,-0.0,0.2692028284072876,-1.5000699202166956,0.0,-0.01489267684519291,0.7287785410881042,-0.0,0.0034837874118238688,0.7737310528755188,0.012044618837535381,0.027370145544409752
1085.0,1085.0,-1.9531,-0.7388,9.3811,-0.0434,-0.0014,-0.1275,-1.487924338584282,-0.010241330601274967,1.8305974006652832,-1.6261190176010132,-0.00012827735918108374,2.163633346557617,4.778950150101938,-0.0,0.2640911638736725,-1.5000823179828089,0.0,-0.015869829803705215,0.728754460811615,-0.0,0.004116305615752935,0.7737749218940735,0.010539524257183075,0.04938217252492905
1085.0,1085.0,-1.9531,-0.7388,9.3811,-0.0434,-0.0014,-0.1275,-1.488020585184433,-0.010603085160255432,1.759000301361084,-1.6261234283447266,-0.00015687548147980124,2.208439350128174,4.778921904950895,-0.0,0.2721330523490906,-1.5000818411456507,0.0,-0.019632747396826744,0.7287826538085938,-0.0,0.005942809861153364,0.7738309502601624,0.00597546948119998,-0.02931995876133442
1085.0,1085.0,-1.9531,-0.7388,9.3811,-0.0434,-0.0014,-0.1275,-1.48815260202203,-0.010961453430354595,1.8090519905090332,-1.626115083694458,-0.00023849515127949417,2.198301076889038,4.778950515180387,-0.0,0.26451700925827026,-1.500054184590475,0.0,-0.0025781721342355013,0.728786826133728,-0.0,0.005362346768379211,0.7738346457481384,0.0020139033440500498,-0.0060082669369876385
1085.0,1085.0,-1.9531,-0.7388,9.3811,-0.0434,-0.0014,-0.1275,-1.4882360708764573,-0.012998977676033974,1.7668837308883667,-1.6261634826660156,-0.00023607115144841373,2.2049293518066406,4.778930055886068,-0.0,0.2709347605705261,-1.5000622908221644,0.0,-0.030416324734687805,0.7287622094154358,-0.0,0.005021221935749054,0.7738428711891174,0.0003486249188426882,0.020809639245271683
1085.0,1085.0,-1.9531,-0.7388,9.3811,-0.0434,-0.0014,-0.1275,-1.4884002965739747,-0.01692705601453781,1.7631807327270508,-1.626142978668213,-0.0005618977593258023,2.182483434677124,4.778925980418482,-0.0,0.25823622941970825,-1.5000703970538538,0.0,-0.01824558526277542,0.72877037525177,-0.0,-0.0022026754450052977,0.7738388180732727,0.0001571849425090477,-0.016705617308616638
1085.0,1085.0,-1.9531,-0.7388,9.3811,-0.0434,-0.0014,-0.1275,-1.4886080858162423,-0.019563453271985054,1.8497565984725952,-1.626123309135437,-0.0006024809554219246,2.209237575531006,4.77892596551732,-0.0,0.27078357338905334,-1.5000785032855433,0.0,-0.028016140684485435,0.7288027405738831,-0.0,-0.011888513341546059,0.7738469839096069,5.4702202760381624e-05,0.04482781141996384
1085.0,1085.0,-1.9531,-0.7388,9.3811,-0.0434,-0.0014,-0.1275,-1.4887797248414536,-0.022257167845964432,1.7868194580078125,-1.6261307001113892,-0.0004329697694629431,2.1440937519073486,4.778921882599153,-0.0,0.2663191258907318,-1.500094238911764,0.0,-0.009587403386831284,0.7288191318511963,-0.0,0.013412639498710632,0.7738549709320068,2.3777422698410995e-14,-0.015559195540845394
1085.0,1085.0,-1.9531,-0.7388,9.3811,-0.0434,-0.0014,-0.1275,-1.4889677253416558,-0.02448904886841774,1.768587350845337,-1.626154899597168,-0.000436998758232221,2.2146778106689453,4.778921882599153,-0.0,0.2703997492790222,-1.5000465551959437,0.0,-0.011370476335287094,0.7288150787353516,-0.0,0.0032515961211174726,0.7739036679267883,7.703582925959106e-22,0.01691582426428795
1085.0,1085.0,-1.9531,-0.7388,9.3811,-0.0434,-0.0014,-0.1275,-1.4892516744187851,-0.025500494986772537,1.7873321771621704,-1.626166820526123,-0.00043987439130432904,2.2081217765808105,4.778922307282247,-0.0,0.2586377263069153,-1.5000384489642542,0.0,-0.019525639712810516,0.7288191318511963,-0.0,0.001878157490864396,0.7738350629806519,-0.0005776557954959571,0.012696062214672565
1041.0,1065.0,-2.5896,-0.6945,9.2578,-0.0316,-0.0774,-0.1271,-1.489515059893467,-0.028062526136636734,1.8465237617492676,-1.6261751651763916,-0.0029774289578199387,2.186502456665039,4.778934228211202,-0.0,0.25761446356773376,-1.5000465551959437,0.0,-0.02581102028489113,0.7288392782211304,-0.0,0.006548349745571613,0.7738069295883179,-0.0007344796904362738,-0.04838886111974716
1041.0,1065.0,-2.5896,-0.6945,9.2578,-0.0316,-0.0774,-0.1271,-1.4897631642273446,-0.030159369111061096,1.7971882820129395,-1.6262388229370117,-0.008427252061665058,2.1450655460357666,4.778938355832853,-0.0,0.2660941183567047,-1.5000703970538538,0.0,-0.018254145979881287,0.7287580370903015,-0.0,-0.0052783736027777195,0.7737990021705627,-0.0006352093769237399,-0.03494967892765999
1041.0,1065.0,-2.5896,-0.6945,9.2578,-0.0316,-0.0774,-0.1271,-1.4900947299650689,-0.032989125698804855,1.7875463962554932,-1.6263630390167236,-0.00882029626518488,2.1223807334899902,4.77891447672204,-0.0,0.26306888461112976,-1.5000703970538538,0.0,-0.02121671661734581,0.7288191914558411,-0.0,0.008234038949012756,0.7738109827041626,-0.0004828245146200061,0.004044999834150076
1041.0,1065.0,-2.5896,-0.6945,9.2578,-0.0316,-0.0774,-0.1271,-1.490462714140751,-0.03829961642622948,1.807541847229004,-1.626479148864746,-0.0076627591624855995,2.188462495803833,4.778890396445551,-0.0009814125951379538,0.26306527853012085,-1.5000579992877405,0.0,-0.012647056020796299,0.7288514971733093,-0.0,0.00957533624023199,0.7737788558006287,-0.00030865336884744465,-0.010643552988767624
1041.0,1065.0,-2.5896,-0.6945,9.2578,-0.0316,-0.0774,-0.1271,-1.4909061801484604,-0.04931152984499931,1.7577577829360962,-1.626454472541809,-0.005092541687190533,2.1343748569488525,4.778862702637472,-0.0005997687112540007,0.26092439889907837,-1.5000303427325647,0.0,-0.01429852657020092,0.7287703156471252,-0.0,-0.0037085688672959805,0.773798942565918,-0.00022982349037192762,-0.005004697944968939
1041.0,1065.0,-2.5896,-0.6945,9.2578,-0.0316,-0.0774,-0.1271,-1.4913581025651474,-0.05996667221188545,1.79342520236969,-1.6265428066253662,-0.00227540940977633,2.1954398155212402,4.778882133751669,-0.00041511200834065676,0.27405446767807007,-1.500042740498678,0.0,-0.024612169712781906,0.7288269400596619,-0.0,-0.010373659431934357,0.773798942565918,-0.00019083532970398664,0.03047812543809414
1041.0,1065.0,-2.5896,-0.6945,9.2578,-0.0316,-0.0774,-0.1271,-1.4920376998237153,-0.0742470994591713,1.7358380556106567,-1.6265345811843872,-0.0009030485525727272,2.1830568313598633,4.778866152256288,-0.0002998099953401834,0.2560049891471863,-1.4999983946429651,0.0,-0.0322074219584465,0.7287904024124146,-0.0,-0.0012010312639176846,0.7737952470779419,-0.00015744809934403747,0.00042863190174102783
1041.0,1065.0,-2.5896,-0.6945,9.2578,-0.0316,-0.0774,-0.1271,-1.4927851048162957,-0.08503153175115585,1.775625467300415,-1.626510739326477,-8.624086331110448e-05,2.136319637298584,4.7788821561034105,-0.00019554344180505723,0.265249639749527,-1.5000303427325647,0.0,-0.01245727576315403,0.7287821769714355,-0.0,0.0074316454119980335,0.7738191485404968,-0.0001340046728728339,-0.022822368890047073
1041.0,1065.0,-2.5896,-0.6945,9.2578,-0.0316,-0.0774,-0.1271,-1.4935444977930565,-0.08968056738376617,1.7695820331573486,-1.6265511512756348,-6.23289670329541e-05,2.111156463623047,4.778926397650995,-0.0001665822637733072,0.2641618549823761,-1.500054661427633,0.0,-0.007698099594563246,0.7288026213645935,-0.0,-0.0016239238902926445,0.773798942565918,-0.00011974132939940318,-0.02306254766881466
1073.0,1070.0,-2.1308,-1.1252,9.2626,-0.0476,-0.1801,-0.1355,-1.494499572818615,-0.09144312143325806,1.7824575901031494,-1.626555323600769,-0.0001382317568641156,2.145836591720581,4.77891447672204,-0.00014056208601687104,0.2589024007320404,-1.500054661427633,0.0,-0.013637693598866463,0.728806734085083,-0.0,0.007174339611083269,0.7738351821899414,-0.00010568080324446782,-0.03523317724466324
1073.0,1070.0,-2.1308,-1.1252,9.2626,-0.0476,-0.1801,-0.1355,-1.4955029872110863,-0.09751123189926147,1.762381672859192,-1.626538872718811,-0.00010225760343018919,2.178163528442383,4.778838279634275,-0.00014588031626772135,0.27060413360595703,-1.5000503698932093,0.0,-0.02620735391974449,0.7287662029266357,-0.0,-0.007501479238271713,0.7738109827041626,-7.566047133877873e-05,-0.024457871913909912
1073.0,1070.0,-2.1308,-1.1252,9.2626,-0.0476,-0.1801,-0.1355,-1.4963301804712792,-0.10669976472854614,1.722788691520691,-1.6265709400177002,-0.0020952881313860416,2.196282386779785,4.778874385147848,-0.00016428696108050644,0.2621658146381378,-1.5000184218036097,0.0,-0.016936469823122025,0.7288028597831726,-0.0,0.004679528996348381,0.7738515138626099,-5.235440403339453e-05,-0.009886037558317184
1073.0,1070.0,-2.1308,-1.1252,9.2626,-0.0476,-0.1801,-0.1355,-1.497428910141327,-0.12009786069393158,1.7419227361679077,-1.6266107559204102,-0.002277062274515629,2.1305439472198486,4.77882261106328,-0.00012667813280131668,0.2574600577354431,-1.499974552785055,0.0,-0.022679660469293594,0.7288432717323303,-0.0,-0.0017213704995810986,0.7738150954246521,-6.362461863318458e-05,0.005249792709946632
1073.0,1070.0,-2.1308,-1.1252,9.2626,-0.0476,-0.1801,-0.1355,-1.4987002921155472,-0.1340394765138626,1.6967955827713013,-1.6266188621520996,-0.0006415421958081424,2.119908571243286,4.77888664880351,-0.00011341422941768542,0.258184015750885,-1.500042740498678,0.0,-0.02312546595931053,0.7288066744804382,-0.0,0.010989192873239517,0.7738150954246521,-1.7617632693145424e-05,0.007942388765513897
1073.0,1070.0,-2.1308,-1.1252,9.2626,-0.0476,-0.1801,-0.1355,-1.5001509499600907,-0.13845577836036682,1.661642074584961,-1.6266226768493652,-0.0003335307410452515,2.0842738151550293,4.778838279634275,-0.00011750045814551413,0.2564948797225952,-1.5000103155719202,0.0,-0.016824644058942795,0.7288186550140381,-0.0,0.0063283625058829784,0.7737948298454285,-1.604698809387628e-05,0.03266720473766327
1073.0,1070.0,-2.1308,-1.1252,9.2626,-0.0476,-0.1801,-0.1355,-1.5012934294394036,-0.13659627735614777,1.6958088874816895,-1.6265666484832764,-0.00022322220320347697,2.106395959854126,4.778830791800775,-0.00022313874796964228,0.24167737364768982,-1.5000022093402308,0.0,-0.004189102444797754,0.7287580966949463,-0.0,0.012996528297662735,0.7738068699836731,-1.4978707440604921e-05,0.0024363137781620026
1073.0,1070.0,-2.1308,-1.1252,9.2626,-0.0476,-0.1801,-0.1355,-1.502824106519558,-0.16394910216331482,1.6726957559585571,-1.6266627311706543,-0.00883748009800911,2.0558009147644043,4.77874235340909,-0.002731269458308816,0.2372289001941681,-1.4999898115741175,0.0,-0.017627008259296417,0.7288227081298828,-0.0,0.003686218988150358,0.7737866044044495,-1.1961538530502747e-11,0.005375072360038757
1073.0,1070.0,-2.1308,-1.1252,9.2626,-0.0476,-0.1801,-0.1355,-1.5046314981630822,-0.19486504793167114,1.5802807807922363,-1.6267790794372559,-0.013479750603437424,2.052811622619629,4.7787587074335,-0.0010863880161195993,0.23466479778289795,-1.49998647371401,0.0,-0.005105830263346434,0.728798508644104,-0.0,0.010810760781168938,0.7738109827041626,-5.199326135145884e-21,-0.0007404577918350697
1073.0,1070.0,-2.1308,-1.1252,9.2626,-0.0476,-0.1801,-0.1355,-1.5060574200800438,-0.19169685244560242,1.597912311553955,-1.6268304586410522,-0.009143751114606857,2.068678855895996,4.778778354614534,-0.00046119425678625703,0.23375946283340454,-1.4999826590167444,0.0,-0.008544154465198517,0.7288026809692383,-0.0,0.013791536912322044,0.773815393447876,-0.0006238911300897598,0.003359275870025158
8190.0,1066.0,-1.8323,-0.5952,9.5569,-0.0354,-0.2231,-0.1432,-1.5080161777189751,-0.18452531099319458,1.6348568201065063,-1.6268539428710938,-0.00451511749997735,2.039888381958008,4.7788230431969545,-0.00028095487505197525,0.21964974701404572,-1.5000188986407679,0.0,-0.018119271844625473,0.7287744283676147,-0.0,0.0039659482426941395,0.773807168006897,-0.000527723110280931,-0.04379348084330559
8190.0,1066.0,-1.8323,-0.5952,9.5569,-0.0354,-0.2231,-0.1432,-1.5100225333920498,-0.21345655620098114,1.6601500511169434,-1.627007007598877,-0.0056410594843328,2.088621139526367,4.778762767999925,-0.00020206048793625087,0.23257514834403992,-1.499997917805807,0.0,-0.00608779676258564,0.7287420034408569,-0.0,0.010353470221161842,0.7737667560577393,-8.459630771540105e-05,-0.0407947413623333
8190.0,1066.0,-1.8323,-0.5952,9.5569,-0.0354,-0.2231,-0.1432,-1.5121925075403233,-0.22923073172569275,1.6071484088897705,-1.6270266771316528,-0.005709779914468527,2.0709280967712402,4.778798448830404,-0.00015777010412421077,0.2405928373336792,-1.49998647371401,0.0,-0.00807233341038227,0.7288026809692383,-0.0,0.010077621787786484,0.7738233208656311,-5.75355879846029e-05,0.0379512794315815
8190.0,1066.0,-1.8323,-0.5952,9.5569,-0.0354,-0.2231,-0.1432,-1.5139870767346402,-0.22870121896266937,1.67226243019104,-1.6270387172698975,-0.0025486513040959835,2.1167311668395996,4.778846803098478,-0.00010068096889881417,0.24086514115333557,-1.5000465551959437,0.0,-0.0004546097479760647,0.7287821769714355,-0.0,0.008470934815704823,0.7738192081451416,-0.0001374435523757711,-0.03858240321278572
8190.0,1066.0,-1.8323,-0.5952,9.5569,-0.0354,-0.2231,-0.1432,-1.5163177487305184,-0.2266763150691986,1.6756813526153564,-1.6270021200180054,-0.0008091744384728372,2.113755702972412,4.778790297895231,5.96514182689134e-05,0.24480438232421875,-1.5000188986407679,0.0,-0.01717109978199005,0.7287662029266357,-0.0,-0.0023064196575433016,0.7737749814987183,5.0702419684967026e-05,-0.025434575974941254
8190.0,1066.0,-1.8323,-0.5952,9.5569,-0.0354,-0.2231,-0.1432,-1.5185909394970913,-0.23665189743041992,1.7267189025878906,-1.6270747184753418,-0.0005630094092339277,2.159604549407959,4.7788147805030725,5.30613906448707e-05,0.2450341284275055,-1.5000346342669886,0.0,-0.01302697230130434,0.7287541031837463,-0.0,0.009476739913225174,0.7737708687782288,7.915573951322585e-05,-0.01032323483377695
8190.0,1066.0,-1.8323,-0.5952,9.5569,-0.0354,-0.2231,-0.1432,-1.5205013056150456,-0.24613061547279358,1.7239036560058594,-1.6270908117294312,-0.0004288471245672554,2.1250200271606445,4.778798448830404,4.7464262024732307e-05,0.25797924399375916,-1.5000222365008753,0.0,-0.015056468546390533,0.7287785410881042,-0.0,0.007380798924714327,0.7737746834754944,9.699859219836071e-05,0.007301620673388243
8190.0,1066.0,-1.8323,-0.5952,9.5569,-0.0354,-0.2231,-0.1432,-1.5229673025063057,-0.24986830353736877,1.6818909645080566,-1.6270509958267212,-0.0003033429675269872,2.149677276611328,4.778810690134325,4.1934992623282596e-05,0.2566773593425751,-1.5000389258014124,0.0,-0.012600908055901527,0.728786289691925,-0.0,0.009303831495344639,0.773770809173584,8.506528683938086e-05,-0.02795189432799816
8190.0,1066.0,-1.8323,-0.5952,9.5569,-0.0354,-0.2231,-0.1432,-1.5255011294833203,-0.2556571960449219,1.6869773864746094,-1.627058744430542,-0.00023561516718473285,2.1821181774139404,4.778858694225111,5.629708539345302e-05,0.2599342465400696,-1.499981705342428,0.0,-0.010365677997469902,0.728814959526062,-0.0,0.0062828524969518185,0.7737911343574524,8.116900426102802e-05,0.03435461223125458
8190.0,1066.0,-1.8323,-0.5952,9.5569,-0.0354,-0.2231,-0.1432,-1.527599212979414,-0.24792496860027313,1.7906818389892578,-1.6270350217819214,-6.067640060791746e-05,2.1739633083343506,4.77884271272973,6.925553316250443e-05,0.25747114419937134,-1.5000627676593226,0.0,-0.015503667294979095,0.7288109064102173,-0.0,0.0096889091655612,0.7737708687782288,7.176305371103808e-05,-0.044039640575647354
1029.0,1036.0,-1.0463,-0.7011,9.1053,-0.0159,-0.2812,-0.1468,-1.5302166988006611,-0.2649075388908386,1.7358150482177734,-1.6270827054977417,-0.00010372613178333268,2.12819242477417,4.778810690134325,6.3242347096093e-05,0.2716834545135498,-1.5000465551959437,0.0,-0.02673683688044548,0.7287704944610596,-0.0,0.0017000313382595778,0.7738274335861206,5.983495793770999e-05,-0.05062462016940117
1029.0,1036.0,-1.0463,-0.7011,9.1053,-0.0159,-0.2812,-0.1468,-1.533018735503294,-0.2699906826019287,1.778822660446167,-1.627058744430542,-9.075855632545426e-05,2.137042284011841,4.778818952828207,5.813584721181542e-05,0.24347560107707977,-1.5000265280352991,0.0,-0.016379155218601227,0.7287539839744568,-0.0,-0.010464351624250412,0.7737626433372498,-6.358163227559999e-05,0.02397760935127735
1029.0,1036.0,-1.0463,-0.7011,9.1053,-0.0159,-0.2812,-0.1468,-1.5357921880534668,-0.2835613787174225,1.7669258117675781,-1.6269659996032715,-6.045285772415809e-05,2.181722640991211,4.778790305345812,5.379242793424055e-05,0.26955217123031616,-1.5000384489642542,0.0,-0.012156791985034943,0.7287539839744568,-0.0,0.008966927416622639,0.7737385630607605,-4.7027300752233714e-05,0.0033206846565008163
1029.0,1036.0,-1.0463,-0.7011,9.1053,-0.0159,-0.2812,-0.1468,-1.5380541060915967,-0.28143537044525146,1.7653427124023438,-1.6270829439163208,-5.5480599257862195e-05,2.1602237224578857,4.778826701432028,5.0758597353706136e-05,0.2672835886478424,-1.4999898115741175,0.0,-0.011188176460564137,0.7287863492965698,-0.0,0.0036669038236141205,0.7738351821899414,-3.8896767364349216e-05,-0.027648914605379105
1029.0,1036.0,-1.0463,-0.7011,9.1053,-0.0159,-0.2812,-0.1468,-1.5409198098680754,-0.2887212932109833,1.7928977012634277,-1.6269947290420532,-6.70819790684618e-05,2.218533515930176,4.778762343316831,3.754088538698852e-05,0.2653745412826538,-1.4999898115741175,0.0,-0.015178313478827477,0.7288472652435303,-0.0,0.0026372431311756372,0.7737748026847839,-2.129388221305817e-09,-0.009542327374219894
1029.0,1036.0,-1.0463,-0.7011,9.1053,-0.0159,-0.2812,-0.1468,-1.5438291945359488,-0.2976132035255432,1.8007879257202148,-1.6270908117294312,-6.136477168183774e-05,2.192674160003662,4.778830791800775,3.372292121639475e-05,0.2620467245578766,-1.5000346342669886,7.383471825050947e-07,-0.01335090771317482,0.7287904024124146,-0.0,0.006314129568636417,0.7738109827041626,-9.255819148247593e-19,-0.009556395001709461
1029.0,1036.0,-1.0463,-0.7011,9.1053,-0.0159,-0.2812,-0.1468,-1.546135216285922,-0.2981402277946472,1.7717351913452148,-1.6270387172698975,-4.3085936340503395e-05,2.1684744358062744,4.778822625964441,4.7056644689291716e-05,0.25653475522994995,-1.5000188986407679,1.3419093093658407e-11,-0.015418549999594688,0.7288268208503723,-0.0,0.004575877450406551,0.7738311290740967,-2.9987675250897945e-26,-0.04672956466674805
1029.0,1036.0,-1.0463,-0.7011,9.1053,-0.0159,-0.2812,-0.1468,-1.5490682956627388,-0.29964715242385864,1.8369650840759277,-1.6270546913146973,-3.990224649896845e-05,2.151270627975464,4.778830389469423,4.3285715946694836e-05,0.27711230516433716,-1.5000346342669886,1.592397456291953e-17,-0.012640323489904404,0.7288109064102173,-0.0,0.01169131975620985,0.7738229036331177,-1.303475150324362e-35,0.008046087808907032
1029.0,1036.0,-1.0463,-0.7011,9.1053,-0.0159,-0.2812,-0.1468,-1.552033781339862,-0.3009529113769531,1.7948697805404663,-1.6270350217819214,-3.7156667531235144e-05,2.1328892707824707,4.778886626451769,4.0073453419608995e-05,0.255156546831131,-1.5000227133380335,1.8896430921649293e-23,-0.01316126063466072,0.728798508644104,-0.0,0.01812935620546341,0.7737829685211182,-5.605193857299268e-45,0.029847193509340286
1022.0,1018.0,-0.3924,-0.5342,9.9236,-0.026,-0.3105,-0.1486,-1.55507527970288,-0.3051227033138275,1.8655853271484375,-1.6270227432250977,1.5247151168296114e-05,2.204724073410034,4.778846348613062,4.932243609800935e-05,0.27217382192611694,-1.5000508467303675,2.242374227334811e-29,-0.006063489243388176,0.7288026809692383,-0.0,0.008440877310931683,0.7738233208656311,0.0,0.008200227282941341
1022.0,1018.0,-0.3924,-0.5342,9.9236,-0.026,-0.3105,-0.1486,-1.557508909409382,-0.3067713677883148,1.8198058605194092,-1.6270102262496948,3.2146544981515035e-05,2.1391613483428955,4.778834584146299,6.143886275822297e-05,0.27270859479904175,-1.5000384489642542,4.0754044759898115e-34,-0.011471638455986977,0.7288472056388855,-0.0,0.012762164697051048,0.773798942565918,0.0,-0.006994516588747501
1022.0,1018.0,-0.3924,-0.5342,9.9236,-0.026,-0.3105,-0.1486,-1.5605983299067994,-0.3054550290107727,1.8981144428253174,-1.6270265579223633,4.429676482686773e-05,2.178138494491577,4.778910766332903,0.00010514063615119085,0.26513612270355225,-1.499997917805807,4.8361472470931654e-40,-0.0169668048620224,0.7288472056388855,-0.0,0.010759979486465454,0.7738187313079834,0.0,0.017061742022633553
1022.0,1018.0,-0.3924,-0.5342,9.9236,-0.026,-0.3105,-0.1486,-1.5637676639347156,-0.30604133009910583,1.928600549697876,-1.6269986629486084,0.00012253968452569097,2.1431448459625244,4.778875048249521,9.192132711177692e-05,0.2540208697319031,-1.500030819569723,0.0,-0.02595222368836403,0.7288309931755066,-0.0,0.003319252748042345,0.7738229036331177,0.0,-0.01571737229824066
1022.0,1018.0,-0.3924,-0.5342,9.9236,-0.026,-0.3105,-0.1486,-1.566273743086942,-0.30894479155540466,1.920231819152832,-1.6270787715911865,9.630972635932267e-05,2.1960315704345703,4.77884270527915,8.340254862559959e-05,0.26007455587387085,-1.5000584761248987,0.0,-0.01705057919025421,0.7287863492965698,-0.0,0.022004438564181328,0.7738552689552307,0.0,0.052526041865348816
1022.0,1018.0,-0.3924,-0.5342,9.9236,-0.026,-0.3105,-0.1486,-1.5694151956452806,-0.3131110370159149,1.902459740638733,-1.627030849456787,3.7990492273820564e-05,2.1778676509857178,4.778898912459173,7.474415906472132e-05,0.2710888981819153,-1.5000103155719202,0.0,-0.03304804116487503,0.7288792729377747,-0.0,0.01887599751353264,0.7738229632377625,0.000225537340156734,0.0069516319781541824
1022.0,1018.0,-0.3924,-0.5342,9.9236,-0.026,-0.3105,-0.1486,-1.5725237331786097,-0.32084015011787415,1.9588769674301147,-1.627030849456787,3.1369421776616946e-05,2.143063545227051,4.778854656010427,6.771441985620186e-05,0.2760854661464691,-1.5000222365008753,0.0,-0.01007252186536789,0.7288144826889038,-0.0,0.02610943838953972,0.7738310098648071,0.0001876260939752683,-0.046839553862810135
1022.0,1018.0,-0.3924,-0.5342,9.9236,-0.026,-0.3105,-0.1486,-1.574993749658102,-0.3157190978527069,1.9384711980819702,-1.6270102262496948,8.22117508505471e-05,2.186081647872925,4.778870957880773,6.297619256656617e-05,0.27490466833114624,-1.5000022093402308,0.0,-0.00883296225219965,0.7288390398025513,-0.0,0.024134308099746704,0.7738311290740967,0.0001405051298206672,-0.017682217061519623
1022.0,1018.0,-0.3924,-0.5342,9.9236,-0.026,-0.3105,-0.1486,-1.5781032047667445,-0.3102656304836273,1.955622911453247,-1.627030611038208,9.551465336699039e-05,2.184931516647339,4.778858709126272,7.23875273251906e-05,0.2631742060184479,-1.5000465551959437,0.0,-0.020393598824739456,0.7288550734519958,-0.0,0.02611871436238289,0.7738229036331177,0.00014292512787505984,-0.0031345412135124207
1022.0,1018.0,-0.3924,-0.5342,9.9236,-0.026,-0.3105,-0.1486,-1.58111633876943,-0.3089146018028259,1.9745179414749146,-1.6269947290420532,6.324981222860515e-05,2.163137435913086,4.778846363514223,6.699962978018448e-05,0.286988765001297,-1.50006610551943,0.0,-0.021297698840498924,0.7288109064102173,-0.0,0.02161601185798645,0.7738469839096069,0.00014725829532835633,0.045779112726449966
1018.0,973.0,-0.3242,-0.5294,10.0654,-0.0157,-0.256,-0.1495,-1.584205766717428,-0.31234854459762573,2.0208070278167725,-1.6270627975463867,5.661495015374385e-05,2.1520814895629883,4.778870965331354,6.235753244254738e-05,0.27139365673065186,-1.50006610551943,0.0,-0.01503675151616335,0.7287703156471252,-0.0,0.012432119809091091,0.7738671898841858,0.00013185197894927114,0.051565200090408325
1018.0,973.0,-0.3242,-0.5294,10.0654,-0.0157,-0.256,-0.1495,-1.5866877041258753,-0.31421959400177,1.9370317459106445,-1.6269668340682983,6.96451825206168e-05,2.156647205352783,4.778858709126272,5.908267485210672e-05,0.27756959199905396,-1.500030819569723,0.0,-0.009185041300952435,0.7287943959236145,-0.0,0.020497143268585205,0.7738709449768066,0.00012166665692348033,0.02718048170208931
1018.0,973.0,-0.3242,-0.5294,10.0654,-0.0157,-0.256,-0.1495,-1.5897933445372523,-0.3008093535900116,2.0229640007019043,-1.626954197883606,0.0010836174478754401,2.176025152206421,4.778886306076803,0.00013253498764242977,0.2720021605491638,-1.5000265280352991,0.0,-0.04130079224705696,0.7288067936897278,-0.0,0.026538824662566185,0.7738310694694519,0.00011095305671915412,0.0038850950077176094
1018.0,973.0,-0.3242,-0.5294,10.0654,-0.0157,-0.256,-0.1495,-1.592919488946432,-0.30447667837142944,1.986508846282959,-1.626945972442627,0.000619729864411056,2.1514134407043457,4.778882565885343,0.0005732824211008847,0.2889854907989502,-1.500054661427633,0.0,-0.02016088180243969,0.7288227677345276,-0.0,0.01918628439307213,0.7738146185874939,0.00011663022451102734,0.03898557648062706
1018.0,973.0,-0.3242,-0.5294,10.0654,-0.0157,-0.256,-0.1495,-1.5954328976073207,-0.296667218208313,2.0651051998138428,-1.62699556350708,0.0003644332755357027,2.162954568862915,4.778898443072595,0.0004022732318844646,0.2812291383743286,-1.5000584761248987,0.0,-0.02209126204252243,0.7288026213645935,-0.0,0.0011235945858061314,0.7738510370254517,0.0001186980152851902,0.03333582356572151
1018.0,973.0,-0.3242,-0.5294,10.0654,-0.0157,-0.256,-0.1495,-1.5985108814635218,-0.31054097414016724,2.0363426208496094,-1.627007007598877,0.00018145132344216108,2.192500591278076,4.778850416630068,0.0002930573537014425,0.2659434974193573,-1.500037972127096,0.0,-0.012566598132252693,0.7288349866867065,-0.0,0.031104683876037598,0.7738346457481384,0.0001247687469003722,-0.03388047218322754
1018.0,973.0,-0.3242,-0.5294,10.0654,-0.0157,-0.256,-0.1495,-1.6015163860716761,-0.2985047698020935,2.0838325023651123,-1.6270347833633423,0.00013580964878201485,2.1574573516845703,4.778874385147848,0.00023049437731970102,0.2874224781990051,-1.5000627676593226,0.0,-0.020066184923052788,0.7288109064102173,-0.0,0.007574021816253662,0.7737740278244019,0.00012974509445484728,-0.01016245037317276
1018.0,973.0,-0.3242,-0.5294,10.0654,-0.0157,-0.256,-0.1495,-1.6044980488219203,-0.2990877628326416,2.0583572387695312,-1.6270151138305664,0.0001085161929950118,2.197849750518799,4.778902637749471,0.00018994843412656337,0.27479633688926697,-1.5000184218036097,0.0,-0.019223805516958237,0.7287905216217041,-0.0,0.017145315185189247,0.7738346457481384,0.00011902138066943735,-0.001441308413632214
1018.0,973.0,-0.3242,-0.5294,10.0654,-0.0157,-0.256,-0.1495,-1.6067763767638148,-0.2895320653915405,2.074702262878418,-1.626990556716919,0.00012464792234823108,2.1971054077148438,4.778874385147848,0.00016651627083774656,0.2798037528991699,-1.5000384489642542,0.0,-0.011891174130141735,0.7287903428077698,-0.0,0.01356007531285286,0.7738590240478516,0.0001116394778364338,0.0016456330195069313
1018.0,973.0,-0.3242,-0.5294,10.0654,-0.0157,-0.256,-0.1495,-1.609645505944723,-0.2868553698062897,2.093510150909424,-1.6269946098327637,0.00010625296999933198,2.1974575519561768,4.778886306076803,0.000144270685268566,0.28955504298210144,-1.5000503698932093,0.0,-0.008898474276065826,0.7288026213645935,-0.0,0.036358438432216644,0.7738667726516724,0.00016093990416266024,0.02335156686604023
1002.0,953.0,0.1872,-0.7394,9.88,-0.0243,-0.255,-0.1399,-1.6124841175475062,-0.28467023372650146,2.1033427715301514,-1.6269668340682983,6.944189954083413e-05,2.155566930770874,4.778878393560209,0.0001272686931770295,0.2808913588523865,-1.5000465551959437,0.0,-0.013758724555373192,0.7288186550140381,-0.0,-0.0020336005836725235,0.7738387584686279,0.00019112034351564944,-0.005727151408791542
1002.0,953.0,0.1872,-0.7394,9.88,-0.0243,-0.255,-0.1399,-1.6146499119200648,-0.2838515341281891,2.147186279296875,-1.6269584894180298,6.296428182395175e-05,2.1855711936950684,4.7788505656416795,0.00011630386143224314,0.2655622959136963,-1.5000503698932093,0.0,-0.01715831644833088,0.7288103699684143,-0.0,0.018454719334840775,0.7738909721374512,0.00017045003187377006,0.006621670909225941
1002.0,953.0,0.1872,-0.7394,9.88,-0.0243,-0.255,-0.1399,-1.6174560985960902,-0.28118470311164856,2.1304194927215576,-1.6270028352737427,7.518564234487712e-05,2.164386034011841,4.778886313527384,0.0001049966158461757,0.27743008732795715,-1.500042740498678,0.0,-0.018056008964776993,0.7288634181022644,-0.0,0.024615652859210968,0.7738144993782043,0.00017158797709271312,0.04050523787736893
1002.0,953.0,0.1872,-0.7394,9.88,-0.0243,-0.255,-0.1399,-1.6203061542906703,-0.27347463369369507,2.184615135192871,-1.6269954442977905,1.7979793483391404e-05,2.1694488525390625,4.778886291175642,9.569321264280006e-05,0.28376835584640503,-1.500054661427633,0.0,-0.0039861747063696384,0.7288144826889038,-0.0,0.030984852463006973,0.7739152908325195,0.00015331857139244676,0.021036673337221146
1002.0,953.0,0.1872,-0.7394,9.88,-0.0243,-0.255,-0.1399,-1.6224881611266078,-0.2718251049518585,2.146907329559326,-1.6269665956497192,1.664934643486049e-05,2.1263458728790283,4.77888214865283,8.935909863794222e-05,0.2734174430370331,-1.5000627676593226,0.0,-0.013706104829907417,0.7287219762802124,-0.0,0.01908395066857338,0.7738672494888306,0.0001412844576407224,0.0339057594537735
1002.0,953.0,0.1872,-0.7394,9.88,-0.0243,-0.255,-0.1399,-1.6253467998900355,-0.27807971835136414,2.1780736446380615,-1.626987338066101,1.5239743333950173e-05,2.1803112030029297,4.778862732439794,8.253045234596357e-05,0.27509769797325134,-1.5000503698932093,0.0,-0.024660032242536545,0.7287662029266357,-0.0,0.008897603489458561,0.7738750576972961,0.00013911156565882266,0.014998252503573895
1002.0,953.0,0.1872,-0.7394,9.88,-0.0243,-0.255,-0.1399,-1.628115793267721,-0.27506619691848755,2.1880874633789062,-1.6269986629486084,1.4050204299564939e-05,2.2029051780700684,4.778886306076803,7.667151658097282e-05,0.2920190095901489,-1.5000622908221644,0.0,-0.018162425607442856,0.7288308143615723,-0.0,0.006342718843370676,0.7738955020904541,0.00012048782082274556,0.08335691690444946
1002.0,953.0,0.1872,-0.7394,9.88,-0.0243,-0.255,-0.1399,-1.6308981380858363,-0.27566128969192505,2.20186710357666,-1.627031683921814,1.3032911738264374e-05,2.174591302871704,4.7788702947791,7.158922380767763e-05,0.2822868824005127,-1.5000465551959437,0.0,-0.023540519177913666,0.7288349866867065,-0.0,0.01907414197921753,0.7738791704177856,0.00012751414033118635,-0.05519946664571762
1002.0,953.0,0.1872,-0.7394,9.88,-0.0243,-0.255,-0.1399,-1.6330601177611292,-0.26775413751602173,2.234558343887329,-1.6270151138305664,1.6757331877670367e-07,2.1683883666992188,4.778862724989214,6.798409594921395e-05,0.2839491665363312,-1.50006610551943,0.0,-0.0183358546346426,0.7288227677345276,-0.0,0.006443350575864315,0.7739033102989197,9.709109872346744e-05,0.02181781269609928
1002.0,953.0,0.1872,-0.7394,9.88,-0.0243,-0.255,-0.1399,-1.635726114312643,-0.2729032039642334,2.2743771076202393,-1.6270151138305664,7.283914907870036e-17,2.191481590270996,4.778858694225111,6.395815580617636e-05,0.27587494254112244,-1.500054661427633,0.0,-0.026766348630189896,0.728847324848175,-0.0,0.016982195898890495,0.7738586068153381,0.0001051643121172674,0.014376210048794746
998.0,919.0,-0.0317,-0.7202,9.4684,-0.0351,-0.2535,-0.1455,-1.6383282146849574,-0.26416879892349243,2.239102840423584,-1.6269665956497192,3.1661015631218906e-26,2.1679768562316895,4.778838279634275,6.038228457327932e-05,0.2796456217765808,-1.5000303427325647,0.0,-0.021872788667678833,0.7287785410881042,-0.0,0.011510200798511505,0.7738549113273621,9.583275095792487e-05,0.013072751462459564
998.0,919.0,-0.0317,-0.7202,9.4684,-0.0351,-0.2535,-0.1455,-1.6404501400389613,-0.2599777281284332,2.2581591606140137,-1.6270151138305664,1.0257765944748453e-33,2.1934170722961426,4.778890433698454,1.6621779508341206e-08,0.2809757888317108,-1.5000184218036097,0.0,-0.01360178180038929,0.7288432717323303,-0.0,0.004656133241951466,0.7738709449768066,7.456734601873904e-05,-0.018154431134462357
998.0,919.0,-0.0317,-0.7202,9.4684,-0.0351,-0.2535,-0.1455,-1.642980238000387,-0.2574343979358673,2.2718873023986816,-1.626979112625122,4.456129116552918e-43,2.2124812602996826,4.778830359667101,1.9724493712609467e-14,0.29416438937187195,-1.500054661427633,0.0,-0.015222404152154922,0.7287617325782776,-0.0,0.016503382474184036,0.7739033102989197,8.263359632110223e-05,-0.0030934747774153948
998.0,919.0,-0.0317,-0.7202,9.4684,-0.0351,-0.2535,-0.1455,-1.645602365533346,-0.25983765721321106,2.238126039505005,-1.6270225048065186,-0.0,2.1712639331817627,4.778838279634275,2.3406375979830702e-20,0.29031845927238464,-1.5000384489642542,0.0,-0.014507714658975601,0.7288186550140381,-0.0,0.012564342468976974,0.7738955020904541,6.396856042556465e-05,0.030664317309856415
998.0,919.0,-0.0317,-0.7202,9.4684,-0.0351,-0.2535,-0.1455,-1.6481367550291957,-0.2590203285217285,2.23994517326355,-1.626945972442627,-0.0,2.149930238723755,4.778886306076803,2.77755336278473e-26,0.2662059962749481,-1.5001190344439905,0.0,-0.02933071181178093,0.7288186550140381,-0.0,0.0011582921724766493,0.7738223671913147,7.166757859522477e-05,-0.045945003628730774
998.0,919.0,-0.0317,-0.7202,9.4684,-0.0351,-0.2535,-0.1455,-1.6501990757384242,-0.2607300281524658,2.2720425128936768,-1.6269387006759644,-0.0,2.1528377532958984,4.778874385147848,5.048065509662767e-31,0.27582502365112305,-1.5000866095172327,0.0,-0.014714643359184265,0.7288186550140381,-0.0,0.015033427625894547,0.7738667726516724,5.803439853480086e-05,-0.007068645674735308
998.0,919.0,-0.0317,-0.7202,9.4684,-0.0351,-0.2535,-0.1455,-1.6528359852232875,-0.25086715817451477,2.3307864665985107,-1.6269625425338745,-0.0,2.153423309326172,4.77889438250617,5.990365739383548e-37,0.2757364809513092,-1.5000503698932093,0.0,-0.024067938327789307,0.7287904620170593,-0.0,0.020190007984638214,0.7738913297653198,6.402064900612459e-05,0.004208431579172611
998.0,919.0,-0.0317,-0.7202,9.4684,-0.0351,-0.2535,-0.1455,-1.655469080010885,-0.26671162247657776,2.302823066711426,-1.6270471811294556,-0.0,2.1945695877075195,4.778886306076803,7.1045832141268225e-43,0.26792871952056885,-1.5000703970538538,0.0,-0.006678934209048748,0.7287458181381226,-0.0,0.012073223479092121,0.7738872766494751,8.058224921114743e-05,0.015706172212958336
998.0,919.0,-0.0317,-0.7202,9.4684,-0.0351,-0.2535,-0.1455,-1.6576305828490199,-0.2588292062282562,2.336455821990967,-1.6269831657409668,-0.0,2.1682827472686768,4.778890396445551,0.0,0.2855962812900543,-1.5000141302691858,0.0,-0.019684480503201485,0.7288269400596619,-0.0,0.014909278601408005,0.7738709449768066,5.638812750063948e-10,0.02869395539164543
976.0,899.0,0.0305,-0.8782,9.4319,-0.0334,-0.2431,-0.1408,-1.6602803669371546,-0.26743289828300476,2.3446521759033203,-1.627007007598877,-0.0,2.155038356781006,4.778866874962606,0.0,0.2757036089897156,-1.5000947157489222,0.0,-0.013335490599274635,0.7288587093353271,-0.0,0.020835764706134796,0.7738791704177856,6.339582614600658e-05,0.02381795272231102
976.0,899.0,0.0305,-0.8782,9.4319,-0.0334,-0.2431,-0.1408,-1.662912984887594,-0.2561141550540924,2.3316261768341064,-1.626954436302185,-0.0,2.197070598602295,4.778874385147848,0.0,0.28067120909690857,-1.5000703970538538,0.0,-0.023086093366146088,0.7288267016410828,-0.0,0.023186858743429184,0.7738790512084961,6.0972281062277034e-05,0.009700964204967022
976.0,899.0,0.0305,-0.8782,9.4319,-0.0334,-0.2431,-0.1408,-1.6649548015990199,-0.25920796394348145,2.336731433868408,-1.6269710063934326,-0.0,2.2074551582336426,4.778939100890913,0.0,0.28986310958862305,-1.5000785032855433,0.0,-0.008215358480811119,0.7288104295730591,-0.0,0.023880131542682648,0.7738831043243408,6.924796616658568e-05,-0.007970349863171577
976.0,899.0,0.0305,-0.8782,9.4319,-0.0334,-0.2431,-0.1408,-1.667511602441305,-0.264070987701416,2.3967843055725098,-1.6269750595092773,-0.0,2.15442156791687,4.778834531992235,0.0,0.2935982644557953,-1.4999983946429651,0.0,-0.021826134994626045,0.7288468480110168,-0.0,0.02828262746334076,0.7739273905754089,8.70760777615942e-05,-0.014179940335452557
976.0,899.0,0.0305,-0.8782,9.4319,-0.0334,-0.2431,-0.1408,-1.6701656780638636,-0.25840842723846436,2.341761589050293,-1.6269986629486084,-0.0,2.1733813285827637,4.778850543289938,0.0,0.2834406793117523,-1.5000460783587855,0.0,-0.012186514213681221,0.7288916110992432,-0.0,0.027246836572885513,0.7739232182502747,0.00023052026517689228,0.030719317495822906
976.0,899.0,0.0305,-0.8782,9.4319,-0.0334,-0.2431,-0.1408,-1.6726256809630335,-0.2540743350982666,2.338118314743042,-1.6270347833633423,-0.0,2.1605584621429443,4.778874400049009,0.0,0.295242577791214,-1.5000699202166956,0.0,-0.0254169050604105,0.7288386225700378,1.0667339438441559e-06,0.0282735712826252,0.7739070653915405,0.00028921934426762164,0.01195872575044632
976.0,899.0,0.0305,-0.8782,9.4319,-0.0334,-0.2431,-0.1408,-1.6746522388853968,-0.2535611093044281,2.3540661334991455,-1.62693452835083,-0.0,2.1724038124084473,4.778838622360983,0.0,0.29165059328079224,-1.5000622908221644,0.0,-0.01685306616127491,0.7288063168525696,1.9387361507861023e-11,0.02118513733148575,0.7739232182502747,0.0004472714208532125,0.04957689344882965
976.0,899.0,0.0305,-0.8782,9.4319,-0.0334,-0.2431,-0.1408,-1.6771890125670375,-0.25697240233421326,2.4156622886657715,-1.6269831657409668,-0.0,2.1557352542877197,4.778878393560209,0.0,0.28610366582870483,-1.5000622908221644,0.0,-0.014508113265037537,0.7288587689399719,2.3006311511210805e-17,0.03330586105585098,0.773935079574585,0.0007684414740651846,-0.001480076927691698
976.0,899.0,0.0305,-0.8782,9.4319,-0.0334,-0.2431,-0.1408,-1.679730077783102,-0.26180094480514526,2.3534464836120605,-1.6269500255584717,-0.0,2.1488685607910156,4.77882635870532,0.0,0.2908035218715668,-1.5000579992877405,0.0,-0.020647477358579636,0.728822648525238,2.730079723369291e-23,0.028308067470788956,0.7738946676254272,0.000958986405748874,0.031156422570347786
976.0,899.0,0.0305,-0.8782,9.4319,-0.0334,-0.2431,-0.1408,-1.6817637882628382,-0.2601053714752197,2.4449973106384277,-1.626979112625122,-0.0,2.1666979789733887,4.778842362552442,0.0,0.28572165966033936,-1.5000785032855433,0.0,-0.016887880861759186,0.7288628220558167,4.961785834269474e-28,0.02286757528781891,0.7739391922950745,0.0006440645083785057,0.04711827263236046
967.0,902.0,0.6526,-0.7585,9.7274,-0.0283,-0.2349,-0.1423,-1.6843816242613734,-0.25268644094467163,2.446925640106201,-1.6269625425338745,-0.0,2.1592564582824707,4.77888664880351,0.0,0.2926223576068878,-1.5000265280352991,0.0,-0.008262874558568,0.7288109064102173,5.887979112404354e-34,0.016350213438272476,0.7739310264587402,0.0003632928419392556,0.04431764781475067
967.0,902.0,0.6526,-0.7585,9.7274,-0.0283,-0.2349,-0.1423,-1.68703093151235,-0.2602348029613495,2.3787522315979004,-1.6270275115966797,0.00016801651509013027,2.1578471660614014,4.778875018447199,0.0,0.2739022672176361,-1.5000579992877405,0.0,-0.02115294709801674,0.7288345098495483,6.9870563119239e-40,0.03173775225877762,0.7738865613937378,0.0008712443523108959,0.033593494445085526
967.0,902.0,0.6526,-0.7585,9.7274,-0.0283,-0.2349,-0.1423,-1.689632078210348,-0.2559835910797119,2.4132649898529053,-1.626914143562317,0.00011454305786173791,2.146158218383789,4.778862687736311,0.0,0.291606605052948,-1.5000746885882776,0.0,-0.026483936235308647,0.7288184762001038,1.401298464324817e-45,0.02689170092344284,0.773967444896698,0.000919997226446867,0.042929623275995255
967.0,902.0,0.6526,-0.7585,9.7274,-0.0283,-0.2349,-0.1423,-1.6917492351927699,-0.2679091691970825,2.4406275749206543,-1.627015233039856,4.565005292533897e-05,2.1944520473480225,4.778810347407617,0.0,0.28764021396636963,-1.5000503698932093,0.0,-0.007128504104912281,0.7288669943809509,0.0,0.017585614696145058,0.77395099401474,0.001636010711081326,0.01325612235814333
967.0,902.0,0.6526,-0.7585,9.7274,-0.0283,-0.2349,-0.1423,-1.6943828068175257,-0.25077199935913086,2.5063459873199463,-1.627031683921814,7.282856677193195e-05,2.185925006866455,4.778878393560209,0.0,0.283008873462677,-1.5000785032855433,0.0,-0.01695006899535656,0.7288504838943481,0.0,0.022937912493944168,0.7739911079406738,0.0012819552794098854,0.0168510302901268
967.0,902.0,0.6526,-0.7585,9.7274,-0.0283,-0.2349,-0.1423,-1.6969438991942347,-0.2593243718147278,2.447469711303711,-1.6269667148590088,3.0286952096503228e-05,2.1841282844543457,4.7788903815443895,0.0,0.27990052103996277,-1.5000622908221644,0.0,-0.015607835724949837,0.728839099407196,0.0,0.03484759479761124,0.7740113735198975,0.0014720183098688722,0.03939461708068848
967.0,902.0,0.6526,-0.7585,9.7274,-0.0283,-0.2349,-0.1423,-1.6989294491209925,-0.2551577091217041,2.4489524364471436,-1.6269500255584717,2.669365130714141e-05,2.1676321029663086,4.778874385147848,0.0,0.29037877917289734,-1.5000985304461878,0.0,-0.013996101915836334,0.7288427352905273,0.0,0.025963379070162773,0.7740353345870972,0.0020365214440971613,0.036391161382198334
967.0,902.0,0.6526,-0.7585,9.7274,-0.0283,-0.2349,-0.1423,-1.7015148601927699,-0.24948185682296753,2.504715919494629,-1.626987338066101,2.3246275304700248e-05,2.180436372756958,4.778930867999353,0.0,0.29192662239074707,-1.5000303427325647,0.0,-0.01733444817364216,0.7287861108779907,0.0,0.0209036935120821,0.7740151882171631,0.0015511135570704937,-0.0033962056040763855
967.0,902.0,0.6526,-0.7585,9.7274,-0.0283,-0.2349,-0.1423,-1.7039643726744593,-0.24592994153499603,2.505585193634033,-1.6269583702087402,4.117498974665068e-05,2.1855859756469727,4.778866874962606,0.0,0.28512585163116455,-1.5000622908221644,0.0,-0.008413931354880333,0.7288873791694641,0.0,0.010985348373651505,0.7740510702133179,0.001479877857491374,0.021453864872455597
967.0,902.0,0.6526,-0.7585,9.7274,-0.0283,-0.2349,-0.1423,-1.7059060535826625,-0.24253055453300476,2.5029168128967285,-1.6270235776901245,2.106938154611271e-05,2.1120593547821045,4.778858701675691,0.0,0.2988325357437134,-1.5000622908221644,0.0,-0.02478742226958275,0.7288102507591248,0.0,0.035533636808395386,0.774063229560852,0.0017852019518613815,-0.0032426510006189346
885.0,746.0,0.8303,-0.6096,9.8638,-0.0205,-0.2187,-0.135,-1.7082673511900843,-0.24305948615074158,2.5239925384521484,-1.6269915103912354,1.70726707438007e-05,2.1619887351989746,4.778870965331354,0.0,0.28082990646362305,-1.5000823179828089,0.0,-0.024226341396570206,0.7288791537284851,0.0,0.023328814655542374,0.7740591764450073,0.001913143671117723,0.05095541104674339
885.0,746.0,0.8303,-0.6096,9.8638,-0.0205,-0.2187,-0.135,-1.7106405697264613,-0.2440708577632904,2.540092945098877,-1.626990556716919,3.11873372993432e-05,2.179981231689453,4.778882536083021,0.0,0.2828117907047272,-1.5000622908221644,0.0,-0.006147125735878944,0.7288790941238403,0.0,0.012997539713978767,0.7741031646728516,0.0020097673404961824,-0.026797913014888763
885.0,746.0,0.8303,-0.6096,9.8638,-0.0205,-0.2187,-0.135,-1.713076730767721,-0.23866087198257446,2.524425983428955,-1.6269501447677612,5.720628541894257e-05,2.149484872817993,4.778858709126272,0.0,0.2955755293369293,-1.500094238911764,0.0,-0.009127402678132057,0.7287821173667908,0.0,0.013845405541360378,0.7741072773933411,0.0014835154870525002,0.05848517641425133
885.0,746.0,0.8303,-0.6096,9.8638,-0.0205,-0.2187,-0.135,-1.7149220905699671,-0.2285601794719696,2.5368704795837402,-1.626970648765564,6.02302243351005e-05,2.188714027404785,4.778794455319204,0.0,0.2884761691093445,-1.5000985304461878,0.0,-0.019460439682006836,0.7288390398025513,0.0,0.025177303701639175,0.7741434574127197,0.0017739410977810621,0.003841143799945712
885.0,746.0,0.8303,-0.6096,9.8638,-0.0205,-0.2187,-0.135,-1.717398305932516,-0.24541853368282318,2.5431180000305176,-1.6270151138305664,0.00020741116895806044,2.1605634689331055,4.778846393316545,0.0,0.28771504759788513,-1.5000985304461878,0.0,-0.013447970151901245,0.7288391590118408,0.0,0.02700675278902054,0.7741596102714539,0.0029052472673356533,0.06000557541847229
885.0,746.0,0.8303,-0.6096,9.8638,-0.0205,-0.2187,-0.135,-1.7198649845519007,-0.23440976440906525,2.5505008697509766,-1.626950979232788,0.00019738369155675173,2.1704959869384766,4.77890262284831,0.0,0.28639256954193115,-1.5000742117511194,0.0,-0.013492830097675323,0.7288267612457275,0.0,0.01691425032913685,0.7741472721099854,0.0022167277056723833,-0.038238197565078735
885.0,746.0,0.8303,-0.6096,9.8638,-0.0205,-0.2187,-0.135,-1.7217313251891078,-0.2364368438720703,2.612154245376587,-1.6269749402999878,0.0001527175772935152,2.132502555847168,4.778858716576853,0.0,0.28266414999961853,-1.5000904242144983,0.0,-0.013696696609258652,0.7288303375244141,0.0,0.03081674501299858,0.7741873860359192,0.002069304697215557,0.04683762043714523
885.0,746.0,0.8303,-0.6096,9.8638,-0.0205,-0.2187,-0.135,-1.7241822681822718,-0.23817232251167297,2.5578856468200684,-1.6269501447677612,0.00011904679558938369,2.1486382484436035,4.778870346933164,0.0,0.28845399618148804,-1.5000861326800745,0.0,-0.015946734696626663,0.7288628220558167,0.0,0.0319090373814106,0.7741994261741638,0.0017804712988436222,0.019635185599327087
885.0,746.0,0.8303,-0.6096,9.8638,-0.0205,-0.2187,-0.135,-1.726480623284811,-0.22533012926578522,2.61407208442688,-1.6269831657409668,-4.079848440596834e-05,2.1793272495269775,4.7788626728351495,0.0,0.2893063426017761,-1.5000785032855433,0.0,-0.006557726301252842,0.7287861108779907,0.0,0.033015452325344086,0.7742556929588318,0.0012454151874408126,-0.012541614472866058
547.0,460.0,0.7041,-0.4499,9.7292,-0.0134,-0.1898,-0.1338,-1.7288156948485316,-0.23639963567256927,2.5210323333740234,-1.626987338066101,-6.910300726303831e-05,2.177886724472046,4.778862702637472,0.0,0.29581671953201294,-1.5000823179828089,0.0,-0.017465274780988693,0.7289029955863953,0.0,0.021231550723314285,0.7742675542831421,0.002683172235265374,0.0093973558396101
547.0,460.0,0.7041,-0.4499,9.7292,-0.0134,-0.1898,-0.1338,-1.7306906185545863,-0.22899994254112244,2.623652458190918,-1.626954197883606,-1.2110608622606378e-06,2.1517436504364014,4.778890374093809,0.0,0.29782575368881226,-1.5000465551959437,0.0,-0.006475633941590786,0.7288021445274353,0.0,0.042092014104127884,0.7742874026298523,0.0022955213207751513,0.03466673940420151
547.0,460.0,0.7041,-0.4499,9.7292,-0.0134,-0.1898,-0.1338,-1.732828756371969,-0.22131317853927612,2.6026086807250977,-1.626914381980896,-5.264121831750305e-16,2.147576332092285,4.778850595444002,0.0,0.290738046169281,-1.5000579992877405,0.0,-0.013388410210609436,0.7288504838943481,0.0,0.027057332918047905,0.774275541305542,0.0019483702490106225,0.038347262889146805
547.0,460.0,0.7041,-0.4499,9.7292,-0.0134,-0.1898,-0.1338,-1.7349707088866175,-0.21716497838497162,2.671809434890747,-1.6269387006759644,-2.288157122694357e-25,2.133270263671875,4.778846378415384,0.0,0.28399527072906494,-1.5000341574298304,0.0,-0.013088151812553406,0.7288344502449036,5.119668924913334e-11,0.03428874537348747,0.7742751240730286,0.0036847214214503765,0.04426161199808121
547.0,460.0,0.7041,-0.4499,9.7292,-0.0134,-0.1898,-0.1338,-1.7367245159544886,-0.21711497008800507,2.5992555618286133,-1.6270151138305664,-7.413338142749283e-33,2.1340479850769043,4.778858716576853,0.0,0.30133527517318726,-1.5000622908221644,0.0,-0.010283811017870903,0.7288873195648193,9.304744805256767e-16,0.03904012218117714,0.7743232846260071,0.004055604338645935,-0.007664940319955349
547.0,460.0,0.7041,-0.4499,9.7292,-0.0134,-0.1898,-0.1338,-1.7389122448363246,-0.22075118124485016,2.6776328086853027,-1.6269583702087402,-3.222986467947079e-42,2.167665958404541,4.7788943750555894,0.0,0.29601308703422546,-1.500094238911764,0.0,-0.016314009204506874,0.7288669347763062,1.1041617175489822e-21,0.04361145943403244,0.7744118571281433,0.0033874246291816235,0.03279930353164673
547.0,460.0,0.7041,-0.4499,9.7292,-0.0134,-0.1898,-0.1338,-1.741082330743307,-0.2197367250919342,2.616489887237549,-1.6269749402999878,-0.0,2.157099485397339,4.778854648559847,0.0,0.2953869700431824,-1.5000622908221644,0.0,-0.007521699648350477,0.7288587689399719,1.3102702301809014e-27,0.033057842403650284,0.7743831872940063,0.002532572951167822,-0.0017955387011170387
547.0,460.0,0.7041,-0.4499,9.7292,-0.0134,-0.1898,-0.1338,-1.7428647480406703,-0.22020086646080017,2.6581668853759766,-1.6269665956497192,-0.0,2.137824535369873,4.778862754791536,0.0,0.2796459197998047,-1.5000823179828089,0.0,-0.011698884889483452,0.7288505434989929,2.381351426852727e-32,0.03141495957970619,0.7743995189666748,0.0014842201489955187,0.058860547840595245
547.0,460.0,0.7041,-0.4499,9.7292,-0.0134,-0.1898,-0.1338,-1.744990964929098,-0.20954294502735138,2.6685361862182617,-1.626922607421875,-0.0,2.1324777603149414,4.778850431531229,0.0,0.2935866117477417,-1.5000579992877405,0.0,-0.0020361412316560745,0.7288951277732849,2.825867171207905e-38,0.04423241689801216,0.7744036912918091,0.000836484192404896,-4.556216299533844e-05
547.0,460.0,0.7041,-0.4499,9.7292,-0.0134,-0.1898,-0.1338,-1.747145792047018,-0.2140977382659912,2.7023262977600098,-1.626962423324585,-0.0,2.16886305809021,4.778834107309141,0.0,0.29777801036834717,-1.5000622908221644,0.0,-0.023847831413149834,0.7288787364959717,3.363116314379561e-44,0.03309100493788719,0.7743749618530273,0.0010680281557142735,0.010830394923686981
342.0,312.0,1.1952,-0.67,9.7705,-0.02,-0.1833,-0.1316,-1.7493802509703578,-0.22199603915214539,2.7055861949920654,-1.62693452835083,-0.0,2.1018428802490234,4.778818610101499,0.0,0.2902795374393463,-1.5001066366778772,0.0,-0.004342755302786827,0.7288427352905273,0.0,0.05090286582708359,0.7744073271751404,0.0009072893881238997,0.05854092538356781
342.0,312.0,1.1952,-0.67,9.7705,-0.02,-0.1833,-0.1316,-1.7511140308775843,-0.20700502395629883,2.7003769874572754,-1.626962423324585,0.0002497599052730948,2.0995330810546875,4.778910684376516,0.0,0.2938879728317261,-1.5000422636615198,0.0,-0.009540322236716747,0.7288828492164612,2.1640753402607515e-05,0.03903472051024437,0.774427592754364,0.0005023370031267405,0.048973601311445236
342.0,312.0,1.1952,-0.67,9.7705,-0.02,-0.1833,-0.1316,-1.7533494434752406,-0.21446110308170319,2.678255319595337,-1.6269664764404297,0.00011981455463683233,2.1754493713378906,4.7788903442914865,0.0,0.3087739050388336,-1.5000141302691858,0.0,-0.010758528485894203,0.7288386821746826,9.728120494401082e-05,0.04687676206231117,0.7743995189666748,0.00038412975845858455,0.012564077042043209
342.0,312.0,1.1952,-0.67,9.7705,-0.02,-0.1833,-0.1316,-1.7555681667723597,-0.21279653906822205,2.732661247253418,-1.6269500255584717,0.0001292861852562055,2.154653549194336,4.778906698315897,0.0,0.30407583713531494,-1.5000622908221644,0.0,-0.010960163548588753,0.7288222908973694,0.00010534845932852477,0.047167617827653885,0.7743750214576721,0.0002847957657650113,0.05131622776389122
342.0,312.0,1.1952,-0.67,9.7705,-0.02,-0.1833,-0.1316,-1.7572461567320765,-0.1994376927614212,2.8175601959228516,-1.6269387006759644,0.00011306063970550895,2.135470151901245,4.778902630298891,0.0,0.30027276277542114,-1.5000465551959437,0.0,0.006442474201321602,0.7288463711738586,0.0001098108768928796,0.03785109147429466,0.7744114398956299,0.0002738248440437019,-0.02020571008324623
342.0,312.0,1.1952,-0.67,9.7705,-0.02,-0.1833,-0.1316,-1.7591916523375453,-0.2128746062517166,2.7293572425842285,-1.6269789934158325,-9.040859004016966e-05,2.1469485759735107,4.77885057309226,0.0,0.28369224071502686,-1.500054184590475,0.0,-0.0014656659914180636,0.7288504838943481,0.00010455054871272296,0.037346258759498596,0.7743991017341614,0.00019494732259772718,0.05086392164230347
342.0,312.0,1.1952,-0.67,9.7705,-0.02,-0.1833,-0.1316,-1.7612787685790003,-0.20445695519447327,2.748722553253174,-1.62693452835083,-1.7455700174195954e-07,2.11238431930542,4.778882103949346,0.0,0.2896038293838501,-1.5000904242144983,0.0,-0.009865538217127323,0.7289066910743713,0.00011033119517378509,0.04563260078430176,0.7743871808052063,0.00018550462846178561,-0.007123689632862806
342.0,312.0,1.1952,-0.67,9.7705,-0.02,-0.1833,-0.1316,-1.7632810078062953,-0.19754157960414886,2.7790632247924805,-1.6269664764404297,-7.587473649064747e-17,2.176337242126465,4.778886291175642,0.0,0.3024991750717163,-1.50006610551943,0.0,-0.014660083688795567,0.7288382053375244,0.00015513361722696573,0.05411302670836449,0.7744073271751404,0.00018433183140587062,0.07429973036050797
342.0,312.0,1.1952,-0.67,9.7705,-0.02,-0.1833,-0.1316,-1.7648431263365687,-0.1966256946325302,2.7803945541381836,-1.6269019842147827,-2.4582448029756435e-24,2.1436774730682373,4.778870309680261,0.0,0.29840943217277527,-1.500122372304098,0.0,-0.008174133487045765,0.7288787364959717,0.00013672604109160602,0.05589710921049118,0.7744515538215637,0.0001889223203761503,0.06611291319131851
342.0,312.0,1.1952,-0.67,9.7705,-0.02,-0.1833,-0.1316,-1.7667371235289515,-0.19415827095508575,2.7647743225097656,-1.6269184350967407,-1.0685258342653979e-33,2.0880746841430664,4.77887840101079,0.0,0.2979958951473236,-1.5000904242144983,0.0,-0.016572071239352226,0.7289025783538818,0.00014240371820051223,0.04960005730390549,0.7744153141975403,0.00027859819238074124,-0.0009548692032694817
281.0,257.0,0.7926,-0.8094,8.8427,-0.0469,-0.1597,-0.1364,-1.7686196766295375,-0.19397607445716858,2.7816061973571777,-1.6269583702087402,-4.6382979169151445e-43,2.174121856689453,4.778826448112287,0.0,0.2945854961872101,-1.5000665823565882,0.0,-0.011165754869580269,0.7289148569107056,0.00012583512580022216,0.046780072152614594,0.7743991017341614,0.00029510862077586353,0.04665803164243698
281.0,257.0,0.7926,-0.8094,8.8427,-0.0469,-0.1597,-0.1364,-1.7701698742308558,-0.19293560087680817,2.77622127532959,-1.6269184350967407,-0.0,2.102595806121826,4.778886306076803,0.0,0.304587185382843,-1.5000579992877405,0.0,-0.009618270210921764,0.7288749814033508,0.00012933486141264439,0.05083654820919037,0.7744556069374084,0.0002536701795179397,0.08313527703285217
281.0,257.0,0.7926,-0.8094,8.8427,-0.0469,-0.1597,-0.1364,-1.7719718418517054,-0.18630118668079376,2.7805092334747314,-1.6269551515579224,-0.0,2.169034481048584,4.778890441149034,0.0,0.30445846915245056,-1.5000785032855433,0.0,-0.015602938830852509,0.7288627624511719,0.00012135539145674556,0.05418994277715683,0.7744234800338745,0.00024505844339728355,0.034931037575006485
281.0,257.0,0.7926,-0.8094,8.8427,-0.0469,-0.1597,-0.1364,-1.7738586864867152,-0.19010847806930542,2.778432607650757,-1.626922607421875,-0.0,2.141684055328369,4.778878423362531,0.0,0.29217270016670227,-1.5000742117511194,0.0,-0.02756708301603794,0.72880619764328,0.00011069366883020848,0.03869393467903137,0.7744070291519165,0.00019262295973021537,0.030518120154738426
281.0,257.0,0.7926,-0.8094,8.8427,-0.0469,-0.1597,-0.1364,-1.7753354511656703,-0.1824445128440857,2.800098180770874,-1.626950979232788,-0.0,2.161119222640991,4.778854678362169,0.0,0.2972484230995178,-1.5000904242144983,0.0,-0.012980526313185692,0.7288663983345032,0.00010342472523916513,0.051701948046684265,0.7744515538215637,0.0001428654504707083,0.08137038350105286
281.0,257.0,0.7926,-0.8094,8.8427,-0.0469,-0.1597,-0.1364,-1.7771507702269496,-0.17531682550907135,2.836001396179199,-1.626991629600525,-0.0,2.1158370971679688,4.77891073653058,0.0,0.30597710609436035,-1.5000904242144983,0.0,-0.021185699850320816,0.7288828492164612,9.55790892476216e-05,0.03804818540811539,0.7744153141975403,5.7691679103299975e-05,0.08004182577133179
281.0,257.0,0.7926,-0.8094,8.8427,-0.0469,-0.1597,-0.1364,-1.779001852075094,-0.1904260814189911,2.817126512527466,-1.626970648765564,-0.0,2.1440155506134033,4.77889038899497,0.0,0.28959667682647705,-1.5000703970538538,0.0,-0.0093879085034132,0.7288828492164612,9.826538735069335e-05,0.04545503854751587,0.7744395136833191,7.313594352353903e-08,0.03920888155698776
281.0,257.0,0.7926,-0.8094,8.8427,-0.0469,-0.1597,-0.1364,-1.7808596096434535,-0.1790401041507721,2.8079771995544434,-1.6268905401229858,-0.0,2.1479291915893555,4.778930488019743,6.461152723957753e-10,0.30124321579933167,-1.5000579992877405,0.0,-0.03060113452374935,0.7288746237754822,9.484413749305531e-05,0.05598772317171097,0.774427592754364,3.179002001318075e-17,0.012703513726592064
281.0,257.0,0.7926,-0.8094,8.8427,-0.0469,-0.1597,-0.1364,-1.782297750512594,-0.16619430482387543,2.8632283210754395,-1.626902461051941,0.0016731797950342298,2.139101266860962,4.778882163553991,0.0005966911558061838,0.2872397303581238,-1.5000818411456507,0.0,-0.0052714720368385315,0.7288746237754822,9.009680798044428e-05,0.05416056141257286,0.7744597792625427,1.0299560263411178e-24,0.028154898434877396
249.0,237.0,1.9274,-0.5115,9.6156,-0.0249,-0.1573,-0.1277,-1.7840444050230921,-0.1801542192697525,2.83732271194458,-1.6269830465316772,2.0074861772911845e-09,2.1713366508483887,4.778866904764929,0.0002887627051677555,0.2973523736000061,-1.500110928212301,0.0,-0.006178815849125385,0.7288787364959717,8.479168172925711e-05,0.0425381138920784,0.7744234204292297,4.476913397789876e-34,0.06657877564430237
249.0,237.0,1.9274,-0.5115,9.6156,-0.0249,-0.1573,-0.1277,-1.785931249658102,-0.19018307328224182,2.8587307929992676,-1.626922607421875,-3.0603797540607047e-07,2.1503543853759766,4.77889438250617,0.00020605851022992283,0.29296737909317017,-1.500037972127096,0.0,-0.009365294128656387,0.7288627624511719,8.007650467334315e-05,0.04784566909074783,0.7743991017341614,1.9478048654114957e-43,0.07104387134313583
249.0,237.0,1.9274,-0.5115,9.6156,-0.0249,-0.1573,-0.1277,-1.787445684472555,-0.1734580248594284,2.8489022254943848,-1.6269069910049438,-9.915241472649699e-15,2.1200032234191895,4.778886201768675,5.721125489799306e-05,0.2955748438835144,-1.5000742117511194,0.0,-0.01474578958004713,0.7288623452186584,5.664042124209345e-09,0.04326995834708214,0.7744476795196533,0.0,0.024963967502117157
249.0,237.0,1.9274,-0.5115,9.6156,-0.0249,-0.1573,-0.1277,-1.789147516290182,-0.16949179768562317,2.901925563812256,-1.626962423324585,4.874058959103422e-06,2.153201103210449,4.778878043382921,7.806270332366694e-07,0.2898002862930298,-1.5000622908221644,0.0,-0.005629186984151602,0.7288906574249268,6.721322903493121e-15,0.04519416764378548,0.7744316458702087,0.0,0.06584788113832474
249.0,237.0,1.9274,-0.5115,9.6156,-0.0249,-0.1573,-0.1277,-1.7909509144225062,-0.1868692934513092,2.8236045837402344,-1.62693452835083,2.1186085485513494e-15,2.141456127166748,4.7788985697324655,9.263429866929185e-13,0.2973151206970215,-1.500054184590475,0.0,-0.02621913142502308,0.7289148569107056,7.975961425158992e-21,0.04241181164979935,0.7744073271751404,0.0,0.03289869427680969
249.0,237.0,1.9274,-0.5115,9.6156,-0.0249,-0.1573,-0.1277,-1.7927214107909144,-0.17785120010375977,2.8935115337371826,-1.626914381980896,-1.3342972560170807e-10,2.174799919128418,4.778878058284082,1.0992592377782306e-18,0.2982875108718872,-1.500094238911764,0.0,-0.015862008556723595,0.7289108037948608,9.464797052044432e-27,0.05135628581047058,0.7744194269180298,0.0,0.027899131178855896
249.0,237.0,1.9274,-0.5115,9.6156,-0.0249,-0.1573,-0.1277,-1.7940627537169398,-0.16744472086429596,2.931285858154297,-1.626959204673767,-4.322953001091448e-18,2.1598966121673584,4.778910386353292,1.997849407040104e-23,0.2988491356372833,-1.50006610551943,0.0,-0.013051589950919151,0.728898823261261,1.7201798767786286e-31,0.0356961265206337,0.7743831276893616,0.0,0.06239774078130722
249.0,237.0,1.9274,-0.5115,9.6156,-0.0249,-0.1573,-0.1277,-1.7957736454405726,-0.17002035677433014,2.9075169563293457,-1.6268987655639648,0.00016962156223598868,2.1343042850494385,4.778878043382921,2.3707785346028153e-29,0.3017508089542389,-1.5000465551959437,0.0,-0.009039907716214657,0.7288906574249268,2.041277750799081e-37,0.034222930669784546,0.7744194269180298,0.0,-0.004745149984955788
249.0,237.0,1.9274,-0.5115,9.6156,-0.0249,-0.1573,-0.1277,-1.7974840603270472,-0.16779093444347382,2.9029130935668945,-1.6269307136535645,0.00011528656614245847,2.092750072479248,4.778902637749471,2.813320731727558e-35,0.3064649701118469,-1.5000985304461878,0.0,-0.004066959023475647,0.7288906574249268,2.4242463432819335e-43,0.04556185379624367,0.7744677066802979,0.0,0.032035958021879196
249.0,237.0,1.9274,-0.5115,9.6156,-0.0249,-0.1573,-0.1277,-1.7987576923766078,-0.16780135035514832,2.8904671669006348,-1.6269066333770752,9.177228639600798e-05,2.1393840312957764,4.778910691827097,5.113071849613036e-40,0.30986446142196655,-1.5000785032855433,0.0,-0.017240123823285103,0.7288988828659058,0.0,0.03649182617664337,0.7743991017341614,0.0,0.019767608493566513
