ramyac6/ROB537/final_project/csv/all/good_151.csv
tof_0,tof_1,accelx,accely,accelz,gyrox,gyroy,gyroz,shoulder_lift_joint_position,shoulder_lift_joint_velocity,shoulder_lift_joint_effort,elbow_joint_position,elbow_joint_velocity,elbow_joint_effort,wrist_1_joint_position,wrist_1_joint_velocity,wrist_1_joint_effort,wrist_2_joint_position,wrist_2_joint_velocity,wrist_2_joint_effort,wrist_3_joint_position,wrist_3_joint_velocity,wrist_3_joint_effort,shoulder_pan_joint_position,shoulder_pan_joint_velocity,shoulder_pan_joint_effort
377.0,352.0,-1.2855,-0.0299,9.5342,-0.0325,0.0261,-0.1168,-1.7124058208861292,0.0,2.535599708557129,-1.9643168449401855,-0.0,1.9020655155181885,5.264005291252889,-0.0,0.2645479142665863,-1.5694502035724085,0.0,-0.0015681417426094413,0.8184952735900879,-0.0,0.0019302817527204752,0.8161558508872986,0.0,-0.02518324926495552
377.0,352.0,-1.2855,-0.0299,9.5342,-0.0325,0.0261,-0.1168,-1.7123729191222132,0.0,2.533287763595581,-1.9643375873565674,-0.0,1.9208788871765137,5.264005768090048,-0.0,0.27103716135025024,-1.5694826284991663,0.0,-0.002553671132773161,0.8185153007507324,-0.0,0.002219469053670764,0.8161641359329224,0.0,0.004539421759545803
377.0,352.0,-1.2855,-0.0299,9.5342,-0.0325,0.0261,-0.1168,-1.7124015293517054,0.0,2.4664969444274902,-1.9643943309783936,-0.0,1.864398717880249,5.264025795250692,-0.0,0.27707430720329285,-1.569430176411764,0.0,-0.003866064827889204,0.8184993267059326,-0.0,0.0032262394670397043,0.8161235451698303,0.0,0.035410795360803604
377.0,352.0,-1.2855,-0.0299,9.5342,-0.0325,0.0261,-0.1168,-1.7123972378172816,0.0,2.4802234172821045,-1.9643696546554565,-0.0,1.8866446018218994,5.264106440335073,-0.0,0.2694627344608307,-1.5694339911090296,0.0,-0.00978691503405571,0.818535327911377,-0.0,-0.002036235062405467,0.8161559104919434,0.0,-0.01729178987443447
377.0,352.0,-1.2855,-0.0299,9.5342,-0.0325,0.0261,-0.1168,-1.7123691044249476,0.0,2.5355591773986816,-1.9643737077713013,-0.0,1.917950987815857,5.264025795250692,-0.0,0.2815132141113281,-1.5694544951068323,0.0,-0.010404582135379314,0.8184747695922852,-0.0,-0.016990620642900467,0.8161718845367432,0.0,0.0014582518488168716
377.0,352.0,-1.2855,-0.0299,9.5342,-0.0325,0.0261,-0.1168,-1.712381502191061,0.0,2.5308711528778076,-1.9643696546554565,-0.0,1.8578537702560425,5.264049517899313,-0.0,0.27375897765159607,-1.5694306532489222,0.0,-0.009782054461538792,0.8185153007507324,-0.0,0.004128464963287115,0.8161437511444092,0.0,-0.007404562085866928
377.0,352.0,-1.2855,-0.0299,9.5342,-0.0325,0.0261,-0.1168,-1.7123691044249476,0.0,2.518202781677246,-1.964333415031433,-0.0,1.9376742839813232,5.2639852044876,-0.0,0.2712068557739258,-1.5694382826434534,0.0,-0.01961100660264492,0.8185516595840454,-0.0,-0.003585156286135316,0.8161922097206116,0.0,-0.007149494253098965
377.0,352.0,-1.2855,-0.0299,9.5342,-0.0325,0.0261,-0.1168,-1.7123605213561,0.0,2.5057010650634766,-1.9643654823303223,-0.0,1.8931479454040527,5.264021622925558,-0.0,0.2744009494781494,-1.5694459120379847,0.0,-0.008036340586841106,0.818535327911377,-0.0,-0.001141201937571168,0.8161683082580566,0.0,-0.012373080477118492
363.0,355.0,-1.3184,-0.0724,9.4792,-0.0341,0.0214,-0.117,-1.7124058208861292,0.0,2.5236029624938965,-1.9643417596817017,-0.0,1.9212405681610107,5.264005291252889,-0.0,0.27169594168663025,-1.5694869200335901,0.0,-0.015477849170565605,0.8185873627662659,-0.0,-0.008589047007262707,0.8161517977714539,0.0,-0.05503695458173752
363.0,355.0,-1.3184,-0.0724,9.4792,-0.0341,0.0214,-0.117,-1.712393423120016,0.0,2.512463092803955,-1.9643498659133911,-0.0,1.9000074863433838,5.263997125416555,-0.0,0.27324265241622925,-1.5694425741778772,0.0,-0.024296818301081657,0.8185755014419556,-0.0,-0.007776153273880482,0.8161558508872986,0.0,-0.019281096756458282
363.0,355.0,-1.3184,-0.0724,9.4792,-0.0341,0.0214,-0.117,-1.7123614750304164,0.0,2.50408935546875,-1.9643127918243408,-0.0,1.881197452545166,5.264017629414358,-0.0,0.2715921998023987,-1.5694459120379847,0.0,-0.012941114604473114,0.8184829950332642,-0.0,-0.0063280765898525715,0.8161355257034302,0.0,0.01145111583173275
363.0,355.0,-1.3184,-0.0724,9.4792,-0.0341,0.0214,-0.117,-1.7123605213561,0.0,2.5372955799102783,-1.964341640472412,-0.0,1.9119378328323364,5.264029490738668,-0.0,0.27543091773986816,-1.569430176411764,0.0,-0.01701626367866993,0.8184788823127747,-0.0,0.0032001016661524773,0.8161277174949646,0.0,0.016192417591810226
363.0,355.0,-1.3184,-0.0724,9.4792,-0.0341,0.0214,-0.117,-1.71242155651235,0.0,2.477776527404785,-1.9643540382385254,-0.0,1.9134166240692139,5.264041769295492,-0.0,0.2717868387699127,-1.56940204301943,0.0,0.0006322183180600405,0.81856769323349,-0.0,0.011954414658248425,0.8161355257034302,0.0,-0.07255314290523529
363.0,355.0,-1.3184,-0.0724,9.4792,-0.0341,0.0214,-0.117,-1.7123810253539027,0.0,2.5058460235595703,-1.9643654823303223,-0.0,1.9157129526138306,5.264021622925558,-0.0,0.27783843874931335,-1.5694339911090296,0.0,0.004073489457368851,0.8185152411460876,-0.0,-0.0017680820310488343,0.8161359429359436,0.0,-0.03319626301527023
363.0,355.0,-1.3184,-0.0724,9.4792,-0.0341,0.0214,-0.117,-1.7124096355833949,0.0,2.511925220489502,-1.9643498659133911,-0.0,1.8637096881866455,5.264037596970358,-0.0,0.2738761007785797,-1.5694425741778772,0.0,-0.013134274631738663,0.8184710741043091,-0.0,0.0020907274447381496,0.8161476850509644,0.0,0.01741333119571209
363.0,355.0,-1.3184,-0.0724,9.4792,-0.0341,0.0214,-0.117,-1.7124015293517054,0.0,2.508563756942749,-1.9643540382385254,-0.0,1.9468528032302856,5.264001238137045,-0.0,0.2703806161880493,-1.5694544951068323,0.0,-0.004602054134011269,0.8184992671012878,-0.0,0.001510397414676845,0.8161519765853882,0.0,-0.029224608093500137
363.0,355.0,-1.3184,-0.0724,9.4792,-0.0341,0.0214,-0.117,-1.7123729191222132,0.0,2.499904155731201,-1.9643580913543701,-0.0,1.8489856719970703,5.264005291252889,-0.0,0.25808483362197876,-1.5694339911090296,0.0,0.003666456788778305,0.818523108959198,-0.0,0.006866407115012407,0.8161235451698303,0.0,-0.04488520696759224
363.0,355.0,-1.3184,-0.0724,9.4792,-0.0341,0.0214,-0.117,-1.712320467034811,0.0,2.514569044113159,-1.9643819332122803,-0.0,1.956357479095459,5.264017569809713,-0.0,0.2623726725578308,-1.5694745222674769,0.0,-0.02065989188849926,0.8185071349143982,-0.0,-0.002445932012051344,0.8161318302154541,0.0,-0.006207246799021959
363.0,355.0,-1.3184,-0.0724,9.4792,-0.0341,0.0214,-0.117,-1.7124091587462367,0.0,2.5922508239746094,-1.9643540382385254,-0.0,1.858222246170044,5.264021622925558,-0.0,0.26816803216934204,-1.5694382826434534,0.0,-0.0025842678733170033,0.8185554146766663,-0.0,-0.008450277149677277,0.8161195516586304,0.0,0.009839546866714954
363.0,355.0,-1.3184,-0.0724,9.4792,-0.0341,0.0214,-0.117,-1.7123691044249476,0.0,2.5203800201416016,-1.9643540382385254,-0.0,1.9159408807754517,5.264005291252889,-0.0,0.2790011465549469,-1.569430176411764,0.0,-0.007335863541811705,0.8184587955474854,-0.0,0.002158684888854623,0.8161478042602539,0.0,0.025926973670721054
363.0,355.0,-1.3184,-0.0724,9.4792,-0.0341,0.0214,-0.117,-1.7124058208861292,0.0,2.537933826446533,-1.9643654823303223,-0.0,1.9328240156173706,5.264005291252889,-0.0,0.27791324257850647,-1.5694826284991663,0.0,-0.01734185963869095,0.818535327911377,-0.0,0.01257522962987423,0.8161559104919434,0.0,-0.011233681812882423
363.0,355.0,-1.3184,-0.0724,9.4792,-0.0341,0.0214,-0.117,-1.7123691044249476,0.0,2.5207607746124268,-1.9643210172653198,-0.0,1.9552106857299805,5.264025795250692,-0.0,0.26745933294296265,-1.5694425741778772,0.0,-0.006946288514882326,0.8185995221138,-0.0,-0.0031841984018683434,0.8161839842796326,0.0,0.008613542653620243
363.0,355.0,-1.3184,-0.0724,9.4792,-0.0341,0.0214,-0.117,-1.7124182186522425,0.0,2.512484550476074,-1.9643654823303223,-0.0,1.9284083843231201,5.263993489533224,-0.0,0.2790548801422119,-1.5694425741778772,0.0,-0.012640428729355335,0.8184747695922852,-0.0,-0.004721512086689472,0.8161476850509644,0.0,0.007026537787169218
367.0,356.0,-1.346,-0.0837,9.6628,-0.0403,0.0214,-0.1121,-1.7124535046019496,0.0,2.519684314727783,-1.9643902778625488,-0.0,1.9228088855743408,5.264025795250692,-0.0,0.26899927854537964,-1.569413963948385,0.0,-0.00691266031935811,0.8185394406318665,-0.0,0.00782008096575737,0.8161478042602539,0.0,0.03161865100264549
367.0,356.0,-1.346,-0.0837,9.6628,-0.0403,0.0214,-0.1121,-1.7124015293517054,0.0,2.5422866344451904,-1.9643861055374146,-0.0,1.9292914867401123,5.2639852044876,-0.0,0.27978798747062683,-1.5694788138019007,0.0,-0.009263703599572182,0.8184989094734192,-0.0,0.007325503043830395,0.8161600828170776,0.0,0.0047284625470638275
367.0,356.0,-1.346,-0.0837,9.6628,-0.0403,0.0214,-0.1121,-1.7123691044249476,0.0,2.529298782348633,-1.9643580913543701,-0.0,1.9206695556640625,5.264033961087026,-0.0,0.27215054631233215,-1.5694182554828089,0.0,-0.0075120627880096436,0.818523108959198,-0.0,0.008662667125463486,0.8161519765853882,0.0,-0.0011850465089082718
367.0,356.0,-1.346,-0.0837,9.6628,-0.0403,0.0214,-0.1121,-1.712349077264303,0.0,2.4941537380218506,-1.9643498659133911,-0.0,1.9215768575668335,5.264029848366537,-0.0,0.2712442874908447,-1.569470230733053,0.0,-0.013419294729828835,0.818543553352356,-0.0,0.0024478924460709095,0.8161195516586304,0.0,-0.025292059406638145
367.0,356.0,-1.346,-0.0837,9.6628,-0.0403,0.0214,-0.1121,-1.712393423120016,0.0,2.565244197845459,-1.9643458127975464,-0.0,1.9056822061538696,5.264013457089224,-0.0,0.2754438519477844,-1.5694382826434534,0.0,-0.00674459058791399,0.8185272216796875,-0.0,0.004184103570878506,0.8161801695823669,0.0,-0.03115048259496689
367.0,356.0,-1.346,-0.0837,9.6628,-0.0403,0.0214,-0.1121,-1.7124096355833949,0.0,2.5256576538085938,-1.964333415031433,-0.0,1.9335134029388428,5.264025378018179,-0.0,0.2775901257991791,-1.569413963948385,0.0,-0.005915547721087933,0.8185393810272217,-0.0,-0.010490812361240387,0.8161718845367432,0.0,-0.004335086792707443
367.0,356.0,-1.346,-0.0837,9.6628,-0.0403,0.0214,-0.1121,-1.7124091587462367,0.0,2.488532066345215,-1.9643654823303223,-0.0,1.8875117301940918,5.263940679817953,-0.0,0.2651962637901306,-1.5694869200335901,0.0,-0.014872189611196518,0.818547248840332,-0.0,-0.0050978027284145355,0.8161600828170776,0.0,-0.0007768869400024414
367.0,356.0,-1.346,-0.0837,9.6628,-0.0403,0.0214,-0.1121,-1.7124096355833949,0.0,2.5065526962280273,-1.9643250703811646,-0.0,1.8999298810958862,5.264005291252889,-0.0,0.27100858092308044,-1.5694621245013636,0.0,-0.006632569245994091,0.8185553550720215,-0.0,0.00034517724998295307,0.8161359429359436,0.0,0.008154532872140408
367.0,356.0,-1.346,-0.0837,9.6628,-0.0403,0.0214,-0.1121,-1.7124258480467738,0.0,2.5270915031433105,-1.9643614292144775,-0.0,1.8985105752944946,5.264017569809713,-0.0,0.2755085229873657,-1.5694745222674769,0.0,-0.013138877227902412,0.8185873627662659,-0.0,-0.0014963023131713271,0.8161683082580566,0.0,0.026605328544974327
367.0,356.0,-1.346,-0.0837,9.6628,-0.0403,0.0214,-0.1121,-1.7123848400511683,0.0,2.497763156890869,-1.9643573760986328,-0.0,1.8927600383758545,5.264001238137045,-0.0,0.27895820140838623,-1.5694940725909632,0.0,-0.006047701928764582,0.8185632228851318,-0.0,0.014191800728440285,0.8161799311637878,0.0,0.008872093632817268
367.0,356.0,-1.346,-0.0837,9.6628,-0.0403,0.0214,-0.1121,-1.7124620876707972,0.0,2.541450262069702,-1.9643614292144775,-0.0,1.9222674369812012,5.264025795250692,-0.0,0.2893792986869812,-1.5694382826434534,0.0,-0.010721870698034763,0.8185476660728455,-0.0,-0.012501242570579052,0.8161318302154541,0.0,-0.02945864200592041
367.0,356.0,-1.346,-0.0837,9.6628,-0.0403,0.0214,-0.1121,-1.712381502191061,0.0,2.472576856613159,-1.9643498659133911,-0.0,1.9112489223480225,5.264009463578024,-0.0,0.2701350450515747,-1.5694459120379847,0.0,0.0031752758659422398,0.8184951543807983,-0.0,0.004157370887696743,0.8161277770996094,0.0,-0.012193867936730385
367.0,356.0,-1.346,-0.0837,9.6628,-0.0403,0.0214,-0.1121,-1.7124177418150843,0.0,2.5291831493377686,-1.9643375873565674,-0.0,1.951180338859558,5.26398931720809,-0.0,0.2679898142814636,-1.5694745222674769,0.0,-0.009411361068487167,0.8185836672782898,-0.0,0.012294511310756207,0.8161922097206116,0.0,0.03260769695043564
367.0,356.0,-1.346,-0.0837,9.6628,-0.0403,0.0214,-0.1121,-1.7123528919615687,0.0,2.503922939300537,-1.9643211364746094,-0.0,1.8620316982269287,5.264021622925558,-0.0,0.26610711216926575,-1.569458309804098,0.0,-0.003690382232889533,0.8185230493545532,-0.0,0.0014235528651624918,0.8161395788192749,0.0,-0.01741672120988369
380.0,367.0,-1.2975,-0.0455,9.5025,-0.0263,0.026,-0.1187,-1.7123891315855921,0.0,2.525085926055908,-1.9643126726150513,-0.0,1.9154937267303467,5.263997125416555,-0.0,0.2822381556034088,-1.5693815390216272,0.0,-0.004272119607776403,0.8184747695922852,-0.0,0.0012256044428795576,0.8161477446556091,0.0,0.012496612034738064
380.0,367.0,-1.2975,-0.0455,9.5025,-0.0263,0.026,-0.1187,-1.712405344048971,0.0,2.501645088195801,-1.9643819332122803,-0.0,1.8998162746429443,5.264033543854513,-0.0,0.2805851101875305,-1.5694258848773401,0.0,-0.0010999040678143501,0.8185394406318665,-0.0,0.0012888717465102673,0.8161277770996094,0.0,-0.014633298851549625
380.0,367.0,-1.2975,-0.0455,9.5025,-0.0263,0.026,-0.1187,-1.7124134502806605,0.0,2.5064704418182373,-1.9643208980560303,-0.0,1.9140169620513916,5.264001238137045,-0.0,0.27842724323272705,-1.5694502035724085,0.0,-0.01648525334894657,0.8185434937477112,-0.0,0.008219927549362183,0.8161395788192749,0.0,0.023712173104286194
380.0,367.0,-1.2975,-0.0455,9.5025,-0.0263,0.026,-0.1187,-1.7124177418150843,0.0,2.490621328353882,-1.9643540382385254,-0.0,1.9627197980880737,5.2640458820159814,-0.0,0.26994913816452026,-1.5694626013385218,0.0,-0.003170328214764595,0.8184869885444641,-0.0,-0.0026237759739160538,0.8161678314208984,0.0,-0.03940679877996445
380.0,367.0,-1.2975,-0.0455,9.5025,-0.0263,0.026,-0.1187,-1.7124134502806605,0.0,2.5040688514709473,-1.9643696546554565,-0.0,1.9320656061172485,5.264001238137045,-0.0,0.2671266794204712,-1.569430176411764,0.0,-0.010986270383000374,0.8184870481491089,-0.0,0.00446839164942503,0.8161718845367432,0.0,0.0033430117182433605
380.0,367.0,-1.2975,-0.0455,9.5025,-0.0263,0.026,-0.1187,-1.7123810253539027,0.0,2.5031440258026123,-1.9643778800964355,-0.0,1.8843789100646973,5.264025795250692,-0.0,0.27278003096580505,-1.5694502035724085,0.0,-0.003031392814591527,0.8185230493545532,-0.0,-0.000173147302120924,0.8161683082580566,0.0,-0.017429746687412262
380.0,367.0,-1.2975,-0.0455,9.5025,-0.0263,0.026,-0.1187,-1.7123729191222132,0.0,2.5033841133117676,-1.9643580913543701,-0.0,1.9263875484466553,5.264005291252889,-0.0,0.27383583784103394,-1.5694459120379847,0.0,-0.0007738303393125534,0.8185553550720215,-0.0,-0.010245328769087791,0.8161355257034302,0.0,-0.030677633360028267
380.0,367.0,-1.2975,-0.0455,9.5025,-0.0263,0.026,-0.1187,-1.7124377689757289,0.0,2.5361294746398926,-1.9644109010696411,-0.0,1.8592300415039062,5.2639852044876,-0.0,0.26471567153930664,-1.5694382826434534,0.0,-0.01377113163471222,0.8184629082679749,-0.0,-0.008659287355840206,0.8161637783050537,0.0,0.0020399093627929688
380.0,367.0,-1.2975,-0.0455,9.5025,-0.0263,0.026,-0.1187,-1.71242155651235,0.0,2.5342485904693604,-1.964341640472412,-0.0,1.9181662797927856,5.264017569809713,-0.0,0.26556795835494995,-1.5694502035724085,0.0,-0.008363721892237663,0.8185796141624451,-0.0,-0.005762710236012936,0.8161156177520752,0.0,-0.006642641965299845
380.0,367.0,-1.2975,-0.0455,9.5025,-0.0263,0.026,-0.1187,-1.7124377689757289,0.0,2.534991502761841,-1.9643292427062988,-0.0,1.9641327857971191,5.264037596970358,-0.0,0.2610071897506714,-1.5694664160357874,0.0,-0.009412010200321674,0.8184952139854431,-0.0,0.010894456878304482,0.8161723613739014,0.0,-0.01859399490058422
380.0,367.0,-1.2975,-0.0455,9.5025,-0.0263,0.026,-0.1187,-1.7123891315855921,0.0,2.5133066177368164,-1.9644222259521484,-0.0,1.9146842956542969,5.264017629414358,-0.0,0.26855283975601196,-1.5693939367877405,0.0,-0.005465653259307146,0.8185070753097534,-0.0,0.00495375320315361,0.8161194920539856,0.0,-0.005624593701213598
380.0,367.0,-1.2975,-0.0455,9.5025,-0.0263,0.026,-0.1187,-1.712393423120016,0.0,2.4828412532806396,-1.9643498659133911,-0.0,1.9371010065078735,5.264001238137045,-0.0,0.2712773382663727,-1.5694382826434534,0.0,-0.0071969106793403625,0.818543553352356,-0.0,-0.005304975900799036,0.8161600828170776,0.0,0.018719997256994247
380.0,367.0,-1.2975,-0.0455,9.5025,-0.0263,0.026,-0.1187,-1.7123848400511683,0.0,2.5313560962677,-1.9643738269805908,-0.0,1.8979133367538452,5.264069604664602,-0.0,0.2673943340778351,-1.569430176411764,0.0,-0.010415872558951378,0.8185034394264221,-0.0,0.007715270388871431,0.8161395788192749,0.0,-0.016142917796969414
380.0,367.0,-1.2975,-0.0455,9.5025,-0.0263,0.026,-0.1187,-1.7123691044249476,0.0,2.51708984375,-1.9643696546554565,-0.0,1.9086122512817383,5.264045464783468,-0.0,0.2738162875175476,-1.5694425741778772,0.0,0.009700724855065346,0.8185915350914001,-0.0,-0.01477549783885479,0.8161840438842773,0.0,0.0023379381746053696
380.0,367.0,-1.2975,-0.0455,9.5025,-0.0263,0.026,-0.1187,-1.7124258480467738,0.0,2.4902291297912598,-1.9643086194992065,-0.0,1.8945136070251465,5.264025378018179,-0.0,0.2710730731487274,-1.5694544951068323,0.0,-0.01219724677503109,0.818543553352356,-0.0,-0.004477554466575384,0.8161355257034302,0.0,0.04536546394228935
376.0,353.0,-1.3561,-0.0598,9.7202,-0.0302,0.0223,-0.1151,-1.7123972378172816,0.0,2.5340938568115234,-1.964362382888794,-0.0,1.896327257156372,5.264033543854513,-0.0,0.28451788425445557,-1.5694058577166956,0.0,-0.01306686457246542,0.8185230493545532,-0.0,0.0006465567275881767,0.8161115646362305,0.0,-0.019149895757436752
376.0,353.0,-1.3561,-0.0598,9.7202,-0.0302,0.0223,-0.1151,-1.7123972378172816,0.0,2.51704740524292,-1.9643540382385254,-0.0,1.9413100481033325,5.264017569809713,-0.0,0.2763276696205139,-1.569413963948385,0.0,-0.014813240617513657,0.8185477256774902,-0.0,-0.01540732104331255,0.8161197900772095,0.0,-0.028058452531695366
376.0,353.0,-1.3561,-0.0598,9.7202,-0.0302,0.0223,-0.1151,-1.7124253712096156,0.0,2.5328638553619385,-1.964333415031433,-0.0,1.9089469909667969,5.264029848366537,-0.0,0.27972400188446045,-1.5694382826434534,0.0,-0.011451023630797863,0.8184909820556641,-0.0,0.001771752955392003,0.8161801695823669,0.0,-0.022645343095064163
376.0,353.0,-1.3561,-0.0598,9.7202,-0.0302,0.0223,-0.1151,-1.7123891315855921,0.0,2.5194594860076904,-1.9643696546554565,-0.0,1.9304454326629639,5.264021622925558,-0.0,0.2803005576133728,-1.569470230733053,0.0,-0.014036301523447037,0.8185230493545532,-0.0,0.00032390886917710304,0.8161437511444092,0.0,0.03134327381849289
376.0,353.0,-1.3561,-0.0598,9.7202,-0.0302,0.0223,-0.1151,-1.7124058208861292,0.0,2.522019863128662,-1.9643985033035278,-0.0,1.963182806968689,5.26398931720809,-0.0,0.27974292635917664,-1.5694502035724085,0.0,0.0074486397206783295,0.8185393810272217,-0.0,0.009688645601272583,0.8161518573760986,0.0,-0.04604829102754593
376.0,353.0,-1.3561,-0.0598,9.7202,-0.0302,0.0223,-0.1151,-1.7123691044249476,0.0,2.5141375064849854,-1.9643211364746094,-0.0,1.8980400562286377,5.263973283558645,-0.0,0.2796485424041748,-1.5694459120379847,0.0,-0.020204436033964157,0.818535327911377,-0.0,0.017364107072353363,0.8161842823028564,0.0,0.027527906000614166
376.0,353.0,-1.3561,-0.0598,9.7202,-0.0302,0.0223,-0.1151,-1.7124134502806605,0.0,2.5234928131103516,-1.9643292427062988,-0.0,1.9251123666763306,5.264025795250692,-0.0,0.27085256576538086,-1.5694382826434534,0.0,-0.012049265205860138,0.8185475468635559,-0.0,0.008261783979833126,0.8161641955375671,0.0,-0.03498777747154236
376.0,353.0,-1.3561,-0.0598,9.7202,-0.0302,0.0223,-0.1151,-1.712393423120016,0.0,2.5208497047424316,-1.9643696546554565,-0.0,1.9063725471496582,5.264017569809713,-0.0,0.26903510093688965,-1.5694621245013636,0.0,-0.022011836990714073,0.8184912204742432,-0.0,0.001365763833746314,0.8162046074867249,0.0,-2.0096544176340103e-05
376.0,353.0,-1.3561,-0.0598,9.7202,-0.0302,0.0223,-0.1151,-1.71242155651235,0.0,2.516470432281494,-1.9644098281860352,-0.0,1.8757274150848389,5.264021622925558,-0.0,0.26914137601852417,-1.5694382826434534,0.0,0.004079484846442938,0.8185393810272217,-0.0,0.009072834625840187,0.8161437511444092,0.0,-0.0015997868031263351
376.0,353.0,-1.3561,-0.0598,9.7202,-0.0302,0.0223,-0.1151,-1.7124096355833949,0.0,2.5027074813842773,-1.9643738269805908,-0.0,1.9324779510498047,5.264005291252889,-0.0,0.27274829149246216,-1.5694544951068323,0.0,-0.011317446827888489,0.8184788823127747,-0.0,-0.00623868964612484,0.8161761164665222,0.0,-0.02457539364695549
376.0,353.0,-1.3561,-0.0598,9.7202,-0.0302,0.0223,-0.1151,-1.7123848400511683,0.0,2.4958527088165283,-1.9643983840942383,-0.0,1.8807358741760254,5.263993489533224,-0.0,0.28054043650627136,-1.5694382826434534,0.0,0.0013053491711616516,0.81856369972229,-0.0,-0.01409815438091755,0.816107451915741,0.0,0.01273827999830246
376.0,353.0,-1.3561,-0.0598,9.7202,-0.0302,0.0223,-0.1151,-1.71242155651235,0.0,2.5120673179626465,-1.9643778800964355,-0.0,1.9143037796020508,5.264037596970358,-0.0,0.2777029871940613,-1.5694263617144983,0.0,-0.003946118056774139,0.8185679912567139,-0.0,0.0007111621089279652,0.8161437511444092,0.0,-0.002892135176807642
376.0,353.0,-1.3561,-0.0598,9.7202,-0.0302,0.0223,-0.1151,-1.7124377689757289,0.0,2.5030295848846436,-1.9643458127975464,-0.0,1.9132087230682373,5.264021622925558,-0.0,0.2875102460384369,-1.5694745222674769,1.2110856317804064e-08,-0.015831567347049713,0.8184472322463989,-0.0,0.009699592366814613,0.8161236047744751,0.0,0.014499044045805931
376.0,353.0,-1.3561,-0.0598,9.7202,-0.0302,0.0223,-0.1151,-1.7124134502806605,0.0,2.461540699005127,-1.964333415031433,-0.0,1.9356951713562012,5.264049517899313,-0.0,0.2653312087059021,-1.5694459120379847,3.371101574972668e-12,-0.011907597072422504,0.818543553352356,-0.0,0.0034786807373166084,0.8161559104919434,0.0,-0.015797175467014313
376.0,353.0,-1.3561,-0.0598,9.7202,-0.0302,0.0223,-0.1151,-1.71242155651235,0.0,2.5301108360290527,-1.964341640472412,-0.0,1.9069679975509644,5.264021622925558,-0.0,0.2748902440071106,-1.569430176411764,9.383585573196013e-16,-0.01109227817505598,0.8185153007507324,-0.0,0.00761078018695116,0.8161195516586304,0.0,-0.04806450009346008
375.0,362.0,-1.3645,-0.0395,9.682,-0.0327,0.0214,-0.113,-1.7123810253539027,0.0,2.530918836593628,-1.9643012285232544,-0.0,1.8913908004760742,5.263997125416555,-0.0,0.27062779664993286,-1.5694220701800745,2.611955391528135e-19,-0.014888070523738861,0.8185796141624451,-0.0,0.002021434949710965,0.8161718845367432,0.0,0.014861661940813065
375.0,362.0,-1.3645,-0.0395,9.682,-0.0327,0.0214,-0.113,-1.712433477441305,0.0,2.496182918548584,-1.9643737077713013,-0.0,1.9039814472198486,5.263997125416555,-0.0,0.2723459005355835,-1.569470230733053,7.270473424097038e-23,-0.008288215845823288,0.818543553352356,-0.0,-0.0006899898871779442,0.8161600828170776,0.0,-0.0005688969977200031
375.0,362.0,-1.3645,-0.0395,9.682,-0.0327,0.0214,-0.113,-1.7123366794981898,0.0,2.49973726272583,-1.9642691612243652,-0.0,1.9149296283721924,5.264017569809713,-0.0,0.28053948283195496,-1.56940204301943,2.023762871479032e-26,-0.015728142112493515,0.818535327911377,-0.0,0.015599907375872135,0.8161395788192749,0.0,0.0027414700016379356
375.0,362.0,-1.3645,-0.0395,9.682,-0.0327,0.0214,-0.113,-1.7124377689757289,0.0,2.5573959350585938,-1.964362382888794,-0.0,1.9074636697769165,5.264053630619802,-0.0,0.2712579667568207,-1.569430176411764,2.0328150640125386e-05,-0.015333437360823154,0.8185513019561768,-0.0,-0.0019683674909174442,0.8160956501960754,0.0,0.01886139065027237
375.0,362.0,-1.3645,-0.0395,9.682,-0.0327,0.0214,-0.113,-1.712349077264303,0.0,2.4991228580474854,-1.9643696546554565,-0.0,1.9061553478240967,5.263981568604269,-0.0,0.2708929181098938,-1.5694220701800745,5.658415069831335e-09,0.0037874977570027113,0.8185599446296692,-0.0,0.006238897331058979,0.8161195516586304,0.0,-0.0019592391327023506
375.0,362.0,-1.3645,-0.0395,9.682,-0.0327,0.0214,-0.113,-1.7123605213561,0.0,2.5487143993377686,-1.9643375873565674,-0.0,1.895630121231079,5.264021622925558,-0.0,0.2744167745113373,-1.569470230733053,1.5750406621301005e-12,-0.009839273057878017,0.8185476064682007,-0.0,0.008021486923098564,0.8161478042602539,0.0,0.02538508176803589
375.0,362.0,-1.3645,-0.0395,9.682,-0.0327,0.0214,-0.113,-1.712433477441305,0.0,2.546403408050537,-1.9643737077713013,-0.0,1.8921241760253906,5.264041769295492,-0.0,0.26899611949920654,-1.5694664160357874,4.384184036775339e-16,-0.002665384206920862,0.818543553352356,-0.0,-0.016054119914770126,0.8161963820457458,0.0,0.000957063923124224
375.0,362.0,-1.3645,-0.0395,9.682,-0.0327,0.0214,-0.113,-1.712433477441305,0.0,2.5488128662109375,-1.9643778800964355,-0.0,1.921182632446289,5.264005291252889,-0.0,0.2707677483558655,-1.569442097340719,1.2203536456192893e-19,-0.01396370492875576,0.8185352683067322,-0.0,-0.0043385643512010574,0.8161719441413879,0.0,-0.029912490397691727
375.0,362.0,-1.3645,-0.0395,9.682,-0.0327,0.0214,-0.113,-1.7123767338194789,0.0,2.503420829772949,-1.9643168449401855,-0.0,1.9086308479309082,5.264025795250692,-0.0,0.2718976140022278,-1.5694382826434534,2.217932922126809e-24,-0.0006410620408132672,0.8185112476348877,-0.0,0.0034302759449929,0.8161396384239197,0.0,-0.010038160718977451
375.0,362.0,-1.3645,-0.0395,9.682,-0.0327,0.0214,-0.113,-1.7123848400511683,0.0,2.509734630584717,-1.9643985033035278,-0.0,1.8871712684631348,5.264001238137045,-0.0,0.278008371591568,-1.5694063345538538,6.173698918487017e-28,-0.013598920777440071,0.8185153007507324,-0.0,0.009594143368303776,0.8161801695823669,0.0,0.01702866330742836
375.0,362.0,-1.3645,-0.0395,9.682,-0.0327,0.0214,-0.113,-1.71242155651235,0.0,2.5460569858551025,-1.9643498659133911,-0.0,1.9337965250015259,5.264013457089224,-0.0,0.275139719247818,-1.569458309804098,1.7184715308385785e-31,-0.017927827313542366,0.8185393214225769,-0.0,0.006143303122371435,0.8161518573760986,0.0,0.0028388425707817078
375.0,362.0,-1.3645,-0.0395,9.682,-0.0327,0.0214,-0.113,-1.7123972378172816,0.0,2.5177793502807617,-1.9643985033035278,-0.0,1.936920404434204,5.2639852044876,-0.0,0.284702330827713,-1.5694182554828089,4.7834280267472254e-35,-0.005145356524735689,0.8185033202171326,-0.0,0.0031528822146356106,0.8161154389381409,0.0,-0.030446358025074005
375.0,362.0,-1.3645,-0.0395,9.682,-0.0327,0.0214,-0.113,-1.7123810253539027,0.0,2.555800199508667,-1.9643540382385254,-0.0,1.9109277725219727,5.264049935131826,-0.0,0.2749071717262268,-1.5694344679461878,1.3314846537933832e-38,0.004629773087799549,0.818535327911377,-0.0,0.0072767785750329494,0.8161922097206116,0.0,-0.010035214014351368
375.0,362.0,-1.3645,-0.0395,9.682,-0.0327,0.0214,-0.113,-1.7123729191222132,0.0,2.521240234375,-1.9643210172653198,-0.0,1.9187538623809814,5.264017569809713,-0.0,0.2706490755081177,-1.5694544951068323,3.706434438139141e-42,-0.012971799820661545,0.8184788823127747,-0.0,-0.00631210720166564,0.8161395788192749,0.0,0.03555384278297424
389.0,355.0,-1.3095,-0.064,9.5868,-0.0367,0.0218,-0.1194,-1.7123648128905238,0.0,2.5205278396606445,-1.9643737077713013,-0.0,1.894180417060852,5.264009463578024,-0.0,0.26430952548980713,-1.5694826284991663,1.401298464324817e-45,-0.017133381217718124,0.818543553352356,-0.0,0.004828595090657473,0.8161359429359436,0.0,0.04073284566402435
389.0,355.0,-1.3095,-0.064,9.5868,-0.0367,0.0218,-0.1194,-1.7124296627440394,0.0,2.495154857635498,-1.9643861055374146,-0.0,1.944068431854248,5.264065551548757,-0.0,0.2784300744533539,-1.569470230733053,0.0,-0.005151527002453804,0.8185312747955322,-0.0,0.00798360351473093,0.8161437511444092,0.0,-0.02873040735721588
389.0,355.0,-1.3095,-0.064,9.5868,-0.0367,0.0218,-0.1194,-1.7123366794981898,0.0,2.4914088249206543,-1.9643943309783936,-0.0,1.922655463218689,5.264025795250692,-0.0,0.27180758118629456,-1.5694258848773401,0.0,-0.006987204775214195,0.8185312747955322,-0.0,0.0012129563838243484,0.8161883354187012,0.0,0.018015416339039803
389.0,355.0,-1.3095,-0.064,9.5868,-0.0367,0.0218,-0.1194,-1.7123729191222132,0.0,2.531804084777832,-1.9644066095352173,-0.0,1.9056106805801392,5.264021622925558,-0.0,0.2705771327018738,-1.5694502035724085,0.0,-0.006645921617746353,0.8185393810272217,-0.0,0.003452271455898881,0.8161116242408752,0.0,-0.0008537345565855503
389.0,355.0,-1.3095,-0.064,9.5868,-0.0367,0.0218,-0.1194,-1.7123691044249476,0.0,2.565448522567749,-1.9643738269805908,-0.0,1.9345060586929321,5.264005291252889,-0.0,0.2767133116722107,-1.5694907347308558,0.0,-0.0005496733356267214,0.8184788823127747,-0.0,0.005581304430961609,0.8161559104919434,0.0,-0.0062792799435555935
389.0,355.0,-1.3095,-0.064,9.5868,-0.0367,0.0218,-0.1194,-1.7124377689757289,0.0,2.573322296142578,-1.9643498659133911,-0.0,1.9158949851989746,5.264025795250692,-0.0,0.2680331766605377,-1.569458309804098,0.0,-0.00707428902387619,0.8185955882072449,-0.0,0.00421867473050952,0.81611567735672,0.0,0.029343102127313614
389.0,355.0,-1.3095,-0.064,9.5868,-0.0367,0.0218,-0.1194,-1.7123767338194789,0.0,2.5105412006378174,-1.9643614292144775,-0.0,1.8648930788040161,5.264106440335073,-0.0,0.26845434308052063,-1.5694101492511194,0.0,-0.022250937297940254,0.8185755610466003,-0.0,0.009185840375721455,0.8161478042602539,0.0,-0.012365639209747314
389.0,355.0,-1.3095,-0.064,9.5868,-0.0367,0.0218,-0.1194,-1.712377210656637,0.0,2.552232027053833,-1.9643168449401855,-0.0,1.9330264329910278,5.264069604664602,-0.0,0.279813677072525,-1.5694220701800745,0.0,-0.02409248799085617,0.8185112476348877,-0.0,0.0002882913686335087,0.8160997033119202,0.0,0.01069260947406292
389.0,355.0,-1.3095,-0.064,9.5868,-0.0367,0.0218,-0.1194,-1.7123810253539027,0.0,2.557365894317627,-1.9643292427062988,-0.0,1.8832298517227173,5.264029848366537,-0.0,0.26976996660232544,-1.5694621245013636,0.0,-0.022717561572790146,0.8184989094734192,-0.0,-0.001092118676751852,0.816107451915741,0.0,-0.0008642032044008374
389.0,355.0,-1.3095,-0.064,9.5868,-0.0367,0.0218,-0.1194,-1.71242155651235,0.0,2.523721218109131,-1.9643210172653198,-0.0,1.9462652206420898,5.264005291252889,-0.0,0.26935243606567383,-1.5694745222674769,0.0,-0.012230580672621727,0.8185272216796875,-0.0,-0.0034012924879789352,0.8161560297012329,0.0,0.023837551474571228
389.0,355.0,-1.3095,-0.064,9.5868,-0.0367,0.0218,-0.1194,-1.7124058208861292,0.0,2.521343231201172,-1.9643498659133911,-0.0,1.8820173740386963,5.264033543854513,-0.0,0.2716681957244873,-1.569470230733053,0.0,-0.007419738918542862,0.8185476660728455,-0.0,0.00024265178944915533,0.8161318302154541,0.0,-0.025546232238411903
389.0,355.0,-1.3095,-0.064,9.5868,-0.0367,0.0218,-0.1194,-1.7124058208861292,0.0,2.497931957244873,-1.9643293619155884,-0.0,1.8843748569488525,5.264005291252889,-0.0,0.26548007130622864,-1.5694621245013636,0.0,-0.01459801197052002,0.8185272216796875,-0.0,0.00700432900339365,0.8160550594329834,0.0,-0.028439410030841827
389.0,355.0,-1.3095,-0.064,9.5868,-0.0367,0.0218,-0.1194,-1.7123848400511683,0.0,2.484191656112671,-1.9643737077713013,-0.0,1.9295084476470947,5.264037596970358,-0.0,0.27304136753082275,-1.569470230733053,0.0,-0.00403292803093791,0.818543553352356,-0.0,0.0042879399843513966,0.8161318302154541,0.0,0.018573405221104622
389.0,355.0,-1.3095,-0.064,9.5868,-0.0367,0.0218,-0.1194,-1.7124258480467738,0.0,2.5178380012512207,-1.9643253087997437,-0.0,1.9194977283477783,5.264021622925558,-0.0,0.2766094207763672,-1.5694621245013636,0.0,-0.021839335560798645,0.8185513019561768,-0.0,4.056870238855481e-05,0.8161723613739014,0.0,-0.040611449629068375
389.0,355.0,-1.3095,-0.064,9.5868,-0.0367,0.0218,-0.1194,-1.7123691044249476,0.0,2.516340970993042,-1.964301347732544,-0.0,1.92682683467865,5.264049935131826,-0.0,0.2805973291397095,-1.5694544951068323,0.0,-0.011009225621819496,0.8185795545578003,-0.0,0.007946723140776157,0.8161718845367432,0.0,0.003635719884186983
354.0,349.0,-1.3735,-0.0832,9.6909,-0.0383,0.0171,-0.1122,-1.7123729191222132,0.0,2.4646472930908203,-1.9642850160598755,-0.0,1.8882943391799927,5.264021622925558,-0.0,0.2714851200580597,-1.5694459120379847,0.0,-0.009722426533699036,0.8184993267059326,-0.0,0.0017432154854759574,0.8161559104919434,0.0,-0.0203656405210495
354.0,349.0,-1.3735,-0.0832,9.6909,-0.0383,0.0171,-0.1122,-1.712393423120016,0.0,2.4856715202331543,-1.9643901586532593,-0.0,1.8876054286956787,5.264069604664602,-0.0,0.2826288342475891,-1.5694621245013636,0.0,-0.0037123903166502714,0.818535327911377,-0.0,-0.013369984924793243,0.8161761164665222,0.0,0.007990768179297447
354.0,349.0,-1.3735,-0.0832,9.6909,-0.0383,0.0171,-0.1122,-1.7123810253539027,0.0,2.505453109741211,-1.9643696546554565,-0.0,1.9241666793823242,5.264029490738668,-0.0,0.2712005078792572,-1.5694258848773401,0.0,-0.007300694473087788,0.8185070157051086,-0.0,0.000994367990642786,0.8161033987998962,0.0,0.06681205332279205
354.0,349.0,-1.3735,-0.0832,9.6909,-0.0383,0.0171,-0.1122,-1.7124096355833949,0.0,2.549166679382324,-1.9644180536270142,-0.0,1.8764516115188599,5.264001238137045,-0.0,0.2699739336967468,-1.5694502035724085,0.0,-0.011189199984073639,0.8185029625892639,-0.0,-0.0008425310370512307,0.8161519169807434,0.0,0.012116980738937855
354.0,349.0,-1.3735,-0.0832,9.6909,-0.0383,0.0171,-0.1122,-1.7124096355833949,0.0,2.5149128437042236,-1.9643540382385254,-0.0,1.9558286666870117,5.263973283558645,-0.0,0.27686795592308044,-1.5694745222674769,0.0,-0.018123425543308258,0.8185312747955322,-0.0,0.0020374078303575516,0.8161559700965881,0.0,0.011217770166695118
354.0,349.0,-1.3735,-0.0832,9.6909,-0.0383,0.0171,-0.1122,-1.71242155651235,0.0,2.5254604816436768,-1.9643127918243408,-0.0,1.9563608169555664,5.264029490738668,-0.0,0.2719220519065857,-1.5694745222674769,0.0,-0.02242537960410118,0.8185193538665771,-0.0,-0.002577374689280987,0.8161033391952515,0.0,0.0013115539913997054
354.0,349.0,-1.3735,-0.0832,9.6909,-0.0383,0.0171,-0.1122,-1.712377210656637,0.0,2.5387535095214844,-1.9644098281860352,-0.0,1.895939588546753,5.264041411667623,-0.0,0.26618149876594543,-1.5694544951068323,0.0,-0.0026532530318945646,0.8185673952102661,-0.0,0.0018728337017819285,0.8161437511444092,0.0,-0.02784043923020363
354.0,349.0,-1.3735,-0.0832,9.6909,-0.0383,0.0171,-0.1122,-1.712365289727682,0.0,2.548516035079956,-1.9643253087997437,-0.0,1.9261363744735718,5.264037596970358,-0.0,0.27751147747039795,-1.5694182554828089,0.0,-0.0020581367425620556,0.818531334400177,-0.0,0.011995842680335045,0.8161355257034302,0.0,0.0131068741902709
354.0,349.0,-1.3735,-0.0832,9.6909,-0.0383,0.0171,-0.1122,-1.7123609981932582,0.0,2.5135276317596436,-1.9643983840942383,-0.0,1.9124562740325928,5.264001238137045,-0.0,0.2747107744216919,-1.5694459120379847,0.0,-0.004831030033528805,0.8185189366340637,-0.0,-0.003724184352904558,0.8161559104919434,0.0,0.07208997011184692
354.0,349.0,-1.3735,-0.0832,9.6909,-0.0383,0.0171,-0.1122,-1.712365289727682,0.0,2.5140628814697266,-1.9643573760986328,-0.0,1.9312777519226074,5.264045464783468,-0.0,0.2743714451789856,-1.5694869200335901,0.0,-0.013676943257451057,0.8185312747955322,-0.0,0.00998520478606224,0.8161601424217224,0.0,-0.05006398260593414
354.0,349.0,-1.3735,-0.0832,9.6909,-0.0383,0.0171,-0.1122,-1.7123767338194789,0.0,2.5168352127075195,-1.9643737077713013,-0.0,1.9037047624588013,5.264033543854513,-0.0,0.26494479179382324,-1.569413963948385,0.0,-0.012920411303639412,0.8185272216796875,-0.0,-0.005261584650725126,0.8161359429359436,0.0,-0.03922899067401886
354.0,349.0,-1.3735,-0.0832,9.6909,-0.0383,0.0171,-0.1122,-1.7124415836729945,0.0,2.526853084564209,-1.9643819332122803,-0.0,1.926500678062439,5.264009463578024,-0.0,0.27068620920181274,-1.5694745222674769,0.0,-0.002455351874232292,0.8185272216796875,-0.0,-0.0014405520632863045,0.81611567735672,0.0,0.016915004700422287
354.0,349.0,-1.3735,-0.0832,9.6909,-0.0383,0.0171,-0.1122,-1.7124015293517054,0.0,2.530205011367798,-1.9643127918243408,-0.0,1.8965799808502197,5.264049517899313,-0.0,0.2715678811073303,-1.5694745222674769,0.0,-0.013511298224329948,0.8185393810272217,-0.0,0.0031237476505339146,0.8161277770996094,0.0,0.013587571680545807
354.0,349.0,-1.3735,-0.0832,9.6909,-0.0383,0.0171,-0.1122,-1.7124015293517054,0.0,2.5020694732666016,-1.9643654823303223,-0.0,1.907852292060852,5.264025795250692,-0.0,0.2741153836250305,-1.5694339911090296,0.0,-0.01956063322722912,0.818543553352356,-0.0,-0.00015365355648100376,0.8162124752998352,0.0,0.016514457762241364
354.0,349.0,-1.3735,-0.0832,9.6909,-0.0383,0.0171,-0.1122,-1.71242155651235,0.0,2.523829460144043,-1.9643983840942383,-0.0,1.904738187789917,5.264057743340292,-0.0,0.2703799307346344,-1.5694502035724085,0.0,-0.004617723170667887,0.8185476064682007,-0.0,-0.0026443565730005503,0.8161519169807434,0.0,0.03292365372180939
391.0,358.0,-1.3388,-0.0353,9.6012,-0.0307,0.029,-0.1184,-1.71242155651235,0.0,2.5182600021362305,-1.9643778800964355,-0.0,1.9301215410232544,5.264037596970358,-0.0,0.2712934613227844,-1.5694869200335901,0.0,-0.024172384291887283,0.8185070753097534,-0.0,0.021034160628914833,0.8161277174949646,0.0,0.00019392278045415878
391.0,358.0,-1.3388,-0.0353,9.6012,-0.0307,0.029,-0.1184,-1.7123891315855921,0.0,2.5240490436553955,-1.9643696546554565,-0.0,1.8727645874023438,5.264009403973379,-0.0,0.2717255651950836,-1.5694745222674769,0.0,-0.009259226731956005,0.8185070753097534,-0.0,-0.010122635401785374,0.8161478638648987,0.0,-0.010288667865097523
391.0,358.0,-1.3388,-0.0353,9.6012,-0.0307,0.029,-0.1184,-1.7123810253539027,0.0,2.525380849838257,-1.964402675628662,-0.0,1.8997766971588135,5.26398931720809,-0.0,0.2674807906150818,-1.5694339911090296,0.0,-0.0029749053064733744,0.8184829354286194,-0.0,-0.006240074057132006,0.8161799311637878,0.0,0.01290045864880085
391.0,358.0,-1.3388,-0.0353,9.6012,-0.0307,0.029,-0.1184,-1.712381502191061,0.0,2.5041871070861816,-1.9643778800964355,-0.0,1.9500906467437744,5.264025795250692,-0.0,0.27198347449302673,-1.5694182554828089,0.0,0.004889755044132471,0.8185070753097534,-0.0,-0.0015316832577809691,0.81611567735672,0.0,0.0003781002014875412
391.0,358.0,-1.3388,-0.0353,9.6012,-0.0307,0.029,-0.1184,-1.7123571834959925,0.0,2.5355563163757324,-1.9643819332122803,-0.0,1.8783202171325684,5.264025795250692,-0.0,0.27737799286842346,-1.5694220701800745,0.0,-0.0039955913089215755,0.818575918674469,-0.0,-0.00523711834102869,0.8161880373954773,0.0,-0.01525308657437563
391.0,358.0,-1.3388,-0.0353,9.6012,-0.0307,0.029,-0.1184,-1.71242155651235,0.0,2.5242176055908203,-1.9643250703811646,-0.0,1.938377022743225,5.264013457089224,-0.0,0.2836324870586395,-1.569458309804098,0.0,-0.014427384361624718,0.8184912204742432,-0.0,-0.002092553535476327,0.8161359429359436,0.0,-0.013355381786823273
391.0,358.0,-1.3388,-0.0353,9.6012,-0.0307,0.029,-0.1184,-1.7124058208861292,0.0,2.500108242034912,-1.9643210172653198,-0.0,1.9171321392059326,5.264033543854513,-0.0,0.27818727493286133,-1.5694621245013636,0.0,-0.011964986100792885,0.8185070753097534,-0.0,0.0053431205451488495,0.8161033391952515,0.0,0.024083074182271957
391.0,358.0,-1.3388,-0.0353,9.6012,-0.0307,0.029,-0.1184,-1.7124058208861292,0.0,2.530513286590576,-1.9644025564193726,-0.0,1.8755711317062378,5.263997125416555,-0.0,0.2708562910556793,-1.569470230733053,0.0,-0.01701313443481922,0.8185033798217773,-0.0,0.007621173746883869,0.8161682486534119,0.0,-0.014652875252068043
391.0,358.0,-1.3388,-0.0353,9.6012,-0.0307,0.029,-0.1184,-1.7123810253539027,0.0,2.574665069580078,-1.9643696546554565,-0.0,1.9058644771575928,5.264009463578024,-0.0,0.27088794112205505,-1.5694058577166956,0.0,-0.008798735216259956,0.8185352683067322,-0.0,-0.0020411242730915546,0.816107451915741,0.0,0.01697266660630703
391.0,358.0,-1.3388,-0.0353,9.6012,-0.0307,0.029,-0.1184,-1.7124177418150843,0.0,2.5121383666992188,-1.9643332958221436,-0.0,1.8792017698287964,5.264021622925558,-0.0,0.2675783336162567,-1.5694382826434534,0.0,-0.010106128640472889,0.8185033798217773,-0.0,-0.013222781009972095,0.8161678314208984,0.0,0.016240065917372704
391.0,358.0,-1.3388,-0.0353,9.6012,-0.0307,0.029,-0.1184,-1.7124172649779261,0.0,2.528700828552246,-1.9643458127975464,-0.0,1.922212839126587,5.264005291252889,-0.0,0.27909040451049805,-1.5694502035724085,0.0,-0.010945459827780724,0.8185312747955322,-0.0,-0.0013272701762616634,0.8161678314208984,0.0,0.02223948948085308
391.0,358.0,-1.3388,-0.0353,9.6012,-0.0307,0.029,-0.1184,-1.7124096355833949,0.0,2.466154098510742,-1.9643498659133911,-0.0,1.9488985538482666,5.264037596970358,-0.0,0.2764909565448761,-1.5694540182696741,0.0,-0.001021210104227066,0.8184869289398193,-0.0,0.011302558705210686,0.8161313533782959,0.0,-0.013959020376205444
391.0,358.0,-1.3388,-0.0353,9.6012,-0.0307,0.029,-0.1184,-1.7124296627440394,0.0,2.596580743789673,-1.9643902778625488,-0.0,1.9164152145385742,5.264029848366537,-0.0,0.2797941565513611,-1.5694621245013636,0.0,-0.01543586514890194,0.8185558319091797,-0.0,-0.005447953939437866,0.8161437511444092,0.0,-0.026524163782596588
391.0,358.0,-1.3388,-0.0353,9.6012,-0.0307,0.029,-0.1184,-1.7124015293517054,0.0,2.5120787620544434,-1.9643572568893433,-0.0,1.9434611797332764,5.264033961087026,-0.0,0.26422685384750366,-1.5694382826434534,0.0,-0.008738622069358826,0.818523108959198,-0.0,0.0025456915609538555,0.8161277770996094,0.0,-0.009285489097237587
384.0,368.0,-1.2915,-0.0957,9.5234,-0.0348,0.0235,-0.1182,-1.7124177418150843,0.0,2.5105552673339844,-1.9643532037734985,-0.0,1.9076309204101562,5.264053630619802,-0.0,0.2744031250476837,-1.5694502035724085,0.0,-0.019322752952575684,0.8185673356056213,-0.0,0.00044369546230882406,0.8161235451698303,0.0,0.006882027257233858
384.0,368.0,-1.2915,-0.0957,9.5234,-0.0348,0.0235,-0.1182,-1.7123972378172816,0.0,2.496922254562378,-1.9643374681472778,-0.0,1.8780112266540527,5.264033543854513,-0.0,0.27532681822776794,-1.5694544951068323,0.0,-0.004156311508268118,0.818535327911377,-0.0,-0.0007541563827544451,0.8161478638648987,0.0,-0.013349687680602074
384.0,368.0,-1.2915,-0.0957,9.5234,-0.0348,0.0235,-0.1182,-1.7124377689757289,0.0,2.5163402557373047,-1.9643654823303223,-0.0,1.8832509517669678,5.264001238137045,-0.0,0.27374380826950073,-1.569430176411764,0.0,-0.012472047470510006,0.8185873627662659,-0.0,0.0078089553862810135,0.81611567735672,0.0,-0.04180543124675751
384.0,368.0,-1.2915,-0.0957,9.5234,-0.0348,0.0235,-0.1182,-1.7123767338194789,0.0,2.555771827697754,-1.9643012285232544,-0.0,1.8979030847549438,5.263993489533224,-0.0,0.2625122368335724,-1.569470230733053,0.0,0.0028281020931899548,0.8185516595840454,-0.0,-0.007886243052780628,0.8161318302154541,0.0,-0.023332467302680016
384.0,368.0,-1.2915,-0.0957,9.5234,-0.0348,0.0235,-0.1182,-1.7123891315855921,0.0,2.491626262664795,-1.964325189590454,-0.0,1.8787497282028198,5.264049517899313,-0.0,0.27265915274620056,-1.569458309804098,0.0,-0.004190854728221893,0.8185353875160217,-0.0,-0.007977470755577087,0.8161435723304749,0.0,0.010698294267058372
384.0,368.0,-1.2915,-0.0957,9.5234,-0.0348,0.0235,-0.1182,-1.7124058208861292,0.0,2.541323184967041,-1.9643573760986328,-0.0,1.9247212409973145,5.263993489533224,-0.0,0.26917606592178345,-1.5694621245013636,0.0,-0.006104734726250172,0.8184869885444641,-0.0,0.011061795055866241,0.8161478638648987,0.0,0.011876380071043968
384.0,368.0,-1.2915,-0.0957,9.5234,-0.0348,0.0235,-0.1182,-1.7124535046019496,0.0,2.493279218673706,-1.9643498659133911,-0.0,1.8953008651733398,5.264021622925558,-0.0,0.2721378207206726,-1.569430176411764,0.0,-0.010529715567827225,0.8185075521469116,-0.0,-0.004381092730909586,0.8161277770996094,0.0,0.022370293736457825
384.0,368.0,-1.2915,-0.0957,9.5234,-0.0348,0.0235,-0.1182,-1.7123891315855921,0.0,2.4917287826538086,-1.9643417596817017,-0.0,1.8820650577545166,5.264021622925558,-0.0,0.27337732911109924,-1.5694058577166956,0.0,-0.013292642310261726,0.8184829950332642,-0.0,-0.006752741523087025,0.8161559104919434,0.0,-0.018841903656721115
384.0,368.0,-1.2915,-0.0957,9.5234,-0.0348,0.0235,-0.1182,-1.7123648128905238,0.0,2.5438292026519775,-1.9643292427062988,-0.0,1.945495367050171,5.264041769295492,-0.0,0.26860660314559937,-1.5694826284991663,0.0,-0.013355977833271027,0.8185070753097534,-0.0,0.0006195785827003419,0.8161559104919434,0.0,-0.036890000104904175
384.0,368.0,-1.2915,-0.0957,9.5234,-0.0348,0.0235,-0.1182,-1.7124058208861292,0.0,2.501779079437256,-1.9643819332122803,-0.0,1.9198541641235352,5.264041769295492,-0.0,0.27096864581108093,-1.5694664160357874,0.0,-0.012575886212289333,0.8185116052627563,-0.0,-0.006282048765569925,0.8161637187004089,0.0,-0.029487568885087967
384.0,368.0,-1.2915,-0.0957,9.5234,-0.0348,0.0235,-0.1182,-1.7124134502806605,0.0,2.4983937740325928,-1.964341640472412,-0.0,1.9142405986785889,5.264021622925558,-0.0,0.25757262110710144,-1.5694826284991663,0.0,-0.01809779927134514,0.818543553352356,-0.0,0.0040318467654287815,0.8161641955375671,0.0,-0.028855878859758377
384.0,368.0,-1.2915,-0.0957,9.5234,-0.0348,0.0235,-0.1182,-1.712377210656637,0.0,2.4877612590789795,-1.9643696546554565,-0.0,1.8954277038574219,5.264001238137045,-0.0,0.274085134267807,-1.5694869200335901,0.0,-0.011520358733832836,0.8185833692550659,-0.0,0.001770511269569397,0.8160914778709412,0.0,-0.010118657723069191
384.0,368.0,-1.2915,-0.0957,9.5234,-0.0348,0.0235,-0.1182,-1.7123972378172816,0.0,2.516913414001465,-1.9643778800964355,-0.0,1.9289606809616089,5.264005291252889,-0.0,0.27454420924186707,-1.5694745222674769,0.0,-0.008601803332567215,0.8184910416603088,-0.0,-0.007755562197417021,0.8161153793334961,0.0,0.03198981285095215
384.0,368.0,-1.2915,-0.0957,9.5234,-0.0348,0.0235,-0.1182,-1.7123810253539027,0.0,2.478332281112671,-1.9643250703811646,-0.0,1.9095923900604248,5.264021563320913,-0.0,0.277211993932724,-1.5694826284991663,0.0,-0.014870643615722656,0.8185553550720215,-0.0,-0.007327985018491745,0.8161313533782959,0.0,0.012250019237399101
384.0,368.0,-1.2915,-0.0957,9.5234,-0.0348,0.0235,-0.1182,-1.7123691044249476,0.0,2.5122458934783936,-1.9643168449401855,-0.0,1.9101862907409668,5.264017569809713,-0.0,0.26740577816963196,-1.5694339911090296,0.0,0.002662289422005415,0.8184989094734192,-0.0,-0.0016064527444541454,0.8161839246749878,0.0,0.015566774643957615
379.0,359.0,-1.3286,-0.1119,9.7382,-0.0405,0.0209,-0.1155,-1.712393423120016,0.0,2.4904074668884277,-1.9643943309783936,-0.0,1.9099574089050293,5.264033543854513,-0.0,0.27887222170829773,-1.5694425741778772,0.0,-0.013749906793236732,0.8184951543807983,-0.0,-0.0161623265594244,0.8161716461181641,0.0,0.022626439109444618
379.0,359.0,-1.3286,-0.1119,9.7382,-0.0405,0.0209,-0.1155,-1.7123972378172816,0.0,2.4985673427581787,-1.9643580913543701,-0.0,1.8556420803070068,5.264021622925558,-0.0,0.2716611325740814,-1.5694344679461878,0.0,-0.0012289048172533512,0.8185189366340637,-0.0,0.0019119781209155917,0.8161678314208984,0.0,-0.036874812096357346
379.0,359.0,-1.3286,-0.1119,9.7382,-0.0405,0.0209,-0.1155,-1.7124134502806605,0.0,2.5070509910583496,-1.964333415031433,-0.0,1.9298441410064697,5.263981568604269,-0.0,0.2649317979812622,-1.5694382826434534,0.0,-0.009984578937292099,0.8185639381408691,-0.0,0.0053947740234434605,0.8162001967430115,0.0,-0.009949468076229095
379.0,359.0,-1.3286,-0.1119,9.7382,-0.0405,0.0209,-0.1155,-1.7124096355833949,0.0,2.4919886589050293,-1.9643778800964355,-0.0,1.8708903789520264,5.264017569809713,-0.0,0.2792752683162689,-1.569470230733053,0.0,-0.0001938575878739357,0.8185758590698242,-0.0,0.0035767541266977787,0.8161194920539856,0.0,-0.010977464728057384
379.0,359.0,-1.3286,-0.1119,9.7382,-0.0405,0.0209,-0.1155,-1.7123648128905238,0.0,2.5163469314575195,-1.9643540382385254,-0.0,1.8854987621307373,5.264045762806692,-0.0,0.27467572689056396,-1.5694907347308558,0.0,-0.004321011248975992,0.8185070157051086,-0.0,-0.006336471997201443,0.8161478638648987,0.0,-0.006069491617381573
379.0,359.0,-1.3286,-0.1119,9.7382,-0.0405,0.0209,-0.1155,-1.7124258480467738,0.0,2.4988818168640137,-1.9643902778625488,-0.0,1.9083658456802368,5.264025795250692,-0.0,0.267451673746109,-1.5694664160357874,0.0,-0.02527010627090931,0.8184952139854431,-0.0,0.00742805190384388,0.8161559104919434,0.0,-0.04821570962667465
379.0,359.0,-1.3286,-0.1119,9.7382,-0.0405,0.0209,-0.1155,-1.7123571834959925,0.0,2.5055978298187256,-1.9643943309783936,-0.0,1.9195281267166138,5.264033961087026,-0.0,0.2702699899673462,-1.5694664160357874,0.0,-0.011668543331325054,0.8185476064682007,-0.0,-0.012998035177588463,0.8161718845367432,0.0,-0.02783186361193657
379.0,359.0,-1.3286,-0.1119,9.7382,-0.0405,0.0209,-0.1155,-1.7124096355833949,0.0,2.5093274116516113,-1.9643540382385254,-0.0,1.946929693222046,5.264009463578024,-0.0,0.27188223600387573,-1.5694540182696741,0.0,-0.007861941121518612,0.8185070753097534,-0.0,0.011104320175945759,0.8161760568618774,0.0,-0.03383840620517731
379.0,359.0,-1.3286,-0.1119,9.7382,-0.0405,0.0209,-0.1155,-1.712372442285055,0.0,2.5046515464782715,-1.9643737077713013,-0.0,1.9057118892669678,5.2640012977416895,-0.0,0.2638598084449768,-1.569470230733053,0.0,-0.02195313200354576,0.818535327911377,-0.0,-0.003723169444128871,0.8161840438842773,0.0,0.014667217619717121
379.0,359.0,-1.3286,-0.1119,9.7382,-0.0405,0.0209,-0.1155,-1.7124258480467738,0.0,2.5063490867614746,-1.9643985033035278,-0.0,1.881368637084961,5.264033543854513,-0.0,0.26589328050613403,-1.5694502035724085,0.0,-0.014678871259093285,0.8184870481491089,-0.0,0.0024147918447852135,0.8161396384239197,0.0,0.016450753435492516
379.0,359.0,-1.3286,-0.1119,9.7382,-0.0405,0.0209,-0.1155,-1.7123691044249476,0.0,2.5390117168426514,-1.9643375873565674,-0.0,1.9367027282714844,5.264025795250692,-0.0,0.2810155153274536,-1.5694382826434534,0.0,-0.007982154376804829,0.818543553352356,-0.0,-0.011215235106647015,0.8161559104919434,0.0,0.020898282527923584
379.0,359.0,-1.3286,-0.1119,9.7382,-0.0405,0.0209,-0.1155,-1.7124058208861292,0.0,2.5390231609344482,-1.9643458127975464,-0.0,1.8818764686584473,5.2640458820159814,-0.0,0.26035138964653015,-1.5694502035724085,0.0,-0.012419459410011768,0.8185997009277344,-0.0,0.004499319475144148,0.8161396384239197,0.0,0.022908033803105354
379.0,359.0,-1.3286,-0.1119,9.7382,-0.0405,0.0209,-0.1155,-1.7123691044249476,0.0,2.5694878101348877,-1.9643573760986328,-0.0,1.9726295471191406,5.264009403973379,-0.0,0.26739615201950073,-1.5694382826434534,0.0,-0.013444267213344574,0.8185153007507324,-0.0,-0.0030244977679103613,0.8161801695823669,0.0,0.017526406794786453
379.0,359.0,-1.3286,-0.1119,9.7382,-0.0405,0.0209,-0.1155,-1.7124258480467738,0.0,2.4962375164031982,-1.9643622636795044,-0.0,1.8913421630859375,5.263977098255911,-0.0,0.27240756154060364,-1.5694664160357874,0.0,-0.013932811096310616,0.8185431361198425,-0.0,0.01104719191789627,0.8161559104919434,0.0,-0.01824905537068844
379.0,359.0,-1.3286,-0.1119,9.7382,-0.0405,0.0209,-0.1155,-1.7124091587462367,0.0,2.5293006896972656,-1.9643861055374146,-0.0,1.8438892364501953,5.264033484249868,-0.0,0.2703743875026703,-1.5694344679461878,0.0,-0.011143560521304607,0.8184629082679749,-0.0,-0.00146540068089962,0.8161313533782959,0.0,-0.014212874695658684
398.0,349.0,-1.4758,-0.2871,9.5904,-0.0388,0.0286,-0.1043,-1.7123810253539027,0.0,2.5313706398010254,-1.9643654823303223,-0.0,1.9180808067321777,5.264005291252889,-0.0,0.2705598771572113,-1.5694344679461878,0.0,-0.01719612255692482,0.8185517191886902,-0.0,0.003574152709916234,0.8161195516586304,0.0,0.02701856940984726
398.0,349.0,-1.4758,-0.2871,9.5904,-0.0388,0.0286,-0.1043,-1.7124177418150843,0.0,2.5301976203918457,-1.9643985033035278,-0.0,1.8950313329696655,5.264069604664602,-0.0,0.2668423354625702,-1.5694306532489222,0.0,-0.00015171943232417107,0.8185393810272217,-0.0,0.0043037827126681805,0.8162042498588562,0.0,0.0308847539126873
398.0,349.0,-1.4758,-0.2871,9.5904,-0.0388,0.0286,-0.1043,-1.7124091587462367,0.0,2.4803972244262695,-1.9643137454986572,-0.0,1.9492158889770508,5.2640011785324,-0.0,0.26479217410087585,-1.5694826284991663,0.0,-0.0015567825175821781,0.8185230493545532,-0.0,0.004998985677957535,0.8161600828170776,0.0,0.007481844630092382
398.0,349.0,-1.4758,-0.2871,9.5904,-0.0388,0.0286,-0.1043,-1.7124091587462367,0.0,2.5282058715820312,-1.9643580913543701,-0.0,1.9155701398849487,5.264061856060781,-0.0,0.2745126187801361,-1.5694664160357874,0.0,-0.006130797788500786,0.8184666037559509,-0.0,0.007191800512373447,0.8161559104919434,0.0,0.019949577748775482
398.0,349.0,-1.4758,-0.2871,9.5904,-0.0388,0.0286,-0.1043,-1.7124177418150843,0.0,2.5136220455169678,-1.9643086194992065,-0.0,1.901735782623291,5.264013457089224,-0.0,0.2723941504955292,-1.5694459120379847,0.0,-0.020333077758550644,0.8185353875160217,-0.0,-0.002434898167848587,0.8160992860794067,0.0,0.030846651643514633
398.0,349.0,-1.4758,-0.2871,9.5904,-0.0388,0.0286,-0.1043,-1.7124134502806605,0.0,2.5154476165771484,-1.9643580913543701,-0.0,1.913414478302002,5.264037537365713,-0.0,0.2862529456615448,-1.5694344679461878,0.0,-0.020317696034908295,0.8185393810272217,-0.0,0.003488493151962757,0.8161313533782959,0.0,-0.02621907740831375
398.0,349.0,-1.4758,-0.2871,9.5904,-0.0388,0.0286,-0.1043,-1.712433477441305,0.0,2.5170459747314453,-1.964309573173523,-0.0,1.915642261505127,5.264049517899313,-0.0,0.2637411653995514,-1.5694382826434534,0.0,-0.010127444751560688,0.8185517191886902,-0.0,0.013366126455366611,0.8161839842796326,0.0,0.00880205538123846
398.0,349.0,-1.4758,-0.2871,9.5904,-0.0388,0.0286,-0.1043,-1.7123972378172816,0.0,2.523035764694214,-1.9643901586532593,-0.0,1.8979127407073975,5.264057862549581,-0.0,0.2599490284919739,-1.5694502035724085,0.0,-0.01110224798321724,0.8185751438140869,-0.0,0.012599271722137928,0.8161839842796326,6.961637700442225e-05,0.030421912670135498
398.0,349.0,-1.4758,-0.2871,9.5904,-0.0388,0.0286,-0.1043,-1.7123891315855921,0.0,2.536858081817627,-1.9643622636795044,-0.0,1.9392813444137573,5.264033543854513,-0.0,0.25988540053367615,-1.5694344679461878,0.0,0.009309317916631699,0.8184666633605957,-0.0,-0.005513736978173256,0.81624436378479,0.0007857425953261554,0.008240223862230778
398.0,349.0,-1.4758,-0.2871,9.5904,-0.0388,0.0286,-0.1043,-1.7123767338194789,0.0,2.521214008331299,-1.9643540382385254,-0.0,1.8989025354385376,5.264009463578024,-0.0,0.2592775821685791,-1.5694540182696741,0.0,-0.01544214691966772,0.818543553352356,-0.0,0.008418024517595768,0.816208004951477,0.0009081946336664259,-0.04041662439703941
398.0,349.0,-1.4758,-0.2871,9.5904,-0.0388,0.0286,-0.1043,-1.7123810253539027,0.0,2.5379672050476074,-1.9643458127975464,-0.0,1.8845701217651367,5.264029848366537,-0.0,0.2753848433494568,-1.5694788138019007,0.0,-0.021308714523911476,0.8184746503829956,-0.0,0.018251191824674606,0.8162403106689453,0.0021682714577764273,0.024142464622855186
398.0,349.0,-1.4758,-0.2871,9.5904,-0.0388,0.0286,-0.1043,-1.7124296627440394,0.0,2.5513367652893066,-1.9643778800964355,-0.0,1.9423227310180664,5.263977455883779,-0.0,0.2769688069820404,-1.5694664160357874,0.0,-0.016227735206484795,0.8185033798217773,-0.0,0.005942684598267078,0.8162436485290527,0.004294393118470907,-0.032477907836437225
398.0,349.0,-1.4758,-0.2871,9.5904,-0.0388,0.0286,-0.1043,-1.71244539837026,0.0,2.5154829025268555,-1.964341640472412,-0.0,1.8815488815307617,5.263956951885977,-0.0,0.26854407787323,-1.5694459120379847,0.0,-0.00846486072987318,0.8185272216796875,-0.0,0.009270589798688889,0.8162921071052551,0.006473095156252384,0.003861387260258198
398.0,349.0,-1.4758,-0.2871,9.5904,-0.0388,0.0286,-0.1043,-1.7123972378172816,0.0,2.5052828788757324,-1.9643458127975464,-0.0,1.9398980140686035,5.263981508999624,-0.0,0.2769959568977356,-1.5694664160357874,0.0,-0.014228145591914654,0.8185189962387085,-0.0,0.004252215381711721,0.8163360357284546,0.007350820116698742,0.05953730270266533
398.0,349.0,-1.4758,-0.2871,9.5904,-0.0388,0.0286,-0.1043,-1.7124010525145472,0.0,2.5129570960998535,-1.9643580913543701,0.0002347699337406084,1.922607421875,5.263965177326956,-0.0,0.27945637702941895,-1.5694258848773401,0.0,-0.010268324054777622,0.8185393810272217,-0.0,0.0023713577538728714,0.8164324760437012,0.007750740274786949,-0.010501222684979439
391.0,365.0,-1.3472,-0.1208,9.7448,-0.0212,0.0191,-0.1219,-1.7124654255309046,0.0,2.4488914012908936,-1.964394450187683,0.0002445245918352157,1.9022579193115234,5.263944852143087,-0.0,0.274623304605484,-1.569430176411764,0.0,-0.02137807384133339,0.818543553352356,-0.0,0.003790321759879589,0.816436231136322,0.007862156257033348,0.011052469722926617
391.0,365.0,-1.3472,-0.1208,9.7448,-0.0212,0.0191,-0.1219,-1.7124415836729945,-0.0002974684175569564,2.5309760570526123,-1.9643137454986572,0.0002511529019102454,1.9041311740875244,5.264009940415182,-0.0,0.26894885301589966,-1.569442097340719,0.0,-0.0021365699358284473,0.8185112476348877,-0.0,0.0036312637384980917,0.8164800405502319,0.006244124844670296,0.0018035511020570993
391.0,365.0,-1.3472,-0.1208,9.7448,-0.0212,0.0191,-0.1219,-1.7124859295287074,-0.00034565074020065367,2.5034525394439697,-1.9643137454986572,0.000256323633948341,1.9046664237976074,5.263985562115469,-0.0,0.2723548710346222,-1.5694707075702112,0.0,-0.003567683044821024,0.8185112476348877,-0.0,0.0028669710736721754,0.8164517879486084,0.004178185481578112,-0.03239921107888222
391.0,365.0,-1.3472,-0.1208,9.7448,-0.0212,0.0191,-0.1219,-1.712477823297018,-0.0006128960521891713,2.5400445461273193,-1.9642857313156128,0.00037090718979015946,1.9194482564926147,5.263941097050466,-0.0002725294907577336,0.2769443690776825,-1.5694382826434534,0.0,-0.006668225396424532,0.818514883518219,-0.0,-0.00779871316626668,0.8164718151092529,0.0014691506512463093,0.003149967174977064
391.0,365.0,-1.3472,-0.1208,9.7448,-0.0212,0.0191,-0.1219,-1.7124854526915492,-0.0012512608664110303,2.4678471088409424,-1.9643219709396362,0.0003127162344753742,1.8887889385223389,5.264001655369558,-0.00031627921271137893,0.26587533950805664,-1.56940204301943,0.0,-0.01705886423587799,0.8185153007507324,-0.0,0.0047009894624352455,0.8165243268013,0.00043737710802815855,0.01197955571115017
391.0,365.0,-1.3472,-0.1208,9.7448,-0.0212,0.0191,-0.1219,-1.7125174007811488,-0.002448514336720109,2.4979851245880127,-1.9642692804336548,0.0003108194505330175,1.9491081237792969,5.264029848366537,-0.00046721004764549434,0.27530378103256226,-1.5694425741778772,0.0,0.0031468055676668882,0.818543553352356,-0.0,0.004450562875717878,0.8164800405502319,0.00022651352628599852,-0.011857494711875916
391.0,365.0,-1.3472,-0.1208,9.7448,-0.0212,0.0191,-0.1219,-1.7125498257079066,-0.00420012604445219,2.534836530685425,-1.964317798614502,0.00035550969187170267,1.8918590545654297,5.263985740929403,-0.0004285940667614341,0.2726745903491974,-1.5694263617144983,0.0,-0.009660965763032436,0.8185833096504211,-0.0,0.008422148413956165,0.816447913646698,8.220495510613546e-05,0.034111931920051575
391.0,365.0,-1.3472,-0.1208,9.7448,-0.0212,0.0191,-0.1219,-1.7125736675658167,-0.0059736683033406734,2.4576528072357178,-1.964289903640747,0.0004830452671740204,1.9050562381744385,5.264001714974203,-0.0004035376477986574,0.2628104090690613,-1.5694463888751429,0.0,-0.013281780295073986,0.818543553352356,-0.0,-0.004836335778236389,0.8164963722229004,3.901774903170008e-08,-0.013602609746158123
391.0,365.0,-1.3472,-0.1208,9.7448,-0.0212,0.0191,-0.1219,-1.7126175365843714,-0.006435404997318983,2.4741764068603516,-1.9642691612243652,0.002078328048810363,1.929804801940918,5.263985740929403,-0.00033885202719829977,0.274176687002182,-1.5694344679461878,0.0,-0.007989749312400818,0.8185919523239136,-0.0,-0.013686628080904484,0.8165168762207031,9.422329453126488e-14,0.002143710386008024
391.0,365.0,-1.3472,-0.1208,9.7448,-0.0212,0.0191,-0.1219,-1.7126738033690394,-0.005809527821838856,2.5090439319610596,-1.9642298221588135,0.00372294127009809,1.922777533531189,5.263888525753774,-0.0002917599049396813,0.2727092504501343,-1.5694144407855433,0.0,0.0023541219998151064,0.8185393810272217,-0.0,0.0027171792462468147,0.816512405872345,2.275381804134902e-19,-0.0009052399545907974
391.0,365.0,-1.3472,-0.1208,9.7448,-0.0212,0.0191,-0.1219,-1.712705751458639,-0.00461825355887413,2.4908621311187744,-1.9642412662506104,0.006249718368053436,1.9373409748077393,5.263969468861379,-0.0002740684140007943,0.26370105147361755,-1.5694344679461878,0.0,-0.005843370221555233,0.8185070753097534,-0.0,0.00023550167679786682,0.8164359331130981,5.494779080880749e-25,-0.03601078689098358
391.0,365.0,-1.3472,-0.1208,9.7448,-0.0212,0.0191,-0.1219,-1.7127095661559046,-0.005114902276545763,2.473665237426758,-1.9641737937927246,0.008507957682013512,1.9302998781204224,5.263973462372579,-0.00024565294734202325,0.276624858379364,-1.5693977514850062,0.0,-0.00583801232278347,0.8185271620750427,-0.0,0.004344779998064041,0.8164643049240112,1.3269246364003008e-30,-0.053108952939510345
391.0,365.0,-1.3472,-0.1208,9.7448,-0.0212,0.0191,-0.1219,-1.7127863369383753,-0.005292530171573162,2.479837656021118,-1.9640940427780151,0.01117782574146986,1.937253713607788,5.263941156655111,-0.00023695442359894514,0.25017306208610535,-1.5694101492511194,0.0,0.0041511752642691135,0.8185553550720215,-0.0,0.009477606043219566,0.8164800405502319,3.2043668211010465e-36,-0.03870026022195816
391.0,365.0,-1.3472,-0.1208,9.7448,-0.0212,0.0191,-0.1219,-1.7128297291197718,-0.005184696521610022,2.4537501335144043,-1.9640381336212158,0.013086694292724133,1.944566249847412,5.263969468861379,-0.00027266150573268533,0.24704542756080627,-1.5694220701800745,0.0,-0.008198361843824387,0.8185952305793762,-0.0,-0.008279060944914818,0.8165041208267212,7.73797012000164e-42,-0.07718099653720856
386.0,363.0,-1.2395,0.1184,9.414,-0.0315,0.06,-0.1222,-1.712809225121969,-0.0041687884368002415,2.4567270278930664,-1.9639458656311035,0.017419667914509773,1.9418120384216309,5.26394938209609,-0.0005610324442386627,0.2635442018508911,-1.569458309804098,0.0,-0.0027882482390850782,0.8186033964157104,-0.0,0.005905644968152046,0.8164922595024109,0.0,-0.07819566130638123
386.0,363.0,-1.2395,0.1184,9.414,-0.0315,0.06,-0.1222,-1.7128502331175746,-0.004195714369416237,2.4646382331848145,-1.9637614488601685,0.022011609748005867,1.9668022394180298,5.26393340805129,-0.0011840055231004953,0.25999853014945984,-1.569373909627096,0.0,0.0010758180869743228,0.8185591697692871,-0.0,-0.00690224627032876,0.8164722919464111,0.0,-0.07934165000915527
386.0,363.0,-1.2395,0.1184,9.414,-0.0315,0.06,-0.1222,-1.7128941021361292,-0.004146641585975885,2.417928695678711,-1.9635305404663086,0.029067587107419968,1.9708921909332275,5.263897406845846,-0.0017480292590335011,0.24048395454883575,-1.5694220701800745,0.0,0.010848021134734154,0.8185352683067322,-0.0,0.001098285662010312,0.8164963722229004,0.0,-0.08735471963882446
386.0,363.0,-1.2395,0.1184,9.414,-0.0315,0.06,-0.1222,-1.7129260502257289,-0.004349066410213709,2.4381041526794434,-1.9633699655532837,0.033599771559238434,2.0190577507019043,5.263909268170156,-0.00248965946957469,0.22949382662773132,-1.56940204301943,0.00014619316789321601,0.015910480171442032,0.818514883518219,-0.0,0.010898541659116745,0.8165280818939209,0.0,-0.09400628507137299
386.0,363.0,-1.2395,0.1184,9.414,-0.0315,0.06,-0.1222,-1.71293367962026,-0.006252878345549107,2.425759792327881,-1.9631667137145996,0.03931257128715515,2.0049474239349365,5.263881552010336,-0.004624510649591684,0.229121595621109,-1.5693782011615198,0.00017651230155024678,0.011218547821044922,0.8185471892356873,-0.0,-0.002599637024104595,0.8164963722229004,0.0,-0.15266187489032745
386.0,363.0,-1.2395,0.1184,9.414,-0.0315,0.06,-0.1222,-1.7129856548705042,-0.007733195088803768,2.381711721420288,-1.9628664255142212,0.0425407737493515,2.028550624847412,5.263857412129202,-0.007963468320667744,0.2258053421974182,-1.5693863073932093,0.0006493152468465269,0.015686403959989548,0.818514883518219,-0.0,-0.004853133577853441,0.8165000081062317,0.0,-0.08674171566963196
386.0,363.0,-1.2395,0.1184,9.414,-0.0315,0.06,-0.1222,-1.7130662403502406,-0.009373691864311695,2.360100507736206,-1.9626600742340088,0.047495171427726746,2.063516855239868,5.2637489316757105,-0.010523120872676373,0.22046083211898804,-1.5693662802325647,0.0009192090947180986,0.018285688012838364,0.8185553550720215,-0.0,0.002400299534201622,0.8164921998977661,0.0,-0.15289434790611267
386.0,363.0,-1.2395,0.1184,9.414,-0.0315,0.06,-0.1222,-1.7131344280638636,-0.011116355657577515,2.310776472091675,-1.9623193740844727,0.05277612432837486,2.06903076171875,5.263692962914266,-0.01078074797987938,0.21131402254104614,-1.5693824926959437,0.000941922829952091,0.03619033098220825,0.8185111880302429,-0.0,0.0061911060474812984,0.8165123462677002,0.0,-0.20604676008224487
386.0,363.0,-1.2395,0.1184,9.414,-0.0315,0.06,-0.1222,-1.713165899316305,-0.012613383121788502,2.3550825119018555,-1.9619795083999634,0.05713720992207527,2.0592825412750244,5.263637053757467,-0.008451741188764572,0.20211699604988098,-1.56932241121401,0.001067245495505631,0.047659069299697876,0.8185513019561768,-0.0,0.00195295677985996,0.8165041208267212,0.0,-0.17878343164920807
386.0,363.0,-1.2395,0.1184,9.414,-0.0315,0.06,-0.1222,-1.7132946453490199,-0.015390497632324696,2.332502841949463,-1.9616117477416992,0.059682317078113556,2.0950264930725098,5.263584601670065,-0.0069455308839678764,0.20313961803913116,-1.5693305174456995,0.0012240493670105934,0.053967416286468506,0.8185911178588867,-0.0,-0.006789167877286673,0.8165284991264343,0.0,-0.18445366621017456
386.0,363.0,-1.2395,0.1184,9.414,-0.0315,0.06,-0.1222,-1.713402887383932,-0.01717579923570156,2.2792887687683105,-1.961276888847351,0.06255438178777695,2.061309337615967,5.2635647533233545,-0.005982670467346907,0.18425185978412628,-1.5692980925189417,0.0014148218324407935,0.046633634716272354,0.818595290184021,-0.0,-0.00475131394341588,0.8164881467819214,0.0,-0.2232683300971985
386.0,363.0,-1.2395,0.1184,9.414,-0.0315,0.06,-0.1222,-1.713482519189352,-0.018504515290260315,2.264195442199707,-1.960829496383667,0.0667814239859581,2.091150999069214,5.2635368583496,-0.004405961371958256,0.1818360686302185,-1.5692814032184046,0.0027721859514713287,0.05739579349756241,0.8185874223709106,-0.0,0.00042703375220298767,0.8165362477302551,0.0,-0.25164222717285156
386.0,363.0,-1.2395,0.1184,9.414,-0.0315,0.06,-0.1222,-1.7136317692198695,-0.020127976313233376,2.262881278991699,-1.9604336023330688,0.07077313214540482,2.120734214782715,5.263497221260824,-0.0033693574368953705,0.18512922525405884,-1.569266144429342,0.009095468558371067,0.07799766212701797,0.8185710906982422,-0.0,-0.005510828457772732,0.8164917826652527,0.0,-0.26287758350372314
386.0,363.0,-1.2395,0.1184,9.414,-0.0315,0.06,-0.1222,-1.7138120136656703,-0.022381391376256943,2.2256195545196533,-1.960005760192871,0.07691174745559692,2.0908570289611816,5.263476717263021,-0.004483067896217108,0.17683471739292145,-1.5692103544818323,0.021238723769783974,0.07771414518356323,0.8185349702835083,-0.0,-0.004729800391942263,0.8165161609649658,0.0,-0.2633571922779083
386.0,363.0,-1.2395,0.1184,9.414,-0.0315,0.06,-0.1222,-1.7139674625792445,-0.027575431391596794,2.2066073417663574,-1.9592982530593872,0.08621632307767868,2.142730712890625,5.263420688896932,-0.005808673333376646,0.17712579667568207,-1.5690858999835413,0.009014058858156204,0.07787294685840607,0.818547248840332,-0.0,-0.006640147417783737,0.8164958953857422,0.0,-0.3284432888031006
391.0,354.0,-2.1057,-0.0132,9.9302,-0.0287,0.1077,-0.1145,-1.7141152820982875,-0.03134043514728546,2.262042999267578,-1.958838939666748,0.09162762761116028,2.1577494144439697,5.263413059502401,-0.00540575897321105,0.16465547680854797,-1.5690982977496546,0.0003147149982396513,0.07121328264474869,0.8186193704605103,-0.0,0.011355672031641006,0.8164635896682739,0.0,-0.3419395685195923
391.0,354.0,-2.1057,-0.0132,9.9302,-0.0287,0.1077,-0.1145,-1.7143641910948695,-0.034391000866889954,2.237117290496826,-1.958268165588379,0.10181927680969238,2.1758036613464355,5.263348328858175,-0.00421146722510457,0.172329381108284,-1.5690701643573206,8.76020678219902e-08,0.096824511885643,0.8185751438140869,-0.0,0.0022867328952997923,0.8165198564529419,0.0,-0.3276476263999939
391.0,354.0,-2.1057,-0.0132,9.9302,-0.0287,0.1077,-0.1145,-1.714572092095846,-0.03930168226361275,2.192439317703247,-1.95758855342865,0.11141575127840042,2.1332345008850098,5.263352501183309,-0.003653696971014142,0.16988876461982727,-1.56907827058901,2.4384360849949438e-11,0.08299164474010468,0.818562924861908,-0.0,0.00429212162271142,0.8164999485015869,0.0,-0.3084849715232849
391.0,354.0,-2.1057,-0.0132,9.9302,-0.0287,0.1077,-0.1145,-1.714804311791891,-0.04626811295747757,2.1780648231506348,-1.9569337368011475,0.116830013692379,2.193362236022949,5.263344692974844,-0.004257114604115486,0.16311047971248627,-1.5690982977496546,6.787477023706629e-15,0.0791143849492073,0.8186193704605103,-0.0,0.003212561132386327,0.8165161609649658,0.0,-0.32023847103118896
391.0,354.0,-2.1057,-0.0132,9.9302,-0.0287,0.1077,-0.1145,-1.7151290378966273,-0.05446527525782585,2.1206932067871094,-1.9561494588851929,0.1241653710603714,2.221972942352295,5.2633206126983545,-0.0036844774149358273,0.1620071530342102,-1.5690982977496546,1.8893193965599052e-18,0.08864647150039673,0.8185553550720215,-0.0,0.002848174190148711,0.8165202736854553,0.0,-0.34942108392715454
391.0,354.0,-2.1057,-0.0132,9.9302,-0.0287,0.1077,-0.1145,-1.7154857120909632,-0.06382277607917786,2.1828806400299072,-1.9553297758102417,0.13428735733032227,2.228224515914917,5.263389098435201,-0.0018676755717024207,0.1554068624973297,-1.5690582434283655,5.258989566052147e-22,0.10141776502132416,0.8185915350914001,-0.0,0.0009257966303266585,0.8164881467819214,0.0,-0.32508131861686707
391.0,354.0,-2.1057,-0.0132,9.9302,-0.0287,0.1077,-0.1145,-1.7158905468382777,-0.07243268936872482,2.1297173500061035,-1.9545642137527466,0.14911605417728424,2.2137160301208496,5.263280141144552,-0.0009943537879735231,0.16665677726268768,-1.569066349660055,1.4638589832371036e-25,0.1006985753774643,0.8185550570487976,-0.0,-0.005931178107857704,0.8165360689163208,0.0,-0.32632529735565186
391.0,354.0,-2.1057,-0.0132,9.9302,-0.0287,0.1077,-0.1145,-1.7163673839964808,-0.08121302723884583,2.1466875076293945,-1.953620195388794,0.1624642312526703,2.2111988067626953,5.263292538910665,-0.0007968516438268125,0.16801318526268005,-1.5690744558917444,4.074704427814658e-29,0.10283821076154709,0.8185952305793762,-0.0,0.0018041026778519154,0.8165041208267212,0.0,-0.32010799646377563
391.0,354.0,-2.1057,-0.0132,9.9302,-0.0287,0.1077,-0.1145,-1.7169038257994593,-0.08898523449897766,2.1663143634796143,-1.9525251388549805,0.17645348608493805,2.2960000038146973,5.263304757862844,-0.0005246239015832543,0.17326201498508453,-1.5690582434283655,1.1342090055746918e-32,0.10130001604557037,0.8185673356056213,-0.0,2.472149208188057e-05,0.8165038824081421,0.0,-0.3338804244995117
391.0,354.0,-2.1057,-0.0132,9.9302,-0.0287,0.1077,-0.1145,-1.7174884281554164,-0.0953136682510376,2.124469041824341,-1.9514663219451904,0.1900017261505127,2.3134071826934814,5.263348984509268,-0.0004875417216680944,0.16710174083709717,-1.569066349660055,3.157112794806471e-36,0.09107422083616257,0.8186153173446655,-0.0,0.010747937485575676,0.8164958953857422,0.0,-0.3179265260696411
391.0,354.0,-2.1057,-0.0132,9.9302,-0.0287,0.1077,-0.1145,-1.7181292972960414,-0.10016161948442459,2.1395788192749023,-1.950287938117981,0.1959090679883957,2.2464942932128906,5.263288485794821,-0.000658832024782896,0.16839918494224548,-1.569066349660055,8.787935033350939e-40,0.10386095941066742,0.8185510039329529,-0.0,0.010198657400906086,0.8165121078491211,0.0,-0.3001323640346527
391.0,354.0,-2.1057,-0.0132,9.9302,-0.0287,0.1077,-0.1145,-1.7189909420409144,-0.10125121474266052,2.128296375274658,-1.9486045837402344,0.21450428664684296,2.315894365310669,5.263224530010977,-0.0036554348189383745,0.16278034448623657,-1.5690982977496546,1.5414283107572988e-44,0.09726472198963165,0.8185830116271973,-0.0,0.00511969393119216,0.816536009311676,0.0,-0.31598415970802307
391.0,354.0,-2.1057,-0.0132,9.9302,-0.0287,0.1077,-0.1145,-1.7196351490416468,-0.10923584550619125,2.131532669067383,-1.947286605834961,0.22974394261837006,2.2939376831054688,5.26322095373229,-0.007107648067176342,0.15633459389209747,-1.5690901915179651,-3.512625698931515e-05,0.11247362196445465,0.8185632824897766,-0.0,0.019920215010643005,0.8164958953857422,0.0,-0.2777227759361267
391.0,354.0,-2.1057,-0.0132,9.9302,-0.0287,0.1077,-0.1145,-1.720283647576803,-0.12100880593061447,2.0982189178466797,-1.9458962678909302,0.2393508404493332,2.3359017372131348,5.263144480973043,-0.011609134264290333,0.15710517764091492,-1.569094483052389,4.609475945471786e-05,0.09669201821088791,0.8185710906982422,-0.0,0.005521598272025585,0.8165644407272339,0.0,-0.32516390085220337
391.0,354.0,-2.1057,-0.0132,9.9302,-0.0287,0.1077,-0.1145,-1.7211014233031214,-0.13343867659568787,2.1045150756835938,-1.944434642791748,0.24856646358966827,2.3174495697021484,5.263043927937307,-0.012762511149048805,0.16349247097969055,-1.5690744558917444,5.870210225111805e-05,0.11188501864671707,0.8186150193214417,-0.0,0.011482162401080132,0.8165401220321655,0.0,-0.2766937017440796
388.0,343.0,-1.9137,0.4905,10.5601,-0.007,0.2013,-0.1122,-1.7218662701048792,-0.14462260901927948,2.0892374515533447,-1.9428598880767822,0.2678934931755066,2.410673141479492,5.263016032963552,-0.009501373395323753,0.16863077878952026,-1.5690544287311,5.99581835558638e-05,0.096861332654953,0.8186231255531311,-0.0,0.0042427219450473785,0.8165562748908997,0.0,-0.33058232069015503
388.0,343.0,-1.9137,0.4905,10.5601,-0.007,0.2013,-0.1122,-1.7227593861021937,-0.1491791307926178,2.138953685760498,-1.9411977529525757,0.28836625814437866,2.3804712295532227,5.263008463173666,-0.006814149208366871,0.1511477828025818,-1.5690296331988733,7.462989015039057e-05,0.09198391437530518,0.8185911178588867,-0.0,0.01443345844745636,0.8165321350097656,-2.7140704332850873e-05,-0.3220300078392029
388.0,343.0,-1.9137,0.4905,10.5601,-0.007,0.2013,-0.1122,-1.7237726650633753,-0.15136346220970154,2.0772690773010254,-1.939427375793457,0.29420071840286255,2.3686156272888184,5.26291190364913,-0.006040327716618776,0.1623004674911499,-1.5690506140338343,7.054610614432022e-05,0.10294340550899506,0.8185632228851318,-0.0,0.024792155250906944,0.8165483474731445,-2.5849318262771703e-05,-0.30627962946891785
388.0,343.0,-1.9137,0.4905,10.5601,-0.007,0.2013,-0.1122,-1.724701543847555,-0.15094342827796936,2.064631223678589,-1.9375211000442505,0.3089682459831238,2.4165701866149902,5.2628681538398645,-0.005924578756093979,0.15159457921981812,-1.5690339247332972,6.662903615506366e-05,0.1144687607884407,0.8185911178588867,-0.0,0.01849394291639328,0.8165600895881653,-5.312966733228563e-10,-0.3679365813732147
388.0,343.0,-1.9137,0.4905,10.5601,-0.007,0.2013,-0.1122,-1.7256142101683558,-0.15881016850471497,2.101062774658203,-1.9356193542480469,0.3257620930671692,2.4529476165771484,5.262759732991018,-0.007850099354982376,0.13911274075508118,-1.5690544287311,7.837262091925368e-05,0.10359616577625275,0.8185550570487976,-0.0,-0.0004896179307252169,0.8165277242660522,-1.283019122293573e-15,-0.3657721281051636
388.0,343.0,-1.9137,0.4905,10.5601,-0.007,0.2013,-0.1122,-1.7266279659666957,-0.18027491867542267,2.040140390396118,-1.9337049722671509,0.32928526401519775,2.3815650939941406,5.2627485273178,-0.01573461852967739,0.15438681840896606,-1.5689738432513636,7.496167381759733e-05,0.11887282133102417,0.8185669779777527,-0.0,0.012784980237483978,0.8165560364723206,-3.0983402897398287e-21,-0.2928049564361572
388.0,343.0,-1.9137,0.4905,10.5601,-0.007,0.2013,-0.1122,-1.7277494869627894,-0.19955100119113922,2.080822229385376,-1.9316356182098389,0.33578023314476013,2.5307815074920654,5.262632000237264,-0.0207662433385849,0.1409074068069458,-1.5690458456622522,0.0001643177238292992,0.11321799457073212,0.8185911178588867,-0.0,0.015009602531790733,0.8165521621704102,-7.482126900379615e-27,-0.3367150127887726
388.0,343.0,-1.9137,0.4905,10.5601,-0.007,0.2013,-0.1122,-1.7288710079588832,-0.2057984173297882,2.0334463119506836,-1.929457426071167,0.3521837294101715,2.4564735889434814,5.262543904572286,-0.01781071536242962,0.14749006927013397,-1.5690463224994105,0.0001656360545894131,0.10524038225412369,0.8185713887214661,-0.0,0.024433322250843048,0.816544234752655,-1.806845460619627e-32,-0.28920087218284607
388.0,343.0,-1.9137,0.4905,10.5601,-0.007,0.2013,-0.1122,-1.7300812206664027,-0.19605259597301483,2.047675609588623,-1.9273524284362793,0.3712093234062195,2.5266435146331787,5.262447404652395,-0.010356451384723186,0.1482003629207611,-1.5690096060382288,0.00016447024245280772,0.10779161751270294,0.8185791969299316,-0.0,0.012339578941464424,0.8165765404701233,-4.3633197179622213e-38,-0.30636513233184814
388.0,343.0,-1.9137,0.4905,10.5601,-0.007,0.2013,-0.1122,-1.7316543064513148,-0.19177629053592682,2.054816722869873,-1.9243353605270386,0.3938972055912018,2.515841245651245,5.262435841351309,-0.0025789630599319935,0.15191158652305603,-1.5690701643573206,0.0001706211332930252,0.10071603953838348,0.8185911178588867,-0.0,0.004708383698016405,0.8165480494499207,-1.401298464324817e-45,-0.3420708477497101
388.0,343.0,-1.9137,0.4905,10.5601,-0.007,0.2013,-0.1122,-1.732948442498678,-0.2059638500213623,2.0144202709198,-1.9219136238098145,0.40663057565689087,2.52468204498291,5.262326884060659,-0.0025892548728734255,0.1520049124956131,-1.5690506140338343,0.000157814341946505,0.11924722790718079,0.8185550570487976,-0.0,0.028112582862377167,0.8165521621704102,0.0,-0.3276716470718384
388.0,343.0,-1.9137,0.4905,10.5601,-0.007,0.2013,-0.1122,-1.7342430553831996,-0.22567777335643768,2.069673538208008,-1.9194124937057495,0.414445698261261,2.56656551361084,5.2622872469718835,-0.008533311076462269,0.14146018028259277,-1.5690420309649866,0.0001571841276017949,0.10774297267198563,0.818562924861908,-0.0,0.017226073890924454,0.8165803551673889,0.0,-0.3037019968032837
388.0,343.0,-1.9137,0.4905,10.5601,-0.007,0.2013,-0.1122,-1.7355882130064906,-0.24255451560020447,2.1202778816223145,-1.9169117212295532,0.42852792143821716,2.5788965225219727,5.262230860977926,-0.01018513273447752,0.13904865086078644,-1.569010082875387,0.00013381277676671743,0.10487378388643265,0.8185911178588867,-0.0,0.02278905361890793,0.8165762424468994,0.0,-0.29067540168762207
388.0,343.0,-1.9137,0.4905,10.5601,-0.007,0.2013,-0.1122,-1.7369610271849574,-0.2515054941177368,1.9689064025878906,-1.9143257141113281,0.44674041867256165,2.5766429901123047,5.262243616371908,-0.009092592634260654,0.14490710198879242,-1.5690301100360315,0.00011648813233477995,0.11242406070232391,0.8186149597167969,-0.0,0.016806747764348984,0.8165280818939209,0.00015723411343060434,-0.31266888976097107
409.0,358.0,-1.9149,-0.0132,10.5858,-0.0382,0.2723,-0.1165,-1.7384840450682582,-0.2534117102622986,2.0141353607177734,-1.911572813987732,0.4609164297580719,2.63702654838562,5.262191700726309,-0.006841224152594805,0.14272020757198334,-1.569022003804342,0.00013750456855632365,0.10393539071083069,0.8185670375823975,-0.0,0.02848491445183754,0.8165280818939209,1.085957848090402e-07,-0.2465210109949112
409.0,358.0,-1.9149,-0.0132,10.5858,-0.0382,0.2723,-0.1165,-1.7399612865843714,-0.24654486775398254,2.092719078063965,-1.9087085723876953,0.47408246994018555,2.6481337547302246,5.262138831406393,-0.0038111305329948664,0.1462623029947281,-1.5690057913409632,0.00012337480438873172,0.10925424098968506,0.8185908198356628,4.846295951210777e-07,0.020276933908462524,0.8165076971054077,2.6224600832916445e-13,-0.2840319871902466
409.0,358.0,-1.9149,-0.0132,10.5858,-0.0382,0.2723,-0.1165,-1.7415029011168421,-0.2556050419807434,2.1006600856781006,-1.9058442115783691,0.48682931065559387,2.6329612731933594,5.262098896294393,-0.0022883007768541574,0.14566326141357422,-1.5690344015704554,0.00011187174095539376,0.10233783721923828,0.818570613861084,1.3489842576319688e-10,0.028521828353405,0.8165362477302551,6.332931992833545e-19,-0.29145437479019165
409.0,358.0,-1.9149,-0.0132,10.5858,-0.0382,0.2723,-0.1165,-1.743134161035055,-0.268375962972641,2.0521554946899414,-1.9028005599975586,0.5022283792495728,2.6706738471984863,5.262123334198751,-0.0014723329804837704,0.14323070645332336,-1.5690377394305628,7.673387881368399e-05,0.11362718045711517,0.8185830116271973,3.75494753834197e-14,0.02368653379380703,0.8165280818939209,1.5293283493503354e-24,-0.3320450186729431
409.0,358.0,-1.9149,-0.0132,10.5858,-0.0382,0.2723,-0.1165,-1.7448069057860316,-0.2780452370643616,2.0376083850860596,-1.8997420072555542,0.5142229199409485,2.652559757232666,5.26214753368453,-0.0011447705328464508,0.14249497652053833,-1.5690625349627894,6.786439917050302e-05,0.10692230612039566,0.8185833096504211,1.0452034190177119e-17,0.01925659365952015,0.8165000081062317,3.693148215029273e-30,-0.2955724596977234
409.0,358.0,-1.9149,-0.0132,10.5858,-0.0382,0.2723,-0.1165,-1.746549745599264,-0.2881608009338379,2.0569300651550293,-1.896541953086853,0.521719217300415,2.683530807495117,5.262119340687551,-0.0017950601177290082,0.13509926199913025,-1.568981949483053,6.096751894801855e-05,0.11611565947532654,0.8186071515083313,2.9093620334625314e-21,0.030422886833548546,0.8165362477302551,8.918518113605668e-36,-0.3181248605251312
409.0,358.0,-1.9149,-0.0132,10.5858,-0.0382,0.2723,-0.1165,-1.7483235798277796,-0.3040897846221924,2.0864346027374268,-1.8934152126312256,0.5345335602760315,2.682370185852051,5.262123334198751,-0.0011605257168412209,0.1523108035326004,-1.568986717854635,8.295083534903824e-05,0.10303661227226257,0.8185911178588867,8.098317863101809e-25,0.030051682144403458,0.8164799213409424,2.1536556098208114e-41,-0.29258430004119873
409.0,358.0,-1.9149,-0.0132,10.5858,-0.0382,0.2723,-0.1165,-1.750765939752096,-0.300491601228714,2.122504949569702,-1.8890432119369507,0.5556389689445496,2.7132210731506348,5.262110996037283,-0.0002447927254252136,0.1505509465932846,-1.568953816090719,7.392273982986808e-05,0.11194291710853577,0.8185788989067078,1.4718295177380293e-29,0.03862236812710762,0.8164718151092529,0.0,-0.2524174451828003
409.0,358.0,-1.9149,-0.0132,10.5858,-0.0382,0.2723,-0.1165,-1.7527133427061976,-0.3033355474472046,2.1204111576080322,-1.8857566118240356,0.5640649199485779,2.6720528602600098,5.262135255127706,-0.00017360395577270538,0.15677876770496368,-1.5689738432513636,9.107517689699307e-05,0.10830287635326385,0.8185550570487976,4.096890951519408e-33,0.030374808236956596,0.8164717555046082,-0.00018667581025511026,-0.34902703762054443
409.0,358.0,-1.9149,-0.0132,10.5858,-0.0382,0.2723,-0.1165,-1.7546035252013148,-0.31511548161506653,2.139512062072754,-1.882311463356018,0.5753943920135498,2.679348945617676,5.262171673565664,-0.000134613030240871,0.14631697535514832,-1.5690344015704554,8.465613063890487e-05,0.11461011320352554,0.8185189962387085,1.140384672063589e-36,0.030132707208395004,0.8165123462677002,-0.00016602754476480186,-0.31819674372673035
409.0,358.0,-1.9149,-0.0132,10.5858,-0.0382,0.2723,-0.1165,-1.7565700016417445,-0.318029522895813,2.0797696113586426,-1.8789393901824951,0.5870121717453003,2.703306198120117,5.262111174851217,-0.000150411986396648,0.1367083042860031,-1.569010082875387,7.907726103439927e-05,0.11801653355360031,0.8186071515083313,3.174305359296435e-40,0.00782184861600399,0.816495954990387,-0.0001494817843195051,-0.3152236044406891
409.0,358.0,-1.9149,-0.0132,10.5858,-0.0382,0.2723,-0.1165,-1.7585326633849085,-0.33208751678466797,2.095053195953369,-1.8754266500473022,0.586638331413269,2.676560878753662,5.262151706009664,-0.0002818817156367004,0.14778763055801392,-1.5690425078021448,9.272452007280663e-05,0.11511304974555969,0.8185632228851318,8.828180325246348e-44,0.032149285078048706,0.816544234752655,-0.0001359347952529788,-0.3251500129699707
409.0,358.0,-1.9149,-0.0132,10.5858,-0.0382,0.2723,-0.1165,-1.7605310879149378,-0.34727829694747925,2.0855681896209717,-1.8718398809432983,0.5851308703422546,2.6599502563476562,5.262119340687551,-0.0029829840641468763,0.15171241760253906,-1.5689862410174769,8.73358003445901e-05,0.12831921875476837,0.8185830116271973,0.0,0.023137589916586876,0.8165243864059448,-0.00012463939492590725,-0.3250124156475067
409.0,358.0,-1.9149,-0.0132,10.5858,-0.0382,0.2723,-0.1165,-1.7625132999815882,-0.34731125831604004,2.1254234313964844,-1.8682044744491577,0.5942380428314209,2.6761772632598877,5.262087273388662,-0.001377879991196096,0.15782710909843445,-1.5689862410174769,0.000137887749588117,0.1284915953874588,0.8185591697692871,0.0,0.017822548747062683,0.8165120482444763,-0.00011507724411785603,-0.3443630337715149
409.0,358.0,-1.9149,-0.0132,10.5858,-0.0382,0.2723,-0.1165,-1.764519830743307,-0.34524667263031006,2.123363971710205,-1.8646177053451538,0.6048844456672668,2.709378480911255,5.2621033666427515,-0.00025002972688525915,0.15394413471221924,-1.5689619223224085,0.00012633591541089118,0.13509759306907654,0.818587064743042,0.0,0.01810666173696518,0.8165000081062317,-0.00010687777830753475,-0.34910863637924194
512.0,401.0,-2.0441,-0.1149,9.9159,-0.048,0.2317,-0.1153,-1.7666346035399378,-0.340785950422287,2.1662275791168213,-1.8609503507614136,0.6151406764984131,2.643514633178711,5.262087332993307,-0.00011745437222998589,0.15447719395160675,-1.5689824263202112,0.00011652127432171255,0.13797618448734283,0.8185751438140869,0.0,0.01282593049108982,0.8165041208267212,-9.976902219932526e-05,-0.34187740087509155
512.0,401.0,-2.0441,-0.1149,9.9159,-0.048,0.2317,-0.1153,-1.7685848675169886,-0.3403240144252777,2.167069911956787,-1.8572782278060913,0.6231002807617188,2.6744909286499023,5.26208375671462,-0.0002868269511964172,0.1508082151412964,-1.5689457098590296,0.00012973963748663664,0.11952807754278183,0.8185989856719971,0.0,0.012498881667852402,0.816544234752655,-9.354699432151392e-05,-0.37840116024017334
512.0,401.0,-2.0441,-0.1149,9.9159,-0.048,0.2317,-0.1153,-1.7706834278502406,-0.35060518980026245,2.1690196990966797,-1.8535634279251099,0.6247788071632385,2.676784038543701,5.26202284076766,-0.0036533456295728683,0.15053221583366394,-1.5690105597125452,0.00012102236360078678,0.12787765264511108,0.8185271620750427,0.0,0.017178870737552643,0.8165000081062317,-8.805553807178512e-05,-0.3836018145084381
512.0,401.0,-2.0441,-0.1149,9.9159,-0.048,0.2317,-0.1153,-1.7728187046446742,-0.3648591637611389,2.159405469894409,-1.8498531579971313,0.6274123787879944,2.620565891265869,5.261983084469595,-0.00675236014649272,0.15851816534996033,-1.5689943472491663,0.00011339783668518066,0.1290789693593979,0.8186152577400208,0.0,0.011242203414440155,0.8165604472160339,-6.653847231063992e-05,-0.31993451714515686
512.0,401.0,-2.0441,-0.1149,9.9159,-0.048,0.2317,-0.1153,-1.7757946453490199,-0.3781484365463257,2.1499903202056885,-1.8448234796524048,0.6292157769203186,2.6608166694641113,5.261935043125906,-0.011737181805074215,0.14637798070907593,-1.5689824263202112,0.00012202570360386744,0.12172055244445801,0.8185550570487976,0.0,0.012650787830352783,0.8164840340614319,-2.672369737410918e-05,-0.3465448021888733
512.0,401.0,-2.0441,-0.1149,9.9159,-0.048,0.2317,-0.1153,-1.7780538998045863,-0.3776727318763733,2.182283401489258,-1.8409318923950195,0.629343569278717,2.6359686851501465,5.261878835945883,-0.014761543832719326,0.12787817418575287,-1.5689943472491663,0.00011534206714713946,0.1341014951467514,0.8185833096504211,0.0,-0.0024348157458007336,0.8164963722229004,-4.660186095861718e-05,-0.35426345467567444
512.0,401.0,-2.0441,-0.1149,9.9159,-0.048,0.2317,-0.1153,-1.7803408108153285,-0.38314735889434814,2.189695358276367,-1.8370659351348877,0.6366444230079651,2.6884281635284424,5.261831211834707,-0.014012943021953106,0.15663418173789978,-1.5690344015704554,0.00012492128007579595,0.13137181103229523,0.8185189962387085,0.0,0.006391191855072975,0.8165280818939209,-6.486524944193661e-05,-0.3885577917098999
512.0,401.0,-2.0441,-0.1149,9.9159,-0.048,0.2317,-0.1153,-1.7827283344664515,-0.3770918846130371,2.1518335342407227,-1.8332536220550537,0.6443650722503662,2.7060956954956055,5.261735129147329,-0.012697328813374043,0.14447809755802155,-1.5689457098590296,0.00011877233191626146,0.13381735980510712,0.8185791969299316,0.0,0.012397611513733864,0.8165403604507446,-6.0505804867716506e-05,-0.38135141134262085
512.0,401.0,-2.0441,-0.1149,9.9159,-0.048,0.2317,-0.1153,-1.7850352726378382,-0.3860539495944977,2.190011978149414,-1.8294250965118408,0.649480402469635,2.66070556640625,5.2615824220474146,-0.014828323386609554,0.1436331868171692,-1.5690386931048792,0.00011317164171487093,0.13122780621051788,0.8186311721801758,0.0,0.01235161442309618,0.8165041208267212,-5.669431629939936e-05,-0.3604160249233246
512.0,401.0,-2.0441,-0.1149,9.9159,-0.048,0.2317,-0.1153,-1.7874475918211878,-0.3907414674758911,2.205066204071045,-1.8255609273910522,0.6447280049324036,2.607527732849121,5.261441814690389,-0.022366154938936234,0.15134300291538239,-1.5689786116229456,0.00010807537182699889,0.13924512267112732,0.8185833096504211,0.0,0.0050456710159778595,0.8165243864059448,-5.333458466338925e-05,-0.3637987971305847
512.0,401.0,-2.0441,-0.1149,9.9159,-0.048,0.2317,-0.1153,-1.7898513279356898,-0.40249204635620117,2.1990275382995605,-1.821692943572998,0.6421158313751221,2.681096076965332,5.26130239942626,-0.03381506726145744,0.14083272218704224,-1.5690024534808558,0.00010341826418880373,0.13428892195224762,0.8185952305793762,0.0,0.007393470965325832,0.8164958953857422,-6.713406764902174e-05,-0.3332817554473877
512.0,401.0,-2.0441,-0.1149,9.9159,-0.048,0.2317,-0.1153,-1.79221834758901,-0.41444626450538635,2.2103707790374756,-1.8178579807281494,0.6426162123680115,2.6611599922180176,5.261021482735433,-0.05170730501413345,0.12613320350646973,-1.5690024534808558,0.00010603251575957984,0.1278194934129715,0.8185468316078186,0.0,0.015657246112823486,0.8165565133094788,-0.00019012700067833066,-0.39958465099334717
512.0,401.0,-2.0441,-0.1149,9.9159,-0.048,0.2317,-0.1153,-1.7946702442564906,-0.41501620411872864,2.191282272338867,-1.8140006065368652,0.6410852074623108,2.6232564449310303,5.260596143990316,-0.07122085988521576,0.13030822575092316,-1.5689461866961878,0.00011752702266676351,0.13874441385269165,0.818587064743042,0.0,-0.00016020587645471096,0.8165326118469238,-0.0009172967402264476,-0.32168084383010864
512.0,401.0,-2.0441,-0.1149,9.9159,-0.048,0.2317,-0.1153,-1.7970577679076136,-0.4136897623538971,2.233691930770874,-1.8101075887680054,0.6351680755615234,2.6747708320617676,5.260144161968984,-0.08956429362297058,0.10785937309265137,-1.568986717854635,0.00011148759222123772,0.1258496642112732,0.8185710906982422,0.0,0.005793239921331406,0.8164399266242981,-0.003314926289021969,-0.41875067353248596
512.0,401.0,-2.0441,-0.1149,9.9159,-0.048,0.2317,-0.1153,-1.7995501957335414,-0.40787002444267273,2.19258975982666,-1.8062626123428345,0.634657621383667,2.6866190433502197,5.259663510113516,-0.09618530422449112,0.10912570357322693,-1.5689500013934534,0.0001224052393808961,0.13665199279785156,0.8185673356056213,0.0,0.0054680900648236275,0.8164243698120117,-0.0038477799389511347,-0.4291159510612488
728.0,410.0,-2.546,-0.2249,8.9862,-0.0403,-0.0686,-0.1097,-1.8020225963988246,-0.4034191966056824,2.3077127933502197,-1.8024814128875732,0.6373853087425232,2.7008304595947266,5.259082603245535,-0.08996853977441788,0.10655345022678375,-1.5689380804644983,0.00011573254596441984,0.1352885663509369,0.8185713887214661,0.0,-0.0022874483838677406,0.8163918852806091,-0.004149803891777992,-0.3948433995246887
728.0,410.0,-2.546,-0.2249,8.9862,-0.0403,-0.0686,-0.1097,-1.8044291935362757,-0.4069758951663971,2.3023500442504883,-1.7987128496170044,0.6377653479576111,2.712177276611328,5.258574652462759,-0.08194020390510559,0.10543262958526611,-1.5689380804644983,0.00010968752758344635,0.14077086746692657,0.8185551166534424,0.0,0.0030253466684371233,0.8164243698120117,-0.0040486096404492855,-0.40430760383605957
728.0,410.0,-2.546,-0.2249,8.9862,-0.0403,-0.0686,-0.1097,-1.80772127727651,-0.407747358083725,2.2967803478240967,-1.7936129570007324,0.6306907534599304,2.6458191871643066,5.257873642235555,-0.10033024102449417,0.09841671586036682,-1.5689781347857874,0.00011713074491126463,0.13003358244895935,0.8186076283454895,0.0,0.00298543949611485,0.8163360357284546,-0.004019903484731913,-0.47701412439346313
728.0,410.0,-2.546,-0.2249,8.9862,-0.0403,-0.0686,-0.1097,-1.8102246723570765,-0.4141196310520172,2.3160948753356934,-1.7898286581039429,0.6315244436264038,2.6881935596466064,5.257083642273702,-0.13935790956020355,0.0843362957239151,-1.568953816090719,0.00011173891834914684,0.1329115927219391,0.8185631632804871,0.0,-0.004070142284035683,0.8162875175476074,-0.0026506001595407724,-0.42669111490249634
728.0,410.0,-2.546,-0.2249,8.9862,-0.0403,-0.0686,-0.1097,-1.8127366505064906,-0.4122838079929352,2.340481758117676,-1.7860510349273682,0.6370301246643066,2.6837592124938965,5.256222831993856,-0.16187675297260284,0.07379093766212463,-1.5689581076251429,0.00010676799865905195,0.1388305276632309,0.8185949325561523,0.0,0.017672667279839516,0.8163520693778992,-0.0017435119953006506,-0.42960765957832336
728.0,410.0,-2.546,-0.2249,8.9862,-0.0403,-0.0686,-0.1097,-1.8152724705138148,-0.40913644433021545,2.3198845386505127,-1.7822803258895874,0.6325246095657349,2.6633548736572266,5.255185353546896,-0.16498984396457672,0.08333947509527206,-1.5689461866961878,0.0001244402228621766,0.13228750228881836,0.8184947371482849,0.0,0.009880390018224716,0.8162999153137207,-0.0014915269566699862,-0.4778575897216797
728.0,410.0,-2.546,-0.2249,8.9862,-0.0403,-0.0686,-0.1097,-1.817831655541891,-0.4139152765274048,2.373042583465576,-1.7784892320632935,0.6217803955078125,2.648263931274414,5.254152166634359,-0.1803337186574936,0.06729277968406677,-1.568941895161764,0.00013467142707668245,0.13400202989578247,0.8185390830039978,0.0,0.002852216362953186,0.8163602948188782,-0.0012584649957716465,-0.42403435707092285
728.0,410.0,-2.546,-0.2249,8.9862,-0.0403,-0.0686,-0.1097,-1.820343633691305,-0.41616755723953247,2.3119630813598633,-1.7747116088867188,0.6182768940925598,2.68290376663208,5.2529018996055505,-0.2075456827878952,0.056897446513175964,-1.5689905325519007,0.00012358123785816133,0.13313601911067963,0.8184829354286194,0.0,-0.0019182192627340555,0.8163116574287415,-0.00039158001891337335,-0.4543350338935852
728.0,410.0,-2.546,-0.2249,8.9862,-0.0403,-0.0686,-0.1097,-1.8228603802123011,-0.42831501364707947,2.33188796043396,-1.7709934711456299,0.6149515509605408,2.673654556274414,5.251661169319906,-0.21715663373470306,0.047936566174030304,-1.5689500013934534,0.00011417407949920744,0.14523595571517944,0.8185751438140869,0.0,-0.0011440046364441514,0.8163155317306519,-0.00021527212811633945,-0.37085169553756714
728.0,410.0,-2.546,-0.2249,8.9862,-0.0403,-0.0686,-0.1097,-1.8253184757628382,-0.42865437269210815,2.396245002746582,-1.7673625946044922,0.6125985383987427,2.650590419769287,5.250303315907278,-0.24426360428333282,0.03727522864937782,-1.5690024534808558,0.00010609784658299759,0.12486898899078369,0.8185591697692871,0.0,0.009354905225336552,0.8162756562232971,-0.00023759264149703085,-0.4667951464653015
728.0,410.0,-2.546,-0.2249,8.9862,-0.0403,-0.0686,-0.1097,-1.827818056146139,-0.4251723289489746,2.3425793647766113,-1.7637641429901123,0.6061955094337463,2.70409893989563,5.248647141247549,-0.26848775148391724,0.029227614402770996,-1.5689657370196741,9.90888656815514e-05,0.14247795939445496,0.8185710310935974,0.0,0.006515322718769312,0.8163360357284546,-0.0002289218973601237,-0.4395477771759033
728.0,410.0,-2.546,-0.2249,8.9862,-0.0403,-0.0686,-0.1097,-1.8303176365294398,-0.4164479970932007,2.406033515930176,-1.760104775428772,0.6043387055397034,2.695619583129883,5.247014510422506,-0.28492310643196106,0.023695556446909904,-1.5689824263202112,0.00010209226456936449,0.14080771803855896,0.8186033964157104,0.0,0.004534151870757341,0.8163363337516785,-0.0001451074640499428,-0.38807836174964905
728.0,410.0,-2.546,-0.2249,8.9862,-0.0403,-0.0686,-0.1097,-1.8327051601805628,-0.41019541025161743,2.3705787658691406,-1.7565546035766602,0.6043949723243713,2.6231913566589355,5.245054828911581,-0.31377366185188293,-0.006231958046555519,-1.5689781347857874,8.811443694867194e-05,0.14417490363121033,0.8185591697692871,0.0,0.0018585738725960255,0.8163483738899231,-0.00011629032815108076,-0.42468932271003723
728.0,410.0,-2.546,-0.2249,8.9862,-0.0403,-0.0686,-0.1097,-1.8351813755431117,-0.4085025489330292,2.399101972579956,-1.753000020980835,0.6064462065696716,2.6646504402160645,5.2430916903312585,-0.34428396821022034,-0.015476938337087631,-1.568953816090719,9.895547555061057e-05,0.15105797350406647,0.8185312747955322,0.0,0.01564684510231018,0.8162996172904968,-4.871399869443849e-05,-0.419755756855011
728.0,410.0,-2.546,-0.2249,8.9862,-0.0403,-0.0686,-0.1097,-1.838494440118307,-0.4090976119041443,2.4259538650512695,-1.7480844259262085,0.5889095067977905,2.630305051803589,5.240119504719534,-0.3802998661994934,-0.03273007273674011,-1.568953816090719,7.704077870585024e-05,0.13919013738632202,0.8185513019561768,0.0,-0.0017489446327090263,0.81632399559021,-4.003684443887323e-05,-0.45253875851631165
697.0,362.0,-3.2973,-0.0927,9.6885,-0.0365,-0.452,-0.1283,-1.8409930668272914,-0.41508305072784424,2.4407553672790527,-1.7445061206817627,0.5837589502334595,2.6766467094421387,5.237756240158834,-0.40460681915283203,-0.053907930850982666,-1.5689824263202112,7.327308412641287e-05,0.14408087730407715,0.8185915350914001,0.0,0.012733468785881996,0.8162916898727417,-3.532248956616968e-05,-0.4446982145309448
697.0,362.0,-3.2973,-0.0927,9.6885,-0.0365,-0.452,-0.1283,-1.843499322930807,-0.41339820623397827,2.4460482597351074,-1.7409745454788208,0.5869544148445129,2.6949734687805176,5.235190498619833,-0.43777209520339966,-0.046145837754011154,-1.5689824263202112,6.986051448620856e-05,0.11887779831886292,0.8185632228851318,0.0,0.01193331740796566,0.8163116574287415,-3.160156848025508e-05,-0.4518333673477173
697.0,362.0,-3.2973,-0.0927,9.6885,-0.0365,-0.452,-0.1283,-1.8460012874998988,-0.4073804020881653,2.520261287689209,-1.7374887466430664,0.5885417461395264,2.6517741680145264,5.232477295189657,-0.46133384108543396,-0.04462346062064171,-1.5689943472491663,6.675163604086265e-05,0.13181434571743011,0.8185189962387085,0.0,-0.0022947213146835566,0.8162677884101868,-4.523291136138141e-05,-0.4031771421432495
697.0,362.0,-3.2973,-0.0927,9.6885,-0.0365,-0.452,-0.1283,-1.8484436474242152,-0.4023149609565735,2.4947495460510254,-1.7339450120925903,0.5858303904533386,2.6177334785461426,5.229616153031149,-0.4845238924026489,-0.07326731085777283,-1.5689824263202112,2.436621616652701e-05,0.14780692756175995,0.8185476064682007,0.0,-0.011406145058572292,0.8163242936134338,-3.931379978894256e-05,-0.37765052914619446
697.0,362.0,-3.2973,-0.0927,9.6885,-0.0365,-0.452,-0.1283,-1.8509465656676234,-0.3932405114173889,2.513511896133423,-1.730554461479187,0.5792786478996277,2.6433348655700684,5.2266397950942896,-0.5108392834663391,-0.06760473549365997,-1.5689657370196741,3.6161927141620254e-07,0.12836197018623352,0.8185833692550659,0.0,-0.003466811729595065,0.81632399559021,-3.475850462564267e-05,-0.4327564239501953
697.0,362.0,-3.2973,-0.0927,9.6885,-0.0365,-0.452,-0.1283,-1.8532968960204066,-0.4020237326622009,2.4644389152526855,-1.7270467281341553,0.5754038095474243,2.6493186950683594,5.223526346474447,-0.5408239364624023,-0.08204491436481476,-1.5690105597125452,1.0065807215520195e-10,0.13134267926216125,0.8185513019561768,0.0,0.0010463478974997997,0.8163195848464966,-3.671528929771739e-06,-0.41991302371025085
697.0,362.0,-3.2973,-0.0927,9.6885,-0.0365,-0.452,-0.1283,-1.8558036289610804,-0.40574410557746887,2.5332586765289307,-1.723715901374817,0.5735780000686646,2.690291404724121,5.220166969090261,-0.5792332291603088,-0.0711389109492302,-1.568970028554098,2.801854377036759e-14,0.12735913693904877,0.8185070753097534,0.0,-0.003579543437808752,0.8162916898727417,-8.86631046359554e-12,-0.4048929214477539
697.0,362.0,-3.2973,-0.0927,9.6885,-0.0365,-0.452,-0.1283,-1.8581496677794398,-0.41041678190231323,2.5308592319488525,-1.7203118801116943,0.5592126846313477,2.6451964378356934,5.216538953572073,-0.6028487086296082,-0.06692437827587128,-1.5689781347857874,7.799064133650096e-18,0.12701059877872467,0.8184948563575745,0.0,-0.01068244781345129,0.8162636160850525,-2.141109700862474e-17,-0.40049177408218384
