ramyac6/ROB537/final_project/csv/all/good_127.csv
tof_0,tof_1,accelx,accely,accelz,gyrox,gyroy,gyroz,shoulder_lift_joint_position,shoulder_lift_joint_velocity,shoulder_lift_joint_effort,elbow_joint_position,elbow_joint_velocity,elbow_joint_effort,wrist_1_joint_position,wrist_1_joint_velocity,wrist_1_joint_effort,wrist_2_joint_position,wrist_2_joint_velocity,wrist_2_joint_effort,wrist_3_joint_position,wrist_3_joint_velocity,wrist_3_joint_effort,shoulder_pan_joint_position,shoulder_pan_joint_velocity,shoulder_pan_joint_effort
469.0,389.0,-1.0798,-0.7077,9.4642,-0.0376,0.0261,-0.12,-1.551851139669754,0.0,2.066236972808838,-1.8167496919631958,-0.0,2.162471294403076,4.973718392639913,-0.0,0.28153812885284424,-1.5002697149859827,-0.0,-0.007559912744909525,0.7499809861183167,0.0,0.003348901169374585,0.5857799649238586,0.0,0.00029464252293109894
469.0,389.0,-1.0798,-0.7077,9.4642,-0.0376,0.0261,-0.12,-1.5518028505942603,0.0,2.0118913650512695,-1.816749930381775,-0.0,2.0900778770446777,4.973754364043035,-0.0,0.2710377275943756,-1.500253979359762,-0.0,-0.018109537661075592,0.7499486207962036,0.0,0.00344312796369195,0.5858242511749268,0.0,0.02098001539707184
469.0,389.0,-1.0798,-0.7077,9.4642,-0.0376,0.0261,-0.12,-1.5518593595227976,0.0,2.0551981925964355,-1.8167455196380615,-0.0,2.140416145324707,4.973750340729513,-0.0,0.26526299118995667,-1.5002935568438929,-0.0,-0.02199453115463257,0.7499687671661377,0.0,0.001626988174393773,0.5858164429664612,0.0,0.023018378764390945
469.0,389.0,-1.0798,-0.7077,9.4642,-0.0376,0.0261,-0.12,-1.5518313211253663,0.0,2.0599613189697266,-1.8167856931686401,-0.0,2.1423306465148926,4.973774182587423,-0.0,0.2688038647174835,-1.500253979359762,-0.0,-0.02822050452232361,0.7499166131019592,0.0,-0.0052383821457624435,0.5857921242713928,0.0,-0.0012329864548519254
469.0,389.0,-1.0798,-0.7077,9.4642,-0.0376,0.0261,-0.12,-1.5518634610674162,0.0,2.031784772872925,-1.8167774677276611,-0.0,2.1294474601745605,4.9737862823303125,-0.0,0.27560508251190186,-1.5002697149859827,-0.0,-0.01931062340736389,0.749908447265625,0.0,0.00025598169304430485,0.5858123302459717,0.0,0.024480676278471947
469.0,389.0,-1.0798,-0.7077,9.4642,-0.0376,0.0261,-0.12,-1.55187967166815,0.0,2.0331838130950928,-1.816737413406372,-0.0,2.160503625869751,4.973762261658468,-0.0,0.27462440729141235,-1.5003016630755823,-0.0,-0.017229421064257622,0.749916672706604,0.0,-0.008131042122840881,0.5858283638954163,0.0,-0.02260644920170307
497.0,410.0,-1.1958,-0.7549,9.746,-0.0234,0.0327,-0.1222,-1.5518351674875994,0.0,2.0321590900421143,-1.8167455196380615,-0.0,2.16266131401062,4.973734366684713,-0.0,0.2748637795448303,-1.5003021399127405,-0.0,-0.011468964628875256,0.7499768733978271,0.0,-0.0004478215705603361,0.5858445167541504,0.0,-0.01619652658700943
497.0,410.0,-1.1958,-0.7549,9.746,-0.0234,0.0327,-0.1222,-1.5518956326744338,0.0,2.043980598449707,-1.81673002243042,-0.0,2.143320083618164,4.9737422344978235,-0.0,0.27358701825141907,-1.500237766896383,-0.0,-0.005394922569394112,0.7499769330024719,0.0,-0.011276906356215477,0.5858242511749268,0.0,-0.007648882456123829
497.0,410.0,-1.1958,-0.7549,9.746,-0.0234,0.0327,-0.1222,-1.5518474795720358,0.0,2.0205554962158203,-1.8167219161987305,-0.0,2.1412901878356934,4.9737383899982355,-0.0,0.2605760395526886,-1.5002697149859827,-0.0,-0.012066016905009747,0.7499408721923828,0.0,-0.006722379010170698,0.5858242511749268,0.0,-0.03210717812180519
497.0,410.0,-1.1958,-0.7549,9.746,-0.0234,0.0327,-0.1222,-1.5518515960178156,0.0,2.0194244384765625,-1.8167259693145752,-0.0,2.1248109340667725,4.973726260453024,-0.0,0.2621384859085083,-1.500237766896383,-0.0,-0.019723135977983475,0.7499769330024719,0.0,0.0019012291450053453,0.5859010219573975,0.0,0.03270344436168671
497.0,410.0,-1.1958,-0.7549,9.746,-0.0234,0.0327,-0.1222,-1.5518392839333792,0.0,2.026658773422241,-1.8167496919631958,-0.0,2.1499152183532715,4.9737503109271906,-0.0,0.274291068315506,-1.5002458731280726,-0.0,-0.021714486181735992,0.7499408721923828,0.0,0.0040242960676550865,0.5858242511749268,0.0,0.025797002017498016
497.0,410.0,-1.1958,-0.7549,9.746,-0.0234,0.0327,-0.1222,-1.5518231031349679,0.0,2.040367603302002,-1.8167693614959717,-0.0,2.1601290702819824,4.9737102566059015,-0.0,0.27690961956977844,-1.5002697149859827,-0.0,-0.01516030728816986,0.7499531507492065,0.0,-0.0059799253940582275,0.5858082175254822,0.0,0.01620895229279995
497.0,410.0,-1.1958,-0.7549,9.746,-0.0234,0.0327,-0.1222,-1.551855282192566,0.0,2.044196128845215,-1.8167537450790405,-0.0,2.094759464263916,4.9737703678901575,-0.0,0.27575743198394775,-1.5002501646624964,-0.0,-0.02913949452340603,0.7500215768814087,0.0,0.0072576855309307575,0.5858082175254822,0.0,-0.01793835684657097
497.0,410.0,-1.1958,-0.7549,9.746,-0.0234,0.0327,-0.1222,-1.5518593595227976,0.0,2.0999655723571777,-1.816738247871399,-0.0,2.1318345069885254,4.973722386151113,-0.0,0.27365702390670776,-1.5002740065204065,-0.0,-0.01114540733397007,0.7499326467514038,0.0,0.00048477714881300926,0.5858242511749268,0.0,0.009320610202848911
497.0,410.0,-1.1958,-0.7549,9.746,-0.0234,0.0327,-0.1222,-1.5518392839333792,0.0,2.072446346282959,-1.816753625869751,-0.0,2.1272692680358887,4.973726558476248,-0.0,0.27261215448379517,-1.500253979359762,-0.0,-0.023058701306581497,0.7499449253082275,0.0,0.010445905849337578,0.5858444571495056,0.0,0.013477583415806293
493.0,411.0,-1.0684,-0.7131,9.5181,-0.0338,0.0307,-0.1261,-1.5518915516189118,0.0,2.084380865097046,-1.8167219161987305,-0.0,2.1384544372558594,4.973738211184301,-0.0,0.2685602903366089,-1.500213925038473,-0.0,-0.02548014000058174,0.7499126195907593,0.0,0.012545364908874035,0.5858283042907715,0.0,0.01102176308631897
493.0,411.0,-1.0684,-0.7131,9.5181,-0.0338,0.0307,-0.1261,-1.551855282192566,0.0,2.0592212677001953,-1.8167134523391724,-0.0,2.1905434131622314,4.97370212057189,-0.0,0.2639968991279602,-1.500265900288717,-0.0,-0.023577935993671417,0.7499449253082275,0.0,0.01092221587896347,0.5857961773872375,0.0,-0.0321253277361393
493.0,411.0,-1.0684,-0.7131,9.5181,-0.0338,0.0307,-0.1261,-1.551875540321209,0.0,2.051661491394043,-1.8167496919631958,-0.0,2.127880811691284,4.97376229146079,-0.0,0.2725927531719208,-1.500282112752096,-0.0,-0.028507912531495094,0.7499527931213379,0.0,0.014118626713752747,0.585808277130127,0.0,0.006344390567392111
493.0,411.0,-1.0684,-0.7131,9.5181,-0.0338,0.0307,-0.1261,-1.5518313211253663,0.0,1.9902327060699463,-1.81673002243042,-0.0,2.1585378646850586,4.973746257811346,-0.0,0.2751041650772095,-1.5002620855914515,-0.0,-0.01341000385582447,0.7499408721923828,0.0,0.00553789921104908,0.5858563780784607,0.0,0.030037980526685715
493.0,411.0,-1.0684,-0.7131,9.5181,-0.0338,0.0307,-0.1261,-1.5518635001829644,0.0,2.0162289142608643,-1.8167178630828857,-0.0,2.1348233222961426,4.973746287613668,-0.0,0.2550944685935974,-1.5002897421466272,-0.0,-0.02247421070933342,0.7499568462371826,0.0,-0.0007660118862986565,0.5858044028282166,0.0,-0.011312559247016907
493.0,411.0,-1.0684,-0.7131,9.5181,-0.0338,0.0307,-0.1261,-1.5518231031349679,0.0,2.088052272796631,-1.8167693614959717,-0.0,2.1392152309417725,4.973754393845358,-0.0,0.26635849475860596,-1.500253979359762,-0.0,-0.01956094428896904,0.7499408721923828,0.0,0.013783371075987816,0.5858404636383057,0.0,-0.008889910764992237
493.0,411.0,-1.0684,-0.7131,9.5181,-0.0338,0.0307,-0.1261,-1.55187967166815,0.0,2.0411200523376465,-1.8167455196380615,-0.0,2.108412027359009,4.9737224755580804,-0.0,0.2642383575439453,-1.5002577940570276,-0.0,-0.017582960426807404,0.7499368190765381,0.0,0.007694206200540066,0.585800290107727,0.0,0.00736439973115921
493.0,411.0,-1.0684,-0.7131,9.5181,-0.0338,0.0307,-0.1261,-1.5518593706986685,0.0,2.0697121620178223,-1.8167661428451538,-0.0,2.161553382873535,4.973702090769567,-0.0,0.2662287950515747,-1.5002859274493616,-0.0,-0.0229017473757267,0.749964714050293,0.0,0.003382164053618908,0.5858001112937927,0.0,-0.02307748794555664
493.0,411.0,-1.0684,-0.7131,9.5181,-0.0338,0.0307,-0.1261,-1.55187967166815,0.0,2.050903558731079,-1.81666100025177,-0.0,2.1372017860412598,4.973754155426779,-0.0,0.26199081540107727,-1.5002778212176722,-0.0,-0.017704304307699203,0.7499449253082275,0.0,0.007172109559178352,0.585808277130127,0.0,-0.02219521254301071
493.0,411.0,-1.0684,-0.7131,9.5181,-0.0338,0.0307,-0.1261,-1.551875540321209,0.0,2.0561461448669434,-1.8167816400527954,-0.0,2.1408579349517822,4.97376628497199,-0.0,0.2571232318878174,-1.500242058430807,-0.0,-0.016901787370443344,0.7499608993530273,0.0,0.009491585195064545,0.5858569145202637,0.0,-0.01278485544025898
493.0,411.0,-1.0684,-0.7131,9.5181,-0.0338,0.0307,-0.1261,-1.551855282192566,0.0,2.0346217155456543,-1.8167414665222168,-0.0,2.1535820960998535,4.973710316210546,-0.0,0.25792616605758667,-1.5002616087542933,-0.0,-0.025359999388456345,0.7499646544456482,0.0,0.0031908582895994186,0.5858123302459717,0.0,-0.028652381151914597
501.0,423.0,-1.1127,-0.7113,9.5605,-0.0275,0.0261,-0.1185,-1.5518310529044648,0.0,2.086785316467285,-1.8167333602905273,-0.0,2.1579833030700684,4.973678010493078,-0.0,0.2735418677330017,-1.5002577940570276,-0.0,-0.013313977979123592,0.7499489784240723,0.0,0.0037094091530889273,0.5857882499694824,0.0,0.01519992109388113
501.0,423.0,-1.1127,-0.7113,9.5605,-0.0275,0.0261,-0.1185,-1.551835450609662,0.0,2.0904908180236816,-1.8167093992233276,-0.0,2.155663251876831,4.973758208542623,-0.0,0.2781243920326233,-1.5002620855914515,-0.0,-0.013605372980237007,0.7499527931213379,0.0,0.01125447265803814,0.5857961773872375,0.0,-0.05221099406480789
501.0,423.0,-1.1127,-0.7113,9.5605,-0.0275,0.0261,-0.1185,-1.5518392727575083,0.0,2.0729799270629883,-1.816693902015686,-0.0,2.127952814102173,4.973754393845358,-0.0,0.27274319529533386,-1.500253979359762,-0.0,-0.014887012541294098,0.7499449253082275,0.0,-0.012082073837518692,0.5858123302459717,0.0,-0.004766705445945263
501.0,423.0,-1.1127,-0.7113,9.5605,-0.0275,0.0261,-0.1185,-1.5518433612636109,0.0,2.0178849697113037,-1.8167093992233276,-0.0,2.135197639465332,4.973730343371191,-0.0,0.2791804075241089,-1.500253979359762,-0.0,-0.017054429277777672,0.7498885989189148,0.0,0.008116531185805798,0.585800290107727,0.0,0.008280599489808083
501.0,423.0,-1.1127,-0.7113,9.5605,-0.0275,0.0261,-0.1185,-1.55187967166815,0.0,2.0558197498321533,-1.816737413406372,-0.0,2.1325459480285645,4.973750340729513,-0.0,0.27876394987106323,-1.500265900288717,-0.0,-0.015805726870894432,0.7499330043792725,0.0,0.0053251395002007484,0.5858041048049927,0.0,0.0016630683094263077
501.0,423.0,-1.1127,-0.7113,9.5605,-0.0275,0.0261,-0.1185,-1.5518189717880269,0.0,2.053443431854248,-1.8167498111724854,-0.0,2.176701545715332,4.973722415953436,-0.0,0.267630934715271,-1.5002501646624964,-0.0,-0.009122372604906559,0.7499446272850037,0.0,0.010251358151435852,0.5858522653579712,0.0,0.013125650584697723
501.0,423.0,-1.1127,-0.7113,9.5605,-0.0275,0.0261,-0.1185,-1.551855282192566,0.0,2.0982747077941895,-1.8167093992233276,-0.0,2.158531427383423,4.973742532521047,-0.0,0.26899975538253784,-1.5002415815936487,-0.0,-0.016870567575097084,0.7499931454658508,0.0,0.006324623711407185,0.5858687162399292,0.0,0.0353827178478241
501.0,423.0,-1.1127,-0.7113,9.5605,-0.0275,0.0261,-0.1185,-1.5518714518151064,0.0,2.071722984313965,-1.8167219161987305,-0.0,2.153934955596924,4.973714339524069,-0.0,0.2724023461341858,-1.5002215544330042,-0.0,-0.026535991579294205,0.749977171421051,0.0,-0.006673607975244522,0.5858044028282166,0.0,-0.020069021731615067
501.0,423.0,-1.1127,-0.7113,9.5605,-0.0275,0.0261,-0.1185,-1.551855282192566,0.0,2.0604071617126465,-1.8167259693145752,-0.0,2.1304123401641846,4.973734366684713,-0.0,0.27464962005615234,-1.500265900288717,-0.0,-0.01624521240592003,0.7499731183052063,0.0,0.004569388926029205,0.5858242511749268,0.0,-0.03708156570792198
501.0,423.0,-1.1127,-0.7113,9.5605,-0.0275,0.0261,-0.1185,-1.551855282192566,0.0,2.0440046787261963,-1.8167579174041748,-0.0,2.082102060317993,4.973754393845358,-0.0,0.2798909544944763,-1.5002935568438929,-0.0,-0.025682911276817322,0.7499327063560486,0.0,-0.00033506425097584724,0.585792064666748,0.0,0.01301591470837593
483.0,415.0,-1.1856,-0.7795,9.8309,-0.0307,0.0211,-0.1174,-1.5518271916410704,0.0,2.0459437370300293,-1.8167701959609985,-0.0,2.1512956619262695,4.973730313568868,-0.0,0.27573904395103455,-1.500282112752096,-0.0,-0.021940141916275024,0.7499408721923828,0.0,-0.008196679875254631,0.5858283042907715,0.0,-0.03217923268675804
483.0,415.0,-1.1856,-0.7795,9.8309,-0.0307,0.0211,-0.1174,-1.5518998105875035,0.0,2.079710006713867,-1.81673002243042,-0.0,2.162187337875366,4.973738419800558,-0.0,0.27475953102111816,-1.5002296606646937,-0.0,-0.01982080191373825,0.7499489188194275,0.0,-0.010498009622097015,0.5858404040336609,0.0,-0.005090225487947464
483.0,415.0,-1.1856,-0.7795,9.8309,-0.0307,0.0211,-0.1174,-1.5518634852818032,0.0,2.0797221660614014,-1.816693902015686,-0.0,2.1196327209472656,4.9737422344978235,-0.0,0.27022987604141235,-1.5002296606646937,-0.0,-0.01929067075252533,0.7499327659606934,0.0,0.002165472134947777,0.5858444571495056,0.0,-0.046556178480386734
483.0,415.0,-1.1856,-0.7795,9.8309,-0.0307,0.0211,-0.1174,-1.5518955916962405,0.0,2.092595338821411,-1.81673002243042,-0.0,2.147134304046631,4.973790156632223,-0.0,0.2665008008480072,-1.5002501646624964,-0.0,-0.02923584170639515,0.7499209046363831,0.0,-0.009777276776731014,0.5858727693557739,0.0,0.0033766720443964005
483.0,415.0,-1.1856,-0.7795,9.8309,-0.0307,0.0211,-0.1174,-1.5518838328174134,0.0,2.1018176078796387,-1.8167134523391724,-0.0,2.097583532333374,4.973750340729513,-0.0,0.2713087201118469,-1.500253979359762,-0.0,-0.02182646095752716,0.7499411702156067,0.0,0.015603490173816681,0.5857961773872375,0.0,-0.007479952182620764
483.0,415.0,-1.1856,-0.7795,9.8309,-0.0307,0.0211,-0.1174,-1.5518593502095719,0.0,2.062485456466675,-1.8167178630828857,-0.0,2.1356260776519775,4.973718392639913,-0.0,0.27004274725914,-1.500237766896383,-0.0,-0.02604309469461441,0.7499649524688721,0.0,-0.0014918025117367506,0.5858164429664612,0.0,-0.01956353336572647
483.0,415.0,-1.1856,-0.7795,9.8309,-0.0307,0.0211,-0.1174,-1.551875540321209,0.0,2.060938835144043,-1.8167341947555542,-0.0,2.1103169918060303,4.973718392639913,-0.0,0.2698875665664673,-1.5002978483783167,-0.0,-0.014336954802274704,0.7499489784240723,0.0,0.005493477918207645,0.5858201384544373,0.0,0.03284993767738342
483.0,415.0,-1.1856,-0.7795,9.8309,-0.0307,0.0211,-0.1174,-1.5518392634442826,0.0,2.0384178161621094,-1.8167816400527954,-0.0,2.1438472270965576,4.973706143885412,-0.0,0.2733508348464966,-1.5002177397357386,-0.0,-0.03239394351840019,0.7499530911445618,0.0,0.011350322514772415,0.585832417011261,0.0,0.010321947745978832
483.0,415.0,-1.1856,-0.7795,9.8309,-0.0307,0.0211,-0.1174,-1.5518433612636109,0.0,2.0466537475585938,-1.8167816400527954,-0.0,2.1290855407714844,4.973702090769567,-0.0,0.265217661857605,-1.5002339521991175,-0.0,-0.014914587140083313,0.7499408721923828,0.0,0.0019427519291639328,0.5858123302459717,0.0,-0.052464891225099564
483.0,415.0,-1.1856,-0.7795,9.8309,-0.0307,0.0211,-0.1174,-1.5518714518151064,0.0,2.066377639770508,-1.816798210144043,-0.0,2.138442277908325,4.973746287613668,-0.0,0.26446667313575745,-1.5002496878253382,-0.0,-0.019960347563028336,0.7499208450317383,0.0,-0.005836562253534794,0.585800290107727,0.0,-0.02492186427116394
521.0,421.0,-1.2849,-0.8016,9.8309,-0.0276,0.0186,-0.1162,-1.5518433612636109,0.0,2.0363528728485107,-1.8167219161987305,-0.0,2.136864185333252,4.9737822888191126,-0.0,0.2677563726902008,-1.5002501646624964,-0.0,-0.017250167205929756,0.7499329447746277,0.0,-0.005583908874541521,0.5858444571495056,0.0,-0.03619376942515373
521.0,421.0,-1.2849,-0.8016,9.8309,-0.0276,0.0186,-0.1162,-1.551827212130167,0.0,2.0411267280578613,-1.8167496919631958,-0.0,2.139418840408325,4.973738181381979,-0.0,0.27691397070884705,-1.5002740065204065,-0.0,-0.022254448384046555,0.7499568462371826,0.0,-0.0012711324961856008,0.5858201384544373,0.0,-0.007305589504539967
521.0,421.0,-1.2849,-0.8016,9.8309,-0.0276,0.0186,-0.1162,-1.551855282192566,0.0,2.0804343223571777,-1.8166649341583252,-0.0,2.144378662109375,4.9737422344978235,-0.0,0.28157785534858704,-1.500253979359762,-0.0,-0.008673745207488537,0.7498965263366699,0.0,-0.004350293427705765,0.5858444571495056,0.0,-0.018581770360469818
521.0,421.0,-1.2849,-0.8016,9.8309,-0.0276,0.0186,-0.1162,-1.5518796176514407,0.0,2.0480916500091553,-1.8167259693145752,-0.0,2.1166832447052,4.97372658827857,-0.0,0.26185354590415955,-1.500270191823141,-0.0,-0.010474154725670815,0.7500130534172058,0.0,-0.001790220383554697,0.5857841372489929,0.0,-0.04282469302415848
521.0,421.0,-1.2849,-0.8016,9.8309,-0.0276,0.0186,-0.1162,-1.5517907620272418,0.0,2.030777931213379,-1.8167341947555542,-0.0,2.0992159843444824,4.973710286408224,-0.0,0.2693384885787964,-1.5002740065204065,-0.0,-0.016344279050827026,0.7499368786811829,0.0,0.004284323193132877,0.5857961773872375,0.0,0.032298702746629715
521.0,421.0,-1.2849,-0.8016,9.8309,-0.0276,0.0186,-0.1162,-1.5518635094961901,0.0,2.0384650230407715,-1.8167341947555542,-0.0,2.1229591369628906,4.9737422344978235,-0.0,0.2591756582260132,-1.5002177397357386,-0.0,-0.025584574788808823,0.7499086856842041,0.0,-0.004308552946895361,0.5857921242713928,0.0,0.004939028061926365
521.0,421.0,-1.2849,-0.8016,9.8309,-0.0276,0.0186,-0.1162,-1.5518070266446848,0.0,2.0356383323669434,-1.8166731595993042,-0.0,2.1519598960876465,4.973754155426779,-0.0,0.26480376720428467,-1.5002458731280726,-0.0,-0.01731325313448906,0.7499289512634277,0.0,-0.010491112247109413,0.5858123302459717,0.0,0.004618118982762098
521.0,421.0,-1.2849,-0.8016,9.8309,-0.0276,0.0186,-0.1162,-1.5518108636936923,0.0,2.0497117042541504,-1.8167176246643066,-0.0,2.151620388031006,4.9737422344978235,-0.0,0.267927348613739,-1.500282112752096,-0.0,-0.012789025902748108,0.7499570846557617,0.0,0.00025551929138600826,0.5858242511749268,0.0,0.025863515213131905
521.0,421.0,-1.2849,-0.8016,9.8309,-0.0276,0.0186,-0.1162,-1.5518269792995234,0.0,2.0958943367004395,-1.8167661428451538,-0.0,2.110314130783081,4.973730313568868,-0.0,0.26978766918182373,-1.5002735296832483,-0.0,-0.018759416416287422,0.7499687671661377,0.0,-0.0036432622000575066,0.5858123302459717,0.0,-0.0064388057217001915
485.0,419.0,-1.0528,-0.7268,9.4684,-0.0389,0.0221,-0.1237,-1.5518433277359982,0.0,2.0701980590820312,-1.8167701959609985,-0.0,2.1594653129577637,4.973762261658468,-0.0,0.2663215696811676,-1.5002339521991175,-0.0,-0.019745957106351852,0.7499408721923828,0.0,0.011878141202032566,0.5858082175254822,0.0,-0.01864701323211193
485.0,419.0,-1.0528,-0.7268,9.4684,-0.0389,0.0221,-0.1237,-1.551835150723793,0.0,2.0129356384277344,-1.81673002243042,-0.0,2.1576406955718994,4.973738181381979,-0.0,0.27662837505340576,-1.5002740065204065,-0.0,-0.014597811736166477,0.7499086856842041,0.0,-0.0034575690515339375,0.5858485698699951,0.0,0.012720145285129547
485.0,419.0,-1.0528,-0.7268,9.4684,-0.0389,0.0221,-0.1237,-1.5518392764827986,0.0,2.0457515716552734,-1.8167134523391724,-0.0,2.1021549701690674,4.973754393845358,-0.0,0.27339938282966614,-1.500270191823141,-0.0,-0.010950461030006409,0.7499768137931824,0.0,0.0031897409353405237,0.585800051689148,0.0,-0.00811602734029293
485.0,419.0,-1.0528,-0.7268,9.4684,-0.0389,0.0221,-0.1237,-1.551867288803198,0.0,2.0600533485412598,-1.8167134523391724,-0.0,2.1591508388519287,4.973730641394415,-0.0,0.26989251375198364,-1.5002978483783167,-0.0,-0.02263033762574196,0.7499289512634277,0.0,-0.0018347838195040822,0.585800290107727,0.0,0.06769286096096039
485.0,419.0,-1.0528,-0.7268,9.4684,-0.0389,0.0221,-0.1237,-1.551826923420169,0.0,2.0763278007507324,-1.8167661428451538,-0.0,2.076448440551758,4.9736980376537225,-0.0,0.27469000220298767,-1.500282112752096,-0.0,-0.018649859353899956,0.7499087452888489,0.0,0.002108403015881777,0.5858283042907715,0.0,0.013426853343844414
485.0,419.0,-1.0528,-0.7268,9.4684,-0.0389,0.0221,-0.1237,-1.5518231273493548,0.0,2.0740365982055664,-1.8167774677276611,-0.0,2.156430721282959,4.973734366684713,-0.0,0.2707110643386841,-1.5002859274493616,-0.0,-0.017208116129040718,0.7499728202819824,0.0,0.002410405781120062,0.5858205556869507,0.0,0.0014891820028424263
485.0,419.0,-1.0528,-0.7268,9.4684,-0.0389,0.0221,-0.1237,-1.5518552896431466,0.0,2.052595615386963,-1.8166649341583252,-0.0,2.132930040359497,4.973766642599859,-0.0,0.26751473546028137,-1.5002535025226038,-0.0,-0.020530058071017265,0.7499005794525146,0.0,0.0009560271864756942,0.5857800245285034,0.0,0.004453421104699373
485.0,419.0,-1.0528,-0.7268,9.4684,-0.0389,0.0221,-0.1237,-1.5518272288939734,0.0,2.0698482990264893,-1.816702127456665,-0.0,2.1383328437805176,4.973742204695501,-0.0,0.2632167935371399,-1.5002778212176722,-0.0,-0.01952873170375824,0.7499611377716064,0.0,0.000614830874837935,0.5858283638954163,0.0,-0.03416004404425621
485.0,419.0,-1.0528,-0.7268,9.4684,-0.0389,0.0221,-0.1237,-1.5518634610674162,0.0,2.070004463195801,-1.8167579174041748,-0.0,2.1655802726745605,4.973746287613668,-0.0,0.27253952622413635,-1.500265900288717,-0.0,-0.025912132114171982,0.7499809265136719,0.0,-0.006361738312989473,0.5858283042907715,0.0,0.008761935867369175
485.0,419.0,-1.0528,-0.7268,9.4684,-0.0389,0.0221,-0.1237,-1.5518717125854273,0.0,2.095118999481201,-1.816685676574707,-0.0,2.108753204345703,4.973738419800558,-0.0,0.2684897780418396,-1.5002339521991175,-0.0,-0.01834188774228096,0.7499409317970276,0.0,0.010736064054071903,0.5857556462287903,0.0,0.006342935375869274
485.0,419.0,-1.0528,-0.7268,9.4684,-0.0389,0.0221,-0.1237,-1.551875516106822,0.0,2.027280330657959,-1.81675386428833,-0.0,2.1897830963134766,4.9737343964870355,-0.0,0.27237945795059204,-1.5002902189837855,-0.0,-0.01999710127711296,0.7499489188194275,0.0,0.0013944979291409254,0.5857880115509033,0.0,-0.00324311014264822
500.0,418.0,-1.0259,-0.7143,9.4098,-0.0324,0.0186,-0.1107,-1.5518069931170722,0.0,2.0271730422973633,-1.8167093992233276,-0.0,2.122023344039917,4.973770338087835,-0.0,0.2696760296821594,-1.5002935568438929,-0.0,-0.03497042506933212,0.7499409317970276,0.0,-0.005417659878730774,0.5858324766159058,0.0,-0.003369112964719534
500.0,418.0,-1.0259,-0.7143,9.4098,-0.0324,0.0186,-0.1107,-1.5518272028169413,0.0,2.0186963081359863,-1.8167579174041748,-0.0,2.112335205078125,4.973746287613668,-0.0,0.27301865816116333,-1.5002616087542933,-0.0,-0.020679742097854614,0.749997079372406,0.0,0.003679154207929969,0.5858123302459717,0.0,0.002512287814170122
500.0,418.0,-1.0259,-0.7143,9.4098,-0.0324,0.0186,-0.1107,-1.5518351339599867,0.0,1.996372103691101,-1.8167178630828857,-0.0,2.1362247467041016,4.973770129471578,-0.0,0.2792184054851532,-1.5002458731280726,-0.0,-0.03492496907711029,0.7499449253082275,0.0,0.011197433806955814,0.5857961773872375,0.0,-0.005771566182374954
500.0,418.0,-1.0259,-0.7143,9.4098,-0.0324,0.0186,-0.1107,-1.5518028505942603,0.0,2.065514087677002,-1.8167537450790405,-0.0,2.112480878829956,4.973746287613668,-0.0,0.27845603227615356,-1.500265900288717,-0.0,-0.01632460206747055,0.7499687671661377,0.0,0.0013816268183290958,0.5858242511749268,0.0,0.057622794061899185
500.0,418.0,-1.0259,-0.7143,9.4098,-0.0324,0.0186,-0.1107,-1.5518234570375462,0.0,2.09199595451355,-1.8167693614959717,-0.0,2.1347413063049316,4.973762261658468,-0.0,0.2597324848175049,-1.500237766896383,-0.0,-0.021331388503313065,0.7499449253082275,0.0,0.004625311587005854,0.5858041644096375,0.0,-0.009602382779121399
500.0,418.0,-1.0259,-0.7143,9.4098,-0.0324,0.0186,-0.1107,-1.5518634759685774,0.0,2.049466848373413,-1.8167496919631958,-0.0,2.113408088684082,4.973762261658468,-0.0,0.27235329151153564,-1.5002902189837855,-0.0,-0.022351952269673347,0.7499449253082275,0.0,0.004131142981350422,0.5857962369918823,0.0,-0.0031611043959856033
500.0,418.0,-1.0259,-0.7143,9.4098,-0.0324,0.0186,-0.1107,-1.5518433612636109,0.0,2.062530279159546,-1.816705346107483,-0.0,2.1314382553100586,4.973750340729513,-0.0,0.2708103060722351,-1.5002697149859827,-0.0,-0.02291814237833023,0.7499449253082275,0.0,0.008083363063633442,0.585800290107727,0.0,0.03854604437947273
500.0,418.0,-1.0259,-0.7143,9.4098,-0.0324,0.0186,-0.1107,-1.5518190090409298,0.0,2.089005470275879,-1.8167333602905273,-0.0,2.097306489944458,4.973738419800558,-0.0,0.264512300491333,-1.500265900288717,-0.0,-0.026942454278469086,0.7499808073043823,0.0,0.01368015632033348,0.5858283042907715,0.0,-0.015711382031440735
500.0,418.0,-1.0259,-0.7143,9.4098,-0.0324,0.0186,-0.1107,-1.5518676035902281,0.0,2.0292346477508545,-1.8167134523391724,-0.0,2.153207302093506,4.9737422344978235,-0.0,0.26585909724235535,-1.500265900288717,-0.0,-0.018166914582252502,0.7499930262565613,0.0,0.0058740610256791115,0.5858123302459717,0.0,-0.005762452259659767
500.0,418.0,-1.0259,-0.7143,9.4098,-0.0324,0.0186,-0.1107,-1.551855282192566,0.0,2.013251543045044,-1.816765308380127,-0.0,2.1416852474212646,4.973722207337179,-0.0,0.27225518226623535,-1.5002697149859827,-0.0,-0.013237491250038147,0.7499167919158936,0.0,-0.006684311665594578,0.5857759118080139,0.0,-0.02027173899114132
502.0,430.0,-1.1886,-0.7603,9.4594,-0.0334,0.0254,-0.1211,-1.5518069689026852,0.0,2.027358293533325,-1.81675386428833,-0.0,2.150024175643921,4.973774182587423,-0.0,0.27310118079185486,-1.500265900288717,-0.0,-0.012479165568947792,0.7499808073043823,0.0,-0.0013000332983210683,0.5857799649238586,0.0,0.0050033037550747395
502.0,430.0,-1.1886,-0.7603,9.4594,-0.0334,0.0254,-0.1211,-1.5518516202322026,0.0,2.0505855083465576,-1.8167619705200195,-0.0,2.1638362407684326,4.9737422344978235,-0.0,0.26797839999198914,-1.5002501646624964,-0.0,-0.011726555414497852,0.7499727606773376,0.0,0.002283575013279915,0.5858082175254822,0.0,0.024909555912017822
502.0,430.0,-1.1886,-0.7603,9.4594,-0.0334,0.0254,-0.1211,-1.5518474795720358,0.0,2.0195491313934326,-1.8166608810424805,-0.0,2.1114346981048584,4.973726260453024,-0.0,0.27120885252952576,-1.5002215544330042,-0.0,-0.03169458359479904,0.7499809265136719,0.0,-0.002798356581479311,0.5858123302459717,0.0,-0.039513975381851196
502.0,430.0,-1.1886,-0.7603,9.4594,-0.0334,0.0254,-0.1211,-1.5518313211253663,0.0,2.0485687255859375,-1.816677451133728,-0.0,2.1801726818084717,4.973750340729513,-0.0,0.26704084873199463,-1.500253979359762,-0.0,-0.02204184979200363,0.7499209642410278,0.0,-0.001182318665087223,0.5857961773872375,0.0,0.005673174746334553
502.0,430.0,-1.1886,-0.7603,9.4594,-0.0334,0.0254,-0.1211,-1.5518151626786967,0.0,2.024090528488159,-1.8167333602905273,-0.0,2.120323657989502,4.973778235703268,-0.0,0.2731047570705414,-1.500270191823141,-0.0,-0.010870622470974922,0.7499767541885376,0.0,0.00403922563418746,0.5858123302459717,0.0,-0.010930587537586689
502.0,430.0,-1.1886,-0.7603,9.4594,-0.0334,0.0254,-0.1211,-1.551835450609662,0.0,2.0480599403381348,-1.8167661428451538,-0.0,2.1259074211120605,4.9736980376537225,-0.0,0.282184362411499,-1.500265900288717,-0.0,-0.01031414046883583,0.7499409317970276,0.0,0.0008537566754966974,0.5858444571495056,0.0,-0.007012741640210152
502.0,430.0,-1.1886,-0.7603,9.4594,-0.0334,0.0254,-0.1211,-1.55181102201853,0.0,2.103548526763916,-1.8167176246643066,-0.0,2.1289525032043457,4.973746287613668,-0.0,0.26884743571281433,-1.500282112752096,-0.0,-0.004189104773104191,0.7499687671661377,0.0,-0.003555603325366974,0.5858205556869507,0.0,0.004228224046528339
502.0,430.0,-1.1886,-0.7603,9.4594,-0.0334,0.0254,-0.1211,-1.5517788895270606,0.0,2.0798490047454834,-1.8167496919631958,-0.0,2.1314353942871094,4.973778235703268,-0.0,0.26879411935806274,-1.500253979359762,-0.0,-0.0070418789982795715,0.7499127984046936,0.0,-0.011767754331231117,0.5858324766159058,0.0,-0.014915496110916138
502.0,430.0,-1.1886,-0.7603,9.4594,-0.0334,0.0254,-0.1211,-1.5518271916410704,0.0,2.0413994789123535,-1.8166815042495728,-0.0,2.1440253257751465,4.973734366684713,-0.0,0.2703947424888611,-1.500253979359762,-0.0,-0.019557446241378784,0.7499088644981384,0.0,-9.494414553046227e-05,0.5858123302459717,0.0,0.01694060117006302
502.0,430.0,-1.1886,-0.7603,9.4594,-0.0334,0.0254,-0.1211,-1.5518192809871216,0.0,2.0060369968414307,-1.8166813850402832,-0.0,2.1420183181762695,4.973726290255346,-0.0,0.27506670355796814,-1.500282112752096,-0.0,-0.025190994143486023,0.7499127984046936,0.0,-0.0007625892758369446,0.5858164429664612,0.0,-0.0058184172958135605
505.0,433.0,-1.1145,-0.7448,9.5821,-0.0345,0.0263,-0.1229,-1.5518271916410704,0.0,2.0163989067077637,-1.8167619705200195,-0.0,2.165008544921875,4.973746287613668,-0.0,0.26556921005249023,-1.5002859274493616,-0.0,0.0023873099125921726,0.7499449253082275,0.0,0.0003326768637634814,0.5858123302459717,0.0,-0.020882152020931244
505.0,433.0,-1.1145,-0.7448,9.5821,-0.0345,0.0263,-0.1229,-1.5518192809871216,0.0,2.0629148483276367,-1.8167333602905273,-0.0,2.1064343452453613,4.973754393845358,-0.0,0.2689742147922516,-1.5002501646624964,-0.0,-0.022702408954501152,0.7499167919158936,0.0,0.002519266214221716,0.5857961773872375,0.0,0.045332975685596466
505.0,433.0,-1.1145,-0.7448,9.5821,-0.0345,0.0263,-0.1229,-1.5518634759685774,0.0,2.0488195419311523,-1.8167093992233276,-0.0,2.1429271697998047,4.97376229146079,-0.0,0.278907835483551,-1.500265900288717,-0.0,-0.01141104195266962,0.7499449253082275,0.0,-0.0031739359255880117,0.5858283638954163,0.0,-0.007118626032024622
505.0,433.0,-1.1145,-0.7448,9.5821,-0.0345,0.0263,-0.1229,-1.5518271916410704,0.0,2.0448365211486816,-1.816778540611267,-0.0,2.1348564624786377,4.973778235703268,-0.0,0.26989316940307617,-1.5002902189837855,-0.0,-0.019283020868897438,0.7499529719352722,0.0,-0.00059630157193169,0.5858160257339478,0.0,0.020358458161354065
505.0,433.0,-1.1145,-0.7448,9.5821,-0.0345,0.0263,-0.1229,-1.5518271916410704,0.0,2.0605735778808594,-1.8167537450790405,-0.0,2.1359310150146484,4.973746287613668,-0.0,0.2644748091697693,-1.500294033681051,-0.0,-0.017038825899362564,0.7499929666519165,0.0,0.008443471975624561,0.5858486294746399,0.0,0.007789044640958309
505.0,433.0,-1.1145,-0.7448,9.5821,-0.0345,0.0263,-0.1229,-1.5518151626786967,0.0,2.0398130416870117,-1.8167455196380615,-0.0,2.1730120182037354,4.9737703678901575,-0.0,0.2804769277572632,-1.5002897421466272,-0.0,-0.02068433351814747,0.7499167919158936,0.0,-0.003907011356204748,0.5858603715896606,0.0,-0.018044468015432358
505.0,433.0,-1.1145,-0.7448,9.5821,-0.0345,0.0263,-0.1229,-1.5518271916410704,0.0,2.0549540519714355,-1.8167093992233276,-0.0,2.1254138946533203,4.973766076355734,-0.0,0.26817846298217773,-1.5002697149859827,-0.0,-0.016531601548194885,0.7500008940696716,0.0,-0.004170343745499849,0.5858764052391052,0.0003404069284442812,-0.053576044738292694
505.0,433.0,-1.1145,-0.7448,9.5821,-0.0345,0.0263,-0.1229,-1.5518313211253663,0.0,2.0472633838653564,-1.8167176246643066,-0.0,2.1295700073242188,4.973762261658468,-0.0,0.2698569595813751,-1.5002897421466272,-3.863278620619415e-12,-0.0036264704540371895,0.7499369382858276,0.0,0.0059683737345039845,0.5858645439147949,0.0008730699773877859,0.042886119335889816
505.0,433.0,-1.1145,-0.7448,9.5821,-0.0345,0.0263,-0.1229,-1.5518474907479067,2.30919681598607e-06,2.043670415878296,-1.8167259693145752,-0.0,2.224459648132324,4.973738419800558,-0.0,0.26871100068092346,-1.5002496878253382,-7.021318812353442e-17,-0.026063624769449234,0.7499048113822937,0.0,0.009962210431694984,0.5858843326568604,0.0017622541636228561,0.029522694647312164
505.0,433.0,-1.1145,-0.7448,9.5821,-0.0345,0.0263,-0.1229,-1.5518593353084107,1.0037392305731478e-15,2.0406460762023926,-1.8167219161987305,-0.0,2.074932813644409,4.973750340729513,-0.0,0.2791091501712799,-1.500294033681051,-8.331956454009017e-23,-0.012998798862099648,0.7499487996101379,0.0,0.00765928765758872,0.5858761668205261,0.002181675285100937,0.025054477155208588
507.0,406.0,-1.1515,-0.7376,9.7131,-0.0235,0.0082,-0.095,-1.5518433612636109,3.2519878894529776e-23,2.009150266647339,-1.8167537450790405,-0.0,2.1220598220825195,4.973746287613668,-0.0,0.26910480856895447,-1.5002654234515589,-1.5142918855026133e-27,-0.015030520036816597,0.7499727606773376,0.0,0.003559817560017109,0.5859124064445496,0.002057986333966255,0.04126685485243797
507.0,406.0,-1.1515,-0.7376,9.7131,-0.0235,0.0082,-0.095,-1.5518148832819243,1.4135423893761643e-32,2.025759220123291,-1.8167341947555542,-0.0,2.1543774604797363,4.973750370531835,-0.0,0.2761135995388031,-1.5002897421466272,-1.796957826621884e-33,-0.017902839928865433,0.7499409317970276,0.0,-0.007634737528860569,0.5859364867210388,0.0012588546378538013,-0.018735874444246292
507.0,406.0,-1.1515,-0.7376,9.7131,-0.0235,0.0082,-0.095,-1.5518433612636109,4.579695615137081e-40,2.0639595985412598,-1.8166898488998413,-0.0,2.1284055709838867,4.973718422442236,-0.0,0.2662779986858368,-1.500322167073385,-3.265881615238526e-38,-0.018074944615364075,0.7499290108680725,0.0,0.005710909143090248,0.5859323740005493,0.0008532829815521836,-0.00827756803482771
507.0,406.0,-1.1515,-0.7376,9.7131,-0.0235,0.0082,-0.095,-1.551855282192566,0.0,2.05965256690979,-1.8167177438735962,-0.0,2.1541481018066406,4.973682004004278,-0.0,0.2727661728858948,-1.5002577940570276,-3.923635700109488e-44,-0.013496091589331627,0.7499528527259827,0.0,0.008049718104302883,0.5859403610229492,0.0005458862870000303,-0.02122305892407894
507.0,406.0,-1.1515,-0.7376,9.7131,-0.0235,0.0082,-0.095,-1.5518673223308106,0.0,2.0396289825439453,-1.8167579174041748,-0.0,2.1362574100494385,4.9737102566059015,-0.0,0.2747710049152374,-1.5003541151629847,-0.0,-0.013153795152902603,0.7499806880950928,0.0,-0.004156224429607391,0.5859765410423279,0.0003670938313007355,0.004780443385243416
507.0,406.0,-1.1515,-0.7376,9.7131,-0.0235,0.0082,-0.095,-1.5518833317658682,0.0,2.073460340499878,-1.81673002243042,-0.0,2.1031136512756348,4.973702448397436,-1.01979997779722e-08,0.2702454924583435,-1.5003140608416956,-0.0,-0.01850314624607563,0.7499568462371826,0.0,0.00511284451931715,0.5859323740005493,0.00031285977456718683,-0.03934842348098755
507.0,406.0,-1.1515,-0.7376,9.7131,-0.0235,0.0082,-0.095,-1.5518954128823061,0.0,2.05680513381958,-1.8167259693145752,-0.0,2.1489033699035645,4.973734783917227,-1.853436159974034e-13,0.2755175232887268,-1.5002577940570276,-0.0,-0.023629873991012573,0.7499487996101379,0.0,0.011246326379477978,0.5859686732292175,0.00025399806327186525,-0.028582118451595306
507.0,406.0,-1.1515,-0.7376,9.7131,-0.0235,0.0082,-0.095,-1.5518751137754698,0.0,2.027926206588745,-1.816737413406372,-0.0,2.1382946968078613,4.973674493819036,-2.199408108305262e-19,0.265269935131073,-1.5003183523761194,-0.0,-0.007815543562173843,0.7499848008155823,0.0,0.004653839860111475,0.5859687328338623,0.00027013057842850685,-0.07150308042764664
507.0,406.0,-1.1515,-0.7376,9.7131,-0.0235,0.0082,-0.095,-1.5518950012377282,-0.0003920803137589246,2.0589592456817627,-1.8168057203292847,-0.0,2.1241629123687744,4.973734724312582,-0.0002694219583645463,0.27948111295700073,-1.5002577940570276,-0.0,-0.008387754671275616,0.7500247359275818,0.0,-0.0013556730700656772,0.5859403610229492,0.0002377961209276691,-0.06084151566028595
507.0,406.0,-1.1515,-0.7376,9.7131,-0.0235,0.0082,-0.095,-1.5519032043269654,-0.00038545511779375374,2.036914348602295,-1.8167818784713745,-0.0,2.1581337451934814,4.973666417389669,-0.0002073836949421093,0.285256028175354,-1.5002697149859827,-0.0,-0.018481239676475525,0.7500127553939819,0.0,-0.0008267800440080464,0.5860047936439514,0.0009729326702654362,0.024629302322864532
490.0,404.0,-1.1533,-1.0181,9.548,-0.0362,0.0154,-0.1177,-1.5519314140877505,-0.0004422617785166949,2.095012903213501,-1.8167818784713745,-0.0,2.1505157947540283,4.973698365479269,-0.00017509859753772616,0.27977997064590454,-1.5002778212176722,-0.0,0.0033152024261653423,0.750008761882782,0.0,0.0040687439031898975,0.5859843492507935,0.0022337445989251137,0.03565892577171326
490.0,404.0,-1.1533,-1.0181,9.548,-0.0362,0.0154,-0.1177,-1.5519190666130562,-0.00041831654380075634,2.078925132751465,-1.8167693614959717,-0.0,2.195463180541992,4.973630118161001,-0.00014657745487056673,0.2874484360218048,-1.5003421942340296,-0.0,-0.004177517723292112,0.7500524520874023,0.0,-0.006106327287852764,0.5860406756401062,0.002625059336423874,-0.03881421685218811
490.0,404.0,-1.1533,-1.0181,9.548,-0.0362,0.0154,-0.1177,-1.5519392055324097,-0.0004254608938936144,2.041810989379883,-1.816757082939148,-0.0,2.1192474365234375,4.973670321493902,-0.00015387167513836175,0.28380972146987915,-1.5002735296832483,-0.0,0.00565010542050004,0.750036895275116,0.0,0.002060531871393323,0.5860726833343506,0.003729270538315177,-0.00024257786571979523
490.0,404.0,-1.1533,-1.0181,9.548,-0.0362,0.0154,-0.1177,-1.5519594245455046,-0.0007792757241986692,2.0298283100128174,-1.816789984703064,-0.0,2.1120312213897705,4.973726558476248,-0.0001360157912131399,0.27867865562438965,-1.500232998524801,-0.0,-0.0008959479164332151,0.7500448822975159,0.0,-0.0004402876365929842,0.5861286520957947,0.006707977969199419,0.04516751319169998
490.0,404.0,-1.1533,-1.0181,9.548,-0.0362,0.0154,-0.1177,-1.55197933622215,-0.0014546619495376945,2.0415854454040527,-1.8167611360549927,-0.0,2.1438565254211426,4.973682391434469,-0.00012356579827610403,0.2904135286808014,-1.5002816359149378,-0.0,0.00703385891392827,0.750064492225647,0.0,0.014469156041741371,0.5861803889274597,0.009706768207252026,0.03123869188129902
490.0,404.0,-1.1533,-1.0181,9.548,-0.0362,0.0154,-0.1177,-1.5519467455199738,-0.0022680230904370546,2.059838056564331,-1.81675386428833,-0.0,2.1787338256835938,4.973694669991293,-0.0001293584646191448,0.28849560022354126,-1.5003016630755823,-0.0,-0.0010504655074328184,0.749984860420227,0.0,0.013180115260183811,0.5863569974899292,0.012155938893556595,0.04441908746957779
490.0,404.0,-1.1533,-1.0181,9.548,-0.0362,0.0154,-0.1177,-1.552079453398921,-0.002808189718052745,2.061516523361206,-1.8167136907577515,-0.0,2.167571544647217,4.9736303863819025,-0.00013405471690930426,0.2900373339653015,-1.5002973715411585,-0.0,-0.007748886942863464,0.7500246167182922,0.0,0.0199877992272377,0.5864125490188599,0.014219728298485279,0.07372158765792847
490.0,404.0,-1.1533,-1.0181,9.548,-0.0362,0.0154,-0.1177,-1.5519946341267605,-0.002672260394319892,2.0964512825012207,-1.8167054653167725,-0.0,2.175143241882324,4.9736788151557825,-0.0001250341156264767,0.2857661545276642,-1.5003059546100062,-0.0,0.014887210913002491,0.7500763535499573,0.0,0.019448451697826385,0.5865446329116821,0.015307364985346794,0.041931845247745514
490.0,404.0,-1.1533,-1.0181,9.548,-0.0362,0.0154,-0.1177,-1.55208705299113,-0.001994159072637558,2.080256462097168,-1.8167489767074585,-0.0,2.168501377105713,4.973654645472326,-0.00010129451402463019,0.29747623205184937,-1.5003097693072718,-0.0,0.007332101929932833,0.7499610781669617,0.0,0.010534492321312428,0.5867293477058411,0.017499655485153198,0.0944889634847641
490.0,404.0,-1.1533,-1.0181,9.548,-0.0362,0.0154,-0.1177,-1.5520586625537653,-0.0016194001073017716,2.113298177719116,-1.8168023824691772,-7.281047874130309e-05,2.208235502243042,4.973650443344869,-0.00011903547419933602,0.3065340220928192,-1.5003059546100062,-0.0,0.0068787033669650555,0.7500485181808472,0.0,0.03312992677092552,0.5868855118751526,0.018974827602505684,0.10219239443540573
493.0,418.0,-1.1898,-0.9416,9.5139,-0.0417,0.0208,-0.0962,-1.5520705704442044,-0.0012290936429053545,2.0729329586029053,-1.8167530298233032,-0.00010775615373859182,2.1566669940948486,4.97363446930007,-0.0004411439294926822,0.2976638078689575,-1.5003016630755823,-1.0646420550708413e-10,0.011303574778139591,0.7500206828117371,0.0,0.013650832697749138,0.5870734453201294,0.022024139761924744,0.030953841283917427
493.0,418.0,-1.1898,-0.9416,9.5139,-0.0417,0.0208,-0.0962,-1.552082746555545,-0.0012231285218149424,2.0792195796966553,-1.816789150238037,-0.00047204724978655577,2.140730619430542,4.973647016077795,-0.0015059128636494279,0.2995258867740631,-1.5002577940570276,-1.934934536136938e-15,0.010263153351843357,0.7500249743461609,0.0,0.013486301526427269,0.5872290134429932,0.023789169266819954,0.05441761016845703
493.0,418.0,-1.1898,-0.9416,9.5139,-0.0417,0.0208,-0.0962,-1.5521311324885865,-0.0016942863585427403,2.093865156173706,-1.8168336153030396,-0.0004068706766702235,2.1507725715637207,4.973558026343145,-0.001578240073285997,0.3229547142982483,-1.5002978483783167,-2.2961200945086587e-21,-0.0006102790357545018,0.7499967217445374,0.0,0.02094525471329689,0.5874972939491272,0.028484854847192764,0.0654502660036087
493.0,418.0,-1.1898,-0.9416,9.5139,-0.0417,0.0208,-0.0962,-1.552114614551403,-0.002017989521846175,2.1120455265045166,-1.8168096542358398,-0.00034994244924746454,2.1913304328918457,4.973594683199682,-0.0013747590128332376,0.31657087802886963,-1.5002778212176722,-4.173084357529259e-26,0.008939126506447792,0.7500007748603821,0.0,0.0171511173248291,0.5877739191055298,0.030157560482621193,0.08610434830188751
493.0,418.0,-1.1898,-0.9416,9.5139,-0.0417,0.0208,-0.0962,-1.5521667630276461,-0.0027135799173265696,2.073951005935669,-1.816808819770813,-0.00033538442221470177,2.218834400177002,4.97355483749465,-0.0022498045582324266,0.3309875726699829,-1.5002697149859827,-4.95205383472461e-32,0.001981735462322831,0.7499808669090271,0.0,0.024542352184653282,0.5881059765815735,0.031063683331012726,0.07223948836326599
493.0,418.0,-1.1898,-0.9416,9.5139,-0.0417,0.0208,-0.0962,-1.5522591409138222,-0.00387796969152987,2.1113200187683105,-1.8168377876281738,-0.0003277089854236692,2.172361373901367,4.973534959345617,-0.004798228852450848,0.32415571808815,-1.5002740065204065,-9.00011269637862e-37,0.0040297252126038074,0.7500288486480713,0.0,0.01855950802564621,0.5883501768112183,0.03189386799931526,0.05347670614719391
493.0,418.0,-1.1898,-0.9416,9.5139,-0.0417,0.0208,-0.0962,-1.5522667051157732,-0.004780401475727558,2.0482358932495117,-1.8168047666549683,-0.0002819070650730282,2.1808485984802246,4.973464000016012,-0.007775481324642897,0.322976678609848,-1.5002697149859827,-1.0677894298155106e-42,0.00030459905974566936,0.7499729990959167,0.0,0.022948449477553368,0.5886500477790833,0.034997500479221344,0.020010650157928467
493.0,418.0,-1.1898,-0.9416,9.5139,-0.0417,0.0208,-0.0962,-1.5523269095322867,-0.004927916917949915,2.0935895442962646,-1.8168655633926392,-0.00023057378712110221,2.1457009315490723,4.97339494803504,-0.0041117118671536446,0.32068055868148804,-1.5002902189837855,-0.0,0.010510982945561409,0.749988853931427,0.0,0.022922351956367493,0.589018702507019,0.038898419588804245,0.03858679160475731
493.0,418.0,-1.1898,-0.9416,9.5139,-0.0417,0.0208,-0.0962,-1.552370862369873,-0.005010351072996855,2.0801305770874023,-1.8168615102767944,-0.0002564520400483161,2.175649642944336,4.973371016770162,-0.0010947700357064605,0.32601016759872437,-1.5002415815936487,-0.0,0.006313268095254898,0.7500285506248474,5.450854587252252e-05,0.02446112409234047,0.5893985629081726,0.04723743349313736,0.1194138154387474
493.0,418.0,-1.1898,-0.9416,9.5139,-0.0417,0.0208,-0.0962,-1.552422897224762,-0.005456164944916964,2.0507736206054688,-1.8168296813964844,-0.00040731215267442167,2.1981449127197266,4.973395037442007,-0.0007243377040140331,0.32448625564575195,-1.5002263228045862,-0.0,0.013552000746130943,0.7500166893005371,5.199137012823485e-05,0.02287891134619713,0.5897907614707947,0.0559479258954525,0.025688813999295235
504.0,406.0,-1.1414,-0.874,9.4229,-0.0451,0.0046,-0.0797,-1.552454400142171,-0.007263213861733675,2.0648224353790283,-1.816845178604126,-0.0019377786666154861,2.213552474975586,4.97332318404273,-0.002008592477068305,0.3253592848777771,-1.5002344290362757,-0.0,0.009176971390843391,0.7500603199005127,3.2447146622871514e-06,0.01666097342967987,0.5904637575149536,0.07034977525472641,0.11932218074798584
504.0,406.0,-1.1414,-0.874,9.4229,-0.0451,0.0046,-0.0797,-1.552558847968914,-0.008139407262206078,2.04449200630188,-1.8169413805007935,-0.0035044837277382612,2.1587960720062256,4.973307060986318,-0.0030207736417651176,0.31502318382263184,-1.5002301375018519,-0.0,0.019547220319509506,0.7500524520874023,5.897108495966918e-11,0.01539461500942707,0.5911002159118652,0.07930946350097656,0.08092569559812546
504.0,406.0,-1.1414,-0.874,9.4229,-0.0451,0.0046,-0.0797,-1.5526507229409,-0.009439057670533657,2.051274299621582,-1.8169094324111938,-0.00820416584610939,2.1491024494171143,4.973234998970785,-0.0032043387182056904,0.3188544511795044,-1.500202480946676,-0.0,0.019359208643436432,0.7500368356704712,6.997894380894921e-17,0.009673044085502625,0.5919405221939087,0.09315812587738037,0.052518632262945175
504.0,406.0,-1.1414,-0.874,9.4229,-0.0451,0.0046,-0.0797,-1.5527631317130108,-0.009381279349327087,2.035738706588745,-1.8169974088668823,-0.007878847420215607,2.1976027488708496,4.973303633719244,-0.0023989372421056032,0.31274279952049255,-1.5002020041095179,0.0003219243953935802,0.021373707801103592,0.7500008344650269,1.2718324999883489e-21,0.02688974142074585,0.5927453637123108,0.10121193528175354,0.020043756812810898
504.0,406.0,-1.1414,-0.874,9.4229,-0.0451,0.0046,-0.0797,-1.5528304421207686,-0.01039727684110403,2.0022058486938477,-1.8170442581176758,-0.006692283321171999,2.165407180786133,4.973231541901388,-0.002802550094202161,0.30180686712265015,-1.5001938978778284,0.00028451179969124496,0.023091377690434456,0.7500206828117371,1.5092395934795023e-27,0.022818684577941895,0.5938140749931335,0.10252483934164047,0.10202819108963013
504.0,406.0,-1.1414,-0.874,9.4229,-0.0451,0.0046,-0.0797,-1.5529343646815796,-0.013961439952254295,1.9932072162628174,-1.8172094821929932,-0.0040181041695177555,2.1693382263183594,4.973219620972433,-0.002852027304470539,0.305290549993515,-1.5002020041095179,0.0002349767746636644,0.01351155899465084,0.7500126361846924,2.742968166249012e-32,0.013554573059082031,0.594650387763977,0.10172569751739502,0.07853628695011139
504.0,406.0,-1.1414,-0.874,9.4229,-0.0451,0.0046,-0.0797,-1.5530741617879649,-0.019875667989253998,1.9265122413635254,-1.81718909740448,-0.0015259977662935853,2.203470468521118,4.973159748106756,-0.002359978388994932,0.3079841732978821,-1.5002301375018519,0.00022507004905492067,0.013065962120890617,0.7500166893005371,3.254985959159015e-38,0.02460518293082714,0.595691442489624,0.11364671587944031,0.1015806496143341
504.0,406.0,-1.1414,-0.874,9.4229,-0.0451,0.0046,-0.0797,-1.5532262579402705,-0.020528357475996017,1.9972021579742432,-1.817180871963501,-0.0006405140738934278,2.1868844032287598,4.973199891835012,-0.0013320056023076177,0.2954365015029907,-1.5001614729510706,0.000196982771740295,0.03319443017244339,0.7499849796295166,5.913479519450728e-43,0.026190513744950294,0.5966364741325378,0.1207917258143425,0.05817531794309616
504.0,406.0,-1.1414,-0.874,9.4229,-0.0451,0.0046,-0.0797,-1.5534580436399956,-0.022666966542601585,1.9419176578521729,-1.8171610832214355,-0.0002992848167195916,2.18182110786438,4.973147827177801,-0.000747357145883143,0.2918623685836792,-1.500213925038473,0.00017034892516676337,0.021958887577056885,0.7499809265136719,0.0,0.019131749868392944,0.5978682041168213,0.13462412357330322,0.04122547805309296
504.0,406.0,-1.1414,-0.874,9.4229,-0.0451,0.0046,-0.0797,-1.5536420618048687,-0.025839291512966156,1.9266163110733032,-1.8171610832214355,-7.01897733961232e-05,2.16843843460083,4.973143744259634,-0.0004901151405647397,0.2982598543167114,-1.5002020041095179,0.00017567553732078522,0.024611148983240128,0.7500484585762024,0.0,0.035025015473365784,0.5989891886711121,0.1395529955625534,0.08296710252761841
501.0,417.0,-1.4518,-0.7944,9.198,-0.0599,-0.0012,0.0095,-1.5539215926877041,-0.032688915729522705,1.9299798011779785,-1.8171683549880981,-9.863746527116746e-05,2.237978458404541,4.973159777909078,-0.0012403113069012761,0.29888594150543213,-1.5002020041095179,0.00012757148942910135,0.028787104412913322,0.7500206232070923,0.0,0.025461483746767044,0.6004502177238464,0.1410178244113922,0.08062530308961868
501.0,417.0,-1.4518,-0.7944,9.198,-0.0599,-0.0012,0.0095,-1.5542737443796177,-0.04079260304570198,1.8953917026519775,-1.8171849250793457,-4.101953163626604e-05,2.1899774074554443,4.97315205910758,-0.0016443885397166014,0.2961324453353882,-1.5001938978778284,0.00011456508218543604,0.01676005683839321,0.7500444650650024,0.0,0.024478262290358543,0.6016349792480469,0.14823943376541138,0.11265619099140167
501.0,417.0,-1.4518,-0.7944,9.198,-0.0599,-0.0012,0.0095,-1.554669090812542,-0.04868084192276001,1.9386882781982422,-1.8171323537826538,-3.302838740637526e-05,2.1704251766204834,4.973144161492147,-0.0007250515627674758,0.2821445167064667,-1.5001938978778284,0.00010162784747080877,0.02412089705467224,0.7500564455986023,0.0,0.0167534239590168,0.6031522750854492,0.1515405923128128,0.06597404181957245
501.0,417.0,-1.4518,-0.7944,9.198,-0.0599,-0.0012,0.0095,-1.5552370960688968,-0.05431922897696495,1.8961315155029297,-1.8172210454940796,-1.560508877673783e-08,2.1700997352600098,4.9731196043785,-0.0004812304978258908,0.29671016335487366,-1.5002105871783655,9.131600381806493e-05,0.020348703488707542,0.7500444054603577,0.0,0.034647874534130096,0.6046891212463379,0.15597987174987793,0.13090042769908905
501.0,417.0,-1.4518,-0.7944,9.198,-0.0599,-0.0012,0.0095,-1.5556927940673013,-0.057624708861112595,1.8801757097244263,-1.81718909740448,-5.055850194305865e-16,2.136295795440674,4.973156082421102,-0.0003547508385963738,0.2916106879711151,-1.5001938978778284,8.446027641184628e-05,0.01626184955239296,0.7500444054603577,0.0,0.04633914679288864,0.6059376001358032,0.15927919745445251,0.09146475791931152
501.0,417.0,-1.4518,-0.7944,9.198,-0.0599,-0.0012,0.0095,-1.5563079503229638,-0.062246501445770264,1.9166717529296875,-1.8172045946121216,-2.1976274452111937e-25,2.1607766151428223,4.973115521460333,-0.0003115097351837903,0.28519415855407715,-1.5002182165728968,7.721402653260157e-05,0.009622644633054733,0.7499967813491821,0.0,0.031234420835971832,0.6075340509414673,0.15378211438655853,0.10976828634738922
501.0,417.0,-1.4518,-0.7944,9.198,-0.0599,-0.0012,0.0095,-1.5568474915674706,-0.06618300825357437,1.9288268089294434,-1.8172053098678589,-7.120032465751952e-33,2.1677184104919434,4.973115521460333,-0.0002569103380665183,0.2872447669506073,-1.5002225081073206,7.225482113426551e-05,0.021804675459861755,0.7500166893005371,0.0,0.027959182858467102,0.6087751984596252,0.15255555510520935,0.07754319161176682
501.0,417.0,-1.4518,-0.7944,9.198,-0.0599,-0.0012,0.0095,-1.5575876480764528,-0.06548896431922913,1.9403648376464844,-1.817237377166748,-3.095468307693521e-42,2.1552584171295166,4.973107772856512,-0.00048435162170790136,0.2911677658557892,-1.5001896063434046,6.688501161988825e-05,0.006329569965600967,0.7500048279762268,0.0,0.0383869931101799,0.6102838516235352,0.15036655962467194,0.08840232342481613
501.0,417.0,-1.4518,-0.7944,9.198,-0.0599,-0.0012,0.0095,-1.5580743749490757,-0.06707808375358582,1.8918237686157227,-1.8171528577804565,-0.0,2.1367430686950684,4.973075735359945,-0.0005235609132796526,0.29027262330055237,-1.5002062956439417,5.050577237852849e-05,0.015520824119448662,0.7499568462371826,0.0,0.041673265397548676,0.611504316329956,0.15601728856563568,0.12529169023036957
501.0,417.0,-1.4518,-0.7944,9.198,-0.0599,-0.0012,0.0095,-1.558761890312173,-0.07141006737947464,1.9705369472503662,-1.8171849250793457,-0.0,2.1328978538513184,4.973103660136022,-0.00041133459308184683,0.300197958946228,-1.5002182165728968,5.565610081248451e-06,0.010494155809283257,0.7500210404396057,0.0,0.03765514865517616,0.6130374670028687,0.14686636626720428,0.11539660394191742
467.0,417.0,-0.8614,0.2243,9.746,-0.0472,-0.0786,0.0076,-1.5593693044832726,-0.07541102916002274,1.9288089275360107,-1.8171849250793457,-0.0,2.186093807220459,4.973119634180822,-0.00032612396171316504,0.3034387528896332,-1.5002425352679651,1.011522116067809e-10,0.016942784190177917,0.749992847442627,0.0,0.038249000906944275,0.6141459941864014,0.13870938122272491,0.045197080820798874
467.0,417.0,-0.8614,0.2243,9.746,-0.0472,-0.0786,0.0076,-1.5601730367964883,-0.08744249492883682,1.943593978881836,-1.8171486854553223,-0.0,2.1697769165039062,4.973127800017156,-0.00025905531947501004,0.2929862141609192,-1.5002344290362757,1.2003384628368475e-16,0.0033439204562455416,0.7500166893005371,0.0,0.03231791406869888,0.6155344247817993,0.1337146759033203,0.07513834536075592
467.0,417.0,-0.8614,0.2243,9.746,-0.0472,-0.0786,0.0076,-1.5609326607412477,-0.09705670177936554,1.9153552055358887,-1.817180871963501,-0.0,2.181065797805786,4.973140048771658,-0.00022245880973059684,0.29358428716659546,-1.5002058188067835,2.181555781618456e-21,0.0030605592764914036,0.7499889135360718,0.0,0.019196536391973495,0.616703987121582,0.14449293911457062,0.08343926072120667
467.0,417.0,-0.8614,0.2243,9.746,-0.0472,-0.0786,0.0076,-1.5619315731203933,-0.09883121401071548,1.9445691108703613,-1.8171683549880981,-4.2061659769387916e-05,2.1688244342803955,4.973135936051168,-7.465220551239327e-05,0.2905570864677429,-1.5001896063434046,2.5887766755680075e-27,0.0030959779396653175,0.7500206232070923,0.0,0.017846018075942993,0.6180561780929565,0.15081094205379486,0.1212390661239624
467.0,417.0,-0.8614,0.2243,9.746,-0.0472,-0.0786,0.0076,-1.562754595918097,-0.09336567670106888,1.9548590183258057,-1.8172004222869873,-6.716870120726526e-05,2.1454010009765625,4.97309489825324,-8.665835048304871e-05,0.30167728662490845,-1.5002220312701624,4.704974032262984e-32,0.007807533722370863,0.7500245571136475,0.0,0.037770021706819534,0.6192847490310669,0.145395427942276,0.12910476326942444
467.0,417.0,-0.8614,0.2243,9.746,-0.0472,-0.0786,0.0076,-1.5637620522505422,-0.09395548701286316,1.9752874374389648,-1.8171560764312744,-0.0020313814748078585,2.1624152660369873,4.973092156439581,-0.000332380150211975,0.30634284019470215,-1.5002620855914515,5.583229344650055e-38,0.0067468006163835526,0.7500249147415161,0.0,0.018648428842425346,0.620705783367157,0.1387353092432022,0.08408351242542267
467.0,417.0,-0.8614,0.2243,9.746,-0.0472,-0.0786,0.0076,-1.5645377098447462,-0.10485637933015823,1.9377115964889526,-1.8172203302383423,-0.005442207213491201,2.14335298538208,4.973067331105032,-0.0034253739286214113,0.30381107330322266,-1.5002501646624964,1.0145400881711676e-42,-0.0008163050515577197,0.7500171065330505,0.0,0.021335700526833534,0.6218504905700684,0.14875537157058716,0.09737323969602585
467.0,417.0,-0.8614,0.2243,9.746,-0.0472,-0.0786,0.0076,-1.5655727654560287,-0.11458741873502731,1.9204392433166504,-1.817305088043213,-0.003992809448391199,2.1699001789093018,4.973120021611013,-0.0011844425462186337,0.2924294173717499,-1.5002263228045862,0.0,0.007484119385480881,0.7500208020210266,0.0,0.016166258603334427,0.6233394742012024,0.1573084443807602,0.10786669701337814
467.0,417.0,-0.8614,0.2243,9.746,-0.0472,-0.0786,0.0076,-1.5664517979933699,-0.11342588812112808,1.8936766386032104,-1.8172367811203003,0.00010287343320669606,2.179502248764038,4.9730876562889,0.0003439036663621664,0.2878061532974243,-1.5002225081073206,0.0,0.007008067797869444,0.7500445246696472,0.0,0.02155240997672081,0.6246323585510254,0.1581466794013977,0.19503507018089294
467.0,417.0,-0.8614,0.2243,9.746,-0.0472,-0.0786,0.0076,-1.5676148541136463,-0.10450512170791626,1.9256722927093506,-1.817260503768921,0.0010288440389558673,2.168562173843384,4.9731036303337,0.0002695984730962664,0.28952062129974365,-1.5002501646624964,0.0,0.0013801001477986574,0.7500166893005371,0.0,0.0208487156778574,0.6261572241783142,0.14514121413230896,0.10204629600048065
447.0,446.0,-1.0032,-0.2106,8.9049,-0.0269,-0.0677,0.0031,-1.5684858393254508,-0.09988349676132202,2.017138957977295,-1.817305088043213,-0.0005593377281911671,2.1140120029449463,4.973103987961569,6.888963253004476e-05,0.3008512854576111,-1.5001981894122522,0.0,0.00335116614587605,0.7500166893005371,0.0,0.025631509721279144,0.6273139715194702,0.1517072170972824,0.12990878522396088
447.0,446.0,-1.0032,-0.2106,8.9049,-0.0269,-0.0677,0.0031,-1.5695165002583344,-0.11019307374954224,1.9967517852783203,-1.8174489736557007,-0.0071114650927484035,2.142940044403076,4.9730156538780115,-0.001531480811536312,0.2978232800960541,-1.500225845967428,0.0,-0.0006165150552988052,0.750004768371582,0.0,0.013731974177062511,0.6288182735443115,0.1597389429807663,0.18304061889648438
447.0,446.0,-1.0032,-0.2106,8.9049,-0.0269,-0.0677,0.0031,-1.5704204847900947,-0.11806455254554749,1.9904108047485352,-1.8173807859420776,-0.005687138065695763,2.1118712425231934,4.9730639336402795,-0.001442817272618413,0.284103661775589,-1.5002382437335413,0.0,-0.00922011025249958,0.7499929070472717,0.0,0.022303584963083267,0.6301195025444031,0.16351017355918884,0.13964413106441498
447.0,446.0,-1.0032,-0.2106,8.9049,-0.0269,-0.0677,0.0031,-1.5715071163573207,-0.11686704307794571,1.980044960975647,-1.817355990409851,0.0008656965219415724,2.165557384490967,4.973088013916769,-0.0002371008595218882,0.28632164001464844,-1.5002177397357386,0.0,0.005137651227414608,0.7500248551368713,0.0,0.015224944800138474,0.6316718459129333,0.1566823422908783,0.20069414377212524
447.0,446.0,-1.0032,-0.2106,8.9049,-0.0269,-0.0677,0.0031,-1.572402139703268,-0.1123901903629303,1.9924628734588623,-1.817332148551941,0.0016650956822559237,2.169992685317993,4.973083930998602,-5.384595169743989e-06,0.3027762770652771,-1.5002382437335413,0.0,0.00861396174877882,0.7499846816062927,0.0,0.017092876136302948,0.6330254673957825,0.1510300189256668,0.17855702340602875
447.0,446.0,-1.0032,-0.2106,8.9049,-0.0269,-0.0677,0.0031,-1.573568960229391,-0.11068563908338547,2.022672414779663,-1.8173208236694336,6.69874316372443e-06,2.116722345352173,4.973104047566213,-6.389714278520753e-12,0.29416242241859436,-1.5002782980548304,0.0,-0.01116533949971199,0.7500568628311157,0.0,0.023647015914320946,0.6345461010932922,0.1525910645723343,0.168992280960083
447.0,446.0,-1.0032,-0.2106,8.9049,-0.0269,-0.0677,0.0031,-1.5745088062682093,-0.11411254107952118,1.9969980716705322,-1.817360281944275,-0.001362376264296472,2.146503448486328,4.9730115113552,-1.1612987142978968e-16,0.3071177005767822,-1.5003059546100062,0.0,-0.003166191279888153,0.7500248551368713,0.0,0.03154077008366585,0.6357747912406921,0.15560293197631836,0.20192024111747742
447.0,446.0,-1.0032,-0.2106,8.9049,-0.0269,-0.0677,0.0031,-1.5756074390807093,-0.11776665598154068,2.0180156230926514,-1.8174045085906982,-0.000995006412267685,2.1289243698120117,4.9730635462100885,-1.3780726011453655e-22,0.2958851456642151,-1.500253979359762,0.0,-0.020623311400413513,0.7499564290046692,0.0,0.03322851285338402,0.637283205986023,0.15490353107452393,0.16975174844264984
447.0,446.0,-1.0032,-0.2106,8.9049,-0.0269,-0.0677,0.0031,-1.5764991245665492,-0.11589725315570831,2.0088820457458496,-1.8173683881759644,0.00018187315436080098,2.1254420280456543,4.973095822125234,-2.5045792554452752e-27,0.2874017357826233,-1.5002859274493616,0.0,-0.011770060285925865,0.7499403953552246,0.0,0.01582886278629303,0.6385526657104492,0.14387865364551544,0.21965327858924866
447.0,446.0,-1.0032,-0.2106,8.9049,-0.0269,-0.0677,0.0031,-1.5775891743102015,-0.10962096601724625,2.028473377227783,-1.8173764944076538,0.0002933898358605802,2.189565420150757,4.973140048771658,0.0001174545832327567,0.2889854907989502,-1.500270191823141,-0.00011350058048265055,-0.01398129016160965,0.7500006556510925,0.0,0.017239825800061226,0.6399700045585632,0.13431309163570404,0.11471186578273773
450.0,474.0,-0.5515,-1.8706,9.1208,-0.0605,-0.1141,0.0015,-1.578489442864889,-0.09984514117240906,2.0523264408111572,-1.8173608779907227,0.0002212738327216357,2.1350369453430176,4.973107862263479,0.00013996711641084403,0.29311516880989075,-1.5002897421466272,-0.0002092735085170716,-0.014200630597770214,0.7500248551368713,0.0,0.015474693849682808,0.6410104036331177,0.1307743787765503,0.16640353202819824
450.0,474.0,-0.5515,-1.8706,9.1208,-0.0605,-0.1141,0.0015,-1.5795003376402796,-0.10184557735919952,2.05891752243042,-1.817384958267212,3.1468655947719526e-07,2.118806838989258,4.973135965853491,0.00011115489905932918,0.28406625986099243,-1.500282112752096,-0.000205025848117657,-0.01555439829826355,0.7500411868095398,0.0,0.005693082697689533,0.6423272490501404,0.13896605372428894,0.1897793412208557
450.0,474.0,-0.5515,-1.8706,9.1208,-0.0605,-0.1141,0.0015,-1.5804630718626917,-0.1057162880897522,2.083868980407715,-1.8173725605010986,1.367849154323736e-16,2.1417946815490723,4.973083543568411,9.215903264703229e-05,0.2962803244590759,-1.5003016630755823,-0.00020152039360255003,-0.00907928217202425,0.7499850988388062,0.0,0.021653011441230774,0.6436923146247864,0.13293571770191193,0.17249789834022522
450.0,474.0,-0.5515,-1.8706,9.1208,-0.0605,-0.1141,0.0015,-1.5812221966185511,-0.09703273326158524,2.0769412517547607,-1.8172845840454102,4.431656876893811e-24,2.149643659591675,4.973147856980123,0.00020273803966119885,0.28424814343452454,-1.5002697149859827,-0.00018122962501365691,0.0007638355018571019,0.7499809265136719,0.0,0.012878788635134697,0.6446889638900757,0.12186754494905472,0.12590548396110535
450.0,474.0,-0.5515,-1.8706,9.1208,-0.0605,-0.1141,0.0015,-1.582165857354635,-0.08453360944986343,2.0752484798431396,-1.817348599433899,0.0010655721416696906,2.1268351078033447,4.973176079779424,0.0008199322619475424,0.2812386751174927,-1.5002496878253382,-0.00016097002662718296,-0.008678690530359745,0.7500207424163818,0.0,0.012877639383077621,0.6458780765533447,0.1109030619263649,0.143884539604187
450.0,474.0,-0.5515,-1.8706,9.1208,-0.0605,-0.1141,0.0015,-1.58276428798818,-0.08222682774066925,2.0482301712036133,-1.817312479019165,0.00021831314370501786,2.1690080165863037,4.973163890629568,0.000570314412470907,0.28461790084838867,-1.5002854506122034,-0.0001666642929194495,-0.01305520161986351,0.7499768137931824,0.0,0.012492390349507332,0.6467667818069458,0.10955291241407394,0.12557192146778107
450.0,474.0,-0.5515,-1.8706,9.1208,-0.0605,-0.1141,0.0015,-1.5835839710631312,-0.07683444023132324,2.149890661239624,-1.8173002004623413,0.00020343133655842394,2.1158485412597656,4.973203587322988,0.0004285724426154047,0.2843831777572632,-1.5003016630755823,-0.00016875808069016784,-0.01462610810995102,0.7499887347221375,0.0,-0.002455930458381772,0.6478559970855713,0.11937519907951355,0.10821831226348877
450.0,474.0,-0.5515,-1.8706,9.1208,-0.0605,-0.1141,0.0015,-1.584163328210348,-0.0717691034078598,2.0773773193359375,-1.8172961473464966,0.00020841746299993247,2.135895013809204,4.973179536848821,0.0003136755549348891,0.2757888436317444,-1.5003016630755823,-0.00015000496932771057,-0.010536225512623787,0.7499969601631165,0.0,0.012357323430478573,0.6487849354743958,0.11755697429180145,0.13737472891807556
450.0,474.0,-0.5515,-1.8706,9.1208,-0.0605,-0.1141,0.0015,-1.584834714929098,-0.06780845671892166,2.119640350341797,-1.817365050315857,0.00011769383127102628,2.1608450412750244,4.973195540695944,0.000367779255611822,0.2762059271335602,-1.5002935568438929,-0.00013171024329494685,-0.01386936753988266,0.7499686479568481,0.0,0.009064131416380405,0.6499945521354675,0.10821537673473358,0.09032434225082397
419.0,505.0,-0.4732,-2.7081,9.3847,-0.1411,-0.0568,0.0148,-1.5853902302184046,-0.06846889853477478,2.1055679321289062,-1.8173091411590576,0.0010222360724583268,2.1476480960845947,4.973215389042654,0.0006450563669204712,0.2884194850921631,-1.5002897421466272,-0.00012000178685411811,-0.010885730385780334,0.7499686479568481,0.0,0.010480034165084362,0.6507861614227295,0.10030302405357361,0.13787482678890228
419.0,505.0,-0.4732,-2.7081,9.3847,-0.1411,-0.0568,0.0148,-1.5860816440977992,-0.06739655882120132,2.076870918273926,-1.8172802925109863,0.00128167902585119,2.137336015701294,4.973239379912176,0.0009510150994174182,0.28040993213653564,-1.500322167073385,-0.0001259606797248125,-0.02099747583270073,0.7499367594718933,0.0,0.02156963385641575,0.6517714262008667,0.09794419258832932,0.10226941108703613
419.0,505.0,-0.4732,-2.7081,9.3847,-0.1411,-0.0568,0.0148,-1.5866662464537562,-0.0689806267619133,2.100543260574341,-1.817305088043213,0.0005364750977605581,2.0972795486450195,4.973271834641256,0.0008221837924793363,0.28162986040115356,-1.5003016630755823,-0.00011666763020912185,-0.009254328906536102,0.7499810457229614,3.519854629985275e-08,0.007851437665522099,0.6526041626930237,0.10815877467393875,0.11895815283060074
419.0,505.0,-0.4732,-2.7081,9.3847,-0.1411,-0.0568,0.0148,-1.5873328648009242,-0.06605043262243271,2.088582992553711,-1.8173412084579468,0.00029259390430524945,2.1278483867645264,4.973291384964742,0.0005712198908440769,0.2726578414440155,-1.5003097693072718,-0.00010678033868316561,-0.0173935629427433,0.7499969601631165,4.1768898859399425e-14,0.0010717939585447311,0.6537008881568909,0.1162114068865776,0.1269584596157074
419.0,505.0,-0.4732,-2.7081,9.3847,-0.1411,-0.0568,0.0148,-1.5879084072508753,-0.06264569610357285,2.074122905731201,-1.8172680139541626,0.00016559692448936403,2.0968120098114014,4.973247217922964,0.00041436395258642733,0.2725347578525543,-1.5002735296832483,-0.00010000049223890528,-0.023922819644212723,0.7499969005584717,7.591292390401144e-19,0.01252671331167221,0.6546940207481384,0.11920445412397385,0.15000593662261963
419.0,505.0,-0.4732,-2.7081,9.3847,-0.1411,-0.0568,0.0148,-1.5885478458800257,-0.06036944314837456,2.104174852371216,-1.8173084259033203,-0.00024750654119998217,2.098686933517456,4.973255383759298,0.0002994186361320317,0.2805241644382477,-1.5002458731280726,-4.466371319722384e-05,-0.02209619991481304,0.7499727606773376,9.008325123613743e-25,-0.0019704126752913,0.6559031009674072,0.11794496327638626,0.15549923479557037
419.0,505.0,-0.4732,-2.7081,9.3847,-0.1411,-0.0568,0.0148,-1.5890428028502406,-0.06164958328008652,2.132111072540283,-1.8173043727874756,-0.0009240008657798171,2.107743740081787,4.973267543106832,0.00017404640675522387,0.2839372158050537,-1.5002616087542933,-3.7810823414474726e-05,-0.009403902105987072,0.7500252723693848,1.6372186012490063e-29,-0.001479318831115961,0.6568281054496765,0.11242641508579254,0.1252174973487854
419.0,505.0,-0.4732,-2.7081,9.3847,-0.1411,-0.0568,0.0148,-1.5896865330138148,-0.07047101110219955,2.1316776275634766,-1.81734037399292,-0.0005009440938010812,2.142270088195801,4.973267543106832,0.00013314984971657395,0.2794138789176941,-1.5003016630755823,-3.4216860512970015e-05,-0.018844278529286385,0.7499248385429382,1.9428307177311165e-35,0.012030844576656818,0.6579530239105225,0.11997425556182861,0.16915221512317657
419.0,505.0,-0.4732,-2.7081,9.3847,-0.1411,-0.0568,0.0148,-1.5902945003905238,-0.07305411249399185,2.151366710662842,-1.8172639608383179,-7.3893868830055e-05,2.091981887817383,4.973211157112875,3.755714715225622e-05,0.28630658984184265,-1.500282112752096,-3.179893610649742e-05,-0.01921592466533184,0.7499366998672485,3.530991870405674e-40,0.01067318394780159,0.658861517906189,0.11945095658302307,0.1585652232170105
419.0,505.0,-0.4732,-2.7081,9.3847,-0.1411,-0.0568,0.0148,-1.5910021267332972,-0.0766356810927391,2.112922191619873,-1.817305088043213,-9.006483032243315e-14,2.119901180267334,4.973255324154653,6.019137435941957e-05,0.2819010019302368,-1.5002697149859827,-2.921806117228698e-05,-0.018159203231334686,0.7499769330024719,0.0,-0.006067355163395405,0.6600266695022583,0.11783888936042786,0.16454218327999115
414.0,661.0,-1.3328,-1.2263,9.2931,-0.0542,-0.0373,-0.0602,-1.5916935406126917,-0.08473106473684311,2.0472538471221924,-1.8173131942749023,-2.9179858356348586e-21,2.073812961578369,4.9732956168945215,7.964468386489898e-05,0.2802758812904358,-1.500253979359762,-2.743659024417866e-05,-0.018094072118401527,0.7499810457229614,0.0,-0.0055741784162819386,0.6609834432601929,0.12048459053039551,0.1632310003042221
414.0,661.0,-1.3328,-1.2263,9.2931,-0.0542,-0.0373,-0.0602,-1.592632909814352,-0.09168087691068649,2.0939626693725586,-1.817320704460144,-1.2683614138027863e-30,2.1236023902893066,4.973319786577978,0.0003811633796431124,0.26971668004989624,-1.5002177397357386,-2.549365490267519e-05,-0.026246026158332825,0.7500014901161194,0.0,0.0037278200034052134,0.6621803641319275,0.11322001367807388,0.14943847060203552
414.0,661.0,-1.3328,-1.2263,9.2931,-0.0542,-0.0373,-0.0602,-1.59338440517568,-0.09031826257705688,2.1254892349243164,-1.8172802925109863,-4.1093298871482624e-38,2.1060001850128174,4.9733033058936975,0.00037363325827755034,0.27827149629592896,-1.5002778212176722,-2.412682442809455e-05,-0.024788204580545425,0.749940812587738,0.0,0.0004303318273741752,0.6631416082382202,0.11590281873941422,0.15498772263526917
414.0,661.0,-1.3328,-1.2263,9.2931,-0.0542,-0.0373,-0.0602,-1.5943275890746058,-0.0823930948972702,2.127153158187866,-1.817328929901123,-0.0,2.115492820739746,4.973271298199453,0.0002692700072657317,0.2718861401081085,-1.5002854506122034,-2.2611418899032287e-05,-0.01827944442629814,0.7499808669090271,0.0,0.004176310263574123,0.6642985343933105,0.11645238101482391,0.1528402715921402
414.0,661.0,-1.3328,-1.2263,9.2931,-0.0542,-0.0373,-0.0602,-1.595022817651266,-0.08137109875679016,2.1221160888671875,-1.817373275756836,-7.050426938803867e-05,2.0587220191955566,4.9732717154319666,0.00011641673336271197,0.27200618386268616,-1.5002854506122034,-3.220170037820935e-05,-0.023968610912561417,0.7499609589576721,0.0,-0.0023717316798865795,0.6652836799621582,0.11609650403261185,0.11694785952568054
414.0,661.0,-1.3328,-1.2263,9.2931,-0.0542,-0.0373,-0.0602,-1.59588684658193,-0.09197365492582321,2.148142099380493,-1.8172968626022339,-0.0003100842877756804,2.106802225112915,4.973295408278265,4.372108742245473e-05,0.27294620871543884,-1.5003259817706507,-3.0472067010123283e-05,-0.009530752897262573,0.7499085068702698,0.0,0.004081264603883028,0.6664525270462036,0.12004902213811874,0.1540374904870987
414.0,661.0,-1.3328,-1.2263,9.2931,-0.0542,-0.0373,-0.0602,-1.59655823330068,-0.09502881020307541,2.1166832447052,-1.8172721862792969,-2.670236032287221e-09,2.071687936782837,4.9732835469539545,7.287855260074139e-05,0.27363866567611694,-1.5003379026996058,-3.190237839589827e-05,-0.029765089973807335,0.7499850988388062,-5.822868388349889e-06,0.0012857964029535651,0.6674413681030273,0.12176483124494553,0.1398445963859558
414.0,661.0,-1.3328,-1.2263,9.2931,-0.0542,-0.0373,-0.0602,-1.5974732838072718,-0.0913970023393631,2.1796796321868896,-1.817285180091858,0.002134176203981042,2.134986162185669,4.973343390017309,0.00011668945080600679,0.2851583957672119,-1.5003498236285608,-0.0007343253819271922,-0.031788621097803116,0.7500171661376953,-2.584802314231638e-05,-0.00862642377614975,0.6687746644020081,0.13283851742744446,0.2163400501012802
414.0,661.0,-1.3328,-1.2263,9.2931,-0.0542,-0.0373,-0.0602,-1.598180433312887,-0.08510523289442062,2.1226954460144043,-1.8172169923782349,0.001831162953749299,2.1115005016326904,4.973270910769262,0.00013769562065135688,0.2916809320449829,-1.500385586415426,-0.0006740169483236969,-0.02516186609864235,0.7499687671661377,-2.444394885969814e-05,-0.014611460268497467,0.6699038743972778,0.13897155225276947,0.21683593094348907
414.0,661.0,-1.3328,-1.2263,9.2931,-0.0542,-0.0373,-0.0602,-1.599055906335348,-0.07189758867025375,2.20358943939209,-1.8172369003295898,0.000313135446049273,2.109145402908325,4.973311471730032,0.00019153339962940663,0.2859896123409271,-1.5003779570208948,-0.0005034503992646933,-0.03154138848185539,0.7499366998672485,-2.288974246766884e-05,0.017310412600636482,0.6712806820869446,0.14983318746089935,0.2504928708076477
412.0,807.0,-0.4929,0.9697,10.4501,0.0383,-0.0805,-0.0283,-1.5997230015196742,-0.0629030391573906,2.2500672340393066,-1.8173009157180786,-0.0020352520514279604,2.1359293460845947,4.973255383759298,1.7121088546900864e-07,0.292967826128006,-1.5003417173968714,-0.0003729863092303276,-0.03474906086921692,0.7499449253082275,-3.228196146665141e-05,-0.006268500350415707,0.6728065013885498,0.15778130292892456,0.25937870144844055
412.0,807.0,-0.4929,0.9697,10.4501,0.0383,-0.0805,-0.0283,-1.600250860253805,-0.061659179627895355,2.212502956390381,-1.8173165321350098,-0.0021619542967528105,2.0825328826904297,4.973287689476766,3.111673462299902e-12,0.2884228229522705,-1.500333611165182,-0.0002705106744542718,-0.03767676651477814,0.7499404549598694,-3.080861642956734e-05,0.015165960416197777,0.6740836501121521,0.16557486355304718,0.23319464921951294
412.0,807.0,-0.4929,0.9697,10.4501,0.0383,-0.0805,-0.0283,-1.6008149586119593,-0.05823767930269241,2.214618682861328,-1.8173484802246094,-7.431054655171465e-06,2.1249921321868896,4.973231541901388,-0.00047987146535888314,0.28200486302375793,-1.5003183523761194,-7.71009290474467e-05,-0.030783601105213165,0.7499809265136719,-1.2699470630650467e-07,-0.003836697433143854,0.6756367087364197,0.15646597743034363,0.21811692416667938
412.0,807.0,-0.4929,0.9697,10.4501,0.0383,-0.0805,-0.0283,-1.6012259922423304,-0.05480434000492096,2.1776859760284424,-1.8172844648361206,-2.4075671469468707e-13,2.1056900024414062,4.97328399398879,-0.0003363274736329913,0.28155213594436646,-1.5003302733050745,-6.533550913445652e-05,-0.02296777069568634,0.7499527335166931,-2.308066281500598e-12,0.0008045351132750511,0.6769019961357117,0.1529204100370407,0.20426419377326965
412.0,807.0,-0.4929,0.9697,10.4501,0.0383,-0.0805,-0.0283,-1.601781507531637,-0.052438899874687195,2.206753730773926,-1.8172968626022339,-1.0464977650475284e-22,2.1249020099639893,4.97324754574851,-0.00029286666540428996,0.2764492928981781,-1.5003421942340296,-5.5298329243669286e-05,-0.0309639610350132,0.7499809265136719,2.3730597604298964e-05,-0.001025709556415677,0.6783308982849121,0.15358294546604156,0.21291139721870422
412.0,807.0,-0.4929,0.9697,10.4501,0.0383,-0.0805,-0.0283,-1.602201601068014,-0.05775003135204315,2.250269889831543,-1.8173329830169678,-3.390519921556969e-30,2.133713960647583,4.973296242743292,-0.0003212885931134224,0.2844398021697998,-1.5002816359149378,-4.924614404444583e-05,-0.01512000523507595,0.7499645948410034,1.6989054607563503e-09,0.0008124595042318106,0.6796083450317383,0.16045401990413666,0.23663529753684998
412.0,807.0,-0.4929,0.9697,10.4501,0.0383,-0.0805,-0.0283,-1.6028734646239222,-0.06293591856956482,2.1101489067077637,-1.8173165321350098,-1.473758206616589e-39,2.1086161136627197,4.9731914577777765,-0.00030149618396535516,0.2725712060928345,-1.5002973715411585,-2.1659938283846714e-05,-0.02208566479384899,0.7499769330024719,2.01603243512238e-15,-0.004890060052275658,0.6811337471008301,0.14958468079566956,0.209773451089859
412.0,807.0,-0.4929,0.9697,10.4501,0.0383,-0.0805,-0.0283,-1.6033483944334925,-0.06888148188591003,2.15155029296875,-1.8172646760940552,4.33631066698581e-05,2.0951616764068604,4.973195540695944,-0.0002891531912609935,0.27665746212005615,-1.5003259817706507,-1.7328038381947408e-07,-0.021491197869181633,0.750049352645874,3.664039174803971e-20,0.0070218839682638645,0.6822988390922546,0.13609421253204346,0.17413154244422913
412.0,807.0,-0.4929,0.9697,10.4501,0.0383,-0.0805,-0.0283,-1.6040474377074183,-0.07468220591545105,2.162062883377075,-1.8173009157180786,2.7755059361922463e-10,2.123596668243408,4.973199623614111,-0.00046143317013047636,0.2852267920970917,-1.5003097693072718,-2.0562584024819835e-13,-0.005914898589253426,0.7500051856040955,4.3479880706147745e-26,-0.0014762645587325096,0.6836557984352112,0.1403248906135559,0.15416227281093597
412.0,807.0,-0.4929,0.9697,10.4501,0.0383,-0.0805,-0.0283,-1.6047240696349085,-0.07548920065164566,2.155898332595825,-1.8173816204071045,8.992286229328252e-18,2.1022870540618896,4.9731876132781885,-0.00040950538823381066,0.2808126211166382,-1.5003259817706507,-3.737148240774763e-18,-0.0027051104698330164,0.7500371932983398,7.902254190634463e-31,0.010751396417617798,0.684820830821991,0.15026775002479553,0.14802080392837524
402.0,914.0,-0.652,0.548,9.4588,0.0473,-0.0883,0.0405,-1.605455060998434,-0.07396084070205688,2.2433230876922607,-1.8172762393951416,3.908679444365762e-27,2.1250369548797607,4.9731836197669885,-0.0002789717400446534,0.2841949164867401,-1.5003302733050745,-4.4347440840463934e-24,-0.02478795126080513,0.7499846816062927,9.377331481002654e-37,0.0043832771480083466,0.6863262057304382,0.15602357685565948,0.21228280663490295
402.0,914.0,-0.652,0.548,9.4588,0.0473,-0.0883,0.0405,-1.6060472927489222,-0.07226590812206268,2.1885552406311035,-1.8172967433929443,1.2663625896169947e-34,2.1222946643829346,4.973195540695944,-0.00023698233417235315,0.2838663160800934,-1.5002935568438929,-8.059928344853762e-29,-0.001022235257551074,0.7500007152557373,1.7042591923118425e-41,0.009902119636535645,0.6875837445259094,0.14769142866134644,0.16199596226215363
402.0,914.0,-0.652,0.548,9.4588,0.0473,-0.0883,0.0405,-1.6067615948119105,-0.07368601113557816,2.174527168273926,-1.817328929901123,5.465064010866787e-44,2.0948703289031982,4.973207491427221,-0.00019946238899137825,0.2764744758605957,-1.5003140608416956,-9.564437910086241e-35,-0.015362911857664585,0.7499884366989136,0.0,0.03537354618310928,0.6890530586242676,0.14680911600589752,0.20042309165000916
402.0,914.0,-0.652,0.548,9.4588,0.0473,-0.0883,0.0405,-1.6073256931700648,-0.07408720254898071,2.1282284259796143,-1.8172763586044312,-0.0,2.1228866577148438,4.973183202534475,-0.00017703953199088573,0.278648316860199,-1.5003178755389612,-1.7382897255179707e-39,-0.014061343856155872,0.7501011490821838,0.00011764960800064728,0.016448263078927994,0.6901976466178894,0.15427668392658234,0.18951570987701416
402.0,914.0,-0.652,0.548,9.4588,0.0473,-0.0883,0.0405,-1.6080533466734828,-0.07544863224029541,2.1468281745910645,-1.817345380783081,-0.0,2.134995460510254,4.973183172732153,-5.835121191921644e-05,0.29647454619407654,-1.5003259817706507,-1.401298464324817e-45,-0.030579935759305954,0.7500125169754028,0.0001618775713723153,0.0313471294939518,0.6918394565582275,0.1715749204158783,0.26531073451042175
402.0,914.0,-0.652,0.548,9.4588,0.0473,-0.0883,0.0405,-1.608640810052389,-0.07542575150728226,2.1640682220458984,-1.8172802925109863,0.00020980466797482222,2.1561808586120605,4.973155545979299,-5.16513355250936e-05,0.281158447265625,-1.5003059546100062,-0.0,-0.023026831448078156,0.7500888705253601,0.000498665904160589,0.03502191975712776,0.6932768821716309,0.17562775313854218,0.2865970730781555
402.0,914.0,-0.652,0.548,9.4588,0.0473,-0.0883,0.0405,-1.6094004116454066,-0.07305027544498444,2.1556997299194336,-1.8172802925109863,0.0001826489606173709,2.1304855346679688,4.9731876132781885,-6.772874621674418e-05,0.2821853756904602,-1.5003264586078089,-0.0,-0.029590215533971786,0.7500281929969788,0.0007569078006781638,0.05289197340607643,0.6950059533119202,0.17976625263690948,0.30145102739334106
402.0,914.0,-0.652,0.548,9.4588,0.0473,-0.0883,0.0405,-1.6099912128844203,-0.07940554618835449,2.1717915534973145,-1.817337155342102,2.851548441817897e-10,2.132657051086426,4.9731682417686365,-0.00015293680189643055,0.2932700514793396,-1.500338379536764,-0.0,-0.021554570645093918,0.7500761151313782,0.0010716525139287114,0.05916154384613037,0.6964993476867676,0.18393687903881073,0.3219437599182129
402.0,914.0,-0.652,0.548,9.4588,0.0473,-0.0883,0.0405,-1.6108552418150843,-0.09469857811927795,2.1587564945220947,-1.817373275756836,1.2394833605073144e-19,2.16933012008667,4.973144161492147,-0.0011256164871156216,0.27856123447418213,-1.5002816359149378,-0.0,-0.01939868927001953,0.7500801682472229,0.001005580648779869,0.05672525614500046,0.6983928680419922,0.19521018862724304,0.34561342000961304
402.0,914.0,-0.652,0.548,9.4588,0.0473,-0.0883,0.0405,-1.611570497552389,-0.10098429024219513,2.1770739555358887,-1.8173009157180786,-1.48831009028072e-06,2.1287033557891846,4.973119574576177,-0.0006943284533917904,0.2877916395664215,-1.5003059546100062,-0.0,-0.03500756621360779,0.7500683665275574,0.0008485926664434373,0.06783774495124817,0.7000148296356201,0.20234306156635284,0.3660935163497925
409.0,8190.0,-0.7412,-0.2728,8.8941,-0.0057,-0.104,0.0898,-1.6125174961485804,-0.10015469044446945,2.1303791999816895,-1.8172802925109863,-6.469241133829913e-16,2.0963850021362305,4.973135906248846,-0.00046831509098410606,0.2947837710380554,-1.5002496878253382,-0.0,-0.024499166756868362,0.7500765323638916,0.0005829663714393973,0.07421911507844925,0.7020224332809448,0.19805830717086792,0.37031838297843933
409.0,8190.0,-0.7412,-0.2728,8.8941,-0.0057,-0.104,0.0898,-1.6134215794005335,-0.09797978401184082,2.1935136318206787,-1.8172926902770996,-2.095951991441208e-23,2.173063278198242,4.973148214607992,-0.00037153647281229496,0.2962188422679901,-1.5003097693072718,-0.0,-0.02924967184662819,0.7501892447471619,0.0003624513337854296,0.07476995140314102,0.7035937905311584,0.19499891996383667,0.33830931782722473
409.0,8190.0,-0.7412,-0.2728,8.8941,-0.0057,-0.104,0.0898,-1.6144172153868617,-0.10673440992832184,2.1294219493865967,-1.8173484802246094,-0.00021796282089781016,2.1656696796417236,4.973128008633413,-0.00027387047884985805,0.29061511158943176,-1.5002897421466272,-0.0,-0.03906649351119995,0.750108540058136,0.00025832446408458054,0.08809100836515427,0.7055693864822388,0.20538802444934845,0.4050513505935669
409.0,8190.0,-0.7412,-0.2728,8.8941,-0.0057,-0.104,0.0898,-1.6153046093382777,-0.11306726187467575,2.141798496246338,-1.817304253578186,-0.0002205925848102197,2.176229476928711,4.973131912737646,-0.0007115897606126964,0.3025874197483063,-1.5002415815936487,-0.0,-0.03912390023469925,0.7500843405723572,0.00021007077884860337,0.07469969987869263,0.7072740197181702,0.2014574557542801,0.4310835003852844
409.0,8190.0,-0.7412,-0.2728,8.8941,-0.0057,-0.104,0.0898,-1.616406580010885,-0.12910374999046326,2.09619402885437,-1.8172802925109863,-8.363312372239307e-05,2.1398725509643555,4.973115938692846,-0.0005092268693260849,0.2890479564666748,-1.5002897421466272,-0.0,-0.040281765162944794,0.7500966787338257,0.0002043717831838876,0.0758381113409996,0.7092323899269104,0.20583456754684448,0.42706263065338135
409.0,8190.0,-0.7412,-0.2728,8.8941,-0.0057,-0.104,0.0898,-1.6174503765501917,-0.13496603071689606,2.0954673290252686,-1.8172450065612793,-1.5294174815494443e-09,2.0996205806732178,4.973103600531378,-0.00038474725442938507,0.2937082052230835,-1.5003059546100062,-0.0,-0.04480763524770737,0.7501248717308044,0.0001774966949597001,0.07574835419654846,0.710904598236084,0.2164134979248047,0.4412692189216614
409.0,8190.0,-0.7412,-0.2728,8.8941,-0.0057,-0.104,0.0898,-1.6187974415221156,-0.13476039469242096,2.1171388626098633,-1.8172688484191895,0.0010340458247810602,2.1240551471710205,4.973111825972357,-5.979013440082781e-05,0.2925882637500763,-1.5002616087542933,-0.0,-0.03556360304355621,0.750108540058136,0.00015244082896970212,0.08537924289703369,0.7130157947540283,0.21324530243873596,0.42623206973075867
409.0,8190.0,-0.7412,-0.2728,8.8941,-0.0057,-0.104,0.0898,-1.6199728451170863,-0.1303182691335678,2.136397123336792,-1.8172967433929443,0.00024881341960281134,2.1492886543273926,4.973095851927557,-9.185359522234648e-05,0.2896389961242676,-1.5002859274493616,-0.0,-0.03395206853747368,0.7501003742218018,0.0001141444590757601,0.06734544783830643,0.714767336845398,0.21692827343940735,0.44125211238861084
409.0,8190.0,-0.7412,-0.2728,8.8941,-0.0057,-0.104,0.0898,-1.6214038334288539,-0.14571259915828705,2.1324057579040527,-1.8173412084579468,-0.0015411388594657183,2.1323258876800537,4.973067629128256,-0.0001457127946196124,0.2869888246059418,-1.5003140608416956,-0.0,-0.03951375186443329,0.7500884532928467,0.00010129608563147485,0.0799378976225853,0.7169345617294312,0.2278209775686264,0.4429670572280884
409.0,8190.0,-0.7412,-0.2728,8.8941,-0.0057,-0.104,0.0898,-1.6229702434935511,-0.1720367670059204,2.0899462699890137,-1.8172762393951416,-0.0004023955261800438,2.1056649684906006,4.973099934845724,-0.00014723610365763307,0.28214794397354126,-1.5002740065204065,-0.0,-0.03220366686582565,0.7500925660133362,9.104816854232922e-05,0.08231395483016968,0.7192586064338684,0.22263774275779724,0.4237900972366333
441.0,852.0,-0.5892,-1.2712,8.9372,-0.0599,-0.1666,0.0744,-1.6243096790709437,-0.1742846816778183,2.0997138023376465,-1.8172926902770996,0.003401871072128415,2.121570110321045,4.973160165339269,-4.102200182387605e-05,0.29322105646133423,-1.500225845967428,-0.0,-0.03096301481127739,0.7500761151313782,8.423104736721143e-05,0.06927953660488129,0.7210462093353271,0.22444307804107666,0.4150455892086029
441.0,852.0,-0.5892,-1.2712,8.9372,-0.0599,-0.1666,0.0744,-1.62608065227651,-0.15701669454574585,2.142547607421875,-1.8172211647033691,0.0026619865093380213,2.137449264526367,4.973147886782446,-4.8679393849226926e-11,0.2829577624797821,-1.5002296606646937,-0.0,-0.028350381180644035,0.7501367926597595,7.702231960138306e-05,0.06410252302885056,0.7232856750488281,0.2269142121076584,0.4348357915878296
441.0,852.0,-0.5892,-1.2712,8.9372,-0.0599,-0.1666,0.0744,-1.6274720631041468,-0.1682920902967453,2.1482205390930176,-1.8172088861465454,1.496923687227536e-06,2.124800682067871,4.973099934845724,6.325564027065411e-05,0.2895679473876953,-1.5002778212176722,-0.0,-0.03980978578329086,0.7500560283660889,7.2086913860403e-05,0.06863211840391159,0.7251009941101074,0.22665879130363464,0.41088831424713135
441.0,852.0,-0.5892,-1.2712,8.9372,-0.0599,-0.1666,0.0744,-1.629282613793844,-0.19927379488945007,2.0686020851135254,-1.8172409534454346,-0.0018463945016264915,2.1808764934539795,4.973088013916769,7.506327504014365e-11,0.27987152338027954,-1.5003302733050745,-0.0,-0.05308936536312103,0.7500962018966675,6.674110045423731e-05,0.05970657616853714,0.7274206280708313,0.2305651307106018,0.4530807137489319
441.0,852.0,-0.5892,-1.2712,8.9372,-0.0599,-0.1666,0.0744,-1.6308332882323207,-0.19726131856441498,2.073429584503174,-1.8172564506530762,-5.4253835202189293e-08,2.123849868774414,4.973083543568411,1.3642379352322358e-15,0.28496065735816956,-1.5002501646624964,2.0542142920021433e-07,-0.04135022312402725,0.7501003742218018,6.300332461250946e-05,0.057979218661785126,0.7292119264602661,0.22802487015724182,0.477496862411499
441.0,852.0,-0.5892,-1.2712,8.9372,-0.0599,-0.1666,0.0744,-1.632735391656393,-0.18966400623321533,2.1056182384490967,-1.8172252178192139,0.001510333502665162,2.142690658569336,4.973107772856512,1.618893836858927e-21,0.2905815839767456,-1.500253979359762,2.4376651413561545e-13,-0.042442478239536285,0.750092089176178,5.8881425502477214e-05,0.06593012809753418,0.7315555810928345,0.22452412545681,0.44651132822036743
441.0,852.0,-0.5892,-1.2712,8.9372,-0.0599,-0.1666,0.0744,-1.6343423328795375,-0.20162086188793182,2.1283140182495117,-1.81729257106781,3.935618764216997e-08,2.128159999847412,4.973115938692846,2.9422595079263086e-26,0.302570104598999,-1.500253979359762,4.430335520261551e-18,-0.0323319286108017,0.7500724792480469,5.595287439064123e-05,0.059272799640893936,0.7333914637565613,0.2225971817970276,0.4280130863189697
441.0,852.0,-0.5892,-1.2712,8.9372,-0.0599,-0.1666,0.0744,-1.6364408932127894,-0.2108113169670105,2.129667043685913,-1.8172482252120972,1.7106961952878568e-17,2.1419854164123535,4.973071652441778,3.491476536825787e-32,0.2972104847431183,-1.500294033681051,5.2573256375219826e-24,-0.039837148040533066,0.7500967383384705,5.267786400509067e-05,0.06440740823745728,0.7355988025665283,0.2262173593044281,0.45242154598236084
441.0,852.0,-0.5892,-1.2712,8.9372,-0.0599,-0.1666,0.0744,-1.6381203136839808,-0.21163935959339142,2.1368892192840576,-1.8172285556793213,5.542437126393545e-25,2.1098368167877197,4.9731036303337,6.345584810740946e-37,0.30182868242263794,-1.5002577940570276,9.554930260478138e-29,-0.027278678491711617,0.7500962018966675,5.0321585149504244e-05,0.07422257959842682,0.7373580932617188,0.22279292345046997,0.39658379554748535
441.0,852.0,-0.5892,-1.2712,8.9372,-0.0599,-0.1666,0.0744,-1.640193601647848,-0.22118252515792847,2.1197569370269775,-1.8171800374984741,2.4091322797383436e-34,2.163187265396118,4.973127859621801,7.524972753424268e-43,0.30653485655784607,-1.500265900288717,1.1338505119401146e-34,-0.03444018214941025,0.7500962615013123,9.044556215087596e-10,0.060309141874313354,0.7395258545875549,0.21237361431121826,0.4007871150970459
485.0,586.0,-0.3811,-0.9882,9.737,-0.0385,-0.206,0.0739,-1.6419850788512171,-0.22311155498027802,2.2013821601867676,-1.8172885179519653,7.805232446289231e-42,2.1575231552124023,4.973059493094244,0.0,0.2998189926147461,-1.500213925038473,2.0607172917713965e-39,-0.03887302428483963,0.7501609921455383,1.6438032982317094e-14,0.05962568521499634,0.7412012219429016,0.21722079813480377,0.47156018018722534
485.0,586.0,-0.3811,-0.9882,9.737,-0.0385,-0.206,0.0739,-1.644174715081686,-0.2299223095178604,2.1787116527557373,-1.8172005414962769,6.38358760625124e-05,2.1605701446533203,4.973195928126135,0.0,0.29972782731056213,-1.5002697149859827,2.802596928649634e-45,-0.04101542383432388,0.7500724196434021,1.9506450420603323e-20,0.05629532411694527,0.7433131337165833,0.21247369050979614,0.4407239556312561
485.0,586.0,-0.3811,-0.9882,9.737,-0.0385,-0.206,0.0739,-1.6459857426085414,-0.22848042845726013,2.1862213611602783,-1.8172169923782349,0.00014919547538738698,2.130607843399048,4.973123776703634,6.4265154833265115e-06,0.3022194504737854,-1.5002778212176722,0.0,-0.032963141798973083,0.7501208186149597,3.545201305226283e-25,0.045876432210206985,0.744916558265686,0.20074985921382904,0.4096553325653076
485.0,586.0,-0.3811,-0.9882,9.737,-0.0385,-0.206,0.0739,-1.6482554874815882,-0.23324337601661682,2.154078483581543,-1.8172367811203003,0.0001558848307467997,2.1306493282318115,4.9731036303337,5.5416516261175275e-05,0.30748990178108215,-1.500282112752096,0.0,-0.03668251261115074,0.7501326203346252,4.206967328203078e-31,0.07205913215875626,0.7469074130058289,0.2082339972257614,0.4148752689361572
485.0,586.0,-0.3811,-0.9882,9.737,-0.0385,-0.206,0.0739,-1.650154253045553,-0.2377491593360901,2.182389974594116,-1.8172045946121216,0.00024221236526500434,2.1370508670806885,4.973176049977102,0.00038113820482976735,0.29854071140289307,-1.5002902189837855,0.0,-0.03183672949671745,0.7501207590103149,7.645955078274012e-36,0.07010022550821304,0.7486149668693542,0.20073075592517853,0.4173888564109802
485.0,586.0,-0.3811,-0.9882,9.737,-0.0385,-0.206,0.0739,-1.652604719201559,-0.23072455823421478,2.2022957801818848,-1.8171560764312744,0.0013361728051677346,2.119877815246582,4.9731801626975916,0.0005086386227048934,0.3091488480567932,-1.500253979359762,0.0,-0.05011400580406189,0.7500962018966675,9.07340755650319e-42,0.0630689188838005,0.7505189180374146,0.18852926790714264,0.34811854362487793
485.0,586.0,-0.3811,-0.9882,9.737,-0.0385,-0.206,0.0739,-1.6545301876463832,-0.2447921484708786,2.2213780879974365,-1.8171923160552979,0.0006915307021699846,2.1275830268859863,4.973176109581747,0.0003965575888287276,0.32003724575042725,-1.5002535025226038,0.0,-0.030402375385165215,0.7500520348548889,0.0,0.06374191492795944,0.7520065307617188,0.18703515827655792,0.33577144145965576
485.0,586.0,-0.3811,-0.9882,9.737,-0.0385,-0.206,0.0739,-1.6570631466307582,-0.24504677951335907,2.253697156906128,-1.8171931505203247,0.000410246109822765,2.096714496612549,4.97317128160552,0.000371855276171118,0.3162651062011719,-1.500253979359762,0.0,-0.01940065249800682,0.7500925660133362,0.0,0.0664474219083786,0.753834068775177,0.18271851539611816,0.3378561735153198
485.0,586.0,-0.3811,-0.9882,9.737,-0.0385,-0.206,0.0739,-1.6589886150755824,-0.2449699193239212,2.2613492012023926,-1.8171650171279907,0.0004569851153064519,2.1313648223876953,4.9731719372566126,0.000340931088430807,0.3113324046134949,-1.5002616087542933,0.0,-0.024119652807712555,0.7500885128974915,0.0,0.06293502449989319,0.7552857995033264,0.17526963353157043,0.31793874502182007
485.0,586.0,-0.3811,-0.9882,9.737,-0.0385,-0.206,0.0739,-1.661591192285055,-0.25233179330825806,2.2520627975463867,-1.817144751548767,0.0007406987133435905,2.097222328186035,4.973167943745413,0.00030646283994428813,0.30953192710876465,-1.5002577940570276,0.0,-0.016889257356524467,0.7500962018966675,0.0,0.0735226646065712,0.757021427154541,0.1681368052959442,0.3008362650871277
454.0,384.0,-0.1292,-0.3517,9.4164,-0.0177,-0.2477,0.036,-1.6635323963561,-0.24535159766674042,2.297851085662842,-1.8171446323394775,0.0005348455742932856,2.1055257320404053,4.973135965853491,0.00023777295427862555,0.3292287290096283,-1.5002458731280726,0.0,-0.020590215921401978,0.7501367926597595,0.0,0.05515904724597931,0.7583207488059998,0.1572003960609436,0.25857099890708923
454.0,384.0,-0.1292,-0.3517,9.4164,-0.0177,-0.2477,0.036,-1.665985723535055,-0.25653892755508423,2.2367897033691406,-1.8171486854553223,-0.00036102175363339484,2.083352565765381,4.973123568087377,0.0001939563371706754,0.3141888380050659,-1.5002415815936487,0.0,-0.016131635755300522,0.7500765323638916,0.0,0.06128542870283127,0.7599206566810608,0.15256507694721222,0.2591819167137146
454.0,384.0,-0.1292,-0.3517,9.4164,-0.0177,-0.2477,0.036,-1.6679917774596156,-0.25311920046806335,2.2802066802978516,-1.8171732425689697,-1.7850680933406693e-08,2.126483678817749,4.973147558956899,0.00019692898786161095,0.3196784555912018,-1.500282112752096,0.0,-0.023232709616422653,0.7501404881477356,0.0,0.06425289064645767,0.7611438632011414,0.15224681794643402,0.2943096160888672
454.0,384.0,-0.1292,-0.3517,9.4164,-0.0177,-0.2477,0.036,-1.6704403362669886,-0.2454710304737091,2.309375762939453,-1.8171206712722778,0.003297818824648857,2.101349353790283,4.97313146570281,0.00017477163055446,0.31913304328918457,-1.5002296606646937,0.0,-0.03451002389192581,0.7501044273376465,0.0,0.06352286040782928,0.7626355290412903,0.1415833830833435,0.21592164039611816
454.0,384.0,-0.1292,-0.3517,9.4164,-0.0177,-0.2477,0.036,-1.6723667583861292,-0.24426764249801636,2.3045473098754883,-1.817081332206726,0.0025542082730680704,2.106640100479126,4.973195540695944,0.00015478883869946003,0.329950213432312,-1.5002654234515589,0.0,-0.025490831583738327,0.7500478625297546,0.0,0.054406024515628815,0.7637887597084045,0.1352151334285736,0.18687745928764343
454.0,384.0,-0.1292,-0.3517,9.4164,-0.0177,-0.2477,0.036,-1.6747919521727503,-0.24500958621501923,2.2142958641052246,-1.8171132802963257,0.0010353648103773594,2.1383728981018066,4.9731876132781885,0.00013538381608668715,0.316270649433136,-1.5002740065204065,0.0,-0.028813796117901802,0.7500438094139099,0.0,0.06945167481899261,0.7651134133338928,0.13163214921951294,0.2715827524662018
454.0,384.0,-0.1292,-0.3517,9.4164,-0.0177,-0.2477,0.036,-1.6771732769408167,-0.24407634139060974,2.3000898361206055,-1.817081332206726,0.000488967401906848,2.0922234058380127,4.973231959133901,0.00014017720241099596,0.321764200925827,-1.5002859274493616,0.0,-0.03295353800058365,0.7501167058944702,0.0,0.07106364518404007,0.766418993473053,0.133352130651474,0.19475114345550537
454.0,384.0,-0.1292,-0.3517,9.4164,-0.0177,-0.2477,0.036,-1.6790348492064417,-0.2405714988708496,2.2530062198638916,-1.8170936107635498,0.0004995688796043396,2.1087489128112793,4.973223793297567,0.00012886895274277776,0.32512733340263367,-1.500253979359762,0.0,-0.024522598832845688,0.7500801086425781,0.0,0.07489702105522156,0.7674471139907837,0.1350260227918625,0.21205902099609375
454.0,384.0,-0.1292,-0.3517,9.4164,-0.0177,-0.2477,0.036,-1.6814409695067347,-0.23770330846309662,2.3434643745422363,-1.8170130252838135,0.002481169532984495,2.1252570152282715,4.9731914577777765,0.0001949472789419815,0.3328322172164917,-1.5003021399127405,0.0,-0.02933913841843605,0.750149130821228,0.0,0.07553970068693161,0.7687922716140747,0.12228580564260483,0.22609290480613708
454.0,384.0,-0.1292,-0.3517,9.4164,-0.0177,-0.2477,0.036,-1.6834341488280238,-0.2302234023809433,2.351579427719116,-1.8169611692428589,0.005280086304992437,2.1246109008789062,4.973207461624899,0.00017762681818567216,0.3208366334438324,-1.5003021399127405,0.0,-0.02325933426618576,0.7501208186149597,0.0,0.07329252362251282,0.7697531580924988,0.1177588626742363,0.2451494187116623
389.0,350.0,0.265,-1.1354,9.5952,-0.0278,-0.2036,0.0012,-1.685740133325094,-0.24406130611896515,2.339022159576416,-1.8169456720352173,0.0024841362610459328,2.085033416748047,4.973207461624899,0.00015253695892170072,0.32386836409568787,-1.5002778212176722,0.0,-0.04116446152329445,0.7500641942024231,0.0,0.07096126675605774,0.7708171010017395,0.11221081018447876,0.1648445427417755
389.0,350.0,0.265,-1.1354,9.5952,-0.0278,-0.2036,0.0012,-1.6877342663206996,-0.23813897371292114,2.3956005573272705,-1.8169496059417725,0.0013040442718192935,2.105184555053711,4.973183202534475,0.00015911375521682203,0.3190319538116455,-1.5003345648394983,0.0,-0.022318728268146515,0.750067949295044,0.0,0.07728631049394608,0.771734356880188,0.11805512011051178,0.2106807976961136
389.0,350.0,0.265,-1.1354,9.5952,-0.0278,-0.2036,0.0012,-1.6901475391783656,-0.228231281042099,2.423551559448242,-1.8169217109680176,0.0029230897780507803,2.1021790504455566,4.97319923618392,0.00014188623754307628,0.33393070101737976,-1.5002577940570276,0.0,-0.027752406895160675,0.7501285672187805,1.793143746908754e-05,0.07488124072551727,0.772951602935791,0.12332072108983994,0.2166585475206375
389.0,350.0,0.265,-1.1354,9.5952,-0.0278,-0.2036,0.0012,-1.6920696697630824,-0.23719573020935059,2.4054837226867676,-1.8168731927871704,0.001316630863584578,2.09922194480896,4.973223793297567,0.0001301601732848212,0.31675782799720764,-1.5002458731280726,0.0,-0.039050448685884476,0.7501281499862671,3.2589503318192214e-10,0.08797604590654373,0.7738680839538574,0.12126986682415009,0.233985036611557
389.0,350.0,0.265,-1.1354,9.5952,-0.0278,-0.2036,0.0012,-1.6943427524962367,-0.2245100438594818,2.4391822814941406,-1.8169300556182861,0.0004299746360629797,2.1195476055145264,4.973195540695944,7.027629908407107e-05,0.34486955404281616,-1.5002735296832483,0.0,-0.03407418727874756,0.750116229057312,0.0007562623359262943,0.08760979771614075,0.7750446796417236,0.11196089535951614,0.20344969630241394
389.0,350.0,0.265,-1.1354,9.5952,-0.0278,-0.2036,0.0012,-1.696256776849264,-0.2363707274198532,2.4032809734344482,-1.816985845565796,-0.00023092514311429113,2.087562084197998,4.973155605583944,5.5405984312528744e-05,0.32023561000823975,-1.5003302733050745,0.0,-0.0417453795671463,0.7501162886619568,0.0009156747837550938,0.09904326498508453,0.7759900689125061,0.10915748029947281,0.23996736109256744
389.0,350.0,0.265,-1.1354,9.5952,-0.0278,-0.2036,0.0012,-1.6985179386534632,-0.23452474176883698,2.38228440284729,-1.8169009685516357,-9.933369682357807e-08,2.058971405029297,4.973231541901388,4.801544127985835e-05,0.3344936966896057,-1.5002697149859827,0.0,-0.027623899281024933,0.7501482963562012,0.0006866601179353893,0.10370234400033951,0.7770467400550842,0.11819937080144882,0.24717728793621063
389.0,350.0,0.265,-1.1354,9.5952,-0.0278,-0.2036,0.0012,-1.7003561458983363,-0.22448773682117462,2.448701858520508,-1.8168288469314575,0.0024639361072331667,2.087721347808838,4.973231541901388,6.470325024565682e-05,0.3390807807445526,-1.5002616087542933,0.0,-0.034649886190891266,0.7501441240310669,0.0006051366217434406,0.10354559868574142,0.7779880166053772,0.12515370547771454,0.20605826377868652
389.0,350.0,0.265,-1.1354,9.5952,-0.0278,-0.2036,0.0012,-1.7025934658446253,-0.2188483476638794,2.437544822692871,-1.8168904781341553,0.002655738266184926,2.087116241455078,4.973195540695944,-4.469772466109134e-05,0.32753944396972656,-1.500282112752096,0.0,-0.05066632851958275,0.7501883506774902,0.0004604525165632367,0.10300028324127197,0.7792326211929321,0.1252489537000656,0.2628714144229889
389.0,350.0,0.265,-1.1354,9.5952,-0.0278,-0.2036,0.0012,-1.7043515644469203,-0.2184428721666336,2.4395647048950195,-1.8168936967849731,0.0010598048102110624,2.0605649948120117,4.9731719372566126,-6.922853935975581e-05,0.3254891633987427,-1.5002859274493616,0.0,-0.03539012745022774,0.7501121163368225,0.00045048046740703285,0.1095089316368103,0.7802571654319763,0.12293438613414764,0.2106384038925171
329.0,321.0,0.5258,-2.5382,10.1157,-0.0402,-0.2193,0.0475,-1.7064606151976527,-0.22398969531059265,2.4139771461486816,-1.8168410062789917,9.366396261611953e-05,2.0488181114196777,4.973195540695944,-6.52063827146776e-05,0.3323187828063965,-1.5002735296832483,0.0,-0.03558272495865822,0.7500999569892883,0.0005025455029681325,0.10199133306741714,0.7814421653747559,0.12010874599218369,0.25518107414245605
329.0,321.0,0.5258,-2.5382,10.1157,-0.0402,-0.2193,0.0475,-1.7082106075682582,-0.21916016936302185,2.4208383560180664,-1.8168047666549683,0.00026170574710704386,2.06986403465271,4.973147499352255,-5.6952772865770385e-05,0.3351338505744934,-1.500237766896383,0.0,-0.044477932155132294,0.7501319646835327,0.0006736302748322487,0.11091232299804688,0.782390832901001,0.1254156082868576,0.2671458125114441
