ramyac6/ROB537/final_project/csv/all/good_30.csv
tof_0,tof_1,accelx,accely,accelz,gyrox,gyroy,gyroz,shoulder_lift_joint_position,shoulder_lift_joint_velocity,shoulder_lift_joint_effort,elbow_joint_position,elbow_joint_velocity,elbow_joint_effort,wrist_1_joint_position,wrist_1_joint_velocity,wrist_1_joint_effort,wrist_2_joint_position,wrist_2_joint_velocity,wrist_2_joint_effort,wrist_3_joint_position,wrist_3_joint_velocity,wrist_3_joint_effort,shoulder_pan_joint_position,shoulder_pan_joint_velocity,shoulder_pan_joint_effort
233.0,306.0,3.2794,-0.277,8.8648,-0.0249,0.0257,-0.1203,-1.629103799859518,0.0,2.43117618560791,-1.7043684720993042,-0.0,2.1475465297698975,4.517338438625,-0.0,0.26908907294273376,-1.4517019430743616,0.0,-0.022916514426469803,0.5834035873413086,0.0,-0.004085167311131954,1.1520887613296509,0.0,-0.017897767946124077
233.0,306.0,3.2794,-0.277,8.8648,-0.0249,0.0257,-0.1203,-1.6291004619994105,0.0,2.4235775470733643,-1.7044811248779297,-0.0,2.165384531021118,4.5173584657856445,-0.0,0.2699339985847473,-1.45172626176943,0.0,-0.01101652067154646,0.5834154486656189,0.0,-0.008436696603894234,1.152072787284851,0.0,0.012636741623282433
233.0,306.0,3.2794,-0.277,8.8648,-0.0249,0.0257,-0.1203,-1.6291285953917445,0.0,2.4271881580352783,-1.7044329643249512,-0.0,2.129706382751465,4.5173913675495605,-0.0,0.27410635352134705,-1.4516857306109827,0.0,-0.011601341888308525,0.5834154486656189,0.0,-0.00738376472145319,1.152044653892517,0.0,0.03476623445749283
233.0,306.0,3.2794,-0.277,8.8648,-0.0249,0.0257,-0.1203,-1.6291161976256312,0.0,2.4007673263549805,-1.7044329643249512,-0.0,2.14143443107605,4.517370863551758,-0.0,0.27283531427383423,-1.4516857306109827,0.0,-0.009381523355841637,0.5834273099899292,0.0,-0.009259951300919056,1.1520568132400513,0.0,-0.005813456606119871
233.0,306.0,3.2794,-0.277,8.8648,-0.0249,0.0257,-0.1203,-1.629040380517477,0.0,2.443554401397705,-1.7044010162353516,-0.0,2.167405128479004,4.517330809230469,-0.0,0.27745023369789124,-1.4516976515399378,0.0,-0.02377915009856224,0.5834076404571533,0.0,0.0025081257335841656,1.1521166563034058,0.0,0.006232451647520065
233.0,306.0,3.2794,-0.277,8.8648,-0.0249,0.0257,-0.1203,-1.6291285953917445,0.0,2.4726760387420654,-1.7043969631195068,-0.0,2.15342378616333,4.517330809230469,-0.0,0.2741493582725525,-1.4517019430743616,0.0,-0.01517213974148035,0.5834032297134399,0.0,-0.005047692451626062,1.1520286798477173,0.0,-0.027252886444330215
233.0,306.0,3.2794,-0.277,8.8648,-0.0249,0.0257,-0.1203,-1.6290842495360316,0.0,2.362694501876831,-1.7043766975402832,-0.0,2.09970760345459,4.517378969783447,-0.0,0.2812747657299042,-1.4516857306109827,0.0,-0.020019926130771637,0.5834072828292847,0.0,-0.0066514709033071995,1.1520607471466064,0.0,0.001692427322268486
233.0,306.0,3.2794,-0.277,8.8648,-0.0249,0.0257,-0.1203,-1.6291200123228968,0.0,2.3704168796539307,-1.7044408321380615,-0.0,2.1482677459716797,4.517362757320068,-0.0,0.2772201895713806,-1.4516976515399378,0.0,-0.02170754224061966,0.5834277272224426,0.0,-0.006051104515790939,1.152052640914917,0.0,-0.006787123624235392
233.0,306.0,3.2794,-0.277,8.8648,-0.0249,0.0257,-0.1203,-1.6291328869261683,0.0,2.4440348148345947,-1.7044169902801514,-0.0,2.154883623123169,4.517350836391113,-0.0,0.2726367115974426,-1.4516976515399378,0.0,-0.018360599875450134,0.5834276676177979,0.0,-0.003935163840651512,1.152052640914917,0.0,0.03987723961472511
231.0,295.0,3.2782,-0.2997,8.7529,-0.0348,0.0247,-0.1208,-1.6290604076781214,0.0,2.3811330795288086,-1.7044005393981934,-0.0,2.1883363723754883,4.517318888301514,-0.0,0.2703995108604431,-1.4516695181476038,0.0,-0.020691154524683952,0.5834199786186218,0.0,0.002132309600710869,1.1520729064941406,0.0,-0.016124004498124123
231.0,295.0,3.2782,-0.2997,8.7529,-0.0348,0.0247,-0.1208,-1.629064222375387,0.0,2.422736167907715,-1.704408884048462,-0.0,2.141866683959961,4.517358942622803,-0.0,0.26926034688949585,-1.4517062346087855,0.0,-0.014910133555531502,0.5834199786186218,0.0,0.006383589468896389,1.1521047353744507,0.0,-0.03514203056693077
231.0,295.0,3.2782,-0.2997,8.7529,-0.0348,0.0247,-0.1208,-1.6290961704649867,0.0,2.3976712226867676,-1.7044129371643066,-0.0,2.1562840938568115,4.517350836391113,-0.0,0.2768586575984955,-1.4517019430743616,0.0,-0.014126505702733994,0.5834276676177979,0.0,-0.012758646160364151,1.152100682258606,0.0,0.015567375347018242
231.0,295.0,3.2782,-0.2997,8.7529,-0.0348,0.0247,-0.1208,-1.6290561161436976,0.0,2.412358522415161,-1.7043887376785278,-0.0,2.1091513633728027,4.517322226161621,-0.0,0.26849326491355896,-1.4517095724688929,0.0,-0.017521027475595474,0.583463728427887,0.0,-0.00867706909775734,1.1520406007766724,0.0,0.02154807560145855
231.0,295.0,3.2782,-0.2997,8.7529,-0.0348,0.0247,-0.1208,-1.6291004619994105,0.0,2.430138349533081,-1.7044371366500854,-0.0,2.1285436153411865,4.517358942622803,-0.0,0.2728500962257385,-1.4517343680011194,0.0,-0.009148307144641876,0.5833913087844849,0.0,-0.00019918690668419003,1.1520167589187622,0.0,-0.041306160390377045
231.0,295.0,3.2782,-0.2997,8.7529,-0.0348,0.0247,-0.1208,-1.6290842495360316,0.0,2.3823230266571045,-1.704408884048462,-0.0,2.1604959964752197,4.517322702998779,-0.0,0.28336238861083984,-1.4516943136798304,0.0,-0.021799860522150993,0.5833957195281982,0.0,-0.013910440728068352,1.1520648002624512,0.0,-0.017940372228622437
231.0,295.0,3.2782,-0.2997,8.7529,-0.0348,0.0247,-0.1208,-1.6291200123228968,0.0,2.456289052963257,-1.7044329643249512,-0.0,2.1300272941589355,4.517322702998779,-0.0,0.2664414942264557,-1.451681915913717,0.0,-0.017414532601833344,0.5834072828292847,0.0,-0.0011630294611677527,1.152052640914917,0.0,0.006371202412992716
231.0,295.0,3.2782,-0.2997,8.7529,-0.0348,0.0247,-0.1208,-1.629148622552389,0.0,2.3758654594421387,-1.7044129371643066,-0.0,2.1608471870422363,4.517406626338623,-0.0,0.26775994896888733,-1.4517300764666956,0.0,-0.02217378094792366,0.5834478139877319,0.0,0.0016702039865776896,1.1520286798477173,0.0,-0.030636325478553772
231.0,295.0,3.2782,-0.2997,8.7529,-0.0348,0.0247,-0.1208,-1.6291119060912074,0.0,2.3855228424072266,-1.704372763633728,-0.0,2.111257791519165,4.517346544856689,-0.0,0.2790740430355072,-1.4516776243792933,0.0,-0.027599051594734192,0.5833835005760193,0.0,-0.01844312623143196,1.1520768404006958,0.0,0.006989597342908382
231.0,295.0,3.2782,-0.2997,8.7529,-0.0348,0.0247,-0.1208,-1.6291524372496546,0.0,2.4260785579681396,-1.704372763633728,-0.0,2.159043312072754,4.517382784480713,-0.0,0.26891088485717773,-1.4516776243792933,0.0,-0.011589477770030499,0.5834437012672424,0.0,-0.0065492601133883,1.1520726680755615,0.0,-0.012597329914569855
231.0,295.0,3.2782,-0.2997,8.7529,-0.0348,0.0247,-0.1208,-1.6290604076781214,0.0,2.4123194217681885,-1.7044371366500854,-0.0,2.1240854263305664,4.517338915462158,-0.0,0.27681589126586914,-1.4517257849322718,0.0,-0.015765126794576645,0.5834355354309082,0.0,-0.0063793715089559555,1.1520366668701172,0.0,-0.005789026618003845
231.0,295.0,3.2782,-0.2997,8.7529,-0.0348,0.0247,-0.1208,-1.6290604076781214,0.0,2.3954410552978516,-1.7044289112091064,-0.0,2.129056692123413,4.517370863551758,-0.0,0.2749069929122925,-1.4517181555377405,0.0,-0.01993456296622753,0.5834478139877319,0.0,-0.003178289858624339,1.1520729064941406,0.0,0.027884965762495995
231.0,295.0,3.2782,-0.2997,8.7529,-0.0348,0.0247,-0.1208,-1.6291119060912074,0.0,2.4497861862182617,-1.7044248580932617,-0.0,2.1059255599975586,4.5173703867146,-0.0,0.2747706174850464,-1.4517219702350062,0.0,-0.0027715449687093496,0.5834678411483765,0.0,0.003761191153898835,1.152068853378296,0.0,-0.009374367073178291
231.0,295.0,3.2782,-0.2997,8.7529,-0.0348,0.0247,-0.1208,-1.6290880642332972,0.0,2.4162189960479736,-1.7044166326522827,-0.0,2.1339669227600098,4.517362757320068,-0.0,0.2696361243724823,-1.4516857306109827,0.0,-0.01533560175448656,0.5833672285079956,0.0,0.005467842798680067,1.1520248651504517,0.0,-0.014690368436276913
231.0,295.0,3.2782,-0.2997,8.7529,-0.0348,0.0247,-0.1208,-1.6291166744627894,0.0,2.3738083839416504,-1.70444917678833,-0.0,2.1498541831970215,4.517387076015137,-0.0,0.2855922281742096,-1.451710049306051,0.0,-0.018682703375816345,0.5834195613861084,0.0,-0.008148384280502796,1.1520326137542725,0.0,0.0012967389775440097
231.0,295.0,3.2782,-0.2997,8.7529,-0.0348,0.0247,-0.1208,-1.629064222375387,0.0,2.402744770050049,-1.704408884048462,-0.0,2.1502907276153564,4.517366572017334,-0.0,0.2785387635231018,-1.451710049306051,0.0,-0.013894264586269855,0.5834641456604004,0.0,0.0067289588041603565,1.152068853378296,0.0,0.008686583489179611
228.0,311.0,3.3272,-0.2824,8.6154,-0.0258,0.0252,-0.1222,-1.6290680370726527,0.0,2.3936967849731445,-1.7044248580932617,-0.0,2.1688191890716553,4.51731459676709,-0.0,0.2832573652267456,-1.4516976515399378,0.0,-0.010865837335586548,0.5834637880325317,0.0,-0.0130172623321414,1.152068853378296,0.0,-0.021268177777528763
228.0,311.0,3.3272,-0.2824,8.6154,-0.0258,0.0252,-0.1222,-1.6291080913939417,0.0,2.3902463912963867,-1.704408884048462,-0.0,2.1211600303649902,4.517374678249023,-0.0,0.27084091305732727,-1.4517338911639612,0.0,-0.024234581738710403,0.5833916664123535,0.0,-0.0015748072182759643,1.1520848274230957,0.0,0.030216187238693237
228.0,311.0,3.3272,-0.2824,8.6154,-0.0258,0.0252,-0.1222,-1.629064222375387,0.0,2.3852038383483887,-1.704440951347351,-0.0,2.1451382637023926,4.51739947378125,-0.0,0.2632346749305725,-1.4516938368426722,0.0,-0.022027015686035156,0.5834076404571533,0.0,-0.0106419138610363,1.1520406007766724,0.0,0.03934663534164429
228.0,311.0,3.3272,-0.2824,8.6154,-0.0258,0.0252,-0.1222,-1.6290842495360316,0.0,2.36924409866333,-1.7044289112091064,-0.0,2.1533098220825195,4.517390890712402,-0.0,0.2662714719772339,-1.4516900221454065,0.0,-0.017898045480251312,0.5834195613861084,0.0,-0.006594023667275906,1.152072787284851,0.0,0.015708614140748978
228.0,311.0,3.3272,-0.2824,8.6154,-0.0258,0.0252,-0.1222,-1.6291119060912074,0.0,2.437431812286377,-1.7043602466583252,-0.0,2.1366465091705322,4.517362757320068,-0.0,0.2739853262901306,-1.451714340840475,0.0,-0.02347395196557045,0.5833835005760193,0.0,-0.0038432825822383165,1.1520729064941406,0.0,0.0005360627546906471
228.0,311.0,3.3272,-0.2824,8.6154,-0.0258,0.0252,-0.1222,-1.6291200123228968,0.0,2.371490001678467,-1.7044124603271484,-0.0,2.150642156600952,4.517362757320068,-0.0,0.2778502404689789,-1.4516575972186487,0.0,-0.010343844071030617,0.583411693572998,0.0,0.003948908299207687,1.1520049571990967,0.0,-0.0058830552734434605
228.0,311.0,3.3272,-0.2824,8.6154,-0.0258,0.0252,-0.1222,-1.6291004619994105,0.0,2.4200797080993652,-1.7044408321380615,-0.0,2.1432175636291504,4.51739947378125,-0.0,0.2645644545555115,-1.451710049306051,0.0,-0.028407052159309387,0.5834518671035767,0.0,-0.005481208208948374,1.1520806550979614,0.0,0.033276185393333435
228.0,311.0,3.3272,-0.2824,8.6154,-0.0258,0.0252,-0.1222,-1.6290918789305628,0.0,2.37014102935791,-1.7044646739959717,-0.0,2.1265313625335693,4.517367048854492,-0.0,0.27803927659988403,-1.4516857306109827,0.0,-0.014311963692307472,0.5834837555885315,0.0,-0.008546113036572933,1.152112603187561,0.0,0.004968427121639252
228.0,311.0,3.3272,-0.2824,8.6154,-0.0258,0.0252,-0.1222,-1.6291004619994105,0.0,2.4104719161987305,-1.7043969631195068,-0.0,2.136791944503784,4.5173584657856445,-0.0,0.2666909992694855,-1.4516733328448694,0.0,-0.025197036564350128,0.5834233164787292,0.0,5.036080256104469e-05,1.152052640914917,0.0,-0.005931186024099588
228.0,311.0,3.3272,-0.2824,8.6154,-0.0258,0.0252,-0.1222,-1.6291004619994105,0.0,2.3784897327423096,-1.7044450044631958,-0.0,2.1607322692871094,4.517366572017334,-0.0,0.2797836661338806,-1.4516733328448694,0.0,-0.004175444133579731,0.5833876132965088,0.0,0.005214385222643614,1.1521047353744507,0.0,-0.053134188055992126
228.0,311.0,3.3272,-0.2824,8.6154,-0.0258,0.0252,-0.1222,-1.6291004619994105,0.0,2.420353651046753,-1.7043845653533936,-0.0,2.133589506149292,4.517334623927734,-0.0,0.27500879764556885,-1.451681915913717,0.0,-0.015080932527780533,0.5834236741065979,0.0,-0.004572858102619648,1.1520849466323853,0.0,-0.00530765438452363
228.0,311.0,3.3272,-0.2824,8.6154,-0.0258,0.0252,-0.1222,-1.629092355767721,0.0,2.446303129196167,-1.704473853111267,-0.0,2.1636087894439697,4.517366572017334,-0.0,0.27578097581863403,-1.45166522661318,0.0,-0.005301403347402811,0.5834072828292847,0.0,-0.004607240669429302,1.1520568132400513,0.0,-0.028247136622667313
228.0,311.0,3.3272,-0.2824,8.6154,-0.0258,0.0252,-0.1222,-1.6290961704649867,0.0,2.3715736865997314,-1.7043684720993042,-0.0,2.1825568675994873,4.517358942622803,-0.0,0.2712570130825043,-1.4516900221454065,0.0,-0.024334721267223358,0.5833876132965088,0.0,-0.013692468404769897,1.152072787284851,0.0,0.018278591334819794
228.0,311.0,3.3272,-0.2824,8.6154,-0.0258,0.0252,-0.1222,-1.6290961704649867,0.0,2.3719913959503174,-1.7043684720993042,-0.0,2.1322648525238037,4.517347021693848,-0.0,0.2785224914550781,-1.4517300764666956,0.0,-0.018360450863838196,0.5833672285079956,0.0,-0.003124440321698785,1.1520167589187622,0.0,-0.023784857243299484
228.0,311.0,3.3272,-0.2824,8.6154,-0.0258,0.0252,-0.1222,-1.6291080913939417,0.0,2.390368938446045,-1.704392910003662,-0.0,2.147307872772217,4.517370863551758,-0.0,0.26735541224479675,-1.4517019430743616,0.0,-0.0233615655452013,0.5834076404571533,0.0,-6.889691576361656e-05,1.1520445346832275,0.0,0.0005822340026497841
228.0,311.0,3.3272,-0.2824,8.6154,-0.0258,0.0252,-0.1222,-1.6291119060912074,0.0,2.4087812900543213,-1.7043890953063965,-0.0,2.127354383468628,4.517347021693848,-0.0,0.27631235122680664,-1.45172626176943,0.0,-0.01438880991190672,0.5833994746208191,0.0,-0.003475411795079708,1.1520928144454956,0.0,-0.021499663591384888
234.0,299.0,3.3523,-0.2297,8.3587,-0.0286,0.0221,-0.1252,-1.6291119060912074,0.0,2.3813486099243164,-1.7044408321380615,-0.0,2.1115288734436035,4.5174147325703125,-0.0,0.2676214575767517,-1.4516494909869593,0.0,-0.01361864060163498,0.5833916664123535,0.0,0.0021938709542155266,1.1520806550979614,0.0,-0.020315898582339287
234.0,299.0,3.3523,-0.2297,8.3587,-0.0286,0.0221,-0.1252,-1.6290761433043421,0.0,2.4010472297668457,-1.704457402229309,-0.0,2.1495375633239746,4.517395182246826,-0.0,0.27853694558143616,-1.4517019430743616,0.0,-0.015528889372944832,0.5834437012672424,0.0,-0.005879121366888285,1.152032732963562,0.0,-0.009897636249661446
234.0,299.0,3.3523,-0.2297,8.3587,-0.0286,0.0221,-0.1252,-1.6290723286070765,0.0,2.3722915649414062,-1.704392910003662,-0.0,2.127948522567749,4.517347021693848,-0.0,0.274250328540802,-1.4517062346087855,0.0,-0.013141769915819168,0.5834518074989319,0.0,-0.010637831874191761,1.152044653892517,0.0,-0.006828193087130785
234.0,299.0,3.3523,-0.2297,8.3587,-0.0286,0.0221,-0.1252,-1.6291161976256312,0.0,2.343193531036377,-1.7044532299041748,-0.0,2.1850438117980957,4.517390890712402,-0.0,0.28094398975372314,-1.4516857306109827,0.0,-0.01918211206793785,0.5834195613861084,0.0,-0.005553998984396458,1.1520406007766724,0.0,0.003124765120446682
234.0,299.0,3.3523,-0.2297,8.3587,-0.0286,0.0221,-0.1252,-1.6290880642332972,0.0,2.4364914894104004,-1.7043766975402832,-0.0,2.1306655406951904,4.517387076015137,-0.0,0.272508829832077,-1.4516857306109827,0.0,-0.01556670106947422,0.5833835601806641,0.0,-0.004139261785894632,1.1520848274230957,0.0,0.03229103609919548
234.0,299.0,3.3523,-0.2297,8.3587,-0.0286,0.0221,-0.1252,-1.6290480099120082,0.0,2.3900790214538574,-1.7044490575790405,-0.0,2.197465419769287,4.517366572017334,-0.0,0.28334158658981323,-1.4516900221454065,0.0,-0.018863337114453316,0.5834273099899292,0.0,-0.010858459398150444,1.152068853378296,0.0,0.004075478762388229
234.0,299.0,3.3523,-0.2297,8.3587,-0.0286,0.0221,-0.1252,-1.6290880642332972,0.0,2.427408218383789,-1.7045049667358398,-0.0,2.185253620147705,4.517350359553955,-0.0,0.2719816565513611,-1.4516938368426722,0.0,-0.014018185436725616,0.5834358334541321,0.0,-0.0010408390080556273,1.1520887613296509,0.0,0.01784765161573887
234.0,299.0,3.3523,-0.2297,8.3587,-0.0286,0.0221,-0.1252,-1.6291400394835414,0.0,2.3564157485961914,-1.7043768167495728,-0.0,2.1592984199523926,4.517342730159424,-0.0,0.2814338803291321,-1.4517138640033167,0.0,-0.017163239419460297,0.5834518074989319,0.0,-0.014469854533672333,1.152100682258606,0.0,0.035263728350400925
234.0,299.0,3.3523,-0.2297,8.3587,-0.0286,0.0221,-0.1252,-1.629092355767721,0.0,2.451460838317871,-1.7044408321380615,-0.0,2.145721673965454,4.517378969783447,-0.0,0.2675984799861908,-1.4516857306109827,0.0,-0.006702126003801823,0.5834236145019531,0.0,0.007889984175562859,1.1520648002624512,0.0,0.038145363330841064
234.0,299.0,3.3523,-0.2297,8.3587,-0.0286,0.0221,-0.1252,-1.629143854180807,0.0,2.418595552444458,-1.7044646739959717,-0.0,2.1531572341918945,4.5173584657856445,-0.0,0.27305150032043457,-1.4517181555377405,0.0,-0.012437792494893074,0.5834195613861084,0.0,-0.009085369296371937,1.1520648002624512,0.0,-0.05593804642558098
234.0,299.0,3.3523,-0.2297,8.3587,-0.0286,0.0221,-0.1252,-1.6291161976256312,0.0,2.411756992340088,-1.7044169902801514,-0.0,2.10748028755188,4.517354651088379,-0.0,0.2733255624771118,-1.4516976515399378,0.0,-0.018861055374145508,0.5834677815437317,0.0,-0.014224549755454063,1.1520127058029175,0.0,-0.015703493729233742
234.0,299.0,3.3523,-0.2297,8.3587,-0.0286,0.0221,-0.1252,-1.6291042766966761,0.0,2.3927998542785645,-1.7044248580932617,-0.0,2.179042100906372,4.517390890712402,-0.0,0.2676297724246979,-1.4517062346087855,0.0,-0.01251435000449419,0.5834113955497742,0.0,-0.0015652657020837069,1.1521085500717163,0.0,0.04304148629307747
234.0,299.0,3.3523,-0.2297,8.3587,-0.0286,0.0221,-0.1252,-1.6290604076781214,0.0,2.463611125946045,-1.7044450044631958,-0.0,2.149735689163208,4.517378969783447,-0.0,0.2902272343635559,-1.4516857306109827,0.0,-0.01661830022931099,0.5834035873413086,0.0,0.002363484352827072,1.152052640914917,0.0,0.03662184998393059
234.0,299.0,3.3523,-0.2297,8.3587,-0.0286,0.0221,-0.1252,-1.629092355767721,0.0,2.363825798034668,-1.704457402229309,-0.0,2.1238110065460205,4.517382784480713,-0.0,0.27439767122268677,-1.4516900221454065,0.0,-0.01770353876054287,0.5834155082702637,0.0,0.0034058871679008007,1.152100682258606,0.0,-0.030320938676595688
234.0,299.0,3.3523,-0.2297,8.3587,-0.0286,0.0221,-0.1252,-1.629136701623434,0.0,2.4004719257354736,-1.7043768167495728,-0.0,2.1593432426452637,4.517387076015137,-0.0,0.2756344974040985,-1.4516494909869593,0.0,-0.014435416087508202,0.5834276676177979,0.0,-0.02058638259768486,1.152052640914917,0.0,-0.019719865173101425
234.0,299.0,3.3523,-0.2297,8.3587,-0.0286,0.0221,-0.1252,-1.6290961704649867,0.0,2.381145715713501,-1.704457402229309,-0.0,2.1426234245300293,4.517395182246826,-0.0,0.27072179317474365,-1.4516976515399378,0.0,-0.010445283725857735,0.5834276676177979,0.0,-0.00927524920552969,1.1520568132400513,0.0,0.0018909387290477753
239.0,292.0,3.3165,-0.3057,8.8193,-0.0452,0.0173,-0.121,-1.629092355767721,0.0,2.414806365966797,-1.704408884048462,-0.0,2.187352180480957,4.5173584657856445,-0.0,0.28093382716178894,-1.451681915913717,0.0,-0.019051773473620415,0.5833753943443298,0.0,0.003308425424620509,1.1520848274230957,0.0,0.006331008393317461
239.0,292.0,3.3165,-0.3057,8.8193,-0.0452,0.0173,-0.121,-1.629092355767721,0.0,2.4061508178710938,-1.704457402229309,-0.0,2.1709654331207275,4.517338915462158,-0.0,0.2851225435733795,-1.4516895453082483,0.0,-0.01805201917886734,0.5834195613861084,0.0,-0.012336009182035923,1.1520806550979614,0.0,-0.015629306435585022
239.0,292.0,3.3165,-0.3057,8.8193,-0.0452,0.0173,-0.121,-1.6290761433043421,0.0,2.425980567932129,-1.7043968439102173,-0.0,2.150217056274414,4.517374678249023,-0.0,0.27043068408966064,-1.4516938368426722,0.0,-0.02502177655696869,0.583411693572998,0.0,-0.004281708970665932,1.1520406007766724,0.0,-0.0036618243902921677
239.0,292.0,3.3165,-0.3057,8.8193,-0.0452,0.0173,-0.121,-1.6290999851622523,0.0,2.4266207218170166,-1.7044371366500854,-0.0,2.1401748657226562,4.517355127925537,-0.0,0.2782301902770996,-1.4517219702350062,0.0,-0.018977953121066093,0.5834236145019531,0.0,-0.002821576315909624,1.152040719985962,0.0,0.029443224892020226
239.0,292.0,3.3165,-0.3057,8.8193,-0.0452,0.0173,-0.121,-1.6291080913939417,0.0,2.416593313217163,-1.7044367790222168,-0.0,2.155872344970703,4.517367048854492,-0.0,0.27189692854881287,-1.4516938368426722,0.0,-0.014295432716608047,0.5833672285079956,0.0,-0.0020200605504214764,1.152080774307251,0.0,0.021435387432575226
239.0,292.0,3.3165,-0.3057,8.8193,-0.0452,0.0173,-0.121,-1.6291243038573207,0.0,2.4003825187683105,-1.7044490575790405,-0.0,2.1738383769989014,4.517354651088379,-0.0,0.269662082195282,-1.4517019430743616,0.0,-0.020992126315832138,0.5834518671035767,0.0,-0.0030495477840304375,1.1520767211914062,0.0,0.010270527563989162
239.0,292.0,3.3165,-0.3057,8.8193,-0.0452,0.0173,-0.121,-1.6290842495360316,0.0,2.424466609954834,-1.7043684720993042,-0.0,2.1408278942108154,4.517347021693848,-0.0,0.2701154351234436,-1.4517019430743616,0.0,-0.026683945208787918,0.5834236145019531,0.0,-0.010721869766712189,1.1520848274230957,0.0,0.02656177431344986
239.0,292.0,3.3165,-0.3057,8.8193,-0.0452,0.0173,-0.121,-1.6291247806944789,0.0,2.419384479522705,-1.704457402229309,-0.0,2.1302666664123535,4.517342730159424,-0.0,0.2857820391654968,-1.4517138640033167,0.0,-0.027246002107858658,0.5834355354309082,0.0,-0.005308561958372593,1.1520648002624512,0.0,0.01194375567138195
239.0,292.0,3.3165,-0.3057,8.8193,-0.0452,0.0173,-0.121,-1.6290999851622523,0.0,2.3779640197753906,-1.7044330835342407,-0.0,2.1513264179229736,4.517367048854492,-0.0,0.2753719687461853,-1.4517019430743616,0.0,-0.0126452362164855,0.5834195017814636,0.0,-0.0027516409754753113,1.1520445346832275,0.0,-0.0006015710532665253
239.0,292.0,3.3165,-0.3057,8.8193,-0.0452,0.0173,-0.121,-1.629064222375387,0.0,2.4124441146850586,-1.7044326066970825,-0.0,2.166435718536377,4.517326517696045,-0.0,0.2803088426589966,-1.4517181555377405,0.0,-0.019703606143593788,0.5834560394287109,0.0,0.0047053005546331406,1.1520445346832275,0.0,0.0160236656665802
239.0,292.0,3.3165,-0.3057,8.8193,-0.0452,0.0173,-0.121,-1.6290561161436976,0.0,2.3812835216522217,-1.7043768167495728,-0.0,2.12361216545105,4.517375155086182,-0.0,0.2898138761520386,-1.4516575972186487,0.0,-0.016041604802012444,0.5833752751350403,0.0,-0.0008973624790087342,1.152060627937317,0.0,-0.001412498764693737
239.0,292.0,3.3165,-0.3057,8.8193,-0.0452,0.0173,-0.121,-1.629136701623434,0.0,2.364811420440674,-1.7044330835342407,-0.0,2.122424840927124,4.5173351007648925,-0.0,0.2668098509311676,-1.4516900221454065,0.0,-0.025661155581474304,0.5833753943443298,0.0,-0.01477397046983242,1.152040719985962,0.0,0.0091326292604208
239.0,292.0,3.3165,-0.3057,8.8193,-0.0452,0.0173,-0.121,-1.629136701623434,0.0,2.4527549743652344,-1.7044248580932617,-0.0,2.157123327255249,4.517326517696045,-0.0,0.2766368091106415,-1.4516575972186487,0.0,-0.02481606975197792,0.5834195613861084,0.0,4.3559062760323286e-05,1.152060627937317,0.0,-0.012286175973713398
239.0,292.0,3.3165,-0.3057,8.8193,-0.0452,0.0173,-0.121,-1.6291080913939417,0.0,2.4011433124542236,-1.704408884048462,-0.0,2.1624979972839355,4.517355127925537,-0.0,0.2724904417991638,-1.451710049306051,0.0,-0.02424403466284275,0.5834559202194214,0.0,-0.004427219741046429,1.1520768404006958,0.0,-0.006739328149706125
239.0,292.0,3.3165,-0.3057,8.8193,-0.0452,0.0173,-0.121,-1.6291080913939417,0.0,2.412973403930664,-1.704429030418396,-0.0,2.1453030109405518,4.517390890712402,-0.0,0.27987733483314514,-1.451738182698385,0.0,-0.015004724264144897,0.5833752155303955,0.0,-0.002686034422367811,1.152100682258606,0.0,-0.00031185615807771683
239.0,292.0,3.3165,-0.3057,8.8193,-0.0452,0.0173,-0.121,-1.6291080913939417,0.0,2.320643901824951,-1.7044615745544434,-0.0,2.134253740310669,4.517366572017334,-0.0,0.2657912075519562,-1.4517582098590296,0.0,-0.008211396634578705,0.5834477543830872,0.0,0.003636364359408617,1.152052640914917,0.0,0.03124062903225422
227.0,290.0,3.3141,-0.3027,8.7392,-0.0304,0.0278,-0.122,-1.6290961704649867,0.0,2.4185233116149902,-1.7044129371643066,-0.0,2.133330821990967,4.51736228048291,-0.0,0.28777000308036804,-1.451653305684225,0.0,-0.025746209546923637,0.5833835601806641,0.0,-0.0003146532690152526,1.152100682258606,0.0,0.023477189242839813
227.0,290.0,3.3141,-0.3027,8.7392,-0.0304,0.0278,-0.122,-1.629068513909811,0.0,2.4281187057495117,-1.7044248580932617,-0.0,2.1497507095336914,4.517382784480713,-0.0,0.2705022692680359,-1.4516614119159144,0.0,-0.01438633631914854,0.5834956765174866,0.0,0.004085157532244921,1.1520326137542725,0.0,0.01672227308154106
227.0,290.0,3.3141,-0.3027,8.7392,-0.0304,0.0278,-0.122,-1.6291004619994105,0.0,2.434222459793091,-1.704468846321106,-0.0,2.181553602218628,4.517347021693848,-0.0,0.2865370512008667,-1.451681915913717,0.0,-0.016624996438622475,0.583411693572998,0.0,0.006354764569550753,1.1520445346832275,0.0,-0.05711115896701813
227.0,290.0,3.3141,-0.3027,8.7392,-0.0304,0.0278,-0.122,-1.6290761433043421,0.0,2.403205394744873,-1.7043685913085938,-0.0,2.1445629596710205,4.517342730159424,-0.0,0.2759018838405609,-1.4516976515399378,0.0,-0.022450581192970276,0.5834478139877319,0.0,-0.007737250998616219,1.1520445346832275,0.0,0.021085316315293312
227.0,290.0,3.3141,-0.3027,8.7392,-0.0304,0.0278,-0.122,-1.6291080913939417,0.0,2.458393096923828,-1.7043849229812622,-0.0,2.111741542816162,4.517354651088379,-0.0,0.28117892146110535,-1.4516776243792933,0.0,-0.022159991785883904,0.583387553691864,0.0,-0.00033531791996210814,1.1521124839782715,0.0,-0.0016355221159756184
227.0,290.0,3.3141,-0.3027,8.7392,-0.0304,0.0278,-0.122,-1.6290961704649867,0.0,2.4349727630615234,-1.7044450044631958,-0.0,2.1017045974731445,4.517362757320068,-0.0,0.2629204988479614,-1.451681915913717,0.0,-0.009403210133314133,0.5833835005760193,0.0,-0.011332137510180473,1.1520568132400513,0.0,-0.02122769132256508
227.0,290.0,3.3141,-0.3027,8.7392,-0.0304,0.0278,-0.122,-1.6291643581786097,0.0,2.3989381790161133,-1.704420804977417,-0.0,2.198812961578369,4.517342730159424,-0.0,0.2639239430427551,-1.4517062346087855,0.0,-0.01580936275422573,0.583411693572998,0.0,-0.0020042643882334232,1.1520768404006958,0.0,0.018948616459965706
227.0,290.0,3.3141,-0.3027,8.7392,-0.0304,0.0278,-0.122,-1.6290999851622523,0.0,2.389071464538574,-1.7044248580932617,-0.0,2.164409637451172,4.517342730159424,-0.0,0.27730560302734375,-1.4516733328448694,0.0,-0.012267602607607841,0.5834277272224426,0.0,-0.010509327054023743,1.1520729064941406,0.0,0.03129684925079346
227.0,290.0,3.3141,-0.3027,8.7392,-0.0304,0.0278,-0.122,-1.6290880642332972,0.0,2.404616594314575,-1.7044330835342407,-0.0,2.17887020111084,4.5173913675495605,-0.0,0.27987220883369446,-1.4516938368426722,0.0,-0.01643616333603859,0.583471953868866,0.0,0.001486673834733665,1.15212881565094,0.0,-0.027960464358329773
227.0,290.0,3.3141,-0.3027,8.7392,-0.0304,0.0278,-0.122,-1.6290842495360316,0.0,2.409404993057251,-1.704392910003662,-0.0,2.1404929161071777,4.517342730159424,-0.0,0.276515394449234,-1.4517181555377405,0.0,-0.002058603335171938,0.5833994746208191,0.0,-0.01331445574760437,1.1520366668701172,0.0,0.02083946205675602
227.0,290.0,3.3141,-0.3027,8.7392,-0.0304,0.0278,-0.122,-1.6290842495360316,0.0,2.3964459896087646,-1.7044367790222168,-0.0,2.1795711517333984,4.517367048854492,-0.0,0.27439790964126587,-1.4517062346087855,0.0,-0.018485847860574722,0.5833957195281982,0.0,-0.001483080442994833,1.1520326137542725,0.0,0.004212942905724049
227.0,290.0,3.3141,-0.3027,8.7392,-0.0304,0.0278,-0.122,-1.6290561161436976,0.0,2.412956953048706,-1.7044614553451538,-0.0,2.1575844287872314,4.517354651088379,-0.0,0.27973735332489014,-1.451710049306051,0.0,-0.014118381775915623,0.5833998918533325,0.0,-0.0023489510640501976,1.152052640914917,0.0,-0.005170568823814392
227.0,290.0,3.3141,-0.3027,8.7392,-0.0304,0.0278,-0.122,-1.6290799580016078,0.0,2.3656938076019287,-1.704468846321106,-0.0,2.1475608348846436,4.517338438625,-0.0,0.28533440828323364,-1.4517095724688929,0.0,-0.024588491767644882,0.5834273099899292,0.0,-0.004649093374609947,1.1520687341690063,0.0,0.03626500070095062
227.0,290.0,3.3141,-0.3027,8.7392,-0.0304,0.0278,-0.122,-1.629092355767721,0.0,2.379619598388672,-1.7044248580932617,-0.0,2.1447622776031494,4.517330809230469,-0.0,0.2780224084854126,-1.45172626176943,0.0,-0.027335774153470993,0.5834518671035767,0.0,-0.009649151004850864,1.152040719985962,0.0,0.043316978961229324
227.0,290.0,3.3141,-0.3027,8.7392,-0.0304,0.0278,-0.122,-1.6291080913939417,0.0,2.4333443641662598,-1.7044129371643066,-0.0,2.168224811553955,4.517310782069824,-0.0,0.26475799083709717,-1.4516695181476038,0.0,-0.013390490785241127,0.5833552479743958,0.0,-0.0016152916941791773,1.1520648002624512,0.0,-0.027129050344228745
227.0,290.0,3.3141,-0.3027,8.7392,-0.0304,0.0278,-0.122,-1.6290880642332972,0.0,2.4365949630737305,-1.7044169902801514,-0.0,2.1797730922698975,4.517367048854492,-0.0,0.27844035625457764,-1.4517019430743616,0.0,-0.016596700996160507,0.5834076404571533,0.0,-0.005508890841156244,1.1520286798477173,0.0,-0.03608144819736481
233.0,293.0,3.2943,-0.2913,8.79,-0.0269,0.0232,-0.1205,-1.629092355767721,0.0,2.3555071353912354,-1.7044408321380615,-0.0,2.1544487476348877,4.517298384303711,-0.0,0.2746351659297943,-1.4517062346087855,0.0,-0.02467527613043785,0.5834236145019531,0.0,0.00368894194252789,1.1520485877990723,0.0,-0.0006710630841553211
233.0,293.0,3.2943,-0.2913,8.79,-0.0269,0.0232,-0.1205,-1.6290799580016078,0.0,2.447390556335449,-1.7044169902801514,-0.0,2.167794942855835,4.517370863551758,-0.0,0.2778472900390625,-1.451681915913717,0.0,-0.017051711678504944,0.5833994150161743,0.0,-0.002114404458552599,1.1520648002624512,0.0,0.008426256477832794
233.0,293.0,3.2943,-0.2913,8.79,-0.0269,0.0232,-0.1205,-1.6290999851622523,0.0,2.4429221153259277,-1.7043927907943726,-0.0,2.136868476867676,4.517350836391113,-0.0,0.27989017963409424,-1.4516976515399378,0.0,-0.020305389538407326,0.5834154486656189,0.0,0.0066935098730027676,1.152052640914917,0.0,0.012028682976961136
233.0,293.0,3.2943,-0.2913,8.79,-0.0269,0.0232,-0.1205,-1.6290680370726527,0.0,2.4134957790374756,-1.7044248580932617,-0.0,2.178011655807495,4.517378969783447,-0.0,0.2787059545516968,-1.4516900221454065,0.0,-0.01788284257054329,0.5834035277366638,0.0,0.011394703760743141,1.1520568132400513,0.0,-0.007514534052461386
233.0,293.0,3.2943,-0.2913,8.79,-0.0269,0.0232,-0.1205,-1.6291161976256312,0.0,2.4407806396484375,-1.7044446468353271,-0.0,2.1885225772857666,4.517362757320068,-0.0,0.27160316705703735,-1.451710049306051,0.0,-0.023071356117725372,0.5834072828292847,0.0,0.006900963839143515,1.1520886421203613,0.0,0.021552983671426773
233.0,293.0,3.2943,-0.2913,8.79,-0.0269,0.0232,-0.1205,-1.6291119060912074,0.0,2.3865432739257812,-1.7044326066970825,-0.0,2.1552276611328125,4.517354651088379,-0.0,0.281692773103714,-1.4516776243792933,0.0,-0.010475100949406624,0.5834596753120422,0.0,-0.002940981648862362,1.1520767211914062,0.0,0.004711704794317484
233.0,293.0,3.2943,-0.2913,8.79,-0.0269,0.0232,-0.1205,-1.629103799859518,0.0,2.384843349456787,-1.7044090032577515,-0.0,2.141282320022583,4.517362757320068,-0.0,0.27513808012008667,-1.4517019430743616,0.0,-0.028100505471229553,0.5834318399429321,0.0,0.00530439056456089,1.1520729064941406,0.0,0.00778276938945055
233.0,293.0,3.2943,-0.2913,8.79,-0.0269,0.0232,-0.1205,-1.629120489160055,0.0,2.3965330123901367,-1.7043732404708862,-0.0,2.1148123741149902,4.517382784480713,-0.0,0.2718234360218048,-1.4517419973956507,0.0,-0.0051574623212218285,0.5834560990333557,0.0,0.0030292614828795195,1.1520366668701172,0.0,-0.025086022913455963
233.0,293.0,3.2943,-0.2913,8.79,-0.0269,0.0232,-0.1205,-1.629092355767721,0.0,2.413456916809082,-1.7044050693511963,-0.0,2.1767444610595703,4.517378969783447,-0.0,0.2757699191570282,-1.451714340840475,0.0,-0.013530977070331573,0.5834113359451294,0.0,0.0015343166887760162,1.1520607471466064,0.0,-0.008330632001161575
233.0,293.0,3.2943,-0.2913,8.79,-0.0269,0.0232,-0.1205,-1.6290961704649867,0.0,2.4018607139587402,-1.7044129371643066,-0.0,2.157942771911621,4.517375155086182,-0.0,0.27591967582702637,-1.4516733328448694,0.0,-0.01603938639163971,0.5834395885467529,0.0,0.0009315244387835264,1.152052640914917,0.0,-0.014261370524764061
233.0,293.0,3.2943,-0.2913,8.79,-0.0269,0.0232,-0.1205,-1.6291080913939417,0.0,2.43275785446167,-1.7044446468353271,-0.0,2.1219024658203125,4.517382784480713,-0.0,0.2758185565471649,-1.4516738096820276,0.0,-0.02315593883395195,0.5833712220191956,0.0,-0.012637692503631115,1.1520445346832275,0.0,0.00877315178513527
233.0,293.0,3.2943,-0.2913,8.79,-0.0269,0.0232,-0.1205,-1.6291119060912074,0.0,2.4161646366119385,-1.7044248580932617,-0.0,2.198465347290039,4.517354651088379,-0.0,0.26848340034484863,-1.4517138640033167,0.0,-0.02463527023792267,0.583407998085022,0.0,-0.00960441306233406,1.1520848274230957,0.0,0.011622362770140171
233.0,293.0,3.2943,-0.2913,8.79,-0.0269,0.0232,-0.1205,-1.6291004619994105,0.0,2.419022560119629,-1.7044285535812378,-0.0,2.179377317428589,4.517374678249023,-0.0,0.2845499813556671,-1.451681915913717,0.0,-0.02723231352865696,0.5834273099899292,0.0,-0.0009132614359259605,1.1520127058029175,0.0,-0.047991540282964706
233.0,293.0,3.2943,-0.2913,8.79,-0.0269,0.0232,-0.1205,-1.6290999851622523,0.0,2.3857924938201904,-1.7044050693511963,-0.0,2.164559841156006,4.517346544856689,-0.0,0.27397072315216064,-1.451710049306051,0.0,-0.007230680901557207,0.583435595035553,0.0,-0.010167915374040604,1.1520966291427612,0.0,0.02988303080201149
233.0,293.0,3.2943,-0.2913,8.79,-0.0269,0.0232,-0.1205,-1.6290999851622523,0.0,2.375641107559204,-1.7043520212173462,-0.0,2.1497013568878174,4.517338438625,-0.0,0.2755577266216278,-1.4517338911639612,0.0,-0.013405697420239449,0.5834395885467529,0.0,-0.004147760104387999,1.1520726680755615,0.0,-0.01739949733018875
233.0,293.0,3.2943,-0.2913,8.79,-0.0269,0.0232,-0.1205,-1.6290999851622523,0.0,2.4267966747283936,-1.7043805122375488,-0.0,2.1293447017669678,4.517374678249023,-0.0,0.2648535668849945,-1.451653305684225,0.0,-0.02856176719069481,0.5834236145019531,0.0,-0.0038571571931242943,1.1520886421203613,0.0,-0.029305528849363327
242.0,300.0,3.262,-0.3494,8.8869,-0.035,0.0287,-0.1185,-1.6291119060912074,0.0,2.453828811645508,-1.7044209241867065,-0.0,2.17346453666687,4.517374678249023,-0.0,0.2793771028518677,-1.451698128377096,0.0,-0.013419530354440212,0.5834195613861084,0.0,-0.01557290181517601,1.1521127223968506,0.0,0.006494730710983276
242.0,300.0,3.262,-0.3494,8.8869,-0.035,0.0287,-0.1185,-1.6291400394835414,0.0,2.4049224853515625,-1.7044367790222168,-0.0,2.170156478881836,4.517387076015137,-0.0,0.27027982473373413,-1.4516900221454065,0.0,-0.017648441717028618,0.5834155082702637,0.0,-0.002050386741757393,1.152068853378296,0.0,0.026528937742114067
242.0,300.0,3.262,-0.3494,8.8869,-0.035,0.0287,-0.1185,-1.629052301446432,0.0,2.3993563652038574,-1.704400897026062,-0.0,2.1153831481933594,4.517326517696045,-0.0,0.2796962857246399,-1.451710049306051,0.0,-0.006389066576957703,0.5834879279136658,0.0,-0.0006480857264250517,1.1520445346832275,0.0,0.06264076381921768
242.0,300.0,3.262,-0.3494,8.8869,-0.035,0.0287,-0.1185,-1.6290799580016078,0.0,2.4223246574401855,-1.704420804977417,-0.0,2.1620993614196777,4.517367048854492,-0.0,0.2667374312877655,-1.4516895453082483,0.0,-0.026813151314854622,0.5834314823150635,0.0,-0.009572608396410942,1.152068853378296,0.0,-0.029448136687278748
242.0,300.0,3.262,-0.3494,8.8869,-0.035,0.0287,-0.1185,-1.6291080913939417,0.0,2.424429416656494,-1.704440712928772,-0.0,2.1480255126953125,4.517350359553955,-0.0,0.28536343574523926,-1.4516776243792933,0.0,-0.018263064324855804,0.5834478139877319,0.0,0.0004099139478057623,1.1520687341690063,0.0,0.007082065101712942
242.0,300.0,3.262,-0.3494,8.8869,-0.035,0.0287,-0.1185,-1.6290761433043421,0.0,2.422515869140625,-1.7044565677642822,-0.0,2.1425673961639404,4.517350836391113,-0.0,0.2762206494808197,-1.4516900221454065,0.0,-0.01445587258785963,0.5833629965782166,0.0,0.003011600114405155,1.1520966291427612,0.0,0.017112312838435173
242.0,300.0,3.262,-0.3494,8.8869,-0.035,0.0287,-0.1185,-1.6291285953917445,0.0,2.434722661972046,-1.7043931484222412,-0.0,2.1200666427612305,4.517338438625,-0.0,0.2672390639781952,-1.4517219702350062,0.0,-0.024667013436555862,0.5834158658981323,0.0,-0.009438253939151764,1.1520566940307617,0.0,-0.04391757771372795
242.0,300.0,3.262,-0.3494,8.8869,-0.035,0.0287,-0.1185,-1.629068513909811,0.0,2.38283109664917,-1.7043970823287964,-0.0,2.144134521484375,4.517343206996582,-0.0,0.27218830585479736,-1.4517019430743616,0.0,-0.016470376402139664,0.5834396481513977,0.0,0.004671385046094656,1.1520806550979614,0.0,0.0017053410410881042
242.0,300.0,3.262,-0.3494,8.8869,-0.035,0.0287,-0.1185,-1.629068513909811,0.0,2.3745527267456055,-1.7043732404708862,-0.0,2.1603047847747803,4.517382784480713,-0.0,0.28051239252090454,-1.4517062346087855,0.0,-0.010134207084774971,0.5834277272224426,0.0,-0.009291032329201698,1.1520167589187622,0.0,-0.011371434666216373
242.0,300.0,3.262,-0.3494,8.8869,-0.035,0.0287,-0.1185,-1.629092355767721,0.0,2.3956518173217773,-1.704432725906372,5.120582291517906e-10,2.1065618991851807,4.517342730159424,-0.0,0.2665046155452728,-1.451698128377096,0.0,-0.017734326422214508,0.5834437012672424,0.0,-0.005023925565183163,1.1520326137542725,0.0,0.036959536373615265
242.0,300.0,3.262,-0.3494,8.8869,-0.035,0.0287,-0.1185,-1.62913241008901,0.0,2.395122766494751,-1.7044168710708618,1.2365601062905036e-15,2.1589338779449463,4.517362757320068,-0.0,0.2881569266319275,-1.4516938368426722,0.0,-0.025427022948861122,0.5834518671035767,0.0,-0.007230308838188648,1.1520767211914062,0.0,0.027850231155753136
242.0,300.0,3.262,-0.3494,8.8869,-0.035,0.0287,-0.1185,-1.6291080913939417,0.0,2.3932008743286133,-1.7044129371643066,2.2257646675606157e-19,2.1940510272979736,4.517350836391113,-0.0,0.2771393060684204,-1.451738182698385,0.0,-0.022099055349826813,0.5834355354309082,0.0,-0.009873298928141594,1.152052640914917,0.0,0.04634943976998329
242.0,300.0,3.262,-0.3494,8.8869,-0.035,0.0287,-0.1185,-1.6290723286070765,0.0,2.436173439025879,-1.7043732404708862,5.374959491024795e-25,2.1762514114379883,4.517346544856689,-0.0,0.2872779071331024,-1.4517138640033167,0.0,-0.007159830071032047,0.5834355354309082,0.0,-0.009105163626372814,1.152040719985962,0.0,-0.05324642360210419
242.0,300.0,3.262,-0.3494,8.8869,-0.035,0.0287,-0.1185,-1.629131933251852,0.0,2.348263740539551,-1.7044010162353516,1.2979894197768439e-30,2.1950809955596924,4.517367048854492,-0.0,0.2828337550163269,-1.4517181555377405,0.0,-0.021919190883636475,0.5833671689033508,0.0,-0.00973102543503046,1.1520729064941406,0.0,-0.005787487141788006
242.0,300.0,3.262,-0.3494,8.8869,-0.035,0.0287,-0.1185,-1.629068513909811,0.0,2.3899052143096924,-1.704432725906372,3.134491846694242e-36,2.1557869911193848,4.517378969783447,-0.0,0.28537997603416443,-1.4517138640033167,0.0,-0.02545524202287197,0.5834031701087952,0.0,-0.004013862460851669,1.1520485877990723,0.0,-0.02930998057126999
242.0,300.0,3.262,-0.3494,8.8869,-0.035,0.0287,-0.1185,-1.6291119060912074,0.0,2.376126766204834,-1.704428791999817,7.569814304282662e-42,2.1517271995544434,4.517374678249023,-0.0,0.28429949283599854,-1.4516900221454065,0.0,-0.019349539652466774,0.5834116339683533,0.0,-0.004237246699631214,1.1520925760269165,0.0,0.0051513370126485825
230.0,290.0,3.3075,-0.3829,8.6716,-0.0454,0.0189,-0.1097,-1.6290761433043421,0.0,2.4430224895477295,-1.7043771743774414,1.401298464324817e-45,2.201493740081787,4.517367048854492,-0.0,0.2757731080055237,-1.4517338911639612,0.0,-0.01994185335934162,0.5834478139877319,0.0,-0.019564220681786537,1.1520845890045166,0.0,0.017002146691083908
230.0,290.0,3.3075,-0.3829,8.6716,-0.0454,0.0189,-0.1097,-1.6291285953917445,0.0,2.382213592529297,-1.7044248580932617,-0.0,2.164855480194092,4.5173584657856445,-0.0,0.27243277430534363,-1.4516857306109827,0.0,-0.00027288077399134636,0.5833994746208191,0.0,-0.0005514237564057112,1.1520648002624512,0.0,0.048336438834667206
230.0,290.0,3.3075,-0.3829,8.6716,-0.0454,0.0189,-0.1097,-1.629064222375387,0.0,2.4014439582824707,-1.7044168710708618,-0.0,2.1684720516204834,4.5173584657856445,-0.0,0.2748163938522339,-1.4516857306109827,0.0,-0.0210629403591156,0.5834314227104187,0.0,0.002938391175121069,1.152052640914917,0.0,0.00881936214864254
230.0,290.0,3.3075,-0.3829,8.6716,-0.0454,0.0189,-0.1097,-1.6291080913939417,0.0,2.4374637603759766,-1.7044485807418823,-0.0,2.151597261428833,4.517334623927734,-0.0,0.2780521512031555,-1.4517019430743616,0.0,-0.03234056383371353,0.5833953619003296,0.0,-0.0007323564495891333,1.1520565748214722,0.0,0.009236816316843033
230.0,290.0,3.3075,-0.3829,8.6716,-0.0454,0.0189,-0.1097,-1.6291042766966761,0.0,2.3964803218841553,-1.7044129371643066,-0.0,2.176572799682617,4.517410917873047,-0.0,0.27877962589263916,-1.4517095724688929,0.0,-0.019719425588846207,0.5834396481513977,0.0,0.0030404524877667427,1.152068853378296,0.0,0.007898611947894096
230.0,290.0,3.3075,-0.3829,8.6716,-0.0454,0.0189,-0.1097,-1.6290961704649867,0.0,2.344611644744873,-1.7044367790222168,-0.0,2.1482672691345215,4.517374678249023,-0.0,0.27672475576400757,-1.4517095724688929,0.0,-0.02788584679365158,0.5834314823150635,0.0,-0.008412469178438187,1.1520966291427612,0.0,0.03063620999455452
230.0,290.0,3.3075,-0.3829,8.6716,-0.0454,0.0189,-0.1097,-1.629092355767721,0.0,2.4211888313293457,-1.7043687105178833,-0.0,2.142010450363159,4.517390890712402,-0.0,0.2663208842277527,-1.4517295996295374,0.0,-0.01580108515918255,0.5834075808525085,0.0,-0.0028047538362443447,1.1520767211914062,0.0,-0.0364905409514904
230.0,290.0,3.3075,-0.3829,8.6716,-0.0454,0.0189,-0.1097,-1.6291080913939417,0.0,2.4157378673553467,-1.7043850421905518,-0.0,2.142216205596924,4.517435236568115,-0.0,0.26507678627967834,-1.4518173376666468,-0.0017967477906495333,-0.017066679894924164,0.5833953022956848,0.0,-0.014705536887049675,1.1521368026733398,3.892543579131491e-11,0.011490127071738243
230.0,290.0,3.3075,-0.3829,8.6716,-0.0454,0.0189,-0.1097,-1.6290842495360316,-1.9427049835485377e-07,2.4197354316711426,-1.704372763633728,0.00013209576718509197,2.200793981552124,4.517402811641357,0.0014677202561870217,0.28404656052589417,-1.4518206755267542,-0.004469007719308138,-0.01910935901105404,0.583419144153595,0.0,-0.002935500117018819,1.15215265750885,0.005259855650365353,0.0491785891354084
230.0,290.0,3.3075,-0.3829,8.6716,-0.0454,0.0189,-0.1097,-1.629080434838766,-3.496800765612207e-11,2.4220187664031982,-1.704344630241394,0.002560029737651348,2.1557819843292236,4.517450972194336,0.0018331700703129172,0.28657591342926025,-1.4518697897540491,-0.0039009705651551485,-0.008748053573071957,0.5833871960639954,0.0,-0.012943772599101067,1.1522208452224731,0.010820222087204456,0.10469746589660645
230.0,290.0,3.3075,-0.3829,8.6716,-0.0454,0.0189,-0.1097,-1.6290446720519007,-8.444361295264759e-17,2.449251174926758,-1.704329013824463,0.0028268664609640837,2.1287944316864014,4.51747099935498,0.0009155872976407409,0.28551220893859863,-1.451841179524557,-0.0028333375230431557,-0.03311765938997269,0.5834314823150635,0.0,-0.0031753857620060444,1.1522196531295776,0.01724550500512123,0.0769173800945282
230.0,290.0,3.3075,-0.3829,8.6716,-0.0454,0.0189,-0.1097,-1.6290322742857875,-2.039214275238454e-22,2.4399118423461914,-1.7043771743774414,0.0015870047500357032,2.1458513736724854,4.517466707820557,0.0005676471046172082,0.2847311496734619,-1.4518454710589808,-0.0015033327508717775,-0.028711576014757156,0.5834236145019531,0.0,-0.005750116892158985,1.1523443460464478,0.016427412629127502,0.00882611982524395
230.0,290.0,3.3075,-0.3829,8.6716,-0.0454,0.0189,-0.1097,-1.629064222375387,-4.924462274912222e-28,2.4592819213867188,-1.7043250799179077,0.0007031905115582049,2.180730104446411,4.517442865962646,0.000411605549743399,0.28208696842193604,-1.4518736044513147,-0.001001017983071506,-0.018963057547807693,0.5833629965782166,0.0,-0.0053787752985954285,1.1524441242218018,0.01245961058884859,0.05789466202259064
230.0,290.0,3.3075,-0.3829,8.6716,-0.0454,0.0189,-0.1097,-1.629080434838766,-1.1891996965979138e-33,2.4194066524505615,-1.7043890953063965,0.0004163101257290691,2.1677167415618896,4.517454310054443,0.00032291290699504316,0.28519904613494873,-1.451869312916891,-0.0006031279335729778,-0.031503826379776,0.5834273099899292,0.0,-0.003994383383542299,1.1524593830108643,0.010653509758412838,0.04731957986950874
230.0,290.0,3.3075,-0.3829,8.6716,-0.0454,0.0189,-0.1097,-1.6290723286070765,-2.1405174838348105e-37,2.468538761138916,-1.7043448686599731,0.0002642209583427757,2.197686195373535,4.517446680659912,0.0002823640825226903,0.2943466603755951,-1.4519012610064905,-0.0009583678911440074,-0.019892361015081406,0.583480179309845,0.0,0.0019616582430899143,1.1525477170944214,0.010163846425712109,0.03268551826477051
230.0,290.0,3.3075,-0.3829,8.6716,-0.0454,0.0189,-0.1097,-1.6290284595885218,-5.170791333358575e-43,2.419766902923584,-1.7043734788894653,-0.0002596605336293578,2.193159818649292,4.517427130336426,0.00023761506599839777,0.30539581179618835,-1.4518893400775355,-0.0016496716998517513,-0.02577418088912964,0.5834436416625977,0.0,-1.5343772247433662e-05,1.152571201324463,0.009015407413244247,0.00853403378278017
230.0,290.0,3.3075,-0.3829,8.6716,-0.0454,0.0189,-0.1097,-1.6290761433043421,-8.621635060990229e-05,2.483736991882324,-1.704384684562683,-0.0008418698562309146,2.1641652584075928,4.517387076015137,0.00016411682008765638,0.28939443826675415,-1.4518769423114222,-0.0010443103965371847,-0.021674180403351784,0.5834395885467529,0.0,0.0017644684994593263,1.1527117490768433,0.00903837289661169,0.0816960334777832
232.0,310.0,3.2267,-0.3511,8.8546,-0.035,0.025,-0.1165,-1.6291080913939417,-9.190393757307902e-05,2.468310594558716,-1.7044090032577515,-0.0005725464434362948,2.181520462036133,4.5173985201069335,0.00014434776676353067,0.29959529638290405,-1.4518612066852015,-0.0007823699852451682,-0.011861714534461498,0.5834478139877319,0.0,-0.006747568491846323,1.1527915000915527,0.011923747137188911,0.04750733822584152
232.0,310.0,3.2267,-0.3511,8.8546,-0.035,0.025,-0.1165,-1.6290961704649867,-8.338802581420168e-05,2.4165568351745605,-1.7043448686599731,-0.0004563434049487114,2.177487373352051,4.517406626338623,0.0001336296263616532,0.29735466837882996,-1.4519370237933558,-0.0005787401460111141,-0.028273914009332657,0.5834031701087952,0.0,-0.010690530762076378,1.1528310775756836,0.015309503301978111,0.07267005741596222
232.0,310.0,3.2267,-0.3511,8.8546,-0.035,0.025,-0.1165,-1.6291161976256312,-3.678222492453642e-05,2.4605743885040283,-1.704352855682373,-0.0002798908099066466,2.2046475410461426,4.517434759730957,0.00012023839371977374,0.29485777020454407,-1.4518731276141565,-0.00044834319851361215,-0.019430823624134064,0.5834031701087952,0.0,-0.026949424296617508,1.1528986692428589,0.018839625641703606,0.055239684879779816
232.0,310.0,3.2267,-0.3511,8.8546,-0.035,0.025,-0.1165,-1.6290885410704554,-3.262498648837209e-05,2.4547574520111084,-1.7043652534484863,-0.00017021031817421317,2.1426327228546143,4.517434759730957,0.00010928684787359089,0.29322943091392517,-1.451881233845846,-0.00036064136656932533,-0.021590527147054672,0.5833269357681274,0.0,-0.0066075995564460754,1.1530308723449707,0.017328698188066483,0.10802268236875534
232.0,310.0,3.2267,-0.3511,8.8546,-0.035,0.025,-0.1165,-1.6291123829283656,-4.808429920899471e-08,2.4729037284851074,-1.7043613195419312,0.00012352841440588236,2.1871137619018555,4.517439051265381,0.0001001640412141569,0.2960212230682373,-1.4518855253802698,-0.00030042053549550474,-0.02007368952035904,0.5834436416625977,0.0,-0.009637579321861267,1.153106451034546,0.011735809035599232,0.07877545058727264
232.0,310.0,3.2267,-0.3511,8.8546,-0.035,0.025,-0.1165,-1.6291042766966761,-1.1611793070045312e-13,2.4626049995422363,-1.7043448686599731,0.00015370541950687766,2.1946749687194824,4.517442389125488,2.493221836630255e-05,0.29653751850128174,-1.451869312916891,-0.00021492733503691852,-0.019824741408228874,0.5834113359451294,0.0,-0.0077399807050824165,1.1531710624694824,0.0075942897237837315,0.06703821569681168
232.0,310.0,3.2267,-0.3511,8.8546,-0.035,0.025,-0.1165,-1.6290723286070765,-2.0900820869269354e-17,2.504321575164795,-1.704329013824463,0.00013799533189740032,2.1888492107391357,4.517450972194336,2.3552816855954006e-05,0.29195886850357056,-1.4518330732928675,-0.00019585542031563818,-0.023172767832875252,0.583387553691864,0.0,-0.00898963026702404,1.1531622409820557,0.005322740413248539,0.07586006075143814
232.0,310.0,3.2267,-0.3511,8.8546,-0.035,0.025,-0.1165,-1.6291042766966761,-5.0473030966482854e-23,2.429591417312622,-1.704352855682373,0.00015952314424794167,2.1525793075561523,4.517450972194336,2.1837910026079044e-05,0.2914823591709137,-1.451841179524557,-0.0001732301461743191,-0.005438938736915588,0.5833953022956848,0.0,0.003946833778172731,1.1532098054885864,0.0025401576422154903,0.02450903132557869
232.0,310.0,3.2267,-0.3511,8.8546,-0.035,0.025,-0.1165,-1.6290880642332972,-1.2188641264987006e-28,2.442932605743408,-1.7043607234954834,0.0001408100506523624,2.1786375045776367,4.517406626338623,2.0356070308480412e-05,0.2867409586906433,-1.4518535772906702,-0.00012427174078766257,-0.017633087933063507,0.5834195613861084,0.0,-0.010296969674527645,1.1532180309295654,0.0012605354422703385,0.0745549350976944
232.0,310.0,3.2267,-0.3511,8.8546,-0.035,0.025,-0.1165,-1.6291562519469203,-2.9434137476412664e-34,2.455483913421631,-1.704340934753418,0.0001260218268726021,2.173591375350952,4.517442389125488,1.9062576029682532e-05,0.28152725100517273,-1.4518817106830042,-0.00011257821461185813,-0.004170410335063934,0.5834035277366638,0.0,-0.009224288165569305,1.1532219648361206,0.0007872889982536435,0.008222311735153198
232.0,310.0,3.2267,-0.3511,8.8546,-0.035,0.025,-0.1165,-1.6291400394835414,-0.000809769902843982,2.432136058807373,-1.704332947731018,0.0001140448366641067,2.1999592781066895,4.517435236568115,1.792364491848275e-05,0.2897639572620392,-1.4517887274371546,-7.725052273599431e-05,0.0008551427163183689,0.5834158658981323,0.0,0.0015163000207394361,1.1531740427017212,0.000572522752918303,0.04196576029062271
232.0,310.0,3.2267,-0.3511,8.8546,-0.035,0.025,-0.1165,-1.629200120965475,-0.0029703304171562195,2.4281258583068848,-1.704332947731018,0.00010724948515417054,2.148496627807617,4.51747099935498,1.723707464407198e-05,0.2611016035079956,-1.4518287817584437,5.949160549789667e-05,-0.0009515080600976944,0.5834437012672424,0.0,-0.013313859701156616,1.1532061100006104,0.00048444236745126545,0.0067258006893098354
232.0,310.0,3.2267,-0.3511,8.8546,-0.035,0.025,-0.1165,-1.629200120965475,-0.006678907200694084,2.455076217651367,-1.7044010162353516,9.845044405665249e-05,2.1406311988830566,4.51738612234082,1.6300486095133238e-05,0.28535526990890503,-1.4518011252032679,0.00011402489326428622,-0.006667881738394499,0.583435595035553,0.0,0.004478507675230503,1.1532061100006104,0.0003936189750675112,0.018402617424726486
232.0,310.0,3.2267,-0.3511,8.8546,-0.035,0.025,-0.1165,-1.6292764149107875,-0.01030962448567152,2.372936248779297,-1.7043448686599731,9.098558803088963e-05,2.158501386642456,4.517381830806396,1.546042949485127e-05,0.2803683876991272,-1.451824967061178,0.00013215659419074655,0.007054329849779606,0.5833834409713745,0.0,-0.00627553416416049,1.1532338857650757,0.00033147906651720405,0.021237967535853386
232.0,310.0,3.2267,-0.3511,8.8546,-0.035,0.025,-0.1165,-1.629263540307516,-0.009909206070005894,2.409149169921875,-1.7043886184692383,6.021007720846683e-05,2.1570708751678467,4.517442389125488,1.4702750377182383e-05,0.2754615545272827,-1.4518092314349573,0.0004455714952200651,-0.003576843999326229,0.5833712816238403,0.0,-0.022436469793319702,1.1531901359558105,8.800326759228483e-05,-0.0158695001155138
232.0,310.0,3.2267,-0.3511,8.8546,-0.035,0.025,-0.1165,-1.629286905328268,-0.006697663571685553,2.443697214126587,-1.704332947731018,5.6430697441101074e-05,2.1802468299865723,4.517439051265381,1.423753838025732e-05,0.2780818045139313,-1.4517653624164026,0.0004458971961867064,-0.007620914839208126,0.5834559798240662,0.0,0.013017110526561737,1.1532379388809204,8.016034553293139e-05,-0.0009463885799050331
225.0,302.0,4.2084,0.5731,8.2074,-0.0003,-0.0344,-0.088,-1.6293841801085414,-0.0026634177193045616,2.404345989227295,-1.7043448686599731,7.433851715177298e-05,2.1964619159698486,4.517427130336426,1.3592460163636133e-05,0.277605801820755,-1.4517691771136683,0.0003577875904738903,-0.007973254658281803,0.5834076404571533,0.0,-0.006143815349787474,1.1531941890716553,7.07125072949566e-05,0.019548341631889343
225.0,302.0,4.2084,0.5731,8.2074,-0.0003,-0.0344,-0.088,-1.6293641529478968,-0.0011497536906972528,2.367839813232422,-1.7043370008468628,7.12445835233666e-05,2.1325020790100098,4.517446680659912,1.3003315871173982e-05,0.27599912881851196,-1.4517729918109339,0.00029843850643374026,-0.0011575599201023579,0.583411693572998,0.0,-0.009086567908525467,1.1531981229782104,6.325708091026172e-05,-0.004041124135255814
225.0,302.0,4.2084,0.5731,8.2074,-0.0003,-0.0344,-0.088,-1.629376073876852,-0.0007011587731540203,2.4044806957244873,-1.704340934753418,6.601848144782707e-05,2.1599133014678955,4.517438574428223,1.2463102393667214e-05,0.2717518210411072,-1.4518335501300257,0.00025598221691325307,0.005274944938719273,0.5834117531776428,0.0,0.004633606877177954,1.1532061100006104,5.722379864891991e-05,-0.02026631310582161
225.0,302.0,4.2084,0.5731,8.2074,-0.0003,-0.0344,-0.088,-1.629416128198141,-0.0005885859718546271,2.3555140495300293,-1.7043567895889282,-5.6038952607195824e-05,2.1625282764434814,4.51747099935498,1.1966001693508588e-05,0.27632153034210205,-1.451789681111471,0.0002601535525172949,0.013133525848388672,0.583411693572998,0.0,-0.008769617415964603,1.153146505355835,1.2395717874369439e-07,0.0393567718565464
225.0,302.0,4.2084,0.5731,8.2074,-0.0003,-0.0344,-0.088,-1.629371782342428,-0.00045296232565306127,2.3966944217681885,-1.704400658607483,-4.983453982276842e-05,2.1180596351623535,4.5174547868916015,1.1656061360554304e-05,0.2716822922229767,-1.4517973105060022,0.00024140748428180814,-0.0010807184735313058,0.5834076404571533,0.0,-0.0013699471019208431,1.1531622409820557,2.231185548817738e-11,0.014533068984746933
225.0,302.0,4.2084,0.5731,8.2074,-0.0003,-0.0344,-0.088,-1.6294080219664515,-0.0016815398121252656,2.400752544403076,-1.7043886184692383,-4.273488593753427e-05,2.1733219623565674,4.517410441035889,1.1220126907574013e-05,0.27642905712127686,-1.4517853895770472,0.00021651870338246226,-0.003779622260481119,0.5833552479743958,0.0,-0.0008674595737829804,1.1531788110733032,-0.001578930183313787,0.00243467278778553
225.0,302.0,4.2084,0.5731,8.2074,-0.0003,-0.0344,-0.088,-1.6294518909850062,-0.0022194155026227236,2.4212989807128906,-1.704332947731018,-3.7406043702503666e-05,2.144801616668701,4.517450972194336,1.081561731552938e-05,0.2863471210002899,-1.4517653624164026,0.00022406864445656538,-0.005561875179409981,0.5834035873413086,0.0,0.007973361760377884,1.153154969215393,-0.0017999056726694107,-0.027967190369963646
225.0,302.0,4.2084,0.5731,8.2074,-0.0003,-0.0344,-0.088,-1.629512449304098,-0.0016909739933907986,2.4492082595825195,-1.7043370008468628,-3.325886063976213e-05,2.156909942626953,4.517439051265381,1.0439263860462233e-05,0.27922844886779785,-1.451773468648092,0.0001693034137133509,0.006346001289784908,0.5834236145019531,0.0,0.0027044040616601706,1.1531505584716797,-0.0013919554185122252,0.020749852061271667
225.0,302.0,4.2084,0.5731,8.2074,-0.0003,-0.0344,-0.088,-1.6294404468932093,-0.0010737982811406255,2.4040584564208984,-1.7043572664260864,-4.960404839948751e-05,2.148897647857666,4.517459078426025,1.0088227099913638e-05,0.27346330881118774,-1.4517810980426233,0.0001478168269386515,0.0009819588158279657,0.5834195613861084,0.0,-0.0005574922543019056,1.153118371963501,-0.0010370146483182907,0.024161487817764282
225.0,302.0,4.2084,0.5731,8.2074,-0.0003,-0.0344,-0.088,-1.6294475994505824,-0.0008269204408861697,2.397932767868042,-1.704329013824463,-5.614186738966964e-05,2.1890082359313965,4.517446680659912,1.2850250641349703e-06,0.281699001789093,-1.4517491499530237,0.00013870213297195733,0.004521057475358248,0.5834155082702637,0.0,0.0010013948194682598,1.1531264781951904,-0.000783766619861126,-0.04489593207836151
225.0,302.0,4.2084,0.5731,8.2074,-0.0003,-0.0344,-0.088,-1.6294118366637171,-0.0006149379769340158,2.406388282775879,-1.7043448686599731,-2.566988223406952e-05,2.1774661540985107,4.517430945033691,3.57691432029128e-10,0.29370856285095215,-1.4517658392535608,0.00015223877562675625,-0.0026288952212780714,0.5834236145019531,0.0,0.013306171633303165,1.1531224250793457,-0.0005706576048396528,-0.059032462537288666
225.0,302.0,4.2084,0.5731,8.2074,-0.0003,-0.0344,-0.088,-1.6294285259642542,-0.00043563346844166517,2.4348251819610596,-1.704340934753418,-3.2580732067799545e-07,2.134378671646118,4.517446680659912,9.956471817796839e-14,0.2725480794906616,-1.4517372290240687,0.00014046371506992728,-0.01370573602616787,0.583483874797821,0.0,0.013678749091923237,1.153106451034546,-0.00044869192061014473,-0.03273589909076691
225.0,302.0,4.2084,0.5731,8.2074,-0.0003,-0.0344,-0.088,-1.6294237575926722,-0.0003557336167432368,2.408029079437256,-1.7043170928955078,-7.867863261942776e-13,2.1606874465942383,4.517462893123291,2.7714205004472686e-17,0.2738448679447174,-1.4517691771136683,0.00013029552064836025,-0.004017224535346031,0.5834679007530212,0.0,0.006271898280829191,1.1531105041503906,-0.00042246931116096675,0.005991757847368717
225.0,302.0,4.2084,0.5731,8.2074,-0.0003,-0.0344,-0.088,-1.6294037304320277,-0.00031963284709490836,2.390993118286133,-1.704332947731018,-1.4161876040878649e-16,2.151935577392578,4.517446680659912,1.1814999382719079e-19,0.28976893424987793,-1.4517539183246058,0.00014229047519620508,-0.003031513886526227,0.5834076404571533,0.0,-0.005205343943089247,1.1531106233596802,-0.00038098267395980656,0.038066111505031586
225.0,302.0,4.2084,0.5731,8.2074,-0.0003,-0.0344,-0.088,-1.62945618251943,-0.00031703527201898396,2.4067258834838867,-1.7043567895889282,-3.4199263418638166e-22,2.1534643173217773,4.517442389125488,3.288748807636277e-23,0.288307785987854,-1.4517539183246058,0.00013564522669184953,-0.016976404935121536,0.5834637880325317,0.0,-0.003739540698006749,1.153090238571167,-0.00023899049847386777,0.02256818301975727
225.0,302.0,4.2084,0.5731,8.2074,-0.0003,-0.0344,-0.088,-1.6295200786986292,-0.000222818911424838,2.431591033935547,-1.704352855682373,-8.258719824447874e-28,2.1514151096343994,4.517442389125488,9.15435409319272e-27,0.2747915983200073,-1.4517620245562952,0.00014500146789941937,-0.023584876209497452,0.583419144153595,0.0,-0.0025444920174777508,1.1531147956848145,-0.0002061423729173839,0.018920106813311577
232.0,306.0,3.8142,0.8991,8.403,0.0261,0.0171,-0.1258,-1.6294881306090296,-0.0013941084034740925,2.3975610733032227,-1.704384684562683,-1.994383755881418e-33,2.136232376098633,4.5174266534992675,2.548148068458277e-30,0.2817096710205078,-1.4517257849322718,0.00013728764315601438,-0.01209651306271553,0.5834277272224426,0.0,0.0014281123876571655,1.1530823707580566,-0.0001812343398341909,-0.05676181986927986
232.0,306.0,3.8142,0.8991,8.403,0.0261,0.0171,-0.1258,-1.6295114956297816,-0.004783780314028263,2.405066967010498,-1.7043890953063965,-4.81620256605043e-39,2.1703028678894043,4.517462893123291,7.092864036239564e-34,0.2848294973373413,-1.4517539183246058,0.00012985921057406813,-0.016889013350009918,0.583483874797821,0.0,0.008956394158303738,1.1530983448028564,-0.00016169656009878963,0.01124642975628376
232.0,306.0,3.8142,0.8991,8.403,0.0261,0.0171,-0.1258,-1.6295725307860316,-0.006886822637170553,2.390716075897217,-1.7043647766113281,-8.674037494170618e-43,2.154726505279541,4.51747099935498,3.023799222836872e-36,0.2873414158821106,-1.4517377058612269,0.00012533801782410592,-0.018606077879667282,0.5833912491798401,0.0,-0.010370094329118729,1.1530983448028564,-0.00015085531049408019,-0.005416592117398977
232.0,306.0,3.8142,0.8991,8.403,0.0261,0.0171,-0.1258,-1.6296283207335414,-0.00905395857989788,2.3447084426879883,-1.7043488025665283,-0.0,2.1514530181884766,4.517466707820557,8.416857187013084e-40,0.27979010343551636,-1.451749626790182,0.00011911704496014863,0.00021014874801039696,0.5833991169929504,0.0,-0.00438988022506237,1.1531025171279907,-0.00013706980098504573,-0.012224232777953148
232.0,306.0,3.8142,0.8991,8.403,0.0261,0.0171,-0.1258,-1.6296597919859828,-0.010515319183468819,2.339170217514038,-1.7043969631195068,-0.0,2.1664419174194336,4.517418547267578,2.3401684354224445e-43,0.2848261892795563,-1.4517534414874476,0.00011348464613547549,-0.019727477803826332,0.5834559202194214,0.0,0.0037871175445616245,1.1530662775039673,-0.0001255928655155003,-0.032077111303806305
232.0,306.0,3.8142,0.8991,8.403,0.0261,0.0171,-0.1258,-1.6297275028624476,-0.011407415382564068,2.3706090450286865,-1.7044090032577515,-0.0,2.1376242637634277,4.517442389125488,0.0,0.2768537700176239,-1.451777760182516,0.0001083607057807967,-0.006927078124135733,0.5834113359451294,0.0,-0.01588980108499527,1.1531343460083008,-0.00011588963388931006,-0.03070986084640026
232.0,306.0,3.8142,0.8991,8.403,0.0261,0.0171,-0.1258,-1.6298119030394496,-0.011730990372598171,2.386253833770752,-1.7043806314468384,-0.0,2.101682662963867,4.517442389125488,0.0,0.29081663489341736,-1.4517295996295374,0.00010519427451072261,-0.02491190657019615,0.5834913849830627,0.0,-0.0058449553325772285,1.153058409690857,-0.00011021285899914801,-0.06448943167924881
232.0,306.0,3.8142,0.8991,8.403,0.0261,0.0171,-0.1258,-1.629827161828512,-0.012359779328107834,2.31596302986145,-1.7044049501419067,-0.0,2.1214747428894043,4.5174547868916015,0.0,0.28700631856918335,-1.451733414326803,0.00010077716433443129,-0.008863958530128002,0.5834715366363525,0.0,0.00018150778487324715,1.1531423330307007,-0.0001026692843879573,-0.07122267037630081
232.0,306.0,3.8142,0.8991,8.403,0.0261,0.0171,-0.1258,-1.629979749719137,-0.013183030299842358,2.3150219917297363,-1.7043806314468384,-0.0,2.169111490249634,4.517462893123291,0.0,0.27888011932373047,-1.451721493397848,9.671605948824435e-05,-0.013176564127206802,0.583491325378418,0.0004788688092958182,0.001690837787464261,1.153098464012146,-0.00011522036948008463,-0.05553923174738884
232.0,306.0,3.8142,0.8991,8.403,0.0261,0.0171,-0.1258,-1.6300636730589808,-0.013754792511463165,2.2998921871185303,-1.7043652534484863,-0.0,2.1783041954040527,4.517434759730957,0.0,0.2757891118526459,-1.451777760182516,9.296958160120994e-05,-0.01612331159412861,0.5834712386131287,0.0013100806390866637,0.025262216106057167,1.153082251548767,-0.0001243163860635832,-0.05953682214021683
232.0,306.0,3.8142,0.8991,8.403,0.0261,0.0171,-0.1258,-1.6301638088622035,-0.013681523501873016,2.2879374027252197,-1.7043890953063965,-0.0,2.129361391067505,4.517450972194336,0.0,0.29185909032821655,-1.451733414326803,8.950240589911118e-05,-0.00435294583439827,0.5835192203521729,0.0014109968906268477,0.032621629536151886,1.1531343460083008,-0.00011925029684789479,-0.13584637641906738
232.0,306.0,3.8142,0.8991,8.403,0.0261,0.0171,-0.1258,-1.6301995716490687,-0.01296635065227747,2.2933950424194336,-1.7044368982315063,-0.0,2.1335272789001465,4.517434759730957,0.0,0.2933700680732727,-1.4517691771136683,8.733133290661499e-05,-0.005605659913271666,0.5834872722625732,0.0011087356833741069,0.043948449194431305,1.1531264781951904,-0.00013131181185599416,-0.09353584796190262
232.0,306.0,3.8142,0.8991,8.403,0.0261,0.0171,-0.1258,-1.6303078136839808,-0.012777571566402912,2.2853519916534424,-1.7043613195419312,-0.0,2.1342647075653076,4.517434759730957,0.0,0.29312223196029663,-1.451789681111471,8.42650406411849e-05,-0.009748137556016445,0.5835150480270386,0.0009327756706625223,0.041426073759794235,1.1531145572662354,-0.00010714987001847476,-0.11692781001329422
232.0,306.0,3.8142,0.8991,8.403,0.0261,0.0171,-0.1258,-1.6303402386107386,-0.011444753035902977,2.2664120197296143,-1.704372763633728,-0.0,2.1305038928985596,4.517427130336426,0.0,0.2851355969905853,-1.451721493397848,8.140681165968999e-05,-0.0064974697306752205,0.5834913849830627,0.0007140819216147065,0.052462391555309296,1.1531105041503906,-0.00011896534851985052,-0.19914281368255615
232.0,306.0,3.8142,0.8991,8.403,0.0261,0.0171,-0.1258,-1.630423208276266,-0.009140083566308022,2.252721071243286,-1.7043652534484863,-0.0,2.114159107208252,4.51742331563916,0.0,0.2797504663467407,-1.451773468648092,5.197752670937916e-06,-0.011457061395049095,0.5835273265838623,0.0006842008442617953,0.04695383459329605,1.1530859470367432,-0.0001433115976396948,-0.12389293313026428
232.0,306.0,3.8142,0.8991,8.403,0.0261,0.0171,-0.1258,-1.6304556332030238,-0.00771133741363883,2.2927188873291016,-1.704340934753418,-0.0,2.1168370246887207,4.5173985201069335,0.0,0.28986191749572754,-1.451733414326803,1.4468137798928637e-09,-0.006597479805350304,0.58347487449646,0.0007666735909879208,0.04278083145618439,1.1530942916870117,-0.0006318539963103831,-0.1503780484199524
218.0,309.0,3.5946,-0.32,8.5005,-0.0325,-0.0304,-0.1133,-1.6305071316161097,-0.008683445863425732,2.270759105682373,-1.704384684562683,-0.0,2.093606472015381,4.517378969783447,0.0,0.2805922329425812,-1.4517858664142054,6.167994066885729e-12,-0.015408440493047237,0.5835676193237305,0.0009347305749543011,0.050345875322818756,1.1531747579574585,-0.0015448284102603793,-0.12871822714805603
218.0,309.0,3.5946,-0.32,8.5005,-0.0325,-0.0304,-0.1133,-1.6305271587767542,-0.010052654892206192,2.241535186767578,-1.7043732404708862,-0.0,2.1021881103515625,4.51742331563916,0.0,0.2907041013240814,-1.4517419973956507,1.716883797437329e-15,-0.013420093804597855,0.5835033059120178,0.000916134100407362,0.03909844905138016,1.1530746221542358,-0.003010921645909548,-0.17968198657035828
218.0,309.0,3.5946,-0.32,8.5005,-0.0325,-0.0304,-0.1133,-1.6305824718871058,-0.009476742707192898,2.2443723678588867,-1.704357385635376,-0.0,2.1071906089782715,4.5173703867146,0.0,0.2844924330711365,-1.4517057577716272,4.779008588667327e-19,-0.015804369002580643,0.5835351347923279,0.0008208545041270554,0.05318556725978851,1.1530141830444336,-0.006912236101925373,-0.22097346186637878
218.0,309.0,3.5946,-0.32,8.5005,-0.0325,-0.0304,-0.1133,-1.6306473217406214,-0.008421730250120163,2.224179267883301,-1.7044169902801514,-0.0,2.1330971717834473,4.51731459676709,0.0,0.2838680148124695,-1.451733414326803,1.3302546298612542e-22,-0.010656030848622322,0.5835150480270386,0.0008922608103603125,0.049311183393001556,1.1529620885849,-0.009441065602004528,-0.17899250984191895
218.0,309.0,3.5946,-0.32,8.5005,-0.0325,-0.0304,-0.1133,-1.6306668720641078,-0.00906083732843399,2.126919746398926,-1.704380750656128,-0.0,2.097736358642578,4.517314119929932,0.0,0.2869282364845276,-1.45180589357485,5.67108308370279e-25,-0.013546638190746307,0.5835634469985962,0.0008981467108242214,0.06322820484638214,1.1529260873794556,-0.009784163907170296,-0.2382153868675232
218.0,309.0,3.5946,-0.32,8.5005,-0.0325,-0.0304,-0.1133,-1.6307269535460414,-0.00878964178264141,2.193573474884033,-1.7044049501419067,-0.0,2.098673105239868,4.517354651088379,-0.0003053714754059911,0.26990023255348206,-1.4517696539508265,3.217458288418129e-05,-0.015853624790906906,0.5835676193237305,0.0007943343371152878,0.044264718890190125,1.1528944969177246,-0.008872473612427711,-0.2583202123641968
218.0,309.0,3.5946,-0.32,8.5005,-0.0325,-0.0304,-0.1133,-1.6307951412596644,-0.008686448447406292,2.1872830390930176,-1.7043448686599731,-0.0,2.06903076171875,4.5173064905354,-0.0006899292347952724,0.27999448776245117,-1.4517377058612269,5.1984156016260386e-05,0.0057672797702252865,0.5835191607475281,0.0007331123342737556,0.054058462381362915,1.1528269052505493,-0.007971124723553658,-0.27989864349365234
218.0,309.0,3.5946,-0.32,8.5005,-0.0325,-0.0304,-0.1133,-1.6308185062804164,-0.008684429340064526,2.131179094314575,-1.7043925523757935,-0.0,2.095716953277588,4.517338915462158,-0.0011535283410921693,0.268604040145874,-1.451721493397848,6.0276128351688385e-05,0.001001451862975955,0.5835835337638855,0.0006443088059313595,0.059693120419979095,1.1528111696243286,-0.007299762684851885,-0.2990415692329407
218.0,309.0,3.5946,-0.32,8.5005,-0.0325,-0.0304,-0.1133,-1.6308790645995082,-0.00867130421102047,2.1858649253845215,-1.704340934753418,-0.0,2.026416063308716,4.517310305232666,-0.0009468197822570801,0.27744197845458984,-1.4517019430743616,2.910682610490767e-07,0.018648993223905563,0.5835273265838623,0.0005564672173932195,0.04151993244886398,1.1527513265609741,-0.0063155777752399445,-0.33124876022338867
218.0,309.0,3.5946,-0.32,8.5005,-0.0325,-0.0304,-0.1133,-1.6309277019896449,-0.008648067712783813,2.1549952030181885,-1.7044129371643066,-0.0,2.0627269744873047,4.517343206996582,-0.0008155458490364254,0.26508408784866333,-1.4517300764666956,0.0003646494005806744,0.00022408762015402317,0.5835548639297485,0.0005381220253184438,0.05614335089921951,1.1527230739593506,-0.006114519666880369,-0.3443828821182251
218.0,309.0,3.5946,-0.32,8.5005,-0.0325,-0.0304,-0.1133,-1.6309110126891078,-0.00973527505993843,2.1090645790100098,-1.7043766975402832,-0.0,2.0813660621643066,4.517326994533203,-0.0005959495902061462,0.2682780921459198,-1.4517181555377405,0.0003913612454198301,0.01887688599526882,0.5835753679275513,0.0004912370932288468,0.04350009560585022,1.1526668071746826,-0.005155226215720177,-0.28268033266067505
218.0,309.0,3.5946,-0.32,8.5005,-0.0325,-0.0304,-0.1133,-1.631014963189596,-0.010226845741271973,2.104220390319824,-1.704384684562683,-0.0,2.058051347732544,4.517375155086182,-0.000530101649928838,0.2760281562805176,-1.45172626176943,0.0004281579749658704,0.021372878924012184,0.5834946632385254,0.0004887800896540284,0.05173373222351074,1.1526751518249512,-0.004537542350590229,-0.30844855308532715
218.0,309.0,3.5946,-0.32,8.5005,-0.0325,-0.0304,-0.1133,-1.6310464344420375,-0.01141771487891674,2.131577730178833,-1.7043488025665283,-0.0,2.07070255279541,4.517334623927734,-0.00043436692794784904,0.2628929913043976,-1.4517300764666956,0.00044696961413137615,0.024313949048519135,0.5835752487182617,0.0008961298735812306,0.04834790527820587,1.1526353359222412,-0.0031943991780281067,-0.3338463604450226
218.0,309.0,3.5946,-0.32,8.5005,-0.0325,-0.0304,-0.1133,-1.631106515923971,-0.01262060459703207,2.0829880237579346,-1.7043250799179077,-0.0,2.077305555343628,4.517350836391113,-0.00032797924359329045,0.2458837628364563,-1.4516895453082483,0.000353525101672858,0.005084948614239693,0.5835711359977722,0.001314651221036911,0.04445266351103783,1.152611494064331,-0.0018228625413030386,-0.32472196221351624
218.0,309.0,3.5946,-0.32,8.5005,-0.0325,-0.0304,-0.1133,-1.631219049493307,-0.013785128481686115,2.1086416244506836,-1.7043732404708862,-0.0,2.0456056594848633,4.517347021693848,-0.00029199759592302144,0.26970458030700684,-1.4517539183246058,0.00030549371149390936,0.02259741723537445,0.5835593342781067,0.0017610915238037705,0.05593123659491539,1.1526672840118408,-0.001320229726843536,-0.3223367929458618
218.0,309.0,3.5946,-0.32,8.5005,-0.0325,-0.0304,-0.1133,-1.6312867603697718,-0.01565397158265114,2.0800609588623047,-1.7043652534484863,-0.0,2.0469889640808105,4.517370863551758,-0.00025632453616708517,0.27134138345718384,-1.4517057577716272,0.00025377998827025294,0.03806031495332718,0.5835753679275513,0.0027684438973665237,0.05623006075620651,1.152619481086731,-0.0008513861102983356,-0.2880336344242096
230.0,305.0,3.3212,-0.2136,8.8612,-0.0318,0.0018,-0.137,-1.63136686901235,-0.0177645031362772,2.01064395904541,-1.7043766975402832,-0.0,2.0695555210113525,4.517382784480713,-0.00022843720216769725,0.2515966594219208,-1.4517658392535608,0.00021704570099245757,0.00657234713435173,0.583594560623169,0.0030181449837982655,0.05845852196216583,1.1526672840118408,-0.0004533864848781377,-0.32988545298576355
230.0,305.0,3.3212,-0.2136,8.8612,-0.0318,0.0018,-0.137,-1.6315022907652796,-0.020550942048430443,2.0328867435455322,-1.7043732404708862,-0.0,2.0723249912261963,4.517362757320068,-0.00020602317817974836,0.2636624872684479,-1.4517419973956507,0.00015185978554654866,0.02138696238398552,0.5835871696472168,0.002960541984066367,0.05164962261915207,1.152639389038086,-0.00034812145167961717,-0.272896409034729
230.0,305.0,3.3212,-0.2136,8.8612,-0.0318,0.0018,-0.137,-1.6315909824767054,-0.02274593710899353,2.071094036102295,-1.704332947731018,-0.0,2.09183931350708,4.517387076015137,-0.00019337449339218438,0.2630350887775421,-1.4517458120929163,0.00013989294529892504,0.013027643784880638,0.5836470127105713,0.00284427753649652,0.049505963921546936,1.152631402015686,-0.0003014668182004243,-0.3237953186035156
230.0,305.0,3.3212,-0.2136,8.8612,-0.0318,0.0018,-0.137,-1.6317345104613246,-0.026534801349043846,2.08553147315979,-1.7043732404708862,-9.519400545610068e-11,2.0763092041015625,4.517366572017334,-0.000117728668556083,0.2645707130432129,-1.4516695181476038,0.00012528467050287873,0.008614706806838512,0.5836428999900818,0.002037016674876213,0.05811471864581108,1.1526832580566406,-0.0002510112535674125,-0.3140822947025299
230.0,305.0,3.3212,-0.2136,8.8612,-0.0318,0.0018,-0.137,-1.6318947277464808,-0.03153735026717186,2.0769541263580322,-1.7043211460113525,-2.2988233313487336e-16,2.0788211822509766,4.517382784480713,-5.143358066561632e-05,0.25823336839675903,-1.4517257849322718,0.00011343962978571653,-0.011874194256961346,0.5836470127105713,0.0014124116860330105,0.07426758110523224,1.1526591777801514,-0.00021502445451915264,-0.2805599570274353
230.0,305.0,3.3212,-0.2136,8.8612,-0.0318,0.0018,-0.137,-1.6320868931212367,-0.033315856009721756,2.1068005561828613,-1.7043250799179077,-5.551388622963623e-22,2.0905773639678955,4.517362757320068,-4.735792026622221e-05,0.27428144216537476,-1.4517295996295374,0.00010364123590989038,0.0031312438659369946,0.5836630463600159,0.0007341090240515769,0.058719947934150696,1.152663230895996,-0.0001880638301372528,-0.36959195137023926
230.0,305.0,3.3212,-0.2136,8.8612,-0.0318,0.0018,-0.137,-1.6322862110533656,-0.03807135298848152,2.0499870777130127,-1.7043488025665283,-1.3405948638237534e-27,2.1145334243774414,4.517354651088379,-2.232667429780122e-05,0.28297314047813416,-1.4517377058612269,7.165807619458064e-05,0.009594399482011795,0.5837194323539734,0.0005907801678404212,0.05835474282503128,1.1526472568511963,-0.0001671108475420624,-0.29325127601623535
230.0,305.0,3.3212,-0.2136,8.8612,-0.0318,0.0018,-0.137,-1.6324264011778773,-0.03885859251022339,2.068570613861084,-1.7043448686599731,-2.41302377031713e-31,2.0396392345428467,4.517390890712402,-2.0927611330989748e-05,0.28107309341430664,-1.4517377058612269,6.794977525714785e-05,-0.008090756833553314,0.5836506485939026,0.0005650017410516739,0.05891771242022514,1.1526353359222412,-0.00015555720892734826,-0.3247073292732239
230.0,305.0,3.3212,-0.2136,8.8612,-0.0318,0.0018,-0.137,-1.6326939068236292,-0.043986428529024124,2.0780839920043945,-1.704340934753418,-5.827168053942982e-37,2.0517375469207764,4.517382784480713,-1.9561466615414247e-05,0.28855404257774353,-1.4517257849322718,6.317898078123108e-05,-0.0047019487246870995,0.5836710929870605,0.0004453890724107623,0.06437534838914871,1.1526472568511963,-0.00014094062498770654,-0.2918660044670105
230.0,305.0,3.3212,-0.2136,8.8612,-0.0318,0.0018,-0.137,-1.6329618893065394,-0.049406807869672775,2.035581111907959,-1.7043410539627075,-1.4069036581821163e-42,2.1265294551849365,4.5173985201069335,-1.8363993149250746e-05,0.2717447578907013,-1.451789681111471,5.903466444578953e-05,-0.0029661376029253006,0.5836630463600159,0.00041965325362980366,0.07499140501022339,1.1526273488998413,-0.0001288350176764652,-0.2972251772880554
230.0,305.0,3.3212,-0.2136,8.8612,-0.0318,0.0018,-0.137,-1.6332704029478968,-0.05510473623871803,2.111846685409546,-1.7043529748916626,-0.0,2.11104154586792,4.517366572017334,-1.7304719222011045e-05,0.2762276530265808,-1.4517057577716272,5.540063284570351e-05,-0.006866128649562597,0.5836752653121948,0.00035735900746658444,0.055507175624370575,1.1526075601577759,-0.00011864445696119219,-0.27558112144470215
230.0,305.0,3.3212,-0.2136,8.8612,-0.0318,0.0018,-0.137,-1.633498331109518,-0.05871354416012764,2.06286883354187,-1.7043004035949707,0.00019110723224002868,2.068319082260132,4.517378969783447,-1.6663896531099454e-05,0.2828737795352936,-1.4517095724688929,5.321664866642095e-05,-0.015323721803724766,0.5836670994758606,0.0003250804147683084,0.06145172566175461,1.1526154279708862,-0.00011270165123278275,-0.3158532381057739
230.0,305.0,3.3212,-0.2136,8.8612,-0.0318,0.0018,-0.137,-1.6337973080077113,-0.06207961216568947,2.061366558074951,-1.704276204109192,0.0002639330050442368,2.0526633262634277,4.517374678249023,-1.5786985386512242e-05,0.2747530937194824,-1.4517019430743616,5.024565689382143e-05,-0.005975627340376377,0.5836470127105713,0.0002862931287381798,0.05930766835808754,1.1526354551315308,-0.00010482549259904772,-0.3106510639190674
230.0,305.0,3.3212,-0.2136,8.8612,-0.0318,0.0018,-0.137,-1.6342421970763148,-0.06501927971839905,2.0733981132507324,-1.7043410539627075,0.00028268955065868795,2.0877981185913086,4.517367048854492,-1.4997754988144152e-05,0.27448228001594543,-1.4516857306109827,4.758880095323548e-05,-0.012015431188046932,0.5836470127105713,0.00025577674387022853,0.05425075441598892,1.1526353359222412,-0.00011527925380505621,-0.3093585669994354
230.0,305.0,3.3212,-0.2136,8.8612,-0.0318,0.0018,-0.137,-1.634665151635641,-0.06924726814031601,2.0601162910461426,-1.7042489051818848,0.0004277464759070426,2.0615973472595215,4.517374678249023,-1.4283673408499453e-05,0.2962664067745209,-1.4517133871661585,4.5198808948043734e-05,-0.01648689992725849,0.5836551785469055,0.00023114000214263797,0.05399467796087265,1.1526274681091309,-0.00012246666301507503,-0.23867467045783997
230.0,305.0,3.3212,-0.2136,8.8612,-0.0318,0.0018,-0.137,-1.635040899316305,-0.07206253707408905,2.041991710662842,-1.7043251991271973,0.0003789602778851986,2.018584966659546,4.517410917873047,-1.363449337077327e-05,0.28086739778518677,-1.4517419973956507,4.303738387534395e-05,-0.014027668163180351,0.5836305618286133,0.00021083265892229974,0.04790828377008438,1.152639389038086,-0.00013795911218039691,-0.2740190625190735
232.0,322.0,2.9797,-0.2207,8.7422,-0.018,0.0078,-0.1168,-1.6353198490538539,-0.0732971727848053,2.0499119758605957,-1.7042688131332397,0.00038917126948945224,2.114851951599121,4.517374678249023,-1.3233536265033763e-05,0.28009510040283203,-1.4517577330218714,4.170778629486449e-05,-0.002717619063332677,0.5837031006813049,0.0001991678000194952,0.05694403499364853,1.1526234149932861,-0.00013351022789720446,-0.29242563247680664
232.0,322.0,2.9797,-0.2207,8.7422,-0.018,0.0078,-0.1168,-1.6358205280699671,-0.07366964966058731,2.098987579345703,-1.7042365074157715,0.0003199855564162135,2.1050498485565186,4.517403288478516,-1.2674449862970505e-05,0.27995842695236206,-1.4517257849322718,3.986055889981799e-05,-0.009589271619915962,0.5836630463600159,0.00018390493642073125,0.0553436353802681,1.1526234149932861,-9.044480248121545e-05,-0.3095848560333252
232.0,322.0,2.9797,-0.2207,8.7422,-0.018,0.0078,-0.1168,-1.636235853234762,-0.07436428219079971,2.095933437347412,-1.7043451070785522,0.00022825633641332388,2.0781657695770264,4.517387076015137,-1.2160685400885995e-05,0.28973931074142456,-1.451721493397848,3.817001561401412e-05,-0.014553743414580822,0.5836629867553711,0.00017081506666727364,0.05697549134492874,1.1526633501052856,-8.530115883331746e-05,-0.2915883958339691
232.0,322.0,2.9797,-0.2207,8.7422,-0.018,0.0078,-0.1168,-1.6367317638792933,-0.07702958583831787,2.0779948234558105,-1.7043251991271973,0.0001967092539416626,2.0517051219940186,4.5174147325703125,-1.1686945981637109e-05,0.2714417576789856,-1.4517658392535608,3.6641693441197276e-05,-0.011794647201895714,0.5836793780326843,0.0001594651839695871,0.06306418776512146,1.152639389038086,-9.620861237635836e-05,-0.21429157257080078
232.0,322.0,2.9797,-0.2207,8.7422,-0.018,0.0078,-0.1168,-1.637202878991598,-0.081791453063488,2.098857879638672,-1.7043448686599731,0.00017390248831361532,2.1108460426330566,4.517346544856689,-1.1248743248870596e-05,0.28870150446891785,-1.4517539183246058,-2.6607678591972217e-05,-0.017823586240410805,0.5836150050163269,0.00014952931087464094,0.05338773876428604,1.1526196002960205,-9.190831769956276e-05,-0.2906407117843628
232.0,322.0,2.9797,-0.2207,8.7422,-0.018,0.0078,-0.1168,-1.6375142536559046,-0.08489565551280975,2.0683064460754395,-1.7042728662490845,0.00016142519598361105,2.0982470512390137,4.517370863551758,-1.097441327146953e-05,0.28791698813438416,-1.4517620245562952,-2.586052505648695e-05,-0.020889567211270332,0.5836429595947266,0.00014356595056597143,0.053644295781850815,1.1526155471801758,-0.0001036885951180011,-0.29013603925704956
232.0,322.0,2.9797,-0.2207,8.7422,-0.018,0.0078,-0.1168,-1.638071676293844,-0.0875110998749733,2.0462136268615723,-1.7043410539627075,0.00014574076340068132,2.0594539642333984,4.517382784480713,-2.1150843167561106e-05,0.2959386706352234,-1.4517057577716272,-2.4792010663077235e-05,-0.007466084323823452,0.5836752653121948,0.00013546251284424216,0.05094147473573685,1.15261971950531,-0.0003172522410750389,-0.24747362732887268
232.0,322.0,2.9797,-0.2207,8.7422,-0.018,0.0078,-0.1168,-1.6385499439635218,-0.09300252795219421,2.039557933807373,-1.7043005228042603,0.00018560071475803852,2.079235076904297,4.517330809230469,-2.0452507669688202e-05,0.2769339084625244,-1.4517138640033167,-2.380826663284097e-05,-0.015372198075056076,0.5835946202278137,0.00012822492863051593,0.062429726123809814,1.1525593996047974,-0.0011411379091441631,-0.2993696331977844
232.0,322.0,2.9797,-0.2207,8.7422,-0.018,0.0078,-0.1168,-1.63908114055776,-0.09524217993021011,2.0808145999908447,-1.7042927742004395,0.0002117544790962711,2.06673526763916,4.517330809230469,-5.081766175862867e-06,0.2780196964740753,-1.4516895453082483,-2.289961230417248e-05,-0.02118203416466713,0.5836949348449707,8.140248974086717e-05,0.05524049699306488,1.1525994539260864,-0.0014132227515801787,-0.2810622751712799
232.0,322.0,2.9797,-0.2207,8.7422,-0.018,0.0078,-0.1168,-1.6394888363280238,-0.09843377023935318,2.0407676696777344,-1.7042689323425293,0.0017601355211809278,2.073082447052002,4.517334623927734,-2.1664364524554003e-08,0.28527313470840454,-1.451738182698385,-2.233140912721865e-05,0.003367969300597906,0.5837031006813049,7.851768896216527e-05,0.06146559864282608,1.1526275873184204,-0.0012553853448480368,-0.2459351122379303
232.0,322.0,2.9797,-0.2207,8.7422,-0.018,0.0078,-0.1168,-1.640048166314596,-0.09927745908498764,2.0651659965515137,-1.70421302318573,0.002898323582485318,2.0657315254211426,4.517346544856689,-6.030355034769563e-12,0.27443182468414307,-1.4517501036273401,-2.1530089725274593e-05,-0.024371210485696793,0.5836387872695923,8.946847083279863e-05,0.06203079968690872,1.1525835990905762,-0.0010708182817324996,-0.28519803285598755
232.0,322.0,2.9797,-0.2207,8.7422,-0.018,0.0078,-0.1168,-1.6405970058836878,-0.09584952145814896,2.0843896865844727,-1.704209327697754,0.0039040911942720413,2.109952688217163,4.517330809230469,-1.678571438441833e-15,0.2831585705280304,-1.4517539183246058,-2.078428224194795e-05,-0.010257165879011154,0.5836989879608154,8.529159094905481e-05,0.06340830028057098,1.1525875329971313,-0.000782520161010325,-0.31415361166000366
232.0,322.0,2.9797,-0.2207,8.7422,-0.018,0.0078,-0.1168,-1.6411992512144984,-0.09499701112508774,2.019087314605713,-1.7042326927185059,0.003675892250612378,2.0736148357391357,4.517375155086182,-4.67236484518181e-19,0.29591134190559387,-1.4517253080951136,-2.0088424207642674e-05,-0.026627274230122566,0.5837072730064392,9.477339335717261e-05,0.06341757625341415,1.152539610862732,-0.0007153103360906243,-0.280127614736557
232.0,322.0,2.9797,-0.2207,8.7422,-0.018,0.0078,-0.1168,-1.641782899896139,-0.10072283446788788,2.063966751098633,-1.7041367292404175,0.0025247312150895596,2.0630741119384766,4.517375155086182,-1.3005701095421496e-22,0.2842371165752411,-1.4517176787005823,-8.469491774576454e-08,-0.024411160498857498,0.5837031006813049,9.089290688280016e-05,0.04905072972178459,1.1525835990905762,-0.0005359592032618821,-0.30276989936828613
232.0,322.0,2.9797,-0.2207,8.7422,-0.018,0.0078,-0.1168,-1.6421309910216273,-0.10466882586479187,2.1048858165740967,-1.704193115234375,0.0015393232461065054,2.068430185317993,4.517378969783447,-5.54453352424917e-25,0.29485583305358887,-1.4517133871661585,-3.6106773126931557e-10,-0.013407057151198387,0.5837076902389526,0.00010090910654980689,0.06307761371135712,1.1525596380233765,-0.0004942234372720122,-0.3008629083633423
232.0,322.0,2.9797,-0.2207,8.7422,-0.018,0.0078,-0.1168,-1.6427961788573207,-0.10992038249969482,2.049992322921753,-1.7042087316513062,0.000968427921179682,2.0908117294311523,4.517387076015137,-1.543341312781038e-28,0.2838239371776581,-1.4517377058612269,-1.0050453850239671e-13,-0.025457805022597313,0.583658754825592,0.000151646658196114,0.05675185099244118,1.1525477170944214,-0.0005763330264016986,-0.2778787314891815
215.0,309.0,3.119,-0.2219,8.9163,-0.0104,-0.0696,-0.1286,-1.6434737644591273,-0.11117805540561676,2.115811586380005,-1.7041890621185303,0.0006808417965658009,2.124728202819824,4.517395182246826,-4.2959469608357466e-32,0.2781940698623657,-1.451789681111471,-2.797580749063748e-17,-0.03190980106592178,0.5836907625198364,0.00018390110926702619,0.08247993886470795,1.152531623840332,-0.0018363513518124819,-0.28325217962265015
215.0,309.0,3.119,-0.2219,8.9163,-0.0104,-0.0696,-0.1286,-1.644045969048971,-0.1091323122382164,2.068242073059082,-1.7041569948196411,0.0018662922084331512,2.143453359603882,4.51739422857251,-1.1957926500930144e-35,0.29687973856925964,-1.4517820517169397,-7.7871687594537e-21,-0.0180070698261261,0.5836747288703918,0.0001964409602805972,0.05935373157262802,1.15249502658844,-0.0029149914626032114,-0.3017314672470093
215.0,309.0,3.119,-0.2219,8.9163,-0.0104,-0.0696,-0.1286,-1.6447421512999476,-0.10402646660804749,2.0525436401367188,-1.7041611671447754,0.0041513824835419655,2.069138526916504,4.51744715749707,0.0008202512981370091,0.29756495356559753,-1.4517415205584925,-2.1675868330794723e-24,-0.014950834214687347,0.5836346745491028,0.0001990970195038244,0.06273685395717621,1.1525322198867798,-0.002756818663328886,-0.27809053659439087
215.0,309.0,3.119,-0.2219,8.9163,-0.0104,-0.0696,-0.1286,-1.6451684437193812,-0.1032852977514267,2.0830020904541016,-1.7041168212890625,0.005139839369803667,2.093014717102051,4.517462893123291,0.0009309240849688649,0.29614728689193726,-1.4517253080951136,-9.240761325333642e-27,-0.036873992532491684,0.5837236046791077,0.00019400042947381735,0.06488759815692902,1.1524994373321533,-0.0024874829687178135,-0.27287155389785767
215.0,309.0,3.119,-0.2219,8.9163,-0.0104,-0.0696,-0.1286,-1.6457449398436488,-0.1019890159368515,2.1204609870910645,-1.7041125297546387,0.006194688845425844,2.1507232189178467,4.517422838802002,0.0007427485543303192,0.31812310218811035,-1.451749626790182,-9.347245941171423e-05,-0.04338204860687256,0.5837031006813049,0.00017762003699317575,0.06921152770519257,1.1524872779846191,-0.0021029917988926172,-0.22355590760707855
215.0,309.0,3.119,-0.2219,8.9163,-0.0104,-0.0696,-0.1286,-1.6463891468443812,-0.10280602425336838,2.1619114875793457,-1.7040886878967285,0.005412939004600048,2.113011598587036,4.517427130336426,0.0005301651544868946,0.3099019527435303,-1.451761547719137,-0.0001059704736690037,-0.04890826717019081,0.5836710929870605,0.0001637672248762101,0.08385031670331955,1.1525036096572876,-0.0015321755781769753,-0.23637449741363525
215.0,309.0,3.119,-0.2219,8.9163,-0.0104,-0.0696,-0.1286,-1.646963735620016,-0.1054704561829567,2.15405535697937,-1.7040245532989502,0.004293335136026144,2.0742053985595703,4.517427130336426,0.0003909635706804693,0.29237130284309387,-1.4517539183246058,-0.00010218784882454202,-0.03616778552532196,0.5836989879608154,0.00017324657528661191,0.060309998691082,1.1524596214294434,-0.0012885143514722586,-0.27720558643341064
215.0,309.0,3.119,-0.2219,8.9163,-0.0104,-0.0696,-0.1286,-1.6474505863585414,-0.11013080179691315,2.1557557582855225,-1.7039813995361328,0.003746556118130684,2.0977110862731934,4.517435236568115,0.00033304071985185146,0.30649158358573914,-1.451761547719137,-9.846187458606437e-05,-0.044122666120529175,0.5836306214332581,0.00016563167446292937,0.05571528524160385,1.152455449104309,-0.0015606340020895004,-0.2682562470436096
215.0,309.0,3.119,-0.2219,8.9163,-0.0104,-0.0696,-0.1286,-1.648062368432516,-0.11305776983499527,2.1682634353637695,-1.70393705368042,0.00422599958255887,2.1284332275390625,4.517450972194336,0.0003795194497797638,0.3061893880367279,-1.4517658392535608,-0.00010788056533783674,-0.05217256397008896,0.5836424827575684,0.00015493991668336093,0.07725496590137482,1.1524155139923096,-0.0027014247607439756,-0.23468339443206787
215.0,309.0,3.119,-0.2219,8.9163,-0.0104,-0.0696,-0.1286,-1.6487347088255824,-0.11185337603092194,2.1105079650878906,-1.7039446830749512,0.007340394426137209,2.1395750045776367,4.51747099935498,0.0004902305081486702,0.3072323799133301,-1.4517815748797815,-0.00010354393452871591,-0.035733599215745926,0.5836305618286133,0.00014554343943018466,0.07720538228750229,1.1524158716201782,-0.0031811983790248632,-0.22214755415916443
215.0,309.0,3.119,-0.2219,8.9163,-0.0104,-0.0696,-0.1286,-1.649393220941061,-0.10893312841653824,2.111151695251465,-1.7038606405258179,0.012558486312627792,2.0920650959014893,4.517494841212891,0.0012686130357906222,0.3037616014480591,-1.4517658392535608,-0.00011277136218268424,-0.06066318601369858,0.5836306214332581,0.0001372216793242842,0.06297765672206879,1.152355670928955,-0.003876403206959367,-0.25340214371681213
215.0,309.0,3.119,-0.2219,8.9163,-0.0104,-0.0696,-0.1286,-1.6500174007811488,-0.10494343936443329,2.147346258163452,-1.7037853002548218,0.017346641048789024,2.1339030265808105,4.5174781519123535,0.0012180799385532737,0.3166845440864563,-1.4517853895770472,-0.0002116735267918557,-0.06016167998313904,0.5836949348449707,0.00012980005703866482,0.06033316254615784,1.1523761749267578,-0.0036076977849006653,-0.20362742245197296
215.0,309.0,3.119,-0.2219,8.9163,-0.0104,-0.0696,-0.1286,-1.6505094967284144,-0.10002677142620087,2.2333006858825684,-1.7037209272384644,0.019695408642292023,2.166487216949463,4.51752678930249,0.0009957547299563885,0.3156736493110657,-1.4517934958087366,-0.0002230315440101549,-0.06396418064832687,0.5836424827575684,0.0001252828660653904,0.049125298857688904,1.1523802280426025,-0.003066740930080414,-0.2588671147823334
215.0,309.0,3.119,-0.2219,8.9163,-0.0104,-0.0696,-0.1286,-1.6511231861510218,-0.09863561391830444,2.2079668045043945,-1.7035804986953735,0.021209808066487312,2.163818836212158,4.517499132747314,0.0007729284116066992,0.3145484924316406,-1.4517930189715784,-0.00024023183505050838,-0.06956424564123154,0.5836829543113708,0.00011906740837730467,0.060821786522865295,1.1523361206054688,-0.0018716593040153384,-0.20011204481124878
215.0,309.0,3.119,-0.2219,8.9163,-0.0104,-0.0696,-0.1286,-1.6517511806883753,-0.09954582899808884,2.218637466430664,-1.7034722566604614,0.020606819540262222,2.1377992630004883,4.517438574428223,0.0005845004343427718,0.3207170069217682,-1.451773468648092,-0.0004107248969376087,-0.07417076826095581,0.5836387276649475,0.00011343936785124242,0.06638392806053162,1.1523282527923584,-0.0013369123917073011,-0.1801719069480896
215.0,309.0,3.119,-0.2219,8.9163,-0.0104,-0.0696,-0.1286,-1.6523953876891078,-0.1092439591884613,2.233018398284912,-1.7034088373184204,0.018774641677737236,2.1250879764556885,4.517494841212891,0.0004699610872194171,0.3176261782646179,-1.4517853895770472,-0.0003601923817768693,-0.06526125222444534,0.5836387276649475,0.00010831941472133622,0.05947376415133476,1.1523520946502686,-0.0008465194259770215,-0.17627418041229248
215.0,309.0,3.119,-0.2219,8.9163,-0.0104,-0.0696,-0.1286,-1.6528188190855921,-0.11563611030578613,2.222163200378418,-1.703284740447998,0.018168466165661812,2.1317789554595947,4.5174781519123535,0.00041620430420152843,0.32201603055000305,-1.4517534414874476,-0.00031046857475303113,-0.079189233481884,0.5837193727493286,0.00010515546455280855,0.04694431647658348,1.152348518371582,-0.0008576264372095466,-0.14216944575309753
241.0,391.0,2.8828,-0.25,9.1244,0.0099,-0.035,-0.1385,-1.653494497338766,-0.11935144662857056,2.2150917053222656,-1.7032054662704468,0.02052411064505577,2.1454248428344727,4.517522974605225,0.0003573475405573845,0.3209245204925537,-1.4517491499530237,-0.0003081630275119096,-0.07819799333810806,0.5836629867553711,0.00010074147576233372,0.05569320172071457,1.152287483215332,-0.002005308633670211,-0.1880301982164383
241.0,391.0,2.8828,-0.25,9.1244,0.0099,-0.035,-0.1385,-1.6541644535460414,-0.12067202478647232,2.248307466506958,-1.7029759883880615,0.025489365682005882,2.1927855014801025,4.5175673204609375,0.002698405645787716,0.32569777965545654,-1.451761547719137,-0.0003014754329342395,-0.07213274389505386,0.5836629271507263,9.668307757237926e-05,0.04907059296965599,1.1522717475891113,-0.0033596931025385857,-0.1770046204328537
241.0,391.0,2.8828,-0.25,9.1244,0.0099,-0.035,-0.1385,-1.654888769189352,-0.11481134593486786,2.231248378753662,-1.7028329372406006,0.03268902748823166,2.206083297729492,4.517570181483887,0.005909818224608898,0.3424811363220215,-1.4517810980426233,-0.000296409911243245,-0.08809011429548264,0.5837072730064392,9.293908078689128e-05,0.05293499678373337,1.152272343635559,-0.004543547984212637,-0.14863470196723938
241.0,391.0,2.8828,-0.25,9.1244,0.0099,-0.035,-0.1385,-1.655614515344137,-0.10224616527557373,2.2813539505004883,-1.7025606632232666,0.0379469059407711,2.189260482788086,4.517638846034668,0.01078429538756609,0.33872896432876587,-1.4518292585956019,-0.00033098901621997356,-0.08160381019115448,0.5837029814720154,8.28360061859712e-05,0.0445004403591156,1.1522924900054932,-0.003941530827432871,-0.17660988867282867
241.0,391.0,2.8828,-0.25,9.1244,0.0099,-0.035,-0.1385,-1.6560632191100062,-0.09745441377162933,2.2780191898345947,-1.702448844909668,0.039130181074142456,2.210505485534668,4.517618342036865,0.011269787326455116,0.34575575590133667,-1.4518335501300257,-0.0012577279703691602,-0.09668776392936707,0.5837194323539734,7.351044769166037e-05,0.057958561927080154,1.1522321701049805,-0.002933337353169918,-0.1466602385044098
241.0,391.0,2.8828,-0.25,9.1244,0.0099,-0.035,-0.1385,-1.656713148156637,-0.09523405134677887,2.2930190563201904,-1.7022285461425781,0.036392275243997574,2.2265093326568604,4.51763026296582,0.007903015241026878,0.3551971912384033,-1.4518254438983362,-0.00135220552328974,-0.10073088854551315,0.5837031006813049,7.004956569289789e-05,0.07383711636066437,1.152260422706604,-0.0015762095572426915,-0.13257694244384766
241.0,391.0,2.8828,-0.25,9.1244,0.0099,-0.035,-0.1385,-1.6573816738524378,-0.10140490531921387,2.283571481704712,-1.7020769119262695,0.03050561062991619,2.2152204513549805,4.517678423518799,0.0034913744311779737,0.3433837294578552,-1.4518497625934046,-0.000817824387922883,-0.1090380996465683,0.5836989283561707,7.856050797272474e-05,0.06579194962978363,1.1522842645645142,-0.0007061767973937094,-0.06675291806459427
241.0,391.0,2.8828,-0.25,9.1244,0.0099,-0.035,-0.1385,-1.657947679559225,-0.11372815817594528,2.268035888671875,-1.7018729448318481,0.024935198947787285,2.181802272796631,4.517678423518799,0.0013561304658651352,0.355655312538147,-1.451824967061178,-0.0007456120802089572,-0.10361067950725555,0.5837350487709045,8.319157495861873e-05,0.07194008678197861,1.1521958112716675,-0.00047999274102039635,-0.10424865782260895
241.0,391.0,2.8828,-0.25,9.1244,0.0099,-0.035,-0.1385,-1.6586324177184046,-0.1194230243563652,2.272155284881592,-1.7017161846160889,0.02486387826502323,2.1950864791870117,4.517782850856445,0.0008784803794696927,0.3496258854866028,-1.4518573919879358,-0.0006859058630652726,-0.10304433852434158,0.5837030410766602,9.514314297121018e-05,0.06231608986854553,1.1522202491760254,-0.0005728390533477068,-0.0984603688120842
241.0,391.0,2.8828,-0.25,9.1244,0.0099,-0.035,-0.1385,-1.6590844593443812,-0.1176389828324318,2.305150270462036,-1.7015596628189087,0.027817415073513985,2.188854217529297,4.5177623468586425,0.0006079357117414474,0.3486233353614807,-1.4518287817584437,-0.0011435853084549308,-0.10820365697145462,0.5837153792381287,0.0002524131559766829,0.06172536313533783,1.1522164344787598,-0.0017810310237109661,-0.09486567974090576
241.0,391.0,2.8828,-0.25,9.1244,0.0099,-0.035,-0.1385,-1.6597315273680628,-0.11192170530557632,2.292698383331299,-1.7013121843338013,0.03605462238192558,2.2304413318634033,4.517770453090332,0.0035695601254701614,0.362213671207428,-1.451853100453512,-0.000934473006054759,-0.10945891588926315,0.5836825966835022,0.00030379233066923916,0.0789334699511528,1.1521884202957153,-0.0037528660614043474,-0.13222527503967285
241.0,391.0,2.8828,-0.25,9.1244,0.0099,-0.035,-0.1385,-1.6604110203185023,-0.10585597157478333,2.318652868270874,-1.7011204957962036,0.04777387157082558,2.2862696647644043,4.517770453090332,0.004725363105535507,0.3569529950618744,-1.451897923146383,-0.0024377387017011642,-0.12303023040294647,0.5837429165840149,0.0003033550747204572,0.06511208415031433,1.1521729230880737,-0.004158485680818558,-0.11428331583738327
241.0,391.0,2.8828,-0.25,9.1244,0.0099,-0.035,-0.1385,-1.661110063592428,-0.09847225248813629,2.338205575942993,-1.700852394104004,0.05866124480962753,2.258007526397705,4.517810030574463,0.00364382634870708,0.3624771237373352,-1.4518855253802698,-0.003930372651666403,-0.12965717911720276,0.583755612373352,0.0002855042112059891,0.06759491562843323,1.1521527767181396,-0.00307742552831769,-0.08984916657209396
241.0,391.0,2.8828,-0.25,9.1244,0.0099,-0.035,-0.1385,-1.6615048847594203,-0.0938234031200409,2.337952136993408,-1.700605034828186,0.06302401423454285,2.265397787094116,4.517805739040039,0.002506798831745982,0.3698168396949768,-1.4519293943988245,-0.005366520024836063,-0.11683692038059235,0.5837153792381287,0.0003845378814730793,0.06639987230300903,1.1521525382995605,-0.002066221321001649,-0.07526969909667969
241.0,391.0,2.8828,-0.25,9.1244,0.0099,-0.035,-0.1385,-1.6620718441405238,-0.09279530495405197,2.414280891418457,-1.7002242803573608,0.06580179929733276,2.2594969272613525,4.517781897182129,0.0009899287251755595,0.3689640760421753,-1.451960865651266,-0.007986944168806076,-0.13521578907966614,0.58371901512146,0.00030932915979065,0.05622759461402893,1.1521282196044922,-0.0010160168167203665,-0.06760740280151367
241.0,391.0,2.8828,-0.25,9.1244,0.0099,-0.035,-0.1385,-1.6627117596068324,-0.09971633553504944,2.3588504791259766,-1.699840784072876,0.06447502225637436,2.2630343437194824,4.517766161555908,0.0005950807826593518,0.36478298902511597,-1.4519646803485315,-0.004543885588645935,-0.12906818091869354,0.58371901512146,0.0003041551972273737,0.08241767436265945,1.152116298675537,-0.0008468964952044189,-0.09128488600254059
248.0,505.0,2.9701,-1.0451,8.284,-0.0443,-0.0237,-0.1315,-1.663279195825094,-0.10966863483190536,2.2811193466186523,-1.6994284391403198,0.06326108425855637,2.2369353771209717,4.517770453090332,0.00034077628515660763,0.3748331069946289,-1.451956574116842,-0.0016343888128176332,-0.13957487046718597,0.5837551355361938,0.0002627698122523725,0.07723668217658997,1.1521323919296265,-0.0007444024668075144,-0.1049327403306961
248.0,505.0,2.9701,-1.0451,8.284,-0.0443,-0.0237,-0.1315,-1.6638695202269496,-0.11667358875274658,2.2957963943481445,-1.6990561485290527,0.06641719490289688,2.2720346450805664,4.517749949092529,0.00026527466252446175,0.37642478942871094,-1.451972786580221,-0.0007128805737011135,-0.13952788710594177,0.583767294883728,0.0002668228989932686,0.07581869512796402,1.1521047353744507,-0.0023960131220519543,-0.09670136868953705
248.0,505.0,2.9701,-1.0451,8.284,-0.0443,-0.0237,-0.1315,-1.6642943821349085,-0.11566001921892166,2.2895901203155518,-1.6987448930740356,0.0718478411436081,2.231929302215576,4.517786188716553,0.0002311819262104109,0.3735480010509491,-1.451932732258932,-0.0005406750133261085,-0.13289475440979004,0.5836625695228577,0.0002465583092998713,0.07136804610490799,1.152072548866272,-0.0031859995797276497,-0.10017510503530502
