ramyac6/ROB537/final_project/csv/all/good_207.csv
tof_0,tof_1,accelx,accely,accelz,gyrox,gyroy,gyroz,shoulder_lift_joint_position,shoulder_lift_joint_velocity,shoulder_lift_joint_effort,elbow_joint_position,elbow_joint_velocity,elbow_joint_effort,wrist_1_joint_position,wrist_1_joint_velocity,wrist_1_joint_effort,wrist_2_joint_position,wrist_2_joint_velocity,wrist_2_joint_effort,wrist_3_joint_position,wrist_3_joint_velocity,wrist_3_joint_effort,shoulder_pan_joint_position,shoulder_pan_joint_velocity,shoulder_pan_joint_effort
137.0,198.0,5.4969,-2.8959,6.8704,-0.0389,0.0228,-0.1277,-1.7988325558104457,0.0,3.133270025253296,-1.2321465015411377,-0.0,2.170799970626831,3.839928312892578,-0.0,0.26671522855758667,-1.4583748022662562,-0.0,-0.028839843347668648,1.0505335330963135,0.0,0.004213616717606783,1.0880427360534668,0.0,-0.0013875346630811691
137.0,198.0,5.4969,-2.8959,6.8704,-0.0389,0.0228,-0.1277,-1.7988482914366664,0.0,3.203139305114746,-1.232114553451538,-0.0,2.177744150161743,3.8398477274128417,-0.0,0.2734416723251343,-1.4583867231952112,-0.0,-0.006125722546130419,1.0504851341247559,0.0,-0.00020152749493718147,1.088066816329956,0.0,0.021549096331000328
137.0,198.0,5.4969,-2.8959,6.8704,-0.0389,0.0228,-0.1277,-1.798823972741598,0.0,3.1929216384887695,-1.232114553451538,-0.0,2.1829779148101807,3.8399273592182617,-0.0,0.27062147855758667,-1.4584110418902796,-0.0,-0.022888975217938423,1.0505812168121338,0.0,-0.0006369082257151604,1.0880385637283325,0.0,-0.037329401820898056
137.0,198.0,5.4969,-2.8959,6.8704,-0.0389,0.0228,-0.1277,-1.7988244495787562,0.0,3.0996181964874268,-1.232106328010559,-0.0,2.1861412525177,3.8399202066608886,-0.0,0.274541437625885,-1.4583705107318323,-0.0,-0.01203148253262043,1.0505176782608032,0.0,-0.005389502737671137,1.0880746841430664,0.0,-0.014554372057318687
137.0,198.0,5.4969,-2.8959,6.8704,-0.0389,0.0228,-0.1277,-1.7988082371153773,0.0,3.190079689025879,-1.2321503162384033,-0.0,2.211214780807495,3.8398920732685546,-0.0,0.26904454827308655,-1.458419148121969,-0.0,-0.016897620633244514,1.050541639328003,0.0,-0.010589203797280788,1.0880827903747559,0.0,-0.05239591747522354
137.0,198.0,5.4969,-2.8959,6.8704,-0.0389,0.0228,-0.1277,-1.7988325558104457,0.0,3.1253981590270996,-1.2321186065673828,-0.0,2.147853136062622,3.839827700252197,-0.0,0.27488973736763,-1.4584186712848108,-0.0,-0.010613776743412018,1.0505295991897583,0.0,-0.0070319585502147675,1.0880508422851562,0.0,0.012925995513796806
137.0,198.0,5.4969,-2.8959,6.8704,-0.0389,0.0228,-0.1277,-1.7988282642760218,0.0,3.1534929275512695,-1.232142448425293,-0.0,2.159363269805908,3.8399039941975097,-0.0,0.2707958221435547,-1.4583624045001429,-0.0,-0.02535754069685936,1.0505374670028687,0.0,-0.0013195679057389498,1.0880227088928223,0.0,-0.024914680048823357
135.0,197.0,5.5932,-2.8863,6.9177,-0.0414,0.0255,-0.113,-1.7988525829710902,0.0,3.1752817630767822,-1.2321181297302246,-0.0,2.2095038890838623,3.839948816890381,-0.0,0.25314319133758545,-1.4583705107318323,-0.0,-0.040885381400585175,1.0506415367126465,0.0,-0.014499149285256863,1.088083267211914,0.0,-0.03743591904640198
135.0,197.0,5.5932,-2.8863,6.9177,-0.0414,0.0255,-0.113,-1.7987877331175746,0.0,3.1861157417297363,-1.232154369354248,-0.0,2.1394753456115723,3.839899702663086,-0.0,0.27506130933761597,-1.4583948294269007,-0.0,-0.026783045381307602,1.0505852699279785,0.0,-0.0050793420523405075,1.0880827903747559,0.0,-0.024462977424263954
135.0,197.0,5.5932,-2.8863,6.9177,-0.0414,0.0255,-0.113,-1.7988244495787562,0.0,3.146427631378174,-1.2320945262908936,-0.0,2.1530404090881348,3.8399039941975097,-0.0,0.2666057348251343,-1.4583991209613245,-0.0,-0.019165586680173874,1.0505971908569336,0.0,0.0012667994014918804,1.0880746841430664,0.0,-0.007724649738520384
135.0,197.0,5.5932,-2.8863,6.9177,-0.0414,0.0255,-0.113,-1.798840662042135,0.0,3.228654384613037,-1.23209810256958,-0.0,2.210211753845215,3.8399039941975097,-0.0,0.2722283601760864,-1.4584272543536585,-0.0,-0.02220905013382435,1.0505493879318237,0.0,-0.002088704612106085,1.0880705118179321,0.0,0.012832742184400558
135.0,197.0,5.5932,-2.8863,6.9177,-0.0414,0.0255,-0.113,-1.798812051812643,0.0,3.135646343231201,-1.2321021556854248,-0.0,2.1467833518981934,3.839932604427002,-0.0,0.27739423513412476,-1.4583786169635218,-0.0,-0.016337405890226364,1.0505011081695557,0.0,0.0074233403429389,1.0880545377731323,0.0,0.007345475256443024
135.0,197.0,5.5932,-2.8863,6.9177,-0.0414,0.0255,-0.113,-1.7988282642760218,0.0,3.152271270751953,-1.2320865392684937,-0.0,2.156191349029541,3.8398710924335937,-0.0,0.26987913250923157,-1.4584391752826136,-0.0,-0.008495345711708069,1.0505298376083374,0.0,0.000700394855812192,1.0880910158157349,0.0,0.021158292889595032
135.0,197.0,5.5932,-2.8863,6.9177,-0.0414,0.0255,-0.113,-1.7987920246519984,0.0,3.1594929695129395,-1.2321062088012695,-0.0,2.17149019241333,3.8399244981953125,-0.0,0.2775774896144867,-1.458419148121969,-0.0,-0.03625749796628952,1.0505415201187134,0.0,-0.008922789245843887,1.088014006614685,0.0,-0.014265362173318863
135.0,197.0,5.5932,-2.8863,6.9177,-0.0414,0.0255,-0.113,-1.7988645039000453,0.0,3.153275966644287,-1.2321345806121826,-0.0,2.146796941757202,3.8398477274128417,-0.0,0.26646310091018677,-1.4583705107318323,-0.0,-0.016749728471040726,1.0505534410476685,0.0,0.005486394744366407,1.0880787372589111,0.0,-0.021828189492225647
135.0,197.0,5.5932,-2.8863,6.9177,-0.0414,0.0255,-0.113,-1.7988201580443324,0.0,3.162989616394043,-1.232130527496338,-0.0,2.1647109985351562,3.839916391963623,-0.0,0.2713403105735779,-1.4583666960345667,-0.0,-0.007808093447238207,1.0505335330963135,0.0,0.003583198646083474,1.0880746841430664,0.0,0.025519296526908875
135.0,197.0,5.5932,-2.8863,6.9177,-0.0414,0.0255,-0.113,-1.7988363705077113,0.0,3.2128028869628906,-1.232215166091919,-0.0,2.1527042388916016,3.839899702663086,-0.0,0.27183079719543457,-1.458391014729635,-0.0,-0.028459109365940094,1.0505374670028687,0.0,0.002692433074116707,1.0880705118179321,0.0,0.0360979400575161
135.0,197.0,5.5932,-2.8863,6.9177,-0.0414,0.0255,-0.113,-1.7988206348814906,0.0,3.126824378967285,-1.232187271118164,-0.0,2.143813133239746,3.8399039941975097,-0.0,0.2767530381679535,-1.4583867231952112,-0.0,-0.006463910453021526,1.0505374670028687,0.0,-0.005725739989429712,1.0880627632141113,0.0,0.021851705387234688
135.0,197.0,5.5932,-2.8863,6.9177,-0.0414,0.0255,-0.113,-1.7988082371153773,0.0,3.1369829177856445,-1.2321585416793823,-0.0,2.167116641998291,3.839859648341797,-0.0,0.2767478823661804,-1.4583867231952112,-0.0,-0.008578244596719742,1.0505616664886475,0.0,-0.000293550081551075,1.0880545377731323,0.0,0.00649660499766469
135.0,191.0,5.4509,-2.8624,6.9649,-0.0406,0.0293,-0.1216,-1.7987996540465296,0.0,3.1651206016540527,-1.2321585416793823,-0.0,2.2164719104766846,3.8398677545734863,-0.0,0.27896788716316223,-1.4584153334247034,-0.0,-0.025094598531723022,1.0505692958831787,0.0,-0.00746476836502552,1.088066816329956,0.0,-0.019476627930998802
135.0,191.0,5.4509,-2.8624,6.9649,-0.0406,0.0293,-0.1216,-1.7988244495787562,0.0,3.1735453605651855,-1.2321465015411377,-0.0,2.129204034805298,3.839912100429199,-0.0,0.28329193592071533,-1.4583624045001429,-0.0,0.008948912844061852,1.0506210327148438,0.0,0.0053515350446105,1.0880950689315796,0.0,-0.008356551639735699
135.0,191.0,5.4509,-2.8624,6.9649,-0.0406,0.0293,-0.1216,-1.798795839349264,0.0,3.1739721298217773,-1.2321382761001587,-0.0,2.1496706008911133,3.8398515421101074,-0.0,0.26663506031036377,-1.4583948294269007,-0.0,-0.010401910170912743,1.050585150718689,0.0,0.005777505226433277,1.0880705118179321,0.0,0.05504839867353439
135.0,191.0,5.4509,-2.8624,6.9649,-0.0406,0.0293,-0.1216,-1.798795839349264,0.0,3.1315784454345703,-1.2321666479110718,-0.0,2.174039840698242,3.8398234087177734,-0.0,0.26786553859710693,-1.4584034124957483,-0.0,-0.015883784741163254,1.0506294965744019,0.0,-0.003781048348173499,1.0880868434906006,0.0,-0.014525102451443672
135.0,191.0,5.4509,-2.8624,6.9649,-0.0406,0.0293,-0.1216,-1.798779626885885,0.0,3.1502268314361572,-1.2321585416793823,-0.0,2.168773651123047,3.8399202066608886,-0.0,0.26817527413368225,-1.458407227193014,-0.0,-0.013071754947304726,1.050585150718689,0.0,0.0075975628569722176,1.0880587100982666,0.0,0.044397931545972824
135.0,191.0,5.4509,-2.8624,6.9649,-0.0406,0.0293,-0.1216,-1.798840185204977,0.0,3.1770899295806885,-1.2321219444274902,-0.0,2.1881418228149414,3.8399202066608886,-0.0,0.2839816212654114,-1.4583867231952112,-0.0,-0.015202043578028679,1.0505255460739136,0.0,-0.0004327204078435898,1.0880587100982666,1.0635028968586369e-10,-0.02519407495856285
135.0,191.0,5.4509,-2.8624,6.9649,-0.0406,0.0293,-0.1216,-1.7988325558104457,0.0,3.12815523147583,-1.232162594795227,-0.0,2.15380597114563,3.8399078088947753,-0.0,0.27215445041656494,-1.4583585898028772,-0.0,-0.009936775080859661,1.0505653619766235,0.0,-0.007106262259185314,1.0880587100982666,2.5682346010193766e-16,-0.006080057471990585
135.0,191.0,5.4509,-2.8624,6.9649,-0.0406,0.0293,-0.1216,-1.798812051812643,0.0,3.1389007568359375,-1.232130527496338,-0.0,2.2014708518981934,3.839859648341797,-0.0,0.26943692564964294,-1.4584272543536585,-0.0,-0.015901295468211174,1.050513744354248,0.0,0.01090464647859335,1.0880950689315796,-9.821324056247249e-05,-0.0021219924092292786
135.0,191.0,5.4509,-2.8624,6.9649,-0.0406,0.0293,-0.1216,-1.7988206348814906,0.0,3.1411705017089844,-1.2321505546569824,-0.0,2.167738199234009,3.839883490199707,-0.0,0.2690151333808899,-1.4583824316607874,-0.0,-0.008527344092726707,1.0505335330963135,0.0,-0.009372078813612461,1.0880705118179321,-2.8576057502505137e-06,0.0005956501699984074
135.0,191.0,5.4509,-2.8624,6.9649,-0.0406,0.0293,-0.1216,-1.7987877331175746,0.0,3.136399745941162,-1.232142448425293,-0.0,2.1426758766174316,3.8398758608051757,-0.0,0.2563977539539337,-1.4583867231952112,-0.0,-0.008136809803545475,1.0506129264831543,0.0,0.000945681007578969,1.0880869626998901,-6.90078116177828e-12,-0.004182590637356043
135.0,191.0,5.4509,-2.8624,6.9649,-0.0406,0.0293,-0.1216,-1.79876770595693,0.0,3.18635630607605,-1.2321505546569824,-0.0,2.183530569076538,3.8399202066608886,-0.0,0.2669554352760315,-1.4583824316607874,-0.0,-0.008042731322348118,1.0505573749542236,0.0,-0.011697201058268547,1.0880587100982666,-2.2357657981542647e-19,-0.010094849392771721
135.0,191.0,5.4509,-2.8624,6.9649,-0.0406,0.0293,-0.1216,-1.7988282642760218,0.0,3.1437463760375977,-1.2321667671203613,-0.0,2.187441349029541,3.8398801523395996,-0.0,0.27428993582725525,-1.4583824316607874,-0.0,-0.007831936702132225,1.0505534410476685,0.0,-0.015125573612749577,1.0880587100982666,-7.243597395279344e-27,0.015539564192295074
137.0,197.0,5.6166,-2.8367,6.856,-0.0383,0.0232,-0.1133,-1.7988082371153773,0.0,3.161186695098877,-1.2321264743804932,-0.0,2.1470367908477783,3.8398758608051757,-0.0,0.25900378823280334,-1.458419148121969,-0.0,-0.01690274477005005,1.0505136251449585,1.5452854995601228e-07,-0.00229999260045588,1.0880869626998901,-2.3468336046209067e-34,-0.008668138645589352
137.0,197.0,5.6166,-2.8367,6.856,-0.0383,0.0232,-0.1133,-1.7988606892027796,0.0,3.138723850250244,-1.232130527496338,-0.0,2.1651954650878906,3.839860125178955,-0.0,0.2729690968990326,-1.458407227193014,-0.0,-0.022027509286999702,1.0505216121673584,4.301359615710432e-11,-0.0069183651357889175,1.0880143642425537,-5.667327431207431e-40,0.034557800740003586
137.0,197.0,5.6166,-2.8367,6.856,-0.0383,0.0232,-0.1133,-1.7988039455809535,0.0,3.180678129196167,-1.232114553451538,-0.0,2.1867685317993164,3.8398801523395996,-0.0,0.26437461376190186,-1.4583991209613245,-0.0,-0.012304575182497501,1.0506013631820679,5.540649112845131e-07,-0.006294211372733116,1.0880467891693115,-0.0,-0.04568247124552727
137.0,197.0,5.6166,-2.8367,6.856,-0.0383,0.0232,-0.1133,-1.7988206348814906,0.0,3.175933837890625,-1.2321261167526245,-0.0,2.194885730743408,3.839887781734131,-0.0,0.2727213203907013,-1.4584034124957483,-0.0,-0.018277877941727638,1.0505454540252686,1.0069855539696082e-11,-0.00031015113927423954,1.0880746841430664,0.0,-0.006675599608570337
137.0,197.0,5.6166,-2.8367,6.856,-0.0383,0.0232,-0.1133,-1.798812051812643,0.0,3.17152738571167,-1.23209810256958,-0.0,2.203920364379883,3.8398915964313964,-0.0,0.28193899989128113,-1.4583948294269007,-0.0,-0.024352431297302246,1.0504813194274902,2.8029815237796702e-15,-0.0023484397679567337,1.0880427360534668,0.0,0.012656139209866524
137.0,197.0,5.6166,-2.8367,6.856,-0.0383,0.0232,-0.1133,-1.7988244495787562,0.0,3.1305055618286133,-1.232150673866272,-0.0,2.2058145999908447,3.839923544520996,-0.0,0.2887086868286133,-1.4584153334247034,-0.0,-0.010369143448770046,1.0505415201187134,5.0942796903479047e-20,-0.01383330300450325,1.0880463123321533,0.0,-0.01001499779522419
137.0,197.0,5.6166,-2.8367,6.856,-0.0383,0.0232,-0.1133,-1.7987963161864222,0.0,3.141296863555908,-1.232130765914917,-0.0,2.178877115249634,3.8398639398762207,-0.0,0.2752976417541504,-1.4584153334247034,-0.0,-0.012227369472384453,1.050585150718689,9.258601106556424e-25,-0.0054868487641215324,1.0880868434906006,0.0,-0.014718003571033478
137.0,197.0,5.6166,-2.8367,6.856,-0.0383,0.0232,-0.1133,-1.7988244495787562,0.0,3.1477041244506836,-1.2321791648864746,-0.0,2.124279737472534,3.839887781734131,-0.0,0.27593815326690674,-1.4583585898028772,-0.0,-0.021192055195569992,1.0505374670028687,1.6827051544902333e-29,-0.004159062169492245,1.0881072282791138,0.0,-0.021286435425281525
137.0,197.0,5.6166,-2.8367,6.856,-0.0383,0.0232,-0.1133,-1.7988206348814906,0.0,3.20993709564209,-1.232134222984314,-0.0,2.2009871006011963,3.8398195940205078,-0.0,0.27640336751937866,-1.4583786169635218,-0.0,-0.013714179396629333,1.0505653619766235,4.683872586234579e-33,-0.0013855602592229843,1.0880705118179321,0.0,-0.005313635803759098
137.0,197.0,5.6166,-2.8367,6.856,-0.0383,0.0232,-0.1133,-1.7987920246519984,0.0,3.145512580871582,-1.2321709394454956,-0.0,2.157144784927368,3.8399359422871093,-0.0,0.28692224621772766,-1.4583948294269007,-0.0,-0.01549402717500925,1.050513744354248,8.512707123011673e-38,-0.0008889460004866123,1.0880545377731323,0.0,-0.006023894529789686
137.0,197.0,5.6166,-2.8367,6.856,-0.0383,0.0232,-0.1133,-1.7987996540465296,0.0,3.1403727531433105,-1.2321627140045166,-0.0,2.1868436336517334,3.839859648341797,-0.0,0.28629598021507263,-1.458391014729635,-0.0,-0.025562958791851997,1.0505415201187134,1.547033504614598e-42,-0.00791576411575079,1.0880545377731323,0.0,-0.013875788077712059
137.0,197.0,5.6166,-2.8367,6.856,-0.0383,0.0232,-0.1133,-1.798779626885885,0.0,3.144225597381592,-1.2321864366531372,-0.0,2.167814254760742,3.8398796755024414,-0.0,0.29679471254348755,-1.4584034124957483,-0.0,-0.006881502456963062,1.0505096912384033,0.0,0.0017927989829331636,1.08809494972229,0.0,0.023827044293284416
135.0,201.0,5.6166,-2.7781,6.6832,-0.0415,0.0292,-0.1219,-1.7987882099547328,0.0,3.148632526397705,-1.2321062088012695,-0.0,2.17588472366333,3.839871569270752,-0.0,0.28181973099708557,-1.4584434668170374,-0.0,-0.01670091785490513,1.0505454540252686,0.0,-0.0022376610431820154,1.088030457496643,0.0,0.02214382216334343
135.0,201.0,5.6166,-2.7781,6.6832,-0.0415,0.0292,-0.1219,-1.7988206348814906,0.0,3.1258437633514404,-1.2321462631225586,-0.0,2.196441411972046,3.8399039941975097,-0.0,0.2803475558757782,-1.458391014729635,-0.0,-0.01109115220606327,1.0505732297897339,0.0,0.003217873629182577,1.0880427360534668,0.0,0.04116396605968475
135.0,201.0,5.6166,-2.7781,6.6832,-0.0415,0.0292,-0.1219,-1.798812051812643,0.0,3.1231045722961426,-1.23209810256958,-0.0,2.167543888092041,3.839895411128662,-0.0,0.2750122845172882,-1.458419148121969,-0.0,-0.013851922005414963,1.0505573749542236,0.0,-0.010210570879280567,1.0881073474884033,0.0,0.057200368493795395
135.0,201.0,5.6166,-2.7781,6.6832,-0.0415,0.0292,-0.1219,-1.7988764248290003,0.0,3.1192305088043213,-1.2321667671203613,-0.0,2.2074403762817383,3.839887781734131,-0.0,0.2761574983596802,-1.4584115187274378,-0.0,-0.022598877549171448,1.050553321838379,0.0,0.013076242990791798,1.0880827903747559,0.0,0.015462798997759819
135.0,201.0,5.6166,-2.7781,6.6832,-0.0415,0.0292,-0.1219,-1.798812051812643,0.0,3.1848788261413574,-1.2321264743804932,-0.0,2.1909992694854736,3.839887781734131,-0.0,0.2681735157966614,-1.4584429899798792,-0.0,-0.01867174729704857,1.0505415201187134,0.0,-0.0018675713799893856,1.0880751609802246,0.0,0.004273888189345598
135.0,201.0,5.6166,-2.7781,6.6832,-0.0415,0.0292,-0.1219,-1.7988282642760218,0.0,3.1556406021118164,-1.232142448425293,-0.0,2.1434385776519775,3.8398358064838867,-0.0,0.2758457064628601,-1.4583991209613245,-0.0,-0.013393176719546318,1.0505890846252441,0.0,-0.003663059789687395,1.088066816329956,0.0,-0.007954761385917664
135.0,201.0,5.6166,-2.7781,6.6832,-0.0415,0.0292,-0.1219,-1.7987519703307093,0.0,3.1173477172851562,-1.2321105003356934,-0.0,2.2378718852996826,3.8398920732685546,-0.0,0.26748722791671753,-1.4583786169635218,-0.0,-0.0043541984632611275,1.0505534410476685,0.0,0.004788481164723635,1.0880910158157349,0.0,0.015062534250319004
135.0,201.0,5.6166,-2.7781,6.6832,-0.0415,0.0292,-0.1219,-1.798840662042135,0.0,3.169698476791382,-1.23209810256958,-0.0,2.172714948654175,3.839944048518799,-0.0,0.27382904291152954,-1.4584034124957483,-0.0,-0.013990466482937336,1.050513744354248,0.0,-0.012493684887886047,1.0880910158157349,0.0,0.010463863611221313
135.0,201.0,5.6166,-2.7781,6.6832,-0.0415,0.0292,-0.1219,-1.7988244495787562,0.0,3.1343488693237305,-1.232150673866272,-0.0,2.1920084953308105,3.8398920732685546,-0.0,0.26933470368385315,-1.4583748022662562,-0.0,-0.02272920124232769,1.0505613088607788,0.0,-0.010968689806759357,1.0880705118179321,0.0,0.016703249886631966
135.0,201.0,5.6166,-2.7781,6.6832,-0.0415,0.0292,-0.1219,-1.7988325558104457,0.0,3.117814064025879,-1.2321264743804932,-0.0,2.170412540435791,3.839899702663086,-0.0,0.280333936214447,-1.4583423773394983,-0.0,-0.008734055794775486,1.0505732297897339,0.0,-0.0017796058673411608,1.0880910158157349,0.0,0.010736902244389057
135.0,201.0,5.6166,-2.7781,6.6832,-0.0415,0.0292,-0.1219,-1.79882874111318,0.0,3.147402763366699,-1.2321264743804932,-0.0,2.1608786582946777,3.8399078088947753,-0.0,0.27004554867744446,-1.458407227193014,-0.0,-0.02346530184149742,1.0505692958831787,0.0,-0.0038675672840327024,1.0880627632141113,0.0,0.007353455759584904
135.0,201.0,5.6166,-2.7781,6.6832,-0.0415,0.0292,-0.1219,-1.7988363705077113,0.0,3.191068410873413,-1.2320863008499146,-0.0,2.213057279586792,3.839916391963623,-0.0,0.269475519657135,-1.458391014729635,-0.0,-0.03167102113366127,1.0505415201187134,0.0,-0.0031368143390864134,1.0880746841430664,0.0,-0.04170086234807968
134.0,200.0,5.5878,-2.8612,6.8303,-0.0434,0.0218,-0.1208,-1.7988602123656214,0.0,3.139099597930908,-1.2321546077728271,-0.0,2.1720170974731445,3.8398801523395996,-0.0,0.27911311388015747,-1.4584067503558558,-0.0,-0.011899860575795174,1.0505732297897339,0.0,-0.011029791086912155,1.0880627632141113,0.0,-0.02947884425520897
134.0,200.0,5.5878,-2.8612,6.8303,-0.0434,0.0218,-0.1208,-1.7988082371153773,0.0,3.1650917530059814,-1.2321382761001587,-0.0,2.1673152446746826,3.8398796755024414,-0.0,0.276166170835495,-1.4584115187274378,-0.0,-0.008210182189941406,1.0505375862121582,0.0,-0.009920058771967888,1.0880545377731323,0.0,0.004009552299976349
134.0,200.0,5.5878,-2.8612,6.8303,-0.0434,0.0218,-0.1208,-1.7987963161864222,0.0,3.113095283508301,-1.232154369354248,-0.0,2.1553092002868652,3.8398758608051757,-0.0,0.2712131142616272,-1.4584310690509241,-0.0,-0.018010685220360756,1.050521731376648,0.0,-0.0011838898062705994,1.0880746841430664,0.0,-0.0027584920171648264
134.0,200.0,5.5878,-2.8612,6.8303,-0.0434,0.0218,-0.1208,-1.7987877331175746,0.0,3.134519100189209,-1.232130527496338,-0.0,2.228101968765259,3.8398677545734863,-0.0,0.2700837254524231,-1.4583948294269007,-0.0,-0.005977260880172253,1.0505295991897583,0.0,-0.011192542500793934,1.0880104303359985,0.0,0.0005839730147272348
134.0,200.0,5.5878,-2.8612,6.8303,-0.0434,0.0218,-0.1208,-1.798795839349264,0.0,3.141270875930786,-1.2321382761001587,-0.0,2.171682834625244,3.8398958879658203,-0.0,0.27934426069259644,-1.4583624045001429,-0.0,-0.008293011225759983,1.0505810976028442,0.0,-0.012958446517586708,1.0880587100982666,0.0,0.004270150326192379
134.0,200.0,5.5878,-2.8612,6.8303,-0.0434,0.0218,-0.1208,-1.7988282642760218,0.0,3.1234779357910156,-1.2321105003356934,-0.0,2.208887815475464,3.839932604427002,-0.0,0.28050580620765686,-1.4583867231952112,-0.0,-0.016382012516260147,1.0505573749542236,0.0,-0.015999948605895042,1.0880746841430664,0.0,-0.033374086022377014
134.0,200.0,5.5878,-2.8612,6.8303,-0.0434,0.0218,-0.1208,-1.7988201580443324,0.0,3.1644535064697266,-1.232142448425293,-0.0,2.196305274963379,3.8399078088947753,-0.0,0.28596800565719604,-1.4583824316607874,-0.0,0.003371895058080554,1.0505335330963135,0.0,-0.010569591075181961,1.0880587100982666,0.0,-0.04266916960477829
134.0,200.0,5.5878,-2.8612,6.8303,-0.0434,0.0218,-0.1208,-1.7988325558104457,0.0,3.171947956085205,-1.232190489768982,-0.0,2.209101676940918,3.839871569270752,-0.0,0.27874115109443665,-1.4584110418902796,-0.0,-0.015279959887266159,1.0505295991897583,0.0,0.007569108158349991,1.0880787372589111,0.0,-0.00583866611123085
134.0,200.0,5.5878,-2.8612,6.8303,-0.0434,0.0218,-0.1208,-1.7988244495787562,0.0,3.177521228790283,-1.2321341037750244,-0.0,2.2034120559692383,3.8399202066608886,-0.0,0.28351888060569763,-1.4583666960345667,-0.0,-0.023167841136455536,1.0504846572875977,0.0,-0.005895620211958885,1.0880550146102905,0.0,-0.01704762503504753
134.0,200.0,5.5878,-2.8612,6.8303,-0.0434,0.0218,-0.1208,-1.7988244495787562,0.0,3.187741279602051,-1.2320903539657593,-0.0,2.169041872024536,3.839888258571289,-0.0,0.26875200867652893,-1.458419148121969,-0.0,-0.022555643692612648,1.0505850315093994,0.0,0.003915271256119013,1.0880467891693115,0.0,0.024855773895978928
134.0,200.0,5.5878,-2.8612,6.8303,-0.0434,0.0218,-0.1208,-1.7988282642760218,0.0,3.162980079650879,-1.232170820236206,-0.0,2.1881470680236816,3.8398801523395996,-0.0,0.2846517562866211,-1.458435360585348,-0.0,-0.005303764715790749,1.050513744354248,0.0,0.001837175921536982,1.088050365447998,0.0,0.002088702516630292
134.0,200.0,5.5878,-2.8612,6.8303,-0.0434,0.0218,-0.1208,-1.7988444767394007,0.0,3.1613550186157227,-1.2321465015411377,-0.0,2.1891603469848633,3.8398920732685546,-0.0,0.27114439010620117,-1.4583991209613245,-0.0,0.004749416373670101,1.0505890846252441,0.0,0.0005921996780671179,1.0880385637283325,0.0,0.004845511168241501
134.0,200.0,5.5878,-2.8612,6.8303,-0.0434,0.0218,-0.1208,-1.7987915478148402,0.0,3.13923716545105,-1.232198715209961,-0.0,2.1868934631347656,3.8398920732685546,-0.0,0.28329819440841675,-1.4584110418902796,-0.0,-0.016908088698983192,1.0505653619766235,0.0,-0.011561921797692776,1.0880746841430664,0.0,0.027606001123785973
136.0,192.0,5.6806,-3.0305,6.6598,-0.0272,0.0263,-0.113,-1.7988764248290003,0.0,3.1800436973571777,-1.2321301698684692,-0.0,2.1834683418273926,3.839887781734131,-0.0,0.27202659845352173,-1.458391014729635,-0.0,-0.005631187465041876,1.0505295991897583,0.0,-0.012175693176686764,1.0880910158157349,0.0,0.021931316703557968
136.0,192.0,5.6806,-3.0305,6.6598,-0.0272,0.0263,-0.113,-1.7987915478148402,0.0,3.1593103408813477,-1.232142686843872,-0.0,2.165935516357422,3.839887781734131,-0.0,0.2791935205459595,-1.4583590666400355,-0.0,-0.005119286943227053,1.0505058765411377,0.0,-0.004404193721711636,1.0880385637283325,0.0,0.016193903982639313
136.0,192.0,5.6806,-3.0305,6.6598,-0.0272,0.0263,-0.113,-1.7988325558104457,0.0,3.161740779876709,-1.2321021556854248,-0.0,2.1727328300476074,3.839912100429199,-0.0,0.2844436764717102,-1.458419148121969,-0.0,-0.010209443047642708,1.0505732297897339,0.0,-0.0008554793894290924,1.088103175163269,0.0,0.039645031094551086
136.0,192.0,5.6806,-3.0305,6.6598,-0.0272,0.0263,-0.113,-1.7988163433470667,2.15055573349332e-09,3.1842079162597656,-1.23207426071167,-0.0,2.176422595977783,3.8399202066608886,-0.0,0.26084667444229126,-1.458391014729635,-0.0,-0.011724228039383888,1.0505573749542236,0.0,-0.004336966667324305,1.0880910158157349,0.0,0.01737208664417267
136.0,192.0,5.6806,-3.0305,6.6598,-0.0272,0.0263,-0.113,-1.7988082371153773,6.967527587991364e-17,3.127209186553955,-1.2321748733520508,-0.0,2.168004035949707,3.839912100429199,-0.0,0.2683292031288147,-1.4583867231952112,-0.0,-0.01865914650261402,1.050597071647644,0.0,-0.004522501956671476,1.0880746841430664,0.0,0.036770548671483994
136.0,192.0,5.6806,-3.0305,6.6598,-0.0272,0.0263,-0.113,-1.7988206348814906,1.6825759397865521e-22,3.1371827125549316,-1.2320903539657593,-0.0,2.208479642868042,3.8399078088947753,-0.0,0.28720641136169434,-1.4584310690509241,-0.0,-0.0026255063712596893,1.0505216121673584,0.0,-0.018168341368436813,1.0880545377731323,0.0,-0.014956564642488956
136.0,192.0,5.6806,-3.0305,6.6598,-0.0272,0.0263,-0.113,-1.798812051812643,5.4513322943677264e-30,3.142519235610962,-1.232142448425293,-0.0,2.1974711418151855,3.839883490199707,-0.0,0.2814028263092041,-1.4583991209613245,-0.0,-0.005701002664864063,1.0505256652832031,0.0,-0.002697146264836192,1.0880950689315796,0.0,0.0013650385662913322
136.0,192.0,5.6806,-3.0305,6.6598,-0.0272,0.0263,-0.113,-1.7988363705077113,1.766162504856347e-37,3.1265406608581543,-1.2321223020553589,-0.0,2.1799097061157227,3.839887781734131,-0.0,0.28321176767349243,-1.4584115187274378,-0.0,-0.01682124473154545,1.0505613088607788,0.0,-0.0017565141897648573,1.0880746841430664,0.0,0.011040115728974342
136.0,192.0,5.6806,-3.0305,6.6598,-0.0272,0.0263,-0.113,-1.798800607720846,5.605193857299268e-45,3.1203746795654297,-1.2321223020553589,-0.0,2.176621198654175,3.839928312892578,-0.0,0.2741904556751251,-1.458407227193014,-0.0,-0.016707396134734154,1.050565242767334,0.0,0.0028594781178981066,1.0880427360534668,0.0,-0.024141069501638412
136.0,192.0,5.6806,-3.0305,6.6598,-0.0272,0.0263,-0.113,-1.7987400494017542,0.0,3.1447839736938477,-1.2321226596832275,1.2541327123472001e-06,2.1982779502868652,3.8398629862019042,-0.0,0.2852065861225128,-1.4584310690509241,-0.0,-0.015666726976633072,1.0505295991897583,0.0,-0.005198829807341099,1.0880705118179321,0.0,0.017466502264142036
136.0,192.0,5.6806,-3.0305,6.6598,-0.0272,0.0263,-0.113,-1.7987758121886195,0.00019331244402565062,3.1414506435394287,-1.23207426071167,4.063230939319214e-14,2.1437249183654785,3.8398758608051757,-0.0,0.2751566469669342,-1.4584034124957483,-0.0,-0.010113918222486973,1.0505812168121338,0.0,0.0010685144225135446,1.0880705118179321,0.0,0.02032998763024807
136.0,192.0,5.6806,-3.0305,6.6598,-0.0272,0.0263,-0.113,-1.7987562618651332,0.00022901360352989286,3.179076671600342,-1.2321428060531616,1.3164350237356814e-21,2.203336000442505,3.8399078088947753,-0.0,0.2685371935367584,-1.4583705107318323,-0.0,-0.005079055670648813,1.0505856275558472,0.0,-0.015307256951928139,1.0880746841430664,0.0,0.06061398983001709
134.0,196.0,5.3252,-3.2668,7.0122,-0.0454,0.0333,-0.113,-1.7987152538695277,0.00046523386845365167,3.1596531867980957,-1.2321386337280273,3.1790356849238075e-27,2.2056005001068115,3.839899702663086,-0.0,0.2808071970939636,-1.4583824316607874,-0.0,-0.026805728673934937,1.0505294799804688,0.0,0.002293439581990242,1.0880869626998901,0.0,0.02145085483789444
134.0,196.0,5.3252,-3.2668,7.0122,-0.0454,0.0333,-0.113,-1.7987481556334437,0.0003952174447476864,3.1538333892822266,-1.2321465015411377,1.0299670022467863e-34,2.167530059814453,3.839919252986572,-0.0,0.28364360332489014,-1.4584110418902796,-0.0,-0.014808641746640205,1.0505415201187134,0.0,-0.010045448318123817,1.0880062580108643,0.0,0.017527397722005844
134.0,196.0,5.3252,-3.2668,7.0122,-0.0454,0.0333,-0.113,-1.7987882099547328,0.00030570419039577246,3.140627384185791,-1.2321027517318726,1.7773684248822974e-06,2.1688969135284424,3.8399244981953125,-0.0,0.2775452733039856,-1.4583748022662562,-0.0,-0.026391368359327316,1.0505653619766235,0.0,-0.002343856729567051,1.088046908378601,0.0,0.033167220652103424
134.0,196.0,5.3252,-3.2668,7.0122,-0.0454,0.0333,-0.113,-1.798755785027975,0.00024925507022999227,3.1728458404541016,-1.2321505546569824,7.818864833097905e-05,2.1961159706115723,3.8398515421101074,-0.0,0.2691512107849121,-1.4584067503558558,-0.0,-0.01564997062087059,1.050537347793579,0.0,0.0018265109974890947,1.0880587100982666,0.0,0.01408728864043951
134.0,196.0,5.3252,-3.2668,7.0122,-0.0454,0.0333,-0.113,-1.7988039455809535,0.0002189359365729615,3.1572015285491943,-1.2321021556854248,3.867151099257171e-05,2.191413402557373,3.8399078088947753,-0.0,0.28245997428894043,-1.458407227193014,-0.0,-0.013960959389805794,1.0505692958831787,0.0,-0.0026296316646039486,1.0880582332611084,0.0,0.013051423244178295
134.0,196.0,5.3252,-3.2668,7.0122,-0.0454,0.0333,-0.113,-1.7987920246519984,0.00015698630886618048,3.1529276371002197,-1.2321546077728271,2.9978462407598272e-05,2.1159920692443848,3.8398796755024414,-0.0,0.29990682005882263,-1.4584034124957483,-0.0,-0.017926838248968124,1.0505212545394897,0.0,-0.01215324830263853,1.0880868434906006,0.0,0.014290301129221916
134.0,196.0,5.3252,-3.2668,7.0122,-0.0454,0.0333,-0.113,-1.7987877331175746,0.0001377621229039505,3.155907154083252,-1.2321465015411377,8.247983025733152e-12,2.212400436401367,3.8399202066608886,-0.0,0.27037960290908813,-1.4584310690509241,-0.0,-0.02082030475139618,1.0505454540252686,0.0,-0.0032534662168473005,1.0880826711654663,0.0,0.018199853599071503
134.0,196.0,5.3252,-3.2668,7.0122,-0.0454,0.0333,-0.113,-1.7988039455809535,0.0001261739816982299,3.1512696743011475,-1.2321505546569824,1.9917908617152193e-17,2.1928775310516357,3.8398753839680175,-0.0,0.25570395588874817,-1.458419148121969,-0.0,-0.005655698012560606,1.0505253076553345,0.0,-0.0036970090586692095,1.0880709886550903,0.0,0.026914166286587715
134.0,196.0,5.3252,-3.2668,7.0122,-0.0454,0.0333,-0.113,-1.7987681827940882,0.00011344996892148629,3.1623945236206055,-1.232114553451538,6.453150417415652e-25,2.1547417640686035,3.839899702663086,-0.0,0.275716096162796,-1.4584272543536585,-1.255517112497273e-08,-0.016034038737416267,1.0505094528198242,0.0,-0.0069536445662379265,1.088103175163269,0.0,0.0032885444816201925
134.0,196.0,5.3252,-3.2668,7.0122,-0.0454,0.0333,-0.113,-1.7987519703307093,0.0001030572020681575,3.1478042602539062,-1.2320542335510254,2.09073880741313e-32,2.2083029747009277,3.839895411128662,-0.0,0.2720180153846741,-1.4584510962115687,-2.2818406235705635e-13,-0.013254348188638687,1.050541877746582,0.0,-0.015766730532050133,1.0880545377731323,0.0,0.026144426316022873
134.0,196.0,5.3252,-3.2668,7.0122,-0.0454,0.0333,-0.113,-1.7987643680968226,9.44087587413378e-05,3.162271738052368,-1.232110857963562,6.77372263371509e-40,2.2024381160736084,3.839923544520996,-0.0,0.2889796793460846,-1.4584468046771448,-4.1471316259902394e-18,-0.013390472158789635,1.0505894422531128,0.0,0.0024193995632231236,1.0880745649337769,0.0,0.014307067729532719
134.0,196.0,5.3252,-3.2668,7.0122,-0.0454,0.0333,-0.113,-1.798783918420309,8.881861867848784e-05,3.128237247467041,-1.232162594795227,1.401298464324817e-45,2.1501498222351074,3.8399039941975097,-0.0,0.27677714824676514,-1.4584510962115687,-1.1543694198831594e-21,-0.006716116331517696,1.0505133867263794,0.0,-0.0049382965080440044,1.0881149768829346,0.0009047171915881336,-0.03348953649401665
134.0,197.0,5.1882,-2.7242,6.9691,-0.049,0.0235,-0.1126,-1.7987438640990199,9.87825114862062e-05,3.1291966438293457,-1.2320866584777832,-0.0,2.243727922439575,3.8399321275898437,-0.0,0.26953795552253723,-1.4584510962115687,-0.0002744065714068711,-0.021650053560733795,1.0505008697509766,0.0,-0.008110425435006618,1.088122844696045,0.0020237595308572054,-0.005564308725297451
134.0,197.0,5.1882,-2.7242,6.9691,-0.049,0.0235,-0.1126,-1.7988244495787562,9.204813250107691e-05,3.1560935974121094,-1.2321268320083618,-0.0,2.1734416484832764,3.8399039941975097,-0.0,0.27353382110595703,-1.4584587256061,-0.0002657180593814701,-0.0053792232647538185,1.0505495071411133,0.0,-0.01242758147418499,1.0881510972976685,0.003367376746609807,-0.01769237034022808
134.0,197.0,5.1882,-2.7242,6.9691,-0.049,0.0235,-0.1126,-1.7987801037230433,7.297776028281078e-05,3.154869556427002,-1.2320746183395386,-0.0,2.1506378650665283,3.8399154382893066,-0.0,0.27327245473861694,-1.4584787527667444,-0.00027003951254300773,-0.02919425442814827,1.0505975484848022,0.0,-0.011363732628524303,1.0881707668304443,0.004518100526183844,0.0012942316243425012
134.0,197.0,5.1882,-2.7242,6.9691,-0.049,0.0235,-0.1126,-1.7987996540465296,6.852977821836248e-05,3.143608331680298,-1.2321105003356934,-0.0,2.1514742374420166,3.8399078088947753,-0.0,0.2836817800998688,-1.4584468046771448,-0.00023057720682118088,-0.018136518076062202,1.0505696535110474,0.0,0.002190988278016448,1.0881825685501099,0.005390118341892958,0.012433010153472424
134.0,197.0,5.1882,-2.7242,6.9691,-0.049,0.0235,-0.1126,-1.7987963161864222,5.167615745449439e-05,3.1217994689941406,-1.232150673866272,-0.0,2.1627395153045654,3.839923544520996,-0.0,0.26208946108818054,-1.458454434071676,-0.00022985905525274575,-0.02249022014439106,1.0505216121673584,0.0,-0.001753348857164383,1.088214635848999,0.004547693766653538,-0.022320378571748734
134.0,197.0,5.1882,-2.7242,6.9691,-0.049,0.0235,-0.1126,-1.7988163433470667,4.887008253717795e-05,3.159740924835205,-1.2321066856384277,-0.0,2.1919071674346924,3.839855356807373,-0.0,0.2819778621196747,-1.4584668318377894,-0.00020382953516673297,-0.008460452780127525,1.0505335330963135,0.0,-0.008072794415056705,1.0882387161254883,0.0034326461609452963,0.02608541212975979
134.0,197.0,5.1882,-2.7242,6.9691,-0.049,0.0235,-0.1126,-1.7987638912596644,4.695774623542093e-05,3.1324615478515625,-1.2321186065673828,-0.0,2.192563533782959,3.8399244981953125,-0.0,0.28591886162757874,-1.458442513142721,-0.00018787261797115207,-0.02422422729432583,1.0504801273345947,0.0,-0.010430052876472473,1.0882909297943115,0.002834519138559699,-0.011997737921774387
134.0,197.0,5.1882,-2.7242,6.9691,-0.049,0.0235,-0.1126,-1.7987758121886195,4.4629246986005455e-05,3.152951717376709,-1.232162594795227,-0.0,2.1988728046417236,3.8399359422871093,-0.0,0.26952093839645386,-1.458442513142721,-0.00017011570162139833,-0.024729058146476746,1.0505375862121582,0.0,-0.003744632937014103,1.088274598121643,0.0021779921371489763,-0.052024148404598236
134.0,197.0,5.1882,-2.7242,6.9691,-0.049,0.0235,-0.1126,-1.7988525829710902,4.25207763328217e-05,3.1977698802948,-1.2320870161056519,-0.0,2.172283411026001,3.839955969447754,-0.0,0.2695062458515167,-1.4584549109088343,-0.00014112221833784133,-0.01161272544413805,1.050565242767334,0.0,-0.0035979701206088066,1.0883110761642456,0.0016271892236545682,0.033643510192632675
134.0,197.0,5.1882,-2.7242,6.9691,-0.049,0.0235,-0.1126,-1.7988001308836878,4.1065704863285646e-05,3.154533624649048,-1.2321428060531616,-0.0,2.1459310054779053,3.83992783605542,-0.0,0.26877593994140625,-1.4584630171405237,-0.00012898522254545242,-0.010762138292193413,1.0505375862121582,0.0,-0.015475922264158726,1.0883105993270874,0.0013738037087023258,0.004426183179020882
134.0,197.0,5.1882,-2.7242,6.9691,-0.049,0.0235,-0.1126,-1.7987877331175746,1.0908753210969735e-05,3.1542835235595703,-1.2321308851242065,-0.0,2.1957290172576904,3.8398677545734863,-0.0,0.2759249806404114,-1.4584587256061,-0.00011571701179491356,-0.01984567567706108,1.050593614578247,0.0,-0.0009053795365616679,1.0883188247680664,0.0009299569646827877,0.03485162556171417
134.0,197.0,5.1882,-2.7242,6.9691,-0.049,0.0235,-0.1126,-1.7987920246519984,3.510094529701746e-06,3.1519837379455566,-1.2321386337280273,-0.0,2.1847662925720215,3.8398915964313964,-0.0,0.27130839228630066,-1.458430592213766,-0.00010492408910067752,-0.013226166367530823,1.0505175590515137,0.0,-0.002066128421574831,1.0883311033248901,0.0010538744973018765,0.0214900653809309
136.0,200.0,5.7559,-2.7428,6.9547,-0.024,0.011,-0.1171,-1.7988525829710902,1.137226028407809e-13,3.196974277496338,-1.2321066856384277,4.965876360074617e-05,2.192162036895752,3.839855833644531,-0.0,0.2641178369522095,-1.4584148565875452,-9.597264579497278e-05,-0.02585022523999214,1.0505536794662476,0.0,-0.011134488508105278,1.088350772857666,0.0017727778758853674,0.00946400873363018
136.0,200.0,5.7559,-2.7428,6.9547,-0.024,0.011,-0.1171,-1.7988325558104457,2.7462667755399013e-19,3.1488401889801025,-1.2321670055389404,4.5862921979278326e-05,2.1824402809143066,3.8398796755024414,-0.0,0.2768290042877197,-1.4584468046771448,-9.02013125596568e-05,-0.007728575263172388,1.0505212545394897,0.0,-0.011392258107662201,1.0884109735488892,0.0029143174178898335,0.016784969717264175
136.0,200.0,5.7559,-2.7428,6.9547,-0.024,0.011,-0.1171,-1.7988602123656214,8.897553675896037e-27,3.1685619354248047,-1.232122540473938,4.162096593063325e-05,2.186037063598633,3.839887781734131,-0.0,0.2837836444377899,-1.4584668318377894,-8.350572170456871e-05,-0.015711355954408646,1.050565481185913,0.0,-0.0037288200110197067,1.0884227752685547,0.004448810592293739,0.018226416781544685
136.0,200.0,5.7559,-2.7428,6.9547,-0.024,0.011,-0.1171,-1.798864027062887,-0.0009285290725529194,3.1731338500976562,-1.2321428060531616,1.930976395669859e-05,2.193686008453369,3.8399359422871093,-0.0,0.2802836298942566,-1.4584386984454554,-9.327808220405132e-05,-0.0022705907467752695,1.0505212545394897,0.0,-0.011513222008943558,1.0884305238723755,0.006293924059718847,-0.0033937478438019753
136.0,200.0,5.7559,-2.7428,6.9547,-0.024,0.011,-0.1171,-1.7988726101317347,-0.0012540133902803063,3.124555826187134,-1.2320866584777832,1.7911392205860466e-05,2.175636053085327,3.83992783605542,-0.0,0.28111475706100464,-1.458470646535055,-9.596513700671494e-05,-0.007173002697527409,1.0504640340805054,0.0,-0.0005865034181624651,1.0885030031204224,0.008070923388004303,0.03693544492125511
136.0,200.0,5.7559,-2.7428,6.9547,-0.024,0.011,-0.1171,-1.7989164791502894,-0.0014412757009267807,3.1546316146850586,-1.2321186065673828,1.6590687664574943e-05,2.1886751651763916,3.839899702663086,-0.0,0.2838984727859497,-1.4584906736956995,-0.00011003934196196496,-0.018129469826817513,1.0505781173706055,0.0,-0.006019677966833115,1.088546633720398,0.009419658221304417,0.008256455883383751
136.0,200.0,5.7559,-2.7428,6.9547,-0.024,0.011,-0.1171,-1.7989403210081996,-0.0012598949251696467,3.1057167053222656,-1.232130527496338,3.510808164719492e-05,2.166116237640381,3.8398915964313964,-0.0,0.279508501291275,-1.4584906736956995,-0.00013082580699119717,-0.013885922729969025,1.0505774021148682,0.0,0.0042151641100645065,1.088646650314331,0.010072764940559864,0.04823284596204758
136.0,200.0,5.7559,-2.7428,6.9547,-0.024,0.011,-0.1171,-1.7989083729186,-0.0010690955678001046,3.139718532562256,-1.2321345806121826,3.0369230444193818e-05,2.160665273666382,3.83992783605542,-0.0,0.2731129229068756,-1.458470646535055,-0.0005922852433286607,-0.017326459288597107,1.0505496263504028,0.0,-0.0016475514275953174,1.0887349843978882,0.010911842808127403,0.07271828502416611
136.0,200.0,5.7559,-2.7428,6.9547,-0.024,0.011,-0.1171,-1.7989326916136683,-0.0007730622892268002,3.0939528942108154,-1.2320865392684937,2.757748734438792e-05,2.1742992401123047,3.839996023769043,-0.0,0.2754113972187042,-1.4584944883929651,-0.0006548432866111398,-0.01815764233469963,1.0505212545394897,0.0,-0.005594516173005104,1.0887746810913086,0.011759258806705475,0.04306579381227493
136.0,200.0,5.7559,-2.7428,6.9547,-0.024,0.011,-0.1171,-1.7989441357054652,-0.0007365469355136156,3.133446455001831,-1.2321587800979614,2.456639958836604e-05,2.1365723609924316,3.8399359422871093,-0.0,0.277905136346817,-1.4584668318377894,-0.0005575112299993634,-0.019679639488458633,1.0505008697509766,0.0,-0.006217443384230137,1.0888986587524414,0.009878547862172127,0.0631016343832016
136.0,200.0,5.7559,-2.7428,6.9547,-0.024,0.011,-0.1171,-1.7989360294737757,-0.0007787815411575139,3.078907012939453,-1.2321062088012695,2.214822052337695e-05,2.1790072917938232,3.8399879175373535,-0.0,0.27692222595214844,-1.4584782759295862,-0.00040525817894376814,-0.028880078345537186,1.0505495071411133,0.0,-0.010463804006576538,1.0889148712158203,0.008623534813523293,0.12114854156970978
136.0,200.0,5.7559,-2.7428,6.9547,-0.024,0.011,-0.1171,-1.798976560632223,-0.0008599906577728689,3.104983329772949,-1.2320905923843384,2.0625475372071378e-05,2.1725480556488037,3.839979334468506,0.00044005856034345925,0.273613840341568,-1.4584625403033655,-0.0003154994046781212,-0.02365630865097046,1.0505495071411133,0.0,-0.0029586891178041697,1.0889629125595093,0.006040888372808695,0.03832698613405228
131.0,199.0,5.5059,-2.662,7.1234,-0.0464,0.031,-0.141,-1.7989965877928675,-0.0008847309509292245,3.1189961433410645,-1.2321586608886719,1.8893557353294455e-05,2.1451849937438965,3.8400155740925292,0.0005556566757149994,0.27110522985458374,-1.4585226217852991,-0.00024636872694827616,-0.024341488257050514,1.050541877746582,0.0,-0.010916907340288162,1.0889747142791748,0.0034041875042021275,0.12256186455488205
131.0,199.0,5.5059,-2.662,7.1234,-0.0464,0.031,-0.141,-1.7990008793272914,-0.0010220026597380638,3.1531314849853516,-1.2321386337280273,1.7429951185476966e-05,2.203049659729004,3.8399554926105957,0.0005117036052979529,0.28409069776535034,-1.4584906736956995,-0.000202096882276237,-0.01785414293408394,1.0505696535110474,0.0,0.0033015073277056217,1.0889866352081299,0.0017236087005585432,0.054718874394893646
131.0,199.0,5.5059,-2.662,7.1234,-0.0464,0.031,-0.141,-1.799032827416891,-0.0009496498969383538,3.191582202911377,-1.23207426071167,1.617680572962854e-05,2.1753053665161133,3.8400398927875976,0.0005195034900680184,0.2673051357269287,-1.4584587256061,-0.0001713155215838924,-0.018221497535705566,1.0505656003952026,0.0,-0.003317679278552532,1.0890066623687744,0.0010118033969774842,0.04427964985370636
131.0,199.0,5.5059,-2.662,7.1234,-0.0464,0.031,-0.141,-1.7990647755064906,-0.0007286521722562611,3.1435399055480957,-1.2320787906646729,3.069795639021322e-05,2.1839137077331543,3.839979811305664,0.0005429696757346392,0.27118703722953796,-1.4584506193744105,-0.0001537524804007262,-0.02518320456147194,1.0505454540252686,0.0,-0.013243257999420166,1.0890107154846191,0.0007115862099453807,0.08586346358060837
131.0,199.0,5.5059,-2.662,7.1234,-0.0464,0.031,-0.141,-1.7989922962584437,-0.0005692676641047001,3.1281795501708984,-1.2321226596832275,2.8737895263475366e-05,2.1345202922821045,3.84000746786084,0.00047285883920267224,0.2630297541618347,-1.458470646535055,-0.00013526409748010337,-0.018858352676033974,1.0505543947219849,0.0,-0.001240626908838749,1.0890107154846191,0.0005099279806017876,0.020689427852630615
131.0,199.0,5.5059,-2.662,7.1234,-0.0464,0.031,-0.141,-1.799016614953512,-0.0004324699693825096,3.1918225288391113,-1.2321349382400513,4.051926953252405e-05,2.1794607639312744,3.8399879175373535,0.00037578537012450397,0.2754632234573364,-1.4584668318377894,-0.00012074523692717776,-0.019891677424311638,1.050601601600647,0.0,-0.0009952590335160494,1.089034914970398,0.00039734310121275485,0.03137841075658798
131.0,199.0,5.5059,-2.662,7.1234,-0.0464,0.031,-0.141,-1.7990247211852015,-0.00036643186467699707,3.1359336376190186,-1.2320746183395386,5.169578071217984e-05,2.150758981704712,3.840007944697998,0.00032489842851646245,0.2722403407096863,-1.4584749380694788,-0.00011174909741384909,-0.040346626192331314,1.0505175590515137,0.0,0.004864944145083427,1.0890589952468872,0.0003408988122828305,0.06831559538841248
131.0,199.0,5.5059,-2.662,7.1234,-0.0464,0.031,-0.141,-1.7990004024901332,-0.0003044485638383776,3.1535277366638184,-1.2321226596832275,0.00010473213478690013,2.1996042728424072,3.839991255397461,0.0002484128635842353,0.2868157923221588,-1.4584267775165003,-0.00010165142157347873,-0.007287950720638037,1.0505294799804688,0.0,-0.002833350095897913,1.0890026092529297,0.0002866137947421521,0.02751939743757248
131.0,199.0,5.5059,-2.662,7.1234,-0.0464,0.031,-0.141,-1.799004694024557,-0.00022800805163569748,3.1120665073394775,-1.2320988178253174,0.00012849128688685596,2.177079200744629,3.8399955469318847,0.00020346944802440703,0.26721593737602234,-1.4584863821612757,-9.322727419203147e-05,-0.01563059538602829,1.0505335330963135,0.0,0.0035987761802971363,1.0889461040496826,0.0002472433552611619,0.026293618604540825
131.0,199.0,5.5059,-2.662,7.1234,-0.0464,0.031,-0.141,-1.7989679775633753,-0.00020554897491820157,3.1344690322875977,-1.2320750951766968,0.00045126170152798295,2.147547483444214,3.8399593073078613,0.00017916162323672324,0.28000813722610474,-1.4584749380694788,-8.777192124398425e-05,-0.0162130706012249,1.0505335330963135,0.0,-0.007845841348171234,1.088998556137085,0.00022415156126953661,0.04369407892227173
131.0,199.0,5.5059,-2.662,7.1234,-0.0464,0.031,-0.141,-1.7990085087218226,-0.00020767119713127613,3.1605591773986816,-1.2320548295974731,0.00038956268690526485,2.1551051139831543,3.8399674135395507,0.00015454574895557016,0.2815210819244385,-1.4584386984454554,-8.141950092976913e-05,-0.039041098207235336,1.0505335330963135,0.0,-0.0018880446441471577,1.0890308618545532,0.00019932884606532753,0.014255313202738762
131.0,199.0,5.5059,-2.662,7.1234,-0.0464,0.031,-0.141,-1.7989880047240199,-0.0001862885255832225,3.119149684906006,-1.2321349382400513,0.0003023131284862757,2.129347324371338,3.840019388789795,0.000135877649881877,0.2755459249019623,-1.4584224859820765,-7.592463225591928e-05,-0.03186872601509094,1.0505133867263794,0.0,-0.005515023600310087,1.0889825820922852,4.764133700518869e-05,0.011898907832801342
131.0,199.0,5.5059,-2.662,7.1234,-0.0464,0.031,-0.141,-1.7990085087218226,-0.00016146153211593628,3.1415817737579346,-1.2320787906646729,0.00024699614732526243,2.108337163925171,3.840003653163574,9.704272088129073e-05,0.2676146626472473,-1.4584906736956995,-7.112442108336836e-05,-0.03515233099460602,1.0505175590515137,0.0,-0.006188005208969116,1.0890352725982666,4.265645475243218e-05,0.0011568483896553516
133.0,191.0,5.3061,-2.8666,6.9553,-0.0376,0.0133,-0.1182,-1.799028059045309,-0.0011470617027953267,3.1235673427581787,-1.2320828437805176,0.0002171915111830458,2.2152788639068604,3.8399836260029296,8.973407238954678e-05,0.2723996937274933,-1.4584506193744105,-6.790459156036377e-05,-0.027028024196624756,1.050541877746582,0.0,0.0010316227562725544,1.088962435722351,3.9825150452088565e-05,-0.013999519869685173
133.0,191.0,5.3061,-2.8666,6.9553,-0.0376,0.0133,-0.1182,-1.7990566692748011,-0.003104178002104163,3.071909189224243,-1.2320947647094727,0.00018709056894294918,2.175642967224121,3.839939756984375,6.128958193585277e-05,0.2819708585739136,-1.4584830443011683,-6.40392245259136e-05,-0.027310336008667946,1.0504841804504395,0.0,2.0540901459753513e-06,1.0889906883239746,1.8379310859018005e-05,0.004879987332969904
133.0,191.0,5.3061,-2.8666,6.9553,-0.0376,0.0133,-0.1182,-1.799101015130514,-0.004396969452500343,3.0664496421813965,-1.2320548295974731,0.0001643178693484515,2.1012701988220215,3.8399955469318847,5.611102460534312e-05,0.2676291763782501,-1.4584463278399866,-6.059021325199865e-05,-0.02854638732969761,1.0504883527755737,0.0,-0.013565454632043839,1.0889906883239746,1.6918103938223794e-05,0.009781606495380402
133.0,191.0,5.3061,-2.8666,6.9553,-0.0376,0.0133,-0.1182,-1.7991043529906214,-0.004444110207259655,3.049107789993286,-1.2320910692214966,0.00015057256678119302,2.133424758911133,3.8399674135395507,2.7481162305775797e-06,0.2662948966026306,-1.4584506193744105,-5.8237823395757005e-05,-0.02475281059741974,1.0504968166351318,0.0,-0.001201090170070529,1.088958740234375,1.601496660441626e-05,-0.012290408834815025
133.0,191.0,5.3061,-2.8666,6.9553,-0.0376,0.0133,-0.1182,-1.7990833721556605,-0.004333506338298321,3.0631184577941895,-1.2320383787155151,0.00013546342961490154,2.1398744583129883,3.83992783605542,-4.430075568961911e-05,0.2705598771572113,-1.4584668318377894,-5.537139077205211e-05,-0.027451755478978157,1.0504968166351318,0.0,-0.004156392998993397,1.0889666080474854,1.495080505264923e-05,-0.01564800553023815
133.0,191.0,5.3061,-2.8666,6.9553,-0.0376,0.0133,-0.1182,-1.7992168865599574,-0.0052885087206959724,3.0299525260925293,-1.2320910692214966,0.00012311020691413432,2.108813762664795,3.8399597841450195,-4.0331015043193474e-05,0.2559252381324768,-1.4584587256061,-5.277395757730119e-05,-0.008114301599562168,1.0504801273345947,0.0,-0.008580172434449196,1.0889464616775513,1.4019275113241747e-05,-0.01747991517186165
133.0,191.0,5.3061,-2.8666,6.9553,-0.0376,0.0133,-0.1182,-1.7992531261839808,-0.006132501643151045,3.0090932846069336,-1.232107162475586,0.00011282179912086576,2.0939371585845947,3.8399435716816406,-3.7013585824752226e-05,0.25682058930397034,-1.4584344069110315,-5.0409234972903505e-05,-0.02305801585316658,1.0505300760269165,0.0,-0.0033754275646060705,1.0890107154846191,1.3197006410337053e-05,-0.032921064645051956
133.0,191.0,5.3061,-2.8666,6.9553,-0.0376,0.0133,-0.1182,-1.7992683849730433,-0.006672549992799759,3.007511615753174,-1.2320507764816284,0.00010616741928970441,2.138317108154297,3.840003653163574,-3.4862889151554555e-05,0.2475055456161499,-1.45848256746401,-4.1925210325644e-07,-0.0034706080332398415,1.0505863428115845,0.0,-0.015011764131486416,1.088914155960083,2.5281853595515713e-05,-0.017893467098474503
133.0,191.0,5.3061,-2.8666,6.9553,-0.0376,0.0133,-0.1182,-1.7993327579894007,-0.007873432710766792,2.968541383743286,-1.2320828437805176,9.842698636930436e-05,2.082601308822632,3.8399955469318847,-3.235611438867636e-05,0.24882948398590088,-1.4584949652301233,-7.619700009842134e-12,-0.028801020234823227,1.0505660772323608,0.0,-0.012740809470415115,1.0890508890151978,2.393707472947426e-05,0.005484504625201225
133.0,191.0,5.3061,-2.8666,6.9553,-0.0376,0.0133,-0.1182,-1.7994090519347132,-0.008978535421192646,2.951563596725464,-1.232110857963562,9.173851140076295e-05,2.0839924812316895,3.839979334468506,-3.0185665309545584e-05,0.24734485149383545,-1.4584863821612757,-1.3848426204791274e-16,-0.01553347148001194,1.0504883527755737,0.0,-0.016454407945275307,1.0889664888381958,3.409192868275568e-05,-0.01152853760868311
133.0,191.0,5.3061,-2.8666,6.9553,-0.0376,0.0133,-0.1182,-1.7995296917357386,-0.010426893830299377,2.9062445163726807,-1.2320952415466309,8.728975080884993e-05,2.0765838623046875,3.8399597841450195,-4.310136864660308e-05,0.24670445919036865,-1.45848256746401,-3.8547598821948496e-20,-0.02690082974731922,1.0505175590515137,0.0,-0.023701217025518417,1.089034914970398,4.336160418461077e-05,-0.0037391777150332928
133.0,191.0,5.3061,-2.8666,6.9553,-0.0376,0.0133,-0.1182,-1.7996183834471644,-0.013486882671713829,2.8997602462768555,-1.2320668697357178,6.83238249621354e-05,2.0410964488983154,3.839935465449951,-4.052167423651554e-05,0.2457135021686554,-1.45848256746401,-7.005835242298676e-25,-0.03639926761388779,1.0505093336105347,0.0,-0.03606864809989929,1.0890107154846191,4.181683834758587e-05,-0.02137012779712677
134.0,195.0,4.9442,-2.4556,6.5246,-0.036,-0.0376,-0.131,-1.7997385464110316,-0.017023587599396706,2.853925943374634,-1.2320146560668945,6.441203004214913e-05,2.0924489498138428,3.840003653163574,-5.096889799460769e-05,0.2481168508529663,-1.45848256746401,-1.2732759205847041e-29,-0.03126394748687744,1.050513505935669,0.0,-0.009823527187108994,1.0890189409255981,5.057822636445053e-05,0.0736764520406723
134.0,195.0,4.9442,-2.4556,6.5246,-0.036,-0.0376,-0.131,-1.7998620472350062,-0.0217297226190567,2.8406591415405273,-1.2320466041564941,7.310869114007801e-05,2.0483570098876953,3.8400155740925292,-4.823739072890021e-05,0.2535251975059509,-1.458510700856344,-5.217108309807372e-07,-0.0507144071161747,1.0504562854766846,0.0,-0.017888661473989487,1.089046835899353,0.0008811505977064371,0.029203888028860092
134.0,195.0,4.9442,-2.4556,6.5246,-0.036,-0.0376,-0.131,-1.7999903164305628,-0.02470160648226738,2.752455949783325,-1.2320672273635864,7.025522063486278e-05,2.082364082336426,3.8399879175373535,-4.637328675016761e-05,0.24482354521751404,-1.4584868589984339,-1.4522011371198573e-10,-0.05156886577606201,1.0505335330963135,0.0,-0.02987714111804962,1.0890066623687744,0.0019078028853982687,0.11603596061468124
134.0,195.0,4.9442,-2.4556,6.5246,-0.036,-0.0376,-0.131,-1.800178667108053,-0.029268387705087662,2.7409329414367676,-1.2320311069488525,8.903402340365574e-05,2.0756561756134033,3.839979334468506,-4.410094697959721e-05,0.2591409683227539,-1.4585183302508753,-0.0007972714374773204,-0.05002352595329285,1.0505008697509766,0.0,-0.007663955446332693,1.0890222787857056,0.0025557794142514467,0.11928199976682663
134.0,195.0,4.9442,-2.4556,6.5246,-0.036,-0.0376,-0.131,-1.800450941125387,-0.0344572588801384,2.72282075881958,-1.2320709228515625,7.095150795066729e-05,2.006575107574463,3.8399392801472167,-4.2040934204123914e-05,0.2528863549232483,-1.4585264364825647,-0.0010218966053798795,-0.05382457375526428,1.050541877746582,0.0,-0.02369184046983719,1.0890824794769287,0.0028001279570162296,0.12250374257564545
134.0,195.0,4.9442,-2.4556,6.5246,-0.036,-0.0376,-0.131,-1.800699850121969,-0.03788359835743904,2.698176383972168,-1.2320590019226074,7.963842654135078e-05,2.0454587936401367,3.839991732234619,-4.061792424181476e-05,0.25100478529930115,-1.4585383574115198,-0.0008855112246237695,-0.05647860839962959,1.0505863428115845,0.0,-0.023983970284461975,1.0890988111495972,0.0029240702278912067,0.14592361450195312
134.0,195.0,4.9442,-2.4556,6.5246,-0.036,-0.0376,-0.131,-1.8009916744627894,-0.04231904819607735,2.674759864807129,-1.2320791482925415,7.580551755381748e-05,2.002352714538574,3.83992783605542,-1.693394722224184e-07,0.26378726959228516,-1.4585307280169886,-0.000927043438423425,-0.057225365191698074,1.0505578517913818,0.0,-0.025809653103351593,1.089041829109192,0.0032149895559996367,0.1302279531955719
134.0,195.0,4.9442,-2.4556,6.5246,-0.036,-0.0376,-0.131,-1.8013245067992152,-0.04721773415803909,2.614081859588623,-1.2320351600646973,0.00012133233394706622,2.0278186798095703,3.8399554926105957,-8.777106995694339e-05,0.24242395162582397,-1.4585140387164515,-0.0018487643683329225,-0.054837509989738464,1.0504812002182007,0.0,-0.021786918863654137,1.0891550779342651,0.0032469916623085737,0.11325298994779587
134.0,195.0,4.9442,-2.4556,6.5246,-0.036,-0.0376,-0.131,-1.8017574749388636,-0.05434945598244667,2.531280994415283,-1.2320672273635864,4.780884046340361e-05,1.9787243604660034,3.83997551977124,-0.00011032515612896532,0.23007433116436005,-1.458534065877096,-0.0022810145746916533,-0.055706966668367386,1.0504647493362427,0.0,-0.02162798121571541,1.0891547203063965,0.004172220826148987,0.20133718848228455
134.0,195.0,4.9442,-2.4556,6.5246,-0.036,-0.0376,-0.131,-1.8020807705321253,-0.06034686788916588,2.537238836288452,-1.2320022583007812,4.121602978557348e-05,1.9341557025909424,3.83992783605542,-0.0005704083014279604,0.22506308555603027,-1.4585588614093226,-0.0017718872986733913,-0.04548276960849762,1.0505216121673584,0.0,-0.018665287643671036,1.0891950130462646,0.0040426612831652164,0.16845065355300903
134.0,195.0,4.9442,-2.4556,6.5246,-0.036,-0.0376,-0.131,-1.8026186428465785,-0.0704626590013504,2.464261054992676,-1.232039213180542,3.4834520192816854e-05,1.9053893089294434,3.83992783605542,-0.0007010136032477021,0.21299414336681366,-1.4585297743426722,-0.0010674912482500076,-0.05580581724643707,1.0505423545837402,0.0,-0.026629555970430374,1.089210867881775,0.004135490860790014,0.12429305911064148
134.0,195.0,4.9442,-2.4556,6.5246,-0.036,-0.0376,-0.131,-1.8031836948790492,-0.0833791196346283,2.4674978256225586,-1.2320588827133179,6.032283272361383e-05,1.9166347980499268,3.8399111467548828,-0.0005146486219018698,0.21147550642490387,-1.4585464636432093,-0.0006923936889506876,-0.04862695559859276,1.050468921661377,0.0,-0.042048029601573944,1.08925461769104,0.003233817173168063,0.17407847940921783
127.0,192.0,5.1864,-2.3372,7.6564,-0.1055,-0.1527,-0.1414,-1.8036438427367152,-0.09123003482818604,2.4092912673950195,-1.2320185899734497,0.00010925409878836945,1.9273096323013306,3.839923544520996,-0.00045735956518910825,0.2178722620010376,-1.4585745970355433,-0.0005279354518279433,-0.05663967505097389,1.0504647493362427,0.0,-0.046564795076847076,1.0892707109451294,0.002410838147625327,0.17294974625110626
127.0,192.0,5.1864,-2.3372,7.6564,-0.1055,-0.1527,-0.1414,-1.8044053516783656,-0.09623533487319946,2.4174211025238037,-1.232019066810608,0.0016092617297545075,1.9028129577636719,3.839955969447754,-0.0003651232400443405,0.2100876271724701,-1.4586027304278772,-0.0004478338232729584,-0.05836639553308487,1.0504889488220215,0.0,-0.048360034823417664,1.0892186164855957,0.0013443302595987916,0.13414590060710907
127.0,192.0,5.1864,-2.3372,7.6564,-0.1055,-0.1527,-0.1414,-1.8052274189391078,-0.09889902174472809,2.373056650161743,-1.2320351600646973,0.0019926209934055805,1.9134321212768555,3.8398873048969726,-0.00028468004893511534,0.21318675577640533,-1.45856219926943,-0.00035005819518119097,-0.050750844180583954,1.050441026687622,-0.0001727016206132248,-0.04382535070180893,1.0892305374145508,0.0007695378153584898,0.10290591418743134
127.0,192.0,5.1864,-2.3372,7.6564,-0.1055,-0.1527,-0.1414,-1.80607332805776,-0.10174141079187393,2.3530232906341553,-1.232027292251587,0.001037189387716353,1.8807404041290283,3.839899702663086,-0.0003148233226966113,0.18909965455532074,-1.45856219926943,-0.0003165994421578944,-0.05412577837705612,1.050492525100708,-0.00017968738393392414,-0.038683101534843445,1.08925461769104,0.000539007072802633,0.11563117057085037
127.0,192.0,5.1864,-2.3372,7.6564,-0.1055,-0.1527,-0.1414,-1.8067413769164027,-0.10794539749622345,2.34989070892334,-1.2320070266723633,0.0003338259703014046,1.8883754014968872,3.8398634630390625,-0.0005383802927099168,0.18913444876670837,-1.4585421721087855,-0.0002880100510083139,-0.05547231808304787,1.0504812002182007,-0.00016339134890586138,-0.04134569317102432,1.08925461769104,0.0004401378973852843,0.14611384272575378
127.0,192.0,5.1864,-2.3372,7.6564,-0.1055,-0.1527,-0.1414,-1.8076793156065882,-0.12367051094770432,2.318270683288574,-1.2319906949996948,-0.0011695089051499963,1.8834919929504395,3.8399039941975097,-0.0005795265315100551,0.19590306282043457,-1.4586146513568323,-0.00024827884044498205,-0.046980831772089005,1.0504848957061768,-0.000170040744706057,-0.05237600952386856,1.0892386436462402,0.00030947121558710933,0.13564610481262207
127.0,192.0,5.1864,-2.3372,7.6564,-0.1055,-0.1527,-0.1414,-1.808676382104391,-0.1371089667081833,2.271897554397583,-1.231971025466919,-0.0003881116572301835,1.8329174518585205,3.8399078088947753,-0.0004442009958438575,0.19307175278663635,-1.458550278340475,-0.00021818089589942247,-0.05034343898296356,1.0505049228668213,-0.0001534710609121248,-0.03851713240146637,1.0892226696014404,8.093154610833153e-05,0.09318938106298447
127.0,192.0,5.1864,-2.3372,7.6564,-0.1055,-0.1527,-0.1414,-1.8095141849913539,-0.1471385806798935,2.328350067138672,-1.231979250907898,0.0020001702941954136,1.8704509735107422,3.839895411128662,-0.00032960466342046857,0.1892905831336975,-1.4585827032672327,-0.0002000004897126928,-0.05922911316156387,1.0504968166351318,-0.00014301837654784322,-0.06298360228538513,1.0892587900161743,1.2160219739598688e-05,0.1294926404953003
127.0,192.0,5.1864,-2.3372,7.6564,-0.1055,-0.1527,-0.1414,-1.8107081852354945,-0.15002024173736572,2.3721983432769775,-1.2318788766860962,0.005336461588740349,1.8970338106155396,3.839996023769043,-7.094049215083942e-05,0.18354159593582153,-1.4585865179644983,-0.00017999704868998379,-0.03775499761104584,1.0504610538482666,-0.00014984198787715286,-0.050725825130939484,1.0891985893249512,3.9397573202946956e-13,0.034891027957201004
127.0,192.0,5.1864,-2.3372,7.6564,-0.1055,-0.1527,-0.1414,-1.8119293651976527,-0.1405702382326126,2.360757827758789,-1.2319201231002808,0.008600682951509953,1.8732329607009888,3.8399717050739746,-2.8807519925067027e-08,0.193808451294899,-1.4585588614093226,-0.00014318228932097554,-0.03167140483856201,1.0504652261734009,-0.0001555002963868901,-0.05111684650182724,1.0892431735992432,1.2764312889598134e-20,0.02218662202358246
127.0,192.0,5.1864,-2.3372,7.6564,-0.1055,-0.1527,-0.1414,-1.8131548366942347,-0.14058537781238556,2.4073801040649414,-1.2318236827850342,0.006022556219249964,1.9319554567337036,3.839923544520996,-5.235624759257484e-13,0.18918749690055847,-1.4585908094989222,-0.00013124727411195636,-0.03398813307285309,1.0504491329193115,-0.00016049749683588743,-0.03730645775794983,1.089242696762085,-0.0004865090304519981,0.06042272597551346
127.0,192.0,5.1864,-2.3372,7.6564,-0.1055,-0.1527,-0.1414,-1.814064165154928,-0.1542070358991623,2.4553163051605225,-1.2317712306976318,0.0019667455926537514,1.973447561264038,3.8399640756794433,-1.457355258208996e-16,0.20451383292675018,-1.4586027304278772,-6.228998972801492e-05,-0.03687232732772827,1.0505136251449585,-0.00015039826394058764,-0.050165317952632904,1.0892468690872192,-0.0003673183382488787,-0.04295826330780983
117.0,201.0,7.1025,-3.4026,6.4726,-0.066,-0.1155,-0.1403,-1.8153869114317835,-0.1761104166507721,2.3874917030334473,-1.2318636178970337,-0.00047275557881221175,1.9495353698730469,3.8399154382893066,-2.6486712974343998e-21,0.20207610726356506,-1.4585421721087855,-3.7509969843085855e-05,-0.029846245422959328,1.0504249334335327,-0.00013532220327761024,-0.06793202459812164,1.0892187356948853,-0.00036849812022410333,-0.057678572833538055
117.0,201.0,7.1025,-3.4026,6.4726,-0.066,-0.1155,-0.1403,-1.8167644939818324,-0.17728783190250397,2.470372200012207,-1.2317999601364136,0.004823625087738037,1.9150854349136353,3.839939756984375,-4.8138295403728303e-26,0.20272879302501678,-1.4585745970355433,-1.73168537003221e-05,-0.0250990130007267,1.0504369735717773,-0.00014349141565617174,-0.06234021112322807,1.0891706943511963,-0.0021030823700129986,-0.07458557188510895
117.0,201.0,7.1025,-3.4026,6.4726,-0.066,-0.1155,-0.1403,-1.817765852014059,-0.15810802578926086,2.5029096603393555,-1.231719732284546,0.011233962140977383,1.9848146438598633,3.840003653163574,0.0014490417670458555,0.2164895087480545,-1.4585707823382776,-8.311043529829476e-06,-0.0225384458899498,1.050420880317688,-0.00015317073848564178,-0.05961138382554054,1.089186668395996,-0.002168322214856744,-0.08668521046638489
117.0,201.0,7.1025,-3.4026,6.4726,-0.066,-0.1155,-0.1403,-1.81903137783193,-0.14284685254096985,2.560692310333252,-1.2315834760665894,0.01577105186879635,2.0274910926818848,3.840035601253174,0.0014054316561669111,0.21781446039676666,-1.4585545698748987,-1.5104910378038738e-10,-0.022636637091636658,1.0504615306854248,-0.00019054286531172693,-0.053649384528398514,1.089146614074707,-0.0010441580088809133,-0.09321869164705276
117.0,201.0,7.1025,-3.4026,6.4726,-0.066,-0.1155,-0.1403,-1.8202816448607386,-0.151727557182312,2.551044225692749,-1.2315162420272827,0.011260603554546833,2.000241994857788,3.8399836260029296,0.0008048437885008752,0.22533825039863586,-1.4585297743426722,-2.7452428876553704e-15,-0.014042573980987072,1.0504212379455566,-0.0002198911679442972,-0.08232244849205017,1.0892586708068848,-2.580146052366672e-08,-0.04826090857386589
117.0,201.0,7.1025,-3.4026,6.4726,-0.066,-0.1155,-0.1403,-1.8215233288206996,-0.1700468212366104,2.587014675140381,-1.2315003871917725,0.004300549626350403,2.0586180686950684,3.8399955469318847,0.0005559423589147627,0.2253154069185257,-1.458505932484762,-4.9893437517098837e-20,-0.007918029092252254,1.0504770278930664,-0.00019945655367337167,-0.05615759268403053,1.0892186164855957,-8.359343804255456e-16,-0.1118955910205841
117.0,201.0,7.1025,-3.4026,6.4726,-0.066,-0.1155,-0.1403,-1.8225256405272425,-0.1671266108751297,2.6224353313446045,-1.2314198017120361,0.004096607211977243,1.972416877746582,3.840015097255371,0.0004962045350112021,0.23012389242649078,-1.4585378805743616,-1.3888022454160748e-23,-0.009708957746624947,1.0504491329193115,-0.0002014290657825768,-0.057410284876823425,1.0891989469528198,0.000166687837918289,-0.146479070186615
117.0,201.0,7.1025,-3.4026,6.4726,-0.066,-0.1155,-0.1403,-1.8236304722227992,-0.14103248715400696,2.670513868331909,-1.2313202619552612,0.01203994732350111,2.076930522918701,3.8401152330585937,0.0042670234106481075,0.23274512588977814,-1.4585297743426722,-2.5240792479839474e-28,-0.010966543108224869,1.0504610538482666,-0.00018659397028386593,-0.06585323065519333,1.0892149209976196,-0.0004143230908084661,-0.12911877036094666
117.0,201.0,7.1025,-3.4026,6.4726,-0.066,-0.1155,-0.1403,-1.8247643909850062,-0.12224767357110977,2.7614238262176514,-1.2312002182006836,0.017258387058973312,2.07553768157959,3.8401152330585937,0.0042420197278261185,0.24847477674484253,-1.4585865179644983,-4.587389846629009e-33,-0.01639636605978012,1.0504409074783325,-0.00021601759362965822,-0.06713072210550308,1.089242696762085,-0.00022538294433616102,-0.12580101191997528
117.0,201.0,7.1025,-3.4026,6.4726,-0.066,-0.1155,-0.1403,-1.8255049190916957,-0.12054207175970078,2.778620719909668,-1.231121301651001,0.017775049433112144,2.1442553997039795,3.8401152330585937,0.0029710601083934307,0.251867413520813,-1.458550278340475,-1.2769168808707017e-36,-0.004059723578393459,1.0503926277160645,-0.0001888726546894759,-0.06875141710042953,1.089194416999817,-1.8183163419394077e-08,-0.1115974709391594
117.0,201.0,7.1025,-3.4026,6.4726,-0.066,-0.1155,-0.1403,-1.826505800286764,-0.12722867727279663,2.752716064453125,-1.2310090065002441,0.012790326960384846,2.156013011932373,3.8400985437580566,0.0012126256478950381,0.25163862109184265,-1.4585545698748987,-2.3206903867683296e-41,-0.012232732959091663,1.0504170656204224,-0.00019402238831389695,-0.05906394124031067,1.08925461769104,0.0013937177136540413,-0.08838368952274323
117.0,201.0,7.1025,-3.4026,6.4726,-0.066,-0.1155,-0.1403,-1.8274880848326625,-0.1273878812789917,2.758289098739624,-1.2309296131134033,0.010595652274787426,2.112182378768921,3.84013478338208,0.0007904578233137727,0.26479434967041016,-1.4585707823382776,-0.0,-0.02405223809182644,1.0504934787750244,-0.0001696684048511088,-0.06309941411018372,1.0892465114593506,0.0009179216576740146,-0.06606218963861465
110.0,190.0,6.9876,-3.6897,6.3643,-0.0434,-0.018,-0.1208,-1.8283935985960902,-0.11547553539276123,2.802466630935669,-1.2308378219604492,0.01114632934331894,2.142956018447876,3.840162916774414,0.0016187026631087065,0.26811158657073975,-1.4585664908038538,-0.0,-0.0028926413506269455,1.0504252910614014,-0.0001758362486725673,-0.06951669603586197,1.0891661643981934,0.0005486505106091499,-0.06358995288610458
110.0,190.0,6.9876,-3.6897,6.3643,-0.0434,-0.018,-0.1208,-1.8289452991881312,-0.10499493777751923,2.8547544479370117,-1.2307345867156982,0.014415748417377472,2.1390562057495117,3.8401991563984375,0.0033924919553101063,0.256919801235199,-1.4585664908038538,-0.0,-0.013097267597913742,1.0504045486450195,-0.00016225638682954013,-0.0673454999923706,1.089242696762085,0.0004204453434795141,-0.08403581380844116
110.0,190.0,6.9876,-3.6897,6.3643,-0.0434,-0.018,-0.1208,-1.8297425709166468,-0.08752225339412689,2.902963161468506,-1.2306104898452759,0.018129471689462662,2.1110334396362305,3.840202494258545,0.004654130898416042,0.26733940839767456,-1.4585984388934534,-0.0,-0.011026489548385143,1.0504491329193115,-0.00016535237955395132,-0.05445089936256409,1.0892103910446167,0.0003205823013558984,-0.08642742782831192
110.0,190.0,6.9876,-3.6897,6.3643,-0.0434,-0.018,-0.1208,-1.83046354869985,-0.07877787947654724,2.9144303798675537,-1.230567216873169,0.018133144825696945,2.229790210723877,3.840218706721924,0.004424298647791147,0.264234721660614,-1.4585664908038538,-0.0,-0.02081943117082119,1.0504413843154907,-0.00015375303337350488,-0.06492075324058533,1.0892465114593506,0.0003453844110481441,-0.12261813879013062
110.0,190.0,6.9876,-3.6897,6.3643,-0.0434,-0.018,-0.1208,-1.8309804401793421,-0.07618922740221024,2.909198522567749,-1.2303874492645264,0.015027433633804321,2.1965889930725098,3.840226336116455,0.0028391792438924313,0.26465892791748047,-1.4586027304278772,-0.0,-0.023414399474859238,1.0504812002182007,-0.00014449574518948793,-0.06653191894292831,1.0893107652664185,0.00026240767328999937,-0.08198487758636475
110.0,190.0,6.9876,-3.6897,6.3643,-0.0434,-0.018,-0.1208,-1.831492086450094,-0.07820045948028564,2.9081339836120605,-1.2303073406219482,0.010769286192953587,2.1582376956939697,3.840286894435547,0.0012333226623013616,0.2698366045951843,-1.4585183302508753,-0.0,-0.013695906847715378,1.0504651069641113,-0.0001337577123194933,-0.07254783809185028,1.0892746448516846,0.0002920179977081716,-0.06786622107028961
110.0,190.0,6.9876,-3.6897,6.3643,-0.0434,-0.018,-0.1208,-1.8320290050902308,-0.0707893818616867,2.8823604583740234,-1.230231523513794,0.008837970905005932,2.147552013397217,3.8403069215961914,0.0007426015217788517,0.26889491081237793,-1.4586027304278772,-0.0,-0.008001325652003288,1.0504045486450195,-0.00012450548820197582,-0.07226738333702087,1.0893148183822632,0.000426594284363091,-0.07605884969234467
110.0,190.0,6.9876,-3.6897,6.3643,-0.0434,-0.018,-0.1208,-1.832557817498678,-0.054151732474565506,2.942808151245117,-1.2300550937652588,0.01220045704394579,2.166290760040283,3.8403259950825195,0.003969917073845863,0.2678811252117157,-1.4585784117328089,-0.0,-0.021584587171673775,1.0504770278930664,-0.00011645036283880472,-0.05812499672174454,1.089282751083374,0.0004311538941692561,-0.0749308168888092
110.0,190.0,6.9876,-3.6897,6.3643,-0.0434,-0.018,-0.1208,-1.8328949413695277,-0.042291972786188126,2.916688919067383,-1.2300362586975098,0.014763261191546917,2.1609599590301514,3.8403617578693847,0.005695225205272436,0.26769423484802246,-1.458590332661764,-0.0,-0.021948762238025665,1.0504491329193115,-0.0001110615921788849,-0.06994671374559402,1.0892943143844604,0.0007277213735505939,-0.055020883679389954
110.0,190.0,6.9876,-3.6897,6.3643,-0.0434,-0.018,-0.1208,-1.833214899102682,-0.038048580288887024,2.9546284675598145,-1.2298716306686401,0.015169995836913586,2.1600170135498047,3.840418501491211,0.004994600545614958,0.2708926200866699,-1.4585984388934534,-0.0,-0.028283949941396713,1.0504409074783325,-0.00010460714838700369,-0.053432658314704895,1.0892901420593262,0.0023888275027275085,-0.06392714381217957
110.0,190.0,6.9876,-3.6897,6.3643,-0.0434,-0.018,-0.1208,-1.8335310421385707,-0.04154759645462036,2.967097282409668,-1.229820728302002,0.013841602951288223,2.178020477294922,3.840470476741455,0.0021802035626024008,0.2632986009120941,-1.45856219926943,-0.0,-0.01951231248676777,1.0504610538482666,-9.886177576845512e-05,-0.06071503832936287,1.0893187522888184,0.005550967995077372,0.03195776045322418
110.0,190.0,6.9876,-3.6897,6.3643,-0.0434,-0.018,-0.1208,-1.8337389431395472,-0.04488815739750862,2.904747486114502,-1.22969651222229,0.01392381452023983,2.119296073913574,3.840386076564453,0.001129664946347475,0.2664462625980377,-1.458602253590719,-0.0,-0.030030295252799988,1.0504047870635986,-9.495051199337468e-05,-0.05369296297430992,1.0893750190734863,0.007715841289609671,0.035528894513845444
110.0,190.0,6.9876,-3.6897,6.3643,-0.0434,-0.018,-0.1208,-1.83408846477651,-0.0430191345512867,2.9353580474853516,-1.22958505153656,0.018412619829177856,2.2283549308776855,3.8404337602802734,0.0010981308296322823,0.2853916585445404,-1.458602253590719,-0.0,-0.03335794061422348,1.0504610538482666,-9.01927996892482e-05,-0.06394024938344955,1.0894665718078613,0.010526947677135468,0.04238010197877884
109.0,198.0,5.9222,-2.7129,6.9254,0.0263,0.0753,-0.0916,-1.8343078098692835,-0.039070285856723785,2.972752571105957,-1.2293815612792969,0.02720266953110695,2.173370838165283,3.840494318599365,0.004487617872655392,0.276727557182312,-1.458618466054098,-0.0,-0.046592600643634796,1.050445556640625,-8.588910714024678e-05,-0.049369633197784424,1.0895344018936157,0.01323680393397808,0.10864920914173126
109.0,198.0,5.9222,-2.7129,6.9254,0.0263,0.0753,-0.0916,-1.8345524273314417,-0.0352688692510128,2.994908332824707,-1.22915780544281,0.03555581718683243,2.2569756507873535,3.840489550227783,0.006154108792543411,0.29213088750839233,-1.4585979620562952,-0.0,-0.05085170269012451,1.0504289865493774,-8.292158599942923e-05,-0.05199507996439934,1.089651107788086,0.014699666760861874,0.0865388959646225
109.0,198.0,5.9222,-2.7129,6.9254,0.0263,0.0753,-0.0916,-1.8348409138121546,-0.03393111377954483,2.9767394065856934,-1.228874683380127,0.044629111886024475,2.2407264709472656,3.8405977922626953,0.00641234777867794,0.2823370099067688,-1.4585784117328089,-0.0,-0.03938791900873184,1.0504770278930664,-4.0180191717809066e-05,-0.04380377382040024,1.089766502380371,0.018126389011740685,0.12353973090648651
109.0,198.0,5.9222,-2.7129,6.9254,0.0263,0.0753,-0.0916,-1.8351613483824671,-0.037595514208078384,3.0266799926757812,-1.228511095046997,0.0527784526348114,2.223478317260742,3.8405887323566894,0.004474713001400232,0.2801611125469208,-1.458550278340475,-0.0,-0.05060238391160965,1.050469160079956,-7.302551341403785e-10,-0.041642554104328156,1.0899792909622192,0.02084178663790226,0.135460764169693
109.0,198.0,5.9222,-2.7129,6.9254,0.0263,0.0753,-0.0916,-1.835477968255514,-0.04473700374364853,2.987581729888916,-1.2280126810073853,0.06120843067765236,2.2474453449249268,3.840637369746826,0.0020415622275322676,0.2887361943721771,-1.458602253590719,-0.0,-0.05670633167028427,1.0504531860351562,-1.3272028807453755e-14,-0.043456271290779114,1.0901024341583252,0.02296982705593109,0.1306896209716797
109.0,198.0,5.9222,-2.7129,6.9254,0.0263,0.0753,-0.0916,-1.835783144036764,-0.04367045685648918,2.966226577758789,-1.2276095151901245,0.07033412158489227,2.2672243118286133,3.840624971980713,0.0012962010223418474,0.2769836187362671,-1.4586222807513636,-0.0,-0.061831697821617126,1.0504610538482666,-3.69431765583738e-18,-0.039767637848854065,1.0902472734451294,0.024329615756869316,0.20984062552452087
109.0,198.0,5.9222,-2.7129,6.9254,0.0263,0.0753,-0.0916,-1.8361145458617152,-0.042319126427173615,2.9728646278381348,-1.2270634174346924,0.08424436300992966,2.3025262355804443,3.840721769923828,0.0007546754786744714,0.279848575592041,-1.4585865179644983,-0.0,-0.06462813913822174,1.050441026687622,-6.714240657849736e-23,-0.03276893123984337,1.0904546976089478,0.02547738514840603,0.13478395342826843
109.0,198.0,5.9222,-2.7129,6.9254,0.0263,0.0753,-0.0916,-1.8364397488036097,-0.04135549068450928,2.9733080863952637,-1.226249098777771,0.09705745428800583,2.2901389598846436,3.840693636531494,0.0008206762722693384,0.281081885099411,-1.4586222807513636,-0.0,-0.043181680142879486,1.0504848957061768,-1.2202799979714412e-27,-0.03668970614671707,1.0906662940979004,0.026888998225331306,0.17629265785217285
109.0,198.0,5.9222,-2.7129,6.9254,0.0263,0.0753,-0.0916,-1.8366996250548304,-0.0408419631421566,2.942138195037842,-1.22564697265625,0.10256554186344147,2.2751169204711914,3.840681238765381,0.001726182410493493,0.2782605290412903,-1.458590332661764,-0.0,-0.05203745514154434,1.0504810810089111,-3.396694370203872e-31,-0.03999446704983711,1.0908105373382568,0.027093278244137764,0.1644475758075714
109.0,198.0,5.9222,-2.7129,6.9254,0.0263,0.0753,-0.0916,-1.837015768090719,-0.03864717110991478,2.986189365386963,-1.2247965335845947,0.10296136140823364,2.238264560699463,3.840672655696533,0.0039380635134875774,0.28849753737449646,-1.458534065877096,-0.0,-0.048125095665454865,1.0505090951919556,-1.7530946934130043e-06,-0.03333200514316559,1.0911067724227905,0.02849206142127514,0.1734521985054016
109.0,198.0,5.9222,-2.7129,6.9254,0.0263,0.0753,-0.0916,-1.837339540521139,-0.0352504663169384,2.944840908050537,-1.2239423990249634,0.10734027624130249,2.2744548320770264,3.840728922481201,0.005231049377471209,0.28627651929855347,-1.4586146513568323,-0.0,-0.06171055883169174,1.05050528049469,-3.1861627919349544e-11,-0.04349382966756821,1.0913431644439697,0.028494220227003098,0.16266192495822906
109.0,198.0,5.9222,-2.7129,6.9254,0.0263,0.0753,-0.0916,-1.8376308880248011,-0.03273865580558777,2.9691576957702637,-1.2231216430664062,0.11655433475971222,2.2999699115753174,3.8407723146625976,0.0039270902052521706,0.2648601233959198,-1.4585540930377405,-0.0,-0.05572451651096344,1.0505049228668213,-5.790693627696333e-16,-0.041086018085479736,1.0915827751159668,0.03053939901292324,0.19159570336341858
106.0,178.0,4.7737,-2.7835,7.2437,0.0315,0.1025,-0.0753,-1.8378673992552699,-0.0340498611330986,2.8971309661865234,-1.2224355936050415,0.12013474851846695,2.295210838317871,3.840812845821045,0.001464102533645928,0.2903788685798645,-1.458590332661764,-0.0,-0.050336770713329315,1.0504930019378662,-1.6118612022209636e-19,-0.04605978727340698,1.0917868614196777,0.03214816376566887,0.16815099120140076
106.0,178.0,4.7737,-2.7835,7.2437,0.0315,0.1025,-0.0753,-1.8381387195982875,-0.03908352926373482,2.8703696727752686,-1.221369981765747,0.13104499876499176,2.2645504474639893,3.8407651621052246,0.0005065178265795112,0.2746519446372986,-1.4585784117328089,-0.0,-0.0479925312101841,1.0504810810089111,-2.9294775700271093e-24,-0.04899359494447708,1.0920512676239014,0.03469531238079071,0.16420502960681915
106.0,178.0,4.7737,-2.7835,7.2437,0.0315,0.1025,-0.0753,-1.8384953937926234,-0.04703529179096222,2.8918914794921875,-1.2203495502471924,0.1384112536907196,2.2912232875823975,3.840812845821045,0.0002150174113921821,0.2741261124610901,-1.4586103598224085,-0.0,-0.053829729557037354,1.0504570007324219,-5.32418097003815e-29,-0.039915405213832855,1.0922980308532715,0.03716514632105827,0.12076601386070251
106.0,178.0,4.7737,-2.7835,7.2437,0.0315,0.1025,-0.0753,-1.8387023411192835,-0.05273190140724182,2.8143653869628906,-1.2194358110427856,0.1397123485803604,2.3120102882385254,3.840804262752197,0.00020938982197549194,0.27632880210876465,-1.4585946241961878,-0.0,-0.03880591690540314,1.0505008697509766,-1.4820052374831682e-32,-0.04319349676370621,1.0925097465515137,0.039210617542266846,0.1574835181236267
106.0,178.0,4.7737,-2.7835,7.2437,0.0315,0.1025,-0.0753,-1.8391462765135707,-0.05687614902853966,2.833305835723877,-1.2183072566986084,0.14778117835521698,2.2540810108184814,3.8407837587543945,0.0035896492190659046,0.2699025273323059,-1.458602253590719,-0.0,-0.04106643795967102,1.0504968166351318,-2.693471203103909e-37,-0.03425390645861626,1.0929067134857178,0.043161891400814056,0.17252027988433838
106.0,178.0,4.7737,-2.7835,7.2437,0.0315,0.1025,-0.0753,-1.839609762231344,-0.05897367000579834,2.8952178955078125,-1.2170346975326538,0.15767601132392883,2.3162546157836914,3.840864821071289,0.004726855084300041,0.27085041999816895,-1.4585827032672327,-0.0,-0.05975082144141197,1.0504286289215088,-4.894735535886586e-42,-0.025714213028550148,1.0932226181030273,0.04500236734747887,0.14667201042175293
106.0,178.0,4.7737,-2.7835,7.2437,0.0315,0.1025,-0.0753,-1.840154310266012,-0.06693766266107559,2.884974956512451,-1.2156620025634766,0.16797484457492828,2.300835132598877,3.840920611018799,0.00338759389705956,0.28421735763549805,-1.4585865179644983,-0.0,-0.03426599130034447,1.0504562854766846,-0.0,-0.02689887210726738,1.0936030149459839,0.046717025339603424,0.1415894776582718
106.0,178.0,4.7737,-2.7835,7.2437,0.0315,0.1025,-0.0753,-1.8405734501280726,-0.07811495661735535,2.820096492767334,-1.214677095413208,0.17067132890224457,2.2959766387939453,3.840956850642822,0.002140722470358014,0.2685936391353607,-1.4586060682879847,-0.0,-0.034473177045583725,1.0505011081695557,-0.0,-0.03403017297387123,1.0938984155654907,0.04852588102221489,0.1544959843158722
106.0,178.0,4.7737,-2.7835,7.2437,0.0315,0.1025,-0.0753,-1.8412896595396937,-0.09210963547229767,2.792579412460327,-1.2132536172866821,0.1767239272594452,2.3121981620788574,3.840888186092041,0.0008831978775560856,0.2670193016529083,-1.458590332661764,-0.0,-0.03226523473858833,1.0505822896957397,-0.0,-0.03254052996635437,1.0943304300308228,0.05023154988884926,0.16459035873413086
106.0,178.0,4.7737,-2.7835,7.2437,0.0315,0.1025,-0.0753,-1.8420654735960902,-0.0983540341258049,2.9088635444641113,-1.211778163909912,0.18477530777454376,2.3189697265625,3.8409439760395507,0.0005413797916844487,0.26010286808013916,-1.45856219926943,-0.0,-0.03442004323005676,1.0504286289215088,-0.0,-0.029832568019628525,1.0947420597076416,0.05256137251853943,0.11629113554954529
106.0,178.0,4.7737,-2.7835,7.2437,0.0315,0.1025,-0.0753,-1.8426715336241664,-0.0944550558924675,2.8270885944366455,-1.210605263710022,0.19357222318649292,2.316133975982666,3.840900107020996,0.00028694781940430403,0.2590644359588623,-1.458590332661764,-0.0,-0.03892756998538971,1.050429105758667,-0.0,-0.03049859032034874,1.095025897026062,0.05410865321755409,0.14972633123397827
106.0,178.0,4.7737,-2.7835,7.2437,0.0315,0.1025,-0.0753,-1.8434883556761683,-0.0903523862361908,2.8467679023742676,-1.2090295553207397,0.19046662747859955,2.3019185066223145,3.8408285814472656,-0.0002887181763071567,0.26811957359313965,-1.4585784117328089,-0.0,-0.047819651663303375,1.0504413843154907,-0.0,-0.034817300736904144,1.0955184698104858,0.05986796319484711,0.16721686720848083
105.0,163.0,4.7282,-2.2666,6.5599,0.0819,0.151,-0.1235,-1.8442193470396937,-0.10140842199325562,2.8123865127563477,-1.2075101137161255,0.19269193708896637,2.2848784923553467,3.840764208430908,-0.002660399070009589,0.24875213205814362,-1.458590332661764,-0.0,-0.04403579980134964,1.0504570007324219,-0.0,-0.03691405802965164,1.0959696769714355,0.06514138728380203,0.14442947506904602
105.0,163.0,4.7282,-2.2666,6.5599,0.0819,0.151,-0.1235,-1.8451515636839808,-0.11998836696147919,2.746854066848755,-1.2060316801071167,0.19499991834163666,2.276590347290039,3.8407608705708007,-0.005273140501230955,0.24898895621299744,-1.4586342016803187,-0.0,-0.0361810028553009,1.0504770278930664,-0.0,-0.03421156108379364,1.096555471420288,0.06305486708879471,0.11244642734527588
105.0,163.0,4.7282,-2.2666,6.5599,0.0819,0.151,-0.1235,-1.8458668194212855,-0.13025836646556854,2.745173454284668,-1.2048267126083374,0.19808147847652435,2.222740411758423,3.840712710017822,-0.004638777580112219,0.21876533329486847,-1.458630386983053,-0.0,-0.051750749349594116,1.0504209995269775,-0.0,-0.02670031040906906,1.0968496799468994,0.05674548074603081,0.12561945617198944
105.0,163.0,4.7282,-2.2666,6.5599,0.0819,0.151,-0.1235,-1.8469130001463832,-0.13252834975719452,2.7176132202148438,-1.2031748294830322,0.20093540847301483,2.227674722671509,3.8406688409992675,-0.005244678817689419,0.22266393899917603,-1.4586260954486292,-1.346050595429915e-07,-0.04151888191699982,1.0503969192504883,-0.0,-0.045474547892808914,1.0972856283187866,0.0488835833966732,0.14523395895957947
105.0,163.0,4.7282,-2.2666,6.5599,0.0819,0.151,-0.1235,-1.8479911289610804,-0.12194202840328217,2.769291400909424,-1.201555609703064,0.2162061184644699,2.2529311180114746,3.840569182033203,-0.008720963262021542,0.22818602621555328,-1.458642307912008,-2.446380554729788e-12,-0.04992130398750305,1.050468921661377,-0.0,-0.03619846701622009,1.0976014137268066,0.044204022735357285,0.17729926109313965
105.0,163.0,4.7282,-2.2666,6.5599,0.0819,0.151,-0.1235,-1.848724981347555,-0.11420665681362152,2.7109339237213135,-1.200319766998291,0.2239149510860443,2.243286609649658,3.8404976564594726,-0.014309963211417198,0.21386989951133728,-1.4586260954486292,-0.000583350658416748,-0.05209407955408096,1.0505011081695557,-0.0,-0.05801024287939072,1.0979057550430298,0.045180726796388626,0.1493944227695465
105.0,163.0,4.7282,-2.2666,6.5599,0.0819,0.151,-0.1235,-1.8498298130431117,-0.1223469004034996,2.7154598236083984,-1.1986016035079956,0.21170297265052795,2.2236106395721436,3.840282126063965,-0.02280735783278942,0.19336090981960297,-1.4586260954486292,-0.0005545257590711117,-0.06554946303367615,1.0504250526428223,-0.0,-0.05846550315618515,1.0982611179351807,0.04485085979104042,0.20349307358264923
105.0,163.0,4.7282,-2.2666,6.5599,0.0819,0.151,-0.1235,-1.8508364162840785,-0.13945119082927704,2.67299747467041,-1.1969139575958252,0.20436206459999084,2.2078089714050293,3.8400985437580566,-0.021648919209837914,0.21107149124145508,-1.4585941473590296,-0.0005424660630524158,-0.07153990119695663,1.050417184829712,-0.0,-0.04898657649755478,1.0985976457595825,0.04112882539629936,0.1827622801065445
105.0,163.0,4.7282,-2.2666,6.5599,0.0819,0.151,-0.1235,-1.851891656915182,-0.14993061125278473,2.6331257820129395,-1.1952672004699707,0.2053043395280838,2.17341685295105,3.839923544520996,-0.01608273759484291,0.17676317691802979,-1.4586260954486292,-0.00039970269426703453,-0.07543591409921646,1.050417184829712,-0.0,-0.06364110112190247,1.0988813638687134,0.03197602927684784,0.12080598622560501
105.0,163.0,4.7282,-2.2666,6.5599,0.0819,0.151,-0.1235,-1.852687498132223,-0.1529003381729126,2.640738010406494,-1.19402277469635,0.2007594108581543,2.1792070865631104,3.8398796755024414,-0.006958292797207832,0.1805172860622406,-1.4586260954486292,-0.0003810288035310805,-0.08064328134059906,1.050457239151001,-0.0,-0.07426708191633224,1.099033236503601,0.024616364389657974,0.16900715231895447
105.0,163.0,4.7282,-2.2666,6.5599,0.0819,0.151,-0.1235,-1.8538381061949671,-0.13395820558071136,2.648350715637207,-1.1924586296081543,0.20327885448932648,2.1394686698913574,3.839912100429199,0.0038044729735702276,0.19655242562294006,-1.4586260954486292,-0.0003502003673929721,-0.07868099957704544,1.050477385520935,-0.0,-0.060690395534038544,1.0992052555084229,0.01751727983355522,0.08585478365421295
105.0,163.0,4.7282,-2.2666,6.5599,0.0819,0.151,-0.1235,-1.8549138508238734,-0.11475930362939835,2.7156176567077637,-1.1908435821533203,0.21125921607017517,2.1396379470825195,3.8399154382893066,0.0020878328941762447,0.19833418726921082,-1.4586456457721155,-0.001769795548170805,-0.08832782506942749,1.0503885746002197,-0.0,-0.07263252139091492,1.0993415117263794,0.012395708821713924,0.12290391325950623
100.0,149.0,5.3773,-4.0038,6.7292,-0.0391,-0.0053,-0.0912,-1.855663915673727,-0.11208456009626389,2.7468061447143555,-1.1896069049835205,0.21052637696266174,2.2367632389068604,3.839883490199707,-0.002682612044736743,0.18950144946575165,-1.4586737791644495,-0.003934613429009914,-0.088160939514637,1.0504252910614014,-0.0,-0.06790719926357269,1.0994131565093994,0.012250024825334549,0.1269790083169937
100.0,149.0,5.3773,-4.0038,6.7292,-0.0391,-0.0053,-0.0912,-1.8566328487791957,-0.1319185495376587,2.7714076042175293,-1.188015341758728,0.18937014043331146,2.1680667400360107,3.839843912715576,-0.0018581131007522345,0.18449163436889648,-1.458693806325094,-0.0036735557951033115,-0.09382697939872742,1.0504331588745117,-0.0,-0.06570479273796082,1.0995253324508667,0.0126331876963377,0.15835323929786682
100.0,149.0,5.3773,-4.0038,6.7292,-0.0391,-0.0053,-0.0912,-1.857675691644186,-0.14770452678203583,2.7412924766540527,-1.1865241527557373,0.17587627470493317,2.1898436546325684,3.839895411128662,-0.00017841483349911869,0.1877410113811493,-1.458733860646383,-0.0016900997143238783,-0.08853530883789062,1.050392508506775,-0.0,-0.06771082431077957,1.0995649099349976,0.010041712783277035,0.22337225079536438
100.0,149.0,5.3773,-4.0038,6.7292,-0.0391,-0.0053,-0.0912,-1.8586751423277796,-0.1308175027370453,2.8021233081817627,-1.1851167678833008,0.17620135843753815,2.1874423027038574,3.8399435716816406,-3.242600854491684e-09,0.18963131308555603,-1.4586737791644495,-0.0009482399909757078,-0.0911111906170845,1.0504732131958008,-0.0,-0.07407356798648834,1.0996533632278442,0.005001712590456009,0.12017258256673813
100.0,149.0,5.3773,-4.0038,6.7292,-0.0391,-0.0053,-0.0912,-1.859427114526266,-0.11507420241832733,2.793440818786621,-1.1839759349822998,0.1806083470582962,2.1881935596466064,3.8399597841450195,0.0011882579419761896,0.1852795034646988,-1.4587701002704065,-0.0005882952827960253,-0.08981584012508392,1.0504131317138672,-0.0,-0.062053944915533066,1.0996488332748413,0.002773992484435439,0.1374269425868988
100.0,149.0,5.3773,-4.0038,6.7292,-0.0391,-0.0053,-0.0912,-1.8603421650328578,-0.10249671339988708,2.8739237785339355,-1.182564377784729,0.1817975789308548,2.1722750663757324,3.8399640756794433,0.0008149993955157697,0.2058165967464447,-1.4586899916278284,-0.0008753730799071491,-0.10030996054410934,1.0504814386367798,-0.0,-0.07111244648694992,1.099624752998352,0.0021186769008636475,0.14446097612380981
100.0,149.0,5.3773,-4.0038,6.7292,-0.0391,-0.0053,-0.0912,-1.8613025150694789,-0.10607370734214783,2.8680248260498047,-1.1811684370040894,0.17810706794261932,2.236283779144287,3.83992783605542,0.00025332000222988427,0.18065792322158813,-1.4587176481830042,-0.0008360884967260063,-0.10324330627918243,1.0504450798034668,-0.0,-0.07273963838815689,1.0997334718704224,0.00428745336830616,0.16300716996192932
100.0,149.0,5.3773,-4.0038,6.7292,-0.0391,-0.0053,-0.0912,-1.8619491062560023,-0.11499772220849991,2.8962364196777344,-1.1801360845565796,0.17154771089553833,2.1783955097198486,3.839940233821533,0.00015461411385331303,0.202346533536911,-1.458750073109762,-0.0007546087726950645,-0.09355372190475464,1.0504050254821777,-0.0,-0.0682101622223854,1.0997371673583984,0.005652907304465771,0.1586432009935379
100.0,149.0,5.3773,-4.0038,6.7292,-0.0391,-0.0053,-0.0912,-1.8628527126707972,-0.12150433659553528,2.88809871673584,-1.1787797212600708,0.1612737625837326,2.175339698791504,3.8399321275898437,0.00011504571739351377,0.20249143242835999,-1.4587057272540491,-0.0005834068870171905,-0.09109891951084137,1.0504212379455566,-0.0,-0.055406603962183,1.0997854471206665,0.004596716724336147,0.17170792818069458
100.0,149.0,5.3773,-4.0038,6.7292,-0.0391,-0.0053,-0.0912,-1.8636633358397425,-0.11580096930265427,2.870394229888916,-1.1775401830673218,0.15366391837596893,2.183650493621826,3.839935465449951,0.00021368642046581954,0.19821149110794067,-1.4587414900409144,-0.0003709574812091887,-0.09346263110637665,1.0504494905471802,-0.0,-0.058722563087940216,1.0997850894927979,0.0024093592073768377,0.1775204837322235
100.0,149.0,5.3773,-4.0038,6.7292,-0.0391,-0.0053,-0.0912,-1.8645349941649378,-0.09647662192583084,2.9589500427246094,-1.1761876344680786,0.1610385775566101,2.1949303150177,3.8399640756794433,0.00029215667746029794,0.19104406237602234,-1.4587376753436487,-0.0003865984617732465,-0.09823846817016602,1.05043363571167,-0.0,-0.06380291283130646,1.0998374223709106,0.0012469959910959005,0.1452508568763733
100.0,149.0,5.3773,-4.0038,6.7292,-0.0391,-0.0053,-0.0912,-1.8651071987547816,-0.08990633487701416,2.9200692176818848,-1.1752378940582275,0.16048189997673035,2.1590943336486816,3.8399640756794433,0.00017425893747713417,0.19881294667720795,-1.4587376753436487,-0.0004227379395160824,-0.11571583896875381,1.05037260055542,-0.0,-0.06039664149284363,1.0998010635375977,0.0011037752265110612,0.15750469267368317
105.0,153.0,5.4144,-1.992,6.6281,0.1319,0.0652,0.011,-1.86590637783193,-0.097870834171772,2.9522018432617188,-1.1739741563796997,0.15889593958854675,2.1644959449768066,3.8399202066608886,7.584591367049143e-05,0.2005540132522583,-1.4587534109698694,-0.0008242634939961135,-0.09757505357265472,1.0504087209701538,-0.0,-0.06661225855350494,1.0998653173446655,0.005877318792045116,0.2314871847629547
105.0,153.0,5.4144,-1.992,6.6281,0.1319,0.0652,0.011,-1.8666659794249476,-0.11027635633945465,2.886744499206543,-1.1727252006530762,0.14898894727230072,2.1590123176574707,3.8398915964313964,2.670155652140238e-09,0.19063615798950195,-1.4587696234332483,-0.001332528656348586,-0.12464375793933868,1.0504209995269775,-0.0,-0.06346548348665237,1.099916934967041,0.009171675890684128,0.22304672002792358
105.0,153.0,5.4144,-1.992,6.6281,0.1319,0.0652,0.011,-1.867261072198385,-0.10975569486618042,2.858567237854004,-1.17183256149292,0.14695769548416138,2.1397910118103027,3.8398753839680175,7.432477485032341e-13,0.18126901984214783,-1.4587977568255823,-0.0017153272638097405,-0.10202031582593918,1.050445556640625,-0.0,-0.054843246936798096,1.0999491214752197,0.010718703269958496,0.23431800305843353
105.0,153.0,5.4144,-1.992,6.6281,0.1319,0.0652,0.011,-1.8681403599181117,-0.10270877927541733,2.8930301666259766,-1.1706997156143188,0.15066315233707428,2.15380597114563,3.839887781734131,-0.0007261855062097311,0.19524753093719482,-1.4587495962726038,-0.0022284407168626785,-0.10850460827350616,1.050445556640625,-0.0,-0.05515369772911072,1.1000853776931763,0.011701857671141624,0.21798771619796753
105.0,153.0,5.4144,-1.992,6.6281,0.1319,0.0652,0.011,-1.8689567051329554,-0.0851425975561142,2.910245895385742,-1.1694552898406982,0.1545492559671402,2.141693592071533,3.8398563104816894,-0.0015729779843240976,0.19071921706199646,-1.458773438130514,-0.0012036538682878017,-0.113313227891922,1.0504169464111328,-0.0,-0.06492897868156433,1.1001533269882202,0.012509425170719624,0.25471919775009155
105.0,153.0,5.4144,-1.992,6.6281,0.1319,0.0652,0.011,-1.8696438274779261,-0.08335466682910919,2.9434244632720947,-1.1683236360549927,0.14563515782356262,2.174867868423462,3.839796228999756,-0.005377224646508694,0.18872231245040894,-1.4587653318988245,-0.0006354263750836253,-0.09610188007354736,1.050400972366333,-0.0,-0.07179807126522064,1.1002609729766846,0.014393926598131657,0.1934058964252472
105.0,153.0,5.4144,-1.992,6.6281,0.1319,0.0652,0.011,-1.870155473748678,-0.091404490172863,2.931924819946289,-1.1674572229385376,0.13306114077568054,2.1500048637390137,3.8397442537495117,-0.00914320070296526,0.17770880460739136,-1.4587934652911585,-0.00046944888890720904,-0.10879053175449371,1.0503804683685303,-0.0,-0.08565034717321396,1.1003811359405518,0.016981616616249084,0.1958649903535843
105.0,153.0,5.4144,-1.992,6.6281,0.1319,0.0652,0.011,-1.8708306751646937,-0.09820263087749481,2.934131622314453,-1.1664047241210938,0.12416394054889679,2.104452610015869,3.839620752925537,-0.011096406728029251,0.18105745315551758,-1.4587653318988245,-0.00034825134207494557,-0.08751219511032104,1.0504045486450195,-0.0,-0.07085264474153519,1.10052490234375,0.018470756709575653,0.14248624444007874
105.0,153.0,5.4144,-1.992,6.6281,0.1319,0.0652,0.011,-1.8716150722899378,-0.09563780575990677,2.9374613761901855,-1.1654242277145386,0.12582279741764069,2.116971969604492,3.83958546697583,-0.008779159747064114,0.17713069915771484,-1.4587615172015589,-0.0002768127014860511,-0.0955018550157547,1.050457239151001,-0.0,-0.07508619129657745,1.1006773710250854,0.01913195103406906,0.19824549555778503
105.0,153.0,5.4144,-1.992,6.6281,0.1319,0.0652,0.011,-1.8721791706480921,-0.08780179172754288,2.954402208328247,-1.1645898818969727,0.1339862048625946,2.119603395462036,3.8394972521015625,-0.005475894547998905,0.19130268692970276,-1.4587815443622034,-0.00023990745830815285,-0.0996890515089035,1.050469160079956,-0.0,-0.05743758752942085,1.100817322731018,0.019125772640109062,0.22014988958835602
105.0,153.0,5.4144,-1.992,6.6281,0.1319,0.0652,0.011,-1.8728743992247523,-0.07868387550115585,2.99127459526062,-1.1635613441467285,0.1359480619430542,2.188157320022583,3.839461489314697,-0.00194093759637326,0.19206219911575317,-1.458813492451803,-0.0002037007943727076,-0.09935896098613739,1.0504491329193115,-0.0,-0.07226116955280304,1.1009330749511719,0.01942308060824871,0.12391959130764008
105.0,153.0,5.4144,-1.992,6.6281,0.1319,0.0652,0.011,-1.8735205135741175,-0.07422313839197159,3.039484739303589,-1.1625763177871704,0.12402701377868652,2.1545703411102295,3.839465304011963,-0.00259387562982738,0.21018028259277344,-1.4587972799884241,-0.00017699087038636208,-0.08869796991348267,1.0504376888275146,-0.0,-0.05725054442882538,1.1010689735412598,0.01962297409772873,0.15486778318881989
105.0,153.0,5.4144,-1.992,6.6281,0.1319,0.0652,0.011,-1.8740087948241175,-0.0704258531332016,2.9651548862457275,-1.161849021911621,0.11418991535902023,2.1444859504699707,3.839369459743164,-0.005585264414548874,0.1947869509458542,-1.4588330427752894,-0.00016114437312353402,-0.09180420637130737,1.0505012273788452,-0.0,-0.07301598787307739,1.1012252569198608,0.020744528621435165,0.18810397386550903
105.0,157.0,4.946,-2.7673,6.588,-0.0722,-0.002,-0.1214,-1.8745409450926722,-0.06332980841398239,3.0200181007385254,-1.1609858274459839,0.10361187160015106,2.1250500679016113,3.8392698007770996,-0.013429977931082249,0.15958577394485474,-1.4587772528277796,-0.00014395923062693328,-0.08800912648439407,1.0504412651062012,-0.0,-0.07580963522195816,1.1013447046279907,0.019593266770243645,0.11688442528247833
105.0,157.0,4.946,-2.7673,6.588,-0.0722,-0.002,-0.1214,-1.8750001392760218,-0.056463465094566345,3.019779920578003,-1.1602749824523926,0.09040585160255432,2.101675510406494,3.8390418726154785,-0.025938265025615692,0.18505322933197021,-1.4587214628802698,-0.0001300864532822743,-0.07750557363033295,1.0503968000411987,-0.0,-0.05583404749631882,1.1015697717666626,0.01721283048391342,0.1266782581806183
105.0,157.0,4.946,-2.7673,6.588,-0.0722,-0.002,-0.1214,-1.8754040203490199,-0.04805595427751541,3.004652500152588,-1.1595476865768433,0.08449334651231766,2.1192119121551514,3.838799162501953,-0.03303549438714981,0.17073924839496613,-1.4587815443622034,-0.00010398614540463313,-0.07609419524669647,1.0503963232040405,-2.6048754079965875e-05,-0.06700015068054199,1.1016488075256348,0.01498465146869421,0.08836806565523148
105.0,157.0,4.946,-2.7673,6.588,-0.0722,-0.002,-0.1214,-1.875655313531393,-0.04212227463722229,3.0450870990753174,-1.159031867980957,0.08316933363676071,2.1423792839050293,3.838632269496582,-0.036986954510211945,0.17679017782211304,-1.4587815443622034,-9.276362106902525e-05,-0.06737914681434631,1.0503885746002197,-7.250766209665471e-09,-0.05840402841567993,1.1017690896987915,0.012272901833057404,0.07432316243648529
105.0,157.0,4.946,-2.7673,6.588,-0.0722,-0.002,-0.1214,-1.8759271107115687,-0.0349094457924366,3.0562262535095215,-1.1583685874938965,0.08008783310651779,2.0752577781677246,3.8383375841328125,-0.03928188234567642,0.17090550065040588,-1.4588053862201136,-8.569596684537828e-05,-0.07349948585033417,1.0504655838012695,-1.3177909555673467e-13,-0.06744837760925293,1.1018532514572144,0.008845813572406769,0.047166403383016586
105.0,157.0,4.946,-2.7673,6.588,-0.0722,-0.002,-0.1214,-1.8761788807311,-0.029699405655264854,3.1097216606140137,-1.157768964767456,0.06940697133541107,2.0987491607666016,3.8380343157001953,-0.039274346083402634,0.17448770999908447,-1.4587815443622034,-6.370468327077106e-05,-0.06412734091281891,1.0504372119903564,-2.3950201931521083e-18,-0.07205967605113983,1.1018567085266113,0.0057699657045304775,-0.01241031289100647
105.0,157.0,4.946,-2.7673,6.588,-0.0722,-0.002,-0.1214,-1.8763953648009242,-0.0259887482970953,3.1084036827087402,-1.157401442527771,0.06138665974140167,2.0804872512817383,3.8377787309833984,-0.041425615549087524,0.16926610469818115,-1.4587858358966272,-6.049265721230768e-05,-0.06658764183521271,1.0504252910614014,-6.666626402005789e-22,-0.06456375122070312,1.1018848419189453,0.0028804356697946787,-0.018861308693885803
105.0,157.0,4.946,-2.7673,6.588,-0.0722,-0.002,-0.1214,-1.8765784702696742,-0.023020638152956963,3.1232223510742188,-1.156946063041687,0.050744589418172836,2.1212992668151855,3.8373753267475585,-0.05484049394726753,0.1607254296541214,-1.458773438130514,-4.2513132939348e-05,-0.04890241473913193,1.0504893064498901,-1.2116264865825183e-26,-0.05706402659416199,1.1018807888031006,0.0010852697305381298,0.06077893450856209
105.0,157.0,4.946,-2.7673,6.588,-0.0722,-0.002,-0.1214,-1.8767467937865199,-0.018846124410629272,3.183713436126709,-1.1565659046173096,0.042269740253686905,2.0682058334350586,3.836861773128174,-0.08240967243909836,0.1500546634197235,-1.4587934652911585,2.748050246736966e-05,-0.060137465596199036,1.0504615306854248,-2.2020714349095237e-31,-0.0530855730175972,1.1019489765167236,0.0005512946518138051,0.036773160099983215
105.0,157.0,4.946,-2.7673,6.588,-0.0722,-0.002,-0.1214,-1.8768588505186976,-0.01507123839110136,3.1402530670166016,-1.156266450881958,0.03544367849826813,2.009552001953125,3.8360835748859863,-0.1115257740020752,0.14571858942508698,-1.4587815443622034,3.887119237333536e-05,-0.04831817001104355,1.0504491329193115,-4.002155766789384e-36,-0.06725037097930908,1.1019490957260132,0.0003699233930092305,-0.001943366602063179
105.0,157.0,4.946,-2.7673,6.588,-0.0722,-0.002,-0.1214,-1.876930376092428,-0.012857708148658276,3.167206287384033,-1.1560633182525635,0.03061956912279129,2.0363526344299316,3.835261507625244,-0.124227374792099,0.14323896169662476,-1.4587534109698694,3.7288373277988285e-05,-0.04085908085107803,1.0504934787750244,-1.1140140622581933e-39,-0.060688164085149765,1.1019327640533447,0.00029672656091861427,-0.016588913276791573
