ramyac6/ROB537/final_project/csv/all/good_117.csv
tof_0,tof_1,accelx,accely,accelz,gyrox,gyroy,gyroz,shoulder_lift_joint_position,shoulder_lift_joint_velocity,shoulder_lift_joint_effort,elbow_joint_position,elbow_joint_velocity,elbow_joint_effort,wrist_1_joint_position,wrist_1_joint_velocity,wrist_1_joint_effort,wrist_2_joint_position,wrist_2_joint_velocity,wrist_2_joint_effort,wrist_3_joint_position,wrist_3_joint_velocity,wrist_3_joint_effort,shoulder_pan_joint_position,shoulder_pan_joint_velocity,shoulder_pan_joint_effort
187.0,204.0,0.402,-0.8183,9.5683,-0.0399,0.0284,-0.1153,-1.9446083507933558,0.0,3.6877737045288086,-1.5628864765167236,-0.0,2.0680713653564453,4.9528479454811,-0.0,0.2899540364742279,-1.5004103819476526,-0.0,-0.028729014098644257,0.8779928684234619,-0.0,0.011296662501990795,0.7868411540985107,0.0,-0.003883413039147854
187.0,204.0,0.402,-0.8183,9.5683,-0.0399,0.0284,-0.1153,-1.944620271722311,0.0,3.677258014678955,-1.5629066228866577,-0.0,2.080683708190918,4.9528479454811,-0.0,0.28379130363464355,-1.500373665486471,-0.0,-0.023615993559360504,0.8780009150505066,-0.0,0.0014128506882116199,0.7868250608444214,0.0,0.014649608172476292
187.0,204.0,0.402,-0.8183,9.5683,-0.0399,0.0284,-0.1153,-1.94458069423818,0.0,3.690870761871338,-1.5629547834396362,-0.0,2.0654098987579346,4.9528479454811,-0.0,0.2925460934638977,-1.5003498236285608,-0.0,-0.031663812696933746,0.8780328631401062,-0.0,0.0013583498075604439,0.7868130803108215,0.0,0.019923105835914612
187.0,204.0,0.402,-0.8183,9.5683,-0.0399,0.0284,-0.1153,-1.9445845089354457,0.0,3.643826961517334,-1.562958836555481,-0.0,2.084564685821533,4.952892187028684,-0.0,0.2855403423309326,-1.500373665486471,-0.0,-0.018593281507492065,0.8780288696289062,-0.0,-0.002142192330211401,0.7868329286575317,0.0,-0.011859258636832237
187.0,204.0,0.402,-0.8183,9.5683,-0.0399,0.0284,-0.1153,-1.9445964298644007,0.0,3.66143798828125,-1.5629189014434814,-0.0,2.0780141353607178,4.9528520731027506,-0.0,0.2830035984516144,-1.500361744557516,-0.0,-0.007310227025300264,0.8780734539031982,-0.0,0.001387396827340126,0.7868411540985107,0.0,-0.00639808364212513
187.0,204.0,0.402,-0.8183,9.5683,-0.0399,0.0284,-0.1153,-1.9446169338622035,0.0,3.641909599304199,-1.562998652458191,-0.0,2.0348622798919678,4.952831628709593,-0.0,0.28769615292549133,-1.500357453023092,-0.0,-0.009043516591191292,0.8779892325401306,-0.0,-0.00594440707936883,0.786773145198822,0.0,-0.000145692378282547
187.0,204.0,0.402,-0.8183,9.5683,-0.0399,0.0284,-0.1153,-1.944636961022848,0.0,3.6632189750671387,-1.5629467964172363,-0.0,2.0764169692993164,4.952904376178541,-0.0,0.29033637046813965,-1.5003817717181605,-0.0,-0.018714256584644318,0.8780899047851562,-0.0,-0.0008743151556700468,0.7868209481239319,0.0,0.02183796837925911
195.0,205.0,0.4702,-0.8279,9.4756,-0.0347,0.0228,-0.1121,-1.9446126423277796,0.0,3.5767297744750977,-1.5629149675369263,-0.0,2.0757896900177,4.9528479454811,-0.0,0.2871893644332886,-1.500333611165182,-0.0,-0.02431958168745041,0.8780496120452881,-0.0,0.0010562189854681492,0.7868249416351318,0.0,-0.021105904132127762
195.0,205.0,0.4702,-0.8279,9.4756,-0.0347,0.0228,-0.1121,-1.94458069423818,0.0,3.6251561641693115,-1.5629383325576782,-0.0,2.054292678833008,4.952859866410055,-0.0,0.2866092622280121,-1.500385586415426,-0.0,-0.019909314811229706,0.878078043460846,-0.0,0.006796336732804775,0.7868329882621765,0.0,-0.0066566322930157185
195.0,205.0,0.4702,-0.8279,9.4756,-0.0347,0.0228,-0.1121,-1.9446169338622035,0.0,3.6438374519348145,-1.5629507303237915,-0.0,2.048729658126831,4.95287178733901,-0.0,0.28233134746551514,-1.5003779570208948,-0.0,-0.0246883574873209,0.8780412673950195,-0.0,0.010770261287689209,0.7868452072143555,0.0,-0.01086490135639906
195.0,205.0,0.4702,-0.8279,9.4756,-0.0347,0.0228,-0.1121,-1.944592615167135,0.0,3.6660995483398438,-1.5629467964172363,-0.0,2.059695243835449,4.952872100263395,-0.0,0.28959232568740845,-1.5003698507892054,-0.0,-0.022019296884536743,0.8780496120452881,-0.0,0.0024333703331649303,0.7867929935455322,0.0,0.04239731281995773
195.0,205.0,0.4702,-0.8279,9.4756,-0.0347,0.0228,-0.1121,-1.9446445904173792,0.0,3.661656379699707,-1.5628865957260132,-0.0,2.074629068374634,4.952807578235426,-0.0,0.2869139015674591,-1.5003698507892054,-0.0,-0.008598621934652328,0.8780533671379089,-0.0,0.0038511280436068773,0.7868249416351318,0.0,0.004187551327049732
195.0,205.0,0.4702,-0.8279,9.4756,-0.0347,0.0228,-0.1121,-1.9446445904173792,0.0,3.656902313232422,-1.5629507303237915,-0.0,2.0625617504119873,4.95283983924941,-0.0,0.27913060784339905,-1.500357453023092,-0.0,-0.010027425363659859,0.8780699372291565,-0.0,-0.0009566715452820063,0.786797046661377,0.0,-0.022999752312898636
195.0,205.0,0.4702,-0.8279,9.4756,-0.0347,0.0228,-0.1121,-1.9446126423277796,0.0,3.667013168334961,-1.5629507303237915,-0.0,2.059765338897705,4.95281562486247,-0.0,0.28922557830810547,-1.5003894011126917,-0.0,-0.022460931912064552,0.8780372142791748,-0.0,0.0009170217090286314,0.7868209481239319,0.0,-0.002254549413919449
195.0,205.0,0.4702,-0.8279,9.4756,-0.0347,0.0228,-0.1121,-1.9446007213988246,0.0,3.6791648864746094,-1.5628986358642578,-0.0,2.0681750774383545,4.9528639195259,-0.0,0.2881999611854553,-1.500333611165182,-0.0,-0.011578274890780449,0.878028929233551,-0.0,0.0038041959051042795,0.7868531942367554,0.0,0.017596900463104248
195.0,205.0,0.4702,-0.8279,9.4756,-0.0347,0.0228,-0.1121,-1.944592615167135,0.0,3.5903255939483643,-1.5628865957260132,-0.0,2.064833641052246,4.952831658511915,-0.0,0.2906033396720886,-1.5003979841815394,-0.0,-0.019503992050886154,0.8780252933502197,-0.0,0.01253250241279602,0.7868008613586426,0.0,-0.007567543536424637
195.0,205.0,0.4702,-0.8279,9.4756,-0.0347,0.0228,-0.1121,-1.9445964298644007,0.0,3.6388208866119385,-1.5629546642303467,-0.0,2.0803518295288086,4.952896240144529,-0.0,0.28489959239959717,-1.5004103819476526,-0.0,-0.006652852054685354,0.878021240234375,-0.0,-0.0099946903064847,0.786808967590332,0.0,0.018875349313020706
195.0,205.0,0.4702,-0.8279,9.4756,-0.0347,0.0228,-0.1121,-1.9445845089354457,0.0,3.61086106300354,-1.5629223585128784,-0.0,2.0373475551605225,4.952884080796995,-0.0,0.2832012176513672,-1.500361744557516,-0.0,-0.016050320118665695,0.8780248165130615,-0.0,-0.006474485620856285,0.7868412137031555,0.0,-0.020832765847444534
195.0,205.0,0.4702,-0.8279,9.4756,-0.0347,0.0228,-0.1121,-1.94458069423818,0.0,3.6122312545776367,-1.5629109144210815,-0.0,2.0682244300842285,4.952856096416273,-0.0,0.283731073141098,-1.500385586415426,-0.0,0.00011658202856779099,0.8780496120452881,-0.0,0.005164825823158026,0.7868090271949768,0.0,0.013148675672709942
185.0,199.0,0.4618,-0.859,9.4923,-0.0374,0.0208,-0.1144,-1.9446331463255824,0.0,3.619762897491455,-1.5629826784133911,-0.0,2.0731263160705566,4.95286804714755,-0.0,0.29495835304260254,-1.500373665486471,-0.0,-0.0328078418970108,0.8780579566955566,-0.0,-0.001733295852318406,0.7868211269378662,0.0,0.005686220712959766
185.0,199.0,0.4618,-0.859,9.4923,-0.0374,0.0208,-0.1144,-1.9446083507933558,0.0,3.645590305328369,-1.5629867315292358,-0.0,2.036180257797241,4.95283983924941,-0.0,0.2814454138278961,-1.5003894011126917,-0.0,-0.004056497011333704,0.8780088424682617,-0.0,-0.009825296700000763,0.7868010401725769,0.0,-0.043528348207473755
185.0,199.0,0.4618,-0.859,9.4923,-0.0374,0.0208,-0.1144,-1.9446083507933558,0.0,3.6145524978637695,-1.562958836555481,-0.0,2.122990369796753,4.952835786133566,-0.0,0.29019349813461304,-1.500406567250387,-0.0,-0.018271081149578094,0.8780533671379089,-0.0,0.00426130648702383,0.7868049740791321,0.0,0.012715751305222511
185.0,199.0,0.4618,-0.859,9.4923,-0.0374,0.0208,-0.1144,-1.9446126423277796,0.0,3.650458574295044,-1.5629229545593262,-0.0,2.054980754852295,4.952843877464094,-0.0,0.28957095742225647,-1.5003655592547815,-0.0,-0.01335719134658575,0.8780087828636169,-0.0,-0.007103003095835447,0.7868289947509766,0.0,0.004118458833545446
185.0,199.0,0.4618,-0.859,9.4923,-0.0374,0.0208,-0.1144,-1.9446093044676722,0.0,3.726738929748535,-1.5629149675369263,-0.0,2.0772557258605957,4.952859866410055,-0.0,0.28466594219207764,-1.500373665486471,-0.0,-0.010718503966927528,0.8780009150505066,-0.0,-0.00396965304389596,0.786797046661377,0.0,0.007375676184892654
185.0,199.0,0.4618,-0.859,9.4923,-0.0374,0.0208,-0.1144,-1.9446126423277796,0.0,3.6380650997161865,-1.5628986358642578,-0.0,2.107241153717041,4.952855798393049,-0.0,0.2846544086933136,-1.5003498236285608,-0.0,-0.015502702444791794,0.8780538439750671,-0.0,0.00208255834877491,0.7868369817733765,0.0,0.019846223294734955
185.0,199.0,0.4618,-0.859,9.4923,-0.0374,0.0208,-0.1144,-1.9446288547911585,0.0,3.6054329872131348,-1.5629262924194336,-0.0,2.0972113609313965,4.95286804714755,-0.0,0.29943808913230896,-1.500385586415426,-0.0,-0.016398603096604347,0.8781095743179321,-0.0,-0.004089609254151583,0.7868651747703552,0.0,0.04539283737540245
185.0,199.0,0.4618,-0.859,9.4923,-0.0374,0.0208,-0.1144,-1.9446169338622035,0.0,3.6127729415893555,-1.5628587007522583,-0.0,2.0432868003845215,4.952847930579939,-0.0,0.28429827094078064,-1.5003655592547815,-0.0,-0.021274786442518234,0.8780329823493958,-0.0,-0.004090818576514721,0.7868050932884216,0.0,0.014559662900865078
185.0,199.0,0.4618,-0.859,9.4923,-0.0374,0.0208,-0.1144,-1.9446050129332484,0.0,3.6809682846069336,-1.5629668235778809,-0.0,2.0540719032287598,4.952859881311216,-0.0,0.2735394835472107,-1.500373665486471,-0.0,-0.012408657930791378,0.8780052065849304,-0.0,-0.008453404530882835,0.7867849469184875,0.0,0.02768888883292675
185.0,199.0,0.4618,-0.859,9.4923,-0.0374,0.0208,-0.1144,-1.9446007213988246,0.0,3.6632165908813477,-1.5629427433013916,-0.0,2.0464420318603516,4.952879923373022,-0.0,0.29268679022789,-1.5003498236285608,-0.0,-0.01972220093011856,0.8780288696289062,-0.0,-0.0027532512322068214,0.7868050336837769,0.0,-0.005305945873260498
185.0,199.0,0.4618,-0.859,9.4923,-0.0374,0.0208,-0.1144,-1.9445888004698695,0.0,3.621798276901245,-1.562919020652771,-0.0,2.06833553314209,4.952843877464094,-0.0,0.2833411395549774,-1.5003660360919397,-0.0,-0.024404682219028473,0.8780088424682617,-0.0,0.0006729410961270332,0.7868369817733765,0.0,-0.0028413033578544855
185.0,199.0,0.4618,-0.859,9.4923,-0.0374,0.0208,-0.1144,-1.944620748559469,0.0,3.616483449935913,-1.5629149675369263,-0.0,2.0659470558166504,4.952884065895834,-0.0,0.2717262804508209,-1.500345532094137,-0.0,-0.027578528970479965,0.8781059980392456,-0.0,-0.006672021932899952,0.7868050932884216,0.0,-0.025211814790964127
190.0,197.0,0.4181,-0.8584,9.6485,-0.0399,0.0238,-0.126,-1.9446288547911585,0.0,3.668126106262207,-1.5629189014434814,-0.0,2.0647530555725098,4.952856126218595,-0.0,0.2831859588623047,-1.5003655592547815,-0.0,0.0029411958530545235,0.8780574798583984,-0.0,0.006808031350374222,0.7868452072143555,0.0,0.0033529228530824184
190.0,197.0,0.4181,-0.8584,9.6485,-0.0399,0.0238,-0.126,-1.9446364841856898,0.0,3.637650489807129,-1.562970757484436,-0.0,2.0180492401123047,4.952847960382261,-0.0,0.2897212505340576,-1.5003417173968714,-0.0,-0.007390354759991169,0.8780858516693115,-0.0,-0.012916665524244308,0.7868369817733765,0.0,0.048757921904325485
190.0,197.0,0.4181,-0.8584,9.6485,-0.0399,0.0238,-0.126,-1.9446007213988246,0.0,3.6201672554016113,-1.5629384517669678,-0.0,2.0682082176208496,4.952859851508894,-0.0,0.28287410736083984,-1.5003536383258265,-0.0,-0.010028816759586334,0.8780455589294434,-0.0,0.0059498874470591545,0.7867929339408875,0.0,0.02549719251692295
190.0,197.0,0.4181,-0.8584,9.6485,-0.0399,0.0238,-0.126,-1.9446288547911585,0.0,3.631225109100342,-1.5629507303237915,-0.0,2.0426785945892334,4.952847960382261,-0.0,0.2887025475502014,-1.5003536383258265,-0.0,-0.012946375645697117,0.8780980706214905,-0.0,-0.002172760432586074,0.7868411540985107,0.0,0.011884484440088272
190.0,197.0,0.4181,-0.8584,9.6485,-0.0399,0.0238,-0.126,-1.9446445904173792,0.0,3.6821699142456055,-1.5628706216812134,-0.0,2.0984814167022705,4.952815609961309,-0.0,0.2874651253223419,-1.5003536383258265,-0.0,-0.01733562722802162,0.8780538439750671,-0.0,-0.004184942692518234,0.7868650555610657,0.0,0.04558292031288147
190.0,197.0,0.4181,-0.8584,9.6485,-0.0399,0.0238,-0.126,-1.9446445904173792,0.0,3.6575636863708496,-1.5629383325576782,-0.0,2.06398868560791,4.95288813391284,-0.0,0.27932295203208923,-1.5003779570208948,-0.0,-0.018760044127702713,0.8780455589294434,-0.0,-0.006499726325273514,0.7868249416351318,0.0,-0.000594335375353694
190.0,197.0,0.4181,-0.8584,9.6485,-0.0399,0.0238,-0.126,-1.944620271722311,0.0,3.635354518890381,-1.5629587173461914,-0.0,2.0377962589263916,4.9528479156787775,-0.0,0.28901317715644836,-1.5003779570208948,-0.0,-0.017351895570755005,0.8780412673950195,-0.0,-0.0002615755656734109,0.7868210673332214,0.0,0.04653916507959366
190.0,197.0,0.4181,-0.8584,9.6485,-0.0399,0.0238,-0.126,-1.9446126423277796,0.0,3.656100273132324,-1.5629149675369263,-0.0,2.0883371829986572,4.952843877464094,-0.0,0.290164977312088,-1.5003536383258265,-0.0,-0.013592056930065155,0.8780579566955566,-0.0,-0.0051029147580266,0.7868452072143555,0.0,0.020179864019155502
190.0,197.0,0.4181,-0.8584,9.6485,-0.0399,0.0238,-0.126,-1.944636961022848,0.0,3.595996856689453,-1.562934398651123,-0.0,2.096966028213501,4.952852058201589,-0.0,0.29996684193611145,-1.5003779570208948,-0.0,-0.012994883581995964,0.8780579566955566,-0.0,-0.001051155966706574,0.786797046661377,0.0,-0.03519405052065849
190.0,197.0,0.4181,-0.8584,9.6485,-0.0399,0.0238,-0.126,-1.9446169338622035,0.0,3.626899242401123,-1.5629149675369263,-0.0,2.0319626331329346,4.952827575593748,-0.0,0.2978593111038208,-1.5003779570208948,-0.0,-0.017639219760894775,0.8780538439750671,-0.0,-0.013433760032057762,0.7868531942367554,0.0,0.04124544560909271
190.0,197.0,0.4181,-0.8584,9.6485,-0.0399,0.0238,-0.126,-1.9446526966490687,0.0,3.6592230796813965,-1.5629507303237915,-0.0,2.054250955581665,4.952823567181387,-0.0,0.29022854566574097,-1.5004103819476526,-0.0,-0.011696314439177513,0.8780739307403564,-0.0,-0.0006839807028882205,0.7868369817733765,0.0,0.021963659673929214
190.0,197.0,0.4181,-0.8584,9.6485,-0.0399,0.0238,-0.126,-1.9446126423277796,0.0,3.6407723426818848,-1.5629066228866577,-0.0,2.067553758621216,4.952811586647787,-0.0,0.29322105646133423,-1.500357453023092,-0.0,-0.019714191555976868,0.8780413269996643,-0.0,0.005928681697696447,0.7868249416351318,0.0,-0.0038413293659687042
190.0,197.0,0.4181,-0.8584,9.6485,-0.0399,0.0238,-0.126,-1.9445845089354457,0.0,3.631918430328369,-1.5629383325576782,-0.0,2.0639569759368896,4.952831658511915,-0.0,0.2915337085723877,-1.5003698507892054,-0.0,-0.00989625509828329,0.8780775666236877,-0.0,0.007858353666961193,0.7868452072143555,0.0,0.05366002023220062
185.0,202.0,0.4576,-0.8399,9.4684,-0.0379,0.0215,-0.1179,-1.9446255169310511,0.0,3.6363911628723145,-1.5629507303237915,-0.0,2.051496744155884,4.952827575593748,-0.0,0.29091018438339233,-1.500373665486471,-0.0,-0.02259489707648754,0.8780656456947327,-0.0,-0.010941709391772747,0.786832869052887,0.0,-0.006411169655621052
185.0,202.0,0.4576,-0.8399,9.4684,-0.0379,0.0215,-0.1179,-1.944620271722311,0.0,3.6232216358184814,-1.562874674797058,-0.0,2.0673794746398926,4.952859866410055,-0.0,0.28391510248184204,-1.5003975073443812,-0.0,-0.00924448762089014,0.8780412673950195,-0.0,-0.009485643357038498,0.7868372797966003,0.0,0.007084019482135773
185.0,202.0,0.4576,-0.8399,9.4684,-0.0379,0.0215,-0.1179,-1.9446007213988246,0.0,3.6630992889404297,-1.5629268884658813,-0.0,2.0641613006591797,4.952912214189329,-0.0,0.2852582037448883,-1.5003979841815394,-0.0,-0.017115697264671326,0.8780496120452881,-0.0,-0.0013550079893320799,0.7868452072143555,0.0,-0.0005174417747184634
185.0,202.0,0.4576,-0.8399,9.4684,-0.0379,0.0215,-0.1179,-1.9445845089354457,0.0,3.641057014465332,-1.5629708766937256,-0.0,2.043571949005127,4.95283159890727,-0.0,0.2830062210559845,-1.5003255049334925,-0.0,-0.01213168352842331,0.8780412673950195,-0.0,0.012016257271170616,0.7868329882621765,0.0,-0.0017822189256548882
185.0,202.0,0.4576,-0.8399,9.4684,-0.0379,0.0215,-0.1179,-1.9446526966490687,0.0,3.6388769149780273,-1.5629547834396362,-0.0,2.0474607944488525,4.95289212742404,-0.0,0.28479743003845215,-1.5003379026996058,-0.0,-0.021781086921691895,0.8780496120452881,-0.0,0.004508207086473703,0.7868369817733765,0.0,-0.030965793877840042
185.0,202.0,0.4576,-0.8399,9.4684,-0.0379,0.0215,-0.1179,-1.9446007213988246,0.0,3.638632297515869,-1.5628985166549683,-0.0,2.0449509620666504,4.9528479454811,-0.0,0.28216081857681274,-1.500357453023092,-0.0,-0.01764592155814171,0.878089964389801,-0.0,0.001160315005108714,0.7868249416351318,0.0,-0.017982246354222298
185.0,202.0,0.4576,-0.8399,9.4684,-0.0379,0.0215,-0.1179,-1.944620748559469,0.0,3.6404781341552734,-1.562927007675171,-0.0,2.0458531379699707,4.952904122858801,-0.0,0.29282787442207336,-1.5003655592547815,-0.0,-0.015504803508520126,0.8780329823493958,-0.0,-0.021672410890460014,0.7868209481239319,0.0,0.029615221545100212
185.0,202.0,0.4576,-0.8399,9.4684,-0.0379,0.0215,-0.1179,-1.9446608028807582,0.0,3.6325008869171143,-1.5629867315292358,-0.0,2.0891976356506348,4.952843877464094,-0.0,0.2853550910949707,-1.5003698507892054,-0.0,-0.021926160901784897,0.8780455589294434,-0.0,-0.00025229109451174736,0.7867929935455322,0.0,-0.010314753279089928
185.0,202.0,0.4576,-0.8399,9.4684,-0.0379,0.0215,-0.1179,-1.94458069423818,0.0,3.676455020904541,-1.5629987716674805,-0.0,2.05318284034729,4.952803808241644,-0.0,0.28737062215805054,-1.5003698507892054,-0.0,-0.020355001091957092,0.8780694007873535,-0.0,0.004713053815066814,0.7868369817733765,0.0,0.0017332836287096143
185.0,202.0,0.4576,-0.8399,9.4684,-0.0379,0.0215,-0.1179,-1.944592615167135,0.0,3.664731025695801,-1.5629347562789917,-0.0,2.0612998008728027,4.95285581329421,-0.0,0.2831493616104126,-1.5003779570208948,-0.0,-0.016960423439741135,0.8781219124794006,-0.0,-0.007803651969879866,0.7868090271949768,0.0,0.03763342276215553
185.0,202.0,0.4576,-0.8399,9.4684,-0.0379,0.0215,-0.1179,-1.9446326694884242,0.0,3.598644733428955,-1.5629383325576782,-0.0,2.0296199321746826,4.952888089209356,-0.0,0.28597724437713623,-1.5003660360919397,-0.0,-0.014219449833035469,0.8780538439750671,-0.0,0.007499028462916613,0.786797046661377,0.0,0.044388655573129654
185.0,202.0,0.4576,-0.8399,9.4684,-0.0379,0.0215,-0.1179,-1.9445845089354457,0.0,3.6456520557403564,-1.5629504919052124,-0.0,2.093712091445923,4.952855798393049,-0.0,0.28080618381500244,-1.500357453023092,-0.0,-0.012295955792069435,0.8780975937843323,-0.0,-0.0057402076199650764,0.7868530750274658,0.0,-0.008794656954705715
193.0,200.0,0.4379,-0.8471,9.4893,-0.031,0.0118,-0.1071,-1.9446450672545375,0.0,3.6279847621917725,-1.5629304647445679,-0.0,2.086010456085205,4.952839809447088,-0.0,0.27261435985565186,-1.5003255049334925,-0.0,-0.012172679416835308,0.8780820965766907,-0.0,-0.00014415476471185684,0.786797046661377,0.0,0.019963441416621208
193.0,200.0,0.4379,-0.8471,9.4893,-0.031,0.0118,-0.1071,-1.9446245632567347,0.0,3.6201536655426025,-1.5629746913909912,-0.0,2.0557973384857178,4.952872100263395,-0.0,0.3029922842979431,-1.5003817717181605,-0.0,-0.02246525138616562,0.8780454993247986,-0.0,0.009015487506985664,0.7868170738220215,0.0,-0.02495020627975464
193.0,200.0,0.4379,-0.8471,9.4893,-0.031,0.0118,-0.1071,-1.9446445904173792,0.0,3.642557144165039,-1.5629825592041016,-0.0,2.0648882389068604,4.952892157226362,-0.0,0.2868337631225586,-1.50038987794985,-0.0,-0.018465422093868256,0.8780372142791748,-0.0,0.0009679695358499885,0.7868329882621765,0.0,0.028459396213293076
193.0,200.0,0.4379,-0.8471,9.4893,-0.031,0.0118,-0.1071,-1.9446288547911585,0.0,3.662017822265625,-1.562890648841858,-0.0,2.097212314605713,4.952839809447088,-0.0,0.2724417448043823,-1.500333611165182,-0.0,-0.014184752479195595,0.878089427947998,-0.0,0.007911032065749168,0.7868372201919556,0.0,0.015528207644820213
193.0,200.0,0.4379,-0.8471,9.4893,-0.031,0.0118,-0.1071,-1.9446646175780238,0.0,3.6572165489196777,-1.5629668235778809,-0.0,2.0543432235717773,4.95286804714755,-0.0,0.27720504999160767,-1.5003894011126917,-0.0,-0.01743360608816147,0.8780252933502197,-0.0,-0.005933621898293495,0.7868050932884216,0.0,0.0033636698499321938
193.0,200.0,0.4379,-0.8471,9.4893,-0.031,0.0118,-0.1071,-1.944620271722311,0.0,3.6631476879119873,-1.5629467964172363,-0.0,2.045133113861084,4.9528798935706995,-0.0,0.29122328758239746,-1.5003493467914026,-0.0,-0.012065894901752472,0.8780412673950195,-0.0,-0.00041341606993228197,0.786789059638977,0.0,-0.011786891147494316
193.0,200.0,0.4379,-0.8471,9.4893,-0.031,0.0118,-0.1071,-1.9446169338622035,0.0,3.5911693572998047,-1.5629149675369263,-0.0,2.0614800453186035,4.952852088003912,-0.0,0.28564298152923584,-1.5003779570208948,-0.0,-0.020772390067577362,0.8780372738838196,-0.0,0.0037656445056200027,0.7868289947509766,0.0,-0.02285708859562874
193.0,200.0,0.4379,-0.8471,9.4893,-0.031,0.0118,-0.1071,-1.9446493587889613,0.0,3.6556453704833984,-1.5629668235778809,-0.0,2.109585762023926,4.952904435783186,-0.0,0.2970154881477356,-1.5003779570208948,-0.0,-0.013768615201115608,0.8780574798583984,-0.0,-0.004482324235141277,0.7867929935455322,0.0,0.02242027223110199
193.0,200.0,0.4379,-0.8471,9.4893,-0.031,0.0118,-0.1071,-1.944620271722311,0.0,3.6695327758789062,-1.5629345178604126,-0.0,2.085789203643799,4.9528439221675775,-0.0,0.29724520444869995,-1.5003894011126917,-0.0,-0.0040247198194265366,0.878089427947998,-0.0,-0.0025299477856606245,0.7868130803108215,0.0,0.013230494223535061
193.0,200.0,0.4379,-0.8471,9.4893,-0.031,0.0118,-0.1071,-1.9446045360960902,0.0,3.6459312438964844,-1.562950849533081,-0.0,2.087937831878662,4.952831658511915,-0.0,0.2878653109073639,-1.5003936926471155,-0.0,-0.009270060807466507,0.8780252933502197,-0.0,0.002858846914023161,0.7867851853370667,0.0,0.007660950534045696
193.0,200.0,0.4379,-0.8471,9.4893,-0.031,0.0118,-0.1071,-1.9446045360960902,0.0,3.6463284492492676,-1.5629304647445679,-0.0,2.0865538120269775,4.9528798935706995,-0.0,0.28153353929519653,-1.5003817717181605,-0.0,-0.019777845591306686,0.8780615329742432,-0.0,-0.007037321105599403,0.7868010997772217,0.0,0.018318969756364822
193.0,200.0,0.4379,-0.8471,9.4893,-0.031,0.0118,-0.1071,-1.9446126423277796,0.0,3.6520252227783203,-1.5629189014434814,-0.0,2.0541012287139893,4.952875840454855,-0.0,0.2775517702102661,-1.500385586415426,-0.0,-0.005991172511130571,0.8780454993247986,-0.0,0.010679565370082855,0.7868532538414001,0.0,0.017712078988552094
191.0,207.0,0.3834,-0.8548,9.5426,-0.0356,0.0183,-0.1119,-1.9446445904173792,0.0,3.635035514831543,-1.5629149675369263,-0.0,2.07853102684021,4.952835786133566,-0.0,0.2707664370536804,-1.5003379026996058,-0.0,-0.018989523872733116,0.8780329823493958,-0.0,0.010264422744512558,0.7868611216545105,0.0,0.014122193679213524
191.0,207.0,0.3834,-0.8548,9.5426,-0.0356,0.0183,-0.1119,-1.9446045360960902,0.0,3.621634006500244,-1.5629464387893677,-0.0,2.0335755348205566,4.952807518630781,-0.0,0.2935760021209717,-1.5003493467914026,-0.0,-0.015161227434873581,0.8780128359794617,-0.0,-0.004318790044635534,0.7868289947509766,0.0,-0.006423778831958771
191.0,207.0,0.3834,-0.8548,9.5426,-0.0356,0.0183,-0.1119,-1.9446445904173792,0.0,3.630051612854004,-1.5629507303237915,-0.0,2.048889398574829,4.952884080796995,-0.0,0.29000264406204224,-1.500373665486471,-0.0,-0.009661681018769741,0.8780853748321533,-0.0,0.00731349503621459,0.7867730855941772,0.0,0.00435188552364707
191.0,207.0,0.3834,-0.8548,9.5426,-0.0356,0.0183,-0.1119,-1.9446445904173792,0.0,3.6311583518981934,-1.5629384517669678,-0.0,2.0589511394500732,4.952904376178541,-0.0,0.28374162316322327,-1.5004060904132288,-0.0,-0.0045310151763260365,0.8780615329742432,-0.0,-5.9876590967178345e-05,0.7868090271949768,0.0,0.0312432199716568
191.0,207.0,0.3834,-0.8548,9.5426,-0.0356,0.0183,-0.1119,-1.9445964298644007,0.0,3.637572765350342,-1.5629668235778809,-0.0,2.06589937210083,4.952892216831007,-0.0,0.28722575306892395,-1.5003536383258265,-0.0,-0.015502141788601875,0.8780615329742432,-0.0,0.004134760238230228,0.7868168950080872,0.0,-0.04111725836992264
191.0,207.0,0.3834,-0.8548,9.5426,-0.0356,0.0183,-0.1119,-1.9446445904173792,0.0,3.6434407234191895,-1.562902569770813,-0.0,2.054422378540039,4.9529244033391855,-0.0,0.27940651774406433,-1.500361744557516,-0.0,-0.01698901504278183,0.878021240234375,-0.0,0.006734483875334263,0.7868249416351318,0.0,0.06655700504779816
191.0,207.0,0.3834,-0.8548,9.5426,-0.0356,0.0183,-0.1119,-1.9446093044676722,0.0,3.6235172748565674,-1.5629304647445679,-0.0,2.0558903217315674,4.952779623657026,-0.0,0.2897942066192627,-1.500361744557516,-0.0,-0.007882673293352127,0.8780698776245117,-0.0,0.002166157588362694,0.7868010401725769,0.0,-0.02720586024224758
191.0,207.0,0.3834,-0.8548,9.5426,-0.0356,0.0183,-0.1119,-1.9446126423277796,0.0,3.7039761543273926,-1.562902569770813,-0.0,2.0634875297546387,4.952871802240171,-0.0,0.2919071316719055,-1.5004141966449183,-0.0,-0.027198007330298424,0.8780169486999512,-0.0,0.005056391470134258,0.7867850661277771,0.0,0.022016581147909164
191.0,207.0,0.3834,-0.8548,9.5426,-0.0356,0.0183,-0.1119,-1.9446007213988246,0.0,3.6546571254730225,-1.5629384517669678,-0.0,2.0272974967956543,4.952831643610754,-0.0,0.288435697555542,-1.5003417173968714,-0.0,-0.01131958607584238,0.8780052065849304,-0.0,-0.007308844942599535,0.7868289947509766,0.0,-0.02350469119846821
191.0,207.0,0.3834,-0.8548,9.5426,-0.0356,0.0183,-0.1119,-1.9445563755431117,0.0,3.6542813777923584,-1.5629304647445679,-0.0,2.0547986030578613,4.952839809447088,-0.0,0.28892073035240173,-1.5003255049334925,-0.0,-0.01740848645567894,0.8780493140220642,-0.0,-0.005249444395303726,0.7868411540985107,0.0,-0.01651713252067566
191.0,207.0,0.3834,-0.8548,9.5426,-0.0356,0.0183,-0.1119,-1.9446288547911585,0.0,3.6324431896209717,-1.5628786087036133,-0.0,2.0703506469726562,4.952863934427061,-0.0,0.2847524583339691,-1.5003379026996058,-0.0,-0.01251913607120514,0.8779969215393066,-0.0,-0.015286162495613098,0.7868131399154663,0.0,-0.007280671037733555
191.0,207.0,0.3834,-0.8548,9.5426,-0.0356,0.0183,-0.1119,-1.94458069423818,0.0,3.6350889205932617,-1.562919020652771,-0.0,2.034696340560913,4.9528479454811,-0.0,0.2813129425048828,-1.5003779570208948,-0.0,-0.01445840299129486,0.8780288696289062,-0.0,-0.0016545015387237072,0.7868212461471558,0.0,-0.024069633334875107
191.0,207.0,0.3834,-0.8548,9.5426,-0.0356,0.0183,-0.1119,-1.9446245632567347,0.0,3.6362571716308594,-1.5628986358642578,-0.0,2.04267954826355,4.952856200724401,-0.0,0.2824515104293823,-1.500401798878805,-0.0,-0.016493957489728928,0.8780133724212646,-0.0,-0.002106495201587677,0.7868532538414001,0.0,-0.002525872550904751
184.0,199.0,0.5605,-0.7705,9.2243,-0.0438,0.0302,-0.1226,-1.9445845089354457,0.0,3.6673314571380615,-1.562874674797058,-0.0,2.0854058265686035,4.952863949328222,-0.0,0.2689548134803772,-1.5003297964679163,-0.0,-0.01410748716443777,0.8780615329742432,-0.0,-0.0040819039568305016,0.7868050932884216,0.0,0.030933691188693047
184.0,199.0,0.5605,-0.7705,9.2243,-0.0438,0.0302,-0.1226,-1.944608827630514,0.0,3.617544174194336,-1.5629384517669678,-0.0,2.042778253555298,4.9528962699468515,-0.0,0.2946453094482422,-1.5003779570208948,-0.0,-0.01214347593486309,0.8779649138450623,-0.0,0.005331195890903473,0.7868492007255554,0.0,-0.03169436380267143
184.0,199.0,0.5605,-0.7705,9.2243,-0.0438,0.0302,-0.1226,-1.944592615167135,0.0,3.628937244415283,-1.562970757484436,-0.0,2.0864977836608887,4.952892187028684,-0.0,0.28113672137260437,-1.5003655592547815,-0.0,-0.018332280218601227,0.8780533671379089,-0.0,0.00871190708130598,0.7867690920829773,0.0,0.01700665056705475
184.0,199.0,0.5605,-0.7705,9.2243,-0.0438,0.0302,-0.1226,-1.9445644817748011,0.0,3.6421141624450684,-1.5629826784133911,-0.0,2.1005406379699707,4.952859881311216,-0.0,0.28324630856513977,-1.5003417173968714,-0.0,-0.018813323229551315,0.8780087828636169,-0.0,0.008306174539029598,0.7868492007255554,0.0,0.005806595552712679
184.0,199.0,0.5605,-0.7705,9.2243,-0.0438,0.0302,-0.1226,-1.9446526966490687,0.0,3.658364772796631,-1.5629304647445679,-0.0,2.0906169414520264,4.95288414040164,-0.0,0.2976953089237213,-1.5003936926471155,-0.0,-0.013853552751243114,0.8780329823493958,-0.0,0.004478746093809605,0.7868613600730896,0.0,0.01800922118127346
184.0,199.0,0.5605,-0.7705,9.2243,-0.0438,0.0302,-0.1226,-1.9446126423277796,0.0,3.603621006011963,-1.562950849533081,-0.0,2.0493712425231934,4.952863934427061,-0.0,0.28868257999420166,-1.5003379026996058,-0.0,-0.01705116592347622,0.8780248761177063,-0.0,-0.002385308500379324,0.7868371605873108,0.0,-0.035414788872003555
184.0,199.0,0.5605,-0.7705,9.2243,-0.0438,0.0302,-0.1226,-1.9446326694884242,0.0,3.650611400604248,-1.5629229545593262,-0.0,2.0774497985839844,4.952859866410055,-0.0,0.2842814326286316,-1.5003379026996058,-0.0,-0.023854535073041916,0.878089964389801,-0.0,-0.0013462444767355919,0.7868491411209106,0.0,-0.027915263548493385
184.0,199.0,0.5605,-0.7705,9.2243,-0.0438,0.0302,-0.1226,-1.9446126423277796,0.0,3.660468816757202,-1.5629066228866577,-0.0,2.0531110763549805,4.952831628709593,-0.0,0.2853673994541168,-1.5003255049334925,-0.0,-0.010736778378486633,0.878089964389801,-0.0,-0.006683439947664738,0.7868289947509766,0.0,0.006464432924985886
184.0,199.0,0.5605,-0.7705,9.2243,-0.0438,0.0302,-0.1226,-1.9446245632567347,0.0,3.620789051055908,-1.5629149675369263,-0.0,2.049542188644409,4.952888178616323,-0.0,0.29279279708862305,-1.5003579298602503,-0.0,-0.01831197738647461,0.8780329823493958,-0.0,0.00687592476606369,0.7868171334266663,0.0,0.02635296806693077
184.0,199.0,0.5605,-0.7705,9.2243,-0.0438,0.0302,-0.1226,-1.944592615167135,0.0,3.66249942779541,-1.562970757484436,-0.0,2.0879664421081543,4.952892157226362,-0.0,0.29549774527549744,-1.5003460089312952,-0.0,-0.017869960516691208,0.8780128359794617,-0.0,0.0044835577718913555,0.7868090271949768,0.0,0.01069508958607912
184.0,199.0,0.5605,-0.7705,9.2243,-0.0438,0.0302,-0.1226,-1.9446169338622035,0.0,3.6700689792633057,-1.5629668235778809,-0.0,2.097952365875244,4.952843862562933,-0.0,0.29287955164909363,-1.5003493467914026,-0.0,-0.021999377757310867,0.8780739307403564,-0.0,0.0028554494492709637,0.7868130803108215,0.0,-0.021090298891067505
184.0,199.0,0.5605,-0.7705,9.2243,-0.0438,0.0302,-0.1226,-1.944604059258932,0.0,3.618361473083496,-1.5629229545593262,-0.0,2.0260844230651855,4.952867734223165,-0.0,0.2799723148345947,-1.5003255049334925,-0.0,-0.018072843551635742,0.8780412673950195,-0.0,-0.004194510634988546,0.7868369817733765,0.0,0.011479472741484642
192.0,204.0,0.4271,-0.9817,9.5725,-0.0435,0.0183,-0.1144,-1.9446083507933558,0.0,3.6345748901367188,-1.562942385673523,-0.0,2.0573503971099854,4.952831628709593,-0.0,0.2912415564060211,-1.5004060904132288,-0.0,-0.008269261568784714,0.8780454993247986,-0.0,-0.004046955611556768,0.7868650555610657,0.0,-0.0076257954351603985
192.0,204.0,0.4271,-0.9817,9.5725,-0.0435,0.0183,-0.1144,-1.9446045360960902,0.0,3.641653060913086,-1.5629229545593262,-0.0,2.0684847831726074,4.952839794545927,-0.0,0.27593153715133667,-1.500357453023092,-0.0,-0.01182517223060131,0.8780734539031982,-0.0,0.004414375871419907,0.7868452072143555,0.0,0.021394820883870125
192.0,204.0,0.4271,-0.9817,9.5725,-0.0435,0.0183,-0.1144,-1.9446126423277796,0.0,3.6704063415527344,-1.5629189014434814,-0.0,2.076606273651123,4.952892216831007,-0.0,0.2855077385902405,-1.5003417173968714,-0.0,-0.019284259527921677,0.8779928088188171,-0.0,-0.0011476760264486074,0.7868289947509766,0.0,-0.0062906499952077866
192.0,204.0,0.4271,-0.9817,9.5725,-0.0435,0.0183,-0.1144,-1.9446364841856898,0.0,3.6146926879882812,-1.5629748106002808,-0.0,2.0823445320129395,4.952831628709593,-0.0,0.2805154323577881,-1.5003779570208948,-0.0,-0.0077640400268137455,0.8780615329742432,-0.0,0.0035167387686669827,0.7868650555610657,0.0,-0.02082289382815361
192.0,204.0,0.4271,-0.9817,9.5725,-0.0435,0.0183,-0.1144,-1.9446083507933558,0.0,3.6308934688568115,-1.5629304647445679,-0.0,2.049098491668701,4.952896225243368,-0.0,0.2797490358352661,-1.5004060904132288,-0.0,-0.026059556752443314,0.8780288696289062,-0.0,-0.015644535422325134,0.7868411540985107,0.0,-0.013994948007166386
192.0,204.0,0.4271,-0.9817,9.5725,-0.0435,0.0183,-0.1144,-1.944620271722311,0.0,3.6583251953125,-1.5629384517669678,-0.0,2.056154727935791,4.95282347777442,-0.0,0.28220343589782715,-1.5003255049334925,-0.0,-0.028299706056714058,0.878097653388977,-0.0,0.004763829056173563,0.7868010401725769,0.0,-0.033914871513843536
192.0,204.0,0.4271,-0.9817,9.5725,-0.0435,0.0183,-0.1144,-1.9446169338622035,0.0,3.673654556274414,-1.5629222393035889,-0.0,2.080059289932251,4.952852102905073,-0.0,0.28924569487571716,-1.5003698507892054,-0.0,-0.026165705174207687,0.8780579566955566,-0.0,-0.0017843535169959068,0.7868249416351318,0.0,-0.006090426351875067
192.0,204.0,0.4271,-0.9817,9.5725,-0.0435,0.0183,-0.1144,-1.9446288547911585,0.0,3.6719019412994385,-1.5629427433013916,-0.0,2.0985360145568848,4.952823492675581,-0.0,0.28681522607803345,-1.5004022757159632,-0.0,-0.03192770481109619,0.8780454993247986,-0.0,-0.005196832120418549,0.7868090867996216,0.0,-0.0066826133988797665
192.0,204.0,0.4271,-0.9817,9.5725,-0.0435,0.0183,-0.1144,-1.9445845089354457,0.0,3.6068801879882812,-1.5629268884658813,-0.0,2.0991530418395996,4.9528439221675775,-0.0,0.28401410579681396,-1.500385586415426,-0.0,-0.007254989817738533,0.8780372142791748,-0.0,-0.014372166246175766,0.7868691086769104,0.0,-0.013386950828135014
192.0,204.0,0.4271,-0.9817,9.5725,-0.0435,0.0183,-0.1144,-1.9446245632567347,0.0,3.653107166290283,-1.5628547668457031,-0.0,2.046088695526123,4.952863949328222,-0.0,0.28153127431869507,-1.5004056135760706,-0.0,-0.02863379381597042,0.8780414462089539,-0.0,-0.003459557192400098,0.7867929935455322,0.0,-0.049018558114767075
192.0,204.0,0.4271,-0.9817,9.5725,-0.0435,0.0183,-0.1144,-1.944625040093893,0.0,3.68512225151062,-1.562902569770813,-0.0,2.0543606281280518,4.952783632069387,-0.0,0.28299468755722046,-1.500361744557516,-0.0,-0.012995975092053413,0.878078043460846,-0.0,-0.009043233469128609,0.7868452072143555,0.0,-0.016793543472886086
192.0,204.0,0.4271,-0.9817,9.5725,-0.0435,0.0183,-0.1144,-1.9445888004698695,0.0,3.6543161869049072,-1.5629189014434814,-0.0,2.0591001510620117,4.95288813391284,-0.0,0.2875300347805023,-1.5003936926471155,-0.0,-0.01712973415851593,0.8780288696289062,-0.0,-0.0033724596723914146,0.7868329286575317,0.0,0.027246102690696716
193.0,199.0,0.4271,-0.7717,9.5318,-0.0272,0.0249,-0.1156,-1.9445764027037562,0.0,3.6565909385681152,-1.562970757484436,-0.0,2.0519676208496094,4.95287178733901,-0.0,0.2844806909561157,-1.500357453023092,-0.0,-0.011851735413074493,0.8780329823493958,-0.0,-0.007625279948115349,0.7868452072143555,0.0,-0.04380578547716141
193.0,199.0,0.4271,-0.7717,9.5318,-0.0272,0.0249,-0.1156,-1.9446007213988246,0.0,3.704050064086914,-1.562910556793213,-0.0,2.080744504928589,4.952831643610754,-0.0,0.2840701937675476,-1.500361744557516,-0.0,-0.014208273030817509,0.8780293464660645,-0.0,-0.0048780906945466995,0.7868411540985107,0.0,0.023269353434443474
193.0,199.0,0.4271,-0.7717,9.5318,-0.0272,0.0249,-0.1156,-1.944636961022848,0.0,3.6323633193969727,-1.5629628896713257,-0.0,2.073606014251709,4.952843862562933,-0.0,0.29206642508506775,-1.5003779570208948,-0.0,-0.021359171718358994,0.8780169486999512,-0.0,-0.010047739371657372,0.7868492007255554,0.0,-0.012051599100232124
193.0,199.0,0.4271,-0.7717,9.5318,-0.0272,0.0249,-0.1156,-1.9446407757201136,0.0,3.646634340286255,-1.5629262924194336,-0.0,2.0631608963012695,4.952843862562933,-0.0,0.2931482791900635,-1.5003655592547815,-0.0,0.001097078900784254,0.878021240234375,-0.0,-3.8922298699617386e-05,0.7868492007255554,0.0,-0.030618438497185707
193.0,199.0,0.4271,-0.7717,9.5318,-0.0272,0.0249,-0.1156,-1.9446245632567347,0.0,3.634268283843994,-1.5629547834396362,-0.0,2.0952086448669434,4.9528479454811,-0.0,0.29074519872665405,-1.5003536383258265,-0.0,-0.012323952279984951,0.8780372142791748,-0.0,0.0025237405207008123,0.7868452072143555,0.0,0.028284331783652306
193.0,199.0,0.4271,-0.7717,9.5318,-0.0272,0.0249,-0.1156,-1.9445883236327113,0.0,3.6375722885131836,-1.5629384517669678,-0.0,2.026287078857422,4.95289625504569,-0.0,0.2817023992538452,-1.5003417173968714,-0.0,-0.009219929575920105,0.8780739307403564,-0.0,-0.0013296082615852356,0.786845326423645,0.0,0.004451808985322714
193.0,199.0,0.4271,-0.7717,9.5318,-0.0272,0.0249,-0.1156,-1.9446288547911585,0.0,3.6386117935180664,-1.5629905462265015,-0.0,2.059300184249878,4.952839869051733,-0.0,0.2823774814605713,-1.5003460089312952,-0.0,-0.008413226343691349,0.878077507019043,-0.0,0.00491440761834383,0.7868289351463318,0.0,0.034536682069301605
193.0,199.0,0.4271,-0.7717,9.5318,-0.0272,0.0249,-0.1156,-1.9445845089354457,0.0,3.6466832160949707,-1.562958836555481,-0.0,2.096207857131958,4.952843862562933,-0.0,0.2880021631717682,-1.5003498236285608,-0.0,-0.008272563107311726,0.8780288696289062,-0.0,-0.0017163516022264957,0.7868130207061768,0.0,0.028270293027162552
193.0,199.0,0.4271,-0.7717,9.5318,-0.0272,0.0249,-0.1156,-1.944587846795553,0.0,3.651216983795166,-1.5628864765167236,-0.0,2.031688690185547,4.952839809447088,-0.0,0.2858958840370178,-1.500361744557516,-0.0,-0.010213574394583702,0.8780734539031982,-0.0,-0.005714993458241224,0.7868090271949768,0.0,0.004358437843620777
193.0,199.0,0.4271,-0.7717,9.5318,-0.0272,0.0249,-0.1156,-1.9446050129332484,0.0,3.6322076320648193,-1.5629068613052368,-0.0,2.059199810028076,4.952879923373022,-0.0,0.29646605253219604,-1.500361744557516,-0.0,-0.007932940497994423,0.8780248165130615,-0.0,0.00012093724217265844,0.7868170738220215,0.0,0.024405309930443764
193.0,199.0,0.4271,-0.7717,9.5318,-0.0272,0.0249,-0.1156,-1.9446245632567347,0.0,3.6623425483703613,-1.5629467964172363,-0.0,2.0393168926239014,4.9528479454811,-0.0,0.29651474952697754,-1.5003379026996058,-0.0,-0.005584040656685829,0.878028929233551,-0.0,0.0028121729847043753,0.7868452668190002,0.0,0.0066064344719052315
193.0,199.0,0.4271,-0.7717,9.5318,-0.0272,0.0249,-0.1156,-1.9446288547911585,0.0,3.654972553253174,-1.5629262924194336,-0.0,2.062760591506958,4.9528479454811,-0.0,0.29260414838790894,-1.5003059546100062,-0.0,-0.018763862550258636,0.8780288696289062,-0.0,0.008253407664597034,0.7867891192436218,0.0,0.05767247825860977
193.0,199.0,0.4271,-0.7717,9.5318,-0.0272,0.0249,-0.1156,-1.9446407757201136,0.0,3.661687135696411,-1.5629065036773682,-0.0,2.0639090538024902,4.952819767385282,-0.0,0.2866702675819397,-1.5003216902362269,-0.0,-0.025265179574489594,0.8780455589294434,-0.0,0.007961489260196686,0.786773145198822,0.0,-0.023933272808790207
186.0,205.0,0.4983,-0.7681,9.4307,-0.0344,0.029,-0.1173,-1.9446169338622035,0.0,3.6626601219177246,-1.562970757484436,-0.0,2.0610127449035645,4.952879923373022,-0.0,0.28317850828170776,-1.5003698507892054,-0.0,-0.016230029985308647,0.8780815601348877,-0.0,-0.0069196573458611965,0.7868531346321106,0.0,0.014251859858632088
186.0,205.0,0.4983,-0.7681,9.4307,-0.0344,0.029,-0.1173,-1.9445964298644007,0.0,3.6139514446258545,-1.5629907846450806,-0.0,2.058964490890503,4.952851640969076,-0.0,0.2800726294517517,-1.500401798878805,-0.0,-0.011820322833955288,0.8780579566955566,-0.0,-0.003826731350272894,0.7868492007255554,0.0,-0.04187138006091118
186.0,205.0,0.4983,-0.7681,9.4307,-0.0344,0.029,-0.1173,-1.944587846795553,0.0,3.6772286891937256,-1.562930703163147,-0.0,2.066499948501587,4.952835786133566,-0.0,0.28372204303741455,-1.5003936926471155,-0.0,-0.009373738430440426,0.8780412673950195,-0.0,0.007281763944774866,0.786797046661377,0.0,0.0255269855260849
186.0,205.0,0.4983,-0.7681,9.4307,-0.0344,0.029,-0.1173,-1.9446612797179164,0.0,3.6621975898742676,-1.5628904104232788,-0.0,2.021484613418579,4.9528479454811,-0.0,0.27234548330307007,-1.5003779570208948,-0.0,-0.007880868390202522,0.878028929233551,-0.0,-0.00788874551653862,0.7868131399154663,0.0,-0.009093052707612514
186.0,205.0,0.4983,-0.7681,9.4307,-0.0344,0.029,-0.1173,-1.9446126423277796,0.0,3.6825642585754395,-1.5629547834396362,-0.0,2.06589674949646,4.9528479454811,-0.0,0.28262221813201904,-1.5003460089312952,-0.0,-0.005638921167701483,0.8780496120452881,-0.0,0.01444703433662653,0.7868491411209106,0.0,-0.01865582913160324
186.0,205.0,0.4983,-0.7681,9.4307,-0.0344,0.029,-0.1173,-1.9446445904173792,0.0,3.6246910095214844,-1.5628868341445923,-0.0,2.064338445663452,4.952879938274183,-0.0,0.2780489921569824,-1.5003460089312952,-0.0,-0.022908909246325493,0.8780093193054199,-0.0,0.010616322048008442,0.7867530584335327,0.0,0.006156471557915211
186.0,205.0,0.4983,-0.7681,9.4307,-0.0344,0.029,-0.1173,-1.944620748559469,0.0,3.632642984390259,-1.5629383325576782,-0.0,2.0748844146728516,4.952835637121954,-0.0,0.2872069478034973,-1.5003460089312952,-0.0,-0.025548173114657402,0.8780653476715088,-0.0,-0.009628317318856716,0.7868010997772217,0.0,-0.0005673058331012726
186.0,205.0,0.4983,-0.7681,9.4307,-0.0344,0.029,-0.1173,-1.9446412525572718,0.0,3.63979434967041,-1.5629066228866577,-0.0,2.0576677322387695,4.95287178733901,-0.0,0.2907737195491791,-1.500357453023092,-0.0,-0.012592524290084839,0.8780899047851562,-0.0,0.004026336595416069,0.7868530750274658,0.0,-0.02780633047223091
186.0,205.0,0.4983,-0.7681,9.4307,-0.0344,0.029,-0.1173,-1.94458069423818,0.0,3.6410412788391113,-1.5629547834396362,-0.0,2.002786636352539,4.952831584006109,-0.0,0.2976069748401642,-1.5003936926471155,-0.0,-0.012627027928829193,0.8780455589294434,-0.0,-0.010089562274515629,0.7868651151657104,0.0,0.0415031835436821
186.0,205.0,0.4983,-0.7681,9.4307,-0.0344,0.029,-0.1173,-1.9446326694884242,0.0,3.7211551666259766,-1.5629229545593262,-0.0,2.0233256816864014,4.952839749842443,-0.0,0.27384504675865173,-1.5003979841815394,-0.0,-0.024041764438152313,0.8780412673950195,-0.0,-0.0014812068548053503,0.7868170738220215,0.0,-0.034597814083099365
186.0,205.0,0.4983,-0.7681,9.4307,-0.0344,0.029,-0.1173,-1.9445883236327113,0.0,3.624124526977539,-1.5629383325576782,-0.0,2.0629992485046387,4.9528881190116785,-0.0,0.27475666999816895,-1.5003655592547815,-0.0,-0.015117675997316837,0.8780574798583984,-0.0,0.006271876394748688,0.7868492007255554,0.0,-0.013586504384875298
186.0,205.0,0.4983,-0.7681,9.4307,-0.0344,0.029,-0.1173,-1.9445845089354457,0.0,3.6309309005737305,-1.5629149675369263,-0.0,2.042825698852539,4.952859866410055,-0.0,0.2964780628681183,-1.5003297964679163,-0.0,-0.019951507449150085,0.878033459186554,-0.0,-0.0008505471050739288,0.7868492007255554,0.0,-0.015112164430320263
188.0,202.0,0.4032,-0.868,9.3344,-0.029,0.0176,-0.1058,-1.9446126423277796,0.0,3.673483371734619,-1.562950849533081,-0.0,2.0835084915161133,4.952908205776968,-0.0,0.27536848187446594,-1.500373665486471,-0.0,-0.007092301733791828,0.8780329823493958,-0.0,0.010251054540276527,0.7868411540985107,0.0,0.044523291289806366
188.0,202.0,0.4032,-0.868,9.3344,-0.029,0.0176,-0.1058,-1.9446526966490687,0.0,3.6707334518432617,-1.562942385673523,-0.0,2.031524419784546,4.95285618582324,-0.0,0.28961604833602905,-1.500361744557516,-0.0,-0.01851798966526985,0.8780372142791748,-0.0,-0.012444054707884789,0.7868090867996216,0.0,0.012186184525489807
188.0,202.0,0.4032,-0.868,9.3344,-0.029,0.0176,-0.1058,-1.9445764027037562,0.0,3.583339214324951,-1.5628348588943481,-0.0,2.0714640617370605,4.952835786133566,-0.0,0.28881627321243286,-1.5003812948810022,-0.0,-0.015155971050262451,0.8779728412628174,-0.0,0.002458753064274788,0.7868289947509766,0.0,-0.019984548911452293
188.0,202.0,0.4032,-0.868,9.3344,-0.029,0.0176,-0.1058,-1.9446126423277796,0.0,3.6410982608795166,-1.5628985166549683,-0.0,2.0702152252197266,4.952863964229383,-0.0,0.2832031846046448,-1.500361744557516,-0.0,-0.011463940143585205,0.8779850006103516,-0.0,-0.010802079923450947,0.7868411540985107,0.0,0.03182342275977135
188.0,202.0,0.4032,-0.868,9.3344,-0.029,0.0176,-0.1058,-1.9446083507933558,0.0,3.658938407897949,-1.5628904104232788,-0.0,2.0848913192749023,4.952839749842443,-0.0,0.2857968211174011,-1.5003817717181605,-0.0,-0.016988791525363922,0.8780975341796875,-0.0,-0.007213965989649296,0.786789059638977,0.0,-0.03622167184948921
188.0,202.0,0.4032,-0.868,9.3344,-0.029,0.0176,-0.1058,-1.944648881951803,0.0,3.625131607055664,-1.5629066228866577,-0.0,2.0267136096954346,4.952896299749174,-0.0,0.2874602675437927,-1.5003498236285608,-0.0,-0.019758453592658043,0.8780619502067566,-0.0,-6.63513783365488e-05,0.7867891192436218,0.0,0.017241815105080605
188.0,202.0,0.4032,-0.868,9.3344,-0.029,0.0176,-0.1058,-1.9446045360960902,0.0,3.700967788696289,-1.5629547834396362,-0.0,2.0533134937286377,4.952872189670362,-0.0,0.2893814742565155,-1.5003975073443812,-0.0,-0.011854913085699081,0.8780615329742432,-0.0,0.010728866793215275,0.7868010401725769,0.0,0.003862702287733555
188.0,202.0,0.4032,-0.868,9.3344,-0.029,0.0176,-0.1058,-1.9446169338622035,0.0,3.611783504486084,-1.562950849533081,-0.0,2.0648090839385986,4.952839809447088,-0.0,0.2832057476043701,-1.5003655592547815,-0.0,-0.020572597160935402,0.8780496120452881,-0.0,-0.002207660349085927,0.7868371605873108,0.0,0.030872460454702377
188.0,202.0,0.4032,-0.868,9.3344,-0.029,0.0176,-0.1058,-1.9445563755431117,0.0,3.6415421962738037,-1.5628905296325684,-0.0,2.0622446537017822,4.952859851508894,-0.0,0.27482810616493225,-1.50038987794985,-0.0,0.0009191078133881092,0.878028929233551,-0.0,-0.006905559450387955,0.7868250012397766,0.0,0.03082466311752796
188.0,202.0,0.4032,-0.868,9.3344,-0.029,0.0176,-0.1058,-1.9446007213988246,0.0,3.6406493186950684,-1.5629464387893677,-0.0,2.0392584800720215,4.95281562486247,-0.0,0.2817920446395874,-1.500361744557516,-0.0,-0.023953936994075775,0.8780248761177063,-0.0,0.005871910601854324,0.7868411540985107,0.0,0.022984273731708527
188.0,202.0,0.4032,-0.868,9.3344,-0.029,0.0176,-0.1058,-1.9446083507933558,0.0,3.6564254760742188,-1.5629384517669678,-0.0,2.035642385482788,4.952855783491888,-0.0,0.2924965023994446,-1.500401798878805,-0.0,-0.009868821129202843,0.8780415058135986,-0.0,0.010473840869963169,0.7868611216545105,0.0,0.017742425203323364
188.0,202.0,0.4032,-0.868,9.3344,-0.029,0.0176,-0.1058,-1.9445725880064906,0.0,3.6838724613189697,-1.5629149675369263,-0.0,2.0424914360046387,4.952819260745802,-0.0,0.2859986126422882,-1.5003936926471155,-0.0,-0.01731009967625141,0.8779893517494202,-0.0,0.004949342925101519,0.7868889570236206,0.0,0.012059930711984634
186.0,201.0,0.5671,-0.8782,9.4199,-0.0438,0.025,-0.1159,-1.944636961022848,0.0,3.6607232093811035,-1.562910556793213,-0.0,2.063605308532715,4.952883976488867,-0.0,0.29508569836616516,-1.5003975073443812,-0.0,-0.011890528723597527,0.8780857920646667,-0.0,-0.00289290864020586,0.7868251204490662,0.0,-0.008428141474723816
186.0,201.0,0.5671,-0.8782,9.4199,-0.0438,0.025,-0.1159,-1.944636961022848,0.0,3.650606155395508,-1.5628905296325684,-0.0,2.0491957664489746,4.952884095698156,-0.0,0.29909735918045044,-1.500361744557516,-0.0,-0.013782123103737831,0.8780372142791748,-0.0,0.005938148591667414,0.7868894338607788,6.026350456522778e-05,0.002942761406302452
186.0,201.0,0.5671,-0.8782,9.4199,-0.0438,0.025,-0.1159,-1.9445883236327113,0.0,3.6629011631011963,-1.5629149675369263,-0.0,2.0571227073669434,4.952843862562933,-0.0,0.2815905809402466,-1.5003698507892054,-0.0,-0.017261747270822525,0.8780010938644409,-0.0,-0.008864027447998524,0.7867968678474426,5.476309888763353e-05,0.013295786455273628
186.0,201.0,0.5671,-0.8782,9.4199,-0.0438,0.025,-0.1159,-1.9446126423277796,0.0,3.6577389240264893,-1.562927007675171,-0.0,2.0546233654022217,4.952831554203787,-0.0,0.2942476272583008,-1.5003059546100062,-0.0,-0.013049690052866936,0.8780854940414429,-0.0,0.006647207774221897,0.7868490815162659,7.32187763787806e-05,-0.008582951501011848
186.0,201.0,0.5671,-0.8782,9.4199,-0.0438,0.025,-0.1159,-1.9445845089354457,0.0,3.6383743286132812,-1.5629229545593262,-0.0,2.074795722961426,4.952888104110517,-0.0,0.288273423910141,-1.5003379026996058,-0.0,-0.01658879779279232,0.8780615329742432,-0.0,-0.009583997540175915,0.7868530750274658,6.606489478144795e-05,0.002957182005047798
186.0,201.0,0.5671,-0.8782,9.4199,-0.0438,0.025,-0.1159,-1.9445845089354457,0.0,3.605058193206787,-1.562927007675171,-0.0,2.0464797019958496,4.952932330756941,-0.0,0.2894614040851593,-1.5004099051104944,-0.0,-0.01667083613574505,0.878028929233551,-0.0,-0.007730214390903711,0.7868530750274658,6.154699076432735e-05,-0.011412490159273148
186.0,201.0,0.5671,-0.8782,9.4199,-0.0438,0.025,-0.1159,-1.9445764027037562,0.0,3.655594825744629,-1.5629464387893677,-0.0,2.0921244621276855,4.952888104110517,-0.0,0.2925122082233429,-1.500373665486471,-0.0,-0.02297125943005085,0.8780697584152222,-0.0,0.007232356816530228,0.7867926955223083,5.640403105644509e-05,0.006677316501736641
186.0,201.0,0.5671,-0.8782,9.4199,-0.0438,0.025,-0.1159,-1.9446569881834925,0.0,3.635404109954834,-1.562902569770813,-0.0,2.0866270065307617,4.952852102905073,-0.0,0.28900131583213806,-1.500361744557516,-0.0,-0.010024272836744785,0.8780372142791748,-0.0,-0.008176103234291077,0.7868890166282654,6.962495535844937e-05,-0.005622304044663906
186.0,201.0,0.5671,-0.8782,9.4199,-0.0438,0.025,-0.1159,-1.9445964298644007,0.0,3.6274280548095703,-1.5629310607910156,-0.0,2.0824615955352783,4.952899950533666,-0.0,0.28358837962150574,-1.5003379026996058,-0.0,-0.02145874872803688,0.8780655860900879,-0.0,-0.002517827320843935,0.786773145198822,6.0384933021850884e-05,-0.02242865413427353
186.0,201.0,0.5671,-0.8782,9.4199,-0.0438,0.025,-0.1159,-1.9445964298644007,0.0,3.6498641967773438,-1.5628905296325684,-0.0,2.101863384246826,4.952831628709593,-0.0,0.2821277976036072,-1.500401798878805,-0.0,-0.03054892271757126,0.8780578374862671,-0.0,-0.0027824065182358027,0.7868450284004211,5.486327791004442e-05,-0.031045354902744293
186.0,201.0,0.5671,-0.8782,9.4199,-0.0438,0.025,-0.1159,-1.9445964298644007,0.0,3.653548002243042,-1.5629186630249023,-0.0,2.100389242172241,4.952843862562933,-0.0,0.2860426902770996,-1.5003774801837366,-0.0,-0.013220972381532192,0.8780412673950195,-0.0,-0.0058056446723639965,0.7868570685386658,4.890125273959711e-05,-0.013120156712830067
186.0,201.0,0.5671,-0.8782,9.4199,-0.0438,0.025,-0.1159,-1.9446732006468714,0.0,3.6307051181793213,-1.562950849533081,-0.0,2.041154623031616,4.9528479454811,-0.0,0.289350688457489,-1.5003297964679163,-0.0,-0.020627189427614212,0.8780174255371094,-0.0,-0.0033921764697879553,0.7868211269378662,4.4108059228165075e-05,-0.04339071363210678
186.0,201.0,0.5671,-0.8782,9.4199,-0.0438,0.025,-0.1159,-1.944620271722311,0.0,3.6641409397125244,-1.5628867149353027,-0.0,2.0995845794677734,4.9528479454811,-0.0,0.29234597086906433,-1.5003774801837366,-0.0,-0.022910768166184425,0.8779929876327515,-0.0,0.006741024553775787,0.7868654727935791,4.108756911591627e-05,0.02809198759496212
190.0,194.0,0.3942,-0.7854,9.6544,-0.0371,0.0214,-0.1156,-1.9446245632567347,0.0,3.617502450942993,-1.5629384517669678,-0.0,2.056819438934326,4.952852102905073,-0.0,0.28139999508857727,-1.5003936926471155,-0.0,-0.015145968645811081,0.878013014793396,-0.0,-0.0020951980259269476,0.786845326423645,3.764992652577348e-05,-0.046607162803411484
190.0,194.0,0.3942,-0.7854,9.6544,-0.0371,0.0214,-0.1156,-1.9446288547911585,0.0,3.6076345443725586,-1.5629149675369263,-0.0,2.1244869232177734,4.952875870257177,-0.0,0.2817773222923279,-1.5003894011126917,-0.0,-0.012730143964290619,0.8780974745750427,-0.0,0.004925261251628399,0.7868371605873108,3.474310506135225e-05,-0.04222279042005539
190.0,194.0,0.3942,-0.7854,9.6544,-0.0371,0.0214,-0.1156,-1.9446608028807582,0.0,3.6354963779449463,-1.5629384517669678,-0.0,2.074479579925537,4.952867704420843,-0.0,0.28028953075408936,-1.500361744557516,-0.0,-0.01356638316065073,0.8780415654182434,-0.0,0.001160980318672955,0.7868288159370422,3.284143531345762e-05,-0.0032261917367577553
190.0,194.0,0.3942,-0.7854,9.6544,-0.0371,0.0214,-0.1156,-1.9446693859496058,0.0,3.6718902587890625,-1.5629467964172363,-0.0,2.0636160373687744,4.952831628709593,-0.0,0.2876781225204468,-1.5003655592547815,-0.0,-0.006423774641007185,0.8780249357223511,-0.0,-0.008888757787644863,0.7868613600730896,3.060770177398808e-05,-0.027004925534129143
190.0,194.0,0.3942,-0.7854,9.6544,-0.0371,0.0214,-0.1156,-1.9446164570250453,0.0,3.6183676719665527,-1.5628904104232788,-0.0,2.0765151977539062,4.952839764743604,-0.0,0.28496116399765015,-1.5003655592547815,-0.0,-0.023094801232218742,0.8780412077903748,-0.0,-0.002211631741374731,0.7868494391441345,2.8658454539254308e-05,-0.008469851687550545
190.0,194.0,0.3942,-0.7854,9.6544,-0.0371,0.0214,-0.1156,-1.9446484051146449,-4.702847036242019e-06,3.6463303565979004,-1.5629149675369263,-0.0,2.0276942253112793,4.952851626067915,-0.0,0.2960580587387085,-1.500361744557516,-0.0,-0.013319242745637894,0.8780697584152222,-0.0,0.01479488704353571,0.786845326423645,2.7352021788829006e-05,-0.013577297329902649
190.0,194.0,0.3942,-0.7854,9.6544,-0.0371,0.0214,-0.1156,-1.9446279011168421,-0.00016462721396237612,3.648573398590088,-1.5629628896713257,-0.0,2.06475830078125,4.952831613808431,-0.0,0.2856328785419464,-1.5003894011126917,-0.0,-0.01865578442811966,0.878077507019043,-0.0,0.0030138427391648293,0.786812424659729,2.5784795070649125e-05,-0.03944212943315506
190.0,194.0,0.3942,-0.7854,9.6544,-0.0371,0.0214,-0.1156,-1.9446398220457972,-0.00017231726087629795,3.6567606925964355,-1.562934398651123,-0.0,2.080267906188965,4.952827515989103,-0.0,0.29135051369667053,-1.5003579298602503,-0.0,-0.006418982986360788,0.878077507019043,-0.0,0.012048842385411263,0.7868046760559082,1.2193715519970283e-05,0.04545509070158005
190.0,194.0,0.3942,-0.7854,9.6544,-0.0371,0.0214,-0.1156,-1.944644113580221,-0.0001572755427332595,3.6620607376098633,-1.5628904104232788,-0.0,2.0321972370147705,4.9528479454811,-0.0,0.28652405738830566,-1.5003498236285608,-0.0,-0.015171073377132416,0.8780249357223511,-0.0,0.001804872415959835,0.7868131399154663,6.3415543927192175e-09,-0.0001259632408618927
190.0,194.0,0.3942,-0.7854,9.6544,-0.0371,0.0214,-0.1156,-1.9446526966490687,-0.00014086462033446878,3.6479663848876953,-1.5629065036773682,-0.0,2.06225323677063,4.952815565257826,-0.0,0.27882060408592224,-1.5003379026996058,-0.0,-0.016171684488654137,0.8779929876327515,-0.0,0.0075092194601893425,0.7868010997772217,2.0545829691947322e-16,-0.019914785400032997
190.0,194.0,0.3942,-0.7854,9.6544,-0.0371,0.0214,-0.1156,-1.944632192651266,-0.00010629597818478942,3.610626220703125,-1.5628864765167236,-0.0,2.0568161010742188,4.952871772437849,-0.0,0.2867128849029541,-1.5003774801837366,-0.0,-0.015883997082710266,0.8780093193054199,-0.0,0.01124345138669014,0.7868010401725769,6.656588178541288e-24,0.0465153343975544
190.0,194.0,0.3942,-0.7854,9.6544,-0.0371,0.0214,-0.1156,-1.9446569881834925,-9.926180064212531e-05,3.6563572883605957,-1.5629189014434814,7.07031722413376e-05,2.059687614440918,4.952896240144529,-0.0,0.2928875684738159,-1.5003498236285608,-0.0,-0.0089245131239295,0.8780618906021118,-0.0,-0.0075904447585344315,0.7868130207061768,1.607487659585636e-29,0.033217769116163254
193.0,200.0,0.5641,-0.789,9.5444,-0.0345,0.0174,-0.1187,-1.9446360073485316,-9.121371112996712e-05,3.646815299987793,-1.5629504919052124,0.0006754191708751023,2.0651626586914062,4.952831628709593,-0.0,0.28877243399620056,-1.5003536383258265,-0.0,-0.011017151176929474,0.8780009746551514,-0.0,-0.007799831219017506,0.786812961101532,-0.00043687873403541744,-0.04459735006093979
193.0,200.0,0.5641,-0.789,9.5444,-0.0345,0.0174,-0.1187,-1.9446283779540003,-8.43729212647304e-05,3.647219181060791,-1.5628666877746582,0.0005068751634098589,2.043489456176758,4.952831613808431,-0.0,0.28499794006347656,-1.5003579298602503,-0.0,-0.005177638493478298,0.8780697584152222,-0.0,0.004590845201164484,0.7867931127548218,-0.0004945642431266606,-0.01965152472257614
193.0,200.0,0.5641,-0.789,9.5444,-0.0345,0.0174,-0.1187,-1.9446565113463343,-9.584716462995857e-05,3.624215602874756,-1.562910556793213,0.00039547355845570564,2.041504144668579,4.952839898854055,-0.0,0.2895054221153259,-1.500361744557516,-0.0,-0.028940821066498756,0.8780574798583984,-0.0,-0.0010933090234175324,0.7867525219917297,-0.00042533152736723423,-0.018807582557201385
193.0,200.0,0.5641,-0.789,9.5444,-0.0345,0.0174,-0.1187,-1.9446689091124476,-8.950100891524926e-05,3.606189489364624,-1.562890648841858,0.00030585844069719315,2.061234474182129,4.952799635916509,-0.0,0.29513147473335266,-1.5003460089312952,-0.0,-0.019604584202170372,0.8780574798583984,-0.0,-0.010971803218126297,0.7867487072944641,-0.000455828063422814,-0.008267922326922417
193.0,200.0,0.5641,-0.789,9.5444,-0.0345,0.0174,-0.1187,-1.9446608028807582,-8.393630560021847e-05,3.6285393238067627,-1.5629067420959473,0.00029089333838783205,2.0787742137908936,4.952815639763632,-0.0,0.2881069779396057,-1.5003536383258265,-0.0,-0.017739977687597275,0.8780494928359985,-0.0,-0.00489327497780323,0.7867569923400879,-0.00045643930207006633,0.009348506107926369
193.0,200.0,0.5641,-0.789,9.5444,-0.0345,0.0174,-0.1187,-1.9446402988829554,-8.01967253210023e-05,3.6059141159057617,-1.5628747940063477,0.0002387384738540277,2.055011749267578,4.952807861357488,-0.0,0.2877374589443207,-1.5003498236285608,-0.0,-0.016299482434988022,0.8780375123023987,-0.0,0.006732393987476826,0.7867769002914429,-0.0005577618139795959,-0.030773838981986046
193.0,200.0,0.5641,-0.789,9.5444,-0.0345,0.0174,-0.1187,-1.9446565113463343,-7.569987792521715e-05,3.6521549224853516,-1.5628747940063477,0.000308963586576283,2.04970121383667,4.952823433070936,-0.0,0.30179888010025024,-1.500373665486471,-0.0,-0.017061829566955566,0.8780615925788879,-0.0,0.0003957792650908232,0.7867690324783325,-0.0007430185796692967,-0.01261155679821968
193.0,200.0,0.5641,-0.789,9.5444,-0.0345,0.0174,-0.1187,-1.944677015344137,-7.16805225238204e-05,3.6604177951812744,-1.5628308057785034,0.0012345303548499942,2.080427885055542,4.952843877464094,-0.0,0.2885820269584656,-1.500333611165182,-0.0,-0.0134707260876894,0.8780856728553772,-0.0,0.0011273706331849098,0.7867611050605774,-0.0006646947585977614,0.03291570395231247
193.0,200.0,0.5641,-0.789,9.5444,-0.0345,0.0174,-0.1187,-1.9446689091124476,-6.893542740726843e-05,3.635218858718872,-1.5628429651260376,0.0010187316220253706,2.0308144092559814,4.952791842609205,-0.0,0.2869194746017456,-1.5003340880023401,-0.0,-0.030910324305295944,0.8780210018157959,-0.0,0.007395511493086815,0.7867609262466431,-0.0005456844810396433,0.01321479119360447
193.0,200.0,0.5641,-0.789,9.5444,-0.0345,0.0174,-0.1187,-1.9446279011168421,-6.558641325682402e-05,3.637883424758911,-1.562799096107483,0.0009215368190780282,2.083742380142212,4.952883946686544,-0.0,0.28989142179489136,-1.500322167073385,-0.0,-0.012050103396177292,0.8780774474143982,-0.0,0.002201787894591689,0.7867450714111328,-0.00043979319161735475,-0.006467743311077356
193.0,200.0,0.5641,-0.789,9.5444,-0.0345,0.0174,-0.1187,-1.9446236095824183,-6.25477623543702e-05,3.6394450664520264,-1.5627949237823486,0.0009296375792473555,2.048449993133545,4.952823447972097,-0.0,0.2933727502822876,-1.5003178755389612,-0.0,-0.018349001184105873,0.8781053423881531,-0.0,0.004787506069988012,0.7867652177810669,-0.0003323174605611712,0.03313774615526199
193.0,200.0,0.5641,-0.789,9.5444,-0.0345,0.0174,-0.1187,-1.9446565113463343,-6.969507376197726e-05,3.649761199951172,-1.5628068447113037,0.0016911588609218597,2.0289316177368164,4.952871802240171,-0.0,0.2946680784225464,-1.5002978483783167,-0.0,-0.01785176992416382,0.8780734539031982,-0.0,-0.00566290644928813,0.7867652177810669,-0.00026666626217775047,0.02325383573770523
193.0,200.0,0.5641,-0.789,9.5444,-0.0345,0.0174,-0.1187,-1.9446975193419398,-4.933745079149787e-10,3.6623265743255615,-1.5627347230911255,0.00277349422685802,2.057204484939575,4.952863949328222,-0.0,0.28618961572647095,-1.5003140608416956,-0.0,-0.01867571845650673,0.878109335899353,-0.0,-0.003228873945772648,0.7867289781570435,-0.0002322553045814857,0.005426039919257164
194.0,200.0,0.5133,-0.9141,9.4038,-0.0328,0.0423,-0.1185,-1.944677015344137,-1.59847078178544e-17,3.636287212371826,-1.5627789497375488,0.006802556570619345,2.0955007076263428,4.952888148814001,-0.0,0.2964562773704529,-1.5003379026996058,-0.0,-0.014818740077316761,0.8780329823493958,-0.0,0.01514325849711895,0.7867652773857117,-0.00019816124404314905,0.013317557983100414
194.0,200.0,0.5133,-0.9141,9.4038,-0.0328,0.0423,-0.1185,-1.9446484051146449,-5.178843246568128e-25,3.631927490234375,-1.56272292137146,0.006769321858882904,2.0560660362243652,4.952927890210905,-0.0,0.28482958674430847,-1.5003340880023401,-0.0,-0.02043977379798889,0.878109335899353,-0.0,-0.002591499360278249,0.7867732048034668,-0.00020159603445790708,-0.02791171334683895
194.0,200.0,0.5133,-0.9141,9.4038,-0.0328,0.0423,-0.1185,-1.9446360073485316,-1.2506296927776945e-30,3.6373822689056396,-1.5626592636108398,0.005929034668952227,2.12020206451416,4.952879863768377,-0.0,0.2866581082344055,-1.5003345648394983,-0.0,-0.031642504036426544,0.878097414970398,-0.0,0.006765298545360565,0.7867248058319092,-0.00018393792561255395,0.03175725042819977
194.0,200.0,0.5133,-0.9141,9.4038,-0.0328,0.0423,-0.1185,-1.9446736774840296,-2.143697020073887e-05,3.642709732055664,-1.5626314878463745,0.004152233712375164,2.0950253009796143,4.952904093056478,-0.0,0.2991687059402466,-1.5003140608416956,-0.0,-0.028740130364894867,0.8780575394630432,-0.0,-0.0008251373656094074,0.7867211103439331,-0.00018823186110239476,-0.0042692371644079685
194.0,200.0,0.5133,-0.9141,9.4038,-0.0328,0.0423,-0.1185,-1.944632192651266,-2.0250792658771388e-05,3.659238576889038,-1.562563180923462,0.002738482318818569,2.121047019958496,4.952904122858801,-0.0,0.29622310400009155,-1.5003460089312952,-0.0,-0.025985989719629288,0.8780615329742432,-0.0,-0.005589066538959742,0.7867652773857117,-0.000122600540635176,-0.011082927696406841
194.0,200.0,0.5133,-0.9141,9.4038,-0.0328,0.0423,-0.1185,-1.944632192651266,-9.068012474244824e-08,3.660837173461914,-1.562547206878662,0.00224322103895247,2.131810426712036,4.952915909677305,-0.0,0.290611207485199,-1.5003259817706507,-0.0,-0.02428959496319294,0.8780655264854431,-0.0,0.005650482140481472,0.7867571115493774,-0.00011333694419590756,0.03674063831567764
194.0,200.0,0.5133,-0.9141,9.4038,-0.0328,0.0423,-0.1185,-1.944592138329977,-2.9379206485408583e-15,3.639012336730957,-1.5625953674316406,0.001854604110121727,2.079845428466797,4.952891784697332,-0.0,0.30676940083503723,-1.5003016630755823,-0.0,-0.022152505815029144,0.8780815005302429,-0.0,0.001331545878201723,0.7867492437362671,-0.00012355293438304216,0.008702658116817474
194.0,200.0,0.5133,-0.9141,9.4038,-0.0328,0.0423,-0.1185,-1.9446445904173792,-9.518489714616631e-23,3.646345615386963,-1.5625231266021729,0.0015522828325629234,2.11830472946167,4.952887686878004,-0.0,0.2978030741214752,-1.5002978483783167,-0.0,-0.027645189315080643,0.8780815005302429,-0.0,0.005893329624086618,0.7867611050605774,-0.00011319664918119088,-0.022027794271707535
194.0,200.0,0.5133,-0.9141,9.4038,-0.0328,0.0423,-0.1185,-1.9446689091124476,-2.298603166415999e-28,3.6620469093322754,-1.56257963180542,0.0011527498718351126,2.071704149246216,4.95291185656146,-0.0,0.30345645546913147,-1.5003178755389612,-0.0,-0.028639238327741623,0.878113329410553,-0.0,-0.006673950236290693,0.7867491245269775,-0.00010649926116457209,0.02457079291343689
194.0,200.0,0.5133,-0.9141,9.4038,-0.0328,0.0423,-0.1185,-1.9446245632567347,-7.447182169093736e-36,3.6148102283477783,-1.5626393556594849,0.0008518149261362851,2.032784938812256,4.952887686878004,-0.0,0.30157649517059326,-1.5002935568438929,-0.0,-0.023819832131266594,0.8780853748321533,-0.0,0.019029660150408745,0.7867450714111328,-9.871219663182274e-05,-0.014356285333633423
194.0,200.0,0.5133,-0.9141,9.4038,-0.0328,0.0423,-0.1185,-1.9446565113463343,-2.4102333586386854e-43,3.652759552001953,-1.5625674724578857,0.0005817654309794307,2.0331931114196777,4.952851626067915,-0.0,0.3034511208534241,-1.5002978483783167,-0.0,-0.02342761680483818,0.8781251907348633,-0.0,0.00699625164270401,0.7867533564567566,-9.198617772199214e-05,0.01545510534197092
194.0,200.0,0.5133,-0.9141,9.4038,-0.0328,0.0423,-0.1185,-1.9446689091124476,0.0,3.688767910003662,-1.5626037120819092,0.0005137291154824197,2.0840139389038086,4.952883574157514,-0.0,0.30122870206832886,-1.5003340880023401,-0.0,-0.026807047426700592,0.8780813813209534,-0.0,0.011283261701464653,0.7867169976234436,-7.292926602531224e-05,-0.05266621708869934
195.0,192.0,0.3823,-0.9482,9.7549,-0.0516,0.0148,-0.1142,-1.9446240864195765,0.0,3.648280143737793,-1.5625157356262207,0.0005488687893375754,2.0519378185272217,4.952887686878004,-0.0,0.2830524444580078,-1.5003379026996058,-0.0,-0.014982234686613083,0.8780655264854431,-0.0,0.0023550433106720448,0.7867529988288879,-6.848862540209666e-05,-0.028538178652524948
195.0,192.0,0.3823,-0.9482,9.7549,-0.0516,0.0148,-0.1142,-1.944632192651266,0.0,3.633737087249756,-1.5625278949737549,0.0009689651196822524,2.066098213195801,4.952867629915037,-0.0,0.30399537086486816,-1.5003140608416956,-0.0,-0.019783776253461838,0.8780734539031982,-0.0,0.0044881198555231094,0.7867772579193115,-6.455842958530411e-05,0.007233956828713417
195.0,192.0,0.3823,-0.9482,9.7549,-0.0516,0.0148,-0.1142,-1.9446526966490687,0.0,3.6226963996887207,-1.5625114440917969,0.0010694420197978616,2.09822416305542,4.952899950533666,-0.0,0.2788534164428711,-1.5003140608416956,-0.0,-0.021369166672229767,0.8780655264854431,-0.0,0.005342385265976191,0.7867569923400879,-6.18946214672178e-05,-0.05272769182920456
195.0,192.0,0.3823,-0.9482,9.7549,-0.0516,0.0148,-0.1142,-1.9446526966490687,-3.9067130273906514e-05,3.613182306289673,-1.5624555349349976,0.0009634251473471522,2.141559600830078,4.95287178733901,-0.0,0.29589036107063293,-1.5003016630755823,-0.0,-0.020150640979409218,0.8781251907348633,-0.0,0.02045290730893612,0.7867330312728882,-5.866695937584154e-05,-0.00044350605458021164
195.0,192.0,0.3823,-0.9482,9.7549,-0.0516,0.0148,-0.1142,-1.9446846447386683,-7.262952567543834e-05,3.5527124404907227,-1.562503457069397,0.0009115074062719941,2.090688705444336,4.952888104110517,-0.0,0.2803572714328766,-1.5003059546100062,5.879948366782628e-05,-0.017049234360456467,0.8780972957611084,-0.0,0.005748546216636896,0.7867172956466675,-6.691112503176555e-05,-0.024953924119472504
195.0,192.0,0.3823,-0.9482,9.7549,-0.0516,0.0148,-0.1142,-1.9446889362730921,-8.641814201837406e-05,3.5917701721191406,-1.562455415725708,0.0008219419978559017,2.0968873500823975,4.952924179821768,-0.0,0.2870476245880127,-1.5003340880023401,6.792201020289212e-05,-0.02375822514295578,0.8780972957611084,-0.0,0.010270651429891586,0.7867211103439331,-7.525939145125449e-05,-0.04784723371267319
195.0,192.0,0.3823,-0.9482,9.7549,-0.0516,0.0148,-0.1142,-1.9446641407408656,-0.0005334334564395249,3.58636474609375,-1.5624794960021973,0.0008668666705489159,2.104491710662842,4.952904122858801,1.1359506970620714e-05,0.2820776700973511,-1.5002859274493616,8.587830234318972e-05,-0.0012177799362689257,0.878017008304596,-0.0,0.018825436010956764,0.7867051959037781,-9.929537918651477e-05,-0.12107478082180023
195.0,192.0,0.3823,-0.9482,9.7549,-0.0516,0.0148,-0.1142,-1.9446846447386683,-0.0006957503501325846,3.592392921447754,-1.562471628189087,0.0008996193064376712,2.0488903522491455,4.952827530890264,2.6703464754973538e-05,0.2742595672607422,-1.500322167073385,0.0003333447966724634,-0.011476012878119946,0.878109335899353,6.344536562785663e-10,0.01900850608944893,0.7867330312728882,-0.0008640214800834656,-0.06774742156267166
195.0,192.0,0.3823,-0.9482,9.7549,-0.0516,0.0148,-0.1142,-1.9446803532042445,-0.0006698318175040185,3.5056796073913574,-1.562483549118042,0.001045473851263523,2.093611478805542,4.952855828195371,2.5565970645402558e-05,0.2674708664417267,-1.5002740065204065,0.0003783036663662642,-0.00207064813002944,0.8780614137649536,1.7660250703228214e-13,0.02121185138821602,0.7866927981376648,-0.001013724715448916,-0.07121652364730835
195.0,192.0,0.3823,-0.9482,9.7549,-0.0516,0.0148,-0.1142,-1.9446999035277308,-0.0007124642143025994,3.558572292327881,-1.5624916553497314,0.0012110602110624313,2.0316920280456543,4.952896299749174,2.4191675038309768e-05,0.2823747992515564,-1.5002501646624964,0.0004772196407429874,0.003186509944498539,0.8781450986862183,3.209663435955823e-18,0.022444723173975945,0.7866929173469543,-0.0010490549029782414,-0.16709759831428528
195.0,192.0,0.3823,-0.9482,9.7549,-0.0516,0.0148,-0.1142,-1.944716592828268,-0.0007177623920142651,3.477522373199463,-1.5624597072601318,0.0012379124527797103,2.1061699390411377,4.952839794545927,2.2957558030611835e-05,0.26170119643211365,-1.5002697149859827,0.00047273695236071944,-0.004854822065681219,0.8780813813209534,5.833404881967196e-23,0.0287105031311512,0.7867010235786438,-0.0012757746735587716,-0.11544675379991531
195.0,192.0,0.3823,-0.9482,9.7549,-0.0516,0.0148,-0.1142,-1.9446999035277308,-0.0006793377688154578,3.534224033355713,-1.562431812286377,0.0018125695642083883,2.103081226348877,4.952879863768377,2.1843188733328134e-05,0.25308722257614136,-1.5002582708941858,0.0004872454737778753,0.006700203288346529,0.8781371712684631,1.0601924639480965e-27,0.02252420224249363,0.7866809964179993,-0.00156903057359159,-0.1449001431465149
191.0,193.0,0.4175,-0.8219,9.4911,-0.0388,0.0286,-0.1156,-1.94468416790151,-0.000578315113671124,3.5007195472717285,-1.562415599822998,0.002167297760024667,2.0794639587402344,4.952871712833204,2.1075926269986667e-05,0.2656703591346741,-1.5002945105182093,0.0005493173375725746,0.004022195003926754,0.8781211972236633,2.9510839750133666e-31,0.034510064870119095,0.7866162061691284,-0.0016846186481416225,-0.14764174818992615
191.0,193.0,0.4175,-0.8219,9.4911,-0.0388,0.0286,-0.1156,-1.9447084865965785,-0.0005405528354458511,3.464724540710449,-1.5623836517333984,0.00221287296153605,2.082911252975464,4.952888089209356,2.013301127590239e-05,0.252435564994812,-1.5002177397357386,0.0007010703557170928,-0.0007216607918962836,0.8780893087387085,5.3634498280300036e-36,0.03725212439894676,0.78665691614151,-0.0019210035679861903,-0.1327299326658249
191.0,193.0,0.4175,-0.8219,9.4911,-0.0388,0.0286,-0.1156,-1.944695611993307,-0.0006375270895659924,3.4783201217651367,-1.5623277425765991,0.0020584240555763245,2.1315255165100098,4.952907788544454,3.1319626891956887e-09,0.2526145279407501,-1.5002225081073206,0.0009256534976884723,0.019107278436422348,0.8780813813209534,9.747852507382725e-41,0.025520913302898407,0.7865842580795288,-0.0019253334030508995,-0.14135809242725372
191.0,193.0,0.4175,-0.8219,9.4911,-0.0388,0.0286,-0.1156,-1.9447280369200648,-0.0010446079540997744,3.462672710418701,-1.5623798370361328,0.002277130726724863,2.0920097827911377,4.952859478979864,8.717933601583294e-13,0.24804073572158813,-1.5002301375018519,0.0017388826236128807,0.0019561212975531816,0.8781450390815735,2.6624670822171524e-44,0.030089884996414185,0.7866729497909546,-0.0019217225490137935,-0.12674598395824432
191.0,193.0,0.4175,-0.8219,9.4911,-0.0388,0.0286,-0.1156,-1.9447976551451625,-0.0025027883239090443,3.423447847366333,-1.5623397827148438,0.0020240640733391047,2.121541976928711,4.952879863768377,1.5844414677242955e-17,0.24342301487922668,-1.5001776854144495,0.009348458610475063,0.01352960430085659,0.8781291246414185,0.00012609836994670331,0.03935212641954422,0.7866005897521973,-0.002043812070041895,-0.20028597116470337
191.0,193.0,0.4175,-0.8219,9.4911,-0.0388,0.0286,-0.1156,-1.944812913934225,-0.005229309666901827,3.4127357006073,-1.5623799562454224,0.001973147038370371,2.10229229927063,4.9529200969036005,2.8796439644668496e-22,0.24108317494392395,-1.5000141302691858,0.023905739188194275,0.027120865881443024,0.8781211376190186,0.0001361923204967752,0.02611921727657318,0.7866290211677551,-0.0022575599141418934,-0.14642909169197083
191.0,193.0,0.4175,-0.8219,9.4911,-0.0388,0.0286,-0.1156,-1.9448205433287562,-0.007600295823067427,3.4136087894439697,-1.5622798204421997,0.0021927212364971638,2.069204807281494,4.952895852714338,8.015594703832906e-26,0.2534278631210327,-1.4999545256244105,0.014320784248411655,0.014189312234520912,0.8781613707542419,0.00014763313811272383,0.0344143845140934,0.7866047620773315,-0.002124972175806761,-0.15861287713050842
191.0,193.0,0.4175,-0.8219,9.4911,-0.0388,0.0286,-0.1156,-1.944876333276266,-0.00674132676795125,3.4221267700195312,-1.5623278617858887,0.002820442197844386,2.088365316390991,4.952895867615499,1.456794662872368e-30,0.25013235211372375,-1.4999306837665003,0.00011566864122869447,0.02501201629638672,0.8781248927116394,0.0001543311373097822,0.027737122029066086,0.7866049408912659,-0.002386849606409669,-0.1375955045223236
191.0,193.0,0.4175,-0.8219,9.4911,-0.0388,0.0286,-0.1156,-1.9449407062926234,-0.005814617034047842,3.43302059173584,-1.5622639656066895,0.002788136713206768,2.0732040405273438,4.952863561898031,2.6476526535037224e-35,0.23658564686775208,-1.4999426046954554,-0.0016085437964648008,0.023800615221261978,0.8781129717826843,0.00030416424851864576,0.03266404941678047,0.7865525484085083,-0.0023828777484595776,-0.18259763717651367
191.0,193.0,0.4175,-0.8219,9.4911,-0.0388,0.0286,-0.1156,-1.9450212917723597,-0.007031348533928394,3.3488779067993164,-1.562288522720337,0.002291833981871605,2.101045846939087,4.952895867615499,7.36983920433426e-39,0.23918050527572632,-1.49998647371401,-0.00030696819885633886,0.028354402631521225,0.878153383731842,0.0003035771078430116,0.04738278314471245,0.7865649461746216,-0.0019989381544291973,-0.19593971967697144
191.0,193.0,0.4175,-0.8219,9.4911,-0.0388,0.0286,-0.1156,-1.9450365505614222,-0.009661720134317875,3.361748218536377,-1.5622360706329346,0.0013365530176088214,2.052501916885376,4.952899965434828,1.3452465257518244e-43,0.23225997388362885,-1.4999545256244105,-0.00018217842443846166,0.02305130660533905,0.8781330585479736,0.00029528039158321917,0.05068075284361839,0.786544680595398,-0.001171428244560957,-0.21781539916992188
191.0,193.0,0.4175,-0.8219,9.4911,-0.0388,0.0286,-0.1156,-1.9451576671996058,-0.009841685183346272,3.3800878524780273,-1.5622801780700684,0.0008471881155855954,2.041710615158081,4.9528958825166605,0.0,0.2368912547826767,-1.499934498463766,-0.00012963915651198477,0.018739737570285797,0.8781493902206421,0.0003077246656175703,0.05286966264247894,0.7865610122680664,-0.0008386724512092769,-0.24484573304653168
191.0,193.0,0.4175,-0.8219,9.4911,-0.0388,0.0286,-0.1156,-1.9451967678465785,-0.008893541991710663,3.351555824279785,-1.5622601509094238,0.0009742272086441517,2.072208881378174,4.95294830480174,0.0,0.23633792996406555,-1.4999626318561,-0.00010659413237590343,0.028060421347618103,0.8781613707542419,0.000293232558760792,0.05204000324010849,0.7865809798240662,-0.0006217167829163373,-0.22442808747291565
190.0,204.0,0.3362,-0.7101,9.8973,-0.027,0.0089,-0.1161,-1.945244928399557,-0.007943300530314445,3.3788788318634033,-1.5621883869171143,0.002177183050662279,2.0647735595703125,4.952927875309744,0.0,0.23474310338497162,-1.4999821821795862,-0.00012923353642690927,0.02785186842083931,0.8781693577766418,0.00024988953373394907,0.05882986634969711,0.7866047620773315,-0.0004620745312422514,-0.14250382781028748
190.0,204.0,0.3362,-0.7101,9.8973,-0.027,0.0089,-0.1161,-1.9453288517394007,-0.0075060236267745495,3.3658812046051025,-1.562164068222046,0.003909974358975887,2.073664903640747,4.952895867615499,0.0,0.24410270154476166,-1.499946419392721,-0.00010848206147784367,0.03515918180346489,0.8782051205635071,0.00024595134891569614,0.05294213071465492,0.7865569591522217,-0.00036767625715583563,-0.18403026461601257
190.0,204.0,0.3362,-0.7101,9.8973,-0.027,0.0089,-0.1161,-1.9453841648497523,-0.008464694954454899,3.3676538467407227,-1.5621721744537354,0.003896806389093399,2.071701765060425,4.952895897417822,0.0,0.23092487454414368,-1.4999902884112757,-9.681076335255057e-05,0.011959603056311607,0.8781732320785522,0.00022019591415300965,0.061282381415367126,0.7865570187568665,-0.00031882832990959287,-0.2345762401819229
190.0,204.0,0.3362,-0.7101,9.8973,-0.027,0.0089,-0.1161,-1.9454432926573695,-0.009454364888370037,3.3869075775146484,-1.562119960784912,0.004335648380219936,2.0670695304870605,4.9529237923915765,0.0,0.2411540299654007,-1.4999502340899866,-8.46661496325396e-05,0.014917474240064621,0.878173291683197,0.0002205356431659311,0.06010908633470535,0.7866049408912659,-0.0002708501706365496,-0.1986055225133896
190.0,204.0,0.3362,-0.7101,9.8973,-0.027,0.0089,-0.1161,-1.9455000362791957,-0.009186191484332085,3.3584587574005127,-1.5620880126953125,0.004649427719414234,2.056790828704834,4.9529237923915765,0.0,0.23621094226837158,-1.4999626318561,-7.522926898673177e-05,0.027329357340931892,0.8781653046607971,0.00019665827858261764,0.05502089112997055,0.7865369915962219,-0.00023542433336842805,-0.14388316869735718
190.0,204.0,0.3362,-0.7101,9.8973,-0.027,0.0089,-0.1161,-1.945580621758932,-0.00909757986664772,3.3643083572387695,-1.5620360374450684,0.004878662526607513,2.0500006675720215,4.952883946686544,0.0,0.23135700821876526,-1.4999468962298792,-6.942568870726973e-05,0.01836523786187172,0.8781852126121521,0.0001677862455835566,0.05322955548763275,0.7865649461746216,-0.00021439339616335928,-0.20587337017059326
190.0,204.0,0.3362,-0.7101,9.8973,-0.027,0.0089,-0.1161,-1.9456445179381312,-0.00912516936659813,3.3650412559509277,-1.5620286464691162,0.004962394014000893,2.083183765411377,4.952883946686544,0.0,0.2307801991701126,-1.4999545256244105,-6.295074854278937e-05,0.023664332926273346,0.8781812191009521,0.000174772460013628,0.06470271944999695,0.7865768671035767,-0.00019157507631462067,-0.18496695160865784
190.0,204.0,0.3362,-0.7101,9.8973,-0.027,0.0089,-0.1161,-1.9456798038878382,-0.010157652199268341,3.3870201110839844,-1.5620163679122925,0.00452596228569746,2.0838165283203125,4.952879863768377,0.0,0.2382623553276062,-1.4999993483172815,-5.758053157478571e-05,0.031906113028526306,0.8782495260238647,0.0001740712468745187,0.07236586511135101,0.7865889072418213,-0.0001731469965307042,-0.18730978667736053
190.0,204.0,0.3362,-0.7101,9.8973,-0.027,0.0089,-0.1161,-1.9457842312254847,-0.011586352251470089,3.3463807106018066,-1.5619604587554932,0.004142549354583025,2.1156790256500244,4.952879848867216,0.0,0.2347823977470398,-1.4999383131610315,-5.411802703747526e-05,0.022467803210020065,0.8781653046607971,0.00016643633716739714,0.06954415887594223,0.7866090536117554,-0.00016149584553204477,-0.22308212518692017
190.0,204.0,0.3362,-0.7101,9.8973,-0.027,0.0089,-0.1161,-1.9458314381041468,-0.012649434618651867,3.2816996574401855,-1.561964511871338,0.003209662390872836,2.040513515472412,4.952931988030233,0.0,0.23997268080711365,-1.4999383131610315,-5.0101101805921644e-05,0.030762840062379837,0.8781772255897522,0.0001720311411190778,0.07506096363067627,0.7866013050079346,-0.00014819949865341187,-0.17753717303276062
190.0,204.0,0.3362,-0.7101,9.8973,-0.027,0.0089,-0.1161,-1.9459401569762171,-0.011797172017395496,3.332211971282959,-1.5619404315948486,0.002777294022962451,2.036402463912964,4.952895867615499,0.0,0.227268785238266,-1.4998977820025843,-4.663928848458454e-05,0.01808631420135498,0.8782050609588623,0.0002600007283035666,0.0844031348824501,0.7865369319915771,-0.00013692602806258947,-0.18196940422058105
190.0,204.0,0.3362,-0.7101,9.8973,-0.027,0.0089,-0.1161,-1.9460317097105921,-0.011543747037649155,3.3286733627319336,-1.5618486404418945,0.002785884542390704,2.062776803970337,4.952867615013876,0.0,0.23530873656272888,-1.4999669233905237,-4.3624997488223016e-05,0.040733736008405685,0.8782373070716858,0.0002566778566688299,0.07579176872968674,0.7865889072418213,-0.00012724651605822146,-0.2264370322227478
190.0,196.0,0.533,-0.7418,9.2566,-0.0374,0.0133,-0.1139,-1.946099420587057,-0.010767044499516487,3.3718762397766113,-1.5618884563446045,0.002359780017286539,2.112431526184082,4.952907758742132,0.0,0.2371366024017334,-1.4999426046954554,-4.160817479714751e-05,0.019502144306898117,0.8782050609588623,0.0002468604361638427,0.08489102125167847,0.7865809202194214,-0.00010749904322437942,-0.18981203436851501
190.0,196.0,0.533,-0.7418,9.2566,-0.0374,0.0133,-0.1139,-1.9461995563902796,-0.011963631957769394,3.332627296447754,-1.5618326663970947,0.0019286720780655742,2.130161762237549,4.952855783491888,0.0,0.2462904155254364,-1.4999263922320765,-3.919226583093405e-05,0.030373401939868927,0.8781810402870178,0.00023076750221662223,0.0728704035282135,0.7865569591522217,-9.908315405482426e-05,-0.1848261058330536
190.0,196.0,0.533,-0.7418,9.2566,-0.0374,0.0133,-0.1139,-1.9462596378722132,-0.010897445492446423,3.3058981895446777,-1.561856746673584,0.00136862404178828,2.09061336517334,4.9529041079576395,0.0,0.23749074339866638,-1.4999626318561,-3.704154732986353e-05,0.026773106306791306,0.8782050609588623,0.0002850730379577726,0.06646116822957993,0.7865889072418213,-2.8151285732747056e-05,-0.1636236011981964
190.0,196.0,0.533,-0.7418,9.2566,-0.0374,0.0133,-0.1139,-1.9463392696776332,-0.01103096641600132,3.377413034439087,-1.5618289709091187,0.0010514530586078763,2.062167167663574,4.952892201929846,0.0,0.21692194044589996,-1.499974552785055,-3.557728268788196e-05,0.026058724150061607,0.8782452940940857,0.0002509460609871894,0.08470474183559418,0.7865965962409973,-1.3306446817296091e-05,-0.18119366466999054
190.0,196.0,0.533,-0.7418,9.2566,-0.0374,0.0133,-0.1139,-1.9464155636229457,-0.010418549180030823,3.313220500946045,-1.5618163347244263,0.0007910783751867712,2.046417474746704,4.952883946686544,0.0,0.2309974581003189,-1.4999588171588343,-3.379600093467161e-05,0.02775529772043228,0.8782573938369751,0.0002468611637596041,0.08852998167276382,0.7866210341453552,-9.269721101823336e-11,-0.17442360520362854
190.0,196.0,0.533,-0.7418,9.2566,-0.0374,0.0133,-0.1139,-1.9464789829649867,-0.009574560448527336,3.3583860397338867,-1.5618009567260742,0.0006590604316443205,2.044938564300537,4.952924224525251,-8.452607289655134e-05,0.23228365182876587,-1.4999268690692347,-3.218460187781602e-05,0.028132867068052292,0.8782249689102173,0.00029238522984087467,0.07596156001091003,0.7866209149360657,-3.0032717401613387e-18,-0.20327720046043396
190.0,196.0,0.533,-0.7418,9.2566,-0.0374,0.0133,-0.1139,-1.9465390644469203,-0.008911741897463799,3.3255679607391357,-1.5618809461593628,0.0006340984255075455,2.0723650455474854,4.952908175974645,-9.789286559680477e-05,0.22593699395656586,-1.4999821821795862,-3.107341399299912e-05,0.02612820826470852,0.8782652616500854,0.00029983799322508276,0.08790970593690872,0.7866409420967102,-7.252547348886795e-24,-0.22211022675037384
190.0,196.0,0.533,-0.7418,9.2566,-0.0374,0.0133,-0.1139,-1.9466120205321253,-0.008550144731998444,3.376765251159668,-1.561853051185608,0.0005046895239502192,2.076953649520874,4.952899950533666,-9.006110485643148e-05,0.22394970059394836,-1.4999664465533655,-1.5057536984386388e-05,0.026856373995542526,0.8782492280006409,0.0003277762734796852,0.08449088037014008,0.7866607904434204,0.0004884744994342327,-0.1740853488445282
190.0,196.0,0.533,-0.7418,9.2566,-0.0374,0.0133,-0.1139,-1.9466749630370082,-0.007882580161094666,3.3526053428649902,-1.5617763996124268,0.0006222620722837746,2.1258885860443115,4.952859940915861,-8.338558836840093e-05,0.23933428525924683,-1.4999702612506312,-2.736632864763777e-10,0.03595695272088051,0.8782733678817749,0.0011107937898486853,0.09281603991985321,0.7866209149360657,0.00034122428041882813,-0.19266477227210999
190.0,196.0,0.533,-0.7418,9.2566,-0.0374,0.0133,-0.1139,-1.9467197857298792,-0.006056780926883221,3.327965497970581,-1.5617729425430298,0.0013475101441144943,2.1020402908325195,4.952871712833204,-7.899422780610621e-05,0.23383556306362152,-1.4999225775348108,-7.617517727709355e-14,0.027166210114955902,0.8782492280006409,0.005171495024114847,0.09136130660772324,0.7866286635398865,0.0002779760106932372,-0.16503411531448364
190.0,196.0,0.533,-0.7418,9.2566,-0.0374,0.0133,-0.1139,-1.946714540521139,-0.0034963334910571575,3.3513946533203125,-1.5617809295654297,0.0031824891921132803,2.0485010147094727,4.952891784697332,-7.381130853900686e-05,0.23263239860534668,-1.4999507109271448,-1.3844459873754083e-18,0.0397917777299881,0.8784047961235046,0.016444329172372818,0.09661244601011276,0.7866648435592651,0.00022289386834017932,-0.195195734500885
190.0,196.0,0.533,-0.7418,9.2566,-0.0374,0.0133,-0.1139,-1.9467798672118128,-0.0017373478040099144,3.343183994293213,-1.561737060546875,0.006033053621649742,2.100062131881714,4.952875765949049,-6.926672358531505e-05,0.23806679248809814,-1.4999507109271448,-2.5161619451177934e-23,0.028427207842469215,0.8784320950508118,0.009755943901836872,0.09592059999704361,0.7866207957267761,0.0001860327902249992,-0.19659826159477234
193.0,197.0,0.4337,-0.7412,9.5103,-0.0261,0.0367,-0.1075,-1.9466902218260707,-0.0011175994295626879,3.336282730102539,-1.5617371797561646,0.008146393112838268,2.05271315574646,4.952875765949049,-5.297127790981904e-05,0.23808404803276062,-1.499958340321676,-2.6967693855795005e-08,0.048909638077020645,0.8785126209259033,0.0033111602533608675,0.10428835451602936,0.7866329550743103,0.00016550537839066237,-0.19256526231765747
193.0,197.0,0.4337,-0.7412,9.5103,-0.0261,0.0367,-0.1075,-1.9467798672118128,-0.0008683846681378782,3.378340721130371,-1.561637043952942,0.010379711166024208,2.0703558921813965,4.952891784697332,-5.002347825211473e-05,0.240313321352005,-1.4999426046954554,-4.901245425140144e-13,0.04405288025736809,0.8784921169281006,0.0010195645736530423,0.084292933344841,0.7866166830062866,0.00017313464195467532,-0.18143939971923828
193.0,197.0,0.4337,-0.7412,9.5103,-0.0261,0.0367,-0.1075,-1.9467832050719203,-0.0007305399049073458,3.333874464035034,-1.5615570545196533,0.013695863075554371,2.0733413696289062,4.952948260098257,-4.738949064631015e-05,0.24381305277347565,-1.4999545256244105,-8.907770704601871e-18,0.04791199415922165,0.8784880042076111,0.0006182532524690032,0.09868884831666946,0.7866690158843994,0.00015345436986535788,-0.1560744345188141
193.0,197.0,0.4337,-0.7412,9.5103,-0.0261,0.0367,-0.1075,-1.9467703304686488,-0.0006441018776968122,3.3572049140930176,-1.5614136457443237,0.016248278319835663,2.124685049057007,4.9529118714626215,-4.558914224617183e-05,0.23220649361610413,-1.499934498463766,-2.4795104387866048e-21,0.04822297394275665,0.8784365057945251,0.00047751746024005115,0.09976327419281006,0.7866730690002441,0.0001640184345887974,-0.22344970703125
193.0,197.0,0.4337,-0.7412,9.5103,-0.0261,0.0367,-0.1075,-1.9467793903746546,-0.0008427054272033274,3.3602380752563477,-1.5612456798553467,0.019719084724783897,2.0839266777038574,4.95291596928195,-4.3391166400397196e-05,0.22973604500293732,-1.499918286000387,-4.5063882588952427e-26,0.0318223312497139,0.878532350063324,0.0003663719689939171,0.09268776327371597,0.7867010235786438,0.00017064617713913321,-0.18578213453292847
193.0,197.0,0.4337,-0.7412,9.5103,-0.0261,0.0367,-0.1075,-1.9468189678587855,-0.0013710905332118273,3.379153251647949,-1.5611292123794556,0.022794293239712715,2.060300827026367,4.952907788544454,-4.139543671044521e-05,0.2294461578130722,-1.4999664465533655,-8.190139339919206e-31,0.04152010753750801,0.8784762620925903,0.0002972111979033798,0.1027439683675766,0.7866286039352417,0.00011769888806156814,-0.22408881783485413
193.0,197.0,0.4337,-0.7412,9.5103,-0.0261,0.0367,-0.1075,-1.9468308887877406,-0.0022154480684548616,3.37522029876709,-1.5609338283538818,0.025168394669890404,2.096649646759033,4.952904137759962,-4.001505658379756e-05,0.23895013332366943,-1.4999306837665003,-2.2797551215171868e-34,0.050496574491262436,0.8784603476524353,0.0002603539323899895,0.10991451144218445,0.7866652011871338,0.00013093701272737235,-0.20894694328308105
193.0,197.0,0.4337,-0.7412,9.5103,-0.0261,0.0367,-0.1075,-1.9468471012511195,-0.0028980590868741274,3.3226799964904785,-1.5607507228851318,0.028738845139741898,2.131871223449707,4.952915939479627,-1.7486938304500654e-05,0.22442248463630676,-1.499958340321676,-4.143342483734047e-39,0.04615569859743118,0.8784880042076111,0.00022341635485645384,0.10580508410930634,0.7866849899291992,0.00013925750681664795,-0.2814747393131256
193.0,197.0,0.4337,-0.7412,9.5103,-0.0261,0.0367,-0.1075,-1.946879049340719,-0.003482804400846362,3.3424980640411377,-1.5604989528656006,0.03093761019408703,2.138690710067749,4.952863532095709,-1.622294439584948e-05,0.22302258014678955,-1.4999106566058558,-7.567011707354012e-44,0.0544433668255806,0.8784802556037903,0.00022360066941473633,0.09306101500988007,0.7866368293762207,0.00014621287118643522,-0.24104052782058716
193.0,197.0,0.4337,-0.7412,9.5103,-0.0261,0.0367,-0.1075,-1.946935316125387,-0.0046774218790233135,3.3340659141540527,-1.5602468252182007,0.032843392342329025,2.16483211517334,4.952879863768377,-1.539064760436304e-05,0.2326362282037735,-1.4999306837665003,-0.0,0.059229712933301926,0.8784603476524353,0.0002045499422820285,0.10504242777824402,0.7866849899291992,0.0001378257293254137,-0.22540181875228882
193.0,197.0,0.4337,-0.7412,9.5103,-0.0261,0.0367,-0.1075,-1.9469839535155238,-0.006022111512720585,3.3399014472961426,-1.560051679611206,0.035138435661792755,2.1148910522460938,4.952859478979864,-2.874713572964538e-05,0.2311450093984604,-1.4999187628375452,-0.0,0.04111999273300171,0.8785165548324585,0.00018367580196354538,0.09644821286201477,0.7867048382759094,0.0001280232099816203,-0.23195907473564148
193.0,197.0,0.4337,-0.7412,9.5103,-0.0261,0.0367,-0.1075,-1.9469739399352015,-0.0076550208032131195,3.3322525024414062,-1.5596632957458496,0.0383838452398777,2.149561882019043,4.952855783491888,-5.325452730176039e-05,0.21100759506225586,-1.499902073537008,-0.0,0.04386691004037857,0.8785204887390137,0.00016666771261952817,0.10432102531194687,0.7866927981376648,0.00011952243221458048,-0.24169035255908966
193.0,197.0,0.4337,-0.7412,9.5103,-0.0261,0.0367,-0.1075,-1.9470588169493617,-0.0091626588255167,3.309837818145752,-1.5593645572662354,0.04424825683236122,2.1422455310821533,4.952888104110517,-0.00020815912284888327,0.2273227721452713,-1.4999268690692347,-0.0,0.05083923786878586,0.8785005807876587,0.00015254282334353775,0.09732402861118317,0.7866528034210205,0.00011208022624487057,-0.25870800018310547
195.0,196.0,0.3954,-0.8082,9.7298,-0.0315,0.066,-0.1205,-1.9471198521056117,-0.009791774675250053,3.264556884765625,-1.5591050386428833,0.047433000057935715,2.1141648292541504,4.952831509500303,-0.0002542113361414522,0.22781556844711304,-1.4999106566058558,-0.0,0.055038511753082275,0.8785204887390137,0.00014342642680276185,0.11406189203262329,0.7866849899291992,9.375699301017448e-05,-0.28451743721961975
195.0,196.0,0.3954,-0.8082,9.7298,-0.0315,0.066,-0.1205,-1.9472276173033656,-0.011802034452557564,3.2738585472106934,-1.5586894750595093,0.05384450778365135,2.1495862007141113,4.952884095698156,-0.0004917288315482438,0.22609753906726837,-1.4999664465533655,-0.0,0.05285240337252617,0.8784722089767456,0.00013284117449074984,0.09721540659666061,0.7866647243499756,8.843400428304449e-05,-0.21223920583724976
195.0,196.0,0.3954,-0.8082,9.7298,-0.0315,0.066,-0.1205,-1.9472986660399378,-0.014805111102759838,3.2600698471069336,-1.5582144260406494,0.05929427593946457,2.1846795082092285,4.952880385309019,-0.0005579476710408926,0.21806180477142334,-1.4999187628375452,-0.0,0.05574061721563339,0.8785165548324585,0.0001237111137015745,0.10772035270929337,0.7866729497909546,8.373258606297895e-05,-0.2916834354400635
195.0,196.0,0.3954,-0.8082,9.7298,-0.0315,0.066,-0.1205,-1.9474073849120082,-0.017295213416218758,3.255779266357422,-1.557858943939209,0.06302501261234283,2.1561484336853027,4.952856200724401,-0.0006663838867098093,0.21318691968917847,-1.4999149481402796,-0.0,0.06014350801706314,0.8784762024879456,0.00010391699470346794,0.09486834704875946,0.7866488695144653,8.066561713349074e-05,-0.2575162947177887
195.0,196.0,0.3954,-0.8082,9.7298,-0.0315,0.066,-0.1205,-1.9475137195982875,-0.019506923854351044,3.271040916442871,-1.5572712421417236,0.06695906072854996,2.198305368423462,4.952888178616323,-0.0005943109281361103,0.21389473974704742,-1.4999349753009241,6.895773549331352e-05,0.07229191064834595,0.8784960508346558,9.662553202360868e-05,0.0913625955581665,0.7866408228874207,3.9274127630051225e-05,-0.2786291539669037
195.0,196.0,0.3954,-0.8082,9.7298,-0.0315,0.066,-0.1205,-1.9477344952025355,-0.02217072993516922,3.2424936294555664,-1.556760549545288,0.06781298667192459,2.1449532508850098,4.952823850303449,-0.0006313812336884439,0.21628348529338837,-1.4999187628375452,7.80120026320219e-05,0.060138680040836334,0.8784881234169006,9.104023047257215e-05,0.08522649109363556,0.7866408824920654,1.806419822969474e-05,-0.2553020715713501
195.0,196.0,0.3954,-0.8082,9.7298,-0.0315,0.066,-0.1205,-1.9478708706297816,-0.022918226197361946,3.2843170166015625,-1.5563580989837646,0.0691162496805191,2.16552734375,4.952823865204611,-0.000760293856728822,0.1931648552417755,-1.499906365071432,7.479800842702389e-05,0.05506105720996857,0.8783968687057495,8.725739462533966e-05,0.09554870426654816,0.7866610288619995,1.7035261407727376e-05,-0.307986855506897
195.0,196.0,0.3954,-0.8082,9.7298,-0.0315,0.066,-0.1205,-1.9480301342406214,-0.024644050747156143,3.224536418914795,-1.5557347536087036,0.07545628398656845,2.144619941711426,4.952823865204611,-0.0007265579770319164,0.21621312201023102,-1.4999149481402796,8.268278907053173e-05,0.08394308388233185,0.8784365057945251,2.4355169443879277e-05,0.08147913217544556,0.7866809368133545,1.5836270904401317e-05,-0.2899300456047058
195.0,196.0,0.3954,-0.8082,9.7298,-0.0315,0.066,-0.1205,-1.948270937005514,-0.027463393285870552,3.2181432247161865,-1.5551079511642456,0.08165892958641052,2.1840624809265137,4.952756109624662,-0.0009588978136889637,0.20160138607025146,-1.499923054371969,8.977857214631513e-05,0.054143186658620834,0.8784444332122803,2.264644172100816e-05,0.07985793799161911,0.7866974472999573,1.4794969501963351e-05,-0.2888449430465698
195.0,196.0,0.3954,-0.8082,9.7298,-0.0315,0.066,-0.1205,-1.9484793148436488,-0.031705591827631,3.2517852783203125,-1.5546168088912964,0.08474109321832657,2.224870204925537,4.952795940428533,-0.0009244868997484446,0.2011944055557251,-1.4998863379107874,8.654433622723445e-05,0.07200777530670166,0.8784365653991699,1.0914531230810098e-05,0.06603389233350754,0.7866209149360657,1.409963169862749e-05,-0.25693222880363464
195.0,196.0,0.3954,-0.8082,9.7298,-0.0315,0.066,-0.1205,-1.948710104028219,-0.0361594557762146,3.242971897125244,-1.553868055343628,0.08903426676988602,2.174703359603882,4.9528163252170465,-0.0006677955389022827,0.19600996375083923,-1.4999030272113245,8.257418812718242e-05,0.06833247095346451,0.8783968687057495,4.541577069971936e-08,0.0741109699010849,0.78665691614151,1.3268190741655417e-05,-0.27435263991355896
195.0,196.0,0.3954,-0.8082,9.7298,-0.0315,0.066,-0.1205,-1.9490467510619105,-0.03893841803073883,3.2475574016571045,-1.5531271696090698,0.09670540690422058,2.2232494354248047,4.952784019499578,-0.00040348945185542107,0.21522538363933563,-1.4998863379107874,0.00015852964133955538,0.07944267988204956,0.8784364461898804,8.254092396554891e-13,0.06821081042289734,0.7866808772087097,1.4614306564908475e-06,-0.33773162961006165
180.0,186.0,0.1831,-0.6072,9.3093,-0.0269,0.0796,-0.1174,-1.94926180462026,-0.042149197310209274,3.205044746398926,-1.5524965524673462,0.09916470944881439,2.1842422485351562,4.952731969743528,-0.0003806291497312486,0.20115354657173157,-1.4999030272113245,0.00014338616165332496,0.0668507069349289,0.8784128427505493,2.2975570170925884e-16,0.06636010855436325,0.7866768836975098,3.5291830222106135e-12,-0.2450014352798462
180.0,186.0,0.1831,-0.6072,9.3093,-0.0269,0.0796,-0.1174,-1.9496218166747035,-0.047826819121837616,3.1901192665100098,-1.5517216920852661,0.10133277624845505,2.1838536262512207,4.952764245658674,-0.0002972524962387979,0.18983998894691467,-1.4999068419085901,0.00014601794828195125,0.07495410740375519,0.8784483671188354,4.175696185563264e-21,0.0531645268201828,0.7866929173469543,1.143410468262343e-19,-0.3377373218536377
180.0,186.0,0.1831,-0.6072,9.3093,-0.0269,0.0796,-0.1174,-1.9500462017455042,-0.05358516052365303,3.157564640045166,-1.5508226156234741,0.10763996094465256,2.2034759521484375,4.9527921853359125,-0.0002435983915347606,0.20597879588603973,-1.4999025503741663,0.0001371098478557542,0.07534115761518478,0.8784286379814148,7.589122323626036e-26,0.06849321722984314,0.7866769433021545,3.70450506279946e-27,-0.2839835584163666
180.0,186.0,0.1831,-0.6072,9.3093,-0.0269,0.0796,-0.1174,-1.9503499470152796,-0.05801376327872276,3.230682849884033,-1.5501924753189087,0.11372131109237671,2.2163171768188477,4.9527921853359125,-0.0002499912225175649,0.21099238097667694,-1.4999068419085901,0.00012740466627292335,0.06901568919420242,0.8783928751945496,2.112460322009616e-29,0.06820149719715118,0.7866610288619995,8.945944003931535e-33,-0.288234144449234
180.0,186.0,0.1831,-0.6072,9.3093,-0.0269,0.0796,-0.1174,-1.9508372745909632,-0.06511634588241577,3.180349111557007,-1.5492585897445679,0.12352462112903595,2.2229652404785156,4.952772515803137,-0.00021598344028461725,0.19453726708889008,-1.4999268690692347,0.00013327307533472776,0.06811907887458801,0.8784364461898804,-0.0002918830723501742,0.041957952082157135,0.7866129875183105,2.8983756786862354e-40,-0.2698456048965454
180.0,186.0,0.1831,-0.6072,9.3093,-0.0269,0.0796,-0.1174,-1.9514132938780726,-0.07122309505939484,3.164607048034668,-1.548200249671936,0.1335652768611908,2.25946044921875,4.952784034400739,-0.00018993436242453754,0.20193319022655487,-1.4998744169818323,0.00012503747711889446,0.07943537831306458,0.8784205913543701,-0.00025813240790739655,0.046398840844631195,0.7865768074989319,0.0,-0.2674300968647003
180.0,186.0,0.1831,-0.6072,9.3093,-0.0269,0.0796,-0.1174,-1.951853414575094,-0.07332099229097366,3.153705596923828,-1.5473963022232056,0.13600370287895203,2.2354648113250732,4.952740180283346,-0.00019903326756320894,0.197419673204422,-1.4999106566058558,0.00011801085202023387,0.07153912633657455,0.8783684372901917,-0.0002632010437082499,0.04479500651359558,0.7866288423538208,0.0,-0.26252540946006775
180.0,186.0,0.1831,-0.6072,9.3093,-0.0269,0.0796,-0.1174,-1.952372213403219,-0.07688490301370621,3.175382137298584,-1.5462566614151,0.13267411291599274,2.21648907661438,4.952764260559835,-0.0001792389084585011,0.2059120237827301,-1.4999387899981897,0.00010978482168866321,0.06942479312419891,0.8783718943595886,-0.0002256369189126417,0.041674308478832245,0.7866050601005554,0.0,-0.30825161933898926
180.0,186.0,0.1831,-0.6072,9.3093,-0.0269,0.0796,-0.1174,-1.9530359707274378,-0.08349714428186417,3.159580707550049,-1.545273780822754,0.1359196901321411,2.2658045291900635,4.952752026706495,-0.00016300645074807107,0.20345225930213928,-1.4999268690692347,0.00011729214747902006,0.0711476057767868,0.8783803582191467,-0.0002236532309325412,0.04032036289572716,0.7866089940071106,0.0,-0.3325476348400116
180.0,186.0,0.1831,-0.6072,9.3093,-0.0269,0.0796,-0.1174,-1.9535399876036585,-0.08623462915420532,3.222892999649048,-1.544453740119934,0.14306610822677612,2.241520643234253,4.952784317522802,-0.0001359707530355081,0.19384315609931946,-1.4998787085162562,0.00011182721937075257,0.06971056759357452,0.8784449696540833,-0.00020617464906536043,0.044993557035923004,0.7866488695144653,0.0,-0.33773916959762573
180.0,186.0,0.1831,-0.6072,9.3093,-0.0269,0.0796,-0.1174,-1.954235693017477,-0.08498495817184448,3.1768059730529785,-1.543300986289978,0.15310360491275787,2.216019868850708,4.952715921192922,-0.00010743152961367741,0.19230401515960693,-1.4998982588397425,0.00010458318138262257,0.06917373836040497,0.8784603476524353,-0.00018498503777664155,0.03445332497358322,0.7866369485855103,-0.0002230112731922418,-0.2965184450149536
180.0,186.0,0.1831,-0.6072,9.3093,-0.0269,0.0796,-0.1174,-1.954935213128561,-0.08720987290143967,3.1821961402893066,-1.54204523563385,0.1616324633359909,2.251610517501831,4.952764260559835,-0.00011767887190217152,0.19237525761127472,-1.4999268690692347,9.569295798428357e-05,0.0707363709807396,0.8784645199775696,-0.00015136021829675883,0.029767462983727455,0.7866330146789551,-0.0001504063984612003,-0.3039931058883667
