ramyac6/ROB537/final_project/csv/all/good_130.csv
tof_0,tof_1,accelx,accely,accelz,gyrox,gyroy,gyroz,shoulder_lift_joint_position,shoulder_lift_joint_velocity,shoulder_lift_joint_effort,elbow_joint_position,elbow_joint_velocity,elbow_joint_effort,wrist_1_joint_position,wrist_1_joint_velocity,wrist_1_joint_effort,wrist_2_joint_position,wrist_2_joint_velocity,wrist_2_joint_effort,wrist_3_joint_position,wrist_3_joint_velocity,wrist_3_joint_effort,shoulder_pan_joint_position,shoulder_pan_joint_velocity,shoulder_pan_joint_effort
828.0,978.0,-0.1172,0.1771,9.5306,-0.0389,0.0189,-0.1228,-1.6832524738707484,0.0,2.3094754219055176,-2.0642077922821045,-0.0,1.8617544174194336,5.2327977297599695,-0.0,0.2878255844116211,-1.6038373152362269,0.0,-0.00947651918977499,0.8729995489120483,0.0,0.002301040105521679,0.7981538772583008,0.0,0.021071292459964752
828.0,978.0,-0.1172,0.1771,9.5306,-0.0389,0.0189,-0.1228,-1.6832200489439906,0.0,2.3201475143432617,-2.064155340194702,-0.0,1.8111088275909424,5.232744800835409,-0.0,0.27973467111587524,-1.6038740316974085,0.0,-0.006951395887881517,0.8730319142341614,0.0,0.010548921301960945,0.7981579303741455,0.0,0.04146995767951012
828.0,978.0,-0.1172,0.1771,9.5306,-0.0389,0.0189,-0.1228,-1.68322815517568,0.0,2.355238914489746,-2.0641801357269287,-0.0,1.8132336139678955,5.232785331993856,-0.0,0.2857881486415863,-1.6038373152362269,0.0,-0.012852280400693417,0.8730549216270447,0.0,0.0033481589052826166,0.7981458306312561,0.0,0.07310448586940765
828.0,978.0,-0.1172,0.1771,9.5306,-0.0389,0.0189,-0.1228,-1.6832119427123011,0.0,2.2828118801116943,-2.0641674995422363,-0.0,1.8696731328964233,5.2327690599258325,-0.0,0.28215301036834717,-1.6038735548602503,0.0,0.0030837750528007746,0.8729548454284668,0.0,0.0025460142642259598,0.7981259226799011,0.0,0.02442157082259655
828.0,978.0,-0.1172,0.1771,9.5306,-0.0389,0.0189,-0.1228,-1.6832643947997035,0.0,2.3501694202423096,-2.0642077922821045,-0.0,1.8241875171661377,5.23271273353652,-0.0,0.27791666984558105,-1.603849236165182,0.0,0.004168035462498665,0.8729873299598694,0.0,-0.0009738965891301632,0.7981579303741455,0.0,0.02271856740117073
852.0,911.0,0.009,0.21,9.5581,-0.0421,0.0244,-0.1188,-1.6832238636412562,0.0,2.350684642791748,-2.0642127990722656,-0.0,1.8132399320602417,5.232728767185964,-0.0,0.28685009479522705,-1.6038411299334925,0.0,-0.01121647097170353,0.873030960559845,0.0,-0.0006303880363702774,0.7981299161911011,0.0,0.015317266806960106
852.0,911.0,0.009,0.21,9.5581,-0.0421,0.0244,-0.1188,-1.6832643947997035,0.0,2.311805009841919,-2.0641801357269287,-0.0,1.8537557125091553,5.232753026276388,-0.0,0.2801555395126343,-1.6038335005389612,0.0,-0.004668237641453743,0.8730508089065552,0.0,-0.007124615833163261,0.7981740236282349,0.0,-0.062459565699100494
852.0,911.0,0.009,0.21,9.5581,-0.0421,0.0244,-0.1188,-1.6832438908019007,0.0,2.3445756435394287,-2.0641801357269287,-0.0,1.838796854019165,5.232785391598501,-0.0,0.2767519950866699,-1.6038373152362269,0.0,-0.0042984699830412865,0.8730387091636658,0.0,0.005564073100686073,0.7981340289115906,0.0,0.011096619069576263
852.0,911.0,0.009,0.21,9.5581,-0.0421,0.0244,-0.1188,-1.6832319698729457,0.0,2.295217990875244,-2.0642201900482178,-0.0,1.814273476600647,5.2327690599258325,-0.0,0.2906363010406494,-1.603849236165182,0.0,-0.017461329698562622,0.8730267882347107,0.0,-0.008726242929697037,0.7981014847755432,0.0,0.02721826359629631
852.0,911.0,0.009,0.21,9.5581,-0.0421,0.0244,-0.1188,-1.6832801304259242,0.0,2.311005115509033,-2.064175844192505,-0.0,1.815232276916504,5.232773113041677,-0.0,0.2819749712944031,-1.6038578192340296,0.0,0.0023525631986558437,0.8730308413505554,0.0,-0.01023560669273138,0.7981499433517456,0.0,0.0012398939579725266
852.0,911.0,0.009,0.21,9.5581,-0.0421,0.0244,-0.1188,-1.6832362614073695,0.0,2.3872764110565186,-2.064188241958618,-0.0,1.8357117176055908,5.232757138996877,-0.0,0.2886885106563568,-1.6038778463946741,0.0,-0.0162038654088974,0.8730319142341614,0.0,-0.0027671651914715767,0.7981378436088562,0.0,0.01391322910785675
852.0,911.0,0.009,0.21,9.5581,-0.0421,0.0244,-0.1188,-1.6832319698729457,0.0,2.3602135181427,-2.064223289489746,-0.0,1.856319546699524,5.232801425247946,-0.0,0.2954505383968353,-1.6038215796100062,0.0,-0.0010527390986680984,0.8730508089065552,0.0,-0.006794550456106663,0.7981337308883667,0.0,-0.01519702561199665
852.0,911.0,0.009,0.21,9.5581,-0.0421,0.0244,-0.1188,-1.6832601032652796,0.0,2.3460471630096436,-2.064155101776123,-0.0,1.8071314096450806,5.232757138996877,-0.0,0.27230745553970337,-1.6038535276996058,0.0,-0.0013159322552382946,0.8729707598686218,0.0,-0.0024903907906264067,0.7981619238853455,0.0,0.04738682880997658
852.0,911.0,0.009,0.21,9.5581,-0.0421,0.0244,-0.1188,-1.6833120785155238,0.0,2.3088467121124268,-2.0641160011291504,-0.0,1.843446969985962,5.232728767185964,-0.0,0.2818353474140167,-1.6038578192340296,0.0,-0.012990253046154976,0.8730508685112,0.0,0.00904147233814001,0.7981055974960327,0.0,-0.05251497030258179
8190.0,972.0,-0.0897,0.1902,9.6144,-0.0325,0.0249,-0.118,-1.6832643947997035,0.0,2.313438892364502,-2.0642316341400146,-0.0,1.7981187105178833,5.232744741230764,-0.0,0.2735092341899872,-1.6038616339312952,0.0,0.0016009742394089699,0.8730549216270447,0.0,0.009789478965103626,0.798129677772522,0.0,0.03302570432424545
8190.0,972.0,-0.0897,0.1902,9.6144,-0.0325,0.0249,-0.118,-1.6832438908019007,0.0,2.3375065326690674,-2.0641839504241943,-0.0,1.8532495498657227,5.232728767185964,-0.0,0.27027830481529236,-1.6038859526263636,0.0,-0.007214926648885012,0.8730155229568481,0.0,-0.002295241691172123,0.7981538772583008,0.0,0.027318645268678665
8190.0,972.0,-0.0897,0.1902,9.6144,-0.0325,0.0249,-0.118,-1.683240076104635,0.0,2.3084826469421387,-2.064216136932373,-0.0,1.8498897552490234,5.232736992626943,-0.0,0.2851838767528534,-1.603865925465719,0.0,0.01145164668560028,0.8730194568634033,0.0,0.009679866954684258,0.7981377840042114,0.0,0.012223280966281891
8190.0,972.0,-0.0897,0.1902,9.6144,-0.0325,0.0249,-0.118,-1.6832524738707484,0.0,2.350874900817871,-2.0642077922821045,-0.0,1.81215500831604,5.232789444714346,-0.0,0.2843373119831085,-1.6038411299334925,0.0,-0.009196675382554531,0.8730828762054443,0.0,0.001484389416873455,0.7981096506118774,0.0,-0.035623688250780106
8190.0,972.0,-0.0897,0.1902,9.6144,-0.0325,0.0249,-0.118,-1.6832438908019007,0.0,2.3224782943725586,-2.0642282962799072,-0.0,1.8349367380142212,5.232764947205343,-0.0,0.28366681933403015,-1.603865925465719,0.0,-0.00431642634794116,0.8730791807174683,0.0,-0.002680371515452862,0.7981337904930115,0.0,-0.027422212064266205
8190.0,972.0,-0.0897,0.1902,9.6144,-0.0325,0.0249,-0.118,-1.6832643947997035,0.0,2.3445119857788086,-2.0642077922821045,-0.0,1.8873276710510254,5.232753026276388,-0.0,0.27749282121658325,-1.6038416067706507,0.0,-0.007922853343188763,0.873023509979248,0.0,0.002395347226411104,0.7981780171394348,0.0,0.03614223003387451
8190.0,972.0,-0.0897,0.1902,9.6144,-0.0325,0.0249,-0.118,-1.683216234246725,0.0,2.374037981033325,-2.0641634464263916,-0.0,1.8148435354232788,5.232744800835409,-0.0,0.27954256534576416,-1.6038859526263636,0.0,-0.005239048972725868,0.8729588985443115,0.0,0.0032583444844931364,0.7981096506118774,0.0,-0.030833009630441666
8190.0,972.0,-0.0897,0.1902,9.6144,-0.0325,0.0249,-0.118,-1.6832481823363246,0.0,2.321687698364258,-2.0642037391662598,-0.0,1.871730089187622,5.232773113041677,-0.0,0.2846677005290985,-1.6038172880755823,0.0,-0.006309485528618097,0.8730267882347107,0.0,-0.003265469567850232,0.798149824142456,0.0,0.0359673798084259
8190.0,972.0,-0.0897,0.1902,9.6144,-0.0325,0.0249,-0.118,-1.683268209496969,0.0,2.292965888977051,-2.0642201900482178,-0.0,1.8282890319824219,5.232781219273367,-0.0,0.28532829880714417,-1.6038902441607874,0.0,-0.0036311137955635786,0.8730075359344482,0.0,-0.000462794560007751,0.7981299161911011,0.0,0.030668793246150017
8190.0,972.0,-0.0897,0.1902,9.6144,-0.0325,0.0249,-0.118,-1.6832643947997035,0.0,2.3429808616638184,-2.0642201900482178,-0.0,1.8789482116699219,5.232724654465475,-0.0,0.28696638345718384,-1.6038535276996058,0.0,-0.007230438757687807,0.8730714917182922,0.0,-0.006299624219536781,0.7981499433517456,0.0,0.01419056486338377
870.0,958.0,-0.0867,0.1717,9.5324,-0.0353,0.0223,-0.12,-1.683256288568014,0.0,2.294471263885498,-2.0642120838165283,-0.0,1.8958861827850342,5.232732939511099,-0.0,0.2870463728904724,-1.6038172880755823,0.0,0.007099469192326069,0.8730513453483582,0.0,-0.010779669508337975,0.7981178164482117,0.0,-0.005353229120373726
870.0,958.0,-0.0867,0.1717,9.5324,-0.0353,0.0223,-0.12,-1.6832481823363246,0.0,2.346083164215088,-2.064188241958618,-0.0,1.8596699237823486,5.232773113041677,-0.0,0.28912732005119324,-1.6038578192340296,0.0,-0.0074059367179870605,0.8730034232139587,0.0,0.002739226445555687,0.7981458306312561,0.0,0.0033957818523049355
870.0,958.0,-0.0867,0.1717,9.5324,-0.0353,0.0223,-0.12,-1.6832319698729457,0.0,2.321037530899048,-2.064192295074463,-0.0,1.8207145929336548,5.232777106552877,-0.0,0.27529698610305786,-1.6038253943072718,0.0,-0.015047852881252766,0.8730588555335999,0.0,-0.00106608506757766,0.798186182975769,0.0,-0.0317225456237793
870.0,958.0,-0.0867,0.1717,9.5324,-0.0353,0.0223,-0.12,-1.6832200489439906,0.0,2.324233055114746,-2.0642242431640625,-0.0,1.812980055809021,5.232736992626943,-0.0,0.29499977827072144,-1.6039021650897425,0.0,-0.007367695681750774,0.8730348348617554,0.0,-0.013038575649261475,0.7982020378112793,0.0,0.0330866239964962
870.0,958.0,-0.0867,0.1717,9.5324,-0.0353,0.0223,-0.12,-1.6832357845702113,0.0,2.3569228649139404,-2.064192295074463,-0.0,1.8731404542922974,5.232760774880209,-0.0,0.28278595209121704,-1.6038535276996058,0.0,-0.00576053699478507,0.8730114698410034,0.0,-0.011034714058041573,0.7981178164482117,0.0,-0.03302328288555145
870.0,958.0,-0.0867,0.1717,9.5324,-0.0353,0.0223,-0.12,-1.6832601032652796,0.0,2.275681972503662,-2.064188241958618,-0.0,1.842194676399231,5.232741105347433,-0.0,0.2756301760673523,-1.603849236165182,0.0,-0.007158496882766485,0.8730668425559998,0.0,-0.006415387615561485,0.7981458306312561,0.0,0.0014903070405125618
870.0,958.0,-0.0867,0.1717,9.5324,-0.0353,0.0223,-0.12,-1.6832643947997035,0.0,2.3195266723632812,-2.0641591548919678,-0.0,1.8275041580200195,5.232777166157522,-0.0,0.2682233154773712,-1.6038778463946741,0.0,-0.01061378326267004,0.8730155229568481,0.0,-0.006116089411079884,0.7981418371200562,0.0,0.10076810419559479
870.0,958.0,-0.0867,0.1717,9.5324,-0.0353,0.0223,-0.12,-1.6832357845702113,0.0,2.3473715782165527,-2.0642120838165283,-0.0,1.844008445739746,5.232748973160543,-0.0,0.28241610527038574,-1.6038859526263636,0.0,0.003064946038648486,0.8730388879776001,0.0,-0.00603867881000042,0.7981418371200562,0.0,-0.0007402866613119841
870.0,958.0,-0.0867,0.1717,9.5324,-0.0353,0.0223,-0.12,-1.683216234246725,0.0,2.3631553649902344,-2.06414794921875,-0.0,1.8830394744873047,5.232756721764364,-0.0,0.28320541977882385,-1.6038535276996058,0.0,0.0012945509515702724,0.8730235695838928,0.0,-0.013459007255733013,0.7981377840042114,0.0,0.005832800175994635
838.0,932.0,-0.0556,0.1795,9.5551,-0.0325,0.0221,-0.1182,-1.6832481823363246,0.0,2.3189754486083984,-2.0642077922821045,-0.0,1.818439245223999,5.232777225762167,-0.0,0.2815137505531311,-1.6038535276996058,0.0,-0.0061162603087723255,0.8729508519172668,0.0,-0.0013119513168931007,0.7981259226799011,0.0,-0.014284923672676086
838.0,932.0,-0.0556,0.1795,9.5551,-0.0325,0.0221,-0.1182,-1.6832481823363246,0.0,2.3191640377044678,-2.064199686050415,-0.0,1.814260721206665,5.23270874002532,-0.0,0.28779473900794983,-1.6038578192340296,0.0,0.0010271260980516672,0.8730508089065552,0.0,-0.0047975098714232445,0.7981619238853455,0.0,-0.022927984595298767
838.0,932.0,-0.0556,0.1795,9.5551,-0.0325,0.0221,-0.1182,-1.6832763157286585,0.0,2.334967851638794,-2.064175844192505,-0.0,1.8748843669891357,5.232704686909475,-0.0,0.281958669424057,-1.6038702170001429,0.0,-0.0045640915632247925,0.8730073571205139,0.0,0.021999744698405266,0.7981297373771667,0.0,-0.01138065941631794
838.0,932.0,-0.0556,0.1795,9.5551,-0.0325,0.0221,-0.1182,-1.6832758388915003,0.0,2.2818686962127686,-2.064188241958618,-0.0,1.8393630981445312,5.2327690599258325,-0.0,0.2798224687576294,-1.6038292090045374,0.0,-0.016520872712135315,0.8730155229568481,0.0,-0.00463334284722805,0.7981740236282349,0.0,0.031225666403770447
838.0,932.0,-0.0556,0.1795,9.5551,-0.0325,0.0221,-0.1182,-1.683240076104635,0.0,2.2962217330932617,-2.064155101776123,-0.0,1.8006527423858643,5.232757138996877,-0.0,0.27275514602661133,-1.6038253943072718,0.0,-0.015577549114823341,0.8730194568634033,0.0,-0.006595268379896879,0.7981377840042114,0.0,-0.0290187019854784
838.0,932.0,-0.0556,0.1795,9.5551,-0.0325,0.0221,-0.1182,-1.6832643947997035,0.0,2.3450820446014404,-2.0641956329345703,-0.0,1.799487590789795,5.2327608344848535,-0.0,0.28410521149635315,-1.60382587114443,0.0,-0.010542667470872402,0.8730155229568481,0.0,-0.00553253386169672,0.7981177568435669,0.0,0.0032137446105480194
838.0,932.0,-0.0556,0.1795,9.5551,-0.0325,0.0221,-0.1182,-1.683284421960348,0.0,2.342773675918579,-2.0642316341400146,-0.0,1.8756380081176758,5.232773113041677,-0.0,0.29219573736190796,-1.6038859526263636,0.0,-0.0021395620424300432,0.8730388879776001,0.0,-0.0030595222488045692,0.7981740236282349,0.0,-0.04423188790678978
838.0,932.0,-0.0556,0.1795,9.5551,-0.0325,0.0221,-0.1182,-1.683284421960348,0.0,2.3136754035949707,-2.064143657684326,-0.0,1.833167314529419,5.232760774880209,-0.0,0.2879672646522522,-1.6038535276996058,0.0,0.001856284448876977,0.8729668855667114,0.0,-0.0032517309300601482,0.7981619238853455,0.0,4.663877189159393e-05
838.0,932.0,-0.0556,0.1795,9.5551,-0.0325,0.0221,-0.1182,-1.683268209496969,0.0,2.3150477409362793,-2.064216136932373,-0.0,1.825674295425415,5.232744741230764,-0.0,0.26929521560668945,-1.6038416067706507,0.0,-0.011455521918833256,0.8730472326278687,0.0,0.008890551514923573,0.7981939315795898,0.0,0.006422008387744427
873.0,950.0,-0.1107,0.192,9.5779,-0.0405,0.0234,-0.117,-1.6831962070860804,0.0,2.295344591140747,-2.064216136932373,-0.0,1.833757758140564,5.232749330788412,-0.0,0.29086601734161377,-1.603865925465719,0.0,-0.008845285512506962,0.873023509979248,0.0,0.002782451920211315,0.7981377840042114,0.0,-0.018550517037510872
873.0,950.0,-0.1107,0.192,9.5779,-0.0405,0.0234,-0.117,-1.6832119427123011,0.0,2.280334711074829,-2.0642483234405518,-0.0,1.8400001525878906,5.232748973160543,-0.0,0.28134390711784363,-1.6038578192340296,0.0,-0.003153836354613304,0.8730512857437134,0.0,-0.011783956550061703,0.7980937361717224,0.0,-0.011070037260651588
873.0,950.0,-0.1107,0.192,9.5779,-0.0405,0.0234,-0.117,-1.68322815517568,0.0,2.321859359741211,-2.0642120838165283,-0.0,1.7966772317886353,5.232753026276388,-0.0,0.29362374544143677,-1.603882137929098,0.0,-0.004841990768909454,0.873023509979248,0.0,0.014275546185672283,0.7981299161911011,0.0,0.0207741130143404
873.0,950.0,-0.1107,0.192,9.5779,-0.0405,0.0234,-0.117,-1.6832524738707484,0.0,2.310577392578125,-2.0641841888427734,-0.0,1.8373773097991943,5.232761192112722,-0.0,0.28574714064598083,-1.603849236165182,0.0,-0.0002122865989804268,0.8730708956718445,0.0,0.00476871058344841,0.7981499433517456,0.0,0.006932445801794529
873.0,950.0,-0.1107,0.192,9.5779,-0.0405,0.0234,-0.117,-1.683272501031393,0.0,2.282819986343384,-2.0642242431640625,-0.0,1.866934061050415,5.232769000321188,-0.0,0.28343665599823,-1.6038454214679163,0.0,-0.0012903003953397274,0.8729548454284668,0.0,-0.005356133915483952,0.7981377840042114,0.0,0.01824028044939041
873.0,950.0,-0.1107,0.192,9.5779,-0.0405,0.0234,-0.117,-1.683284421960348,0.0,2.3169913291931152,-2.064199686050415,-0.0,1.8741388320922852,5.232716905861654,-0.0,0.2830447852611542,-1.6038978735553187,0.0,0.0012138718739151955,0.8730629682540894,0.0,-0.007604294456541538,0.79817795753479,0.0,0.01706959865987301
873.0,950.0,-0.1107,0.192,9.5779,-0.0405,0.0234,-0.117,-1.6832243404784144,0.0,2.2984139919281006,-2.064216136932373,-0.0,1.8279685974121094,5.232741164952078,-0.0,0.2877453863620758,-1.6038616339312952,0.0,-0.010560615919530392,0.8730154633522034,0.0,-0.0030450019985437393,0.7980976700782776,0.0,-0.007241780869662762
873.0,950.0,-0.1107,0.192,9.5779,-0.0405,0.0234,-0.117,-1.6832558117308558,0.0,2.3049426078796387,-2.0642242431640625,-0.0,1.8673810958862305,5.232716965466299,-0.0,0.28829696774482727,-1.6038373152362269,0.0,-0.0032249540090560913,0.8730348348617554,0.0,0.0020938909146934748,0.7981299161911011,0.0,-0.005014665424823761
873.0,950.0,-0.1107,0.192,9.5779,-0.0405,0.0234,-0.117,-1.6832524738707484,0.0,2.3768770694732666,-2.0641913414001465,-0.0,1.8265947103500366,5.232764947205343,-0.0,0.27567723393440247,-1.6038578192340296,0.0,2.5442568585276604e-05,0.8729995489120483,0.0,0.0003347827587276697,0.7981339693069458,0.0,0.010071727447211742
856.0,8190.0,-0.0885,0.1549,9.6634,-0.0293,0.0192,-0.12,-1.683216234246725,0.0,2.346923589706421,-2.064244031906128,-0.0,1.8536492586135864,5.2328054187591455,-0.0,0.2925122380256653,-1.6038978735553187,0.0,0.00477580027654767,0.8730235695838928,0.0,-0.002655644901096821,0.7981256246566772,0.0,0.04101267084479332
856.0,8190.0,-0.0885,0.1549,9.6634,-0.0293,0.0192,-0.12,-1.683268209496969,0.0,2.339069366455078,-2.0642523765563965,-0.0,1.8692654371261597,5.232785331993856,-0.0,0.27969372272491455,-1.6038416067706507,0.0,0.006419886834919453,0.8730194568634033,0.0,-0.0005407482385635376,0.7981619238853455,0.0,-0.04072015359997749
856.0,8190.0,-0.0885,0.1549,9.6634,-0.0293,0.0192,-0.12,-1.6832763157286585,0.0,2.3222429752349854,-2.0641674995422363,-0.0,1.840707778930664,5.232769000321188,-0.0,0.29116690158843994,-1.6038253943072718,0.0,-0.0036383860278874636,0.8730547428131104,0.0,-0.007117804605513811,0.7980976700782776,0.0,0.003775291610509157
856.0,8190.0,-0.0885,0.1549,9.6634,-0.0293,0.0192,-0.12,-1.6832643947997035,0.0,2.351315975189209,-2.064192295074463,-0.0,1.8343322277069092,5.232772993832388,-0.0,0.2950323522090912,-1.6038859526263636,0.0,-0.0037777835968881845,0.8730428218841553,0.0,0.007954824715852737,0.7981418371200562,0.0,0.02932058647274971
856.0,8190.0,-0.0885,0.1549,9.6634,-0.0293,0.0192,-0.12,-1.6832720241942347,0.0,2.3655686378479004,-2.0642037391662598,-0.0,1.8536510467529297,5.232757079392233,-0.0,0.28731226921081543,-1.6038702170001429,0.0,0.008222202770411968,0.8729467391967773,0.0,0.004110471811145544,0.7981259226799011,0.0,0.009392146952450275
856.0,8190.0,-0.0885,0.1549,9.6634,-0.0293,0.0192,-0.12,-1.6832243404784144,0.0,2.329347610473633,-2.0641798973083496,-0.0,1.8263111114501953,5.232732939511099,-0.0,0.2774507701396942,-1.6038454214679163,0.0,-0.013380568474531174,0.8730194568634033,0.0,-0.003792168339714408,0.7981458306312561,0.0,-0.0024228058755397797
856.0,8190.0,-0.0885,0.1549,9.6634,-0.0293,0.0192,-0.12,-1.683268209496969,0.0,2.3248631954193115,-2.0642285346984863,-0.0,1.7717881202697754,5.2327812788780115,-0.0,0.28045007586479187,-1.6038292090045374,0.0,0.00894798245280981,0.8730034232139587,0.0,-0.010057535022497177,0.7981458306312561,0.0,-0.01216156780719757
856.0,8190.0,-0.0885,0.1549,9.6634,-0.0293,0.0192,-0.12,-1.6832076511778773,0.0,2.3005125522613525,-2.0642201900482178,-0.0,1.8446797132492065,5.232744741230764,-0.0,0.2854984402656555,-1.6038783232318323,0.0,-0.009525914676487446,0.8730869293212891,0.0,-0.007496335543692112,0.7981418371200562,0.0,0.018978573381900787
856.0,8190.0,-0.0885,0.1549,9.6634,-0.0293,0.0192,-0.12,-1.6832558117308558,0.0,2.348231792449951,-2.064216136932373,-0.0,1.8214125633239746,5.2327127931411646,-0.0,0.28684931993484497,-1.6038172880755823,0.0,-0.0027608447708189487,0.8730075359344482,0.0,0.016607269644737244,0.7981096506118774,0.0,-0.023677248507738113
856.0,8190.0,-0.0885,0.1549,9.6634,-0.0293,0.0192,-0.12,-1.6832357845702113,0.0,2.3154690265655518,-2.064188241958618,-0.0,1.8403584957122803,5.232764947205343,-0.0,0.2923382520675659,-1.6038735548602503,0.0,0.005476382095366716,0.8730158805847168,0.0,-0.00538236927241087,0.7981858849525452,0.0,0.0019940100610256195
885.0,964.0,-0.067,0.1657,9.6215,-0.0283,0.0231,-0.1174,-1.6832601032652796,0.0,2.307892322540283,-2.0642201900482178,-0.0,1.847215175628662,5.232716965466299,-0.0,0.2918720543384552,-1.6038416067706507,0.0,-0.006004976574331522,0.8730194568634033,0.0,0.004338772501796484,0.7981619238853455,0.0,-0.04080911725759506
885.0,964.0,-0.067,0.1657,9.6215,-0.0283,0.0231,-0.1174,-1.6832605801024378,0.0,2.300584554672241,-2.064199686050415,-0.0,1.8728258609771729,5.232753085881033,-0.0,0.28848373889923096,-1.6038616339312952,0.0,-0.010542282834649086,0.873034656047821,0.0,-0.005634271539747715,0.7981097102165222,0.0,0.03206044062972069
885.0,964.0,-0.067,0.1657,9.6215,-0.0283,0.0231,-0.1174,-1.6832481823363246,0.0,2.358541965484619,-2.0642077922821045,-0.0,1.8353439569473267,5.232708799629965,-0.0,0.2790178060531616,-1.6038454214679163,0.0,-0.005688151344656944,0.8729707598686218,0.0,-0.00012459070421755314,0.7981818318367004,0.0,0.057875245809555054
885.0,964.0,-0.067,0.1657,9.6215,-0.0283,0.0231,-0.1174,-1.683268209496969,0.0,2.330531358718872,-2.064216136932373,-0.0,1.8551828861236572,5.232732939511099,-0.0,0.2806891202926636,-1.6038735548602503,0.0,-0.014441563747823238,0.8730194568634033,0.0,0.009671707637608051,0.7981337904930115,0.0,0.044973812997341156
885.0,964.0,-0.067,0.1657,9.6215,-0.0283,0.0231,-0.1174,-1.6832481823363246,0.0,2.305727005004883,-2.0642316341400146,-0.0,1.8232508897781372,5.232764947205343,-0.0,0.2794838547706604,-1.6038091818438929,0.0,0.008107587695121765,0.8730194568634033,0.0,0.00754126301035285,0.7981619238853455,0.0,0.005044666118919849
885.0,964.0,-0.067,0.1657,9.6215,-0.0283,0.0231,-0.1174,-1.683216234246725,0.0,2.304758071899414,-2.0641801357269287,-0.0,1.822437047958374,5.232728767185964,-0.0,0.2668095827102661,-1.6038740316974085,0.0,-0.005898791830986738,0.873087465763092,0.0,-0.010790465399622917,0.7981259226799011,0.0,0.03936653211712837
885.0,964.0,-0.067,0.1657,9.6215,-0.0283,0.0231,-0.1174,-1.6832601032652796,0.0,2.3325843811035156,-2.064188241958618,-0.0,1.880863904953003,5.23279349783019,-0.0,0.27935901284217834,-1.6038740316974085,0.0,-0.009396806359291077,0.8730548024177551,0.0,-0.0010194065980613232,0.7981178760528564,0.0,0.002116544172167778
885.0,964.0,-0.067,0.1657,9.6215,-0.0283,0.0231,-0.1174,-1.683272501031393,0.0,2.3164379596710205,-2.064192295074463,-0.0,1.8428559303283691,5.232760774880209,-0.0,0.2914714217185974,-1.603882137929098,0.0,-0.007363395765423775,0.8730508089065552,0.0,-0.0019212523475289345,0.7981699705123901,0.0,0.021773193031549454
885.0,964.0,-0.067,0.1657,9.6215,-0.0283,0.0231,-0.1174,-1.6832357845702113,0.0,2.3575026988983154,-2.064199686050415,-0.0,1.882497787475586,5.232757079392233,-0.0,0.2843770980834961,-1.6038335005389612,0.0,-0.0033592013642191887,0.8730268478393555,0.0,-0.001304827630519867,0.7981699705123901,0.0,-0.08133672922849655
885.0,968.0,-0.0502,0.1848,9.5318,-0.0305,0.0188,-0.1196,-1.6832319698729457,0.0,2.3098533153533936,-2.064175844192505,-0.0,1.8641808032989502,5.2327812788780115,-0.0,0.28875699639320374,-1.6038697401629847,0.0,-0.0021459306590259075,0.8730309009552002,0.0,-0.0047193667851388454,0.7981579303741455,0.0,0.04201778396964073
885.0,968.0,-0.0502,0.1848,9.5318,-0.0305,0.0188,-0.1196,-1.6832362614073695,0.0,2.3406577110290527,-2.0642316341400146,-0.0,1.8196444511413574,5.2327127931411646,-0.0,0.28180378675460815,-1.6038454214679163,0.0,-0.003365870099514723,0.8730508685112,0.0,-0.00461537204682827,0.7981820702552795,0.0,0.012100805528461933
885.0,968.0,-0.0502,0.1848,9.5318,-0.0305,0.0188,-0.1196,-1.6832238636412562,0.0,2.3227105140686035,-2.0642037391662598,-0.0,1.8674514293670654,5.232748973160543,-0.0,0.28271180391311646,-1.603849236165182,0.0,-0.010963238775730133,0.8730155229568481,0.0,-0.0003648854326456785,0.7981299161911011,0.0,-0.04979784041643143
885.0,968.0,-0.0502,0.1848,9.5318,-0.0305,0.0188,-0.1196,-1.6832643947997035,0.0,2.3204662799835205,-2.064188241958618,-0.0,1.873847484588623,5.232765006809988,-0.0,0.29231026768684387,-1.6038535276996058,0.0,-0.011173428036272526,0.8730400800704956,0.0,-0.0115769999101758,0.7981418371200562,0.0,-0.009410456754267216
885.0,968.0,-0.0502,0.1848,9.5318,-0.0305,0.0188,-0.1196,-1.683272501031393,0.0,2.3440210819244385,-2.0642077922821045,-0.0,1.8423317670822144,5.232732939511099,-0.0,0.2834864556789398,-1.6038053671466272,0.0,0.0032756186556071043,0.8729668855667114,0.0,-0.008412734605371952,0.7981458306312561,0.0,-0.02133391983807087
885.0,968.0,-0.0502,0.1848,9.5318,-0.0305,0.0188,-0.1196,-1.6832643947997035,0.0,2.3013527393341064,-2.0641841888427734,-0.0,1.856271505355835,5.232757079392233,-0.0,0.2827160358428955,-1.6038535276996058,0.0,-0.004030541051179171,0.8730469346046448,0.0,-0.007196253631263971,0.7981739640235901,0.0,0.03510531038045883
885.0,968.0,-0.0502,0.1848,9.5318,-0.0305,0.0188,-0.1196,-1.6832763157286585,0.0,2.321904182434082,-2.064216136932373,-0.0,1.8676929473876953,5.2327653644378564,-0.0,0.2762647867202759,-1.6038697401629847,0.0,0.00445632403716445,0.8730549216270447,0.0,0.004311639349907637,0.7981659770011902,0.0,0.019399788230657578
885.0,968.0,-0.0502,0.1848,9.5318,-0.0305,0.0188,-0.1196,-1.6832238636412562,0.0,2.3472235202789307,-2.0642316341400146,-0.0,1.8380732536315918,5.232757138996877,-0.0,0.2891417443752289,-1.6038778463946741,0.0,-0.002398448996245861,0.8730074167251587,0.0,0.0065208254382014275,0.7981418371200562,0.0,0.037101224064826965
885.0,968.0,-0.0502,0.1848,9.5318,-0.0305,0.0188,-0.1196,-1.6832319698729457,0.0,2.2949366569519043,-2.064216136932373,-0.0,1.8476656675338745,5.232741105347433,-0.0,0.28395602107048035,-1.6038616339312952,0.0,-0.004827706143260002,0.8730668425559998,0.0,-0.0060669356025755405,0.7981379628181458,0.0,0.0642843246459961
877.0,954.0,-0.064,0.1974,9.545,-0.0461,0.0231,-0.1272,-1.6832438908019007,0.0,2.357410430908203,-2.064260482788086,-0.0,1.8419053554534912,5.232748973160543,-0.0,0.28727754950523376,-1.6038373152362269,0.0,-0.008028963580727577,0.8730428218841553,0.0,-0.01032964326441288,0.7981418371200562,0.0,-0.006397506222128868
877.0,954.0,-0.064,0.1974,9.545,-0.0461,0.0231,-0.1272,-1.683256288568014,0.0,2.3090615272521973,-2.0642120838165283,-0.0,1.8496332168579102,5.232777046948232,-0.0,0.2758852243423462,-1.6038978735553187,0.0,-0.007099735550582409,0.8730309009552002,0.0,-0.004088301211595535,0.7981538772583008,0.0,-0.008802485652267933
877.0,954.0,-0.064,0.1974,9.545,-0.0461,0.0231,-0.1272,-1.6832763157286585,0.0,2.2891340255737305,-2.0641956329345703,-0.0,1.8340203762054443,5.2327690599258325,-0.0,0.2969127893447876,-1.6038535276996058,0.0,-0.013668704777956009,0.8730348348617554,0.0,-0.015540389344096184,0.7981820702552795,0.0,0.023767966777086258
877.0,954.0,-0.064,0.1974,9.545,-0.0461,0.0231,-0.1272,-1.6832200489439906,0.0,2.3600244522094727,-2.064188241958618,-0.0,1.8908320665359497,5.232769000321188,-0.0,0.2776203453540802,-1.6038935820208948,0.0,-0.013946538791060448,0.8730034232139587,0.0,-0.009216120466589928,0.7981299161911011,0.0,0.017424585297703743
877.0,954.0,-0.064,0.1974,9.545,-0.0461,0.0231,-0.1272,-1.6832524738707484,0.0,2.3366312980651855,-2.064175844192505,-0.0,1.8373308181762695,5.232793080597677,-0.0,0.28436946868896484,-1.6038702170001429,0.0,-0.015070917084813118,0.8730632662773132,0.0,-0.003165634348988533,0.7981418371200562,0.0,-0.020566966384649277
877.0,954.0,-0.064,0.1974,9.545,-0.0461,0.0231,-0.1272,-1.68322815517568,0.0,2.3281052112579346,-2.0642120838165283,-0.0,1.8590826988220215,5.2327690599258325,-0.0,0.2786869704723358,-1.6038416067706507,0.0,-0.01122803334146738,0.8730073571205139,0.0,-0.006327363662421703,0.7981579303741455,0.0,-0.04584908485412598
877.0,954.0,-0.064,0.1974,9.545,-0.0461,0.0231,-0.1272,-1.6832643947997035,0.0,2.335470199584961,-2.0642080307006836,-0.0,1.8473827838897705,5.232777046948232,-0.0,0.2852622866630554,-1.6038702170001429,0.0,-0.00153213064186275,0.8730348348617554,0.0,-5.6430231779813766e-05,0.798117458820343,0.0,0.015150632709264755
877.0,954.0,-0.064,0.1974,9.545,-0.0461,0.0231,-0.1272,-1.6832438908019007,0.0,2.27921724319458,-2.0642006397247314,-0.0,1.8355070352554321,5.232768881111898,-0.0,0.2878386974334717,-1.6038740316974085,0.0,-0.012341415509581566,0.8730155229568481,0.0,-0.01595243439078331,0.7981578707695007,0.0,-0.007323672994971275
877.0,954.0,-0.064,0.1974,9.545,-0.0461,0.0231,-0.1272,-1.6832438908019007,0.0,2.321626663208008,-2.0642638206481934,-0.0,1.835597276687622,5.232764947205343,-0.0,0.2943663001060486,-1.6038253943072718,0.0,-0.008957943879067898,0.8730195164680481,0.0,-0.002555213635787368,0.7980937957763672,0.0,-0.00319842086173594
892.0,941.0,-0.1011,0.1651,9.5605,-0.0432,0.0234,-0.1179,-1.683268209496969,0.0,2.298041820526123,-2.0642201900482178,-0.0,1.9092121124267578,5.232777106552877,-0.0,0.28097355365753174,-1.6038373152362269,0.0,-0.004926228430122137,0.8730114698410034,0.0,-0.00024629884865134954,0.7981259226799011,0.0,0.011092383414506912
892.0,941.0,-0.1011,0.1651,9.5605,-0.0432,0.0234,-0.1179,-1.6832481823363246,0.0,2.3463120460510254,-2.064216136932373,-0.0,1.8532686233520508,5.232753026276388,-0.0,0.2919493615627289,-1.6038702170001429,0.0,-0.0015825395239517093,0.8728986382484436,0.0,0.011309541761875153,0.7981097102165222,0.0,0.008547190576791763
892.0,941.0,-0.1011,0.1651,9.5605,-0.0432,0.0234,-0.1179,-1.6832643947997035,0.0,2.339921474456787,-2.0642316341400146,-0.0,1.8442881107330322,5.232728767185964,-0.0,0.27437394857406616,-1.6038535276996058,0.0,-0.004165444988757372,0.8730388879776001,0.0,0.00031180866062641144,0.7981137037277222,0.0,-0.03888573870062828
892.0,941.0,-0.1011,0.1651,9.5605,-0.0432,0.0234,-0.1179,-1.6832481823363246,0.0,2.3617918491363525,-2.0641510486602783,-0.0,1.8465356826782227,5.232785331993856,-0.0,0.2851698696613312,-1.6038702170001429,0.0,0.0006468300707638264,0.8730629682540894,0.0,-0.0026033236645162106,0.7981056571006775,0.0,-0.0027735447511076927
892.0,941.0,-0.1011,0.1651,9.5605,-0.0432,0.0234,-0.1179,-1.68322815517568,0.0,2.297792911529541,-2.0641841888427734,-0.0,1.842183232307434,5.232757079392233,-0.0,0.27884525060653687,-1.6038053671466272,0.0,-0.004913787357509136,0.8730158805847168,0.0,-0.002154663670808077,0.7981579303741455,0.0,0.045772165060043335
892.0,941.0,-0.1011,0.1651,9.5605,-0.0432,0.0234,-0.1179,-1.6832643947997035,0.0,2.367035388946533,-2.064239978790283,-0.0,1.7834208011627197,5.232789444714346,-0.0,0.2820291817188263,-1.603882137929098,0.0,-0.00203983997926116,0.8730792999267578,0.0,-0.0013533849269151688,0.7981417775154114,0.0,-0.007103368639945984
892.0,941.0,-0.1011,0.1651,9.5605,-0.0432,0.0234,-0.1179,-1.683256288568014,0.0,2.323026657104492,-2.0642483234405518,-0.0,1.7993342876434326,5.232741164952078,-0.0,0.28858545422554016,-1.603865925465719,0.0,-0.008475145325064659,0.8730158805847168,0.0,-0.009309823624789715,0.7981057167053223,0.0,-0.006024158094078302
892.0,941.0,-0.1011,0.1651,9.5605,-0.0432,0.0234,-0.1179,-1.6832801304259242,0.0,2.3031325340270996,-2.0641841888427734,-0.0,1.8891007900238037,5.232728826790609,-0.0,0.27930963039398193,-1.6038535276996058,0.0,-0.004888473078608513,0.8730235695838928,0.0,-0.010833671316504478,0.7981219291687012,0.0,-0.01875956356525421
892.0,941.0,-0.1011,0.1651,9.5605,-0.0432,0.0234,-0.1179,-1.6832043133177699,0.0,2.3028059005737305,-2.064192295074463,-0.0,1.813370943069458,5.232748973160543,-0.0,0.2955951988697052,-1.603809658681051,0.0,-0.0011391902808099985,0.8729668855667114,0.0,0.0010535322362557054,0.7981293201446533,0.0,0.036304373294115067
892.0,941.0,-0.1011,0.1651,9.5605,-0.0432,0.0234,-0.1179,-1.683256288568014,0.0,2.30019474029541,-2.0642201900482178,-0.0,1.8904379606246948,5.232757079392233,-0.0,0.2811289131641388,-1.603849236165182,0.0,-0.0031505210790783167,0.8729708194732666,0.0,-0.004094923846423626,0.7981538772583008,0.0,-0.028674233704805374
889.0,937.0,-0.0437,0.1831,9.5599,-0.0388,0.0267,-0.126,-1.6832558117308558,0.0,2.3379099369049072,-2.064188241958618,-0.0,1.8350613117218018,5.232817399292745,-0.0,0.28651145100593567,-1.6038702170001429,0.0,-0.007720050867646933,0.8730319142341614,0.0,0.009482048451900482,0.7981579303741455,0.0,-0.002970451721921563
889.0,937.0,-0.0437,0.1831,9.5599,-0.0388,0.0267,-0.126,-1.6832643947997035,0.0,2.355128765106201,-2.064159393310547,-0.0,1.8274611234664917,5.232785331993856,-0.0,0.27922379970550537,-1.6038778463946741,0.0,-0.012951280921697617,0.8730348348617554,0.0,-0.0001593602355569601,0.7981097102165222,0.0,-0.033899132162332535
889.0,937.0,-0.0437,0.1831,9.5599,-0.0388,0.0267,-0.126,-1.6832643947997035,0.0,2.2765376567840576,-2.064155101776123,-0.0,1.853172779083252,5.232777166157522,-0.0,0.27740079164505005,-1.6038497130023401,0.0,-0.0007987888529896736,0.8729509115219116,0.0,-0.01077212579548359,0.7981299161911011,0.0,0.0008006315911188722
889.0,937.0,-0.0437,0.1831,9.5599,-0.0388,0.0267,-0.126,-1.6832968197264613,0.0,2.338759183883667,-2.064267873764038,-0.0,1.8158655166625977,5.232748913555898,-0.0,0.28451967239379883,-1.6038702170001429,0.0,0.0009331260807812214,0.8730186820030212,0.0,-0.005701382178813219,0.7981097102165222,0.0,-0.012015965767204762
889.0,937.0,-0.0437,0.1831,9.5599,-0.0388,0.0267,-0.126,-1.683284421960348,0.0,2.328883647918701,-2.064171552658081,-0.0,1.7941349744796753,5.232753026276388,-0.0,0.2899005115032196,-1.603849236165182,0.0,0.0056058787740767,0.8730034232139587,0.0,0.0069362567737698555,0.7981498837471008,0.0,0.010523071512579918
889.0,937.0,-0.0437,0.1831,9.5599,-0.0388,0.0267,-0.126,-1.6832119427123011,0.0,2.3406753540039062,-2.0641963481903076,-0.0,1.8168253898620605,5.232741105347433,-0.0,0.2983534336090088,-1.6038454214679163,0.0,-0.0029909848235547543,0.8730194568634033,0.0,-0.009814593009650707,0.7981219291687012,0.0,0.008524663746356964
889.0,937.0,-0.0437,0.1831,9.5599,-0.0388,0.0267,-0.126,-1.6832643947997035,0.0,2.355038642883301,-2.0642201900482178,-0.0,1.8520913124084473,5.232764947205343,-0.0,0.28748929500579834,-1.6038778463946741,0.0,-0.009795076213777065,0.8730319142341614,0.0,0.004996651783585548,0.7981177568435669,0.0,-0.02315821312367916
889.0,937.0,-0.0437,0.1831,9.5599,-0.0388,0.0267,-0.126,-1.6832887134947718,0.0,2.3587985038757324,-2.0642242431640625,-0.0,1.834805965423584,5.232741105347433,-0.0,0.27466002106666565,-1.6038859526263636,0.0,-0.011363443918526173,0.8730194568634033,0.0,0.002043346408754587,0.7981259226799011,0.0,0.04130805656313896
889.0,937.0,-0.0437,0.1831,9.5599,-0.0388,0.0267,-0.126,-1.683256288568014,0.0,2.321936845779419,-2.0642645359039307,-0.0,1.8594849109649658,5.232725071697988,-0.0,0.27844542264938354,-1.6038702170001429,0.0,-0.0027696567121893167,0.8730472922325134,0.0,-0.0015992457047104836,0.7981699109077454,0.0,0.017321787774562836
875.0,8190.0,-0.0951,0.1986,9.667,-0.0399,0.0255,-0.124,-1.683240076104635,0.0,2.269423484802246,-2.064188241958618,-0.0,1.8115986585617065,5.232757079392233,-0.0,0.2654762268066406,-1.6038902441607874,0.0,-0.004427047446370125,0.8729831576347351,0.0,0.0014823023229837418,0.7981458306312561,0.0,-0.010889733210206032
875.0,8190.0,-0.0951,0.1986,9.667,-0.0399,0.0255,-0.124,-1.6832763157286585,0.0,2.359980583190918,-2.064175844192505,-0.0,1.8391516208648682,5.232768940716543,-0.0,0.28796619176864624,-1.603882137929098,0.0,-0.017131803557276726,0.8730158805847168,0.0,-0.009788536466658115,0.7981337904930115,0.0,0.009999720379710197
875.0,8190.0,-0.0951,0.1986,9.667,-0.0399,0.0255,-0.124,-1.68322815517568,0.0,2.3054354190826416,-2.0642194747924805,-0.0,1.842119574546814,5.2327608344848535,-0.0,0.28597912192344666,-1.6038854757892054,0.0,-0.0028675065841525793,0.8730508089065552,0.0,0.013847922906279564,0.7981538772583008,0.0,-0.027352729812264442
875.0,8190.0,-0.0951,0.1986,9.667,-0.0399,0.0255,-0.124,-1.6832362614073695,0.0,2.313161849975586,-2.0641396045684814,-0.0,1.8273333311080933,5.232756721764364,-0.0,0.2851250171661377,-1.6039136091815394,0.0,-0.0026490476448088884,0.8729668855667114,0.0,0.015597643330693245,0.7981899976730347,0.0003151650307700038,0.010131931863725185
875.0,8190.0,-0.0951,0.1986,9.667,-0.0399,0.0255,-0.124,-1.6832081280150355,0.0,2.335376024246216,-2.0642037391662598,-0.0,1.83281672000885,5.232805001526632,-0.0,0.28129780292510986,-1.6038697401629847,0.0,0.002031808951869607,0.8730155229568481,0.0,-0.0032796706072986126,0.7981898784637451,0.0003425816830713302,-0.012659169733524323
875.0,8190.0,-0.0951,0.1986,9.667,-0.0399,0.0255,-0.124,-1.6832362614073695,0.0,2.320754289627075,-2.0642120838165283,-0.0,1.8900946378707886,5.232808697014608,-0.0,0.2909320592880249,-1.6039302984820765,0.0,-0.017122572287917137,0.8730548620223999,0.0,0.009444821625947952,0.7982139587402344,0.0006298841908574104,-0.01817905530333519
875.0,8190.0,-0.0951,0.1986,9.667,-0.0399,0.0255,-0.124,-1.6832086048521937,0.0,2.327275276184082,-2.0642077922821045,-0.0,1.820383071899414,5.2327608344848535,-0.0,0.29091084003448486,-1.6039179007159632,0.0,-0.009755822829902172,0.8730348348617554,0.0,-0.0013390106614679098,0.7981899976730347,0.0009428171906620264,-0.011271938681602478
875.0,8190.0,-0.0951,0.1986,9.667,-0.0399,0.0255,-0.124,-1.683216234246725,0.0,2.3398098945617676,-2.064171552658081,-0.0,1.8634588718414307,5.2327849743659876,-0.0,0.29691147804260254,-1.6038935820208948,0.0,0.002442482626065612,0.8729748725891113,0.0,-0.0004391737747937441,0.7982181310653687,0.001412339392118156,-0.029466822743415833
875.0,8190.0,-0.0951,0.1986,9.667,-0.0399,0.0255,-0.124,-1.6832286320128382,0.0,2.3561277389526367,-2.0642192363739014,-0.0,1.8499541282653809,5.232777046948232,-0.0,0.28492456674575806,-1.6038897673236292,0.0,0.002666266867890954,0.8730512261390686,0.0,0.0054285419173538685,0.7982380390167236,0.0032101774122565985,0.009090585634112358
850.0,903.0,-0.0532,0.0544,9.7131,-0.0266,0.0257,-0.1162,-1.683244367639059,0.0,2.341701030731201,-2.0641918182373047,-0.0,1.8271265029907227,5.23280547836379,4.608928065863438e-05,0.2759508788585663,-1.6038578192340296,0.0,-0.00904625840485096,0.8730145692825317,0.0,0.0036769271828234196,0.7982696890830994,0.004009900614619255,0.054091017693281174
850.0,903.0,-0.0532,0.0544,9.7131,-0.0266,0.0257,-0.1162,-1.6833082638182582,0.0,2.3142642974853516,-2.064239263534546,-0.0,1.8710907697677612,5.232736992626943,2.0461320673348382e-05,0.29011034965515137,-1.6038253943072718,0.0,-0.0013160431990399957,0.8730194568634033,0.0,0.002082977443933487,0.7982697486877441,0.002204805612564087,0.003667564131319523
850.0,903.0,-0.0532,0.0544,9.7131,-0.0266,0.0257,-0.1162,-1.6832763157286585,0.0,2.271221160888672,-2.06422758102417,-0.0,1.799657940864563,5.232721018582144,7.312652705593337e-10,0.287177175283432,-1.603865925465719,0.0,-0.011538052931427956,0.8730549216270447,0.0,0.006962621584534645,0.7983140349388123,0.001075295964255929,-0.005218919366598129
850.0,903.0,-0.0532,0.0544,9.7131,-0.0266,0.0257,-0.1162,-1.6832887134947718,0.0,2.300320625305176,-2.064263343811035,-0.0,1.9264345169067383,5.232757138996877,8.677673079514607e-16,0.2882801294326782,-1.6038945356952112,0.0,-0.0022283336147665977,0.8730194568634033,0.0,-0.0070929815992712975,0.7982819080352783,0.0001800158352125436,0.02590884640812874
850.0,903.0,-0.0532,0.0544,9.7131,-0.0266,0.0257,-0.1162,-1.6832968197264613,0.0,2.3143248558044434,-2.0642354488372803,-0.0,1.8817708492279053,5.232741105347433,1.0297494907232173e-21,0.2887701988220215,-1.603849236165182,0.0,-0.00651030708104372,0.8729392886161804,0.0,-0.008951430208981037,0.7982739210128784,5.958347173873335e-05,0.003345710691064596
850.0,903.0,-0.0532,0.0544,9.7131,-0.0266,0.0257,-0.1162,-1.6832438908019007,-0.0004055504687130451,2.2552735805511475,-2.0642120838165283,-0.0,1.8342852592468262,5.232696819096365,-0.0003272427711635828,0.2773662209510803,-1.6038339773761194,0.0,0.002336733043193817,0.873023509979248,0.0,-0.0030436539091169834,0.7982658743858337,2.164327880327735e-13,0.02475103922188282
850.0,903.0,-0.0532,0.0544,9.7131,-0.0266,0.0257,-0.1162,-1.6833521328368128,-0.0009485341724939644,2.3168082237243652,-2.0642037391662598,-0.0,1.8925610780715942,5.232781398087301,-0.00028921355260536075,0.29345011711120605,-1.6038373152362269,0.0,0.0004528537392616272,0.8730268478393555,0.0,-0.006845553871244192,0.7982180714607239,9.407691991667805e-23,0.004427486099302769
850.0,903.0,-0.0532,0.0544,9.7131,-0.0266,0.0257,-0.1162,-1.6833363972105921,-0.0013188478769734502,2.3296961784362793,-2.0642240047454834,-0.0,1.8397029638290405,5.232716905861654,-0.00022811174858361483,0.28039970993995667,-1.6038416067706507,0.0,-0.005630861967802048,0.8730348348617554,0.0,-0.006234625820070505,0.7982739210128784,4.089244801577691e-32,-0.014409337192773819
850.0,903.0,-0.0532,0.0544,9.7131,-0.0266,0.0257,-0.1162,-1.68333162883901,-0.0016551725566387177,2.311007499694824,-2.0641679763793945,-0.0,1.8570606708526611,5.232745158463278,-0.00015693930617999285,0.28326475620269775,-1.6038783232318323,0.0,0.0024611037224531174,0.8730668425559998,0.0,0.005315093323588371,0.7982980012893677,1.777406972149598e-41,0.02563811093568802
880.0,919.0,-0.0915,0.2949,9.5504,-0.0499,0.0189,-0.1177,-1.6833239994444789,-0.0013578033540397882,2.3358051776885986,-2.0641844272613525,-0.0,1.8543896675109863,5.232781398087301,-0.00011042496043955907,0.27171123027801514,-1.6038535276996058,0.0,-0.004959116689860821,0.8730318546295166,0.0,-0.016638463363051414,0.798285961151123,0.0,-0.037056148052215576
880.0,919.0,-0.0915,0.2949,9.5504,-0.0499,0.0189,-0.1177,-1.6834045849242152,-0.0012450398644432425,2.317958354949951,-2.06421160697937,-0.0,1.8543860912322998,5.232753026276388,-7.167057628976181e-05,0.29098719358444214,-1.6038497130023401,0.0,-0.009666201658546925,0.8729872703552246,0.0,-0.01335320994257927,0.7982771992683411,0.0009250811999663711,-0.013655691407620907
880.0,919.0,-0.0915,0.2949,9.5504,-0.0499,0.0189,-0.1177,-1.6833716831602992,-0.0016425575595349073,2.298815965652466,-2.0642001628875732,-0.0,1.8557357788085938,5.232749390393057,-6.326940638246015e-05,0.2780044674873352,-1.6038616339312952,0.0,-0.010113672353327274,0.8730194568634033,0.0,0.004097070079296827,0.7983418703079224,0.002180245937779546,-0.033884014934301376
880.0,919.0,-0.0915,0.2949,9.5504,-0.0499,0.0189,-0.1177,-1.6834083996214808,-0.0021884317975491285,2.296193838119507,-2.0641839504241943,0.0007301616715267301,1.8445624113082886,5.2327690599258325,-5.6633678468642756e-05,0.2776765525341034,-1.6038416067706507,0.0,0.00015908456407487392,0.8729995489120483,0.0,0.008827532641589642,0.7983538508415222,0.002497524255886674,0.005018983967602253
880.0,919.0,-0.0915,0.2949,9.5504,-0.0499,0.0189,-0.1177,-1.6834484539427699,-0.000984550453722477,2.3316779136657715,-2.064192295074463,0.000480667338706553,1.8316709995269775,5.232700991421499,-6.834365194663405e-05,0.28748446702957153,-1.603882137929098,0.0,0.011310439556837082,0.8730508089065552,0.0,0.0002402199897915125,0.7983860373497009,0.0019926619715988636,-0.011226527392864227
880.0,919.0,-0.0915,0.2949,9.5504,-0.0499,0.0189,-0.1177,-1.683416029016012,-0.000754929322283715,2.316351890563965,-2.0641839504241943,0.0022541640792042017,1.8403198719024658,5.232745218067922,-2.0144905647612177e-05,0.2746765911579132,-1.6038373152362269,0.0,-0.012320608831942081,0.8730309009552002,0.0,-0.0007175941136665642,0.7984018325805664,0.001629715203307569,-0.004267572425305843
880.0,919.0,-0.0915,0.2949,9.5504,-0.0499,0.0189,-0.1177,-1.683484216729635,-0.00253274361602962,2.2936439514160156,-2.0641322135925293,0.0045488085597753525,1.807143211364746,5.232736992626943,-3.5327597288414836e-05,0.2811954617500305,-1.6038416067706507,0.0,-0.004619230516254902,0.8730508089065552,0.0,0.0019277497194707394,0.7984660267829895,0.0013865194050595164,0.048843275755643845
880.0,919.0,-0.0915,0.2949,9.5504,-0.0499,0.0189,-0.1177,-1.6834999523558558,-0.004087873734533787,2.324719190597534,-2.0640721321105957,0.005439652595669031,1.879298210144043,5.232737469464102,-4.949168942403048e-05,0.2831084430217743,-1.603849236165182,0.0,-0.014470161870121956,0.8730512857437134,0.0,0.002804386429488659,0.7984300851821899,0.0012107479851692915,0.009453516453504562
880.0,919.0,-0.0915,0.2949,9.5504,-0.0499,0.0189,-0.1177,-1.6835643253722132,-0.006039467174559832,2.3527612686157227,-2.064021348953247,0.006991465575993061,1.8217744827270508,5.2327051041419885,-6.049012517905794e-05,0.28325459361076355,-1.603849236165182,0.0,-0.009473774582147598,0.8730199337005615,0.0,0.004785451106727123,0.7984461784362793,0.0009027990745380521,-0.0312472153455019
880.0,919.0,-0.0915,0.2949,9.5504,-0.0499,0.0189,-0.1177,-1.6836520634093226,-0.007383984979242086,2.3109052181243896,-2.0639560222625732,0.007944808341562748,1.8428083658218384,5.232709216862478,-0.00021561936591751873,0.2727367877960205,-1.6038335005389612,0.0,0.0013680256670340896,0.8730074167251587,0.0,-0.003056438872590661,0.7984381318092346,0.00022391017409972847,0.053605251014232635
860.0,962.0,-0.1705,0.122,9.7304,-0.0423,0.0295,-0.1142,-1.6837402782835902,-0.00822493713349104,2.307111978530884,-2.0638163089752197,0.008136555552482605,1.8889925479888916,5.232721137791433,-0.00017492330516688526,0.28875142335891724,-1.6038578192340296,0.0,-0.006477527320384979,0.8730508089065552,0.0,0.003927220590412617,0.7984421253204346,6.742145342286676e-05,0.03190361708402634
860.0,962.0,-0.1705,0.122,9.7304,-0.0423,0.0295,-0.1142,-1.6838036976256312,-0.01047513633966446,2.303978443145752,-2.063748836517334,0.009185146540403366,1.8876588344573975,5.232709216862478,-0.00017376859614159912,0.27542680501937866,-1.6038783232318323,0.0,0.005348799750208855,0.8730034828186035,0.0,0.012959067709743977,0.798397958278656,5.792097270557184e-12,-0.05881867557764053
860.0,962.0,-0.1705,0.122,9.7304,-0.0423,0.0295,-0.1142,-1.6839028797545375,-0.010797028429806232,2.3042967319488525,-2.0636608600616455,0.010912788100540638,1.8461456298828125,5.232700991421499,-0.0001763308682711795,0.28371766209602356,-1.6038296858416956,0.0,-0.0026057171635329723,0.8730388879776001,0.0,0.002177294809371233,0.7983980774879456,2.5176522295855007e-21,0.05315486341714859
860.0,962.0,-0.1705,0.122,9.7304,-0.0423,0.0295,-0.1142,-1.6839796505370082,-0.011718577705323696,2.3022098541259766,-2.06356143951416,0.011965831741690636,1.8814163208007812,5.232709216862478,-0.00021275659673847258,0.27202892303466797,-1.6038497130023401,0.0,-0.007090072147548199,0.8729872703552246,0.0,-0.0020955365616828203,0.7984179258346558,8.156870630457601e-29,0.0026299450546503067
860.0,962.0,-0.1705,0.122,9.7304,-0.0423,0.0295,-0.1142,-1.684091707269186,-0.011744164861738682,2.287729501724243,-2.0633811950683594,0.013326120562851429,1.850346565246582,5.232697236328878,-0.00023663617321290076,0.2893919348716736,-1.6038296858416956,0.0,0.006454132031649351,0.8731111288070679,0.0,-0.0035652644000947475,0.798382043838501,-0.0004801696341019124,0.04106452688574791
860.0,962.0,-0.1705,0.122,9.7304,-0.0423,0.0295,-0.1142,-1.6842395267882289,-0.01265848707407713,2.2943005561828613,-2.0632858276367188,0.015119427815079689,1.8339524269104004,5.232709216862478,-0.00037487540976144373,0.2801990509033203,-1.6038339773761194,0.0,-0.011576847173273563,0.8730155825614929,0.0,-0.00814705528318882,0.7983860373497009,-0.0005037061055190861,-0.008719480596482754
860.0,962.0,-0.1705,0.122,9.7304,-0.0423,0.0295,-0.1142,-1.6842829189696253,-0.01197359710931778,2.3399345874786377,-2.0631263256073,0.01666262559592724,1.8169441223144531,5.232681202679434,-0.00039859049138613045,0.28372257947921753,-1.6038015524493616,0.0,0.005904880352318287,0.8730034828186035,0.0,-0.01036109495908022,0.7983540892601013,-0.0004524265823420137,-0.010943192057311535
860.0,962.0,-0.1705,0.122,9.7304,-0.0423,0.0295,-0.1142,-1.6844426594176234,-0.012395431287586689,2.292724609375,-2.0629584789276123,0.018064916133880615,1.8702962398529053,5.232681262284078,-0.0003509930975269526,0.2925921082496643,-1.6038220564471644,0.0,0.009124008007347584,0.8730317950248718,0.0,-0.0024902878794819117,0.7983862161636353,-0.0003804425068665296,-0.03859985992312431
860.0,962.0,-0.1705,0.122,9.7304,-0.0423,0.0295,-0.1142,-1.6846147976317347,-0.011998169124126434,2.265690326690674,-2.0627188682556152,0.019929733127355576,1.9090697765350342,5.232657182007589,-0.00035024230601266026,0.2746685743331909,-1.6038420836078089,0.0,0.007255870848894119,0.8730194568634033,0.0,0.0001455981400795281,0.7983580827713013,-0.0002764737873803824,-0.0046781995333731174
850.0,953.0,0.0497,0.2752,9.6096,-0.0591,0.025,-0.1255,-1.6847063503661097,-0.012917733751237392,2.2976315021514893,-2.0625550746917725,0.02001931145787239,1.8895041942596436,5.232657182007589,-0.0005447414587251842,0.2761020064353943,-1.6038339773761194,0.0,0.006697505246847868,0.8730268478393555,0.0,-0.0034758299589157104,0.7983378171920776,-0.00021149605163373053,-0.01605181396007538
850.0,953.0,0.0497,0.2752,9.6096,-0.0591,0.025,-0.1255,-1.6848470173277796,-0.01397748850286007,2.26092267036438,-2.0623955726623535,0.021034566685557365,1.8707133531570435,5.232645499497213,-0.0009746216819621623,0.2859240174293518,-1.6038420836078089,0.0,-0.004887712188065052,0.8730631470680237,0.0,0.0023099398240447044,0.7983580827713013,-0.00015465771139133722,-0.04734678938984871
850.0,953.0,0.0497,0.2752,9.6096,-0.0591,0.025,-0.1255,-1.6849905453123988,-0.014629727229475975,2.31243896484375,-2.062164545059204,0.023833362385630608,1.886648416519165,5.232633340149679,-0.0008383309468626976,0.2651805579662323,-1.6038177649127405,0.00011776118481066078,0.018430184572935104,0.873030960559845,0.0,-0.0006422477308660746,0.7983821630477905,-0.00011890035966644064,-0.03401937335729599
850.0,953.0,0.0497,0.2752,9.6096,-0.0591,0.025,-0.1255,-1.6851588688292445,-0.01599116437137127,2.2854905128479004,-2.061868190765381,0.028312165290117264,1.9144062995910645,5.232621836453237,-0.0011189522920176387,0.2539566159248352,-1.6038058439837855,0.0001280388532904908,-0.0027620657347142696,0.8730357885360718,0.0,-0.015257073566317558,0.7983701229095459,-7.756339618936181e-05,-0.0054548876360058784
850.0,953.0,0.0497,0.2752,9.6096,-0.0591,0.025,-0.1255,-1.6852780781187953,-0.016154495999217033,2.25351619720459,-2.061617374420166,0.03338856250047684,1.9330670833587646,5.2325652716453455,-0.002691136673092842,0.26721954345703125,-1.6037777105914515,0.00012385692389216274,0.017744939774274826,0.8730628490447998,0.0,-0.006665411405265331,0.7983459234237671,-6.703474355163053e-05,-0.03685840964317322
850.0,953.0,0.0497,0.2752,9.6096,-0.0591,0.025,-0.1255,-1.6854540310301722,-0.017182067036628723,2.2681210041046143,-2.0611648559570312,0.039313942193984985,1.9341211318969727,5.2325132367904565,-0.01234477385878563,0.25046250224113464,-1.6037777105914515,0.00011111362255178392,0.012542812153697014,0.8730227947235107,0.0,0.0076421890407800674,0.7983860373497009,-5.963215880910866e-05,-0.0288286954164505
850.0,953.0,0.0497,0.2752,9.6096,-0.0591,0.025,-0.1255,-1.685641428033346,-0.01646495796740055,2.254505157470703,-2.0608391761779785,0.04421791061758995,1.9103598594665527,5.232357966690817,-0.017175201326608658,0.2470378279685974,-1.6037810484515589,0.00011753945000236854,0.021647773683071136,0.8729915022850037,0.0,0.00668819947168231,0.798382043838501,-5.3701882279710844e-05,-0.05942703038454056
850.0,953.0,0.0497,0.2752,9.6096,-0.0591,0.025,-0.1255,-1.6857572994627894,-0.014545124024152756,2.273447036743164,-2.0603151321411133,0.0441560260951519,1.9903526306152344,5.2322144387061975,-0.010925049893558025,0.24931704998016357,-1.6037891546832483,0.00010751012450782582,0.016818732023239136,0.8730387687683105,0.0,-0.006700342521071434,0.798362135887146,-4.8844456614460796e-05,-0.01823950931429863
850.0,953.0,0.0497,0.2752,9.6096,-0.0591,0.025,-0.1255,-1.6858684025206507,-0.0127920126542449,2.268256902694702,-2.0599968433380127,0.042489368468523026,1.9408981800079346,5.232142317086019,-0.0048772976733744144,0.2511520981788635,-1.6038101355182093,0.0001006403035717085,0.00017478200607001781,0.872967004776001,0.0,0.001024538418278098,0.7983461618423462,-4.554848783300258e-05,-0.02415594831109047
844.0,957.0,-0.1286,0.1561,9.6562,-0.0263,0.0315,-0.1222,-1.6859852276244105,-0.01092493161559105,2.249001979827881,-2.059537887573242,0.03833378478884697,1.9154489040374756,5.23212223032073,-0.0009580183541402221,0.2687705457210541,-1.6038101355182093,9.319638047600165e-05,0.013304749503731728,0.8730507493019104,0.0,-0.01311375480145216,0.7983980774879456,3.4724253055173904e-05,-0.050607167184352875
844.0,957.0,-0.1286,0.1561,9.6562,-0.0263,0.0315,-0.1222,-1.686113019982809,-0.007635640446096659,2.2491583824157715,-2.0591700077056885,0.034848347306251526,1.959754467010498,5.232130515366354,-0.0005514357471838593,0.2533703148365021,-1.6038015524493616,8.677776349941269e-05,0.016075069084763527,0.8730268478393555,0.0,-0.004093129653483629,0.7983621954917908,3.1704399589216337e-05,-0.04684150964021683
844.0,957.0,-0.1286,0.1561,9.6562,-0.0263,0.0315,-0.1222,-1.6861850223936976,-0.0044652922078967094,2.2585678100585938,-2.05885910987854,0.03267410025000572,1.8894858360290527,5.232098924904623,-0.00037584526580758393,0.263293981552124,-1.6037820021258753,8.118639379972592e-05,0.02007424645125866,0.8730034828186035,0.0,0.00030729902209714055,0.7983860373497009,2.9138294848962687e-05,-0.11873123049736023
844.0,957.0,-0.1286,0.1561,9.6562,-0.0263,0.0315,-0.1222,-1.686272760430807,-0.0028988930862396955,2.2702596187591553,-2.0584874153137207,0.031476013362407684,1.9102534055709839,5.232082593231954,-0.0010244641453027725,0.24903148412704468,-1.6038015524493616,8.716165029909462e-05,0.02033710479736328,0.8730347752571106,0.0,-0.01752418465912342,0.7984139919281006,5.312147914082743e-05,-0.07256578654050827
844.0,957.0,-0.1286,0.1561,9.6562,-0.0263,0.0315,-0.1222,-1.686216493646139,-0.0026864518877118826,2.2865073680877686,-2.0582363605499268,0.030606474727392197,1.9571096897125244,5.232050525933065,-0.0015553832054138184,0.25306788086891174,-1.6037820021258753,8.219257142627612e-05,0.01635933667421341,0.8730309009552002,0.0,-0.007148653734475374,0.7984099984169006,1.15859433158505e-10,-0.06310573220252991
844.0,957.0,-0.1286,0.1561,9.6562,-0.0263,0.0315,-0.1222,-1.6862288914122523,-0.0017412833403795958,2.2854769229888916,-2.0578842163085938,0.02957349643111229,1.9139659404754639,5.232090759068289,-0.001361997565254569,0.25357913970947266,-1.603813950215475,3.387970082258107e-07,0.021802518516778946,0.8730507493019104,0.0,0.00014557084068655968,0.7984060645103455,5.036065562269778e-20,-0.0678042471408844
844.0,957.0,-0.1286,0.1561,9.6562,-0.0263,0.0315,-0.1222,-1.686244627038473,-0.0008900550892576575,2.232994556427002,-2.05768084526062,0.029269317165017128,1.9397764205932617,5.232046413212576,-0.0012053988175466657,0.25080060958862305,-1.6037572065936487,6.157469065876109e-12,0.020359378308057785,0.8730628490447998,0.0,-8.852320024743676e-05,0.798378050327301,1.6316210784586392e-27,-0.06511752307415009
844.0,957.0,-0.1286,0.1561,9.6562,-0.0263,0.0315,-0.1222,-1.6862250767149867,-0.0006226517143659294,2.259387493133545,-2.057393789291382,0.030313553288578987,1.9259068965911865,5.232018935471334,-0.0015785932773724198,0.25725314021110535,-1.6037572065936487,7.306855273234092e-18,0.022029094398021698,0.8730507493019104,0.0,0.0029322109185159206,0.7983542084693909,7.092172418095745e-37,-0.06217323988676071
844.0,957.0,-0.1286,0.1561,9.6562,-0.0263,0.0315,-0.1222,-1.6863090000548304,-0.0008404875406995416,2.3076841831207275,-2.0570902824401855,0.03131038695573807,1.9535019397735596,5.232006954937734,-0.0017989212647080421,0.2548564076423645,-1.6037738958941858,8.670791461007529e-24,0.017698759213089943,0.8730547428131104,0.0,-0.006898503750562668,0.7983940243721008,0.0,-0.025493301451206207
844.0,957.0,-0.1286,0.1561,9.6562,-0.0263,0.0315,-0.1222,-1.6863004169859828,-0.0008182795718312263,2.246703624725342,-2.056698799133301,0.03408921882510185,1.9292223453521729,5.23197095373229,-0.0022425984498113394,0.26447346806526184,-1.6038220564471644,5.7138517149724066e-05,0.03059924952685833,0.8730188012123108,0.0,0.009882700629532337,0.7984060645103455,0.0,-0.06534148007631302
834.0,8190.0,0.2441,0.1795,9.3452,-0.0359,0.0686,-0.1245,-1.6863171062865199,-0.0008288489188998938,2.260246753692627,-2.056408405303955,0.03784339874982834,1.9421464204788208,5.231946813851156,-0.0032618152908980846,0.24948391318321228,-1.6038339773761194,5.377769048209302e-05,0.007005240768194199,0.8730309009552002,0.0,-1.3704411685466766e-06,0.7983900904655457,0.0,-0.04067375883460045
834.0,8190.0,0.2441,0.1795,9.3452,-0.0359,0.0686,-0.1245,-1.6863209209837855,-0.001081468304619193,2.301607608795166,-2.0559723377227783,0.04129856079816818,1.8949229717254639,5.231919455319204,-0.004038538783788681,0.2589239180088043,-1.6037891546832483,5.074553700978868e-05,0.013635460287332535,0.8730547428131104,0.0,0.007329647429287434,0.7984301447868347,0.0,-0.06777942180633545
834.0,8190.0,0.2441,0.1795,9.3452,-0.0359,0.0686,-0.1245,-1.6863609753050746,-0.0012751772301271558,2.2704896926879883,-2.0555732250213623,0.04347144067287445,1.9541326761245728,5.231835353165426,-0.005205062218010426,0.2602546215057373,-1.6037853399859827,7.001881741075522e-09,0.024202860891819,0.8730428218841553,0.0,0.009678032249212265,0.7983940839767456,0.0,-0.04238905757665634
834.0,8190.0,0.2441,0.1795,9.3452,-0.0359,0.0686,-0.1245,-1.6863728962340296,-0.0011403212556615472,2.2805256843566895,-2.05517840385437,0.045010633766651154,1.9558873176574707,5.231799232750692,-0.004982778336852789,0.24794897437095642,-1.6038220564471644,1.2725573633048937e-13,0.02167433500289917,0.8730466365814209,0.0,0.0070657203905284405,0.7984102368354797,0.0,-0.07162673026323318
834.0,8190.0,0.2441,0.1795,9.3452,-0.0359,0.0686,-0.1245,-1.686357160607809,-0.0007403460331261158,2.2967567443847656,-2.0546751022338867,0.045514632016420364,1.9236462116241455,5.231779563217916,-0.0025254341308027506,0.25029411911964417,-1.603797737752096,1.5100998923010416e-19,0.009096862748265266,0.8730194568634033,0.0,-0.009732697159051895,0.7984139323234558,0.0,-0.07657374441623688
834.0,8190.0,0.2441,0.1795,9.3452,-0.0359,0.0686,-0.1245,-1.6863848171629847,-0.0006639508646912873,2.291950225830078,-2.054248094558716,0.04580119252204895,1.9706276655197144,5.231743502407827,-0.0013139932416379452,0.24774077534675598,-1.6038420836078089,1.791983334832971e-25,0.014549127779901028,0.873023509979248,0.0,-0.001525199506431818,0.7983980774879456,0.0,-0.0748625248670578
834.0,8190.0,0.2441,0.1795,9.3452,-0.0359,0.0686,-0.1245,-1.6863724193968714,-0.001085264259018004,2.282681465148926,-2.0537734031677246,0.050223954021930695,1.9489469528198242,5.231727528363027,-0.0012023835442960262,0.24709734320640564,-1.60382587114443,2.1264840918663385e-31,0.016962427645921707,0.8730387687683105,0.0,0.008641008287668228,0.7983779907226562,0.0,-0.052913885563611984
834.0,8190.0,0.2441,0.1795,9.3452,-0.0359,0.0686,-0.1245,-1.6863604984679164,-0.0022305811289697886,2.30515193939209,-2.053257703781128,0.054885249584913254,1.950413465499878,5.231691527157583,-0.002316645346581936,0.24722957611083984,-1.6037777105914515,2.5234250918084954e-37,0.015348656103014946,0.8730707168579102,0.0,-0.005947397090494633,0.7984302043914795,0.0,-0.09917985647916794
834.0,8190.0,0.2441,0.1795,9.3452,-0.0359,0.0686,-0.1245,-1.686432500878805,-0.0041436501778662205,2.2263028621673584,-2.0526866912841797,0.06117059662938118,1.9642534255981445,5.231675612717428,-0.003926943987607956,0.25640904903411865,-1.603797737752096,2.9987787136551085e-43,0.017118306830525398,0.873011589050293,0.0,0.007589393295347691,0.798401951789856,0.0,-0.04650537297129631
823.0,909.0,-0.2453,0.2064,9.8052,-0.036,0.067,-0.1246,-1.6864806614317835,-0.00593006843701005,2.262094736099243,-2.0520193576812744,0.06642281264066696,1.936052680015564,5.231635796814718,-0.004237113520503044,0.25112512707710266,-1.6037934462176722,0.0,0.020134761929512024,0.8730747103691101,0.0,0.0027397405356168747,0.7983980178833008,0.0,-0.10387896746397018
823.0,909.0,-0.2453,0.2064,9.8052,-0.036,0.067,-0.1246,-1.6865126095213832,-0.005990174598991871,2.2331745624542236,-2.0514774322509766,0.07151622325181961,2.010836124420166,5.23156355598525,-0.0046537648886442184,0.24948811531066895,-1.6037614981280726,0.0,0.02277958393096924,0.8730387687683105,0.0,-0.011727727018296719,0.7984139323234558,0.0,-0.07575180381536484
823.0,909.0,-0.2453,0.2064,9.8052,-0.036,0.067,-0.1246,-1.686624666253561,-0.005672512575984001,2.2609519958496094,-2.050778865814209,0.077801913022995,1.9556301832199097,5.231559979706564,-0.004605580121278763,0.2444102168083191,-1.6038101355182093,0.0,0.019222360104322433,0.873031735420227,0.0,-0.0011800425127148628,0.7983940839767456,0.0,-0.11452626436948776
823.0,909.0,-0.2453,0.2064,9.8052,-0.036,0.067,-0.1246,-1.686716695825094,-0.0060270302928984165,2.263195514678955,-2.049992322921753,0.08065302670001984,2.001862049102783,5.231532084732809,-0.004167614970356226,0.24006646871566772,-1.6037934462176722,0.0,0.02050328254699707,0.8730948567390442,0.0,-0.005551500245928764,0.7984420657157898,0.0,-0.1118285059928894
823.0,909.0,-0.2453,0.2064,9.8052,-0.036,0.067,-0.1246,-1.6867410145201625,-0.0059341685846447945,2.2539501190185547,-2.0491220951080322,0.08166220784187317,1.9867019653320312,5.23146818855361,-0.0022042440250515938,0.24505360424518585,-1.6037777105914515,0.0,0.024305611848831177,0.8730034828186035,0.0,0.007589599117636681,0.7983860969543457,0.0,-0.08928951621055603
823.0,909.0,-0.2453,0.2064,9.8052,-0.036,0.067,-0.1246,-1.686796327630514,-0.003934271167963743,2.2478461265563965,-2.0482518672943115,0.08699671179056168,2.008881092071533,5.231420147209921,-0.0016226144507527351,0.2387923002243042,-1.6038101355182093,0.0,0.024478349834680557,0.8730506896972656,0.0,0.007979078218340874,0.7984261512756348,0.0,-0.09297819435596466
823.0,909.0,-0.2453,0.2064,9.8052,-0.036,0.067,-0.1246,-1.6868039570250453,-0.0032311684917658567,2.238614082336426,-2.0473575592041016,0.09458035975694656,2.0376949310302734,5.231440591603079,-0.002853211248293519,0.2411653995513916,-1.6037891546832483,0.0,0.033653419464826584,0.8730626106262207,0.0,0.0025224965065717697,0.7984222173690796,5.143824455444701e-05,-0.07901482284069061
823.0,909.0,-0.2453,0.2064,9.8052,-0.036,0.067,-0.1246,-1.6868483028807582,-0.004357397090643644,2.2297749519348145,-2.0463597774505615,0.10283501446247101,2.082911491394043,5.2314004180725,-0.0025678377132862806,0.22967733442783356,-1.6038015524493616,5.283812424750067e-05,0.031580179929733276,0.8730347752571106,0.0,-0.0013418681919574738,0.7984300851821899,5.8352579799247906e-05,-0.07978685945272446
823.0,909.0,-0.2453,0.2064,9.8052,-0.036,0.067,-0.1246,-1.6869045696654261,-0.004414439667016268,2.2261500358581543,-2.0455658435821533,0.10918072611093521,2.044743537902832,5.231368529587545,-0.002943806117400527,0.23382772505283356,-1.6037781874286097,5.0476031901780516e-05,0.026812639087438583,0.8730347752571106,0.0,0.002142988843843341,0.7984062433242798,1.8905497826959827e-12,-0.07315194606781006
783.0,881.0,-0.186,0.1388,9.7292,-0.0354,0.0809,-0.1234,-1.68693270305776,-0.0032127071171998978,2.2028846740722656,-2.0444231033325195,0.10826792567968369,2.0101845264434814,5.231348919659414,-0.0043189022690057755,0.2384646236896515,-1.6037820021258753,1.7896776283166105e-09,0.022410137578845024,0.8730234503746033,0.0,0.007996827363967896,0.7983859777450562,8.217656693511989e-22,-0.055345989763736725
783.0,881.0,-0.186,0.1388,9.7292,-0.0354,0.0809,-0.1234,-1.6869565449156703,-0.0016200742684304714,2.2500531673431396,-2.043283224105835,0.11219966411590576,2.0229194164276123,5.2313124416168115,-0.0030232679564505816,0.2330200970172882,-1.6037934462176722,2.1237485562335253e-15,0.02506628818809986,0.873011589050293,0.0,-0.0035565937869250774,0.7984421253204346,3.5719711573606326e-31,-0.031947072595357895
783.0,881.0,-0.186,0.1388,9.7292,-0.0354,0.0809,-0.1234,-1.6869517765440882,-0.0007366104400716722,2.265453815460205,-2.042191982269287,0.12294352054595947,2.1173408031463623,5.231252658158102,-0.0037026458885520697,0.23104624450206757,-1.6037376562701624,2.520178805914517e-21,0.034225158393383026,0.8730947971343994,0.0,0.006579934619367123,0.7983860969543457,1.552624685487254e-40,-0.05606172978878021
783.0,881.0,-0.186,0.1388,9.7292,-0.0354,0.0809,-0.1234,-1.6869999370970667,-0.002831494202837348,2.2053041458129883,-2.0409185886383057,0.13276821374893188,2.076507806777954,5.231201219349661,-0.006019411608576775,0.226555734872818,-1.603769604359762,2.9906088621407824e-27,0.041079081594944,0.8730466961860657,0.0,0.005904556252062321,0.7984340190887451,0.0,-0.13604211807250977
783.0,881.0,-0.186,0.1388,9.7292,-0.0354,0.0809,-0.1234,-1.6870600185790003,-0.005908999592065811,2.285243034362793,-2.039501428604126,0.1412826031446457,2.0401902198791504,5.231096732407369,-0.004988746251910925,0.23751984536647797,-1.603769604359762,3.5488519752790414e-33,0.029490133747458458,0.8730468153953552,0.0,-0.0033918903209269047,0.7984139323234558,0.0,-0.1285533607006073
783.0,881.0,-0.186,0.1388,9.7292,-0.0354,0.0809,-0.1234,-1.6870762310423792,-0.0040245214477181435,2.2838404178619385,-2.0381479263305664,0.14047600328922272,2.0673935413360596,5.231072711735525,-0.00365150417201221,0.21851404011249542,-1.60382587114443,4.2112998540599435e-39,0.03552602231502533,0.8730984926223755,0.0,0.00020767562091350555,0.7983781099319458,0.0,-0.10324183106422424
783.0,881.0,-0.186,0.1388,9.7292,-0.0354,0.0809,-0.1234,-1.6871077022948207,-0.00202945782802999,2.2488389015197754,-2.0369739532470703,0.14812153577804565,2.0463101863861084,5.231121468334951,-0.002108609536662698,0.23239269852638245,-1.6037619749652308,7.707141553786494e-44,0.038400374352931976,0.8730035424232483,0.0,-0.001318624010309577,0.7983700633049011,0.0,-0.12909454107284546
783.0,881.0,-0.186,0.1388,9.7292,-0.0354,0.0809,-0.1234,-1.6871282062926234,-0.002790258964523673,2.236635684967041,-2.035440444946289,0.15897029638290405,2.0969300270080566,5.231045532017507,-0.004461866337805986,0.23052111268043518,-1.6037820021258753,0.0,0.03180235996842384,0.8730785846710205,0.0,0.010610509663820267,0.7983901500701904,0.0,-0.0738268792629242
783.0,881.0,-0.186,0.1388,9.7292,-0.0354,0.0809,-0.1234,-1.6871839962401332,-0.006732468493282795,2.27563214302063,-2.0338075160980225,0.16158919036388397,2.1150333881378174,5.231017696648397,-0.005531034432351589,0.23633545637130737,-1.6037495771991175,0.0,0.0420021191239357,0.8730468153953552,0.0,0.010767336934804916,0.7983700633049011,0.0,-0.11615429818630219
688.0,833.0,-0.1268,0.2572,9.4881,-0.0269,0.1144,-0.1214,-1.6872474155821742,-0.006236760877072811,2.2578132152557373,-2.0321662425994873,0.16755422949790955,2.115368366241455,5.2309738276298425,-0.0032580525148659945,0.22483402490615845,-1.6037376562701624,8.03685252321884e-05,0.0421319343149662,0.8730587959289551,0.0,0.017878320068120956,0.7983901500701904,0.0,-0.12465608865022659
688.0,833.0,-0.1268,0.2572,9.4881,-0.0269,0.1144,-0.1214,-1.6872803173460902,-0.002927185967564583,2.294977903366089,-2.0304877758026123,0.1753627359867096,2.1686089038848877,5.230901288777151,-0.0036722528748214245,0.2293849140405655,-1.603729550038473,8.854008046910167e-05,0.04446781426668167,0.8730075359344482,0.0,0.0034687225706875324,0.7983461022377014,-4.2362426029285416e-05,-0.10681239515542984
688.0,833.0,-0.1268,0.2572,9.4881,-0.0269,0.1144,-0.1214,-1.68727507213735,-0.005308452062308788,2.209221363067627,-2.0286641120910645,0.18181191384792328,2.129483222961426,5.230845618038931,-0.0068924566730856895,0.23502828180789948,-1.6037333647357386,9.541420149616897e-05,0.03902222216129303,0.8730666637420654,0.0,0.006848082412034273,0.7983860373497009,-3.9281720091821626e-05,-0.12665165960788727
688.0,833.0,-0.1268,0.2572,9.4881,-0.0269,0.1144,-0.1214,-1.6874033413329066,-0.008130507543683052,2.21254825592041,-2.026773452758789,0.18504171073436737,2.1339125633239746,5.2307820794876,-0.009032877162098885,0.22063779830932617,-1.6037457625018519,0.00010139956430066377,0.029897745698690414,0.8730865120887756,0.0,0.008332505822181702,0.7983381152153015,-3.661802475107834e-05,-0.0882067158818245
688.0,833.0,-0.1268,0.2572,9.4881,-0.0269,0.1144,-0.1214,-1.6874391041197718,-0.007184084039181471,2.2306690216064453,-2.025236129760742,0.1908010095357895,2.1835739612579346,5.230673777848043,-0.013323461636900902,0.22269728779792786,-1.603753391896383,0.00024287690757773817,0.05594107136130333,0.8730787038803101,0.0,0.013202947564423084,0.7983860373497009,-3.47337918356061e-05,-0.09796756505966187
688.0,833.0,-0.1268,0.2572,9.4881,-0.0269,0.1144,-0.1214,-1.6875478229918421,-0.00608245050534606,2.2625412940979004,-2.023310661315918,0.19342131912708282,2.1282005310058594,5.230498003750601,-0.024671871215105057,0.20847830176353455,-1.6037500540362757,0.00025700527476146817,0.03872237727046013,0.8730785846710205,0.0,0.007211453281342983,0.798382043838501,-3.2634710805723444e-05,-0.1382247358560562
688.0,833.0,-0.1268,0.2572,9.4881,-0.0269,0.1144,-0.1214,-1.6875750027098597,-0.00812219362705946,2.229220151901245,-2.021308183670044,0.20156697928905487,2.1626079082489014,5.230199503689565,-0.04890422150492668,0.19068434834480286,-1.603729550038473,0.00040559619083069265,0.044533148407936096,0.8730587363243103,0.0,0.011329391039907932,0.798378050327301,-2.0532808775897138e-05,-0.09241175651550293
688.0,833.0,-0.1268,0.2572,9.4881,-0.0269,0.1144,-0.1214,-1.6876431904234828,-0.00943321269005537,2.2364141941070557,-2.0192854404449463,0.20848196744918823,2.2434630393981934,5.229396450310507,-0.10090099275112152,0.1836303472518921,-1.6037262121783655,0.00039712133002467453,0.028169024735689163,0.8730746507644653,0.0,0.01149185560643673,0.7983859777450562,-3.5708149770385944e-09,-0.13694588840007782
688.0,833.0,-0.1268,0.2572,9.4881,-0.0269,0.1144,-0.1214,-1.6877747974791468,-0.010291308164596558,2.2617695331573486,-2.0171661376953125,0.21103379130363464,2.213651657104492,5.228222775250234,-0.1265394687652588,0.16854818165302277,-1.6037052313434046,0.0005728050018660724,0.03487878665328026,0.8729750514030457,0.0,0.0006336674559861422,0.7983821034431458,-1.5521270780684827e-18,-0.12375031411647797
688.0,833.0,-0.1268,0.2572,9.4881,-0.0269,0.1144,-0.1214,-1.6878754101195277,-0.010324208997189999,2.249561071395874,-2.015024423599243,0.22072777152061462,2.139439105987549,5.226998078614034,-0.1230403408408165,0.167051762342453,-1.6037419478045862,0.0011134038213640451,0.04925253987312317,0.8730707168579102,0.0,0.015471712686121464,0.7984179258346558,-6.74663466947554e-28,-0.10578825324773788
509.0,598.0,-0.25,0.1334,9.9595,-0.0254,0.1764,-0.1194,-1.688058992425436,-0.015595960430800915,2.2299628257751465,-2.012777328491211,0.22125069797039032,2.2258355617523193,5.225645231991567,-0.1537608653306961,0.15846434235572815,-1.6036933104144495,0.005549177527427673,0.05459946021437645,0.8730787038803101,0.0,0.002451693406328559,0.7983980774879456,-2.9325616439180265e-37,-0.12519818544387817
509.0,598.0,-0.25,0.1334,9.9595,-0.0254,0.1764,-0.1194,-1.688155313531393,-0.018648967146873474,2.215507745742798,-2.0109939575195312,0.22774849832057953,2.2248053550720215,5.2243520496185205,-0.17275777459144592,0.1460227370262146,-1.6036742369281214,0.01862727291882038,0.05979523807764053,0.8730388283729553,0.0,0.015507319010794163,0.798378050327301,-9.80908925027372e-45,-0.09831812977790833
509.0,598.0,-0.25,0.1334,9.9595,-0.0254,0.1764,-0.1194,-1.6883789501585902,-0.018277335911989212,2.2188048362731934,-2.008664131164551,0.24008922278881073,2.215357542037964,5.222520637303152,-0.20729565620422363,0.13099093735218048,-1.6035216490374964,0.0007026026141829789,0.046990714967250824,0.8730786442756653,0.0,0.007238171994686127,0.7983421683311462,0.0,-0.1539904922246933
509.0,598.0,-0.25,0.1334,9.9595,-0.0254,0.1764,-0.1194,-1.688587327996725,-0.023157350718975067,2.205928087234497,-2.006260871887207,0.23810642957687378,2.211742639541626,5.2203736183936975,-0.22951427102088928,0.11677047610282898,-1.603541676198141,-0.0011928783496841788,0.04665016382932663,0.8730229139328003,0.0,0.0010543076787143946,0.798401951789856,-2.874387428164482e-05,-0.13859352469444275
509.0,598.0,-0.25,0.1334,9.9595,-0.0254,0.1764,-0.1194,-1.688822408715719,-0.029250314459204674,2.236344337463379,-2.0038819313049316,0.25413286685943604,2.25559663772583,5.217907833843984,-0.25590780377388,0.12223011255264282,-1.6035860220538538,-0.0005869034212082624,0.039252594113349915,0.8730269074440002,0.0,0.0010323196183890104,0.7983859777450562,-1.3310052963788621e-05,-0.1002267450094223
509.0,598.0,-0.25,0.1334,9.9595,-0.0254,0.1764,-0.1194,-1.6891628704466761,-0.03590170294046402,2.2866315841674805,-2.00131893157959,0.24345159530639648,2.2039153575897217,5.215234744339742,-0.2924143075942993,0.0934615284204483,-1.603541676198141,-0.0003801723651122302,0.03902433440089226,0.8730348348617554,0.0,-0.01619022525846958,0.7983860373497009,-2.4787261281744577e-05,-0.09750654548406601
509.0,598.0,-0.25,0.1334,9.9595,-0.0254,0.1764,-0.1194,-1.689493795434469,-0.039519332349300385,2.2415590286254883,-1.9987425804138184,0.2600743770599365,2.2594242095947266,5.212145375996389,-0.31770920753479004,0.08043701946735382,-1.6035578886615198,-0.00027949982904829085,0.03421419858932495,0.8730428218841553,0.0,0.001954461447894573,0.798345685005188,-1.9233599232393317e-05,-0.08263227343559265
509.0,598.0,-0.25,0.1334,9.9595,-0.0254,0.1764,-0.1194,-1.6898490391173304,-0.042908668518066406,2.253634452819824,-1.9966626167297363,0.25702255964279175,2.2463536262512207,5.209415989905157,-0.33676984906196594,0.0806637704372406,-1.603541676198141,-0.0002326805843040347,0.03296110779047012,0.8730309009552002,0.0,0.004759389441460371,0.7984340786933899,-2.2054004148230888e-05,-0.14093387126922607
509.0,598.0,-0.25,0.1334,9.9595,-0.0254,0.1764,-0.1194,-1.6903687916197718,-0.051693275570869446,2.2068979740142822,-1.9940162897109985,0.2545495629310608,2.2395968437194824,5.205909657269277,-0.3648386597633362,0.08838764578104019,-1.6035493055926722,-0.00019142855308018625,0.01568034663796425,0.8730627298355103,0.0,-0.017680753022432327,0.7984142303466797,-1.080365927919047e-05,-0.09502110630273819
438.0,432.0,-0.7298,0.3392,9.0754,-0.0302,0.066,-0.1306,-1.6909567318358363,-0.06120443716645241,2.2505526542663574,-1.9913980960845947,0.26628196239471436,2.238158941268921,5.2019227025802515,-0.4006485939025879,0.05813618004322052,-1.6035459677325647,-0.00016260365373454988,0.021708130836486816,0.8730666637420654,0.0,-0.012000379152595997,0.7983940839767456,-1.3324832082162175e-07,-0.07975408434867859
438.0,432.0,-0.7298,0.3392,9.0754,-0.0302,0.066,-0.1306,-1.691676755944723,-0.06666617840528488,2.2658920288085938,-1.9887363910675049,0.26643383502960205,2.3172965049743652,5.197656798153677,-0.43893757462501526,0.030179668217897415,-1.6035216490374964,-0.0001413252466591075,0.04108498990535736,0.872991681098938,0.0,0.019567808136343956,0.7983980774879456,-5.791910046417929e-17,-0.06418873369693756
438.0,432.0,-0.7298,0.3392,9.0754,-0.0302,0.066,-0.1306,-1.692296644250387,-0.06163044646382332,2.2159602642059326,-1.9860702753067017,0.2706649601459503,2.2674641609191895,5.193111556559362,-0.47293898463249207,0.030237490311264992,-1.6035140196429651,-0.00012497037823777646,0.01927768625319004,0.8730116486549377,0.0,0.0047234524972736835,0.7983860969543457,-2.5175714632943148e-26,-0.055143386125564575
438.0,432.0,-0.7298,0.3392,9.0754,-0.0302,0.066,-0.1306,-1.69289030651235,-0.05523649603128433,2.210184097290039,-1.983446478843689,0.2722046673297882,2.281141519546509,5.1881835339363,-0.5106369256973267,0.0028473972342908382,-1.603541676198141,-0.00011200900189578533,0.021037984639406204,0.8730507493019104,0.0,0.004608004819601774,0.7984261512756348,-1.0943134223876949e-35,-0.07679178565740585
438.0,432.0,-0.7298,0.3392,9.0754,-0.0302,0.066,-0.1306,-1.6934782467284144,-0.053602419793605804,2.2647881507873535,-1.980756163597107,0.2613458037376404,2.240934133529663,5.1826959429080866,-0.5687561631202698,0.0007568299770355225,-1.603541676198141,-0.00010148354340344667,0.014099296182394028,0.8729757070541382,0.0,0.0030959625728428364,0.7984261512756348,-4.203895392974451e-45,-0.08985468745231628
438.0,432.0,-0.7298,0.3392,9.0754,-0.0302,0.066,-0.1306,-1.6938420734801234,-0.048889122903347015,2.2353992462158203,-1.9786456823349,0.27424749732017517,2.295644998550415,5.178003805666723,-0.6011881828308105,0.013152025640010834,-1.603541676198141,-9.438795677851886e-05,0.022829551249742508,0.8730665445327759,0.0,-0.004880030173808336,0.7984300851821899,0.0,-0.0735098123550415
438.0,432.0,-0.7298,0.3392,9.0754,-0.0302,0.066,-0.1306,-1.694228311578268,-0.043224774301052094,2.295750141143799,-1.975935935974121,0.2664414346218109,2.2656407356262207,5.171721237688818,-0.6465371251106262,0.020247429609298706,-1.6034930388080042,-8.680178871145472e-05,0.0345674566924572,0.8730826377868652,0.0,0.0071141961961984634,0.7983582615852356,0.0,-0.11291363835334778
438.0,432.0,-0.7298,0.3392,9.0754,-0.0302,0.066,-0.1306,-1.69472136119985,-0.04537972807884216,2.2878122329711914,-1.9732660055160522,0.2761099338531494,2.272221803665161,5.165061759739675,-0.6769582629203796,0.007839255966246128,-1.6035822073565882,-8.03443108452484e-05,0.02747369557619095,0.8730666637420654,0.0,-0.0008398228092119098,0.798366129398346,0.0,-0.12195439636707306
438.0,432.0,-0.7298,0.3392,9.0754,-0.0302,0.066,-0.1306,-1.695183893243307,-0.052040718495845795,2.299165964126587,-1.9705511331558228,0.2697765529155731,2.23555588722229,5.158177900105276,-0.7059390544891357,0.03300771862268448,-1.603537384663717,-7.478112820535898e-05,0.021877402439713478,0.8730035424232483,0.0,-0.001047911704517901,0.7983701229095459,0.0,-0.051616113632917404
420.0,432.0,-1.657,0.2034,9.5324,-0.0556,-0.1776,-0.1177,-1.695688386956686,-0.05526944249868393,2.2997381687164307,-1.967799425125122,0.27347099781036377,2.274817943572998,5.151002812176504,-0.7239835858345032,0.034697700291872025,-1.603598419819967,-6.993838178459555e-05,0.02251094952225685,0.8730189800262451,0.0,0.00615759938955307,0.7983661890029907,0.0,-0.06271901726722717
420.0,432.0,-1.657,0.2034,9.5324,-0.0556,-0.1776,-0.1177,-1.6961904964842738,-0.05382002517580986,2.3122687339782715,-1.9650300741195679,0.2744010388851166,2.30782413482666,5.143857586174764,-0.7289525866508484,0.034496430307626724,-1.603525463734762,-6.56848496873863e-05,0.014632553793489933,0.8730116486549377,0.0,0.004062423948198557,0.7983980774879456,0.0,-0.07433969527482986
420.0,432.0,-1.657,0.2034,9.5324,-0.0556,-0.1776,-0.1177,-1.696798940698141,-0.05363032966852188,2.3212273120880127,-1.9622406959533691,0.27218011021614075,2.263507127761841,5.136455374747076,-0.7406018972396851,0.019117465242743492,-1.6035493055926722,-6.191901047714055e-05,0.00968700461089611,0.8730194568634033,0.0,0.0027974063996225595,0.7984060049057007,0.0,-0.11913874000310898
420.0,432.0,-1.657,0.2034,9.5324,-0.0556,-0.1776,-0.1177,-1.6971732578673304,-0.05260160192847252,2.3195455074310303,-1.9600274562835693,0.27094998955726624,2.2635512351989746,5.1305091855819605,-0.7436426877975464,0.03303549438714981,-1.6035459677325647,-7.710323188803159e-06,0.0030759568326175213,0.8730786442756653,0.0,-0.001039448194205761,0.7984261512756348,0.0,-0.05080767720937729
420.0,432.0,-1.657,0.2034,9.5324,-0.0556,-0.1776,-0.1177,-1.6976648769774378,-0.0465768463909626,2.3508248329162598,-1.957374095916748,0.27560707926750183,2.291024684906006,5.1230618236358545,-0.7390742301940918,0.030681047588586807,-1.6034887472735804,-9.149573459987792e-12,0.030192170292139053,0.8730428218841553,0.0,0.003912494517862797,0.7984222173690796,0.0,-0.029149722307920456
420.0,432.0,-1.657,0.2034,9.5324,-0.0556,-0.1776,-0.1177,-1.6981083355345667,-0.03832671418786049,2.3507485389709473,-1.9546844959259033,0.2732577919960022,2.2874598503112793,5.115504878550329,-0.7503299713134766,0.016564391553401947,-1.6034892241107386,-1.0857480903323048e-17,0.00771753303706646,0.8730037808418274,0.0,0.0006134185241535306,0.7984380722045898,0.0,-0.10882709920406342
420.0,432.0,-1.657,0.2034,9.5324,-0.0556,-0.1776,-0.1177,-1.6984802685179652,-0.03297418728470802,2.319958448410034,-1.9519721269607544,0.27828606963157654,2.2514820098876953,5.107972341566839,-0.7526553273200989,0.014919525012373924,-1.6035292784320276,-1.2884197741127916e-23,0.019445054233074188,0.8730229735374451,0.0,0.0032223076559603214,0.7984380722045898,0.0,-0.07459795475006104
420.0,432.0,-1.657,0.2034,9.5324,-0.0556,-0.1776,-0.1177,-1.6987558803954066,-0.027884917333722115,2.379793882369995,-1.9490954875946045,0.2719644606113434,2.2702977657318115,5.100562113314428,-0.7538149356842041,0.017012502998113632,-1.603525463734762,-1.5289231090862813e-29,0.003238893114030361,0.8730309009552002,0.0,-0.0028126731049269438,0.798417866230011,0.0,-0.08326894044876099
420.0,432.0,-1.657,0.2034,9.5324,-0.0556,-0.1776,-0.1177,-1.6989947758116664,-0.02218092605471611,2.3841795921325684,-1.946418046951294,0.28690171241760254,2.286914348602295,5.093206721335211,-0.7509732246398926,0.018357494845986366,-1.6035216490374964,-1.8143202857035432e-35,0.018783876672387123,0.8729878664016724,0.0,0.0004671782662626356,0.798382043838501,0.0,-0.07398119568824768
403.0,455.0,-0.5498,0.1747,9.3709,-0.0828,-0.4896,-0.1121,-1.699259420434469,-0.01971426047384739,2.4041342735290527,-1.9435657262802124,0.2838684022426605,2.2770631313323975,5.085480290442266,-0.7539833188056946,0.03714876249432564,-1.603525463734762,-2.152954960588649e-41,0.0161362886428833,0.8730468153953552,0.0,0.0070780483074486256,0.798401951789856,0.0,-0.07345767319202423
403.0,455.0,-0.5498,0.1747,9.3709,-0.0828,-0.4896,-0.1121,-1.6993991337218226,-0.01968126744031906,2.4135076999664307,-1.9412201642990112,0.2938151955604553,2.2948946952819824,5.079384881048956,-0.7524847388267517,0.025866499170660973,-1.6035578886615198,-0.0,0.016582641750574112,0.8730037212371826,0.0,-0.00796599593013525,0.7983821630477905,0.0,-0.08884267508983612
403.0,455.0,-0.5498,0.1747,9.3709,-0.0828,-0.4896,-0.1121,-1.6996146641173304,-0.021990548819303513,2.350454330444336,-1.938239336013794,0.2900860011577606,2.2879395484924316,5.071798997908392,-0.7563027143478394,0.022671420127153397,-1.603570286427633,-0.0,0.026364019140601158,0.8730626702308655,0.0,-0.0033760196529328823,0.7983940839767456,0.0,-0.06055678427219391
403.0,455.0,-0.5498,0.1747,9.3709,-0.0828,-0.4896,-0.1121,-1.6998235187926234,-0.02044432796537876,2.367196559906006,-1.9352666139602661,0.3017404079437256,2.357072591781616,5.064400303154745,-0.7522353529930115,0.0357217974960804,-1.6035216490374964,-0.0,0.030718956142663956,0.8730427622795105,0.0,0.0004016738384962082,0.7984301447868347,0.0,-0.1049499586224556
403.0,455.0,-0.5498,0.1747,9.3709,-0.0828,-0.4896,-0.1121,-1.700026651422018,-0.018298406153917313,2.3997042179107666,-1.9322460889816284,0.2971998453140259,2.3518097400665283,5.056736635952749,-0.7598349452018738,0.02216477319598198,-1.6035054365741175,-0.0,0.03294910863041878,0.873054563999176,0.0,0.0048534683883190155,0.7983901500701904,0.0,-0.09253916889429092
403.0,455.0,-0.5498,0.1747,9.3709,-0.0828,-0.4896,-0.1121,-1.7001811466612757,-0.016986029222607613,2.349100112915039,-1.9291690587997437,0.3047533631324768,2.335832118988037,5.049074697285452,-0.7659994959831238,0.014716507866978645,-1.6035736242877405,-0.0,0.037947963923215866,0.873030960559845,0.0,-0.007214115932583809,0.7984300851821899,0.0,-0.09148754179477692
403.0,455.0,-0.5498,0.1747,9.3709,-0.0828,-0.4896,-0.1121,-1.7003618679442347,-0.017260942608118057,2.412189483642578,-1.926133155822754,0.3123706877231598,2.3415231704711914,5.041280436306753,-0.7736150026321411,0.011756340973079205,-1.6035903135882776,-0.0,0.0031376457773149014,0.8730116486549377,0.0,0.011342182755470276,0.7983501553535461,0.0,-0.11963658034801483
403.0,455.0,-0.5498,0.1747,9.3709,-0.0828,-0.4896,-0.1121,-1.7005096874632777,-0.017127839848399162,2.3984289169311523,-1.9230842590332031,0.3122861981391907,2.3313827514648438,5.033637690335073,-0.7771936655044556,0.04018121957778931,-1.603570286427633,-0.0,0.025059306994080544,0.8730348944664001,0.0,0.008851374499499798,0.7984301447868347,0.0,-0.09764443337917328
403.0,455.0,-0.5498,0.1747,9.3709,-0.0828,-0.4896,-0.1121,-1.7006970844664515,-0.017531875520944595,2.4050893783569336,-1.920539140701294,0.3199659585952759,2.352104663848877,5.0273835239704034,-0.7789738774299622,0.0007135211490094662,-1.603525463734762,-0.0,0.027205489575862885,0.8730037212371826,0.0,-0.004858742468059063,0.7984139323234558,0.0,-0.07481443881988525
403.0,455.0,-0.5498,0.1747,9.3709,-0.0828,-0.4896,-0.1121,-1.7008573017516078,-0.0186163317412138,2.337064743041992,-1.9173665046691895,0.3224621117115021,2.3737692832946777,5.0196196911628626,-0.7824481725692749,0.029101334512233734,-1.6035779158221644,-0.0,0.028856465592980385,0.873030960559845,0.0,-0.00027168006636202335,0.7983582019805908,0.0,-0.07020667940378189
439.0,648.0,0.7196,0.1113,10.2132,-0.0753,-0.4658,-0.1083,-1.701024671594137,-0.02026684395968914,2.4347658157348633,-1.9141143560409546,0.3300635516643524,2.3645665645599365,5.0117618320281885,-0.7865509986877441,0.02111484669148922,-1.603553597127096,-0.0,0.018766889348626137,0.873026967048645,0.0,0.015470108948647976,0.7983741164207458,0.0,-0.09146645665168762
439.0,648.0,0.7196,0.1113,10.2132,-0.0753,-0.4658,-0.1083,-1.701296945611471,-0.023584384471178055,2.4092230796813965,-1.9107787609100342,0.3361093997955322,2.439762592315674,5.003936040192404,-0.7881989479064941,0.016150370240211487,-1.6034930388080042,-0.0,0.021785061806440353,0.873030960559845,0.0,-0.0008702748455107212,0.7983700633049011,0.0,-0.10318422317504883
439.0,648.0,0.7196,0.1113,10.2132,-0.0753,-0.4658,-0.1083,-1.7015615902342738,-0.02789430133998394,2.42207670211792,-1.9073837995529175,0.33288097381591797,2.399380683898926,4.995960789709844,-0.7909310460090637,0.026618558913469315,-1.6035578886615198,-0.0,0.020892295986413956,0.8730428218841553,0.0,0.010468069463968277,0.798342227935791,0.0,-0.11855398863554001
439.0,648.0,0.7196,0.1113,10.2132,-0.0753,-0.4658,-0.1083,-1.7017842731871546,-0.029631316661834717,2.3432419300079346,-1.9039897918701172,0.3442447781562805,2.359593391418457,4.988019662886419,-0.7857360243797302,0.023991310968995094,-1.6035617033587855,-0.0,0.03711483255028725,0.8729998469352722,0.0,-0.0077390591613948345,0.7983621954917908,0.0,-0.04555778205394745
439.0,648.0,0.7196,0.1113,10.2132,-0.0753,-0.4658,-0.1083,-1.7020679912962855,-0.029080944135785103,2.360879898071289,-1.9005342721939087,0.34447532892227173,2.365828514099121,4.980193871050634,-0.787078857421875,0.018328865990042686,-1.6035459677325647,-0.0,0.011199383065104485,0.8729918599128723,0.0,-0.004645523615181446,0.7983940839767456,0.0,-0.11402986943721771
439.0,648.0,0.7196,0.1113,10.2132,-0.0753,-0.4658,-0.1083,-1.702315469781393,-0.02961624786257744,2.3864905834198,-1.8977195024490356,0.3451867699623108,2.3785006999969482,4.9739944515521906,-0.778240978717804,0.029230430722236633,-1.603497330342428,-0.0,0.026167938485741615,0.8730785250663757,0.0,-0.0019447763916105032,0.798342227935791,0.0,-0.1079317033290863
439.0,648.0,0.7196,0.1113,10.2132,-0.0753,-0.4658,-0.1083,-1.7025705776610316,-0.027900369837880135,2.446483612060547,-1.894212245941162,0.3540140390396118,2.437079668045044,4.966356533556738,-0.7737417817115784,-0.0005532586947083473,-1.6035216490374964,-0.0,0.021188437938690186,0.8730586767196655,0.0,-0.0006850749487057328,0.7983621954917908,0.0,-0.09096275269985199
439.0,648.0,0.7196,0.1113,10.2132,-0.0753,-0.4658,-0.1083,-1.7028871975340785,-0.026035325601696968,2.3908238410949707,-1.8907480239868164,0.3559480905532837,2.471021890640259,4.958549561887541,-0.776616096496582,0.010991867631673813,-1.603497330342428,-0.0,0.018389366567134857,0.8730309009552002,0.0,0.0048597585409879684,0.798318088054657,0.0,-0.10820141434669495
439.0,648.0,0.7196,0.1113,10.2132,-0.0753,-0.4658,-0.1083,-1.703174730340475,-0.027677591890096664,2.393977642059326,-1.8871492147445679,0.3522696793079376,2.4101250171661377,4.950776833086767,-0.7720435261726379,0.037030644714832306,-1.603541676198141,-0.0,0.04243279621005058,0.8730156421661377,0.0,0.020777691155672073,0.798378050327301,0.0,-0.08361257612705231
544.0,822.0,0.8285,0.1101,9.5725,-0.0738,-0.4678,-0.1239,-1.7034622631468714,-0.029527876526117325,2.3932530879974365,-1.8836908340454102,0.3654262125492096,2.432469367980957,4.943089428334989,-0.7645800113677979,0.029291674494743347,-1.6035617033587855,-0.0,0.026561997830867767,0.873038649559021,0.0,0.001508650602772832,0.7984099388122559,0.0,-0.09946508705615997
544.0,822.0,0.8285,0.1101,9.5725,-0.0738,-0.4678,-0.1239,-1.7037340603270472,-0.030643664300441742,2.4068713188171387,-1.8800712823867798,0.36881279945373535,2.46205997467041,4.935540768295088,-0.7597543001174927,-0.004840139765292406,-1.603569809590475,-0.0,0.0387854278087616,0.8730349540710449,0.0,-0.00025167776038870215,0.7984222769737244,-6.560629117302597e-05,-0.08645053207874298
544.0,822.0,0.8285,0.1101,9.5725,-0.0738,-0.4678,-0.1239,-1.7040497265257777,-0.03298018127679825,2.3968522548675537,-1.876420497894287,0.36881980299949646,2.4764022827148438,4.9278263477380655,-0.7635412812232971,0.018187720328569412,-1.6035497824298304,-0.0,0.021790293976664543,0.8730784058570862,0.0,0.0028039372991770506,0.7984380722045898,-4.808512676390819e-05,-0.0748777836561203
544.0,822.0,0.8285,0.1101,9.5725,-0.0738,-0.4678,-0.1239,-1.7043539486327113,-0.035066381096839905,2.4106271266937256,-1.8733413219451904,0.37410759925842285,2.4781830310821533,4.921816009074011,-0.7538919448852539,0.005465235561132431,-1.6035297552691858,-0.0,0.028443828225135803,0.8730314373970032,0.0,-0.005862587131559849,0.7984142303466797,-3.961761831305921e-05,-0.11982239782810211
544.0,822.0,0.8285,0.1101,9.5725,-0.0738,-0.4678,-0.1239,-1.7046700916686,-0.03661717101931572,2.3983991146087646,-1.869561791419983,0.371908575296402,2.488862991333008,4.914372685342588,-0.7407059073448181,0.01770012639462948,-1.6035297552691858,-0.0,0.022105049341917038,0.8730309009552002,0.0,-0.005599732045084238,0.7983498573303223,-3.2470492442371324e-05,-0.15069429576396942
544.0,822.0,0.8285,0.1101,9.5725,-0.0738,-0.4678,-0.1239,-1.7050610981383265,-0.03637880086898804,2.4459922313690186,-1.8658066987991333,0.37348100543022156,2.459681510925293,4.907111736923017,-0.7259553074836731,0.018944213166832924,-1.6035340468036097,-0.0,0.03751785680651665,0.873038649559021,0.0,-0.009237500838935375,0.798373818397522,-2.7508083803695627e-05,-0.1385239064693451
544.0,822.0,0.8285,0.1101,9.5725,-0.0738,-0.4678,-0.1239,-1.7053967914977015,-0.037431057542562485,2.4342257976531982,-1.8620238304138184,0.3786695599555969,2.484537124633789,4.899850997119703,-0.7097659111022949,0.013616814278066158,-1.603497330342428,-0.0,0.03348216786980629,0.8730785250663757,0.0,-0.004978170618414879,0.7983539700508118,-2.3861466615926474e-05,-0.100833460688591
544.0,822.0,0.8285,0.1101,9.5725,-0.0738,-0.4678,-0.1239,-1.705820699731344,-0.03754548355937004,2.4569091796875,-1.858259916305542,0.3811279535293579,2.487729787826538,4.892825948982992,-0.6922868490219116,0.02122112177312374,-1.603553597127096,-0.0,0.021036062389612198,0.8730347156524658,0.0,-0.0005395187763497233,0.7984182834625244,-2.106856118189171e-05,-0.0750507041811943
544.0,822.0,0.8285,0.1101,9.5725,-0.0738,-0.4678,-0.1239,-1.706167837182516,-0.03802675008773804,2.4433767795562744,-1.8544334173202515,0.3822431266307831,2.4569413661956787,4.886024224549093,-0.680266261100769,0.012733017094433308,-1.6034777800189417,-0.0,0.02598562464118004,0.8730467557907104,0.0,0.00023864512331783772,0.798378050327301,-7.553737191301479e-07,-0.08771742880344391
732.0,863.0,1.5248,-0.0341,9.3356,-0.0666,-0.4013,-0.1225,-1.706550737420553,-0.03905617818236351,2.4471330642700195,-1.8506981134414673,0.3857150971889496,2.454099655151367,4.879413652210989,-0.6644496917724609,0.025401294231414795,-1.6035054365741175,-0.0,0.025881154462695122,0.8730514049530029,0.0,-0.011015377938747406,0.7983621954917908,-3.2833847830839784e-16,-0.12543028593063354
732.0,863.0,1.5248,-0.0341,9.3356,-0.0666,-0.4013,-0.1225,-1.706902643243307,-0.0439898818731308,2.4363903999328613,-1.8475944995880127,0.38726526498794556,2.4765939712524414,4.874154734402456,-0.6516005992889404,0.04561688005924225,-1.603525463734762,-0.0,0.03073146566748619,0.8730626702308655,0.0,-0.005861399695277214,0.7984020113945007,-1.0637748286138273e-23,-0.09774573147296906
732.0,863.0,1.5248,-0.0341,9.3356,-0.0666,-0.4013,-0.1225,-1.7073265514769496,-0.04496508464217186,2.407902717590332,-1.8436529636383057,0.382014662027359,2.4829165935516357,4.867534476309576,-0.6509981155395508,0.02890748903155327,-1.603513542805807,-0.0,0.024043425917625427,0.8730155229568481,0.0,0.0019813585095107555,0.7984020709991455,-4.623913558135011e-33,-0.04312664270401001
732.0,863.0,1.5248,-0.0341,9.3356,-0.0666,-0.4013,-0.1225,-1.7078024349608363,-0.04222772642970085,2.4400765895843506,-1.8397793769836426,0.3837642967700958,2.4326059818267822,4.861121567874708,-0.640658438205719,0.04176076501607895,-1.6035216490374964,-0.0,0.022537946701049805,0.8730268478393555,0.0,-0.012390639632940292,0.7983859777450562,-2.0094619978417877e-42,-0.054304078221321106
732.0,863.0,1.5248,-0.0341,9.3356,-0.0666,-0.4013,-0.1225,-1.7082058391966761,-0.040621332824230194,2.4451944828033447,-1.835945725440979,0.3789769411087036,2.4802896976470947,4.854758623033323,-0.6370208859443665,0.037596363574266434,-1.6035659948932093,-0.0,0.026090068742632866,0.8730268478393555,0.0,0.0015281853266060352,0.7983582019805908,0.0,-0.09188196063041687
732.0,863.0,1.5248,-0.0341,9.3356,-0.0666,-0.4013,-0.1225,-1.7086016140379847,-0.0422942228615284,2.453279972076416,-1.8321607112884521,0.38027137517929077,2.439558744430542,4.848588841944494,-0.6336818933486938,0.024477332830429077,-1.6035340468036097,-0.0,0.02654389850795269,0.8730472326278687,0.0,-0.0024482037406414747,0.7984301447868347,0.0,-0.07977978885173798
732.0,863.0,1.5248,-0.0341,9.3356,-0.0666,-0.4013,-0.1225,-1.7090002499022425,-0.04475058242678642,2.4401445388793945,-1.828403115272522,0.37724483013153076,2.5050294399261475,4.842411982804098,-0.6202656030654907,0.016299918293952942,-1.6035497824298304,-0.0,0.011866407468914986,0.8730074167251587,0.0,-0.008935718797147274,0.798382043838501,0.0,-0.11074545979499817
732.0,863.0,1.5248,-0.0341,9.3356,-0.0666,-0.4013,-0.1225,-1.7094885311522425,-0.0497799776494503,2.483926296234131,-1.8246116638183594,0.37352752685546875,2.4563405513763428,4.836075718491831,-0.6162827610969543,0.03958076983690262,-1.6035340468036097,-0.0,0.01574518345296383,0.8730988502502441,0.0,-0.00553625263273716,0.7983701229095459,0.0,-0.07950714230537415
732.0,863.0,1.5248,-0.0341,9.3356,-0.0666,-0.4013,-0.1225,-1.7099129162230433,-0.05487044155597687,2.453587532043457,-1.8216723203659058,0.38073232769966125,2.5348918437957764,4.831116120308199,-0.609244167804718,0.028689369559288025,-1.603537384663717,-0.0,0.00852357130497694,0.8730469346046448,0.0,-0.0001673621591180563,0.7984182238578796,0.0,-0.0630856603384018
838.0,861.0,1.855,0.0676,9.1543,-0.0519,-0.2947,-0.1248,-1.7104670010008753,-0.060771673917770386,2.448410749435425,-1.81785249710083,0.3812306225299835,2.464803457260132,4.825014735549249,-0.6010963320732117,0.033958468586206436,-1.6035617033587855,-0.0,0.01874345913529396,0.8730549216270447,0.0,-0.006753114052116871,0.7983981966972351,0.0,-0.10823414474725723
838.0,861.0,1.855,0.0676,9.1543,-0.0519,-0.2947,-0.1248,-1.7111154995360316,-0.06492093205451965,2.4893860816955566,-1.8140543699264526,0.3712509870529175,2.502669334411621,4.81911231109456,-0.5983617305755615,0.048854827880859375,-1.603513542805807,-0.0,0.02167963981628418,0.8730508089065552,0.0,-0.01170016173273325,0.7983660697937012,0.0,-0.09668412059545517
838.0,861.0,1.855,0.0676,9.1543,-0.0519,-0.2947,-0.1248,-1.7118030987181605,-0.0704450011253357,2.4808249473571777,-1.8103328943252563,0.3705216944217682,2.50797963142395,4.813242803304949,-0.5917037129402161,0.04004582762718201,-1.6035297552691858,-0.0,0.005977669730782509,0.8729546666145325,0.0,0.00024616927839815617,0.7983900308609009,0.0,-0.04584209620952606
838.0,861.0,1.855,0.0676,9.1543,-0.0519,-0.2947,-0.1248,-1.712473531762594,-0.06901408731937408,2.519624710083008,-1.8067082166671753,0.36365440487861633,2.503194570541382,4.807304824679651,-0.5922350883483887,0.020438116043806076,-1.6035497824298304,-0.0,0.016882464289665222,0.8730226755142212,0.0,-0.017163218930363655,0.7983580827713013,0.0,-0.06939531117677689
838.0,861.0,1.855,0.0676,9.1543,-0.0519,-0.2947,-0.1248,-1.713175436059469,-0.06062518060207367,2.490255355834961,-1.8030381202697754,0.3574467599391937,2.4567642211914062,4.801446775882997,-0.5792860388755798,0.0351233072578907,-1.6035216490374964,-0.0,0.02555154636502266,0.8730348348617554,0.0,-0.0030006926972419024,0.7983376383781433,0.0,-0.10087893903255463
838.0,861.0,1.855,0.0676,9.1543,-0.0519,-0.2947,-0.1248,-1.7136560879149378,-0.05877770110964775,2.490952730178833,-1.8001865148544312,0.35659173130989075,2.4525668621063232,4.796709503024378,-0.5766292810440063,0.031979963183403015,-1.6035779158221644,-0.0,0.021693740040063858,0.8729468584060669,0.0,-0.011776708997786045,0.7984259128570557,0.0,-0.04444558918476105
838.0,861.0,1.855,0.0676,9.1543,-0.0519,-0.2947,-0.1248,-1.714308877984518,-0.06514648348093033,2.5094146728515625,-1.7967454195022583,0.3512134253978729,2.4649765491485596,4.790957103460588,-0.5657652020454407,0.03789936751127243,-1.603525463734762,-0.0,0.01704433560371399,0.8730155229568481,0.0,-0.008258748799562454,0.7983940839767456,0.0,-0.04787752777338028
838.0,861.0,1.855,0.0676,9.1543,-0.0519,-0.2947,-0.1248,-1.714973588983053,-0.0732170045375824,2.5190916061401367,-1.7932442426681519,0.3430699408054352,2.4475107192993164,4.785455192416467,-0.5675670504570007,0.05211073160171509,-1.603497330342428,-0.0,0.011763522401452065,0.8730428218841553,0.0,0.009132065810263157,0.7983701229095459,0.0,-0.07226601988077164
838.0,861.0,1.855,0.0676,9.1543,-0.0519,-0.2947,-0.1248,-1.715726991693014,-0.07952294498682022,2.483652114868164,-1.7898228168487549,0.35056865215301514,2.488868236541748,4.780021312623777,-0.552399754524231,0.03013097122311592,-1.6035574118243616,-0.0,0.013953447341918945,0.8730828762054443,0.0,-0.009559891186654568,0.7983582019805908,0.0,-0.0030272165313363075
838.0,861.0,1.855,0.0676,9.1543,-0.0519,-0.2947,-0.1248,-1.716579099694723,-0.08766425400972366,2.4669902324676514,-1.786320447921753,0.3552277386188507,2.4646358489990234,4.774467213987865,-0.5408253073692322,0.04696754366159439,-1.6035178343402308,-0.0,0.015236868523061275,0.873022735118866,0.0,0.004289128351956606,0.7983779311180115,0.0,-0.09445346891880035
780.0,830.0,1.7952,-0.1693,8.796,-0.0732,-0.2706,-0.1194,-1.7175704441466273,-0.0931931585073471,2.560576915740967,-1.782800316810608,0.3506086766719818,2.5131523609161377,4.769089496671715,-0.5326386094093323,0.037675000727176666,-1.60358173051943,-0.0,0.01263717282563448,0.8730508089065552,0.0,0.0032682556193321943,0.79839026927948,0.0,-0.06243449077010155
780.0,830.0,1.7952,-0.1693,8.796,-0.0732,-0.2706,-0.1194,-1.7185660801329554,-0.09301870316267014,2.502971649169922,-1.7792328596115112,0.34983378648757935,2.4813852310180664,4.76373544985012,-0.5233481526374817,0.06275786459445953,-1.603513542805807,-0.0,0.010947246104478836,0.8730472922325134,0.0,0.0021255542524158955,0.7983335852622986,0.0,-0.05041777342557907
780.0,830.0,1.7952,-0.1693,8.796,-0.0732,-0.2706,-0.1194,-1.7193881473936976,-0.09508277475833893,2.5143778324127197,-1.7764766216278076,0.3415225148200989,2.522108554840088,4.759593154280939,-0.5179372429847717,0.03628162667155266,-1.6035178343402308,-0.0,0.012488839216530323,0.8730073571205139,0.0,-0.0013007004745304585,0.7983701229095459,0.0,-0.04745323210954666
