ramyac6/ROB537/final_project/csv/all/good_180.csv
tof_0,tof_1,accelx,accely,accelz,gyrox,gyroy,gyroz,shoulder_lift_joint_position,shoulder_lift_joint_velocity,shoulder_lift_joint_effort,elbow_joint_position,elbow_joint_velocity,elbow_joint_effort,wrist_1_joint_position,wrist_1_joint_velocity,wrist_1_joint_effort,wrist_2_joint_position,wrist_2_joint_velocity,wrist_2_joint_effort,wrist_3_joint_position,wrist_3_joint_velocity,wrist_3_joint_effort,shoulder_pan_joint_position,shoulder_pan_joint_velocity,shoulder_pan_joint_effort
780.0,883.0,2.2522,0.6191,9.265,-0.0426,0.0228,-0.1229,-1.7753468952574671,0.0,2.9995479583740234,-1.7081570625305176,-0.0,2.1104896068573,4.711016817683838,-0.0,0.3027172088623047,-1.6521781126605433,-0.0,-0.005677168257534504,0.7880915999412537,0.0,-0.009419562295079231,0.784867525100708,0.0,-0.021937284618616104
780.0,883.0,2.2522,0.6191,9.265,-0.0426,0.0228,-0.1229,-1.7753063640990199,0.0,2.9400763511657715,-1.7081607580184937,-0.0,2.068925380706787,4.711049242610596,-0.0,0.2914278507232666,-1.6521742979632776,-0.0,-0.0010895924642682076,0.7880997657775879,0.0,-0.014544586651027203,0.7848715782165527,0.0,0.05099356919527054
780.0,883.0,2.2522,0.6191,9.265,-0.0426,0.0228,-0.1229,-1.7753025494017542,0.0,2.9698140621185303,-1.708156704902649,-0.0,2.073378086090088,4.7109972673603515,-0.0,0.3022382855415344,-1.6521747748004358,-0.0,-0.0020071216858923435,0.7880916595458984,0.0,-0.012529623694717884,0.7848834991455078,0.0,-0.0011043385602533817
780.0,883.0,2.2522,0.6191,9.265,-0.0426,0.0228,-0.1229,-1.7752858601012171,0.0,2.954946279525757,-1.7081692218780518,-0.0,2.117990732192993,4.710972471828125,-0.0,0.298597127199173,-1.6521661917315882,-0.0,-0.0014509251341223717,0.7881357669830322,0.0,-0.01572907529771328,0.7849038243293762,0.0,0.00671073142439127
780.0,883.0,2.2522,0.6191,9.265,-0.0426,0.0228,-0.1229,-1.7752982578673304,0.0,2.974201202392578,-1.708165168762207,-0.0,2.067430257797241,4.711001558894775,-0.0,0.2931995093822479,-1.652182404194967,-0.0,0.005493884440511465,0.7880997657775879,0.0,0.0015097869327291846,0.7849158048629761,0.0,0.00892086885869503
780.0,883.0,2.2522,0.6191,9.265,-0.0426,0.0228,-0.1229,-1.7753263912596644,0.0,2.972973346710205,-1.7081291675567627,-0.0,2.143110990524292,4.711033506984375,-0.0,0.289643794298172,-1.6521418730365198,-0.0,0.006855557672679424,0.7880759239196777,0.0,-0.003699809079989791,0.7849158048629761,0.0,-0.018664473667740822
780.0,883.0,2.2522,0.6191,9.265,-0.0426,0.0228,-0.1229,-1.7752858601012171,0.0,2.9721460342407227,-1.708165168762207,-0.0,2.1322333812713623,4.710984869594238,-0.0,0.30165424942970276,-1.6521747748004358,-0.0,-0.0027568440418690443,0.7880717515945435,0.0,-0.003600885858759284,0.7848875522613525,0.0,0.013085903599858284
780.0,883.0,2.2522,0.6191,9.265,-0.0426,0.0228,-0.1229,-1.7752939663329066,0.0,2.965968132019043,-1.7081292867660522,-0.0,2.078455686569214,4.711029215449951,-0.0,0.2952122092247009,-1.6521499792682093,-0.0,-0.0008851747261360288,0.7881520986557007,0.0,-0.011491968296468258,0.7849158048629761,0.0,-0.016526490449905396
777.0,888.0,2.2732,0.7083,9.216,-0.0341,0.0218,-0.1222,-1.7752982578673304,0.0,2.967857837677002,-1.7080888748168945,-0.0,2.0917577743530273,4.710992975825928,-0.0,0.29884427785873413,-1.6522100607501429,-0.0,-0.0020928974263370037,0.7880637049674988,0.0,-0.0024284229148179293,0.784891664981842,0.0,-0.01979309320449829
777.0,888.0,2.2732,0.7083,9.216,-0.0341,0.0218,-0.1222,-1.7753263912596644,0.0,2.9582505226135254,-1.7081208229064941,-0.0,2.0855765342712402,4.7109972673603515,-0.0,0.3019729256629944,-1.652198616658346,-0.0,0.0012642067158594728,0.7880957126617432,0.0,-0.013698887079954147,0.784895658493042,0.0,0.0026847640983760357
777.0,888.0,2.2732,0.7083,9.216,-0.0341,0.0218,-0.1222,-1.7753025494017542,0.0,2.998234272003174,-1.7081611156463623,-0.0,2.1004743576049805,4.710972471828125,-0.0,0.29531407356262207,-1.652182404194967,-0.0,-0.009137023240327835,0.7881157398223877,0.0,-0.011660517193377018,0.7848793268203735,0.0,-0.014853285625576973
777.0,888.0,2.2732,0.7083,9.216,-0.0341,0.0218,-0.1222,-1.7753263912596644,0.0,2.929755210876465,-1.7081013917922974,-0.0,2.1029484272003174,4.711008711452148,-0.0,0.2989552319049835,-1.6522062460528772,-0.0,-0.006012864876538515,0.7880799770355225,0.0,-0.0013849542010575533,0.784895658493042,0.0,0.07825268805027008
777.0,888.0,2.2732,0.7083,9.216,-0.0341,0.0218,-0.1222,-1.7752777538695277,0.0,2.9637765884399414,-1.708117127418518,-0.0,2.098893404006958,4.711033506984375,-0.0,0.2900691628456116,-1.652198616658346,-0.0,-0.008098702877759933,0.7880599498748779,0.0,0.0029430072754621506,0.7848711609840393,0.0,-0.016338180750608444
777.0,888.0,2.2732,0.7083,9.216,-0.0341,0.0218,-0.1222,-1.7752734623351039,0.0,2.9355998039245605,-1.7081526517868042,-0.0,2.0718724727630615,4.711013002986572,-0.0,0.29708045721054077,-1.6522224585162562,-0.0,0.0052299052476882935,0.7881239056587219,0.0,-0.007113739848136902,0.784867525100708,0.0,-0.011411478742957115
777.0,888.0,2.2732,0.7083,9.216,-0.0341,0.0218,-0.1222,-1.7752615414061488,0.0,2.9338996410369873,-1.7081365585327148,-0.0,2.076082229614258,4.711008711452148,-0.0,0.2942344546318054,-1.652182404194967,-0.0,-0.003338221926242113,0.7881037592887878,0.0,-0.0016555722104385495,0.7848997712135315,0.0,-0.011328465305268764
777.0,888.0,2.2732,0.7083,9.216,-0.0341,0.0218,-0.1222,-1.7752615414061488,0.0,2.9771320819854736,-1.7081128358840942,-0.0,2.1316399574279785,4.710961027736328,-0.0,0.28887224197387695,-1.6521781126605433,-0.0,0.00641208840534091,0.7880922555923462,0.0,-0.01700947806239128,0.784919798374176,0.0,0.03059040755033493
777.0,888.0,2.2732,0.7083,9.216,-0.0341,0.0218,-0.1222,-1.7753144703307093,0.0,2.9877936840057373,-1.708125114440918,-0.0,2.1112582683563232,4.710980578059814,-0.0,0.29463809728622437,-1.6521943251239222,-0.0,0.0016864545177668333,0.7880357503890991,0.0,0.010757718235254288,0.7848834991455078,0.0,0.03658692166209221
777.0,888.0,2.2732,0.7083,9.216,-0.0341,0.0218,-0.1222,-1.7752939663329066,0.0,2.9724373817443848,-1.7081372737884521,-0.0,2.090796709060669,4.710952921504639,-0.0,0.2998359799385071,-1.6521905104266565,-0.0,0.0015219188062474132,0.7881197333335876,0.0,0.0016183245461434126,0.7849116921424866,0.0,-0.02854147180914879
777.0,888.0,2.2732,0.7083,9.216,-0.0341,0.0218,-0.1222,-1.775318285027975,0.0,2.983841896057129,-1.708148717880249,-0.0,2.0974717140197754,4.711016817683838,-0.0,0.30438047647476196,-1.6521385351764124,-0.0,-0.00356686906889081,0.7881399393081665,0.0,-0.02034997195005417,0.784928023815155,0.0,0.028118759393692017
777.0,888.0,2.2732,0.7083,9.216,-0.0341,0.0218,-0.1222,-1.7752982578673304,0.0,2.947873592376709,-1.7081128358840942,-0.0,2.106570243835449,4.710976763362549,-0.0,0.3055879473686218,-1.6521742979632776,-0.0,-0.014071710407733917,0.7881439924240112,0.0,-0.0016960089560598135,0.7848834991455078,0.0,-0.00034663788392208517
777.0,888.0,2.2732,0.7083,9.216,-0.0341,0.0218,-0.1222,-1.7753063640990199,0.0,2.9626002311706543,-1.7080973386764526,-0.0,2.039538621902466,4.711004419917725,-0.0,0.28842610120773315,-1.652182404194967,-0.0,-0.008260076865553856,0.7881320714950562,0.0,-0.0016817465657368302,0.7849034667015076,0.0,0.06439636647701263
777.0,888.0,2.2732,0.7083,9.216,-0.0341,0.0218,-0.1222,-1.7752453289427699,0.0,2.96144962310791,-1.7081372737884521,-0.0,2.078195810317993,4.711001558894775,-0.0,0.2887805104255676,-1.6522143522845667,-0.0,-0.0032583242282271385,0.7880677580833435,0.0,-0.012724674306809902,0.7848715782165527,0.0,-0.012736590579152107
777.0,888.0,2.2732,0.7083,9.216,-0.0341,0.0218,-0.1222,-1.7752939663329066,0.0,2.968416929244995,-1.7081412076950073,-0.0,2.1107425689697266,4.711029215449951,-0.0,0.29374372959136963,-1.6522100607501429,-0.0,-0.0013042448554188013,0.7880922555923462,0.0,-0.0008346856920979917,0.7848593592643738,0.0,0.016538910567760468
777.0,888.0,2.2732,0.7083,9.216,-0.0341,0.0218,-0.1222,-1.77533020595693,0.0,2.9561097621917725,-1.708156704902649,-0.0,2.0699989795684814,4.710989161128662,-0.0,0.2972647249698639,-1.652182404194967,-0.0,0.0049683526158332825,0.7881117463111877,0.0,0.005852800328284502,0.7849038243293762,0.0,-0.0036774238105863333
771.0,895.0,2.2756,0.6568,9.1149,-0.0396,0.024,-0.1219,-1.7752734623351039,0.0,2.988358497619629,-1.7081372737884521,-0.0,2.098548650741577,4.7109972673603515,-0.0,0.2954818606376648,-1.6521623770343226,-0.0,0.011035616509616375,0.7880922555923462,0.0,-0.0043940190225839615,0.784867525100708,0.0,0.02962886169552803
771.0,895.0,2.2756,0.6568,9.1149,-0.0396,0.024,-0.1219,-1.7753025494017542,0.0,2.9458351135253906,-1.708117127418518,-0.0,2.1466355323791504,4.710980578059814,-0.0,0.28613051772117615,-1.6521905104266565,-0.0,-0.00044458103366196156,0.788084089756012,0.0,-3.607664257287979e-05,0.7848716378211975,0.0,0.033510301262140274
771.0,895.0,2.2756,0.6568,9.1149,-0.0396,0.024,-0.1219,-1.7753263912596644,0.0,2.9876670837402344,-1.708165168762207,-0.0,2.0630359649658203,4.71106926977124,-0.0,0.2969057559967041,-1.6521623770343226,-0.0,-0.011430157348513603,0.7881197333335876,0.0,-0.0044167181476950645,0.7849158048629761,0.0,0.020147964358329773
771.0,895.0,2.2756,0.6568,9.1149,-0.0396,0.024,-0.1219,-1.7752539120116175,0.0,2.951152801513672,-1.7080365419387817,-0.0,2.0935535430908203,4.711004419917725,-0.0,0.2866852283477783,-1.6522143522845667,-0.0,0.0015357178635895252,0.788084089756012,0.0,-0.010654864832758904,0.7849198579788208,0.0,0.03377189487218857
771.0,895.0,2.2756,0.6568,9.1149,-0.0396,0.024,-0.1219,-1.7752658329405726,0.0,2.9658331871032715,-1.7081570625305176,-0.0,2.0778679847717285,4.711004419917725,-0.0,0.2931176424026489,-1.6521742979632776,-0.0,-0.006458263844251633,0.7881640791893005,0.0,0.011928210966289043,0.7848834991455078,0.0,-0.008654626086354256
771.0,895.0,2.2756,0.6568,9.1149,-0.0396,0.024,-0.1219,-1.7752615414061488,0.0,2.9606494903564453,-1.7081692218780518,-0.0,2.0786962509155273,4.711033506984375,-0.0,0.2875934839248657,-1.652186695729391,-0.0,-0.004745477810502052,0.7880717515945435,0.0,-0.0055440692231059074,0.7848875522613525,0.0,-0.008974246680736542
771.0,895.0,2.2756,0.6568,9.1149,-0.0396,0.024,-0.1219,-1.775318285027975,0.0,2.9951040744781494,-1.70810866355896,-0.0,2.0585813522338867,4.711029215449951,-0.0,0.30234968662261963,-1.652153793965475,-0.0,0.0031702604610472918,0.7880677580833435,0.0,-0.007862996309995651,0.7848712205886841,0.0,-0.011450322344899178
771.0,895.0,2.2756,0.6568,9.1149,-0.0396,0.024,-0.1219,-1.7752496204771937,0.0,2.9757838249206543,-1.7081406116485596,-0.0,2.1370742321014404,4.711037321681641,-0.0,0.2857738137245178,-1.6521623770343226,-0.0,0.008912956342101097,0.7880922555923462,0.0,0.009570002555847168,0.784891664981842,0.0,-0.0494299978017807
771.0,895.0,2.2756,0.6568,9.1149,-0.0396,0.024,-0.1219,-1.7752777538695277,0.0,2.9912376403808594,-1.7081291675567627,-0.0,2.070377826690674,4.710992975825928,-0.0,0.29602453112602234,-1.6521499792682093,-0.0,-0.011400781571865082,0.7881684899330139,0.0,-0.010787099599838257,0.7849075794219971,0.0,-0.02706586755812168
771.0,895.0,2.2756,0.6568,9.1149,-0.0396,0.024,-0.1219,-1.7752858601012171,0.0,2.989530324935913,-1.7081365585327148,-0.0,2.1095733642578125,4.711021109218262,-0.0,0.30777445435523987,-1.6521943251239222,-0.0,0.010365825146436691,0.788111686706543,0.0,-0.0024522494059056044,0.784891664981842,0.0,-0.056021831929683685
771.0,895.0,2.2756,0.6568,9.1149,-0.0396,0.024,-0.1219,-1.7752615414061488,0.0,2.9622316360473633,-1.7081570625305176,-0.0,2.1234629154205322,4.711049242610596,-0.0,0.2992982268333435,-1.6522463003741663,-0.0,-0.01609094999730587,0.7881117463111877,0.0,0.010957949794828892,0.784895658493042,0.0,0.0445810928940773
771.0,895.0,2.2756,0.6568,9.1149,-0.0396,0.024,-0.1219,-1.7752419910826625,0.0,2.9340925216674805,-1.7081570625305176,-0.0,2.0814368724823,4.7110254007526855,-0.0,0.2860100269317627,-1.6522024313556116,-0.0,0.01761888712644577,0.7880997657775879,0.0,-0.0001775792334228754,0.7849075794219971,0.0,-0.007491074502468109
771.0,895.0,2.2756,0.6568,9.1149,-0.0396,0.024,-0.1219,-1.7753149471678675,0.0,2.981809616088867,-1.7081128358840942,-0.0,2.0728368759155273,4.711049242610596,-0.0,0.28413939476013184,-1.6521747748004358,-0.0,0.01110287569463253,0.7881277203559875,0.0,-0.005619200412184,0.7849319577217102,0.0,0.02607785165309906
771.0,895.0,2.2756,0.6568,9.1149,-0.0396,0.024,-0.1219,-1.7752858601012171,0.0,2.982431173324585,-1.7081811428070068,-0.0,2.10892915725708,4.710972471828125,-0.0,0.299869179725647,-1.6522143522845667,-0.0,-0.010830476880073547,0.7880997657775879,0.0,-0.0065945591777563095,0.78494793176651,0.0,-0.029042739421129227
771.0,895.0,2.2756,0.6568,9.1149,-0.0396,0.024,-0.1219,-1.775233884850973,0.0,2.9529213905334473,-1.7081446647644043,-0.0,2.0652668476104736,4.711029215449951,-0.0,0.29534417390823364,-1.6521623770343226,-0.0,0.0010411564726382494,0.7881360650062561,0.0,-0.016597144305706024,0.7849038243293762,0.0,0.017321251332759857
771.0,895.0,2.2756,0.6568,9.1149,-0.0396,0.024,-0.1219,-1.7752539120116175,0.0,2.9346654415130615,-1.7081446647644043,-0.0,2.0331828594207764,4.711001558894775,-0.0,0.2890836000442505,-1.652170483266012,-0.0,-0.003873145207762718,0.7881276607513428,0.0,-0.009922435507178307,0.7849075794219971,0.0,0.03538580983877182
785.0,863.0,2.251,0.7077,9.1107,-0.0296,0.0214,-0.117,-1.7753268680968226,0.0,2.9853105545043945,-1.7081406116485596,-0.0,2.065190553665161,4.711029215449951,-0.0,0.3013412654399872,-1.652170483266012,-0.0,0.007199236191809177,0.7880354523658752,0.0,-0.003953970968723297,0.7849116921424866,0.0,-0.009172686375677586
785.0,863.0,2.251,0.7077,9.1107,-0.0296,0.0214,-0.117,-1.7752858601012171,0.0,2.9609622955322266,-1.7081446647644043,-0.0,2.1205759048461914,4.7110254007526855,-0.0,0.2999396026134491,-1.652153793965475,-0.0,-0.01531274151057005,0.7880916595458984,0.0,-0.009675320237874985,0.7848875522613525,0.0,-0.0215301550924778
785.0,863.0,2.251,0.7077,9.1107,-0.0296,0.0214,-0.117,-1.7753106556334437,0.0,2.96305513381958,-1.7081332206726074,-0.0,2.086082696914673,4.711013002986572,-0.0,0.29082444310188293,-1.6522100607501429,-0.0,0.01637190580368042,0.7880678176879883,0.0,0.011177178472280502,0.7848834991455078,0.0,-0.019165489822626114
785.0,863.0,2.251,0.7077,9.1107,-0.0296,0.0214,-0.117,-1.7753025494017542,0.0,2.9327147006988525,-1.7081412076950073,-0.0,2.124903678894043,4.710972471828125,-0.0,0.2993334233760834,-1.6522024313556116,-0.0,0.009237946942448616,0.7881078720092773,0.0,0.0017091286135837436,0.7849319577217102,0.0,0.006842815317213535
785.0,863.0,2.251,0.7077,9.1107,-0.0296,0.0214,-0.117,-1.7752300701537074,0.0,2.9547243118286133,-1.7081611156463623,-0.0,2.0733656883239746,4.7109972673603515,-0.0,0.2989358901977539,-1.6521943251239222,-0.0,-0.010004004463553429,0.7881279587745667,0.0,-0.013145223259925842,0.784867525100708,0.0,0.0187552347779274
785.0,863.0,2.251,0.7077,9.1107,-0.0296,0.0214,-0.117,-1.7752982578673304,0.0,2.9702606201171875,-1.708165168762207,-0.0,2.099487543106079,4.710976763362549,-0.0,0.28775328397750854,-1.652170483266012,-0.0,-0.011697939597070217,0.7881119847297668,0.0,0.008523198775947094,0.7848834991455078,0.0,0.002659435383975506
785.0,863.0,2.251,0.7077,9.1107,-0.0296,0.0214,-0.117,-1.7752982578673304,0.0,2.982844829559326,-1.7081291675567627,-0.0,2.0857951641082764,4.711013002986572,-0.0,0.29626554250717163,-1.6521905104266565,-0.0,0.010712365619838238,0.788111686706543,0.0,-0.016358662396669388,0.784859299659729,0.0,-0.05852693319320679
785.0,863.0,2.251,0.7077,9.1107,-0.0296,0.0214,-0.117,-1.775262018243307,0.0,2.948240280151367,-1.708165168762207,-0.0,2.1135783195495605,4.711016817683838,-0.0,0.3103480935096741,-1.6521742979632776,-0.0,0.006348996423184872,0.7880800366401672,0.0,0.004248636309057474,0.7848997712135315,0.0,0.014355783350765705
785.0,863.0,2.251,0.7077,9.1107,-0.0296,0.0214,-0.117,-1.7753106556334437,0.0,2.962313413619995,-1.7081446647644043,-0.0,2.0860390663146973,4.710976763362549,-0.0,0.294310986995697,-1.652153793965475,-0.0,-0.001045353477820754,0.7880759239196777,0.0,0.017390241846442223,0.784859299659729,0.0,0.030498243868350983
785.0,863.0,2.251,0.7077,9.1107,-0.0296,0.0214,-0.117,-1.7752539120116175,0.0,2.9660210609436035,-1.7081891298294067,-0.0,2.0732104778289795,4.711001558894775,-0.0,0.2964327931404114,-1.652182404194967,-0.0,0.0010790829546749592,0.7880678176879883,0.0,0.002449705032631755,0.7849075794219971,0.0,-0.014062713831663132
785.0,863.0,2.251,0.7077,9.1107,-0.0296,0.0214,-0.117,-1.7752696476378382,0.0,2.9403226375579834,-1.7081372737884521,-0.0,2.1086177825927734,4.711041136378906,-0.0,0.3032451272010803,-1.652198616658346,-0.0,-0.0027197531890124083,0.7880717515945435,0.0,-0.010028447955846786,0.784960150718689,0.0,-0.001765294000506401
785.0,863.0,2.251,0.7077,9.1107,-0.0296,0.0214,-0.117,-1.7752815685667933,0.0,2.9379355907440186,-1.7081692218780518,-0.0,2.053140640258789,4.710989161128662,-0.0,0.29651790857315063,-1.6521742979632776,-0.0,0.0014881172683089972,0.788051426410675,0.0,-0.011498839594423771,0.7849239110946655,0.0,0.03019675612449646
785.0,863.0,2.251,0.7077,9.1107,-0.0296,0.0214,-0.117,-1.775290151635641,0.0,2.959456443786621,-1.7081365585327148,-0.0,2.0812644958496094,4.710984869594238,-0.0,0.2985241413116455,-1.6521623770343226,-0.0,0.0056235454976558685,0.7881398797035217,0.0,-0.0059144990518689156,0.7848752737045288,0.0,-0.009781518019735813
785.0,863.0,2.251,0.7077,9.1107,-0.0296,0.0214,-0.117,-1.7752939663329066,0.0,2.974728584289551,-1.7081210613250732,-0.0,2.0957107543945312,4.710972471828125,-0.0,0.2759438455104828,-1.6521623770343226,-0.0,-0.00373266264796257,0.7880997657775879,0.0,-0.0008096885867416859,0.784895658493042,0.0,-0.03242526203393936
785.0,863.0,2.251,0.7077,9.1107,-0.0296,0.0214,-0.117,-1.7753063640990199,0.0,2.9778757095336914,-1.7081332206726074,-0.0,2.08780574798584,4.711041136378906,-0.0,0.30442893505096436,-1.652182404194967,-0.0,0.007716605439782143,0.7880799770355225,0.0,-0.003914973698556423,0.784895658493042,0.0,0.03805647790431976
747.0,868.0,2.2528,0.6317,9.2255,-0.0316,0.026,-0.1199,-1.7753063640990199,0.0,3.0020999908447266,-1.70810067653656,-0.0,2.110649347305298,4.710984869594238,-0.0,0.29880207777023315,-1.6521661917315882,-0.0,0.002109337830916047,0.7880997657775879,0.0,0.0010646115988492966,0.7848470211029053,0.0,0.018327496945858
747.0,868.0,2.2528,0.6317,9.2255,-0.0316,0.026,-0.1199,-1.775290151635641,0.0,2.9827680587768555,-1.7081527709960938,-0.0,2.1063976287841797,4.7109572130390625,-0.0,0.2932250499725342,-1.6521456877337855,-0.0,-0.0024278273340314627,0.788084089756012,0.0,-0.009091347455978394,0.7848633527755737,0.0,-0.009259241633117199
747.0,868.0,2.2528,0.6317,9.2255,-0.0316,0.026,-0.1199,-1.7752577267088832,0.0,2.971367835998535,-1.7081611156463623,-0.0,2.078747272491455,4.711041136378906,-0.0,0.29506951570510864,-1.6521747748004358,-0.0,-0.005563688464462757,0.7881197333335876,0.0,-0.011596753261983395,0.7848957180976868,0.0,-0.042246345430612564
747.0,868.0,2.2528,0.6317,9.2255,-0.0316,0.026,-0.1199,-1.7752815685667933,0.0,2.9643211364746094,-1.708125114440918,-0.0,2.1081576347351074,4.711008711452148,-0.0,0.2941851019859314,-1.6521418730365198,-0.0,-0.0033644200302660465,0.7881157398223877,0.0,-0.001159456791356206,0.7849116325378418,0.0,-0.018433693796396255
747.0,868.0,2.2528,0.6317,9.2255,-0.0316,0.026,-0.1199,-1.7752539120116175,0.0,2.93662691116333,-1.7081291675567627,-0.0,2.1486525535583496,4.7109972673603515,-0.0,0.29346245527267456,-1.6522143522845667,-0.0,0.0034616529010236263,0.7881720662117004,0.0,-0.009475059807300568,0.7849157452583313,0.0,-0.004506539553403854
747.0,868.0,2.2528,0.6317,9.2255,-0.0316,0.026,-0.1199,-1.775318285027975,0.0,2.969453811645508,-1.7081167697906494,-0.0,2.080899715423584,4.711013002986572,-0.0,0.2971436679363251,-1.6521742979632776,-0.0,-0.004681374412029982,0.7880880832672119,0.0,-0.007274775765836239,0.7848997712135315,0.0,0.016250459477305412
747.0,868.0,2.2528,0.6317,9.2255,-0.0316,0.026,-0.1199,-1.7752815685667933,0.0,2.939289093017578,-1.7081365585327148,-0.0,2.0858006477355957,4.710965319270752,-0.0,0.2999841570854187,-1.652154270802633,-0.0,0.013002105988562107,0.7880997657775879,0.0,-0.001304324483498931,0.784903883934021,0.0,-0.006475586444139481
747.0,868.0,2.2528,0.6317,9.2255,-0.0316,0.026,-0.1199,-1.7752982578673304,0.0,2.9452459812164307,-1.708105444908142,-0.0,2.0975875854492188,4.710989161128662,-0.0,0.29893651604652405,-1.6521623770343226,-0.0,-0.0015778322704136372,0.7881276607513428,0.0,-0.005351281724870205,0.7849157452583313,0.0,0.03568321466445923
747.0,868.0,2.2528,0.6317,9.2255,-0.0316,0.026,-0.1199,-1.7753149471678675,0.0,2.965951681137085,-1.708196997642517,-0.0,2.090146541595459,4.711008711452148,-0.0,0.2902517020702362,-1.652198616658346,-0.0,0.0032157660461962223,0.7881519794464111,0.0,-0.004871057346463203,0.7849319577217102,0.0,0.026191145181655884
747.0,868.0,2.2528,0.6317,9.2255,-0.0316,0.026,-0.1199,-1.7752334080138148,0.0,3.000739097595215,-1.7081012725830078,-0.0,2.1233291625976562,4.710973425502441,-0.0,0.29425138235092163,-1.6521781126605433,-0.0,-0.0069251107051968575,0.7881238460540771,0.0,0.0022396056447178125,0.7849116325378418,0.0,0.040219396352767944
747.0,868.0,2.2528,0.6317,9.2255,-0.0316,0.026,-0.1199,-1.7752939663329066,0.0,2.976619243621826,-1.7080973386764526,-0.0,2.1051712036132812,4.711004419917725,-0.0,0.2969285547733307,-1.652170483266012,-0.0,-0.003815780393779278,0.7880997657775879,0.0,-0.0031102681532502174,0.7848595380783081,0.0,-0.0027668271213769913
747.0,868.0,2.2528,0.6317,9.2255,-0.0316,0.026,-0.1199,-1.7752453289427699,0.0,2.9859437942504883,-1.7081291675567627,-0.0,2.09574556350708,4.710989161128662,-0.0,0.29295986890792847,-1.6522343794452112,-0.0,-0.00183798314537853,0.7880997657775879,0.0,-0.0013737742556259036,0.7848793864250183,0.0,0.008982120081782341
747.0,868.0,2.2528,0.6317,9.2255,-0.0316,0.026,-0.1199,-1.7752858601012171,0.0,2.981898307800293,-1.7080973386764526,-0.0,2.088217258453369,4.710981054896973,-0.0,0.2922495901584625,-1.6521661917315882,-0.0,0.0074828253127634525,0.7880957126617432,0.0,0.007552709896117449,0.7849277853965759,0.0,-0.008887169882655144
747.0,868.0,2.2528,0.6317,9.2255,-0.0316,0.026,-0.1199,-1.7753025494017542,0.0,2.930459976196289,-1.708173155784607,-0.0,2.0793323516845703,4.7109972673603515,-0.0,0.3068636357784271,-1.6521781126605433,-0.0,-0.009086736477911472,0.7880834937095642,0.0,-0.002689963672310114,0.7848916053771973,0.0,2.508109901100397e-05
747.0,868.0,2.2528,0.6317,9.2255,-0.0316,0.026,-0.1199,-1.7753063640990199,0.0,2.947226047515869,-1.7081446647644043,-0.0,2.0968120098114014,4.711029215449951,-0.0,0.2888047993183136,-1.652182404194967,-0.0,0.004655136726796627,0.7880759239196777,0.0,-0.007180518936365843,0.7848752737045288,0.0,0.01434010174125433
747.0,868.0,2.2528,0.6317,9.2255,-0.0316,0.026,-0.1199,-1.7753025494017542,0.0,2.9826416969299316,-1.708165168762207,-0.0,2.0875115394592285,4.711021109218262,-0.0,0.3053593635559082,-1.6521661917315882,-0.0,0.0023073821794241667,0.7880558371543884,0.0,-0.01728183962404728,0.7848835587501526,0.0,0.01042361930012703
805.0,848.0,2.187,0.6927,9.1819,-0.0354,0.0255,-0.1202,-1.775273939172262,0.0,2.9692130088806152,-1.7081851959228516,-0.0,2.0454037189483643,4.710980578059814,-0.0,0.2901363968849182,-1.652198616658346,-0.0,-0.003198344260454178,0.788084089756012,0.0,0.0017011795425787568,0.7848834991455078,0.0,-0.03930739313364029
805.0,848.0,2.187,0.6927,9.1819,-0.0354,0.0255,-0.1202,-1.7752858601012171,0.0,2.972541570663452,-1.7081692218780518,-0.0,2.1061441898345947,4.711041136378906,-0.0,0.29960179328918457,-1.6521781126605433,-0.0,0.004645288456231356,0.7880834937095642,0.0,0.005324153229594231,0.7848875522613525,0.0,-0.0263577438890934
805.0,848.0,2.187,0.6927,9.1819,-0.0354,0.0255,-0.1202,-1.7753063640990199,0.0,2.9397802352905273,-1.7081406116485596,-0.0,2.0657877922058105,4.710944338435791,-0.0,0.2843616008758545,-1.652182404194967,-0.0,0.003810375928878784,0.7881197333335876,0.0,0.0004504688549786806,0.7848349213600159,0.0,0.003527407767251134
805.0,848.0,2.187,0.6927,9.1819,-0.0354,0.0255,-0.1202,-1.7752658329405726,0.0,2.999037265777588,-1.7081372737884521,-0.0,2.10481595993042,4.711033506984375,-0.0,0.2910292148590088,-1.6521862188922327,-0.0,-0.008535600267350674,0.7880718111991882,0.0,-0.002556069288402796,0.7848752737045288,0.0,-0.011521562933921814
805.0,848.0,2.187,0.6927,9.1819,-0.0354,0.0255,-0.1202,-1.7752539120116175,0.0,2.954216718673706,-1.708148717880249,-0.0,2.0800838470458984,4.711053057307861,-0.0,0.3031083047389984,-1.6522024313556116,-0.0,-0.0025175116024911404,0.7881357073783875,0.0,0.0049459910951554775,0.7848752737045288,0.0,-0.036487363278865814
805.0,848.0,2.187,0.6927,9.1819,-0.0354,0.0255,-0.1202,-1.7753106556334437,0.0,3.0021910667419434,-1.7081208229064941,-0.0,2.126464366912842,4.711041136378906,-0.0,0.29487374424934387,-1.6522186438189905,-0.0,0.0004564074915833771,0.788111686706543,0.0,-0.0015867296606302261,0.784867525100708,0.0,-0.031317077577114105
805.0,848.0,2.187,0.6927,9.1819,-0.0354,0.0255,-0.1202,-1.775318285027975,0.0,2.9683187007904053,-1.708165168762207,-0.0,2.1413278579711914,4.711016817683838,-0.0,0.28424879908561707,-1.6522262732135218,-0.0,-0.006841213442385197,0.7880477905273438,0.0,0.0026173056103289127,0.7848875522613525,0.0,0.004965256899595261
805.0,848.0,2.187,0.6927,9.1819,-0.0354,0.0255,-0.1202,-1.7752577267088832,0.0,2.9595274925231934,-1.7081931829452515,-0.0,2.061671257019043,4.710980578059814,-0.0,0.29170650243759155,-1.6521781126605433,-0.0,-0.005670090671628714,0.7880997657775879,0.0,0.003292475128546357,0.784903883934021,0.0,-0.013148559257388115
805.0,848.0,2.187,0.6927,9.1819,-0.0354,0.0255,-0.1202,-1.7752982578673304,0.0,2.9581761360168457,-1.7081371545791626,-0.0,2.1003360748291016,4.710976763362549,-0.0,0.30010128021240234,-1.6522100607501429,-0.0,-0.014028550125658512,0.7880678176879883,0.0,0.0012311579193919897,0.7849079966545105,0.0,-0.01811978779733181
805.0,848.0,2.187,0.6927,9.1819,-0.0354,0.0255,-0.1202,-1.775273939172262,0.0,2.9895479679107666,-1.7081446647644043,-0.0,2.107403039932251,4.711037321681641,-0.0,0.299302875995636,-1.6521943251239222,-0.0,0.0006615999154746532,0.788148045539856,0.0,0.005539345555007458,0.7849157452583313,0.0,0.018881306052207947
805.0,848.0,2.187,0.6927,9.1819,-0.0354,0.0255,-0.1202,-1.7753063640990199,0.0,2.917696952819824,-1.7081167697906494,-0.0,2.1007461547851562,4.71101347982373,-0.0,0.2967926263809204,-1.6521700064288538,-0.0,-0.013255326077342033,0.7881276607513428,0.0,0.0013678113464266062,0.7848875522613525,0.0,0.028729375451803207
805.0,848.0,2.187,0.6927,9.1819,-0.0354,0.0255,-0.1202,-1.7752939663329066,0.0,2.9539172649383545,-1.708173155784607,-0.0,2.1011133193969727,4.711029215449951,-0.0,0.293639600276947,-1.6521418730365198,-0.0,-0.0018741032108664513,0.7880678176879883,0.0,-5.107012111693621e-05,0.7848752737045288,0.0,-0.016934450715780258
805.0,848.0,2.187,0.6927,9.1819,-0.0354,0.0255,-0.1202,-1.7753344974913539,0.0,2.912426233291626,-1.7080767154693604,-0.0,2.1137285232543945,4.711037321681641,-0.0,0.2982207238674164,-1.652170483266012,-0.0,-0.0036033126525580883,0.788139820098877,0.0,0.002390035428106785,0.7849239706993103,0.0,0.015206451527774334
805.0,848.0,2.187,0.6927,9.1819,-0.0354,0.0255,-0.1202,-1.7752496204771937,0.0,2.9768550395965576,-1.7081046104431152,-0.0,2.1030986309051514,4.710996313686035,-0.0,0.28176361322402954,-1.652182404194967,-0.0,0.0038744346238672733,0.7881238460540771,0.0,-0.0034847341012209654,0.7848793864250183,0.0,0.009166196919977665
805.0,848.0,2.187,0.6927,9.1819,-0.0354,0.0255,-0.1202,-1.775290151635641,0.0,2.968116521835327,-1.7081127166748047,-0.0,2.071962594985962,4.710972471828125,-0.0,0.29094386100769043,-1.6522305647479456,-0.0,0.004955431912094355,0.7881118655204773,0.0,0.0015448881313204765,0.7848753333091736,0.0,-0.02681613713502884
795.0,887.0,2.275,0.7155,9.0509,-0.0338,0.0257,-0.1281,-1.775318285027975,0.0,2.941281795501709,-1.7081329822540283,-0.0,2.1089587211608887,4.711004419917725,-0.0,0.2908800542354584,-1.652170483266012,-0.0,0.00022862374316900969,0.7881276607513428,0.0,-0.00623738206923008,0.7848837971687317,0.0,-0.008384209126234055
795.0,887.0,2.275,0.7155,9.0509,-0.0338,0.0257,-0.1281,-1.7753149471678675,0.0,3.003697156906128,-1.7081093788146973,-0.0,2.1262946128845215,4.710981054896973,-0.0,0.30079132318496704,-1.6521943251239222,-0.0,0.0032326672226190567,0.7881397604942322,0.0,-0.003768696915358305,0.7849157452583313,0.0,0.017770323902368546
795.0,887.0,2.275,0.7155,9.0509,-0.0338,0.0257,-0.1281,-1.7753058872618617,0.0,2.954287052154541,-1.7080888748168945,-0.0,2.042654514312744,4.710980578059814,-0.0,0.2860107421875,-1.6522024313556116,-0.0,-0.002243529539555311,0.7880957126617432,0.0,-0.0012365159345790744,0.7848793864250183,0.0,0.043234847486019135
795.0,887.0,2.275,0.7155,9.0509,-0.0338,0.0257,-0.1281,-1.7752658329405726,0.0,2.917025089263916,-1.7081208229064941,-0.0,2.0940442085266113,4.711037321681641,-0.0,0.30588793754577637,-1.6521580854998987,-0.0,0.012202281504869461,0.7881317138671875,0.0,0.0010610503377392888,0.7848997712135315,0.0,-0.008302398957312107
795.0,887.0,2.275,0.7155,9.0509,-0.0338,0.0257,-0.1281,-1.7752539120116175,0.0,3.002230167388916,-1.708113431930542,-0.0,2.1458287239074707,4.711037321681641,-0.0,0.2995731234550476,-1.6521661917315882,-0.0,-0.00865376740694046,0.7880997657775879,0.0,0.004369440488517284,0.7848834991455078,0.0,0.043098170310258865
795.0,887.0,2.275,0.7155,9.0509,-0.0338,0.0257,-0.1281,-1.7752415142455042,0.0,2.9713082313537598,-1.7081332206726074,-0.0,2.07401180267334,4.711001558894775,-0.0,0.288936972618103,-1.652182404194967,-0.0,0.0024815192446112633,0.7881317138671875,0.0,0.007002299185842276,0.784895658493042,0.0,0.005733282770961523
795.0,887.0,2.275,0.7155,9.0509,-0.0338,0.0257,-0.1281,-1.7753225765623988,0.0,2.9254391193389893,-1.7081446647644043,-0.0,2.062284469604492,4.711033506984375,-0.0,0.2951972484588623,-1.6522143522845667,-0.0,-0.005324199330061674,0.7880760431289673,0.0,-0.006892653182148933,0.7848834991455078,0.0,-0.016959838569164276
795.0,887.0,2.275,0.7155,9.0509,-0.0338,0.0257,-0.1281,-1.7752658329405726,0.0,2.962007522583008,-1.7081208229064941,-0.0,2.0581254959106445,4.71104542791333,-0.0,0.2979947030544281,-1.652170483266012,-0.0,-0.005920537281781435,0.7880359292030334,0.0,-0.0063604568131268024,0.7848793864250183,0.0,0.022594690322875977
795.0,887.0,2.275,0.7155,9.0509,-0.0338,0.0257,-0.1281,-1.7752577267088832,0.0,3.003542900085449,-1.7081012725830078,-0.0,2.061842918395996,4.711021109218262,-0.0,0.29523253440856934,-1.6521623770343226,-0.0,-0.004788171034306288,0.7880638241767883,0.0,-0.004470166750252247,0.7848874926567078,0.0,-0.013851983472704887
795.0,887.0,2.275,0.7155,9.0509,-0.0338,0.0257,-0.1281,-1.77533020595693,0.0,2.896285057067871,-1.708156704902649,-0.0,2.104783535003662,4.711021109218262,-0.0,0.3000819683074951,-1.6522100607501429,-0.0,-0.006184670142829418,0.7880880832672119,0.0,-0.009031426161527634,0.7848998308181763,0.0,0.0013228208990767598
795.0,887.0,2.275,0.7155,9.0509,-0.0338,0.0257,-0.1281,-1.7753025494017542,0.0,2.9846010208129883,-1.7081527709960938,-0.0,2.1154890060424805,4.7109972673603515,-0.0,0.2995770573616028,-1.6521905104266565,-0.0,0.003926567733287811,0.7881758809089661,0.0,-0.00914099719375372,0.7849478721618652,0.0,-0.02624259889125824
795.0,887.0,2.275,0.7155,9.0509,-0.0338,0.0257,-0.1281,-1.7753025494017542,0.0,2.976271152496338,-1.7081611156463623,-0.0,2.059178590774536,4.711013002986572,-0.0,0.2882886528968811,-1.652198616658346,-0.0,0.0030685632955282927,0.7881035208702087,0.0,-0.0006437998381443322,0.7848715782165527,0.0,0.03361024707555771
795.0,887.0,2.275,0.7155,9.0509,-0.0338,0.0257,-0.1281,-1.7752815685667933,0.0,2.9804370403289795,-1.7082051038742065,-0.0,2.113178253173828,4.711021109218262,-0.0,0.2967323958873749,-1.6521580854998987,-0.0,-0.008886744268238544,0.788111686706543,0.0,-0.007118127308785915,0.7848793268203735,0.0,-0.009522713720798492
795.0,887.0,2.275,0.7155,9.0509,-0.0338,0.0257,-0.1281,-1.7753220997252406,0.0,2.9914674758911133,-1.7081365585327148,-0.0,2.109227418899536,4.711013002986572,-0.0,0.2954064905643463,-1.652186695729391,-0.0,-0.013912470079958439,0.7881438732147217,0.0,-0.002895187120884657,0.7849198579788208,0.0,0.003984910435974598
795.0,887.0,2.275,0.7155,9.0509,-0.0338,0.0257,-0.1281,-1.775290151635641,0.0,2.9667718410491943,-1.7081127166748047,-0.0,2.051767587661743,4.711013002986572,-0.0,0.2978033423423767,-1.652170483266012,-0.0,0.0011057457886636257,0.7880997657775879,0.0,-0.013084463775157928,0.7848793268203735,0.0,-0.01306958869099617
795.0,887.0,2.275,0.7155,9.0509,-0.0338,0.0257,-0.1281,-1.775273939172262,0.0,2.9312007427215576,-1.7081208229064941,-0.0,2.083068370819092,4.711001558894775,-0.0,0.3005638122558594,-1.6522186438189905,-0.0,0.001391217578202486,0.7880997657775879,0.0,-0.0010338822612538934,0.7848793864250183,0.0,-0.025510650128126144
783.0,875.0,2.2427,0.6778,9.1436,-0.0389,0.0283,-0.117,-1.7753063640990199,0.0,2.9818339347839355,-1.7081332206726074,-0.0,2.110015869140625,4.711033506984375,-0.0,0.29669034481048584,-1.652198616658346,-0.0,0.0017164639430120587,0.7880718111991882,0.0,0.001109536737203598,0.7848633527755737,0.0,-0.02850532904267311
783.0,875.0,2.2427,0.6778,9.1436,-0.0389,0.0283,-0.117,-1.7753101787962855,0.0,2.9649720191955566,-1.708165168762207,-0.0,2.0809812545776367,4.711013002986572,-0.0,0.2967948317527771,-1.6522024313556116,-0.0,-0.0067094238474965096,0.7880397439002991,0.0,-0.013919243589043617,0.7848834991455078,0.0,0.039994217455387115
783.0,875.0,2.2427,0.6778,9.1436,-0.0389,0.0283,-0.117,-1.7753426037230433,0.0,2.9609670639038086,-1.7081208229064941,-0.0,2.096421718597412,4.710989161128662,-0.0,0.30278831720352173,-1.6521623770343226,-0.0,0.004861598834395409,0.788123607635498,0.0,-0.007230618502944708,0.7848752737045288,0.0,-4.0028244256973267e-05
783.0,875.0,2.2427,0.6778,9.1436,-0.0389,0.0283,-0.117,-1.7752658329405726,0.0,2.983438491821289,-1.7080973386764526,-0.0,2.0558886528015137,4.711029215449951,-0.0,0.28892776370048523,-1.652153793965475,-0.0,0.009440678171813488,0.7881158590316772,0.0,-0.007525830529630184,0.7849116325378418,0.0,0.016119137406349182
783.0,875.0,2.2427,0.6778,9.1436,-0.0389,0.0283,-0.117,-1.775257249871725,0.0,2.98842191696167,-1.708156704902649,-0.0,2.066223621368408,4.711029215449951,-0.0,0.2982802391052246,-1.652170483266012,-0.0,-0.0014561873394995928,0.7881157398223877,0.0,-0.003987475298345089,0.7848793864250183,0.0,-0.01188279315829277
783.0,875.0,2.2427,0.6778,9.1436,-0.0389,0.0283,-0.117,-1.7752696476378382,0.0,2.984823226928711,-1.7081248760223389,-0.0,2.147029399871826,4.7110254007526855,-0.0,0.2973712980747223,-1.6522143522845667,-0.0,0.00980917178094387,0.7880718111991882,0.0,0.007136244792491198,0.7848834991455078,0.0,0.0033323848620057106
783.0,875.0,2.2427,0.6778,9.1436,-0.0389,0.0283,-0.117,-1.7753101787962855,0.0,2.958165168762207,-1.7081611156463623,-0.0,2.119415283203125,4.710992975825928,-0.0,0.28748756647109985,-1.652182404194967,-0.0,0.0035180349368602037,0.7880997657775879,0.0,-0.009393056854605675,0.7849116325378418,0.0,-0.034045275300741196
783.0,875.0,2.2427,0.6778,9.1436,-0.0389,0.0283,-0.117,-1.7752777538695277,0.0,2.9325826168060303,-1.7081530094146729,-0.0,2.0870087146759033,4.710989161128662,-0.0,0.28184643387794495,-1.6521905104266565,-0.0,0.010585697367787361,0.7881479263305664,0.0,-0.008995561860501766,0.7848957180976868,0.0,-0.03853071480989456
783.0,875.0,2.2427,0.6778,9.1436,-0.0389,0.0283,-0.117,-1.775273939172262,0.0,2.973449230194092,-1.708156704902649,-0.0,2.078291893005371,4.711008711452148,-0.0,0.2951531410217285,-1.652198616658346,-0.0,0.0023096629884094,0.7881639003753662,0.0,-0.004353848285973072,0.7849198579788208,0.0,0.01105512585490942
783.0,875.0,2.2427,0.6778,9.1436,-0.0389,0.0283,-0.117,-1.7752858601012171,0.0,2.963810920715332,-1.708148717880249,-0.0,2.1020734310150146,4.711033506984375,-0.0,0.2903304994106293,-1.652170483266012,-0.0,0.0007133693434298038,0.7881559729576111,0.0,-0.004946014378219843,0.7848793864250183,0.0,-0.024712953716516495
783.0,875.0,2.2427,0.6778,9.1436,-0.0389,0.0283,-0.117,-1.7752539120116175,0.0,2.946542978286743,-1.7080729007720947,-0.0,2.0654704570770264,4.710980578059814,-0.0,0.28914546966552734,-1.652170483266012,-0.0,-0.0003057739231735468,0.7880718111991882,0.0,-0.0017786582466214895,0.784867525100708,0.0,-0.06352914869785309
783.0,875.0,2.2427,0.6778,9.1436,-0.0389,0.0283,-0.117,-1.7752419910826625,0.0,2.9849610328674316,-1.7081248760223389,-0.0,2.0385661125183105,4.711049242610596,-0.0,0.292269766330719,-1.652182404194967,-0.0,0.004509913735091686,0.7880558371543884,0.0,0.005845409817993641,0.7849359512329102,0.0,0.027859890833497047
783.0,875.0,2.2427,0.6778,9.1436,-0.0389,0.0283,-0.117,-1.7752939663329066,0.0,2.9441962242126465,-1.7081208229064941,-0.0,2.060662269592285,4.711004419917725,-0.0,0.29990053176879883,-1.6521742979632776,-0.0,-0.00888616032898426,0.7881078124046326,0.0,0.00699502881616354,0.7848915457725525,0.0,-0.0055083539336919785
783.0,875.0,2.2427,0.6778,9.1436,-0.0389,0.0283,-0.117,-1.7752663097777308,0.0,2.9425787925720215,-1.7081608772277832,-0.0,2.059882402420044,4.711016817683838,-0.0,0.2970081865787506,-1.6522424856769007,-0.0,-0.010291599668562412,0.7881078124046326,0.0,-0.005483323708176613,0.7849198579788208,0.0,-0.007102328352630138
783.0,875.0,2.2427,0.6778,9.1436,-0.0389,0.0283,-0.117,-1.77533020595693,0.0,2.952953577041626,-1.7081332206726074,-0.0,2.074080228805542,4.711013002986572,-0.0,0.3033294677734375,-1.652153793965475,-0.0,0.0055169714614748955,0.7881316542625427,0.0,-0.0012497666757553816,0.7849157452583313,0.0,0.0025947708636522293
783.0,875.0,2.2427,0.6778,9.1436,-0.0389,0.0283,-0.117,-1.7752615414061488,0.0,2.977186918258667,-1.708165168762207,-0.0,2.0961382389068604,4.710984869594238,-0.0,0.29244735836982727,-1.6521499792682093,-0.0,-0.0018102790927514434,0.7880759239196777,0.0,-0.012930069118738174,0.784867525100708,0.0,-0.0008951909840106964
770.0,877.0,2.2738,0.7053,9.1514,-0.0292,0.0211,-0.1271,-1.7753025494017542,0.0,2.974081039428711,-1.7081012725830078,-0.0,2.099827766418457,4.7109972673603515,-0.0,0.29622119665145874,-1.6521781126605433,-0.0,0.006698114797472954,0.7881036996841431,0.0,0.007125434000045061,0.7848835587501526,0.0,-0.0005978364497423172
770.0,877.0,2.2738,0.7053,9.1514,-0.0292,0.0211,-0.1271,-1.7752939663329066,0.0,2.947248935699463,-1.7081692218780518,-0.0,2.043718099594116,4.7110254007526855,-0.0,0.3008120656013489,-1.6521623770343226,-0.0,-0.001409452874213457,0.788080096244812,0.0,-0.007985849864780903,0.784895658493042,0.0,0.016862178221344948
770.0,877.0,2.2738,0.7053,9.1514,-0.0292,0.0211,-0.1271,-1.7752658329405726,0.0,2.9714035987854004,-1.7081527709960938,-0.0,2.080892324447632,4.711013002986572,-0.0,0.2987539768218994,-1.6521742979632776,-0.0,-0.0008953418582677841,0.7881035208702087,0.0,0.0054919784888625145,0.7849237322807312,0.0,-0.03501231595873833
770.0,877.0,2.2738,0.7053,9.1514,-0.0292,0.0211,-0.1271,-1.7752777538695277,0.0,2.9512603282928467,-1.708113431930542,-0.0,2.1223647594451904,4.710972471828125,-0.0,0.2972775399684906,-1.6522343794452112,-0.0,-6.509106606245041e-05,0.7880876660346985,0.0,0.0005706318188458681,0.7848715782165527,0.0,0.00827230978757143
770.0,877.0,2.2738,0.7053,9.1514,-0.0292,0.0211,-0.1271,-1.775290151635641,0.0,2.9547290802001953,-1.7080647945404053,-0.0,2.068779706954956,4.711057348842285,-0.0,0.2953152060508728,-1.6521900335894983,-0.0,0.007164727430790663,0.7881518006324768,0.0,-0.0017219660803675652,0.784883439540863,0.0,0.03007369488477707
770.0,877.0,2.2738,0.7053,9.1514,-0.0292,0.0211,-0.1271,-1.7752696476378382,0.0,2.948259115219116,-1.708193302154541,-0.0,2.05796480178833,4.711008711452148,-0.0,0.29172343015670776,-1.652186695729391,-0.0,-0.00013397051952779293,0.7881042957305908,0.0,-0.0038598778191953897,0.7848432064056396,0.0,0.011744726449251175
770.0,877.0,2.2738,0.7053,9.1514,-0.0292,0.0211,-0.1271,-1.7752696476378382,0.0,2.9527902603149414,-1.7081053256988525,-0.0,2.1030638217926025,4.711008711452148,-0.0,0.2811371088027954,-1.6522067228900355,-0.0,-0.009150943718850613,0.7881519198417664,0.0,-0.004492664709687233,0.784903883934021,0.0,-0.01924525946378708
770.0,877.0,2.2738,0.7053,9.1514,-0.0292,0.0211,-0.1271,-1.7753025494017542,0.0,2.9601690769195557,-1.7081248760223389,-0.0,2.09493088722229,4.711033506984375,-0.0,0.3027234375476837,-1.6521905104266565,-0.0,-0.0003924586344510317,0.7881518006324768,0.0,0.0005402583628892899,0.784903883934021,0.0,0.016316182911396027
770.0,877.0,2.2738,0.7053,9.1514,-0.0292,0.0211,-0.1271,-1.7752615414061488,0.0,2.9672226905822754,-1.7080931663513184,-0.0,2.087874412536621,4.710976763362549,-0.0,0.29981908202171326,-1.6522305647479456,-0.0,0.0022354493848979473,0.788127601146698,0.0,-0.007631657645106316,0.7848916053771973,0.0,-0.010458746924996376
770.0,877.0,2.2738,0.7053,9.1514,-0.0292,0.0211,-0.1271,-1.775290151635641,0.0,2.9868521690368652,-1.7081413269042969,-0.0,2.085395336151123,4.710989161128662,-0.0,0.29416096210479736,-1.6521943251239222,-0.0,0.0034099118784070015,0.7880957722663879,0.0,0.006708293221890926,0.7849478125572205,0.0,0.06851673126220703
770.0,877.0,2.2738,0.7053,9.1514,-0.0292,0.0211,-0.1271,-1.775245805779928,0.0,2.9594945907592773,-1.7080973386764526,-0.0,2.080895185470581,4.711021109218262,-0.0,0.2879237234592438,-1.6521742979632776,-0.0,0.019943099468946457,0.7881156802177429,0.0,-0.004873413592576981,0.784891664981842,0.0,-0.003164859488606453
770.0,877.0,2.2738,0.7053,9.1514,-0.0292,0.0211,-0.1271,-1.7753144703307093,0.0,2.951392650604248,-1.7081447839736938,-0.0,2.1248891353607178,4.711008711452148,-0.0,0.2944295406341553,-1.652198616658346,-0.0,0.00884432066231966,0.7880557775497437,0.0,-0.008608664385974407,0.7848793864250183,0.0,-0.014386709779500961
770.0,877.0,2.2738,0.7053,9.1514,-0.0292,0.0211,-0.1271,-1.7752982578673304,0.0,2.964723825454712,-1.7081289291381836,-0.0,2.099486827850342,4.7109572130390625,-0.0,0.30115246772766113,-1.6521943251239222,-0.0,-0.004876669961959124,0.7880997657775879,0.0,0.0036022872664034367,0.7849034667015076,0.0,0.0024024692829698324
770.0,877.0,2.2738,0.7053,9.1514,-0.0292,0.0211,-0.1271,-1.7752982578673304,0.0,2.975602626800537,-1.7081692218780518,-0.0,2.061403274536133,4.711037321681641,-0.0,0.2938291132450104,-1.6521742979632776,-0.0,-0.006903874687850475,0.7881316542625427,0.0,-0.004719879478216171,0.7848997712135315,0.0,0.031835637986660004
770.0,877.0,2.2738,0.7053,9.1514,-0.0292,0.0211,-0.1271,-1.775290151635641,0.0,2.980055570602417,-1.7081612348556519,-0.0,2.0775818824768066,4.711033506984375,-0.0,0.30871230363845825,-1.6521905104266565,-0.0,0.005680997855961323,0.7880997657775879,0.0,-0.0014382656663656235,0.7849157452583313,0.0,0.01524556428194046
796.0,882.0,2.263,0.7065,9.0413,-0.0367,0.0263,-0.1206,-1.775290151635641,0.0,2.9903323650360107,-1.708148717880249,-0.0,2.1168758869171143,4.710976763362549,-0.0,0.2939009964466095,-1.6522262732135218,-0.0,-0.0029417506884783506,0.7880917191505432,0.0,-0.011446701362729073,0.7849075794219971,0.0,-0.029368989169597626
796.0,882.0,2.263,0.7065,9.0413,-0.0367,0.0263,-0.1206,-1.7752539120116175,0.0,2.9382476806640625,-1.7081612348556519,-0.0,2.095736265182495,4.711033506984375,-0.0,0.28780579566955566,-1.652182404194967,-0.0,-0.002341549377888441,0.7881397008895874,0.0,-0.015565435402095318,0.784919798374176,0.0,0.017218686640262604
796.0,882.0,2.263,0.7065,9.0413,-0.0367,0.0263,-0.1206,-1.7752939663329066,0.0,2.9466352462768555,-1.708148717880249,-0.0,2.138317584991455,4.710980578059814,-0.0,0.2881166338920593,-1.6521661917315882,-0.0,-0.008785850368440151,0.7880995273590088,0.0,0.0043858750723302364,0.7848998308181763,0.0,0.005190740339457989
796.0,882.0,2.263,0.7065,9.0413,-0.0367,0.0263,-0.1206,-1.7752982578673304,0.0,3.0110530853271484,-1.7081127166748047,-0.0,2.1023764610290527,4.710980578059814,-0.0,0.29764091968536377,-1.6521623770343226,-0.0,0.001638664398342371,0.7880880832672119,0.0,-0.0005248778034001589,0.784891664981842,0.0,-0.009442595764994621
796.0,882.0,2.263,0.7065,9.0413,-0.0367,0.0263,-0.1206,-1.7752334080138148,0.0,3.003514528274536,-1.7081571817398071,-0.0,2.048093557357788,4.710989161128662,-0.0,0.30402806401252747,-1.6521385351764124,-0.0,0.0038512242026627064,0.7881436944007874,0.0,0.012419519014656544,0.7848752737045288,0.0,-0.006316629704087973
796.0,882.0,2.263,0.7065,9.0413,-0.0367,0.0263,-0.1206,-1.7753268680968226,0.0,2.97585391998291,-1.7081372737884521,-0.0,2.103339672088623,4.711004419917725,-0.0,0.29979297518730164,-1.6522024313556116,-0.0,-0.017874963581562042,0.7880876064300537,0.0,0.0032445574179291725,0.7848793864250183,0.0,0.048859771341085434
796.0,882.0,2.263,0.7065,9.0413,-0.0367,0.0263,-0.1206,-1.7753063640990199,0.0,3.0012190341949463,-1.708097219467163,-0.0,2.0595297813415527,4.7110535341450195,-0.0,0.29846376180648804,-1.652186695729391,-0.0,-0.005103112664073706,0.7880997657775879,0.0,0.006609941367059946,0.7848513722419739,0.0,-0.021273311227560043
796.0,882.0,2.263,0.7065,9.0413,-0.0367,0.0263,-0.1206,-1.7752658329405726,0.0,2.945434093475342,-1.7080851793289185,-0.0,2.081049919128418,4.7110254007526855,-0.0,0.30221590399742126,-1.652182404194967,-0.0,-0.012904563918709755,0.7881835699081421,0.0,0.006503379438072443,0.784919798374176,0.0,-0.03632339462637901
796.0,882.0,2.263,0.7065,9.0413,-0.0367,0.0263,-0.1206,-1.7752939663329066,0.0,2.9656951427459717,-1.708148717880249,-0.0,2.08109974861145,4.710976763362549,-0.0,0.29939979314804077,-1.6521943251239222,-0.0,0.00781109556555748,0.7880917191505432,0.0,0.0004414741415530443,0.7848633527755737,0.0,0.03743497282266617
796.0,882.0,2.263,0.7065,9.0413,-0.0367,0.0263,-0.1206,-1.7753025494017542,0.0,2.998307704925537,-1.7081127166748047,-0.0,2.104879856109619,4.711016817683838,-0.0,0.2963612377643585,-1.6521261374102991,-0.0,0.006991950329393148,0.7880558967590332,0.0,0.003361692186444998,0.7849075794219971,0.0,-0.04228629171848297
796.0,882.0,2.263,0.7065,9.0413,-0.0367,0.0263,-0.1206,-1.7753144703307093,0.0,2.9502267837524414,-1.7081446647644043,-0.0,2.0684709548950195,4.711008711452148,-0.0,0.2971789836883545,-1.6521862188922327,-0.0,-0.0035816598683595657,0.7880961298942566,0.0,-0.008694465272128582,0.7848793268203735,0.0,-0.028939206153154373
796.0,882.0,2.263,0.7065,9.0413,-0.0367,0.0263,-0.1206,-1.775290151635641,0.0,2.964022159576416,-1.7081413269042969,-0.0,2.1186728477478027,4.710996313686035,-0.0,0.2879641056060791,-1.6522024313556116,-0.0,-0.0008505824953317642,0.788091778755188,0.0,-0.005693378858268261,0.7848998308181763,0.0,0.016619732603430748
796.0,882.0,2.263,0.7065,9.0413,-0.0367,0.0263,-0.1206,-1.775262018243307,0.0,2.938896656036377,-1.7081732749938965,-0.0,2.082944393157959,4.711029215449951,-0.0,0.2990648150444031,-1.6521456877337855,-0.0,-0.00727340392768383,0.7881076335906982,0.0,-0.004755319096148014,0.7849158048629761,0.0,-0.013120490126311779
796.0,882.0,2.263,0.7065,9.0413,-0.0367,0.0263,-0.1206,-1.7752696476378382,0.0,2.9660825729370117,-1.7081012725830078,-0.0,2.0712270736694336,4.7110254007526855,-0.0,0.2981058657169342,-1.6521661917315882,-0.0,0.0011506821028888226,0.7880957722663879,0.0,-0.003372474107891321,0.7848633527755737,0.0,0.00362028437666595
796.0,882.0,2.263,0.7065,9.0413,-0.0367,0.0263,-0.1206,-1.7752577267088832,0.0,2.9786956310272217,-1.7081128358840942,-0.0,2.098761796951294,4.710984869594238,-0.0,0.29669779539108276,-1.6521418730365198,-0.0,-0.006780384574085474,0.788051962852478,0.0,-0.0096932053565979,0.784903883934021,0.0,0.011633167043328285
796.0,882.0,2.263,0.7065,9.0413,-0.0367,0.0263,-0.1206,-1.775290151635641,0.0,2.966494560241699,-1.7081413269042969,-0.0,2.1251115798950195,4.711029215449951,-0.0,0.29591092467308044,-1.652198616658346,-0.0,-0.0012733204057440162,0.7881438732147217,0.0,-0.004322217311710119,0.7849075794219971,0.0,-0.01246681809425354
754.0,896.0,2.1673,0.0999,9.2219,-0.038,0.0315,-0.1251,-1.7752496204771937,0.0,2.9723479747772217,-1.7081127166748047,-0.0,2.075253963470459,4.710976763362549,-0.0,0.3026644289493561,-1.6522143522845667,-0.0,-0.00998637080192566,0.788107693195343,0.0,-0.0025415027048438787,0.7849640250205994,0.0,-0.0019824542105197906
754.0,896.0,2.1673,0.0999,9.2219,-0.038,0.0315,-0.1251,-1.7752982578673304,0.0,2.979499340057373,-1.7081005573272705,-0.0,2.137899398803711,4.711021109218262,-0.0,0.3017587661743164,-1.6521819273578089,-0.0,0.0003116884035989642,0.7881675958633423,0.0,0.00835776049643755,0.784891664981842,0.0,-0.02262982353568077
754.0,896.0,2.1673,0.0999,9.2219,-0.038,0.0315,-0.1251,-1.775290151635641,0.0,2.9745278358459473,-1.7081291675567627,-0.0,2.109222412109375,4.7110254007526855,-0.0,0.3037843108177185,-1.6522019545184534,-0.0,0.00029330264078453183,0.788123607635498,0.0,-0.00808134488761425,0.7849435806274414,0.0,-0.012690557166934013
754.0,896.0,2.1673,0.0999,9.2219,-0.038,0.0315,-0.1251,-1.775273939172262,0.0,2.938638210296631,-1.7081372737884521,-0.0,2.114637851715088,4.711008711452148,-0.0,0.2901357412338257,-1.652250115071432,-0.0,0.007788879796862602,0.7881194949150085,0.0,-0.005192982964217663,0.784963846206665,2.4111236598400865e-06,-0.04097411409020424
754.0,896.0,2.1673,0.0999,9.2219,-0.038,0.0315,-0.1251,-1.7752982578673304,0.0,2.9462904930114746,-1.7081329822540283,-0.0,2.101003885269165,4.711004419917725,-0.0,0.290623277425766,-1.652193848286764,-0.0,0.00047058583004400134,0.7881438732147217,0.0,-0.0014096340164542198,0.7849758863449097,0.0006227432750165462,-0.014459868893027306
754.0,896.0,2.1673,0.0999,9.2219,-0.038,0.0315,-0.1251,-1.7752658329405726,5.983251298857795e-07,2.9625163078308105,-1.7080891132354736,-0.0,2.0546867847442627,4.711053057307861,-0.0,0.30606934428215027,-1.6521661917315882,-0.0,0.0026694308035075665,0.788123607635498,0.0,-0.002489054575562477,0.7849555611610413,0.0010583619587123394,0.04128096625208855
754.0,896.0,2.1673,0.0999,9.2219,-0.038,0.0315,-0.1251,-1.7752820454039515,1.0769640734764607e-10,2.9658613204956055,-1.7081208229064941,-0.0,2.03214955329895,4.711008711452148,-0.0,0.2934286892414093,-1.6522138754474085,-0.0,0.001516849035397172,0.7881035804748535,0.0,-0.006866926793009043,0.7849515080451965,0.0011487915180623531,-0.03453522175550461
754.0,896.0,2.1673,0.0999,9.2219,-0.038,0.0315,-0.1251,-1.7752577267088832,2.6007413432548325e-16,2.966790199279785,-1.708080768585205,-0.0,2.0861496925354004,4.711037321681641,-0.0,0.2986840605735779,-1.6522100607501429,-0.0,0.006015472114086151,0.7880715727806091,0.0,-0.016870394349098206,0.7849758863449097,0.0009154801373369992,-0.03771178796887398
754.0,896.0,2.1673,0.0999,9.2219,-0.038,0.0315,-0.1251,-1.7752701244749964,6.2804839113921525e-22,2.9470596313476562,-1.7081012725830078,-0.0,2.1074037551879883,4.710989161128662,-0.0,0.28984734416007996,-1.6521781126605433,-0.0,-0.004900912754237652,0.7880638837814331,0.0,-0.0015483880415558815,0.7849997282028198,0.000729419756680727,-0.0005835653864778578
754.0,896.0,2.1673,0.0999,9.2219,-0.038,0.0315,-0.1251,-1.7752577267088832,1.5166628015606512e-27,2.987788200378418,-1.708125114440918,-0.0,2.0440688133239746,4.711049242610596,-0.0,0.2898828983306885,-1.6522420088397425,-0.0,-0.011104943230748177,0.7881194949150085,0.0,-0.005295601673424244,0.7850000858306885,0.000559450127184391,0.026818934828042984
754.0,896.0,2.1673,0.0999,9.2219,-0.038,0.0315,-0.1251,-1.7752701244749964,3.662561951937897e-33,2.992061138153076,-1.7080931663513184,-0.0,2.1112875938415527,4.711037321681641,-0.0,0.29384222626686096,-1.6521781126605433,-0.0,-0.0019089817069470882,0.788111686706543,0.0,-0.010052172467112541,0.7849717736244202,0.00045367353595793247,-0.039278287440538406
754.0,896.0,2.1673,0.0999,9.2219,-0.038,0.0315,-0.1251,-1.775273939172262,8.844655391291414e-39,3.006967067718506,-1.708080768585205,-0.0,2.114401340484619,4.7109643655964355,-0.0,0.29849132895469666,-1.6521981398211878,-0.0,0.0017314637079834938,0.7881357669830322,0.0,0.006536245346069336,0.7849032282829285,0.00038154018693603575,0.033460140228271484
754.0,896.0,2.1673,0.0999,9.2219,-0.038,0.0315,-0.1251,-1.7752696476378382,2.1019476964872256e-44,2.999990940093994,-1.7081372737884521,-0.0,2.0255861282348633,4.710992022151611,-0.0,0.29339706897735596,-1.652186695729391,-0.0,0.011389444582164288,0.7881156802177429,0.0,0.005515413358807564,0.7849072813987732,0.000329200440319255,-0.017922470346093178
754.0,896.0,2.1673,0.0999,9.2219,-0.038,0.0315,-0.1251,-1.7753025494017542,0.0,2.9597554206848145,-1.7081453800201416,-0.0,2.1022655963897705,4.710980578059814,-0.0,0.2889794707298279,-1.652193848286764,-0.0,-0.0013169434387236834,0.7880599498748779,0.0,0.00877153780311346,0.7849394679069519,0.0002894899225793779,0.05269051715731621
754.0,896.0,2.1673,0.0999,9.2219,-0.038,0.0315,-0.1251,-1.7752777538695277,0.0,2.970811367034912,-1.7081612348556519,-0.0,2.100653648376465,4.711004419917725,-0.0,0.29837414622306824,-1.6522262732135218,-0.0,0.0007048060651868582,0.7881357669830322,0.0,0.012013104744255543,0.784915566444397,0.000258328509517014,-0.01185780018568039
754.0,896.0,2.1673,0.0999,9.2219,-0.038,0.0315,-0.1251,-1.7753144703307093,0.0,2.961123466491699,-1.708097219467163,-0.0,2.089715003967285,4.710965319270752,-0.0,0.29452648758888245,-1.6521819273578089,-0.0,0.003233577124774456,0.7881675958633423,0.0,-0.0037712459452450275,0.7849557995796204,0.00023322401102632284,-0.016642222180962563
797.0,875.0,2.3396,1.0295,9.1065,-0.0228,0.0125,-0.1396,-1.775290151635641,0.0,2.9528093338012695,-1.70814049243927,-0.0,2.1048028469085693,4.710992975825928,-0.0,0.2885589301586151,-1.6521742979632776,-0.0,0.009104201570153236,0.7880797386169434,0.0,-0.003645655233412981,0.7849799990653992,0.00021903394372202456,0.01969507336616516
797.0,875.0,2.3396,1.0295,9.1065,-0.0228,0.0125,-0.1396,-1.7752815685667933,0.0,2.9662976264953613,-1.7081774473190308,-0.0,2.1020500659942627,4.711061640376709,-0.0,0.3037303388118744,-1.6522062460528772,-0.0,0.003017012495547533,0.788111686706543,0.0,0.0005148358177393675,0.7849394679069519,0.0002007155417231843,-0.003951160237193108
797.0,875.0,2.3396,1.0295,9.1065,-0.0228,0.0125,-0.1396,-1.7752939663329066,0.0,2.96876859664917,-1.7081135511398315,-0.0,2.076646327972412,4.710976763362549,-0.0,0.29071760177612305,-1.6522181669818323,-0.0,0.003923955373466015,0.7881637215614319,0.0,-0.008537547662854195,0.7849635481834412,0.00018522459140513092,0.0022298195399343967
797.0,875.0,2.3396,1.0295,9.1065,-0.0228,0.0125,-0.1396,-1.7752939663329066,0.0,2.995267391204834,-1.708148717880249,-0.0,2.1017050743103027,4.710932894343994,-0.0,0.2867395281791687,-1.6522262732135218,-0.0,-0.006567793432623148,0.7880957126617432,0.0,-0.0023261122405529022,0.7849435806274414,0.0001719538267934695,0.02534552663564682
797.0,875.0,2.3396,1.0295,9.1065,-0.0228,0.0125,-0.1396,-1.7752696476378382,0.0,2.9780969619750977,-1.7081167697906494,-0.0,2.097693681716919,4.711001558894775,-0.0,0.297715425491333,-1.6521742979632776,-0.0,0.006663205102086067,0.7880877256393433,0.0,3.6196899600327015e-05,0.7849676609039307,0.00010817730071721599,-0.030416101217269897
797.0,875.0,2.3396,1.0295,9.1065,-0.0228,0.0125,-0.1396,-1.7752734623351039,0.0,2.95053768157959,-1.7081570625305176,-0.0,2.0756421089172363,4.710980578059814,-0.0,0.2899608612060547,-1.6522463003741663,-0.0,0.004030889365822077,0.7881317734718323,0.0,-0.008479342795908451,0.7849797010421753,0.00010068463598145172,0.020947210490703583
797.0,875.0,2.3396,1.0295,9.1065,-0.0228,0.0125,-0.1396,-1.7753178081908167,0.0,2.9599924087524414,-1.7080931663513184,-0.0,2.098729372024536,4.710948629970215,-0.0,0.3014712929725647,-1.6522224585162562,-0.0,-0.005505917593836784,0.7880957722663879,0.0,0.007771867793053389,0.784955620765686,9.435146785108373e-05,0.0065483576618134975
797.0,875.0,2.3396,1.0295,9.1065,-0.0228,0.0125,-0.1396,-1.7753144703307093,0.0,2.9111990928649902,-1.7081527709960938,-0.0,2.116071939468384,4.710973425502441,-0.0,0.2906401455402374,-1.6521742979632776,-0.0,-0.00327062769792974,0.7881438136100769,0.0,0.0032457844354212284,0.7849233150482178,8.876793435774744e-05,-0.007723493035882711
797.0,875.0,2.3396,1.0295,9.1065,-0.0228,0.0125,-0.1396,-1.7752977810301722,0.0,2.9427037239074707,-1.70810866355896,-0.0,2.060077428817749,4.710952921504639,-0.0,0.29282158613204956,-1.652182404194967,-0.0,0.007837742567062378,0.7881195545196533,0.0,0.0037242285907268524,0.7849395275115967,8.380831422982737e-05,0.03190894424915314
797.0,875.0,2.3396,1.0295,9.1065,-0.0228,0.0125,-0.1396,-1.775257249871725,0.0,2.996889114379883,-1.7081530094146729,-0.0,2.0961122512817383,4.71101347982373,-0.0,0.29575443267822266,-1.6522019545184534,-0.0,0.007443493697792292,0.788175642490387,0.0,-0.00855965819209814,0.7849394679069519,9.524817869532853e-05,-0.03310862556099892
797.0,875.0,2.3396,1.0295,9.1065,-0.0228,0.0125,-0.1396,-1.7753507099547328,0.0,2.9891066551208496,-1.7081612348556519,-0.0,2.116915702819824,4.710944815272949,-0.0,0.29929882287979126,-1.6521700064288538,-0.0,-0.009346243925392628,0.788111686706543,0.0,0.00023204227909445763,0.7849150896072388,9.046152263181284e-05,-0.011645595543086529
797.0,875.0,2.3396,1.0295,9.1065,-0.0228,0.0125,-0.1396,-1.7753383121886195,0.0,2.980285882949829,-1.7081446647644043,-0.0,2.049135684967041,4.7109691339680175,-0.0,0.2984348237514496,-1.6521862188922327,-0.0,0.013648558408021927,0.7881357669830322,0.0,0.008108881302177906,0.7849916815757751,9.713189501781017e-05,-0.03421816602349281
797.0,875.0,2.3396,1.0295,9.1065,-0.0228,0.0125,-0.1396,-1.7753220997252406,0.0,2.9818596839904785,-1.7081332206726074,-0.0,2.1371636390686035,4.710924788112305,-0.0,0.29363521933555603,-1.6522181669818323,-0.0,0.0035331868566572666,0.7880957722663879,0.0,-0.002422894584015012,0.7849715352058411,9.738175140228122e-05,0.039895519614219666
797.0,875.0,2.3396,1.0295,9.1065,-0.0228,0.0125,-0.1396,-1.7753507099547328,0.0,2.972104549407959,-1.7081167697906494,-0.0,2.109457492828369,4.710952921504639,-0.0,0.3057064116001129,-1.6522463003741663,-0.0,-0.011169214732944965,0.788107693195343,0.0,0.006848511751741171,0.7849635481834412,0.00010636141814757138,-0.028130853548645973
797.0,875.0,2.3396,1.0295,9.1065,-0.0228,0.0125,-0.1396,-1.7753058872618617,0.0,2.9324913024902344,-1.70810866355896,-0.0,2.122056484222412,4.71101347982373,-0.0,0.29802751541137695,-1.6521499792682093,-0.0,-0.018113452941179276,0.788107693195343,0.0,0.0007727764896117151,0.7849474549293518,0.0001677818363532424,0.05028567090630531
809.0,888.0,2.2092,0.6263,9.0305,-0.0426,0.0305,-0.1216,-1.7753178081908167,-0.000160134892212227,2.9408280849456787,-1.7082171440124512,-0.0,2.102133274078369,4.710989161128662,-0.0,0.2872163653373718,-1.6522181669818323,-0.0,0.008197953924536705,0.7881755828857422,0.0,-0.003164304420351982,0.7849676609039307,0.00018890686624217778,-0.010636121965944767
809.0,888.0,2.2092,0.6263,9.0305,-0.0426,0.0305,-0.1216,-1.7753058872618617,-0.0001447443792130798,2.968189001083374,-1.7081208229064941,-0.0,2.1212830543518066,4.710973425502441,-0.0,0.2993316054344177,-1.6522024313556116,-0.0,0.013751812279224396,0.7880877256393433,0.0,-0.00635160319507122,0.7850159406661987,0.00019877082377206534,0.01223381794989109
809.0,888.0,2.2092,0.6263,9.0305,-0.0426,0.0305,-0.1216,-1.7753220997252406,-0.00015734287444502115,2.9342823028564453,-1.7080891132354736,-0.0,2.0835001468658447,4.711005373592041,-0.0,0.3029991090297699,-1.6521661917315882,-0.0,-0.0003688401775434613,0.7881036400794983,0.0,0.01118694432079792,0.7849472165107727,0.000487045559566468,-0.008354186080396175
809.0,888.0,2.2092,0.6263,9.0305,-0.0426,0.0305,-0.1216,-1.7753383121886195,-0.0001615439832676202,3.005783796310425,-1.7081570625305176,-0.0,2.132162094116211,4.710976763362549,-0.0,0.29515647888183594,-1.6522100607501429,-0.0,-0.007828112691640854,0.7881436944007874,0.0,-0.0014290648978203535,0.7849756479263306,0.0004474834131542593,0.018613643944263458
809.0,888.0,2.2092,0.6263,9.0305,-0.0426,0.0305,-0.1216,-1.7753507099547328,-0.00017191014194395393,2.951752185821533,-1.708097219467163,-0.0,2.05488920211792,4.710961027736328,-0.0,0.3025085926055908,-1.6522424856769007,-0.0,-0.003965631127357483,0.7881195545196533,0.0,-0.008000887930393219,0.7850077748298645,0.0005617967108264565,-0.009166456758975983
809.0,888.0,2.2092,0.6263,9.0305,-0.0426,0.0305,-0.1216,-1.7753340206541957,-0.0002629444352351129,2.9553141593933105,-1.7081568241119385,-0.0,2.0790841579437256,4.711021109218262,-0.0,0.29049748182296753,-1.6521661917315882,-0.0,-0.0012487934436649084,0.7881357669830322,0.0,0.004041407257318497,0.7850159406661987,0.0005197150749154389,0.006575524806976318
809.0,888.0,2.2092,0.6263,9.0305,-0.0426,0.0305,-0.1216,-1.7753826580443324,-0.0002859773812815547,2.9638595581054688,-1.7081372737884521,-0.0,2.1067116260528564,4.710956736201904,-0.0,0.28869864344596863,-1.6521781126605433,-0.0,-0.003088924568146467,0.7881195545196533,0.0,-0.01059784460812807,0.7850279808044434,0.0004484039091039449,-0.030750049278140068
809.0,888.0,2.2092,0.6263,9.0305,-0.0426,0.0305,-0.1216,-1.775374551812643,-0.00024727461277507246,2.912280797958374,-1.7081012725830078,-0.0,2.1072041988372803,4.710992975825928,-0.0,0.3012831509113312,-1.652182404194967,-0.0,-0.002097384538501501,0.788139820098877,0.0,0.008153950795531273,0.7850037217140198,0.0004675508535001427,-0.023766085505485535
809.0,888.0,2.2092,0.6263,9.0305,-0.0426,0.0305,-0.1216,-1.7753783665099085,-0.00025363833992742,2.9451773166656494,-1.70810866355896,-0.0,2.109086751937866,4.711001082057617,-0.0,0.3003346621990204,-1.6522024313556116,-0.0,0.016583740711212158,0.7881438136100769,0.0,-0.0063109383918344975,0.7849756479263306,0.00036087544867768884,0.014880639500916004
809.0,888.0,2.2092,0.6263,9.0305,-0.0426,0.0305,-0.1216,-1.775358339349264,-0.0002586288028396666,2.93867564201355,-1.7081208229064941,-0.0,2.084157943725586,4.711016817683838,-0.0,0.29757845401763916,-1.6522024313556116,-0.0,-0.00034609553404152393,0.788187563419342,0.0,-0.002337386831641197,0.7849392294883728,0.00034905318170785904,-0.030400507152080536
809.0,888.0,2.2092,0.6263,9.0305,-0.0426,0.0305,-0.1216,-1.7753220997252406,-0.00023346385569311678,2.9760022163391113,-1.7081446647644043,-0.0,2.097294569015503,4.711005373592041,-0.0,0.296663761138916,-1.652198616658346,-0.0,0.004706952720880508,0.7880997657775879,0.0,-0.001699110958725214,0.7850239276885986,0.00029235295369289815,0.05219130590558052
809.0,888.0,2.2092,0.6263,9.0305,-0.0426,0.0305,-0.1216,-1.7753540478148402,-0.00023978833633009344,2.9768457412719727,-1.7081208229064941,-0.0,2.129204034805298,4.710977717036865,-0.0,0.29062527418136597,-1.6521661917315882,-0.0,0.006185201928019524,0.788171648979187,0.0,-0.004712969530373812,0.7849954962730408,0.00029341652407310903,-0.011747783981263638
809.0,888.0,2.2092,0.6263,9.0305,-0.0426,0.0305,-0.1216,-1.775346418420309,-0.000255809718510136,2.9908127784729004,-1.7081093788146973,-0.0,2.0751285552978516,4.710984869594238,-0.0,0.2968840003013611,-1.6521905104266565,-0.0,-0.0005215879646129906,0.788139820098877,0.0,-0.007412705570459366,0.7849674820899963,0.00029420063947327435,0.008644083514809608
809.0,888.0,2.2092,0.6263,9.0305,-0.0426,0.0305,-0.1216,-1.7753945789732875,-0.0002653929986990988,2.969980239868164,-1.7081291675567627,-0.0,2.089844226837158,4.710924788112305,-0.0,0.28624629974365234,-1.6521948019610804,-0.0,0.0018456688849255443,0.7880877256393433,0.0,0.002234551589936018,0.785040020942688,0.0002448746527079493,-0.03796087205410004
809.0,888.0,2.2092,0.6263,9.0305,-0.0426,0.0305,-0.1216,-1.7753821812071742,-0.0002695934090297669,2.9695091247558594,-1.708097219467163,-0.0,2.0710721015930176,4.710944815272949,-0.0,0.30485063791275024,-1.6521385351764124,-0.0,0.006468427367508411,0.7881195545196533,0.0,-0.009735850617289543,0.7850437164306641,0.00029463725513778627,-0.008716549724340439
809.0,888.0,2.2092,0.6263,9.0305,-0.0426,0.0305,-0.1216,-1.7753941021361292,-0.00041342288022860885,2.9631447792053223,-1.7081093788146973,0.00048108870396390557,2.127957820892334,4.710992975825928,-0.0,0.2966853082180023,-1.652170483266012,-0.0,-0.015335757285356522,0.7880996465682983,0.0,-0.008583899587392807,0.7850680351257324,0.0007313567330129445,0.030029870569705963
784.0,863.0,2.2756,0.8327,9.0323,-0.0241,0.0136,-0.1225,-1.7753778896727503,-0.000437787122791633,2.968196392059326,-1.7080928087234497,0.0009654019959270954,2.1161341667175293,4.710989161128662,-0.0,0.2933175265789032,-1.6521499792682093,-0.0,0.011043088510632515,0.788131594657898,0.0,-0.016969677060842514,0.7850396633148193,0.0013343228492885828,0.005057009402662516
784.0,863.0,2.2756,0.8327,9.0323,-0.0241,0.0136,-0.1225,-1.7754141292967738,-0.0006365954759530723,2.9779601097106934,-1.7081133127212524,0.00114243826828897,2.0911002159118652,4.711021109218262,-0.0,0.2775631844997406,-1.6521623770343226,-0.0,0.007139056455343962,0.7881478071212769,0.0,-0.0014036085922271013,0.7850637435913086,0.0016388434451073408,-0.046500928699970245
784.0,863.0,2.2756,0.8327,9.0323,-0.0241,0.0136,-0.1225,-1.7754346332945765,-0.0006222965894266963,2.9702792167663574,-1.7080771923065186,0.0009473543032072484,2.106891393661499,4.7109691339680175,-0.0,0.284842848777771,-1.6521261374102991,-0.0,0.0036820820532739162,0.7881357669830322,0.0,0.0048892563208937645,0.785091757774353,0.002024526707828045,-0.01709286868572235
784.0,863.0,2.2756,0.8327,9.0323,-0.0241,0.0136,-0.1225,-1.7754465542235316,-0.0006716222851537168,2.956050395965576,-1.7081050872802734,0.0007451858837157488,2.118396520614624,4.710989161128662,-0.0,0.29633498191833496,-1.6521299521075647,-0.0,-0.017288025468587875,0.7881357669830322,0.0,-0.003950776532292366,0.7850835919380188,0.0022230681497603655,-0.025533780455589294
784.0,863.0,2.2756,0.8327,9.0323,-0.0241,0.0136,-0.1225,-1.7754470310606898,-0.0007532800082117319,2.9568443298339844,-1.7081174850463867,0.0004913723678328097,2.07342529296875,4.711005373592041,-0.0,0.29575639963150024,-1.6521623770343226,-0.0,0.0051292250864207745,0.7881357669830322,0.0,-0.004096684046089649,0.7850757837295532,0.0021475092507898808,0.0030168609227985144
784.0,863.0,2.2756,0.8327,9.0323,-0.0241,0.0136,-0.1225,-1.7754303417601527,-0.0013265511952340603,2.9671196937561035,-1.7080649137496948,0.000512479804456234,2.14113450050354,4.710988684291504,-0.0,0.28862714767456055,-1.652198616658346,-0.0,-0.012464713305234909,0.7880957126617432,0.0,0.0008642749744467437,0.7851198315620422,0.002458738163113594,-0.01185511238873005
784.0,863.0,2.2756,0.8327,9.0323,-0.0241,0.0136,-0.1225,-1.7754341564574183,-0.0030377747025340796,2.9534096717834473,-1.7080525159835815,0.0004730491782538593,2.0777018070220947,4.710952921504639,-0.0,0.2968953549861908,-1.6521785894977015,-0.0,-0.007369072176516056,0.7881437540054321,0.0,-0.004825038835406303,0.7851520776748657,0.0023740793112665415,0.040688395500183105
784.0,863.0,2.2756,0.8327,9.0323,-0.0241,0.0136,-0.1225,-1.7754374943175257,-0.005275930278003216,2.9116454124450684,-1.7080568075180054,0.0004602816770784557,2.0445327758789062,4.710984869594238,-0.0,0.31521809101104736,-1.6522029081927698,-0.0,-0.002295582089573145,0.7881036400794983,0.0,0.0070387269370257854,0.7851075530052185,0.0021664942614734173,-0.02812013030052185
784.0,863.0,2.2756,0.8327,9.0323,-0.0241,0.0136,-0.1225,-1.7755142650999964,-0.00961343664675951,2.928541660308838,-1.7079967260360718,0.0004900978528894484,2.112450361251831,4.711021109218262,-0.0,0.29587626457214355,-1.6521747748004358,-0.0,0.0038638715632259846,0.7880957722663879,0.0,-0.0017707014922052622,0.785115659236908,0.001830936991609633,-0.005751201882958412
784.0,863.0,2.2756,0.8327,9.0323,-0.0241,0.0136,-0.1225,-1.7756062946715296,-0.008928428404033184,2.916947364807129,-1.7080812454223633,0.000633563962765038,2.0613481998443604,4.710989161128662,-0.0,0.2937090992927551,-1.652170483266012,-0.0,-0.011101288720965385,0.7881278395652771,0.0,-0.00318337744101882,0.7851520776748657,0.0014908121665939689,0.028717752546072006
784.0,863.0,2.2756,0.8327,9.0323,-0.0241,0.0136,-0.1225,-1.7756387195982875,-0.007786077912896872,2.9643821716308594,-1.7080731391906738,0.001271422253921628,2.1043365001678467,4.710973425502441,-0.0,0.3097788989543915,-1.6521747748004358,-0.0,0.012537878006696701,0.7881195545196533,0.0,-0.007287755608558655,0.7851279377937317,0.0013273373479023576,-0.038323935121297836
784.0,863.0,2.2756,0.8327,9.0323,-0.0241,0.0136,-0.1225,-1.775674959222311,-0.007091115228831768,2.9825947284698486,-1.7080450057983398,0.0011727523524314165,2.077155113220215,4.710981531734131,-0.0,0.2987188696861267,-1.6521466414081019,-0.0,-0.00046969944378361106,0.7881357669830322,0.0,-0.007368920370936394,0.7851235270500183,0.0011644449550658464,-0.011811687611043453
784.0,863.0,2.2756,0.8327,9.0323,-0.0241,0.0136,-0.1225,-1.7757426700987757,-0.00796430092304945,2.9271647930145264,-1.7080689668655396,0.0008969531045295298,2.0514066219329834,4.71093670904126,-0.0,0.30230748653411865,-1.6521747748004358,-0.0,0.0035207290202379227,0.7881516814231873,0.0,-0.005600707605481148,0.7851477861404419,0.0010105014080181718,0.004072315990924835
784.0,863.0,2.2756,0.8327,9.0323,-0.0241,0.0136,-0.1225,-1.7758070431151332,-0.009290565736591816,2.9863154888153076,-1.7080368995666504,0.0005985766183584929,2.1621851921081543,4.710912390346191,-0.0,0.30127233266830444,-1.6521661917315882,-0.0,0.0035674083046615124,0.7881477475166321,0.0,0.00038374142604880035,0.7851839661598206,0.0007707354379817843,-0.05825032666325569
784.0,863.0,2.2756,0.8327,9.0323,-0.0241,0.0136,-0.1225,-1.7758428059019984,-0.011038708500564098,2.9362404346466064,-1.7079885005950928,0.00044914791942574084,2.1269969940185547,4.71093670904126,-0.0,0.3006111979484558,-1.6521342436419886,-0.0,0.01477997750043869,0.7881516814231873,0.0,0.0028396169655025005,0.7851235270500183,0.0006564921932294965,-0.010211212560534477
828.0,869.0,1.9196,0.7573,9.3637,-0.033,0.0316,-0.1194,-1.7759353123106898,-0.011591477319598198,2.930034637451172,-1.7080649137496948,0.00041904248064383864,2.1057417392730713,4.710944815272949,-0.0,0.302201509475708,-1.6521466414081019,-0.0,0.00915784016251564,0.788127601146698,0.0,0.0021345745772123337,0.7851678729057312,0.0005773651646450162,0.009689605794847012
828.0,869.0,1.9196,0.7573,9.3637,-0.033,0.0316,-0.1194,-1.7759667835631312,-0.010262970812618732,2.949367046356201,-1.708008885383606,0.0003993816499132663,2.098708152770996,4.7109410005756835,-0.0,0.3158094584941864,-1.6521299521075647,-0.0,0.01018930971622467,0.7880918383598328,0.0,0.005158367566764355,0.7851758599281311,0.0005100377602502704,0.028155524283647537
828.0,869.0,1.9196,0.7573,9.3637,-0.033,0.0316,-0.1194,-1.7760268650450648,-0.009556364268064499,2.962757110595703,-1.7080528736114502,0.00035372923593968153,2.067901134490967,4.710965319270752,-0.0,0.3040113151073456,-1.652153793965475,-0.0,-0.0007150679593905807,0.7881715893745422,0.0,0.010161714628338814,0.785159707069397,0.0005304469377733767,0.033156078308820724
828.0,869.0,1.9196,0.7573,9.3637,-0.033,0.0316,-0.1194,-1.7761274776854457,-0.009803165681660175,2.9241786003112793,-1.708017110824585,0.0010922917863354087,2.0719845294952393,4.710924788112305,-0.0,0.2999670207500458,-1.6521948019610804,-0.0,-0.009618833661079407,0.7881476879119873,0.0,0.02027153968811035,0.7851921319961548,0.0007593944319523871,0.02459697797894478
828.0,869.0,1.9196,0.7573,9.3637,-0.033,0.0316,-0.1194,-1.7761708698668421,-0.010817332193255424,2.984949827194214,-1.7079639434814453,0.0014263103948906064,2.120415449142456,4.710965319270752,-0.0,0.3053353428840637,-1.6521828810321253,-0.0,0.004201011266559362,0.788139820098877,0.0,0.001226496766321361,0.7851958274841309,0.0011664771009236574,-0.02033299021422863
828.0,869.0,1.9196,0.7573,9.3637,-0.033,0.0316,-0.1194,-1.7762185535826625,-0.012343136593699455,2.9035942554473877,-1.7080130577087402,0.00171765370760113,2.1200265884399414,4.710961027736328,-0.0,0.30886921286582947,-1.6521623770343226,-0.0,-0.004616213031113148,0.7881917357444763,0.0,0.002683531027287245,0.785179853439331,0.0020398725755512714,0.05870269611477852
828.0,869.0,1.9196,0.7573,9.3637,-0.033,0.0316,-0.1194,-1.776311536828512,-0.013184250332415104,2.9680733680725098,-1.7080047130584717,0.0022938924375921488,2.093353748321533,4.711005373592041,-0.0,0.3041723370552063,-1.6521385351764124,-0.0,-0.003907772246748209,0.7881556749343872,0.0,-0.002454427070915699,0.7852238416671753,0.0022115055471658707,0.02983413077890873
828.0,869.0,1.9196,0.7573,9.3637,-0.033,0.0316,-0.1194,-1.7764445743956507,-0.014279836788773537,2.9684925079345703,-1.7079646587371826,0.003110609482973814,2.113766670227051,4.7109410005756835,-1.5697413857651554e-07,0.30916690826416016,-1.6521061102496546,-0.0,0.005329970736056566,0.788139820098877,0.0,0.009914860129356384,0.7852359414100647,0.0027849795296788216,0.008596114814281464
828.0,869.0,1.9196,0.7573,9.3637,-0.033,0.0316,-0.1194,-1.7764679394164027,-0.0144039336591959,2.967557907104492,-1.7079447507858276,0.003501361235976219,2.0896382331848145,4.7109290796467285,-4.369432593520628e-11,0.3074186444282532,-1.6521509329425257,-0.0,0.012471122667193413,0.7881794571876526,0.0,0.017960485070943832,0.785223662853241,0.0035431275609880686,-0.022158712148666382
828.0,869.0,1.9196,0.7573,9.3637,-0.033,0.0316,-0.1194,-1.7765923939146937,-0.01474875956773758,2.926133394241333,-1.7079492807388306,0.003322717035189271,2.0736234188079834,4.710965319270752,-1.2162474938856929e-14,0.29954850673675537,-1.6521509329425257,-0.0,0.0019081319915130734,0.7881996035575867,0.0,0.018154192715883255,0.7852998971939087,0.004312530159950256,0.08533206582069397
828.0,869.0,1.9196,0.7573,9.3637,-0.033,0.0316,-0.1194,-1.7766558132567347,-0.014780416153371334,2.9906904697418213,-1.7079167366027832,0.0028155753389000893,2.0969457626342773,4.710932894343994,-3.385470128601159e-18,0.3099449872970581,-1.6521385351764124,-0.0,0.000548486365005374,0.7881995439529419,0.0,0.013996817171573639,0.7853039503097534,0.005512337666004896,-0.010876663029193878
828.0,869.0,1.9196,0.7573,9.3637,-0.033,0.0316,-0.1194,-1.7767802677550257,-0.01589496061205864,2.9591259956359863,-1.707859754562378,0.0024921121075749397,2.0546135902404785,4.710952921504639,-9.423580407605425e-22,0.298135370016098,-1.6521828810321253,-0.0,0.00022883363999426365,0.7881833910942078,0.0,0.01092011108994484,0.785396158695221,0.006866307929158211,-0.005614083260297775
828.0,869.0,1.9196,0.7573,9.3637,-0.033,0.0316,-0.1194,-1.776865144769186,-0.017946073785424232,2.9422435760498047,-1.7078769207000732,0.0018563795601949096,2.124465227127075,4.710897131557129,-2.6230884810856667e-25,0.3008798658847809,-1.6521065870868128,1.0419233149150386e-05,0.010213860310614109,0.7881077527999878,0.0,0.01596631109714508,0.7853798270225525,0.007621803320944309,-0.026879876852035522
828.0,869.0,1.9196,0.7573,9.3637,-0.033,0.0316,-0.1194,-1.7770005665221156,-0.019072407856583595,2.9500961303710938,-1.707889199256897,0.0015733870677649975,2.095658540725708,4.710937185878418,-7.301462827126934e-29,0.3018365502357483,-1.6521061102496546,5.684462303179316e-05,0.002852752571925521,0.7881794571876526,0.0,0.016935911029577255,0.7854963541030884,0.009165259078145027,0.007239087950438261
828.0,869.0,1.9196,0.7573,9.3637,-0.033,0.0316,-0.1194,-1.7770968876280726,-0.020228922367095947,2.8939554691314697,-1.7078526020050049,0.001588837942108512,2.087857723236084,4.710937185878418,-2.032388884143044e-32,0.31446146965026855,-1.6521299521075647,5.478163802763447e-05,-0.00650473078712821,0.7881675362586975,0.0,0.012175282463431358,0.7855522036552429,0.00934979785233736,0.03486005216836929
828.0,869.0,1.9196,0.7573,9.3637,-0.033,0.0316,-0.1194,-1.777184625665182,-0.02207191474735737,2.93646240234375,-1.7078932523727417,0.0018720676889643073,2.1366307735443115,4.710956736201904,-5.657229427844976e-36,0.30070722103118896,-1.652074162160055,5.2851457439828664e-05,0.003931083716452122,0.7881516218185425,0.0,0.015135793015360832,0.785568118095398,0.009949821047484875,0.07521288096904755
814.0,904.0,2.12,1.075,8.9336,-0.0287,-0.0006,-0.1284,-1.7773095570006312,-0.024395110085606575,2.953172206878662,-1.7078371047973633,0.001961425179615617,2.1364121437072754,4.710965319270752,-2.411765538379578e-38,0.3098813593387604,-1.6521299521075647,6.192116416059434e-05,-0.013995563611388206,0.7881596088409424,0.0,0.0038573038764297962,0.7855959534645081,0.010108687914907932,0.021942365914583206
814.0,904.0,2.12,1.075,8.9336,-0.0287,-0.0006,-0.1284,-1.7774292431273402,-0.025066932663321495,2.9067745208740234,-1.7078566551208496,0.002090585883706808,2.117508888244629,4.7109972673603515,-6.713620942580199e-42,0.311969518661499,-1.6521385351764124,5.99040140514262e-05,0.005822371691465378,0.7881516218185425,0.0,0.0197895560413599,0.7856361865997314,0.00971133541315794,0.005861002951860428
814.0,904.0,2.12,1.075,8.9336,-0.0287,-0.0006,-0.1284,-1.7776457271971644,-0.028284110128879547,2.906015396118164,-1.7077769041061401,0.0024403398856520653,2.098066806793213,4.710965319270752,-1.401298464324817e-45,0.305439293384552,-1.6521027723895472,3.289514083348877e-08,0.008747847750782967,0.7881635427474976,0.0,0.02343960478901863,0.7857524752616882,0.008732964284718037,-0.002736842492595315
814.0,904.0,2.12,1.075,8.9336,-0.0287,-0.0006,-0.1284,-1.7778107128539027,-0.03130146861076355,2.8646912574768066,-1.7077966928482056,0.0030158215668052435,2.098027229309082,4.710965319270752,-0.0,0.313876211643219,-1.6521342436419886,9.156483730954346e-12,0.004152375273406506,0.788131833076477,0.0,0.016906224191188812,0.7857401967048645,0.007289448752999306,-0.014859456568956375
814.0,904.0,2.12,1.075,8.9336,-0.0287,-0.0006,-0.1284,-1.7780024013915003,-0.03566460683941841,2.891944408416748,-1.7078012228012085,0.003750098403543234,2.0516719818115234,4.710973425502441,-0.0,0.3041178584098816,-1.6521342436419886,2.548741196529503e-15,-0.0008611060911789536,0.7881116271018982,0.0,0.025919746607542038,0.7858323454856873,0.0059550912119448185,0.016453392803668976
814.0,904.0,2.12,1.075,8.9336,-0.0287,-0.0006,-0.1284,-1.7782021961607875,-0.04071848839521408,2.8715944290161133,-1.7077653408050537,0.00459921732544899,2.1091842651367188,4.710961027736328,-0.0,0.29624637961387634,-1.652102295552389,7.09451408088382e-19,0.00822586938738823,0.7881675362586975,0.0,0.013278757221996784,0.7858402729034424,0.0048042223788797855,-0.007896463386714458
814.0,904.0,2.12,1.075,8.9336,-0.0287,-0.0006,-0.1284,-1.7784997425475062,-0.04486953467130661,2.8766775131225586,-1.7076971530914307,0.006882509216666222,2.1454834938049316,4.711009665126465,-0.0,0.3099309802055359,-1.6521146933185022,1.9747841554678365e-22,0.0011888528242707253,0.7881874442100525,0.0,0.015812642872333527,0.7858843803405762,0.0037849568761885166,0.008343573659658432
814.0,904.0,2.12,1.075,8.9336,-0.0287,-0.0006,-0.1284,-1.7787190876402796,-0.0471365824341774,2.8672308921813965,-1.707676887512207,0.00834615994244814,2.1200056076049805,4.710984869594238,-0.0,0.30249080061912537,-1.6521266142474573,5.496884476681074e-26,0.009003501385450363,0.7881239056587219,0.0,0.02007540874183178,0.7858843803405762,0.002410735934972763,0.0219403188675642
814.0,904.0,2.12,1.075,8.9336,-0.0287,-0.0006,-0.1284,-1.7790237865843714,-0.04843511804938316,2.8674843311309814,-1.7076492309570312,0.009590884670615196,2.102339029312134,4.7109972673603515,-0.0,0.3078577518463135,-1.6521223227130335,0.00012288270227145404,0.01985320821404457,0.7881437540054321,0.0,0.018610412254929543,0.7858361601829529,0.0012813275679945946,-0.08180705457925797
814.0,904.0,2.12,1.075,8.9336,-0.0287,-0.0006,-0.1284,-1.779344221154684,-0.048936668783426285,2.8888916969299316,-1.70754075050354,0.010796017944812775,2.144613265991211,4.7109691339680175,-0.0,0.3048202693462372,-1.6520703474627894,0.00011918682866962627,0.003585896221920848,0.788139820098877,0.0,0.002986027393490076,0.7858884930610657,0.000821505906060338,-0.013256043195724487
814.0,904.0,2.12,1.075,8.9336,-0.0287,-0.0006,-0.1284,-1.7796489200987757,-0.04891136288642883,2.8802170753479004,-1.7075042724609375,0.010436936281621456,2.0852341651916504,4.710924788112305,-0.0,0.3099946975708008,-1.6521180311786097,0.00011041473044315353,0.0027124215848743916,0.788111686706543,0.0,-0.0003332821652293205,0.7858602404594421,0.0005903951241634786,0.01161900907754898
814.0,904.0,2.12,1.075,8.9336,-0.0287,-0.0006,-0.1284,-1.7798696957030238,-0.050532016903162,2.8671445846557617,-1.7074527740478516,0.009619239717721939,2.1276588439941406,4.710956736201904,-0.0,0.3025919795036316,-1.6521027723895472,0.00010524952813284472,0.01626412570476532,0.7881596088409424,0.0,-0.008752635680139065,0.7858280539512634,0.0004971767193637788,-0.03215479850769043
814.0,904.0,2.12,1.075,8.9336,-0.0287,-0.0006,-0.1284,-1.7801372013487757,-0.048631053417921066,2.8419761657714844,-1.7074005603790283,0.00801638700067997,2.1013031005859375,4.710984869594238,-0.0,0.3041266202926636,-1.6520984808551233,0.00011797356273746118,-0.007487609516829252,0.7880878448486328,0.0,0.01400635577738285,0.7858803272247314,0.00040198504575528204,-0.052792951464653015
814.0,904.0,2.12,1.075,8.9336,-0.0287,-0.0006,-0.1284,-1.7804700336852015,-0.04678896814584732,2.846395492553711,-1.707392692565918,0.006138484459370375,2.1205763816833496,4.710973425502441,-0.0,0.3044310212135315,-1.6521742979632776,0.00011075605289079249,0.013771595433354378,0.7881754636764526,0.0,0.00929898489266634,0.7859005331993103,0.0003373913641553372,-0.034901030361652374
814.0,904.0,2.12,1.075,8.9336,-0.0287,-0.0006,-0.1284,-1.7807346783080042,-0.04215904697775841,2.8232951164245605,-1.7073893547058105,0.003686253447085619,2.066072940826416,4.710973425502441,-0.0,0.30023375153541565,-1.6521223227130335,0.00010433595889480785,0.014245441183447838,0.7881596088409424,0.0,0.015861043706536293,0.7858644127845764,0.0002906843146774918,-0.014663100242614746
814.0,904.0,2.12,1.075,8.9336,-0.0287,-0.0006,-0.1284,-1.7810269794859828,-0.03873509168624878,2.858107566833496,-1.7073124647140503,0.0019654405768960714,2.098907470703125,4.710956736201904,-0.0,0.2856998145580292,-1.6521146933185022,9.861939179245383e-05,0.018489647656679153,0.7881437540054321,0.0,0.007588068023324013,0.7858643531799316,0.00025533809093758464,-0.03040865808725357
852.0,885.0,2.5783,0.6921,9.2997,-0.0318,-0.0121,-0.1295,-1.7812472782530726,-0.0346498005092144,2.9076929092407227,-1.7073324918746948,0.0010985126718878746,2.0602943897247314,4.7109410005756835,-0.0,0.3099987804889679,-1.652074162160055,9.349685569759458e-05,0.028738277032971382,0.7881077527999878,0.0,0.013923811726272106,0.7859083414077759,0.00022765592439100146,-0.05141175538301468
852.0,885.0,2.5783,0.6921,9.2997,-0.0318,-0.0121,-0.1295,-1.7814632854857386,-0.03518996760249138,2.8447327613830566,-1.7073650360107422,0.00025366636691614985,2.1220412254333496,4.711005373592041,-0.0,0.2883884906768799,-1.6521266142474573,8.8880056864582e-05,0.01583075150847435,0.7880799770355225,0.0,0.008922604843974113,0.7858762145042419,0.00023473020701203495,-0.07330072671175003
852.0,885.0,2.5783,0.6921,9.2997,-0.0318,-0.0121,-0.1295,-1.7816268406310023,-0.035495586693286896,2.8909614086151123,-1.7073005437850952,0.00017824722453951836,2.1364550590515137,4.711009665126465,-0.0,0.2913346290588379,-1.6520784536944788,9.879811841528863e-05,0.004856710322201252,0.7881754636764526,0.0,0.018924374133348465,0.78592848777771,0.00014165746688377112,-0.056364186108112335
852.0,885.0,2.5783,0.6921,9.2997,-0.0318,-0.0121,-0.1295,-1.7818881473936976,-0.0376204289495945,2.85369610786438,-1.7073246240615845,0.00020610072533600032,2.087470293045044,4.711024923915527,-0.0,0.29672038555145264,-1.6521428267108362,9.43734630709514e-05,0.01001446507871151,0.7881754636764526,0.0,0.024223677814006805,0.7859083414077759,0.00018071176600642502,-0.04242408275604248
852.0,885.0,2.5783,0.6921,9.2997,-0.0318,-0.0121,-0.1295,-1.7821203670897425,-0.039703480899333954,2.8488612174987793,-1.7072964906692505,0.0001560094387969002,2.083109140396118,4.7109691339680175,-0.0,0.3031167984008789,-1.6521347204791468,9.031475929077715e-05,0.016979914158582687,0.7881476879119873,0.0,0.011036582291126251,0.7858762145042419,0.0007065879181027412,-0.02636626362800598
852.0,885.0,2.5783,0.6921,9.2997,-0.0318,-0.0121,-0.1295,-1.7822486362852992,-0.040519434958696365,2.832709550857544,-1.7073571681976318,0.00032721698516979814,2.083423614501953,4.710989161128662,-0.0,0.30445969104766846,-1.6521342436419886,8.779751078691334e-05,0.016826551407575607,0.788119912147522,0.0,0.010020137764513493,0.78592449426651,0.0007479742052964866,-0.0989755392074585
852.0,885.0,2.5783,0.6921,9.2997,-0.0318,-0.0121,-0.1295,-1.782497068444723,-0.04225302115082741,2.8463149070739746,-1.707332968711853,0.0024656099267303944,2.101543664932251,4.710965319270752,-0.0,0.3073893189430237,-1.652102295552389,8.427414286416024e-05,0.0036080917343497276,0.7881873846054077,0.0,0.008651848882436752,0.7859122157096863,0.0010635453509166837,-0.03380779176950455
852.0,885.0,2.5783,0.6921,9.2997,-0.0318,-0.0121,-0.1295,-1.7828017673888148,-0.045083168894052505,2.8551688194274902,-1.7073049545288086,0.003554269205778837,2.1027183532714844,4.710992975825928,-0.0,0.3156774342060089,-1.6520784536944788,8.102264837361872e-05,-0.0037671474274247885,0.7881793975830078,0.0,0.02002628892660141,0.7859202027320862,0.0018815743969753385,0.0016197640215978026
852.0,885.0,2.5783,0.6921,9.2997,-0.0318,-0.0121,-0.1295,-1.7830378017821253,-0.048229098320007324,2.8699727058410645,-1.70725679397583,0.004647744353860617,2.114053726196289,4.710992975825928,-0.0,0.31581833958625793,-1.6521104017840784,3.843558442895301e-05,0.008827142417430878,0.7881195545196533,0.0,0.01267433911561966,0.7859765887260437,0.0032424184028059244,-0.011235611513257027
852.0,885.0,2.5783,0.6921,9.2997,-0.0318,-0.0121,-0.1295,-1.7833863697447718,-0.05310548469424248,2.929041862487793,-1.7072288990020752,0.004886521026492119,2.0788352489471436,4.710948629970215,-0.0,0.30749207735061646,-1.6521342436419886,3.6045315937371925e-05,0.004846054594963789,0.7881596088409424,0.0,0.01332886703312397,0.7859966158866882,0.0042295739986002445,0.004129667766392231
852.0,885.0,2.5783,0.6921,9.2997,-0.0318,-0.0121,-0.1295,-1.7836743793883265,-0.05828777328133583,2.8785693645477295,-1.7071605920791626,0.006159152835607529,2.130682945251465,4.710984869594238,-0.0,0.3117862045764923,-1.6521146933185022,3.4002518077613786e-05,-0.0005351037252694368,0.788131833076477,0.0,0.02429913729429245,0.7860127687454224,0.0039042786229401827,-0.0034058759920299053
852.0,885.0,2.5783,0.6921,9.2997,-0.0318,-0.0121,-0.1295,-1.7840553722777308,-0.0599399097263813,2.890007495880127,-1.7071486711502075,0.006933802273124456,2.107248544692993,4.71093670904126,-0.0,0.3114241659641266,-1.6521466414081019,3.217881385353394e-05,-0.0007465085946023464,0.7881317734718323,0.0,0.004822279326617718,0.78596431016922,0.003541406476870179,-0.010835966095328331
852.0,885.0,2.5783,0.6921,9.2997,-0.0318,-0.0121,-0.1295,-1.7844397030272425,-0.0631476417183876,2.8881843090057373,-1.7070964574813843,0.0082948487251997,2.127610921859741,4.711001558894775,-0.0,0.31201356649398804,-1.6520822683917444,3.054088301723823e-05,0.012684516608715057,0.7881195545196533,0.0,0.016146302223205566,0.7860446572303772,0.0032508261501789093,0.0014921538531780243
852.0,885.0,2.5783,0.6921,9.2997,-0.0318,-0.0121,-0.1295,-1.7848245106139125,-0.06573344022035599,2.8685765266418457,-1.7070609331130981,0.009177918545901775,2.1242687702178955,4.710977717036865,-0.0,0.2973122000694275,-1.6521671454059046,2.9061611712677404e-05,0.004659573547542095,0.788119912147522,0.0,0.013761243782937527,0.7860526442527771,0.0032160391565412283,0.055645737797021866
852.0,885.0,2.5783,0.6921,9.2997,-0.0318,-0.0121,-0.1295,-1.7852288685240687,-0.06718908250331879,2.853830337524414,-1.7069756984710693,0.010261761955916882,2.101255416870117,4.710976763362549,-0.0,0.31382375955581665,-1.652130428944723,2.771896470221691e-05,0.0146142253652215,0.7882035970687866,0.0,0.02317691594362259,0.7860522866249084,0.003098104614764452,-0.008604463189840317
903.0,879.0,2.5651,0.7208,9.6479,-0.0391,-0.0594,-0.1153,-1.7855178318419398,-0.06355953961610794,2.929804801940918,-1.707016944885254,0.011169569566845894,2.103085517883301,4.710952921504639,-0.0,0.3088648021221161,-1.6521027723895472,2.6890777007793076e-05,0.0032280164305120707,0.7881476879119873,0.0,0.019972970709204674,0.7860766053199768,0.003393695456907153,-0.009492200799286366
903.0,879.0,2.5651,0.7208,9.6479,-0.0391,-0.0594,-0.1153,-1.7859178982176722,-0.06080581992864609,2.8844871520996094,-1.7068679332733154,0.010948270559310913,2.0998079776763916,4.710992975825928,-0.0,0.30752480030059814,-1.6520903746234339,2.5737283067428507e-05,0.0008822481613606215,0.7881596088409424,0.0,0.01910433918237686,0.7860561609268188,0.0034702958073467016,-0.029184505343437195
903.0,879.0,2.5651,0.7208,9.6479,-0.0391,-0.0594,-0.1153,-1.7862707577147425,-0.05639933422207832,2.8996853828430176,-1.7068889141082764,0.009940588846802711,2.115459442138672,4.710984869594238,-0.0,0.3150950074195862,-1.6521347204791468,2.4678676709299907e-05,0.0018867014441639185,0.7882154583930969,0.0,0.019624603912234306,0.7861366868019104,0.0038558717351406813,-0.007882465608417988
903.0,879.0,2.5651,0.7208,9.6479,-0.0391,-0.0594,-0.1153,-1.7866112194456996,-0.054195988923311234,2.888502836227417,-1.7068654298782349,0.00817833375185728,2.12752366065979,4.7109290796467285,-0.0,0.3157065808773041,-1.6520784536944788,2.370372021687217e-05,0.0041770730167627335,0.7881239056587219,0.0,0.009176766499876976,0.7861566543579102,0.00437266705557704,-0.014790823683142662
903.0,879.0,2.5651,0.7208,9.6479,-0.0391,-0.0594,-0.1153,-1.7869435749449671,-0.05197763070464134,2.8618602752685547,-1.706800937652588,0.0069370088167488575,2.090667486190796,4.710961027736328,-0.0,0.3165935277938843,-1.6521146933185022,2.2802869352744892e-05,-0.0017382244113832712,0.7881516218185425,0.0,0.020562801510095596,0.7861767411231995,0.004127232823520899,-0.024921201169490814
903.0,879.0,2.5651,0.7208,9.6479,-0.0391,-0.0594,-0.1153,-1.7872077427306117,-0.04850682243704796,2.902620315551758,-1.7067408561706543,0.005994702689349651,2.106269359588623,4.71093670904126,-0.0,0.30040788650512695,-1.6520784536944788,2.1967985958326608e-05,0.007229412905871868,0.788131833076477,0.0,0.031198745593428612,0.7861724495887756,0.004652563016861677,-0.008281844668090343
903.0,879.0,2.5651,0.7208,9.6479,-0.0391,-0.0594,-0.1153,-1.787504335443014,-0.04353678971529007,2.9014387130737305,-1.7066723108291626,0.006785128265619278,2.118013381958008,4.711005373592041,-0.0,0.30232876539230347,-1.6520865599261683,2.1192061467445455e-05,0.002095581730827689,0.7881437540054321,0.0,0.0056253718212246895,0.7862125039100647,0.004700618330389261,0.005954519379884005
903.0,879.0,2.5651,0.7208,9.6479,-0.0391,-0.0594,-0.1153,-1.787764688531393,-0.040092214941978455,2.8729114532470703,-1.7066609859466553,0.008225799538195133,2.116832971572876,4.710989161128662,-0.0,0.3104211390018463,-1.6521347204791468,3.070072489208542e-05,0.012548664584755898,0.7881596088409424,0.0,0.012526845559477806,0.7862043976783752,0.004382207058370113,-0.017716629430651665
903.0,879.0,2.5651,0.7208,9.6479,-0.0391,-0.0594,-0.1153,-1.787952562371725,-0.03924266993999481,2.88346004486084,-1.706588625907898,0.009931657463312149,2.0856614112854004,4.710973425502441,-0.0,0.30796998739242554,-1.6521227995501917,7.628664207004476e-06,0.0011934259673580527,0.7881956100463867,0.0,0.01137753389775753,0.7862123250961304,0.0045019639655947685,-0.009802044369280338
903.0,879.0,2.5651,0.7208,9.6479,-0.0391,-0.0594,-0.1153,-1.7881933651366175,-0.038612011820077896,2.897592544555664,-1.7065489292144775,0.011637615971267223,2.1140503883361816,4.710932894343994,-0.0,0.29751116037368774,-1.6521180311786097,2.123466735781676e-09,0.0007611216278746724,0.7881836891174316,0.0,0.008002734743058681,0.7863247990608215,0.003962904214859009,-0.005659014917910099
903.0,879.0,2.5651,0.7208,9.6479,-0.0391,-0.0594,-0.1153,-1.7884780369200648,-0.042633216828107834,2.870945453643799,-1.7064611911773682,0.01332852616906166,2.165790557861328,4.710933371181152,-0.0,0.3061152398586273,-1.652090851460592,5.910747694244656e-13,0.016108814626932144,0.7881675362586975,0.0,0.016930460929870605,0.7863206267356873,0.004116816446185112,-0.03695029765367508
903.0,879.0,2.5651,0.7208,9.6479,-0.0391,-0.0594,-0.1153,-1.7885776958861292,-0.04362504929304123,2.8945255279541016,-1.7063758373260498,0.015338732860982418,2.1107382774353027,4.710945292110107,-0.0,0.3097633719444275,-1.6521027723895472,2.519844244017449e-15,0.011676759459078312,0.7881674766540527,0.0,0.006167260929942131,0.7863003611564636,0.0035163427237421274,-0.041810885071754456
903.0,879.0,2.5651,0.7208,9.6479,-0.0391,-0.0594,-0.1153,-1.7888175449767054,-0.04757877439260483,2.8672378063201904,-1.7063130140304565,0.01881677657365799,2.104034900665283,4.710976763362549,-0.0,0.30027422308921814,-1.6521347204791468,7.014078004143398e-19,0.01804913394153118,0.7881357669830322,0.0,0.021690290421247482,0.7863688468933105,0.002865082584321499,-0.05441023409366608
903.0,879.0,2.5651,0.7208,9.6479,-0.0391,-0.0594,-0.1153,-1.7891303501524867,-0.04816178232431412,2.9012043476104736,-1.706128716468811,0.02473215013742447,2.1052451133728027,4.710952921504639,-0.0,0.3140234053134918,-1.6521185080157679,1.9523946421469813e-22,-0.004522230476140976,0.7881077527999878,0.0,0.011767247691750526,0.7863607406616211,0.0022879992611706257,-0.01545291393995285
903.0,879.0,2.5651,0.7208,9.6479,-0.0391,-0.0594,-0.1153,-1.7894031010069789,-0.04819931462407112,2.882159948348999,-1.7059886455535889,0.02926429733633995,2.1391096115112305,4.711021109218262,-0.0,0.311665803194046,-1.6520784536944788,5.434561999978285e-26,0.005744169000536203,0.7881278991699219,0.0,0.01878414675593376,0.7863607406616211,0.001841165591031313,-0.05119473859667778
903.0,879.0,2.5651,0.7208,9.6479,-0.0391,-0.0594,-0.1153,-1.7897397480406703,-0.05096372216939926,2.8942389488220215,-1.7057768106460571,0.034841541200876236,2.153703451156616,4.710973425502441,-0.0,0.31193578243255615,-1.6520941893206995,1.512730401689015e-29,0.008871668018400669,0.7881754040718079,0.0,0.00604853592813015,0.7863286137580872,0.001619432121515274,0.02575555443763733
902.0,880.0,2.3779,0.4941,9.207,-0.0472,0.0092,-0.1133,-1.789999624291891,-0.05249255895614624,2.866471767425537,-1.7055847644805908,0.03791236877441406,2.1334969997406006,4.7109691339680175,-0.0,0.31577834486961365,-1.6521104017840784,4.2107408854744085e-33,0.005488917231559753,0.788115918636322,0.0,0.022429808974266052,0.7863566875457764,0.0015238504856824875,-0.03495272248983383
902.0,880.0,2.3779,0.4941,9.207,-0.0472,0.0092,-0.1133,-1.7903081379332484,-0.05408988147974014,2.8434603214263916,-1.7053608894348145,0.04155946522951126,2.137195348739624,4.711024923915527,-0.0,0.30046623945236206,-1.6521104017840784,1.1720749135200298e-36,0.01540862675756216,0.7881755232810974,0.0,0.020309211686253548,0.7864007949829102,0.0011704176431521773,-0.05343293398618698
902.0,880.0,2.3779,0.4941,9.207,-0.0472,0.0092,-0.1133,-1.7906328640379847,-0.054557379335165024,2.8704307079315186,-1.7050926685333252,0.044271308928728104,2.1545820236206055,4.710980578059814,-0.0,0.29707878828048706,-1.6521065870868128,3.2625170976256824e-40,0.014860655181109905,0.7881120443344116,0.0,0.015138322487473488,0.7864130735397339,0.000979217467829585,-0.04511784017086029
902.0,880.0,2.3779,0.4941,9.207,-0.0472,0.0092,-0.1133,-1.7910057506956996,-0.05227842554450035,2.860546112060547,-1.704849123954773,0.04769926145672798,2.158430576324463,4.710984869594238,-0.0,0.30913975834846497,-1.6520822683917444,9.10844001811131e-44,0.011630917899310589,0.788119912147522,0.0,0.005488597322255373,0.7864329218864441,0.0008814613684080541,-0.017616188153624535
902.0,880.0,2.3779,0.4941,9.207,-0.0472,0.0092,-0.1133,-1.7913018665709437,-0.048072297126054764,2.867659330368042,-1.7045246362686157,0.05108262971043587,2.204000473022461,4.710961027736328,-0.0,0.3023567199707031,-1.6520784536944788,0.0,0.00176954735070467,0.7881675362586975,0.0,0.0054755075834691525,0.7864087820053101,0.0010205181315541267,-0.08765076100826263
902.0,880.0,2.3779,0.4941,9.207,-0.0472,0.0092,-0.1133,-1.7914701900877894,-0.044457897543907166,2.8840770721435547,-1.7042834758758545,0.05009109526872635,2.1943464279174805,4.710977717036865,-0.0,0.3112335801124573,-1.6521590391742151,0.0,0.015146921388804913,0.7881596088409424,0.0,0.00964984018355608,0.7863484621047974,0.0010830863611772656,-0.030068423599004745
902.0,880.0,2.3779,0.4941,9.207,-0.0472,0.0092,-0.1133,-1.791746278802389,-0.041329436004161835,2.869936466217041,-1.704035997390747,0.05231994390487671,2.1943411827087402,4.7109691339680175,-0.0,0.3028021454811096,-1.6521061102496546,0.0,0.013536348007619381,0.7881556749343872,0.0,0.012752577662467957,0.7864488363265991,0.0010685761226341128,-0.03088287264108658
902.0,880.0,2.3779,0.4941,9.207,-0.0472,0.0092,-0.1133,-1.7920271358885707,-0.0390666201710701,2.9448134899139404,-1.703716516494751,0.05189951881766319,2.134453058242798,4.7109410005756835,-0.0,0.29972389340400696,-1.6520903746234339,0.0,0.012500844895839691,0.7881675362586975,0.0,0.014693452045321465,0.7864329218864441,0.0019449576502665877,0.020207181572914124
902.0,880.0,2.3779,0.4941,9.207,-0.0472,0.0092,-0.1133,-1.792211195031637,-0.038452960550785065,2.8711178302764893,-1.7034205198287964,0.05165254324674606,2.17893648147583,4.711009665126465,-0.0,0.30702823400497437,-1.6521104017840784,0.0,0.03598248213529587,0.7881596684455872,0.0,0.009553467854857445,0.786456823348999,0.00274273962713778,-0.034613706171512604
902.0,880.0,2.3779,0.4941,9.207,-0.0472,0.0092,-0.1133,-1.7924672565855921,-0.03509541600942612,2.9420547485351562,-1.7031002044677734,0.04989498853683472,2.1376476287841797,4.710965319270752,-0.0,0.31633585691452026,-1.6520784536944788,0.0,0.005934528075158596,0.7881153225898743,0.0,0.008748583495616913,0.7864529490470886,0.002788179088383913,-0.04997639358043671
902.0,880.0,2.3779,0.4941,9.207,-0.0472,0.0092,-0.1133,-1.7926155529417933,-0.034221965819597244,2.8862881660461426,-1.702784538269043,0.0483778715133667,2.15208101272583,4.710992975825928,-0.0,0.3052070140838623,-1.6521061102496546,0.0,0.014610854908823967,0.7881919741630554,0.0,0.008891882374882698,0.7864646315574646,0.0030291646253317595,-0.02974996529519558
902.0,880.0,2.3779,0.4941,9.207,-0.0472,0.0092,-0.1133,-1.7928034267821253,-0.030642367899417877,2.9141016006469727,-1.702451229095459,0.04643746092915535,2.2006890773773193,4.710977717036865,-0.0,0.29249751567840576,-1.6520546118365687,0.0,0.015459317713975906,0.7881276607513428,0.0,0.032420139759778976,0.7865248918533325,0.0031507930252701044,-0.04728514328598976
902.0,880.0,2.3779,0.4941,9.207,-0.0472,0.0092,-0.1133,-1.7929641209044398,-0.027222033590078354,2.9284026622772217,-1.7022647857666016,0.044119663536548615,2.137542963027954,4.710973425502441,-0.0,0.3093065023422241,-1.6520822683917444,0.0,0.02534675970673561,0.7881677746772766,0.0,0.019075283780694008,0.7865489721298218,0.0035340485628694296,-0.09583930671215057
902.0,880.0,2.3779,0.4941,9.207,-0.0472,0.0092,-0.1133,-1.7931281528868617,-0.02526530623435974,2.9253902435302734,-1.701964020729065,0.041700080037117004,2.14788818359375,4.710981531734131,-0.0,0.29552608728408813,-1.6520784536944788,0.0,0.03680369630455971,0.7881919145584106,0.0,0.01235547661781311,0.7865408658981323,0.004091320559382439,-0.024822823703289032
902.0,880.0,2.3779,0.4941,9.207,-0.0472,0.0092,-0.1133,-1.79331698040151,-0.024154266342520714,2.9258534908294678,-1.701720118522644,0.038125284016132355,2.1593422889709473,4.710920973415039,-0.0,0.2994611859321594,-1.6520865599261683,0.0,0.02518622763454914,0.7881312370300293,0.0,0.001619043992832303,0.7865649461746216,0.005128628574311733,-0.0317237563431263
