ramyac6/ROB537/final_project/csv/all/good_17.csv
tof_0,tof_1,accelx,accely,accelz,gyrox,gyroy,gyroz,shoulder_lift_joint_position,shoulder_lift_joint_velocity,shoulder_lift_joint_effort,elbow_joint_position,elbow_joint_velocity,elbow_joint_effort,wrist_1_joint_position,wrist_1_joint_velocity,wrist_1_joint_effort,wrist_2_joint_position,wrist_2_joint_velocity,wrist_2_joint_effort,wrist_3_joint_position,wrist_3_joint_velocity,wrist_3_joint_effort,shoulder_pan_joint_position,shoulder_pan_joint_velocity,shoulder_pan_joint_effort
170.0,215.0,4.3202,-2.7733,7.5601,-0.0121,0.0377,-0.1243,-1.6714970074095667,0.0,2.650083541870117,-1.4535638093948364,0.00012522516772150993,2.154714822769165,-2.198512693444723,0.00019863140187226236,0.2828775644302368,-1.486772362385885,0.0,-0.007966828532516956,1.1227246522903442,-2.6896923372987658e-05,-0.005968987476080656,1.0853955745697021,0.0,-0.014506258070468903
170.0,215.0,4.3202,-2.7733,7.5601,-0.0121,0.0377,-0.1243,-1.6714731655516566,0.0,2.639803647994995,-1.4536044597625732,0.00013869207759853452,2.165231943130493,-2.198485036889547,0.00013662339188158512,0.27714240550994873,-1.48676044145693,0.0,-0.020699847489595413,1.1226718425750732,-2.5742900106706657e-05,-0.008816896937787533,1.0853352546691895,0.0,-0.004114385694265366
170.0,215.0,4.3202,-2.7733,7.5601,-0.0121,0.0377,-0.1243,-1.6714488468565882,0.0,2.606670379638672,-1.4535797834396362,0.00012577134475577623,2.179954767227173,-2.1984688244261683,0.00014458417717833072,0.26668640971183777,-1.4867799917804163,0.0,0.0006543538765981793,1.1227085590362549,-2.434991802147124e-05,0.000977520365267992,1.0853434801101685,0.0,-0.03970666974782944
170.0,215.0,4.3202,-2.7733,7.5601,-0.0121,0.0377,-0.1243,-1.6715132198729457,0.0,2.6163995265960693,-1.4535599946975708,0.00011505262227728963,2.199646234512329,-2.198472639123434,0.00015305202396120876,0.2730710208415985,-1.4867518583880823,0.0,-0.01526074018329382,1.1226558685302734,-1.174645331047941e-05,0.0036191141698509455,1.0853873491287231,0.0,-0.008150661364197731
170.0,215.0,4.3202,-2.7733,7.5601,-0.0121,0.0377,-0.1243,-1.6714726887144984,0.0,2.6314494609832764,-1.4535802602767944,0.00012368685565888882,2.202892780303955,-2.1984812221922816,0.00015942788741085678,0.2612890601158142,-1.4868200461017054,0.0,-0.000418674957472831,1.1227092742919922,-1.098602751881117e-05,-0.0036626989021897316,1.0853594541549683,9.739909000927582e-05,0.017341267317533493
170.0,215.0,4.3202,-2.7733,7.5601,-0.0121,0.0377,-0.1243,-1.6714569530882777,0.0,2.611621856689453,-1.4536200761795044,0.00011468088632682338,2.167008876800537,-2.198444982568258,0.00025685029686428607,0.272945374250412,-1.4867718855487269,0.0,-0.0011682143667712808,1.122692584991455,-1.0474577720742673e-05,-0.002975102514028549,1.085367202758789,0.00010638973617460579,0.004250660538673401
177.0,218.0,4.3705,-3.1262,7.5153,-0.0509,0.0238,-0.1211,-1.6714450321593226,0.0,2.612517833709717,-1.4536163806915283,0.00010689761256799102,2.122421979904175,-2.1984573803343714,0.00025180139346048236,0.26322653889656067,-1.4867680708514612,0.0,0.0011136489920318127,1.1226238012313843,-1.0008649041992612e-05,0.0017633247189223766,1.085355281829834,0.00010043366637546569,-0.025268375873565674
177.0,218.0,4.3705,-3.1262,7.5153,-0.0509,0.0238,-0.1211,-1.6714650593199671,1.8630643694450555e-09,2.6444973945617676,-1.4535599946975708,0.00011440399975981563,2.211437940597534,-2.198500772515768,0.00024758497602306306,0.2782049775123596,-1.4867642561541956,0.0,0.002191526349633932,1.1226800680160522,-7.07940650546135e-10,-0.0010577177163213491,1.0853794813156128,9.347933519165963e-05,-0.017491748556494713
177.0,218.0,4.3705,-3.1262,7.5153,-0.0509,0.0238,-0.1211,-1.671436449090475,6.036092439754603e-17,2.6452627182006836,-1.4535962343215942,0.00013295459211803973,2.1456363201141357,-2.1984526119627894,0.00024448041222058237,0.2670585513114929,-1.4868000189410608,0.0,-0.004971223417669535,1.122692584991455,-1.2866473667473132e-14,-0.013868246227502823,1.0853471755981445,8.742558566154912e-05,0.016928458586335182
177.0,218.0,4.3705,-3.1262,7.5153,-0.0509,0.0238,-0.1211,-1.6714855633177699,1.9556175412638708e-24,2.649576187133789,-1.4536004066467285,0.00011890264431713149,2.197378158569336,-2.198425432244772,0.00021527054195757955,0.26834091544151306,-1.4868200461017054,0.0,-0.006864187307655811,1.1226474046707153,-2.3384176197023883e-19,-0.018028434365987778,1.0853873491287231,8.21084322524257e-05,0.02519761025905609
177.0,218.0,4.3705,-3.1262,7.5153,-0.0509,0.0238,-0.1211,-1.6714211903014125,6.335952166751356e-32,2.674872875213623,-1.4535962343215942,0.00010753684910014272,2.1884968280792236,-2.198421617547506,0.00016854412388056517,0.27287420630455017,-1.4868162314044397,0.0,0.004712238907814026,1.1227085590362549,-4.2499593334551605e-24,-0.0057348813861608505,1.0853590965270996,0.0001026870813802816,-0.015338567085564137
177.0,218.0,4.3705,-3.1262,7.5153,-0.0509,0.0238,-0.1211,-1.671436449090475,1.5300576144983815e-37,2.6484436988830566,-1.453547716140747,0.000100343233498279,2.2079150676727295,-2.1984411678709925,0.000145622412674129,0.270119845867157,-1.4867876211749476,0.0,-0.021026255562901497,1.1227169036865234,-1.1829919720216627e-27,0.0008474728092551231,1.0853832960128784,0.00013912742724642158,-0.014840399846434593
177.0,218.0,4.3705,-3.1262,7.5153,-0.0509,0.0238,-0.1211,-1.6714650593199671,4.698499196820194e-06,2.6066575050354004,-1.4535362720489502,9.212612349074334e-05,2.1719720363616943,-2.1984693012633265,0.00012533813423942775,0.2769271433353424,-1.4868038336383265,0.0,-0.014916665852069855,1.1226842403411865,-2.1500294200374615e-32,-0.00940840132534504,1.085411548614502,0.00018686805560719222,-0.012229755520820618
177.0,218.0,4.3705,-3.1262,7.5153,-0.0509,0.0238,-0.1211,-1.6714970074095667,7.295531395357102e-05,2.6043200492858887,-1.4535802602767944,8.515300578437746e-05,2.176401376724243,-2.1984650097289027,0.00011001533130183816,0.26556286215782166,-1.4868038336383265,0.0,-0.0007070618448778987,1.1226966381072998,-3.907572111345485e-37,-0.019856587052345276,1.0853872299194336,0.0001996533974306658,0.01452129241079092
177.0,218.0,4.3705,-3.1262,7.5153,-0.0509,0.0238,-0.1211,-1.6714769802489222,6.277727516135201e-05,2.6204614639282227,-1.453547716140747,7.916124741313979e-05,2.2144358158111572,-2.198461195031637,9.803103603189811e-05,0.26615312695503235,-1.4867995421039026,0.0,-0.010558865033090115,1.1227126121520996,-7.101780617198173e-42,-0.008669190108776093,1.085358738899231,0.00036740361247211695,0.021339882165193558
177.0,218.0,4.3705,-3.1262,7.5153,-0.0509,0.0238,-0.1211,-1.6714731655516566,5.5091557442210615e-05,2.609259843826294,-1.453547716140747,7.395732245640829e-05,2.180844306945801,-2.1984011135497035,8.84014370967634e-05,0.2790883183479309,-1.486811939870016,0.0,-0.012599533423781395,1.1226593255996704,-0.0,0.00027835211949422956,1.0853549242019653,0.0003323160926811397,-0.013714456930756569
177.0,218.0,4.3705,-3.1262,7.5153,-0.0509,0.0238,-0.1211,-1.6714731655516566,4.908248956780881e-05,2.580507278442383,-1.4536044597625732,6.939528975635767e-05,2.202502489089966,-2.1984764538206996,8.049458847381175e-05,0.27238303422927856,-1.4867995421039026,0.0,0.005147662945091724,1.122700810432434,-0.0,-0.00027351174503564835,1.0853872299194336,0.00026667251950129867,-0.004623286426067352
177.0,218.0,4.3705,-3.1262,7.5153,-0.0509,0.0238,-0.1211,-1.6715051136412562,4.425548104336485e-05,2.615614891052246,-1.4535435438156128,6.536347063956782e-05,2.1541364192962646,-2.1984693012633265,7.388614176306874e-05,0.2840791344642639,-1.486783806477682,0.0,-0.009145848453044891,1.1226962804794312,-0.0,-0.008489666506648064,1.0854151248931885,0.0002597882994450629,-0.02928841859102249
176.0,233.0,4.3645,-2.6841,7.6199,-0.0174,0.0223,-0.12,-1.671469350854391,4.029279443784617e-05,2.6876163482666016,-1.4535682201385498,6.177439354360104e-05,2.225809335708618,-2.1984688244261683,6.828048208262771e-05,0.2701238989830017,-1.4867876211749476,0.0,6.918818689882755e-05,1.1226718425750732,-0.0,-0.01642228290438652,1.0854073762893677,0.00022300849377643317,-0.0011707888916134834
176.0,233.0,4.3645,-2.6841,7.6199,-0.0174,0.0223,-0.12,-1.6714650593199671,3.6981527955504134e-05,2.6144094467163086,-1.4535962343215942,5.855894414708018e-05,2.1468303203582764,-2.1984406910338343,6.346544250845909e-05,0.2708307206630707,-1.4868281523333948,0.0,-0.01569659635424614,1.1226966381072998,-0.0,0.0035101575776934624,1.0853750705718994,0.00019534824241418391,0.0150828892365098
176.0,233.0,4.3645,-2.6841,7.6199,-0.0174,0.0223,-0.12,-1.671537538568014,3.417317202547565e-05,2.627830982208252,-1.4535720348358154,4.4529373553814366e-05,2.190995693206787,-2.198461195031637,5.928479367867112e-05,0.27117571234703064,-1.486795727406637,0.0,-0.011579605750739574,1.122692584991455,-0.0,0.005222156643867493,1.0853991508483887,0.00017379225755576044,0.003742522094398737
176.0,233.0,4.3645,-2.6841,7.6199,-0.0174,0.0223,-0.12,-1.6714731655516566,3.176121026626788e-05,2.6216535568237305,-1.4535678625106812,4.243010334903374e-05,2.2032766342163086,-2.198421617547506,5.562094520428218e-05,0.283967524766922,-1.4867876211749476,0.0,0.013226409442722797,1.1226966381072998,-0.0,-0.006252877879887819,1.0853872299194336,0.0001565208804095164,0.008104100823402405
176.0,233.0,4.3645,-2.6841,7.6199,-0.0174,0.0223,-0.12,-1.671481271783346,3.016450318682473e-05,2.6316652297973633,-1.4535999298095703,4.098109275219031e-05,2.20611572265625,-2.198489328423971,5.315704402164556e-05,0.27843067049980164,-1.4868038336383265,0.0,-0.003312497865408659,1.122732400894165,-0.0,-0.0056008342653512955,1.0853668451309204,0.00014566394384019077,0.011804849840700626
176.0,233.0,4.3645,-2.6841,7.6199,-0.0174,0.0223,-0.12,-1.6714650593199671,2.826952731993515e-05,2.6440815925598145,-1.453547716140747,1.8143568070172478e-07,2.1995010375976562,-2.1984764538206996,3.7646219425369054e-05,0.28586286306381226,-1.4867876211749476,0.0,6.888760253787041e-05,1.1227085590362549,-0.0,0.013138728216290474,1.0854032039642334,0.00013333263632375747,-0.01298297755420208
176.0,233.0,4.3645,-2.6841,7.6199,-0.0174,0.0223,-0.12,-1.6714650593199671,2.6598618205753155e-05,2.6256113052368164,-1.4535518884658813,5.878284987134545e-15,2.194887638092041,-2.1984931431212367,3.565588122000918e-05,0.2731257975101471,-1.4867876211749476,0.0,-0.0017942620906978846,1.1227446794509888,-0.0,-0.003421155735850334,1.0854032039642334,0.00012292637256905437,-0.013733737170696259
176.0,233.0,4.3645,-2.6841,7.6199,-0.0174,0.0223,-0.12,-1.6714450321593226,2.511417551431805e-05,2.6178226470947266,-1.4536159038543701,1.9044893281834439e-22,2.175795555114746,-2.1985088787474574,3.3866919693537056e-05,0.2807510197162628,-1.486823860798971,0.0,-0.001692555844783783,1.1227483749389648,0.00012635438179131597,0.003050951287150383,1.0853995084762573,0.00011402676318539307,0.009497858583927155
176.0,233.0,4.3645,-2.6841,7.6199,-0.0174,0.0223,-0.12,-1.6715012989439906,2.3786687961546704e-05,2.6122541427612305,-1.4536324739456177,6.1703033836244405e-30,2.2249531745910645,-2.1985050640501917,3.2248892239294946e-05,0.27133122086524963,-1.4867876211749476,0.0,-0.00237241480499506,1.1227164268493652,0.00011393975000828505,0.002561244647949934,1.0853914022445679,3.5423203371465206e-05,0.013190953992307186
176.0,233.0,4.3645,-2.6841,7.6199,-0.0174,0.0223,-0.12,-1.6714889011778773,1.1296244338154793e-05,2.6113882064819336,-1.4535880088806152,-2.342931111343205e-05,2.166121006011963,-2.1985207996764125,-2.538145417929627e-05,0.28106027841567993,-1.4868114630328577,0.0,0.0011392362648621202,1.1227519512176514,0.00011880382226081565,0.007330375723540783,1.0854393243789673,3.2838117476785555e-05,0.006637952756136656
176.0,233.0,4.3645,-2.6841,7.6199,-0.0174,0.0223,-0.12,-1.6714688740172328,4.9856190287300706e-08,2.58046817779541,-1.4535678625106812,-3.343330172356218e-05,2.1990966796875,-2.198512693444723,-2.4895776732591912e-05,0.28253933787345886,-1.4867919127093714,0.0,-0.00227915751747787,1.122675895690918,0.00011369607091182843,0.011580102145671844,1.0853631496429443,1.5303370673791505e-05,0.04581218957901001
175.0,217.0,4.3896,-2.9545,7.6026,-0.055,0.0153,-0.1217,-1.6714688740172328,1.6152772190956106e-15,2.645406723022461,-1.4535958766937256,-3.185614332323894e-05,2.1869962215423584,-2.1984969578185023,-3.538427336025052e-05,0.2915451228618622,-1.4867876211749476,0.0,0.011227867566049099,1.122825264930725,0.00010486422252142802,0.008153953589498997,1.0853352546691895,1.4327957615023479e-05,-0.011013289913535118
175.0,217.0,4.3896,-2.9545,7.6026,-0.055,0.0153,-0.1217,-1.6714965305724085,5.2332931478166055e-23,2.6138556003570557,-1.4535952806472778,-4.056067336932756e-05,2.2254345417022705,-2.198488851586813,-3.362336792633869e-05,0.2771180272102356,-1.4868200461017054,0.0,0.0002741602947935462,1.122705101966858,9.73055575741455e-05,0.00859054084867239,1.0853631496429443,6.267756447186912e-08,-0.015147090889513493
175.0,217.0,4.3896,-2.9545,7.6026,-0.055,0.0153,-0.1217,-1.671492715875143,1.6955202622475306e-30,2.5878725051879883,-1.4535995721817017,-7.139893565266675e-09,2.2166318893432617,-2.1985327206053675,-3.202799416612834e-05,0.2922009229660034,-1.4867919127093714,0.0,-0.0015255706384778023,1.122692584991455,9.07633439055644e-05,0.0157705657184124,1.0853631496429443,2.0306731878574338e-15,0.022664103657007217
175.0,217.0,4.3896,-2.9545,7.6026,-0.055,0.0153,-0.1217,-1.6714846096434535,5.493269906876102e-38,2.633188009262085,-1.4536160230636597,-2.3132345381550814e-16,2.187377691268921,-2.1985327206053675,-3.0577153665944934e-05,0.28569793701171875,-1.486823860798971,0.0,-0.0028350711800158024,1.122740626335144,8.504552533850074e-05,0.017527006566524506,1.0853352546691895,6.579122037648585e-23,0.01514293160289526
175.0,217.0,4.3896,-2.9545,7.6026,-0.055,0.0153,-0.1217,-1.6714965305724085,1.3312335411085762e-43,2.582406520843506,-1.4535797834396362,-7.270411879289895e-05,2.191117525100708,-2.1984693012633265,-3.851388555631274e-06,0.2858249545097351,-1.4867995421039026,0.0,0.005545075051486492,1.1226966381072998,8.120852726278827e-05,0.009380733594298363,1.085367202758789,1.5887805001826951e-28,-0.014901883900165558
175.0,217.0,4.3896,-2.9545,7.6026,-0.055,0.0153,-0.1217,-1.6715694866576136,0.0,2.6841635704040527,-1.453628420829773,-6.26121909590438e-05,2.173027515411377,-2.198449274102682,-6.999708451749242e-11,0.295251727104187,-1.4868081251727503,0.0,-0.003239417914301157,1.1227566003799438,7.660053233848885e-05,0.00557728111743927,1.0853393077850342,5.1474470013478984e-36,0.011073844507336617
175.0,217.0,4.3896,-2.9545,7.6026,-0.055,0.0153,-0.1217,-1.6714688740172328,0.0,2.5984959602355957,-1.4536036252975464,-5.49643809790723e-05,2.2058348655700684,-2.198485036889547,-1.2721622774921411e-15,0.2901344895362854,-1.4867799917804163,0.0,-0.014892851002514362,1.1227489709854126,7.248753536259755e-05,0.0020428469870239496,1.0853791236877441,1.6675451725465323e-43,0.04587307199835777
175.0,217.0,4.3896,-2.9545,7.6026,-0.055,0.0153,-0.1217,-1.6715289554991664,0.0,2.615187644958496,-1.4536242485046387,-4.898152474197559e-05,2.1706326007843018,-2.198524614373678,-2.3120922735904614e-20,0.28743287920951843,-1.4868281523333948,0.0,-0.008474689908325672,1.1226885318756104,6.314225174719468e-05,-0.00012385932495817542,1.0853471755981445,0.0,0.005131721030920744
175.0,217.0,4.3896,-2.9545,7.6026,-0.055,0.0153,-0.1217,-1.671532770196432,0.0,2.660085678100586,-1.453628420829773,-4.417331365402788e-05,2.199965715408325,-2.198516984979147,-4.202114130692601e-25,0.3017083406448364,-1.4868281523333948,0.0,-0.009251165203750134,1.1227245330810547,5.454847632790916e-05,-0.0007883383659645915,1.0853750705718994,0.0,0.02839651331305504
175.0,217.0,4.3896,-2.9545,7.6026,-0.055,0.0153,-0.1217,-1.6715122661986292,0.0,2.5785350799560547,-1.4536480903625488,-5.953075742581859e-05,2.1832916736602783,-2.198500772515768,-7.637135263620062e-30,0.28105300664901733,-1.4867518583880823,0.0,-0.007226090412586927,1.1226718425750732,5.202574538998306e-05,-0.0074644931592047215,1.0853914022445679,0.0,0.017449092119932175
175.0,217.0,4.3896,-2.9545,7.6026,-0.055,0.0153,-0.1217,-1.671548982659811,-0.0010397507576271892,2.625331401824951,-1.4535917043685913,-5.538624100154266e-05,2.2468690872192383,-2.1984969578185023,-1.3880116760420864e-34,0.296836793422699,-1.4867962042437952,0.0,-0.012912909500300884,1.1226474046707153,3.9824288251111284e-05,-0.0018824191065505147,1.0853954553604126,0.0,-0.014326686039566994
175.0,217.0,4.3896,-2.9545,7.6026,-0.055,0.0153,-0.1217,-1.6715809307494105,-0.0025081615895032883,2.60103178024292,-1.4536160230636597,-6.241397932171822e-05,2.1846959590911865,-2.1985608539977015,-2.5226427188498935e-39,0.3005087077617645,-1.4867599646197718,0.0,-0.02019793540239334,1.1227531433105469,7.237867527543074e-10,-0.0023888908326625824,1.0853914022445679,0.0,-0.028169794008135796
176.0,224.0,4.1587,-3.1986,7.587,-0.0576,0.015,-0.13,-1.6716491184630335,-0.006129983812570572,2.5993990898132324,-1.4536316394805908,-6.343780114548281e-05,2.2029049396514893,-2.198488851586813,-4.624284932271896e-44,0.29047542810440063,-1.486783806477682,0.0,0.002738860435783863,1.1227052211761475,1.3154468257671383e-14,-0.0059015462175011635,1.0853954553604126,0.0,0.03091607615351677
176.0,224.0,4.1587,-3.1986,7.587,-0.0576,0.015,-0.13,-1.6716205082335414,-0.013393023982644081,2.6121883392333984,-1.4536241292953491,-4.451464337762445e-05,2.210435390472412,-2.1984931431212367,-0.0,0.29344800114631653,-1.486772362385885,0.0,-0.009527596645057201,1.1226885318756104,2.3907595409132125e-19,0.005161854904145002,1.0853872299194336,0.0,0.0024377780500799417
176.0,224.0,4.1587,-3.1986,7.587,-0.0576,0.015,-0.13,-1.6717845402159632,-0.007970837876200676,2.627981662750244,-1.4536241292953491,-4.169991007074714e-05,2.1583547592163086,-2.198524614373678,-0.0,0.28986144065856934,-1.4867480436908167,0.0,-0.00520668737590313,1.1226439476013184,4.345087281154857e-24,0.009181131608784199,1.0853631496429443,0.0,-0.011518511921167374
176.0,224.0,4.1587,-3.1986,7.587,-0.0576,0.015,-0.13,-1.6718408070006312,-0.005590097047388554,2.621706485748291,-1.4536159038543701,-3.985340299550444e-05,2.203610897064209,-2.1985608539977015,-0.0,0.28036367893218994,-1.4867842833148401,0.0,-0.006765233818441629,1.122705101966858,-2.3704747945885174e-05,-0.007104425225406885,1.0853668451309204,0.0,0.03661670163273811
176.0,224.0,4.1587,-3.1986,7.587,-0.0576,0.015,-0.13,-1.6719280682005824,-0.0068952045403420925,2.6167120933532715,-1.4536151885986328,-8.538934343960136e-05,2.220249652862549,-2.1985684833922328,-7.162922702264041e-05,0.2927503287792206,-1.4867919127093714,0.0,-0.0035039803478866816,1.1226481199264526,-2.8113774533267133e-05,-0.016411954537034035,1.0854560136795044,0.0,0.02765544503927231
176.0,224.0,4.1587,-3.1986,7.587,-0.0576,0.015,-0.13,-1.6719924412169398,-0.010055183432996273,2.6270389556884766,-1.453651785850525,-0.0011755900923162699,2.251235246658325,-2.1985727749266566,-0.0004513614112511277,0.29897403717041016,-1.4867518583880823,0.0,-0.014098530635237694,1.1226718425750732,-3.221746374038048e-05,-0.006553103215992451,1.0854073762893677,0.0,-0.00039825309067964554
176.0,224.0,4.1587,-3.1986,7.587,-0.0576,0.015,-0.13,-1.6720925770201625,-0.012171338312327862,2.579456329345703,-1.453668236732483,-0.0004923409433104098,2.210465431213379,-2.1985603771605433,-0.0006544819916598499,0.28552910685539246,-1.486772362385885,0.0,-0.007445621304214001,1.122675895690918,-4.099835132365115e-05,-0.0012212013825774193,1.085395097732544,0.0,-0.0287926085293293
176.0,224.0,4.1587,-3.1986,7.587,-0.0576,0.015,-0.13,-1.6722327671446742,-0.011408241465687752,2.6263723373413086,-1.453688383102417,-0.00031816010596230626,2.1711630821228027,-2.198541303674215,-0.0004751828673761338,0.2923651933670044,-1.48676044145693,0.0,-0.01756758987903595,1.122675895690918,-0.00022986276599112898,-0.00480198347941041,1.08546781539917,0.0,-0.0388464517891407
176.0,224.0,4.1587,-3.1986,7.587,-0.0576,0.015,-0.13,-1.6723162136473597,-0.011988154612481594,2.605520248413086,-1.4536118507385254,-7.565895066363737e-05,2.2104339599609375,-2.198524614373678,-0.00041664877790026367,0.2756861448287964,-1.4867561499225062,0.0,-0.015730198472738266,1.122700810432434,-0.00024004977603908628,-0.010059921070933342,1.0854229927062988,0.0,0.002278133761137724
176.0,224.0,4.1587,-3.1986,7.587,-0.0576,0.015,-0.13,-1.6724282703795375,-0.013942822813987732,2.585843801498413,-1.4536356925964355,-5.66141570743639e-05,2.1946842670440674,-2.198528905908102,-0.0003386338648851961,0.3062092065811157,-1.4867804686175745,0.0,-0.01465064287185669,1.122663974761963,-0.00027122654137201607,-0.008516249246895313,1.0854073762893677,0.0,-0.03256288915872574
176.0,224.0,4.1587,-3.1986,7.587,-0.0576,0.015,-0.13,-1.6725121937193812,-0.016368890181183815,2.647357940673828,-1.4536759853363037,-4.5231507101561874e-05,2.183962106704712,-2.1985327206053675,-0.0002850046439561993,0.2790028154850006,-1.4867680708514612,0.0,-0.03053613193333149,1.122648000717163,-0.00042135929106734693,-0.0179282333701849,1.0853791236877441,0.0,-0.02894720807671547
179.0,220.0,3.9583,-2.8714,7.5081,-0.0286,0.0206,-0.1187,-1.6726638279356898,-0.01825680397450924,2.61486554145813,-1.453680157661438,-3.76601456082426e-05,2.1535933017730713,-2.198524614373678,-0.0002460409887135029,0.293757826089859,-1.4867962042437952,0.0,-0.01963711902499199,1.1225922107696533,-0.0007665996672585607,-0.030049018561840057,1.085395097732544,0.0,-0.015084304846823215
179.0,220.0,3.9583,-2.8714,7.5081,-0.0286,0.0206,-0.1187,-1.672864099542135,-0.021424029022455215,2.6059553623199463,-1.4536274671554565,-3.226023545721546e-05,2.219916582107544,-2.198545118371481,-0.00021645105152856559,0.27442556619644165,-1.4868481794940394,0.0,-0.014942191541194916,1.1226520538330078,-0.002155797556042671,-0.02221778966486454,1.0854270458221436,0.0,0.007010850124061108
179.0,220.0,3.9583,-2.8714,7.5081,-0.0286,0.0206,-0.1187,-1.6729518375792445,-0.024341672658920288,2.591911792755127,-1.4536356925964355,-2.9127930247341283e-05,2.1789207458496094,-2.198516984979147,-0.00018015532987192273,0.28407078981399536,-1.4867761770831507,0.0,-0.013975225389003754,1.1225926876068115,-0.003930133301764727,-0.026673689484596252,1.085435390472412,0.0,-0.04574522376060486
179.0,220.0,3.9583,-2.8714,7.5081,-0.0286,0.0206,-0.1187,-1.6731354198851527,-0.026753537356853485,2.576237678527832,-1.4536480903625488,-2.5789251594687812e-05,2.1988425254821777,-2.1985327206053675,-0.00015646590327378362,0.28756165504455566,-1.4867962042437952,0.0,-0.01184787042438984,1.1225883960723877,-0.005960426758974791,-0.03397779166698456,1.085451364517212,0.00036657394957728684,-0.029033616185188293
179.0,220.0,3.9583,-2.8714,7.5081,-0.0286,0.0206,-0.1187,-1.673370977441305,-0.031646426767110825,2.5825676918029785,-1.4536521434783936,-2.313724507985171e-05,2.158278465270996,-2.198576589623922,-0.00014232602552510798,0.28799307346343994,-1.4867799917804163,0.0,-0.021759796887636185,1.122568130493164,-0.0032468202989548445,-0.030662154778838158,1.0854874849319458,0.0003960351459681988,-0.013321408070623875
179.0,220.0,3.9583,-2.8714,7.5081,-0.0286,0.0206,-0.1187,-1.6737195454039515,-0.0357138067483902,2.5758275985717773,-1.453692078590393,-2.0979841792723164e-05,2.186613082885742,-2.1985327206053675,-0.00013053022848907858,0.28802490234375,-1.4867799917804163,0.0,0.005503539927303791,1.1225605010986328,-0.00109296094160527,-0.010854242369532585,1.0854711532592773,0.0004625793662853539,-0.041977182030677795
179.0,220.0,3.9583,-2.8714,7.5081,-0.0286,0.0206,-0.1187,-1.6739989719786585,-0.04024449735879898,2.6158676147460938,-1.4536480903625488,-1.9190450984751806e-05,2.193859577178955,-2.198540826837057,-4.36039554188028e-05,0.2868759036064148,-1.486811939870016,0.0,-0.004062212072312832,1.1225237846374512,-0.0006444407044909894,-0.0242377407848835,1.085463285446167,0.00049645418766886,-0.03229067102074623
179.0,220.0,3.9583,-2.8714,7.5081,-0.0286,0.0206,-0.1187,-1.674297948876852,-0.046244774013757706,2.557445526123047,-1.4536724090576172,-1.7682321413303725e-05,2.215165138244629,-2.1985165081419886,-3.5128869058098644e-05,0.29815205931663513,-1.4868081251727503,0.0,-0.009101910516619682,1.1225770711898804,-0.00045717277680523694,-0.04077144339680672,1.0855034589767456,0.0007654677028767765,-0.03638279810547829
179.0,220.0,3.9583,-2.8714,7.5081,-0.0286,0.0206,-0.1187,-1.674690385858053,-0.05098584666848183,2.507720947265625,-1.453627347946167,-1.0471427058789118e-09,2.2074058055877686,-2.1984931431212367,-5.526197242033959e-07,0.275440514087677,-1.4868038336383265,0.0,-0.017374075949192047,1.122572422027588,-0.0003542789490893483,-0.039437759667634964,1.0855152606964111,0.0017525983275845647,-0.05750919505953789
179.0,220.0,3.9583,-2.8714,7.5081,-0.0286,0.0206,-0.1187,-1.6750689945616664,-0.05315663665533066,2.5649847984313965,-1.453620195388794,-3.3926091522368284e-17,2.1895880699157715,-2.198528905908102,-1.0043590091546317e-11,0.30130982398986816,-1.4867876211749476,0.0,-0.008879676461219788,1.1225237846374512,-0.00028920292970724404,-0.027976561337709427,1.0854952335357666,0.004065816756337881,-0.050066206604242325
179.0,220.0,3.9583,-2.8714,7.5081,-0.0286,0.0206,-0.1187,-1.6755415401854457,-0.0561959370970726,2.5566225051879883,-1.4536601305007935,-1.0991622019104782e-24,2.2550387382507324,-2.1984931431212367,0.0005565580795519054,0.2986154854297638,-1.4867995421039026,0.0,-0.025304971262812614,1.122572422027588,-0.0002443286357447505,-0.04265309497714043,1.0855591297149658,0.008450444787740707,0.0018187793903052807
179.0,220.0,3.9583,-2.8714,7.5081,-0.0286,0.0206,-0.1187,-1.6760369739928187,-0.060655929148197174,2.5479555130004883,-1.4536439180374146,-3.561145442136735e-32,2.227933406829834,-2.1984764538206996,0.0005141959409229457,0.29854777455329895,-1.4868162314044397,0.0,-0.01467413455247879,1.1225438117980957,-0.00021151189866941422,-0.031968940049409866,1.0856071710586548,0.0064325793646276,-0.011004138737916946
176.0,223.0,3.7729,-2.6865,7.5924,-0.0576,-0.0185,-0.1182,-1.6764961681761683,-0.06390296667814255,2.5857865810394287,-1.453680157661438,-1.1537660970941598e-39,2.2160542011260986,-2.1984931431212367,0.0004953660536557436,0.31180763244628906,-1.4867876211749476,0.0,-0.02682969719171524,1.122491717338562,-0.0001864675577962771,-0.018380366265773773,1.085679292678833,0.003870539367198944,0.006713716313242912
176.0,223.0,3.7729,-2.6865,7.5924,-0.0576,-0.0185,-0.1182,-1.6769281826415003,-0.06595798581838608,2.5563817024230957,-1.4536843299865723,-2.802596928649634e-45,2.188140392303467,-2.1984764538206996,0.0004611401818692684,0.311306893825531,-1.4868157545672815,0.0,-0.0041655804961919785,1.1225605010986328,-0.00017125936574302614,-0.01673590950667858,1.0856592655181885,0.0026542674750089645,-0.018561912700533867
176.0,223.0,3.7729,-2.6865,7.5924,-0.0576,-0.0185,-0.1182,-1.677471777001852,-0.06787178665399551,2.57354736328125,-1.4536765813827515,-0.0,2.230745553970337,-2.198461195031637,0.00034968089312314987,0.3172946274280548,-1.4868319670306605,0.0,-0.0076253642328083515,1.1225318908691406,-0.00015446238103322685,-0.01747772842645645,1.0856547355651855,0.0015846751630306244,0.0006701936945319176
176.0,223.0,3.7729,-2.6865,7.5924,-0.0576,-0.0185,-0.1182,-1.678035398522848,-0.07511457800865173,2.551482915878296,-1.4536234140396118,-0.0,2.212428331375122,-2.198449274102682,0.0003239988873247057,0.3141917586326599,-1.4868477026568812,0.0,-0.014933268539607525,1.1225237846374512,-0.00014066662697587162,-0.022507168352603912,1.0857194662094116,0.001364970812574029,0.02131618931889534
176.0,223.0,3.7729,-2.6865,7.5924,-0.0576,-0.0185,-0.1182,-1.6786343059935511,-0.08479331433773041,2.554081678390503,-1.453603982925415,-0.0,2.2418158054351807,-2.198473115960592,0.0002687081869225949,0.30588892102241516,-1.4868157545672815,0.0,-0.017779391258955002,1.122539758682251,-0.000129132647998631,-0.02467237040400505,1.0857112407684326,0.0010669744806364179,-0.053950559347867966
176.0,223.0,3.7729,-2.6865,7.5924,-0.0576,-0.0185,-0.1182,-1.6793214283385218,-0.09150300920009613,2.5820963382720947,-1.4535880088806152,-0.0,2.193485736846924,-2.198437353173727,0.0002497633686289191,0.2970438599586487,-1.486823860798971,0.0,-0.031300634145736694,1.122539758682251,-0.00011934723443118855,-0.030667420476675034,1.0856949090957642,0.0006609727279283106,0.005631627980619669
176.0,223.0,3.7729,-2.6865,7.5924,-0.0576,-0.0185,-0.1182,-1.6800490818419398,-0.09163524210453033,2.5625901222229004,-1.4536283016204834,0.0007822605548426509,2.2366912364959717,-2.1984445057311,0.00032627457403577864,0.3094590902328491,-1.4868033568011683,0.0,-0.016704844310879707,1.1224918365478516,-0.00011094039655290544,-0.0077743930742144585,1.0856949090957642,0.0005175868864171207,-0.017971333116292953
176.0,223.0,3.7729,-2.6865,7.5924,-0.0576,-0.0185,-0.1182,-1.680835863152975,-0.09380071610212326,2.5684123039245605,-1.453603982925415,0.0005226091598160565,2.2151732444763184,-2.198404928246969,0.000834422477055341,0.31975120306015015,-1.4868353048907679,-0.00015045245527289808,-0.012919742614030838,1.122511863708496,-0.0001036400135490112,-0.01935623586177826,1.0857149362564087,0.000501606788020581,-0.0037240423262119293
176.0,223.0,3.7729,-2.6865,7.5924,-0.0576,-0.0185,-0.1182,-1.6816073856749476,-0.09534388035535812,2.5671324729919434,-1.453628420829773,0.0003923799085896462,2.2167210578918457,-2.198404928246969,0.000566149945370853,0.31025803089141846,-1.4868477026568812,-0.00017733374261297286,-0.026763275265693665,1.122511863708496,-9.724119445309043e-05,-0.032872967422008514,1.0857473611831665,0.0014178212732076645,-0.024920154362916946
176.0,223.0,3.7729,-2.6865,7.5924,-0.0576,-0.0185,-0.1182,-1.6823941669859828,-0.09612289071083069,2.5861988067626953,-1.4536200761795044,0.0003141143824905157,2.2222156524658203,-2.19836487392568,0.000562650675419718,0.3186798691749573,-1.4868720213519495,-0.00018244312377646565,-0.023934343829751015,1.1225318908691406,-9.158644388662651e-05,-0.019974617287516594,1.0857751369476318,0.0011821324005723,-0.04680611193180084
176.0,223.0,3.7729,-2.6865,7.5924,-0.0576,-0.0185,-0.1182,-1.683209081689352,-0.10404486954212189,2.5507922172546387,-1.4535917043685913,9.134707215707749e-05,2.192976951599121,-2.1984249554076136,0.00039080448914319277,0.3368023633956909,-1.486851994191305,-0.00016422201588284224,-0.013466574251651764,1.1225354671478271,-8.655335113871843e-05,-0.01902422122657299,1.0857187509536743,0.0008364481618627906,0.011484827846288681
167.0,212.0,4.1246,-3.0981,7.194,-0.0959,-0.0958,-0.1361,-1.6841045818724574,-0.11638877540826797,2.5534911155700684,-1.4536480903625488,7.593099871883169e-05,2.1794562339782715,-2.1984249554076136,0.00037616476765833795,0.3285924792289734,-1.4868314901935022,-0.00016991171287372708,-0.02420521154999733,1.1225159168243408,-8.204448386095464e-05,-0.02103543095290661,1.085759162902832,0.00047958604409359396,0.01877075433731079
167.0,212.0,4.1246,-3.0981,7.194,-0.0959,-0.0958,-0.1361,-1.6847559414305628,-0.12367675453424454,2.592371940612793,-1.453564167022705,0.0001346402568742633,2.274651288986206,-2.19836487392568,0.0005939427064731717,0.3118237555027008,-1.4868763128863733,-0.00015871950017753989,-0.021351773291826248,1.1225478649139404,-7.89592886576429e-05,-0.02383154258131981,1.0858114957809448,0.000363359838956967,-0.007259398698806763
167.0,212.0,4.1246,-3.0981,7.194,-0.0959,-0.0958,-0.1361,-1.6857224903502406,-0.1295771300792694,2.5471291542053223,-1.4536081552505493,0.001092601683922112,2.2161171436309814,-2.1983214817442835,0.004671837203204632,0.33040884137153625,-1.48686391512026,-0.00019136606715619564,-0.030036259442567825,1.122511863708496,-7.518967322539538e-05,-0.02628520131111145,1.0857391357421875,0.0002746351819951087,-0.009186496958136559
167.0,212.0,4.1246,-3.0981,7.194,-0.0959,-0.0958,-0.1361,-1.686817308465475,-0.1252947747707367,2.583313465118408,-1.453564167022705,0.0010235471418127418,2.1709258556365967,-2.1982575855650843,0.01819196715950966,0.32649534940719604,-1.486851994191305,-0.00022462342167273164,-0.02700246125459671,1.1224756240844727,-7.176369399530813e-05,-0.031804800033569336,1.0857830047607422,0.00033775728661566973,0.01522052101790905
167.0,212.0,4.1246,-3.0981,7.194,-0.0959,-0.0958,-0.1361,-1.6878038845457972,-0.1165166050195694,2.6193156242370605,-1.4535884857177734,0.00033525144681334496,2.2033815383911133,-2.198118349114889,0.013244676403701305,0.32745328545570374,-1.4868958632098597,-0.0003563520440366119,-0.03544634208083153,1.122528314590454,-2.624478156576515e-06,-0.03648388385772705,1.0858112573623657,0.0014389657881110907,-0.013224351219832897
167.0,212.0,4.1246,-3.0981,7.194,-0.0959,-0.0958,-0.1361,-1.6888472042479457,-0.12630519270896912,2.6108474731445312,-1.4535720348358154,-0.0012786207953467965,2.2384352684020996,-2.198141714135641,0.000432573287980631,0.30783650279045105,-1.4868353048907679,-0.0003554253780748695,-0.026694510132074356,1.122544288635254,-4.151591781464958e-08,-0.04064606502652168,1.0858153104782104,0.002259974367916584,0.025199690833687782
167.0,212.0,4.1246,-3.0981,7.194,-0.0959,-0.0958,-0.1361,-1.6900268993773402,-0.1475563943386078,2.57914400100708,-1.453564167022705,-0.000640666694380343,2.1780495643615723,-2.1981216869749964,-0.003612430300563574,0.29733455181121826,-1.4869077841388147,-0.00028266673325560987,-0.0416417121887207,1.1225078105926514,-7.545311489325079e-13,-0.03910500928759575,1.0858235359191895,0.0014753848081454635,0.04824524372816086
167.0,212.0,4.1246,-3.0981,7.194,-0.0959,-0.0958,-0.1361,-1.6911646328368128,-0.1580161601305008,2.539867877960205,-1.4535444974899292,0.0005121410940773785,2.219381093978882,-2.1980935535826625,0.0017120314296334982,0.3161010146141052,-1.4868596235858362,-0.00023371657880488783,-0.04288167506456375,1.1224793195724487,-1.371322932393377e-17,-0.040574658662080765,1.0857830047607422,0.0005167765193618834,0.022547543048858643
167.0,212.0,4.1246,-3.0981,7.194,-0.0959,-0.0958,-0.1361,-1.692427774468893,-0.1520080715417862,2.565593957901001,-1.453519582748413,0.0044899312779307365,2.284287691116333,-2.198101659814352,0.0019746851176023483,0.31054896116256714,-1.4868148008929651,-0.00019922015781048685,-0.02888067439198494,1.122499942779541,-2.492311745390395e-22,-0.03378475084900856,1.0858190059661865,0.000212610510061495,0.01752869412302971
167.0,212.0,4.1246,-3.0981,7.194,-0.0959,-0.0958,-0.1361,-1.6936584911742152,-0.1344931274652481,2.584355354309082,-1.4534718990325928,0.005353269167244434,2.2578723430633545,-2.1981173954405726,0.001179050887003541,0.3142944276332855,-1.4869158903705042,-0.00022763453307561576,-0.034787509590387344,1.1225318908691406,-4.529653954846627e-27,-0.027953315526247025,1.0858433246612549,0.0027507219929248095,0.030841141939163208
167.0,212.0,4.1246,-3.0981,7.194,-0.0959,-0.0958,-0.1361,-1.6947771511473597,-0.1377032846212387,2.563176393508911,-1.453512191772461,0.001913029933348298,2.1929495334625244,-2.198061605493063,0.00043802050640806556,0.31980451941490173,-1.4869197050677698,-0.00022069101396482438,-0.015988562256097794,1.1225318908691406,-8.232422459465459e-32,-0.042253170162439346,1.0858428478240967,0.006217582616955042,0.04761464148759842
167.0,212.0,4.1246,-3.0981,7.194,-0.0959,-0.0958,-0.1361,-1.6959158382811488,-0.15861940383911133,2.5813350677490234,-1.4535237550735474,-0.0031380322761833668,2.184666633605957,-2.1980864010252894,0.0002182172902394086,0.29602572321891785,-1.4868834654437464,-0.00019061587227042764,-0.04450380802154541,1.1225078105926514,-1.4962021090756413e-36,-0.045049913227558136,1.0859473943710327,0.006190583109855652,0.11585243046283722
166.0,207.0,4.669,-2.671,7.337,-0.1083,-0.1733,-0.1362,-1.6968871555724085,-0.16936329007148743,2.5608062744140625,-1.4535081386566162,-0.00016972614685073495,2.1713480949401855,-2.198130270043844,0.00022997002815827727,0.2995601296424866,-1.4868558088885706,-0.0001723608875181526,-0.04856429249048233,1.1225159168243408,-4.1647291008965726e-40,-0.04314524680376053,1.0859354734420776,0.0037073215935379267,0.04571709409356117
166.0,207.0,4.669,-2.671,7.337,-0.1083,-0.1733,-0.1362,-1.6981212101378382,-0.15981240570545197,2.5366592407226562,-1.4534399509429932,0.005989327095448971,2.2153267860412598,-2.1980096302428187,0.00020370134734548628,0.29787057638168335,-1.4868834654437464,-0.0001528445864096284,-0.04719126969575882,1.1225039958953857,-7.006492321624085e-45,-0.03883306682109833,1.0859432220458984,0.0012292882893234491,0.06900080293416977
166.0,207.0,4.669,-2.671,7.337,-0.1083,-0.1733,-0.1362,-1.699400087396139,-0.14881379902362823,2.5859763622283936,-1.4533679485321045,0.007164215203374624,2.184678554534912,-2.197994371453756,0.0029167451430112123,0.3115542232990265,-1.4869158903705042,-0.0001601296098669991,-0.026356101036071777,1.122527837753296,-0.0,-0.044800713658332825,1.0860114097595215,0.0008636405691504478,0.055568989366292953
166.0,207.0,4.669,-2.671,7.337,-0.1083,-0.1733,-0.1362,-1.700606485406393,-0.14477959275245667,2.586942434310913,-1.4533238410949707,0.0025523777585476637,2.2234256267547607,-2.198031087914938,0.004629679024219513,0.31513911485671997,-1.4868796507464808,-0.00016598225920461118,-0.0414835661649704,1.1225318908691406,-0.0,-0.02328437939286232,1.0860027074813843,0.007722360081970692,0.040048446506261826
166.0,207.0,4.669,-2.671,7.337,-0.1083,-0.1733,-0.1362,-1.7018100223936976,-0.14849379658699036,2.6158156394958496,-1.453348159790039,7.307212399609853e-06,2.2111425399780273,-2.197981973687643,0.00881583895534277,0.32362207770347595,-1.486871067677633,-0.0001768784859450534,-0.04422459006309509,1.1224708557128906,-0.0,-0.03491726145148277,1.0861032009124756,0.009128120727837086,0.05854989215731621
166.0,207.0,4.669,-2.671,7.337,-0.1083,-0.1733,-0.1362,-1.7029363117613734,-0.15196119248867035,2.577422618865967,-1.453348159790039,2.3674435350486134e-13,2.207244396209717,-2.1978303394713343,0.007114059757441282,0.30748817324638367,-1.486875359212057,-0.00015289882139768451,-0.03504486754536629,1.1225242614746094,-0.0,-0.024302750825881958,1.0861430168151855,0.007406814955174923,0.0907374769449234
166.0,207.0,4.669,-2.671,7.337,-0.1083,-0.1733,-0.1362,-1.7040945492186488,-0.14607271552085876,2.6175622940063477,-1.4533683061599731,7.670214791244079e-21,2.201489210128784,-2.197766443292135,0.006275549530982971,0.32241523265838623,-1.4869115988360804,-0.00013460310583468527,-0.04364137724041939,1.1224713325500488,-0.0,-0.03444299101829529,1.08616304397583,0.004314139485359192,0.0449916273355484
166.0,207.0,4.669,-2.671,7.337,-0.1083,-0.1733,-0.1362,-1.705289979974264,-0.14214463531970978,2.64353609085083,-1.4532756805419922,2.4850522035908844e-28,2.1930809020996094,-2.197758813897604,0.005393680185079575,0.31820157170295715,-1.4869197050677698,-0.0001202179555548355,-0.040198296308517456,1.122572422027588,-0.0,-0.03483838587999344,1.0862232446670532,0.003917162772268057,0.02440790645778179
166.0,207.0,4.669,-2.671,7.337,-0.1083,-0.1733,-0.1362,-1.7063843212523402,-0.13930173218250275,2.614255905151367,-1.4533523321151733,8.051252386482149e-36,2.249876022338867,-2.197718759576315,0.002422917867079377,0.29537898302078247,-1.4868596235858362,-0.00010861094779102132,-0.033281512558460236,1.122544288635254,-0.0,-0.04337646812200546,1.0862512588500977,0.005577178206294775,0.059291813522577286
166.0,207.0,4.669,-2.671,7.337,-0.1083,-0.1733,-0.1362,-1.707447191277975,-0.13447357714176178,2.6153364181518555,-1.4533485174179077,7.645694859093055e-05,2.2162065505981445,-2.19773068050527,0.001427682931534946,0.29666873812675476,-1.4869402090655726,-9.904816397465765e-05,-0.05035620927810669,1.122544288635254,-0.0,-0.035334713757038116,1.0863193273544312,0.006529713980853558,0.06895021349191666
166.0,207.0,4.669,-2.671,7.337,-0.1083,-0.1733,-0.1362,-1.708137651483053,-0.12529321014881134,2.617445468902588,-1.4532877206802368,0.0008120860438793898,2.2419309616088867,-2.197655340234274,0.003983440808951855,0.3162000775337219,-1.4868634382831019,-0.00011141264258185402,-0.04248964041471481,1.1226048469543457,-0.0,-0.04054915904998779,1.0863553285598755,0.006289314478635788,0.06885506212711334
160.0,198.0,5.1619,-3.3631,7.404,-0.0707,-0.0951,-0.133,-1.709116598168844,-0.11643915623426437,2.626694679260254,-1.453223466873169,0.0022920791525393724,2.1728782653808594,-2.1975704632201136,0.008415677584707737,0.30703791975975037,-1.486931625996725,-0.00010298926645191386,-0.044584378600120544,1.1224874258041382,-0.0,-0.04963725805282593,1.0863831043243408,0.0077672055922448635,0.1139424666762352
160.0,198.0,5.1619,-3.3631,7.404,-0.0707,-0.0951,-0.133,-1.7100674114623011,-0.1194121390581131,2.6080780029296875,-1.4533206224441528,0.001333142165094614,2.1938204765319824,-2.1975227795042933,0.010612125508487225,0.3056049048900604,-1.4869478384601038,-0.00012731188326142728,-0.03953845053911209,1.1224958896636963,-0.0,-0.022241517901420593,1.086503505706787,0.011621413752436638,0.1292949914932251
160.0,198.0,5.1619,-3.3631,7.404,-0.0707,-0.0951,-0.133,-1.711043497125143,-0.12344606965780258,2.606558322906494,-1.4533206224441528,0.0003836308605968952,2.1933484077453613,-2.1974479160704554,0.010548556223511696,0.3224308490753174,-1.48694354692568,-0.00012095278361812234,-0.05195079743862152,1.1224995851516724,-0.0,-0.038835182785987854,1.0865626335144043,0.01583097316324711,0.10088662803173065
160.0,198.0,5.1619,-3.3631,7.404,-0.0707,-0.0951,-0.133,-1.7119060955443324,-0.11378896981477737,2.5782082080841064,-1.453248143196106,0.002359989332035184,2.215364456176758,-2.1973678074278773,0.011698141694068909,0.3090099096298218,-1.4869478384601038,-0.00013105376274324954,-0.03576768562197685,1.1225684881210327,-0.0,-0.03656245768070221,1.086719036102295,0.018782610073685646,0.15815654397010803
160.0,198.0,5.1619,-3.3631,7.404,-0.0707,-0.0951,-0.133,-1.712823053399557,-0.10172168165445328,2.628070831298828,-1.4531922340393066,0.005515317432582378,2.1940579414367676,-2.1972319088377894,0.013022854924201965,0.30459603667259216,-1.4869597593890589,-0.00013936538016423583,-0.057801663875579834,1.122556209564209,-0.0,-0.032983552664518356,1.0869072675704956,0.021939050406217575,0.15828071534633636
160.0,198.0,5.1619,-3.3631,7.404,-0.0707,-0.0951,-0.133,-1.7136560879149378,-0.09285064041614532,2.6268563270568848,-1.4532283544540405,0.004668402019888163,2.2284018993377686,-2.19712032894277,0.0116117587313056,0.3097533583641052,-1.4869917074786585,-0.00014570810890290886,-0.06858359277248383,1.122499942779541,-0.0,-0.026967797428369522,1.0870463848114014,0.028289230540394783,0.15995614230632782
160.0,198.0,5.1619,-3.3631,7.404,-0.0707,-0.0951,-0.133,-1.714429040948385,-0.09400714933872223,2.6398701667785645,-1.4531400203704834,0.0015553374541923404,2.189230442047119,-2.1970840893187464,0.008559896610677242,0.31152671575546265,-1.4869840780841272,-0.00013532624871004373,-0.052530065178871155,1.12250816822052,-0.0,-0.03833498805761337,1.0873392820358276,0.03878215327858925,0.14992384612560272
160.0,198.0,5.1619,-3.3631,7.404,-0.0707,-0.0951,-0.133,-1.7151419124998988,-0.09943916648626328,2.5779380798339844,-1.4532127380371094,0.0005212338292039931,2.163719654083252,-2.197024484673971,0.006969230715185404,0.30258455872535706,-1.4869235197650355,-0.00018688818090595305,-0.06687729060649872,1.1224473714828491,-3.1041702186485054e-07,-0.02834421582520008,1.0876871347427368,0.05024139583110809,0.2108788937330246
160.0,198.0,5.1619,-3.3631,7.404,-0.0707,-0.0951,-0.133,-1.7159186802306117,-0.10067754983901978,2.622666835784912,-1.4531041383743286,0.0010265191085636616,2.187817335128784,-2.1969129047789515,0.008702600374817848,0.29221853613853455,-1.486931625996725,-0.00016738453996367753,-0.05389704555273056,1.1224958896636963,-5.641676795870021e-12,-0.03924853354692459,1.0880827903747559,0.060126759111881256,0.2500176727771759
160.0,198.0,5.1619,-3.3631,7.404,-0.0707,-0.0951,-0.133,-1.7166387043394984,-0.09590481221675873,2.666741371154785,-1.4530597925186157,0.006017925683408976,2.1471173763275146,-2.196825166741842,0.014025166630744934,0.30228081345558167,-1.486971680318014,-0.0001457029429730028,-0.05072426795959473,1.1225039958953857,-1.0253470807622744e-16,-0.04920346289873123,1.0886234045028687,0.06996410340070724,0.23880667984485626
160.0,198.0,5.1619,-3.3631,7.404,-0.0707,-0.0951,-0.133,-1.7172237835326136,-0.08871159702539444,2.6344213485717773,-1.4530683755874634,0.008431829512119293,2.2354631423950195,-2.196705003777975,0.02216991037130356,0.29869017004966736,-1.4869597593890589,-0.00013280198618303984,-0.056865278631448746,1.12241530418396,-2.8540910608558955e-20,-0.033366043120622635,1.0890591144561768,0.07542826980352402,0.23704563081264496
160.0,198.0,5.1619,-3.3631,7.404,-0.0707,-0.0951,-0.133,-1.717929025689596,-0.07797133922576904,2.6498308181762695,-1.4530088901519775,0.008322122506797314,2.193089485168457,-2.1965257130064906,0.032424118369817734,0.311137855052948,-1.4869759718524378,-0.00011877951328642666,-0.059907812625169754,1.1224796772003174,-0.0003773528151214123,-0.03464622423052788,1.089739203453064,0.08049289882183075,0.24898159503936768
156.0,203.0,4.6594,-3.1137,8.2068,-0.007,-0.0582,-0.0641,-1.7186500034727992,-0.06937198340892792,2.6453638076782227,-1.4529643058776855,0.0033308786805719137,2.2313385009765625,-2.196226259271139,0.04858960211277008,0.3181515634059906,-1.486915413533346,-0.00010743540042312816,-0.05148877203464508,1.1224393844604492,-0.000719597504939884,-0.06186429038643837,1.0903913974761963,0.08825596421957016,0.18476422131061554
156.0,203.0,4.6594,-3.1137,8.2068,-0.007,-0.0582,-0.0641,-1.7191583118834437,-0.06677301228046417,2.705540418624878,-1.4530211687088013,2.0192999272694578e-07,2.158010482788086,-2.1957317791380824,0.07093735784292221,0.32622015476226807,-1.4869115988360804,-9.806964953895658e-05,-0.05437491834163666,1.1224316358566284,-0.0006299419910646975,-0.04888184368610382,1.0911027193069458,0.09084199368953705,0.2215994894504547
156.0,203.0,4.6594,-3.1137,8.2068,-0.007,-0.0582,-0.0641,-1.7197348080077113,-0.06888985633850098,2.6423776149749756,-1.4529798030853271,-0.001000837772153318,2.1924891471862793,-2.1950284443297328,0.09090530872344971,0.3365969657897949,-1.4869640509234827,-9.020586003316566e-05,-0.04734324663877487,1.1224119663238525,-0.0005328599945642054,-0.06114326789975166,1.091847538948059,0.08338949829339981,0.24889975786209106
156.0,203.0,4.6594,-3.1137,8.2068,-0.007,-0.0582,-0.0641,-1.7202760181822718,-0.0716010332107544,2.688790798187256,-1.452919840812683,0.00041447050170972943,2.2341372966766357,-2.194211622277731,0.10258587449789047,0.3349435329437256,-1.486931625996725,-8.350965799763799e-05,-0.06948117911815643,1.122483730316162,-0.0005075751105323434,-0.05098964273929596,1.0925350189208984,0.08374311774969101,0.21009808778762817
156.0,203.0,4.6594,-3.1137,8.2068,-0.007,-0.0582,-0.0641,-1.7208167515196742,-0.06956560164690018,2.7004947662353516,-1.4528679847717285,0.002980279503390193,2.2259163856506348,-2.193353315392965,0.09311086684465408,0.32699352502822876,-1.48694354692568,-7.773895049467683e-05,-0.049579471349716187,1.1224477291107178,-0.00045524066081270576,-0.05791289731860161,1.0932588577270508,0.09288211166858673,0.24626567959785461
156.0,203.0,4.6594,-3.1137,8.2068,-0.007,-0.0582,-0.0641,-1.721260210076803,-0.06327438354492188,2.6767101287841797,-1.452831745147705,0.0077989185228943825,2.1650192737579346,-2.1926309070982875,0.08601602166891098,0.344882071018219,-1.4869840780841272,-8.725693624000996e-05,-0.05416838079690933,1.1224517822265625,-0.0007579972734674811,-0.0586296021938324,1.0940591096878052,0.10566701740026474,0.25231510400772095
156.0,203.0,4.6594,-3.1137,8.2068,-0.007,-0.0582,-0.0641,-1.7218414745726527,-0.06177350878715515,2.6910147666931152,-1.4528523683547974,0.010153590701520443,2.19637131690979,-2.191968103448385,0.11742500960826874,0.34129536151885986,-1.4869840780841272,-8.195963164325804e-05,-0.05729720741510391,1.1224720478057861,-0.0011086745653301477,-0.08208457380533218,1.094910979270935,0.11616053432226181,0.2662965953350067
156.0,203.0,4.6594,-3.1137,8.2068,-0.007,-0.0582,-0.0641,-1.7224022350706996,-0.06571955978870392,2.637195110321045,-1.4527684450149536,0.007525870110839605,2.2219533920288086,-2.1908894977965296,0.12726421654224396,0.34288927912712097,-1.4869921843158167,-6.770477921236306e-05,-0.058955032378435135,1.1223833560943604,-0.0020420122891664505,-0.08344697952270508,1.0958750247955322,0.12463940680027008,0.2494639903306961
156.0,203.0,4.6594,-3.1137,8.2068,-0.007,-0.0582,-0.0641,-1.7229348621764125,-0.07345548272132874,2.6867270469665527,-1.4526716470718384,0.0035090576857328415,2.167999267578125,-2.189937730828756,0.11683781445026398,0.34818845987319946,-1.4868915716754358,-6.09046001045499e-05,-0.0570257306098938,1.1223114728927612,-0.004857675172388554,-0.07919375598430634,1.0968585014343262,0.12336046993732452,0.23763608932495117
156.0,203.0,4.6594,-3.1137,8.2068,-0.007,-0.0582,-0.0641,-1.7233835659422816,-0.07018084824085236,2.669497013092041,-1.4526516199111938,0.002634800272062421,2.1185998916625977,-2.18925203899526,0.11744661629199982,0.3533138036727905,-1.486931625996725,-5.275866715237498e-05,-0.07044976204633713,1.1222870349884033,-0.010004935786128044,-0.09775938838720322,1.097590446472168,0.11994665861129761,0.24560678005218506
156.0,203.0,4.6594,-3.1137,8.2068,-0.007,-0.0582,-0.0641,-1.7238475284972132,-0.0539926253259182,2.7080307006835938,-1.4526195526123047,0.002138023264706135,2.18686842918396,-2.188225885430807,0.13491122424602509,0.3543192446231842,-1.4869278112994593,-4.450715277926065e-05,-0.04108508303761482,1.122186541557312,-0.010563487187027931,-0.0945713073015213,1.0985705852508545,0.11750757694244385,0.20341166853904724
159.0,202.0,5.3163,-3.268,7.2544,0.0783,0.0107,-0.0574,-1.724276681939596,-0.042340755462646484,2.79176926612854,-1.4526845216751099,0.0009391396306455135,2.214815855026245,-2.187188287774557,0.1339109241962433,0.3630021810531616,-1.4869158903705042,-4.240979251335375e-05,-0.039048969745635986,1.1221874952316284,-0.008911581709980965,-0.09262189269065857,1.0994994640350342,0.11310609430074692,0.15048062801361084
159.0,202.0,5.3163,-3.268,7.2544,0.0783,0.0107,-0.0574,-1.724584241906637,-0.0373445600271225,2.7139153480529785,-1.45264732837677,0.0001949311699718237,2.1961264610290527,-2.1862369976439417,0.10092449933290482,0.3515651226043701,-1.4869073073016565,-3.071493483730592e-05,-0.04175309091806412,1.1220747232437134,-0.007140426430851221,-0.09835793077945709,1.1004302501678467,0.11078661680221558,0.15062212944030762
159.0,202.0,5.3163,-3.268,7.2544,0.0783,0.0107,-0.0574,-1.7248803577818812,-0.031988535076379776,2.7662997245788574,-1.452700138092041,0.00013599556405097246,2.209745407104492,-2.1855246029295863,0.09198133647441864,0.34047698974609375,-1.4869073073016565,-6.420098230819349e-08,-0.0410437136888504,1.1220104694366455,-0.00597123708575964,-0.1182861477136612,1.1012861728668213,0.1081792414188385,0.13106247782707214
159.0,202.0,5.3163,-3.268,7.2544,0.0783,0.0107,-0.0574,-1.7250400982298792,-0.02571660280227661,2.802447557449341,-1.4527124166488647,0.00010442964412504807,2.1634762287139893,-2.184770246545309,0.11234162747859955,0.3414551019668579,-1.4868877569781702,2.410647357464768e-05,-0.049269214272499084,1.1219748258590698,-0.004977328237146139,-0.11345750093460083,1.1020417213439941,0.09894444793462753,0.11468567699193954
159.0,202.0,5.3163,-3.268,7.2544,0.0783,0.0107,-0.0574,-1.7252527676024378,-0.02078990451991558,2.840672016143799,-1.4526722431182861,7.973070751177147e-05,2.1642794609069824,-2.183916231194967,0.10218729823827744,0.3633667528629303,-1.4868715445147913,3.432451558182947e-05,-0.0384330153465271,1.121950387954712,-0.005408781580626965,-0.10735565423965454,1.1028740406036377,0.09211745858192444,0.05410897359251976
159.0,202.0,5.3163,-3.268,7.2544,0.0783,0.0107,-0.0574,-1.725389143029684,-0.016175508499145508,2.8286852836608887,-1.4526400566101074,0.00013038166798651218,2.231405735015869,-2.183122297326559,0.0854753702878952,0.34303998947143555,-1.4869039694415491,4.355170676717535e-05,-0.04601925238966942,1.1218863725662231,-0.006233453284949064,-0.13444773852825165,1.103617548942566,0.08793828636407852,0.07005269825458527
159.0,202.0,5.3163,-3.268,7.2544,0.0783,0.0107,-0.0574,-1.7254530392088832,-0.010006170719861984,2.8430583477020264,-1.4527006149291992,0.0001454017183277756,2.1570615768432617,-2.182479520837301,0.08524534106254578,0.3448985815048218,-1.4868996779071253,4.154167618253268e-05,-0.030783142894506454,1.1218746900558472,-0.005733973812311888,-0.11750292778015137,1.104317545890808,0.08135031908750534,0.10595899075269699
159.0,202.0,5.3163,-3.268,7.2544,0.0783,0.0107,-0.0574,-1.725508829156393,-0.004729146137833595,2.8053736686706543,-1.4526886940002441,0.0017721089534461498,2.213538646697998,-2.1817523441710414,0.10132032632827759,0.34831005334854126,-1.4868877569781702,2.0127605239395052e-05,-0.034738846123218536,1.1218793392181396,-0.004676113836467266,-0.12802456319332123,1.1049250364303589,0.07137951999902725,0.03574734181165695
159.0,202.0,5.3163,-3.268,7.2544,0.0783,0.0107,-0.0574,-1.7255855999388636,-0.003788282861933112,2.8970892429351807,-1.4526565074920654,0.001199417165480554,2.1965630054473877,-2.1808463535704554,0.11148367822170258,0.35444214940071106,-1.4868877569781702,3.658093272740359e-10,-0.045938074588775635,1.121830701828003,-0.003535127965733409,-0.12975096702575684,1.1054327487945557,0.0636250227689743,0.02630695514380932
159.0,202.0,5.3163,-3.268,7.2544,0.0783,0.0107,-0.0574,-1.7256537876524867,-0.005832699127495289,2.866086006164551,-1.4526761770248413,0.0007194628706201911,2.216481924057007,-2.1802483997740687,0.10709618777036667,0.3617147207260132,-1.4868834654437464,1.0182437168828121e-13,-0.0286389347165823,1.121855616569519,-0.002891055541113019,-0.12781637907028198,1.1058244705200195,0.058270473033189774,0.03548397868871689
159.0,202.0,5.3163,-3.268,7.2544,0.0783,0.0107,-0.0574,-1.7256776295103968,-0.007575502619147301,2.837034225463867,-1.4526327848434448,0.00046923712943680584,2.1964523792266846,-2.1795507870116175,0.07439268380403519,0.3447103202342987,-1.4869115988360804,1.8506077574827298e-18,-0.029846742749214172,1.1217741966247559,-0.0020576652605086565,-0.1381836086511612,1.1062363386154175,0.05327346920967102,0.02482292428612709
159.0,202.0,5.3163,-3.268,7.2544,0.0783,0.0107,-0.0574,-1.7256933651366175,-0.005936382804065943,2.8908159732818604,-1.452648401260376,0.00045729673001915216,2.2218620777130127,-2.179028173486227,0.05543140694499016,0.3324131369590759,-1.486892048512594,3.36338798658903e-23,-0.027488816529512405,1.1218109130859375,-0.0018339890521019697,-0.1216653436422348,1.1066642999649048,0.04487769305706024,-0.017041180282831192
149.0,213.0,4.4608,-2.8385,7.6636,0.0125,0.1246,-0.0901,-1.7256728611388148,-0.0029639829881489277,2.908076763153076,-1.4526679515838623,0.00031341140856966376,2.2070152759552,-2.178617139855856,0.06314156949520111,0.33521968126296997,-1.4868477026568812,6.112792346960743e-28,-0.04550080746412277,1.1218229532241821,-0.0019273642683401704,-0.12021932005882263,1.106972336769104,0.035413146018981934,-0.013747804798185825
149.0,213.0,4.4608,-2.8385,7.6636,0.0125,0.1246,-0.0901,-1.7257453403868617,-0.0015154271386563778,2.911313533782959,-1.4526360034942627,0.0002123720187228173,2.2023463249206543,-2.178049703637594,0.07894445955753326,0.3418669104576111,-1.4868958632098597,1.1109698496009198e-32,-0.02699596807360649,1.1217585802078247,-0.002031062263995409,-0.11761187762022018,1.1072322130203247,0.029182514175772667,-0.030502231791615486
149.0,213.0,4.4608,-2.8385,7.6636,0.0125,0.1246,-0.0901,-1.7257691822447718,-0.002826292999088764,2.9053170680999756,-1.4526845216751099,0.0001786453794920817,2.205766439437866,-2.1773792705931605,0.07561726868152618,0.34543031454086304,-1.4868834654437464,2.0191327509076633e-37,-0.03542055934667587,1.1217224597930908,-0.001971159130334854,-0.127266526222229,1.107444167137146,0.025770552456378937,-0.05281303822994232
149.0,213.0,4.4608,-2.8385,7.6636,0.0125,0.1246,-0.0901,-1.7257734737791957,-0.003202894004061818,2.8732032775878906,-1.452648401260376,0.00018494605319574475,2.198251247406006,-2.1767856083311976,0.0633573830127716,0.3377290964126587,-1.4868834654437464,3.670000678066696e-42,-0.024584148079156876,1.1217145919799805,-0.002290349919348955,-0.1269792765378952,1.1076639890670776,0.024823561310768127,-0.03618999570608139
149.0,213.0,4.4608,-2.8385,7.6636,0.0125,0.1246,-0.0901,-1.7258216343321742,-0.002482481300830841,2.872053623199463,-1.4526079893112183,0.00023137021344155073,2.1969552040100098,-2.176330705682272,0.04983441159129143,0.337179958820343,-1.486892048512594,0.0,-0.03596410155296326,1.121645212173462,-0.0029914425686001778,-0.11539047956466675,1.107839822769165,0.02614656463265419,-0.04756762832403183
149.0,213.0,4.4608,-2.8385,7.6636,0.0125,0.1246,-0.0901,-1.7258740864195765,-0.0022621890529990196,2.8953042030334473,-1.4525879621505737,0.0012104304041713476,2.221947193145752,-2.1759869060912074,0.04471777752041817,0.3208853006362915,-1.4869077841388147,0.0,-0.04729512706398964,1.121605396270752,-0.003873966634273529,-0.120835080742836,1.1080636978149414,0.028679488226771355,-0.04394139349460602
149.0,213.0,4.4608,-2.8385,7.6636,0.0125,0.1246,-0.0901,-1.7258817158141078,-0.004179884679615498,2.849515438079834,-1.4526162147521973,0.000757114146836102,2.2009408473968506,-2.175591608087057,0.055312883108854294,0.34532707929611206,-1.4869197050677698,0.0,-0.02342788130044937,1.1216182708740234,-0.005905051250010729,-0.1242392361164093,1.1083201169967651,0.03415178880095482,-0.013404492288827896
149.0,213.0,4.4608,-2.8385,7.6636,0.0125,0.1246,-0.0901,-1.725922246972555,-0.006286027375608683,2.897874593734741,-1.4526400566101074,0.00022351987718138844,2.189422607421875,-2.1751615009703578,0.0738898292183876,0.3441258370876312,-1.4868715445147913,0.0,-0.02595626562833786,1.1215784549713135,-0.009104338474571705,-0.10837656259536743,1.1085882186889648,0.03999978303909302,-0.059102535247802734
149.0,213.0,4.4608,-2.8385,7.6636,0.0125,0.1246,-0.0901,-1.7259370289244593,-0.00860258936882019,2.884026288986206,-1.452620506286621,0.00014930302859283984,2.2384958267211914,-2.174467226068014,0.10319823026657104,0.37155571579933167,-1.4868796507464808,0.0,-0.03677569329738617,1.121457815170288,-0.014341994188725948,-0.1237543523311615,1.1088716983795166,0.04490293189883232,0.01056496798992157
149.0,213.0,4.4608,-2.8385,7.6636,0.0125,0.1246,-0.0901,-1.7260743580260218,-0.011340470984578133,2.8572983741760254,-1.4526360034942627,0.00011210073716938496,2.231759786605835,-2.1735931835570277,0.1170700192451477,0.367246150970459,-1.4868677298175257,0.0,-0.02720930054783821,1.1212730407714844,-0.025942916050553322,-0.12960976362228394,1.1092236042022705,0.04419625177979469,-0.03139564022421837
149.0,213.0,4.4608,-2.8385,7.6636,0.0125,0.1246,-0.0901,-1.7261377773680628,-0.016096968203783035,2.89642071723938,-1.4526163339614868,8.974206139100716e-05,2.256101608276367,-2.172695299188131,0.10304273664951324,0.37001049518585205,-1.4869120756732386,0.0,-0.04806560277938843,1.120996356010437,-0.05167219042778015,-0.1324862539768219,1.1095640659332275,0.04038124904036522,-0.005014151334762573
150.0,202.0,4.3651,-3.5252,7.5846,0.0312,0.1353,-0.1851,-1.7262703380980433,-0.018214944750070572,2.8603532314300537,-1.452612042427063,0.0001494596217526123,2.2393250465393066,-2.171889444390768,0.10150343179702759,0.3550254702568054,-1.4868796507464808,0.0,-0.02147606387734413,1.1203383207321167,-0.09660333395004272,-0.1507822722196579,1.1098757982254028,0.032164935022592545,-0.0610554963350296
150.0,202.0,4.3651,-3.5252,7.5846,0.0312,0.1353,-0.1851,-1.7264348469176234,-0.02056986652314663,2.8699278831481934,-1.4526125192642212,0.0001623576827114448,2.2402589321136475,-2.171007295648092,0.13001945614814758,0.3778880834579468,-1.4868715445147913,0.0,-0.040392979979515076,1.11942458152771,-0.1204560324549675,-0.17412084341049194,1.1101319789886475,0.02621590346097946,-0.054109878838062286
150.0,202.0,4.3651,-3.5252,7.5846,0.0312,0.1353,-0.1851,-1.7266227207579554,-0.023792894557118416,2.874629497528076,-1.4526523351669312,0.0007113291067071259,2.2021117210388184,-2.169882436791891,0.1346941441297531,0.37344104051589966,-1.4868796507464808,0.0,-0.02927696704864502,1.1185230016708374,-0.10226425528526306,-0.18005701899528503,1.110275149345398,0.02145184949040413,-0.07825139164924622
150.0,202.0,4.3651,-3.5252,7.5846,0.0312,0.1353,-0.1851,-1.7268554172911585,-0.028952931985259056,2.8416128158569336,-1.4526245594024658,0.0011338667245581746,2.2692980766296387,-2.168845315972799,0.12859399616718292,0.3726370334625244,-1.4868677298175257,0.0,-0.02052677795290947,1.1177699565887451,-0.1047903299331665,-0.15927551686763763,1.1104633808135986,0.018268145620822906,-0.05653125047683716
150.0,202.0,4.3651,-3.5252,7.5846,0.0312,0.1353,-0.1851,-1.7270995579161585,-0.03492484614253044,2.859318494796753,-1.452592372894287,0.002507406286895275,2.172924041748047,-2.167717596093649,0.14569801092147827,0.3806665539741516,-1.486875359212057,0.0,-0.030972182750701904,1.1167072057724,-0.16171753406524658,-0.18630705773830414,1.110599398612976,0.015802983194589615,-0.03462774679064751
150.0,202.0,4.3651,-3.5252,7.5846,0.0312,0.1353,-0.1851,-1.72743620494985,-0.041728369891643524,2.82487154006958,-1.4525240659713745,0.0015915867406874895,2.2173423767089844,-2.1664282284178675,0.1475599855184555,0.40069788694381714,-1.4868395964251917,0.0,-0.030304115265607834,1.1150623559951782,-0.2096281498670578,-0.21105721592903137,1.1107804775238037,0.012770011089742184,-0.05704522877931595
150.0,202.0,4.3651,-3.5252,7.5846,0.0312,0.1353,-0.1851,-1.727760454217428,-0.04798918962478638,2.811903476715088,-1.4524998664855957,0.0011817984050139785,2.2016735076904297,-2.1653276882567347,0.12505404651165009,0.3708187937736511,-1.4868877569781702,0.0,-0.025494160130620003,1.113338828086853,-0.23352786898612976,-0.21655848622322083,1.110811471939087,0.009791767224669456,-0.05230239778757095
150.0,202.0,4.3651,-3.5252,7.5846,0.0312,0.1353,-0.1851,-1.7280851803221644,-0.05141681432723999,2.777245283126831,-1.4525240659713745,0.0017719445750117302,2.257457971572876,-2.164583822289938,0.13774602115154266,0.37551528215408325,-1.4868877569781702,0.0,-0.028333768248558044,1.1119166612625122,-0.24038837850093842,-0.22624555230140686,1.1108958721160889,0.009331061504781246,0.010340144857764244
150.0,202.0,4.3651,-3.5252,7.5846,0.0312,0.1353,-0.1851,-1.72849764446401,-0.05263028293848038,2.8552284240722656,-1.4525244235992432,0.0018066979246214032,2.2184958457946777,-2.163327833215231,0.15860305726528168,0.4058988392353058,-1.4869239966021937,0.0,-0.01950130984187126,1.1100046634674072,-0.2552868723869324,-0.22066134214401245,1.11091947555542,0.008448882028460503,-0.08857255429029465
150.0,202.0,4.3651,-3.5252,7.5846,0.0312,0.1353,-0.1851,-1.7289625606932582,-0.05277356505393982,2.861635208129883,-1.4525322914123535,0.0007299090502783656,2.2310729026794434,-2.162039896050924,0.1534898579120636,0.39078715443611145,-1.4869239966021937,0.0,-0.03094601258635521,1.1076749563217163,-0.2991738021373749,-0.2305835783481598,1.1109672784805298,0.008403323590755463,-0.041731081902980804
150.0,202.0,4.3651,-3.5252,7.5846,0.0312,0.1353,-0.1851,-1.7294026813902796,-0.05394386872649193,2.8023715019226074,-1.4525848627090454,0.0005310476990416646,2.2430243492126465,-2.1608182392516078,0.16578160226345062,0.392816960811615,-1.4868834654437464,0.0,-0.040189359337091446,1.1050901412963867,-0.32454121112823486,-0.24418433010578156,1.1110754013061523,0.009468196891248226,-0.06585974991321564
150.0,202.0,4.3651,-3.5252,7.5846,0.0312,0.1353,-0.1851,-1.7298151455321253,-0.056643590331077576,2.791179656982422,-1.4525643587112427,0.00031757328542880714,2.212202787399292,-2.1593953571715296,0.16445292532444,0.3991183042526245,-1.4869197050677698,0.0,-0.04303090274333954,1.1025546789169312,-0.3400214910507202,-0.23178145289421082,1.1111797094345093,0.011037174612283707,0.029621951282024384
139.0,208.0,4.3645,-2.9928,7.0493,-0.0228,0.1054,-0.4443,-1.7302996120848597,-0.06273292005062103,2.8260018825531006,-1.4525203704833984,0.00029647888732142746,2.1880247592926025,-2.1583110294737757,0.1275346428155899,0.37594252824783325,-1.4869039694415491,0.0,-0.05133836716413498,1.099691390991211,-0.36423808336257935,-0.2370290756225586,1.1112074851989746,0.010703010484576225,0.004939689300954342
139.0,208.0,4.3645,-2.9928,7.0493,-0.0228,0.1054,-0.4443,-1.7307921848692835,-0.06420080363750458,2.7701406478881836,-1.4525285959243774,0.00031276268418878317,2.1948108673095703,-2.1572886906065882,0.13525664806365967,0.37915682792663574,-1.4868834654437464,0.0,-0.04134241119027138,1.0966986417770386,-0.3655480146408081,-0.22009649872779846,1.1112710237503052,0.008817421272397041,-0.005780055187642574
139.0,208.0,4.3645,-2.9928,7.0493,-0.0228,0.1054,-0.4443,-1.7312966785826625,-0.06023510918021202,2.8036489486694336,-1.4525203704833984,0.0022142697125673294,2.193376302719116,-2.1562077007689417,0.1321399211883545,0.3812134265899658,-1.4868715445147913,0.0,-0.03673243895173073,1.093587040901184,-0.40083903074264526,-0.23269739747047424,1.1112910509109497,0.006537748966366053,0.029333902522921562
139.0,208.0,4.3645,-2.9928,7.0493,-0.0228,0.1054,-0.4443,-1.7317735157408656,-0.06105035915970802,2.7942798137664795,-1.4524648189544678,0.003164676483720541,2.195343017578125,-2.1552378139891566,0.11580068618059158,0.38191717863082886,-1.4869197050677698,0.0,-0.0409955233335495,1.0902987718582153,-0.3996042013168335,-0.2155684381723404,1.1113715171813965,0.004932898096740246,-0.021462570875883102
139.0,208.0,4.3645,-2.9928,7.0493,-0.0228,0.1054,-0.4443,-1.7322379551329554,-0.06325525045394897,2.777438163757324,-1.4524483680725098,0.004304623231291771,2.2436909675598145,-2.154276033441061,0.1238953247666359,0.3802027106285095,-1.4868953863727015,0.0,-0.053312014788389206,1.087006688117981,-0.4275479316711426,-0.23095187544822693,1.1114153861999512,0.004145697224885225,-0.0123155377805233
139.0,208.0,4.3645,-2.9928,7.0493,-0.0228,0.1054,-0.4443,-1.7327624760069789,-0.06865984201431274,2.7947700023651123,-1.4524039030075073,0.0050824303179979324,2.234271764755249,-2.153201242486471,0.14638814330101013,0.39117562770843506,-1.4868953863727015,0.0,-0.05598104000091553,1.0836198329925537,-0.42113539576530457,-0.23994535207748413,1.1114234924316406,0.0035034960601478815,-0.0332585945725441
139.0,208.0,4.3645,-2.9928,7.0493,-0.0228,0.1054,-0.4443,-1.7331792316832484,-0.07301440089941025,2.745654821395874,-1.452336072921753,0.00527008343487978,2.221731424331665,-2.1523639164366664,0.1429971307516098,0.3889053463935852,-1.4868677298175257,0.0,-0.05047260969877243,1.0810867547988892,-0.4322829246520996,-0.2239944487810135,1.1114836931228638,0.00305951084010303,0.01204540953040123
139.0,208.0,4.3645,-2.9928,7.0493,-0.0228,0.1054,-0.4443,-1.7337919674315394,-0.07485173642635345,2.7820162773132324,-1.4523364305496216,0.007574425078928471,2.2276577949523926,-2.1512562237181605,0.1257980912923813,0.3790322542190552,-1.4869192282306116,0.0,-0.04129253700375557,1.0777910947799683,-0.4248720407485962,-0.21073609590530396,1.111507534980774,0.0031388853676617146,0.057411376386880875
139.0,208.0,4.3645,-2.9928,7.0493,-0.0228,0.1054,-0.4443,-1.7343889675536097,-0.07421817630529404,2.768170118331909,-1.452240228652954,0.009955940768122673,2.229541540145874,-2.15026392559194,0.15007144212722778,0.38867631554603577,-1.4869197050677698,0.0,-0.05923308804631233,1.074527621269226,-0.41578614711761475,-0.1923450231552124,1.1114792823791504,0.004331030882894993,0.08985168486833572
139.0,208.0,4.3645,-2.9928,7.0493,-0.0228,0.1054,-0.4443,-1.7350055179991664,-0.07698974013328552,2.803873062133789,-1.452224612236023,0.009332725778222084,2.2300121784210205,-2.1490842304625453,0.1457565426826477,0.39938610792160034,-1.4869158903705042,3.2597810672996275e-08,-0.06866534054279327,1.0712921619415283,-0.4037717282772064,-0.18511319160461426,1.1115230321884155,0.005108152516186237,0.05242876708507538
139.0,208.0,4.3645,-2.9928,7.0493,-0.0228,0.1054,-0.4443,-1.7356068096556605,-0.07989140599966049,2.748018264770508,-1.4521085023880005,0.009355122223496437,2.224850654602051,-2.147987504998678,0.1293090581893921,0.38631170988082886,-1.486931625996725,5.924491583084168e-13,-0.05393446236848831,1.0682963132858276,-0.3703145980834961,-0.17364399135112762,1.111567497253418,0.004862484522163868,0.1114179790019989
141.0,192.0,4.584,-2.6016,7.8191,-0.0144,0.1093,-0.4635,-1.7362591228880824,-0.08007323741912842,2.799928665161133,-1.452056646347046,0.012510338798165321,2.215824842453003,-2.146975179711813,0.1415984034538269,0.40490013360977173,-1.4868877569781702,1.0767469590606865e-17,-0.061051689088344574,1.06536865234375,-0.35935884714126587,-0.14976510405540466,1.1116397380828857,0.004904621746391058,0.116823211312294
141.0,192.0,4.584,-2.6016,7.8191,-0.0144,0.1093,-0.4635,-1.7368561230101527,-0.07912814617156982,2.759540557861328,-1.451924204826355,0.014168892987072468,2.242607355117798,-2.1458379230894984,0.13521665334701538,0.3996426463127136,-1.4868996779071253,1.9569343157754748e-22,-0.0588841512799263,1.062645435333252,-0.31206509470939636,-0.12998780608177185,1.1116514205932617,0.0054288702085614204,0.1737600713968277
141.0,192.0,4.584,-2.6016,7.8191,-0.0144,0.1093,-0.4635,-1.7374969921507777,-0.07736421376466751,2.726818561553955,-1.4517358541488647,0.018072081729769707,2.2347466945648193,-2.144912382165426,0.10214070975780487,0.3801479637622833,-1.4869235197650355,3.556631006111441e-27,-0.06705792248249054,1.0602452754974365,-0.30412331223487854,-0.12390685826539993,1.1117033958435059,0.008246827870607376,0.18906128406524658
141.0,192.0,4.584,-2.6016,7.8191,-0.0144,0.1093,-0.4635,-1.7381097278990687,-0.07642654329538345,2.737051486968994,-1.4516371488571167,0.02370094507932663,2.2228174209594727,-2.1441170177855433,0.10606854408979416,0.35767993330955505,-1.4869278112994593,6.46400229286948e-32,-0.08115698397159576,1.0580741167068481,-0.26444560289382935,-0.1074916273355484,1.1118438243865967,0.012520969845354557,0.18861167132854462
141.0,192.0,4.584,-2.6016,7.8191,-0.0144,0.1093,-0.4635,-1.7386700115599574,-0.07077532261610031,2.715761661529541,-1.4514164924621582,0.028722722083330154,2.2086892127990723,-2.143134733239645,0.13583479821681976,0.37271153926849365,-1.486903492604391,1.1748007417136099e-36,-0.08949683606624603,1.056239366531372,-0.18896500766277313,-0.08395718038082123,1.1119354963302612,0.01726674474775791,0.23587512969970703
141.0,192.0,4.584,-2.6016,7.8191,-0.0144,0.1093,-0.4635,-1.7392550907530726,-0.06863614171743393,2.719149589538574,-1.4511566162109375,0.029822977259755135,2.2412362098693848,-2.1420608959593714,0.1387014091014862,0.38980183005332947,-1.4869721571551722,2.1351584700917238e-41,-0.09718272089958191,1.054975152015686,-0.1490725725889206,-0.03615718334913254,1.112091302871704,0.01962854713201523,0.26689276099205017
141.0,192.0,4.584,-2.6016,7.8191,-0.0144,0.1093,-0.4635,-1.73964323619985,-0.06720345467329025,2.7407596111297607,-1.4510371685028076,0.0331692099571228,2.1789257526397705,-2.141200204888815,0.13906966149806976,0.39084863662719727,-1.4869073073016565,5.605193857299268e-45,-0.08568411320447922,1.054067611694336,-0.14134539663791656,-0.025908326730132103,1.1121958494186401,0.020920151844620705,0.24440616369247437
141.0,192.0,4.584,-2.6016,7.8191,-0.0144,0.1093,-0.4635,-1.7402087650694789,-0.07320987433195114,2.675307273864746,-1.4507451057434082,0.03555084392428398,2.2362289428710938,-2.1400095425047816,0.16017483174800873,0.383197546005249,-1.4869402090655726,0.0,-0.09714365005493164,1.0531885623931885,-0.08653257042169571,-0.008524852804839611,1.11232328414917,0.02332037128508091,0.3281583786010742
141.0,192.0,4.584,-2.6016,7.8191,-0.0144,0.1093,-0.4635,-1.7407766781248988,-0.07903813570737839,2.6864495277404785,-1.4503929615020752,0.03847379609942436,2.236133098602295,-2.138698240319723,0.15731899440288544,0.4082743525505066,-1.4869359175311487,0.0,-0.09731374680995941,1.0529251098632812,-0.005622455850243568,0.0007390020182356238,1.112519383430481,0.0253849308937788,0.2892068028450012
141.0,192.0,4.584,-2.6016,7.8191,-0.0144,0.1093,-0.4635,-1.7413612804808558,-0.08215488493442535,2.7189395427703857,-1.4500128030776978,0.04788309335708618,2.2655251026153564,-2.1375934086241664,0.13522599637508392,0.3730654716491699,-1.4869440237628382,0.0,-0.09960180521011353,1.0531171560287476,0.046687040477991104,0.051266491413116455,1.1127595901489258,0.0278908871114254,0.33660411834716797
141.0,192.0,4.584,-2.6016,7.8191,-0.0144,0.1093,-0.4635,-1.741957803765768,-0.07776215672492981,2.741258144378662,-1.4496334791183472,0.05860054865479469,2.3067448139190674,-2.136385580102438,0.151516854763031,0.3986913561820984,-1.4869402090655726,-7.260311394929886e-05,-0.09429885447025299,1.0534895658493042,0.06173485890030861,0.06240115687251091,1.1129952669143677,0.03388287127017975,0.3162388503551483
141.0,192.0,4.584,-2.6016,7.8191,-0.0144,0.1093,-0.4635,-1.742626806298727,-0.0754401832818985,2.713559627532959,-1.4490891695022583,0.061682041734457016,2.243717670440674,-2.135214944879049,0.13770991563796997,0.3966612219810486,-1.4869478384601038,-0.00015037185221444815,-0.10823720693588257,1.0537731647491455,0.029468225315213203,0.05338913947343826,1.1133155822753906,0.042235586792230606,0.4164695739746094
137.0,189.0,3.6748,-2.9145,7.785,0.016,0.1869,-0.0438,-1.7432877025999964,-0.07852715253829956,2.6847803592681885,-1.4486420154571533,0.05893074721097946,2.2785589694976807,-2.1342045269408167,0.12305856496095657,0.38174110651016235,-1.48694354692568,-0.00013264210429042578,-0.10213659703731537,1.0537688732147217,-0.012525182217359543,0.029932193458080292,1.1136436462402344,0.05343006178736687,0.4000939726829529
137.0,189.0,3.6748,-2.9145,7.785,0.016,0.1869,-0.0438,-1.7439080677428187,-0.07575877010822296,2.7056870460510254,-1.4481655359268188,0.05266841873526573,2.227304458618164,-2.133181234399313,0.13315707445144653,0.36901313066482544,-1.4869402090655726,-0.00011865136184496805,-0.09960119426250458,1.0537090301513672,-0.017614280804991722,0.018731970340013504,1.1140912771224976,0.06068585813045502,0.3942362070083618
137.0,189.0,3.6748,-2.9145,7.785,0.016,0.1869,-0.0438,-1.7444693050780238,-0.07107376307249069,2.7202563285827637,-1.4477742910385132,0.04671811684966087,2.2358224391937256,-2.132097383538717,0.12725281715393066,0.3873571455478668,-1.4869402090655726,-8.623617031844333e-05,-0.08941234648227692,1.0536049604415894,-0.0065650371834635735,0.00854578334838152,1.1145873069763184,0.06574808061122894,0.4071907699108124
137.0,189.0,3.6748,-2.9145,7.785,0.016,0.1869,-0.0438,-1.745037694970602,-0.06800492852926254,2.704502820968628,-1.4473941326141357,0.04467771574854851,2.2164783477783203,-2.131171842614645,0.09342537075281143,0.3613538146018982,-1.4869559446917933,-7.838582678232342e-05,-0.10422774404287338,1.0536209344863892,-0.00025063561042770743,0.010604970157146454,1.1151034832000732,0.06821975857019424,0.4130019247531891
137.0,189.0,3.6748,-2.9145,7.785,0.016,0.1869,-0.0438,-1.7454501591124476,-0.06695656478404999,2.710885524749756,-1.4471304416656494,0.045579101890325546,2.2524912357330322,-2.1307383976378382,0.07146323472261429,0.3424757719039917,-1.4869402090655726,-7.357949652941898e-05,-0.0862855315208435,1.053617238998413,-0.0001263126323465258,0.0141963642090559,1.1155389547348022,0.06957938522100449,0.3494366407394409
137.0,189.0,3.6748,-2.9145,7.785,0.016,0.1869,-0.0438,-1.7460195026793421,-0.0654556155204773,2.707568645477295,-1.4467140436172485,0.04915592446923256,2.2453653812408447,-2.130177160302633,0.07224583625793457,0.32987985014915466,-1.4869359175311487,-6.801844574511051e-05,-0.09439980238676071,1.0536612272262573,-8.083620923571289e-05,-0.0018160431645810604,1.1161272525787354,0.07347555458545685,0.3912096619606018
137.0,189.0,3.6748,-2.9145,7.785,0.016,0.1869,-0.0438,-1.7465759716429652,-0.06691144406795502,2.709606409072876,-1.4463915824890137,0.052078600972890854,2.2238521575927734,-2.12955965618276,0.0824054405093193,0.3469274938106537,-1.4869115988360804,-6.323897105176002e-05,-0.09663398563861847,1.053645133972168,-5.945664815953933e-05,0.00798803474754095,1.1167272329330444,0.0738898441195488,0.37288898229599
137.0,189.0,3.6748,-2.9145,7.785,0.016,0.1869,-0.0438,-1.7471286259093226,-0.07740791887044907,2.772022008895874,-1.445927619934082,0.056667834520339966,2.30709171295166,-2.128881116906637,0.06930302083492279,0.3507845997810364,-1.4869192282306116,-3.440821456024423e-05,-0.09453518688678741,1.0536410808563232,-4.702453225036152e-05,-0.007975693792104721,1.1173032522201538,0.0712997242808342,0.38699525594711304
137.0,189.0,3.6748,-2.9145,7.785,0.016,0.1869,-0.0438,-1.7477976284422816,-0.08710253238677979,2.751479148864746,-1.4453951120376587,0.06807669252157211,2.2924187183380127,-2.1284152470030726,0.04524672031402588,0.3216719627380371,-1.4869635740863245,-2.319951272511389e-05,-0.08635178208351135,1.0536410808563232,-3.8893478631507605e-05,0.0032314895652234554,1.1178557872772217,0.0682854875922203,0.37708985805511475
137.0,189.0,3.6748,-2.9145,7.785,0.016,0.1869,-0.0438,-1.7485186062254847,-0.08820454776287079,2.7297253608703613,-1.4448479413986206,0.0819183737039566,2.2773935794830322,-2.1282969913878382,0.013474563136696815,0.31792888045310974,-1.4869597593890589,-2.103079532389529e-05,-0.09815989434719086,1.0536131858825684,-3.3160275052068755e-05,-0.0001575215719640255,1.1184111833572388,0.07274200767278671,0.4138786196708679
137.0,189.0,3.6748,-2.9145,7.785,0.016,0.1869,-0.0438,-1.7492710552611292,-0.08445602655410767,2.679171085357666,-1.4441437721252441,0.09491002559661865,2.2857108116149902,-2.12821688274526,-0.011235903948545456,0.3036038279533386,-1.4869073073016565,-1.92329753190279e-05,-0.08920545876026154,1.053585171699524,-2.8900343750137836e-05,0.0040381476283073425,1.118970513343811,0.08353066444396973,0.4097927212715149
125.0,188.0,4.3173,-2.1984,8.3773,-0.0002,0.0281,-0.0712,-1.7499801121153773,-0.07775542140007019,2.7755227088928223,-1.4434033632278442,0.0926903709769249,2.325613498687744,-2.1283441982665003,-0.012391324155032635,0.288088858127594,-1.486931625996725,-2.322815817024093e-06,-0.09636211395263672,1.0536091327667236,-5.0993607146665454e-05,-0.00998297892510891,1.1196669340133667,0.09287683665752411,0.40682536363601685
125.0,188.0,4.3173,-2.1984,8.3773,-0.0002,0.0281,-0.0712,-1.7505971393980921,-0.07867955416440964,2.7906718254089355,-1.4426755905151367,0.08233818411827087,2.263667106628418,-2.1284123859801234,-0.006069930270314217,0.2907053232192993,-1.4868796507464808,-4.221603969178922e-11,-0.07687753438949585,1.0536730289459229,-4.598616942530498e-05,0.003016839502379298,1.1204272508621216,0.09551750868558884,0.3923492431640625
125.0,188.0,4.3173,-2.1984,8.3773,-0.0002,0.0281,-0.0712,-1.7512456379332484,-0.08344314992427826,2.756673812866211,-1.4420641660690308,0.07559465616941452,2.2728970050811768,-2.1284123859801234,-0.0006656350451521575,0.29943379759788513,-1.4868834654437464,-7.672555726336277e-16,-0.08450932800769806,1.053633213043213,-4.172228727838956e-05,-0.0035857511684298515,1.121166706085205,0.09413473308086395,0.37367871403694153
125.0,188.0,4.3173,-2.1984,8.3773,-0.0002,0.0281,-0.0712,-1.7518941364684046,-0.08447612822055817,2.789271593093872,-1.441452980041504,0.07452822476625443,2.2509634494781494,-2.128468175927633,-3.6554933302568315e-08,0.3013828694820404,-1.4868634382831019,-1.3944491212971032e-20,-0.07774598896503448,1.0536291599273682,-3.818196273641661e-05,-0.00479595921933651,1.1219350099563599,0.0867169052362442,0.3723239302635193
125.0,188.0,4.3173,-2.1984,8.3773,-0.0002,0.0281,-0.0712,-1.7523910007872523,-0.08153937757015228,2.7756810188293457,-1.4409525394439697,0.07718661427497864,2.300950765609741,-2.1284123859801234,-1.0175200959583464e-11,0.2993484139442444,-1.4869235197650355,-3.8815001539967934e-24,-0.056048277765512466,1.053633213043213,-3.589747939258814e-05,1.3274431694298983e-05,1.1223820447921753,0.08035924285650253,0.31974661350250244
125.0,188.0,4.3173,-2.1984,8.3773,-0.0002,0.0281,-0.0712,-1.7530280552306117,-0.07890596240758896,2.7504754066467285,-1.4404218196868896,0.08462552726268768,2.2735157012939453,-2.1283761463561,-1.8492923583290357e-16,0.3016989827156067,-1.4869073073016565,-7.054434024663213e-29,-0.078375443816185,1.0536093711853027,-3.3245338272536173e-05,-0.00786154717206955,1.1230223178863525,0.07314170897006989,0.29339590668678284
125.0,188.0,4.3173,-2.1984,8.3773,-0.0002,0.0281,-0.0712,-1.7537208996214808,-0.07829219847917557,2.7698440551757812,-1.4396694898605347,0.08896918594837189,2.3309826850891113,-2.1284243069090785,-3.360996993361516e-21,0.301575630903244,-1.486948315297262,-1.2821085660349996e-33,-0.07362506538629532,1.0536614656448364,-3.095816646236926e-05,-0.007220887113362551,1.1235817670822144,0.07137131690979004,0.28493595123291016
125.0,188.0,4.3173,-2.1984,8.3773,-0.0002,0.0281,-0.0712,-1.7543450794615687,-0.07849785685539246,2.773717164993286,-1.4389094114303589,0.09385567903518677,2.3302886486053467,-2.128483911553854,-6.108447044560917e-26,0.3100522756576538,-1.4868953863727015,-2.3301690498407155e-38,-0.05573165789246559,1.0536012649536133,-2.8965430828975514e-05,0.009752495214343071,1.1241422891616821,0.07089895755052567,0.30610227584838867
125.0,188.0,4.3173,-2.1984,8.3773,-0.0002,0.0281,-0.0712,-1.7549978695311488,-0.07310497760772705,2.8367791175842285,-1.4381459951400757,0.09363672882318497,2.293344020843506,-2.1284357510008753,-1.1101800290691305e-30,0.2986827492713928,-1.4868996779071253,-4.2319213622609476e-43,-0.06343039125204086,1.053645133972168,-2.7213704015593976e-05,0.0006825742893852293,1.124658226966858,0.06536111235618591,0.23507437109947205
125.0,188.0,4.3173,-2.1984,8.3773,-0.0002,0.0281,-0.0712,-1.755599161187643,-0.0686165913939476,2.8420069217681885,-1.437458872795105,0.0838371142745018,2.2891783714294434,-2.128444334069723,-9.615949966246262e-05,0.31071919202804565,-1.4868558088885706,-0.0,-0.056136153638362885,1.053585171699524,-2.5661800464149565e-05,-0.0013179255183786154,1.1251578330993652,0.05844756215810776,0.2163309007883072
125.0,188.0,4.3173,-2.1984,8.3773,-0.0002,0.0281,-0.0712,-1.7561189136900843,-0.062370676547288895,2.838372230529785,-1.4368271827697754,0.0761474221944809,2.2832465171813965,-2.128427644769186,-4.044095840072259e-05,0.3097544312477112,-1.4868834654437464,-0.0,-0.05506110191345215,1.0535930395126343,-2.4277353077195585e-05,-0.000957257638219744,1.1255735158920288,0.05213078111410141,0.18288876116275787
125.0,188.0,4.3173,-2.1984,8.3773,-0.0002,0.0281,-0.0712,-1.7565390072264613,-0.052679888904094696,2.8517236709594727,-1.4362353086471558,0.07156170904636383,2.329896926879883,-2.128448625604147,-6.019218926667236e-05,0.30137649178504944,-1.4869239966021937,-0.0,-0.05180017650127411,1.053593397140503,-2.3034614059724845e-05,-0.012594263069331646,1.1260744333267212,0.051626596599817276,0.15817637741565704
122.0,172.0,5.2732,-3.2907,7.1426,0.0041,-0.0073,-0.0843,-1.7569524250426234,-0.04510069265961647,2.87717866897583,-1.4356635808944702,0.06673194468021393,2.29929518699646,-2.1284238300719203,-6.382367428159341e-05,0.30173319578170776,-1.4869359175311487,-0.0,-0.037660930305719376,1.0536131858825684,-2.191293242503889e-05,-0.020884212106466293,1.1264981031417847,0.05668947845697403,0.15754666924476624
122.0,172.0,5.2732,-3.2907,7.1426,0.0041,-0.0073,-0.0843,-1.7572599850096644,-0.040930211544036865,2.8011293411254883,-1.435136079788208,0.06566452980041504,2.2745068073272705,-2.128491540948385,-4.9714435590431094e-05,0.3007640242576599,-1.4869197050677698,-0.0,-0.03244106471538544,1.0536774396896362,-2.0895438865409233e-05,-0.0251599233597517,1.1269211769104004,0.05922669544816017,0.12395264208316803
122.0,172.0,5.2732,-3.2907,7.1426,0.0041,-0.0073,-0.0843,-1.7575684986510218,-0.04275643080472946,2.8876707553863525,-1.434579849243164,0.06552548706531525,2.287731409072876,-2.128444334069723,-4.071538569405675e-05,0.29293256998062134,-1.4868558088885706,-0.0,-0.038818955421447754,1.0537056922912598,-1.996822902583517e-05,-0.004721473436802626,1.1273856163024902,0.05421255901455879,0.17032590508460999
122.0,172.0,5.2732,-3.2907,7.1426,0.0041,-0.0073,-0.0843,-1.757841249505514,-0.045744914561510086,2.879396915435791,-1.434195876121521,0.06580699235200882,2.302305221557617,-2.128456254998678,-7.045266102068126e-05,0.3083728849887848,-1.4869073073016565,-0.0,-0.04391872137784958,1.053589105606079,-2.1632232005686092e-08,0.0019944030791521072,1.1276893615722656,0.04785767197608948,0.14244168996810913
122.0,172.0,5.2732,-3.2907,7.1426,0.0041,-0.0073,-0.0843,-1.7581454716124476,-0.04773673415184021,2.8826804161071777,-1.4336762428283691,0.06523506343364716,2.292553663253784,-2.128427644769186,-6.184294761624187e-05,0.3069785237312317,-1.4869077841388147,0.00010448196553625166,-0.033337052911520004,1.0536291599273682,-3.9315504519500666e-13,0.0028366739861667156,1.128081202507019,0.03971594572067261,0.1114417016506195
122.0,172.0,5.2732,-3.2907,7.1426,0.0041,-0.0073,-0.0843,-1.7585178814330042,-0.044405531138181686,2.885791301727295,-1.4330805540084839,0.06669967621564865,2.2623064517974854,-2.128432413140768,-5.43701316928491e-05,0.29992032051086426,-1.4868796507464808,0.00011751052807085216,-0.03163887560367584,1.0536212921142578,-7.145398716650479e-18,-0.013180814683437347,1.1283369064331055,0.03380347788333893,0.13767609000205994
122.0,172.0,5.2732,-3.2907,7.1426,0.0041,-0.0073,-0.0843,-1.7589065037169398,-0.04210410267114639,2.897462844848633,-1.4325323104858398,0.06703063100576401,2.298893451690674,-2.1284319363036097,-4.850867480854504e-05,0.3010142743587494,-1.4869158903705042,0.00010639676474966109,-0.022560546174645424,1.0536693334579468,-1.298640871312341e-22,-0.011978032067418098,1.1286450624465942,0.03164328634738922,0.13040214776992798
122.0,172.0,5.2732,-3.2907,7.1426,0.0041,-0.0073,-0.0843,-1.7592388592162074,-0.04108159989118576,2.894172191619873,-1.4320616722106934,0.06705248355865479,2.323896646499634,-2.1283918819823207,-2.189579936384689e-05,0.3028448522090912,-1.4868758360492151,9.72033740254119e-05,-0.037988584488630295,1.0536812543869019,-2.3602153986738968e-27,-0.0006973461713641882,1.128825068473816,0.028332680463790894,0.06773392856121063
122.0,172.0,5.2732,-3.2907,7.1426,0.0041,-0.0073,-0.0843,-1.7596031628050746,-0.042170509696006775,2.9020893573760986,-1.431593656539917,0.06539847701787949,2.336944818496704,-2.1284405193724574,-1.995248385355808e-05,0.2971140444278717,-1.486892048512594,0.00010617481166264042,-0.04419815167784691,1.0536251068115234,-4.289575487580702e-32,-0.0024089543148875237,1.129052996635437,0.02479299157857895,0.031724635511636734
122.0,172.0,5.2732,-3.2907,7.1426,0.0041,-0.0073,-0.0843,-1.7600041828551234,-0.04296661168336868,2.87514591217041,-1.431005597114563,0.06440126150846481,2.273167133331299,-2.128444334069723,-3.6653029383160174e-05,0.3225571811199188,-1.48686391512026,9.945675265043974e-05,-0.03366362303495407,1.0536091327667236,-7.796091047731239e-37,-0.016575023531913757,1.129237174987793,0.01940089836716652,0.10539756715297699
122.0,172.0,5.2732,-3.2907,7.1426,0.0041,-0.0073,-0.0843,-1.7603603802123011,-0.041984282433986664,2.9045677185058594,-1.430517554283142,0.05905073136091232,2.2867188453674316,-2.128444334069723,-4.862008063355461e-05,0.30367815494537354,-1.4868677298175257,0.00010803649638546631,-0.03965747356414795,1.0536772012710571,-1.4168528772788225e-41,-0.006686154752969742,1.1293450593948364,0.015015725046396255,0.07641692459583282
121.0,170.0,4.7264,-3.003,7.2927,-0.0504,0.0234,-0.0953,-1.7606002293028773,-0.037508223205804825,2.955575704574585,-1.4301023483276367,0.053816985338926315,2.2805137634277344,-2.128415723840231,-4.727921259473078e-05,0.3092588186264038,-1.4868715445147913,0.00010113165626535192,-0.02932671457529068,1.0536328554153442,-0.0,0.002521061571314931,1.1294769048690796,0.012776162475347519,0.029564879834651947
121.0,170.0,4.7264,-3.003,7.2927,-0.0504,0.0234,-0.0953,-1.7609130344786585,-0.03088327869772911,3.0040500164031982,-1.4296501874923706,0.050823748111724854,2.2916295528411865,-2.1284524403014125,-5.511809649760835e-05,0.31748026609420776,-1.4868996779071253,9.50296816881746e-05,-0.03631218150258064,1.0536044836044312,-0.0,-0.0037341644056141376,1.1295524835586548,0.013048803433775902,0.006515970453619957
121.0,170.0,4.7264,-3.003,7.2927,-0.0504,0.0234,-0.0953,-1.7610846958556117,-0.025849949568510056,2.9593138694763184,-1.4292105436325073,0.04835142940282822,2.273632764816284,-2.1284834347166957,-5.529311965801753e-05,0.3031998574733734,-1.4868796507464808,8.96222991286777e-05,-0.02979251742362976,1.0536689758300781,-0.0,-0.0002554975217208266,1.1296765804290771,0.013334979303181171,0.006387814879417419
121.0,170.0,4.7264,-3.003,7.2927,-0.0504,0.0234,-0.0953,-1.761244913140768,-0.021328991279006004,3.0035901069641113,-1.4289581775665283,0.046623121947050095,2.2715916633605957,-2.128444334069723,-5.285759471007623e-05,0.3069435656070709,-1.4869197050677698,8.5953957750462e-05,-0.030739812180399895,1.053665280342102,-0.0,-0.004213603213429451,1.1297365427017212,0.014535498805344105,0.03504645451903343
121.0,170.0,4.7264,-3.003,7.2927,-0.0504,0.0234,-0.0953,-1.7614013157286585,-0.02041265368461609,3.0268149375915527,-1.4285749197006226,0.04375514015555382,2.256969928741455,-2.1284600696959437,-4.992545655113645e-05,0.3096906542778015,-1.4868515173541468,8.150586654664949e-05,-0.015210077166557312,1.0536210536956787,-0.0,0.003282243851572275,1.1299008131027222,0.01385265402495861,0.010825340636074543
121.0,170.0,4.7264,-3.003,7.2927,-0.0504,0.0234,-0.0953,-1.7616054020323695,-0.02133527398109436,2.952211856842041,-1.4282267093658447,0.04025980457663536,2.2705488204956055,-2.1284481487669886,-6.808782200096175e-05,0.2969284653663635,-1.4868715445147913,7.749554788460955e-05,-0.02430025115609169,1.0536772012710571,-0.0,-0.00290571223013103,1.1299808025360107,0.012401064857840538,0.029085125774145126
121.0,170.0,4.7264,-3.003,7.2927,-0.0504,0.0234,-0.0953,-1.7617775402464808,-0.02269371971487999,2.961859703063965,-1.4279630184173584,0.03549719974398613,2.284663438796997,-2.1284834347166957,-6.421283615054563e-05,0.2976013720035553,-1.4869158903705042,7.386130891973153e-05,-0.041477054357528687,1.05362868309021,-0.0,-0.009313554503023624,1.130104899406433,0.01148133259266615,0.05147853493690491
121.0,170.0,4.7264,-3.003,7.2927,-0.0504,0.0234,-0.0953,-1.7620226345457972,-0.02344147488474846,3.0029547214508057,-1.4277116060256958,0.026986142620444298,2.2421865463256836,-2.128468175927633,-6.074559496482834e-05,0.3049670159816742,-1.4868877569781702,7.055270543787628e-05,-0.02244522050023079,1.0536730289459229,-0.0,-0.008757245726883411,1.1302129030227661,0.011845819652080536,0.011783941648900509
121.0,170.0,4.7264,-3.003,7.2927,-0.0504,0.0234,-0.0953,-1.7621342144408167,-0.022442026063799858,2.9996628761291504,-1.4274673461914062,0.02045419253408909,2.197112560272217,-2.128496309319967,-5.763365334132686e-05,0.30773475766181946,-1.4869158903705042,3.831303274637321e-08,-0.01895107701420784,1.0536614656448364,-0.0,0.0029930691234767437,1.1302804946899414,0.012010362930595875,0.020092662423849106
121.0,170.0,4.7264,-3.003,7.2927,-0.0504,0.0234,-0.0953,-1.762310644189352,-0.020517200231552124,2.9795420169830322,-1.427399754524231,0.01189474854618311,2.1599764823913574,-2.1284882030882777,-5.482498090714216e-05,0.30244380235671997,-1.4868715445147913,6.963204969220871e-13,-0.021098989993333817,1.0536291599273682,-0.0,0.0011810439173132181,1.1303887367248535,0.012458696030080318,0.07549454271793365
121.0,170.0,4.7264,-3.003,7.2927,-0.0504,0.0234,-0.0953,-1.762414117852682,-0.01928539015352726,2.9436349868774414,-1.4272993803024292,0.004877339582890272,2.207136631011963,-2.12847962001943,-7.049945270409808e-05,0.3038216531276703,-1.4868677298175257,1.2655282691271311e-17,-0.015698758885264397,1.0536410808563232,-0.0,-0.005267081316560507,1.1305046081542969,0.012416568584740162,0.05270680412650108
121.0,170.0,4.7264,-3.003,7.2927,-0.0504,0.0234,-0.0953,-1.7626267872252406,-0.01996183581650257,3.004408359527588,-1.4273552894592285,0.00015534205886069685,2.184774875640869,-2.128475328485006,-0.0001625009608687833,0.3104604482650757,-1.4868834654437464,2.30003516700506e-22,-0.030830925330519676,1.053641438484192,-0.0,0.005315197166055441,1.1305283308029175,0.011463770642876625,0.05653422325849533
121.0,173.0,3.8566,-2.3856,7.7874,-0.0513,0.0008,-0.1026,-1.7628032169737757,-0.02375423163175583,2.982165813446045,-1.4273509979248047,-0.001932240091264248,2.2049918174743652,-2.1285158596434535,-0.0010026125237345695,0.31182125210762024,-1.4868996779071253,4.180200129413385e-27,-0.03222307190299034,1.053617238998413,-0.0,-0.002123564248904586,1.130692481994629,0.012769646942615509,0.09092424809932709
121.0,173.0,3.8566,-2.3856,7.7874,-0.0513,0.0008,-0.1026,-1.762947221795553,-0.026884017512202263,2.9606471061706543,-1.427391529083252,-0.001063031260855496,2.1964645385742188,-2.1285001240172328,-0.0013258439721539617,0.2999892830848694,-1.4868996779071253,1.163574085788565e-30,-0.03124832734465599,1.0536212921142578,-0.0,-0.005958509165793657,1.130768895149231,0.013842131942510605,0.047380734235048294
121.0,173.0,3.8566,-2.3856,7.7874,-0.0513,0.0008,-0.1026,-1.7631875477232875,-0.03431159630417824,2.9052882194519043,-1.4273675680160522,-0.00043461131281219423,2.200455665588379,-2.128495832482809,-0.0010712851071730256,0.2951309382915497,-1.4869039694415491,2.1147381569611112e-35,-0.039648644626140594,1.0536011457443237,-0.0,-0.0039676157757639885,1.1309007406234741,0.016245901584625244,-0.008322605863213539
121.0,173.0,3.8566,-2.3856,7.7874,-0.0513,0.0008,-0.1026,-1.7635041675963343,-0.039215702563524246,2.8927345275878906,-1.42734694480896,-0.00029277021531015635,2.1506266593933105,-2.1285516224303187,-0.0007015909068286419,0.30705976486206055,-1.4868596235858362,3.843425376011535e-40,-0.028958924114704132,1.0536131858825684,-0.0,-0.010624771937727928,1.1310369968414307,0.018373161554336548,0.03129110485315323
121.0,173.0,3.8566,-2.3856,7.7874,-0.0513,0.0008,-0.1026,-1.763808389703268,-0.04357731714844704,2.93902325630188,-1.4273841381072998,-0.000220895090023987,2.2189788818359375,-2.128563543359274,-0.0005590091459453106,0.3049655854701996,-1.4868715445147913,7.006492321624085e-45,-0.011353911831974983,1.0536530017852783,-0.0,0.001642756164073944,1.1311564445495605,0.019209906458854675,-0.010935885831713676
121.0,173.0,3.8566,-2.3856,7.7874,-0.0513,0.0008,-0.1026,-1.7641445598998011,-0.04722234606742859,2.928100109100342,-1.4273760318756104,-0.00017735878645908087,2.209085464477539,-2.128547807733053,-0.00039346935227513313,0.2907473146915436,-1.4868677298175257,0.0,-0.024909237399697304,1.053645133972168,-0.0,-0.018038053065538406,1.1313287019729614,0.0195771511644125,0.05091894045472145
121.0,173.0,3.8566,-2.3856,7.7874,-0.0513,0.0008,-0.1026,-1.7645088634886683,-0.048145487904548645,2.948383331298828,-1.4273841381072998,-0.00014815984468441457,2.1898193359375,-2.128519674340719,-0.00048028345918282866,0.29964208602905273,-1.4868958632098597,0.0,-0.030559448525309563,1.053568959236145,-0.0,-0.012272854335606098,1.1314201354980469,0.021153096109628677,0.029958056285977364
121.0,173.0,3.8566,-2.3856,7.7874,-0.0513,0.0008,-0.1026,-1.7649055920042933,-0.04746970161795616,2.915766716003418,-1.427371859550476,-0.00012785362196154892,2.2075634002685547,-2.128512044946188,-0.000923098879866302,0.2914401888847351,-1.4868958632098597,0.0,-0.026469314470887184,1.053653359413147,-0.0,-0.004684900864958763,1.1316767930984497,0.022823123261332512,0.027526676654815674
121.0,173.0,3.8566,-2.3856,7.7874,-0.0513,0.0008,-0.1026,-1.7652980289854945,-0.04816017672419548,2.8874030113220215,-1.4274282455444336,-6.306596333160996e-05,2.2460718154907227,-2.1285792789854945,-0.0020750395487993956,0.3013836145401001,-1.4868958632098597,0.0,-0.02342916652560234,1.0536253452301025,-0.0,0.0035770642571151257,1.1318364143371582,0.02540392242372036,0.04864745959639549
121.0,173.0,3.8566,-2.3856,7.7874,-0.0513,0.0008,-0.1026,-1.7657190761961878,-0.04797901585698128,2.958937644958496,-1.4274039268493652,-8.314469596371055e-05,2.1708762645721436,-2.1285516224303187,-0.002519238507375121,0.2979785203933716,-1.4868558088885706,0.0,-0.021798690780997276,1.0536370277404785,-0.0,-0.0022153081372380257,1.1320806741714478,0.026129774749279022,0.048113252967596054
121.0,173.0,3.8566,-2.3856,7.7874,-0.0513,0.0008,-0.1026,-1.766083379785055,-0.05046546086668968,2.9336466789245605,-1.427380084991455,-7.40262694307603e-05,2.1843416690826416,-2.1286193333067835,-0.001943278475664556,0.2767280340194702,-1.4868996779071253,0.0,-0.03808014839887619,1.0536131858825684,-0.0,-0.001149951247498393,1.1322684288024902,0.02620595134794712,0.037452131509780884
120.0,167.0,4.5194,-2.8798,7.3717,-0.0421,-0.0411,-0.1003,-1.76641907314443,-0.052202194929122925,2.9110665321350098,-1.42740797996521,-0.00010637303057592362,2.1611950397491455,-2.1285835705199183,-0.0009330864995718002,0.2932245433330536,-1.4868834654437464,0.0,-0.041099414229393005,1.0536329746246338,-0.0,-0.009911976754665375,1.132472276687622,0.02503781020641327,0.025007322430610657
120.0,167.0,4.5194,-2.8798,7.3717,-0.0421,-0.0411,-0.1003,-1.7667886219420375,-0.05150340870022774,2.9500162601470947,-1.427399754524231,-4.782601536135189e-05,2.194688081741333,-2.128631731072897,-0.0006139671895653009,0.28525951504707336,-1.4868558088885706,0.0,-0.02961643785238266,1.0536731481552124,-0.0,-0.007401865907013416,1.1326085329055786,0.023871740326285362,0.01658323034644127
120.0,167.0,4.5194,-2.8798,7.3717,-0.0421,-0.0411,-0.1003,-1.767172475854391,-0.04992574825882912,2.924222707748413,-1.4273678064346313,-2.6458670809859086e-09,2.199124574661255,-2.1286193333067835,-0.00042185644269920886,0.27564847469329834,-1.4868758360492151,0.0,-0.024761395528912544,1.053645133972168,-0.0,0.009084850549697876,1.132824420928955,0.022982290014624596,0.011851459741592407
120.0,167.0,4.5194,-2.8798,7.3717,-0.0421,-0.0411,-0.1003,-1.7675892315306605,-0.049383532255887985,2.9412312507629395,-1.4273676872253418,-8.572271872978529e-17,2.2229156494140625,-2.128587385217184,-0.0003213676391169429,0.2912488877773285,-1.486880127583639,0.0,-0.023261867463588715,1.0536370277404785,-0.0,0.0016181543469429016,1.1330450773239136,0.022038906812667847,0.07771171629428864
120.0,167.0,4.5194,-2.8798,7.3717,-0.0421,-0.0411,-0.1003,-1.7679974041380824,-0.05231884866952896,2.942626476287842,-1.4274600744247437,-2.7773066958404287e-24,2.224184989929199,-2.128531595269674,-0.0002178161812480539,0.29375624656677246,-1.4868558088885706,0.0,-0.012753673829138279,1.0536690950393677,-0.0,-0.013679418712854385,1.133168339729309,0.02372574992477894,0.0007014181464910507
120.0,167.0,4.5194,-2.8798,7.3717,-0.0421,-0.0411,-0.1003,-1.768414159814352,-0.05368620902299881,2.9552886486053467,-1.4274039268493652,-8.998121847175835e-32,2.243252992630005,-2.128559728662008,-0.0001814103889046237,0.29724085330963135,-1.486892048512594,0.0,-0.024786341935396194,1.0536572933197021,-0.0,-0.009208906441926956,1.1333523988723755,0.02347046695649624,0.06823901832103729
120.0,167.0,4.5194,-2.8798,7.3717,-0.0421,-0.0411,-0.1003,-1.7687541447081507,-0.053817056119441986,2.9256811141967773,-1.4273314476013184,-2.915276739464457e-39,2.207200765609741,-2.1285792789854945,-0.00012500997399911284,0.2934633493423462,-1.4868596235858362,8.755253588788037e-08,-0.02796988934278488,1.053605318069458,-0.0,-0.012117285281419754,1.1335439682006836,0.02350398525595665,0.05953296273946762
