ramyac6/ROB537/final_project/csv/all/good_236.csv
tof_0,tof_1,accelx,accely,accelz,gyrox,gyroy,gyroz,shoulder_lift_joint_position,shoulder_lift_joint_velocity,shoulder_lift_joint_effort,elbow_joint_position,elbow_joint_velocity,elbow_joint_effort,wrist_1_joint_position,wrist_1_joint_velocity,wrist_1_joint_effort,wrist_2_joint_position,wrist_2_joint_velocity,wrist_2_joint_effort,wrist_3_joint_position,wrist_3_joint_velocity,wrist_3_joint_effort,shoulder_pan_joint_position,shoulder_pan_joint_velocity,shoulder_pan_joint_effort
213.0,211.0,-7.681,-0.7029,6.8387,-0.0435,0.0279,-0.1197,-2.6099983654417933,0.0,5.665004730224609,-0.8583319783210754,-0.0,1.9529767036437988,5.750567781716146,0.0,0.13461679220199585,-1.569658104573385,0.0,-0.01735309697687626,0.6107082366943359,0.0,0.0006909755757078528,1.0486693382263184,0.0,-0.0726180300116539
213.0,211.0,-7.681,-0.7029,6.8387,-0.0435,0.0279,-0.1197,-2.6100017033019007,0.0,5.710484504699707,-0.8583683371543884,-0.0,1.9783439636230469,5.750531661301412,0.0,0.15204960107803345,-1.569658104573385,0.0,-0.01110823079943657,0.6106882095336914,0.0,0.00815703347325325,1.04864501953125,0.0,0.015524081885814667
213.0,211.0,-7.681,-0.7029,6.8387,-0.0435,0.0279,-0.1197,-2.6099983654417933,0.0,5.669658660888672,-0.858339786529541,-0.0,2.0156407356262207,5.750555860787191,0.0,0.13884741067886353,-1.5696418921100062,0.0,-0.010791081003844738,0.6107524633407593,0.0,0.01023234985768795,1.0486528873443604,0.0,-0.007608037441968918
213.0,211.0,-7.681,-0.7029,6.8387,-0.0435,0.0279,-0.1197,-2.6100107632079066,0.0,5.684051036834717,-0.8583837747573853,-0.0,1.953049898147583,5.750511634140768,0.0,0.1308956891298294,-1.5697348753558558,0.0,0.0008999230340123177,0.6106643676757812,0.0,0.01058789063245058,1.0486496686935425,0.0,-0.013155056163668633
213.0,211.0,-7.681,-0.7029,6.8387,-0.0435,0.0279,-0.1197,-2.609981676141256,0.0,5.6936821937561035,-0.858284056186676,-0.0,1.9640368223190308,5.7505037663276575,0.0,0.14183403551578522,-1.5696824232684534,0.0,-0.017562661319971085,0.6106758713722229,0.0,0.008223488926887512,1.0486652851104736,0.0,0.008714275434613228
213.0,211.0,-7.681,-0.7029,6.8387,-0.0435,0.0279,-0.1197,-2.6100064716734828,0.0,5.695024013519287,-0.8582799434661865,-0.0,2.00626277923584,5.750511634140768,0.0,0.13496969640254974,-1.569686237965719,0.0,-0.010609305463731289,0.6107205152511597,0.0,0.010903381742537022,1.0486853122711182,0.0,0.011094709858298302
213.0,211.0,-7.681,-0.7029,6.8387,-0.0435,0.0279,-0.1197,-2.609922071496481,0.0,5.676110744476318,-0.8583400249481201,-0.0,1.9636379480361938,5.750523793488302,0.0,0.12204442173242569,-1.5696819464312952,0.0,-0.007976565510034561,0.6106759309768677,0.0,0.007384996861219406,1.0486373901367188,0.0,0.008317839354276657
213.0,211.0,-7.681,-0.7029,6.8387,-0.0435,0.0279,-0.1197,-2.6099659405150355,0.0,5.688338279724121,-0.8583078980445862,-0.0,1.9930006265640259,5.750499951630392,0.0,0.12565845251083374,-1.5696585814105433,0.0,-0.0022510476410388947,0.6107641458511353,0.0,0.010684357956051826,1.048673391342163,0.0,-0.010233244858682156
213.0,211.0,-7.681,-0.7029,6.8387,-0.0435,0.0279,-0.1197,-2.6100264988341273,0.0,5.6955766677856445,-0.8582959175109863,-0.0,2.0135769844055176,5.750507819443502,0.0,0.1283806711435318,-1.5696423689471644,0.0,-0.00902653206139803,0.6107041835784912,0.0,0.013647139072418213,1.0486609935760498,0.0,0.0024403443094342947
210.0,216.0,-7.5547,-0.667,6.7107,-0.0418,0.0287,-0.1167,-2.6099983654417933,0.0,5.667535781860352,-0.8583716750144958,-0.0,1.9956409931182861,5.750495898514547,0.0,0.1414889097213745,-1.569658104573385,0.0,-0.018611213192343712,0.6107403039932251,0.0,0.006617936305701733,1.0486290454864502,0.0,-0.0020790104754269123
210.0,216.0,-7.5547,-0.667,6.7107,-0.0418,0.0287,-0.1167,-2.609981676141256,0.0,5.701488018035889,-0.8583319187164307,-0.0,1.9092694520950317,5.750571834831991,0.0,0.13806119561195374,-1.5696938673602503,0.0,-0.012154430150985718,0.6107283234596252,0.0,-0.01232092548161745,1.0487339496612549,0.0,0.02995406650006771
210.0,216.0,-7.5547,-0.667,6.7107,-0.0418,0.0287,-0.1167,-2.610002656976217,0.0,5.642243385314941,-0.858311653137207,-0.0,2.0099434852600098,5.750535714417257,0.0,0.13511323928833008,-1.5697062651263636,0.0,-0.011948982253670692,0.6107239127159119,0.0,0.013527759350836277,1.0486414432525635,0.0,0.034584786742925644
210.0,216.0,-7.5547,-0.667,6.7107,-0.0418,0.0287,-0.1167,-2.609969755212301,0.0,5.664286136627197,-0.8583278656005859,-0.0,1.986480951309204,5.7505037663276575,0.0,0.12881475687026978,-1.5696662108050745,0.0,-0.003135526552796364,0.610720157623291,0.0,0.023580346256494522,1.0486693382263184,0.0,-0.009037503972649574
210.0,216.0,-7.5547,-0.667,6.7107,-0.0418,0.0287,-0.1167,-2.6099616489806117,0.0,5.683881759643555,-0.858288049697876,-0.0,1.9404643774032593,5.750511634140768,0.0,0.13670337200164795,-1.5697148481952112,0.0,-0.005414392799139023,0.6107559204101562,0.0,0.013044348917901516,1.0486775636672974,0.0,0.012986719608306885
210.0,216.0,-7.5547,-0.667,6.7107,-0.0418,0.0287,-0.1167,-2.610002656976217,0.0,5.704563617706299,-0.8583400249481201,-0.0,1.9982333183288574,5.750499594002523,0.0,0.14341217279434204,-1.5696385542498987,0.0,-0.005870699416846037,0.6107320785522461,0.0,0.009846746921539307,1.0486853122711182,0.0,-0.0115271657705307
210.0,216.0,-7.5547,-0.667,6.7107,-0.0418,0.0287,-0.1167,-2.610002656976217,0.0,5.678590297698975,-0.8583359718322754,-0.0,1.9514869451522827,5.750503647118368,0.0,0.14181208610534668,-1.569686237965719,0.0,-0.018603334203362465,0.6107161045074463,0.0,-0.009054304100573063,1.0486210584640503,0.0,-0.02411101758480072
210.0,216.0,-7.5547,-0.667,6.7107,-0.0418,0.0287,-0.1167,-2.6100064716734828,0.0,5.680532455444336,-0.8583723306655884,-0.0,1.931349754333496,5.750543939858236,0.0,0.12909014523029327,-1.5696938673602503,0.0,0.008203107863664627,0.6107681393623352,0.0,0.020345067605376244,1.048697829246521,0.0,0.035838279873132706
210.0,216.0,-7.5547,-0.667,6.7107,-0.0418,0.0287,-0.1167,-2.6099540195860804,0.0,5.71292781829834,-0.8583518862724304,-0.0,1.9655988216400146,5.750507819443502,0.0,0.1341620683670044,-1.5697148481952112,0.0,-0.013490824028849602,0.6106643080711365,0.0,-0.0020695223938673735,1.0487096309661865,0.0,0.02052949368953705
210.0,216.0,-7.5547,-0.667,6.7107,-0.0418,0.0287,-0.1167,-2.6099940739073695,0.0,5.6900248527526855,-0.8583159446716309,-0.0,2.0000250339508057,5.7504955408866785,0.0,0.13792961835861206,-1.5696385542498987,0.0,-0.0020334701985120773,0.6107041835784912,0.0,0.01496150903403759,1.0486574172973633,0.0,-0.013946297578513622
210.0,216.0,-7.5547,-0.667,6.7107,-0.0418,0.0287,-0.1167,-2.609981676141256,0.0,5.683206558227539,-0.8583239912986755,-0.0,1.9802446365356445,5.750515806465902,0.0,0.13297946751117706,-1.569658104573385,0.0,-0.012099082581698895,0.6106963157653809,0.0,0.004936584271490574,1.0486934185028076,0.0,-0.031793802976608276
210.0,216.0,-7.5547,-0.667,6.7107,-0.0418,0.0287,-0.1167,-2.609990259210104,0.0,5.691131591796875,-0.8583440780639648,-0.0,2.020977020263672,5.750519740372457,0.0,0.1413360983133316,-1.5696418921100062,0.0,-0.005915531888604164,0.6106922626495361,0.0,0.0020890911109745502,1.0487059354782104,0.0,-0.00548592209815979
210.0,216.0,-7.5547,-0.667,6.7107,-0.0418,0.0287,-0.1167,-2.6099497280516566,0.0,5.691196441650391,-0.8582839965820312,-0.0,2.0126538276672363,5.7505156872566126,0.0,0.13547945022583008,-1.5696738401996058,0.0,-0.018220484256744385,0.6107282638549805,0.0,-0.004491288680583239,1.0486693382263184,0.0,0.00014326255768537521
210.0,216.0,-7.5547,-0.667,6.7107,-0.0418,0.0287,-0.1167,-2.6099540195860804,0.0,5.733216762542725,-0.858343780040741,-0.0,1.9710283279418945,5.750523793488302,0.0,0.1314142346382141,-1.5697067419635218,0.0,-0.022635765373706818,0.6106643676757812,0.0,0.018535777926445007,1.0487018823623657,0.0,-0.047987908124923706
210.0,216.0,-7.5547,-0.667,6.7107,-0.0418,0.0287,-0.1167,-2.6100222072997035,0.0,5.736811637878418,-0.8583078384399414,-0.0,1.9793455600738525,5.750499713211813,0.0,0.14706245064735413,-1.5696824232684534,0.0,-0.008933444507420063,0.6106719374656677,0.0,0.014233502559363842,1.0486693382263184,0.0,-0.05468367785215378
210.0,216.0,-7.5547,-0.667,6.7107,-0.0418,0.0287,-0.1167,-2.6100107632079066,0.0,5.724541187286377,-0.8583199977874756,-0.0,1.9422484636306763,5.750543582230367,0.0,0.13155514001846313,-1.569658104573385,0.0,-0.014555047266185284,0.6107881665229797,0.0,0.012471841648221016,1.048661470413208,0.0,0.0363142229616642
210.0,216.0,-7.5547,-0.667,6.7107,-0.0418,0.0287,-0.1167,-2.6099778614439906,0.0,5.739295482635498,-0.8583636283874512,-0.0,2.0338330268859863,5.750535714417257,0.0,0.1349221169948578,-1.5696943441974085,0.0,-0.010425174608826637,0.6107402443885803,0.0,0.008829351514577866,1.0486774444580078,0.0,-0.009053624235093594
206.0,217.0,-7.5362,-0.6473,6.5312,-0.0336,0.0287,-0.1155,-2.610014101068014,0.0,5.679009437561035,-0.8583400249481201,-0.0,1.9698395729064941,5.750551807671346,0.0,0.14889241755008698,-1.569719139729635,0.0,-0.007076962850987911,0.6106521487236023,0.0,-0.00041553075425326824,1.0486210584640503,0.0,0.012876580469310284
206.0,217.0,-7.5362,-0.6473,6.5312,-0.0336,0.0287,-0.1155,-2.610014101068014,0.0,5.646251678466797,-0.8583798408508301,-0.0,1.948596477508545,5.750571834831991,0.0,0.13740484416484833,-1.569702450429098,0.0,-0.004117117263376713,0.610671877861023,0.0,0.004000840708613396,1.0486693382263184,0.0,-0.011032475158572197
206.0,217.0,-7.5362,-0.6473,6.5312,-0.0336,0.0287,-0.1155,-2.6100064716734828,0.0,5.705264091491699,-0.8583518862724304,-0.0,1.974670648574829,5.7505438206489465,0.0,0.1298917531967163,-1.5696542898761194,0.0,-0.006594937294721603,0.6107324361801147,0.0,0.006186138838529587,1.0486693382263184,0.0,-0.04865693673491478
206.0,217.0,-7.5362,-0.6473,6.5312,-0.0336,0.0287,-0.1155,-2.609957834283346,0.0,5.71303129196167,-0.8582636117935181,-0.0,1.9597036838531494,5.750487673073568,0.0,0.14057880640029907,-1.569686237965719,0.0,-0.017661593854427338,0.6107320785522461,0.0,0.004498495254665613,1.048689365386963,0.0,-0.028234407305717468
206.0,217.0,-7.5362,-0.6473,6.5312,-0.0336,0.0287,-0.1155,-2.6099659405150355,0.0,5.664787769317627,-0.8583279848098755,-0.0,1.958709716796875,5.750527965813436,0.0,0.14301182329654694,-1.5696662108050745,0.0,-0.004201653879135847,0.6106520891189575,0.0,0.00725026847794652,1.0486170053482056,0.0,-0.03282707557082176
206.0,217.0,-7.5362,-0.6473,6.5312,-0.0336,0.0287,-0.1155,-2.609978338281149,0.0,5.659391403198242,-0.8583159446716309,-0.0,1.974613070487976,5.750519859581747,0.0,0.1426836997270584,-1.5696981588946741,0.0,-0.012064989656209946,0.6106799244880676,0.0,0.003657821798697114,1.0486770868301392,0.0,0.03427959978580475
206.0,217.0,-7.5362,-0.6473,6.5312,-0.0336,0.0287,-0.1155,-2.6099659405150355,0.0,5.65970516204834,-0.8583438396453857,-0.0,1.975301742553711,5.750547635346212,0.0,0.14229917526245117,-1.5696781317340296,0.0,0.002877990948036313,0.6107164621353149,0.0,0.01243211142718792,1.048697590827942,0.0,-0.02607128769159317
206.0,217.0,-7.5362,-0.6473,6.5312,-0.0336,0.0287,-0.1155,-2.6099983654417933,0.0,5.646646499633789,-0.8583440184593201,-0.0,1.9685039520263672,5.750483619957723,0.0,0.13603629171848297,-1.5697229544269007,0.0,-0.007250216789543629,0.6107161045074463,0.0,0.001029255916364491,1.0486812591552734,0.0,0.0074214935302734375
206.0,217.0,-7.5362,-0.6473,6.5312,-0.0336,0.0287,-0.1155,-2.610014101068014,0.0,5.660941123962402,-0.8583683371543884,-0.0,2.0081608295440674,5.750519740372457,0.0,0.13891160488128662,-1.5696738401996058,0.0,0.005006235092878342,0.6107198596000671,0.0,-0.0041539957746863365,1.048689365386963,0.0,-0.0019577189814299345
206.0,217.0,-7.5362,-0.6473,6.5312,-0.0336,0.0287,-0.1155,-2.609933992425436,0.0,5.705207824707031,-0.8583559989929199,-0.0,1.9117488861083984,5.750555860787191,0.0,0.1378498375415802,-1.5696380774127405,0.0,-0.008576616644859314,0.6107082366943359,0.0,0.013925952836871147,1.0486170053482056,0.0,0.019256725907325745
206.0,217.0,-7.5362,-0.6473,6.5312,-0.0336,0.0287,-0.1155,-2.6100064716734828,0.0,5.6993560791015625,-0.8582959771156311,-0.0,1.964017391204834,5.750571834831991,0.0,0.121830053627491,-1.5696705023394983,0.0,-0.005242922343313694,0.610720157623291,0.0,-0.00027922866865992546,1.0486493110656738,0.0,0.03792641684412956
206.0,217.0,-7.5362,-0.6473,6.5312,-0.0336,0.0287,-0.1155,-2.6099940739073695,0.0,5.692994117736816,-0.8583118319511414,-0.0,1.9931402206420898,5.750491845398702,0.0,0.13529637455940247,-1.5696824232684534,0.0,-0.010299190878868103,0.6107763051986694,0.0,0.004008167888969183,1.0486611127853394,0.0,0.018382133916020393
206.0,217.0,-7.5362,-0.6473,6.5312,-0.0336,0.0287,-0.1155,-2.6099983654417933,0.0,5.679210186004639,-0.8583519458770752,-0.0,1.9502100944519043,5.750571834831991,0.0,0.13763543963432312,-1.5696905295001429,0.0,-0.014683902263641357,0.610711932182312,0.0,0.014872012659907341,1.0487018823623657,0.0,-0.030023016035556793
206.0,217.0,-7.5362,-0.6473,6.5312,-0.0336,0.0287,-0.1155,-2.609969755212301,0.0,5.692831993103027,-0.8583000302314758,-0.0,2.0101966857910156,5.750499594002523,0.0,0.14127971231937408,-1.5696943441974085,0.0,-0.013296370394527912,0.6107279062271118,0.0,0.018651502206921577,1.0487220287322998,0.0,-0.005007784813642502
206.0,217.0,-7.5362,-0.6473,6.5312,-0.0336,0.0287,-0.1155,-2.6099983654417933,0.0,5.680497646331787,-0.858251690864563,-0.0,1.9263933897018433,5.750523793488302,0.0,0.12106609344482422,-1.5696376005755823,0.0,-0.011510890908539295,0.6106922626495361,0.0,0.01936451718211174,1.0486373901367188,0.0,0.04224683344364166
206.0,217.0,-7.5362,-0.6473,6.5312,-0.0336,0.0287,-0.1155,-2.6100107632079066,0.0,5.685511112213135,-0.8583278656005859,-0.0,1.933107852935791,5.750499713211813,0.0,0.1305718719959259,-1.5696705023394983,0.0,-0.01332886703312397,0.610711932182312,0.0,0.003672259161248803,1.0486493110656738,0.0,-0.02824161760509014
207.0,225.0,-7.5314,-0.6209,6.5312,-0.0344,0.0214,-0.1161,-2.6100064716734828,0.0,5.677328109741211,-0.8583962321281433,-0.0,2.009737491607666,5.7505037663276575,0.0,0.12724760174751282,-1.569658104573385,0.0,-0.0032924655824899673,0.6107161045074463,0.0,0.006786319427192211,1.0486373901367188,0.0,-0.008484597317874432
207.0,225.0,-7.5314,-0.6209,6.5312,-0.0344,0.0214,-0.1161,-2.6100064716734828,0.0,5.693354606628418,-0.8583159446716309,-0.0,1.9594066143035889,5.750547873764791,0.0,0.12739801406860352,-1.569686237965719,0.0,-0.018022634088993073,0.6106521487236023,0.0,0.009224854409694672,1.0486693382263184,0.0,-0.018757939338684082
207.0,225.0,-7.5314,-0.6209,6.5312,-0.0344,0.0214,-0.1161,-2.609969755212301,0.0,5.703562259674072,-0.8583316802978516,-0.0,1.9361259937286377,5.750527608185568,0.0,0.14346763491630554,-1.569629971181051,0.0,0.002800057642161846,0.6106963157653809,0.0,-0.005107478238642216,1.048689365386963,0.0,-0.013272920623421669
207.0,225.0,-7.5314,-0.6209,6.5312,-0.0344,0.0214,-0.1161,-2.61000980953359,0.0,5.689144611358643,-0.8582918643951416,-0.0,1.9820499420166016,5.750511514931478,0.0,0.14114591479301453,-1.5696418921100062,0.0,-0.014401528984308243,0.6106635928153992,0.0,0.014227057807147503,1.0486010313034058,0.0,-0.02111779898405075
207.0,225.0,-7.5314,-0.6209,6.5312,-0.0344,0.0214,-0.1161,-2.6099616489806117,0.0,5.682036399841309,-0.8582878708839417,-0.0,1.9345192909240723,5.750527965813436,0.0,0.13704529404640198,-1.5696619192706507,0.0,-0.007744770497083664,0.6107402443885803,0.0,0.004366926848888397,1.048673391342163,0.0,-0.006807394325733185
207.0,225.0,-7.5314,-0.6209,6.5312,-0.0344,0.0214,-0.1161,-2.6100017033019007,0.0,5.677326202392578,-0.8583400249481201,-0.0,1.9582314491271973,5.750483619957723,0.0,0.1461820751428604,-1.569702450429098,0.0,4.780606832355261e-05,0.6107204556465149,0.0,0.006435312330722809,1.048673391342163,0.0,-0.025001320987939835
207.0,225.0,-7.5314,-0.6209,6.5312,-0.0344,0.0214,-0.1161,-2.6099940739073695,0.0,5.697019577026367,-0.8583319783210754,-0.0,1.9689977169036865,5.750460135727682,0.0,0.12646153569221497,-1.5696499983416956,0.0,-0.004056309815496206,0.6107004880905151,0.0,0.005028422921895981,1.0486853122711182,0.0,0.011052501387894154
207.0,225.0,-7.5314,-0.6209,6.5312,-0.0344,0.0214,-0.1161,-2.61000980953359,0.0,5.687651634216309,-0.8583642840385437,-0.0,1.9519517421722412,5.750495660095968,0.0,0.12307332456111908,-1.569674317036764,0.0,-0.00444374792277813,0.6107524633407593,0.0,0.008463670499622822,1.048697829246521,0.0,-0.018817344680428505
207.0,225.0,-7.5314,-0.6209,6.5312,-0.0344,0.0214,-0.1161,-2.6100264988341273,0.0,5.685573101043701,-0.8583357334136963,-0.0,1.9987614154815674,5.750547635346212,0.0,0.12442082166671753,-1.5696619192706507,0.0,-0.001381249981932342,0.6107242703437805,0.0,0.013075084425508976,1.048681616783142,0.0,-0.006142507307231426
207.0,225.0,-7.5314,-0.6209,6.5312,-0.0344,0.0214,-0.1161,-2.609981676141256,0.0,5.677752494812012,-0.8583078980445862,-0.0,1.9499448537826538,5.750511872559347,0.0,0.1357160061597824,-1.5697148481952112,0.0,-0.013232763856649399,0.6107123494148254,0.0,0.007433593273162842,1.0487060546875,0.0,0.009020155295729637
207.0,225.0,-7.5314,-0.6209,6.5312,-0.0344,0.0214,-0.1161,-2.6100055179991664,0.0,5.698358535766602,-0.8582676649093628,-0.0,1.9737801551818848,5.750499594002523,0.0,0.14918354153633118,-1.5696418921100062,0.0,-0.007199153769761324,0.610720157623291,0.0,0.006758005823940039,1.048633337020874,0.0,0.010873278602957726
207.0,225.0,-7.5314,-0.6209,6.5312,-0.0344,0.0214,-0.1161,-2.609981676141256,0.0,5.682433128356934,-0.8583279848098755,-0.0,1.9621213674545288,5.750511634140768,0.0,0.14471925795078278,-1.5696824232684534,0.0,-0.00547852274030447,0.6106635928153992,0.0,0.024021347984671593,1.0486533641815186,0.0,0.0035097580403089523
207.0,225.0,-7.5314,-0.6209,6.5312,-0.0344,0.0214,-0.1161,-2.609990259210104,0.0,5.674983024597168,-0.8582799434661865,-0.0,1.9552419185638428,5.750511634140768,0.0,0.1342146247625351,-1.5696662108050745,0.0,0.007520526647567749,0.6107524633407593,0.0,0.005358571652323008,1.0486652851104736,0.0,-0.020040718838572502
207.0,225.0,-7.5314,-0.6209,6.5312,-0.0344,0.0214,-0.1161,-2.6099778614439906,0.0,5.678427696228027,-0.8582959175109863,-0.0,1.9571101665496826,5.7504522679145715,0.0,0.12292154133319855,-1.5696619192706507,0.0,-0.005827191285789013,0.6107161045074463,0.0,-0.009932459332048893,1.04864501953125,0.0,0.018961189314723015
207.0,225.0,-7.5314,-0.6209,6.5312,-0.0344,0.0214,-0.1161,-2.609981676141256,0.0,5.708147048950195,-0.8583400249481201,-0.0,1.9610224962234497,5.750515806465902,0.0,0.14666807651519775,-1.5696542898761194,0.0,-0.013634912669658661,0.6106881499290466,0.0,0.00010908418335020542,1.0486050844192505,0.0,-0.010427040979266167
207.0,225.0,-7.5314,-0.6209,6.5312,-0.0344,0.0214,-0.1161,-2.6100222072997035,0.0,5.714040756225586,-0.8583278656005859,-0.0,1.9512370824813843,5.750519263535299,0.0,0.14861968159675598,-1.569686237965719,0.0,-0.010581952519714832,0.6107722520828247,0.0,0.0058699413202703,1.0486730337142944,0.0,0.04228481277823448
207.0,225.0,-7.5314,-0.6209,6.5312,-0.0344,0.0214,-0.1161,-2.609990259210104,0.0,5.695099830627441,-0.8583118319511414,-0.0,1.9623243808746338,5.750551688462057,0.0,0.12562769651412964,-1.569634262715475,0.0,-0.0111012551933527,0.6107763648033142,0.0,-0.0021007657051086426,1.0486853122711182,0.0,0.05100344121456146
208.0,221.0,-7.5416,-0.6616,6.5533,-0.0331,0.0284,-0.1164,-2.609981676141256,0.0,5.685827255249023,-0.8583198189735413,-0.0,1.9566476345062256,5.750539886742391,0.0,0.12458793818950653,-1.569634262715475,0.0,0.0009898532880470157,0.6106963157653809,0.0,0.0015559520106762648,1.0486533641815186,0.0,-0.01851877011358738
208.0,221.0,-7.5416,-0.6616,6.5533,-0.0331,0.0284,-0.1164,-2.6099497280516566,0.0,5.691994667053223,-0.858311653137207,-0.0,1.955151915550232,5.750499594002523,0.0,0.12086233496665955,-1.5696824232684534,0.0,-0.008331846445798874,0.6107000708580017,0.0,0.013694114983081818,1.0486812591552734,0.0,-0.03271615505218506
208.0,221.0,-7.5416,-0.6616,6.5533,-0.0331,0.0284,-0.1164,-2.6100346050658167,0.0,5.71170711517334,-0.8583199381828308,-0.0,1.9864685535430908,5.750507819443502,0.0,0.1356121003627777,-1.5696943441974085,0.0,-0.0020500982645899057,0.6107722520828247,0.0,0.017471598461270332,1.048625111579895,0.0,0.03211817145347595
208.0,221.0,-7.5416,-0.6616,6.5533,-0.0331,0.0284,-0.1164,-2.6099540195860804,0.0,5.706304550170898,-0.8582919239997864,-0.0,2.034825325012207,5.750487792282858,0.0,0.1288779228925705,-1.569658104573385,0.0,-0.020495522767305374,0.6106841564178467,0.0,0.016877157613635063,1.0487219095230103,0.0,0.04517698287963867
208.0,221.0,-7.5416,-0.6616,6.5533,-0.0331,0.0284,-0.1164,-2.6099940739073695,0.0,5.674320220947266,-0.8583683371543884,-0.0,1.9694924354553223,5.7505074618156335,0.0,0.13074791431427002,-1.569634262715475,0.0,-0.011022490449249744,0.6106759309768677,0.0,0.008018373511731625,1.0486853122711182,0.0,0.0005103517323732376
208.0,221.0,-7.5416,-0.6616,6.5533,-0.0331,0.0284,-0.1164,-2.6099378071227015,0.0,5.671872138977051,-0.8582636117935181,-0.0,1.975548267364502,5.7505037663276575,0.0,0.13134074211120605,-1.5696261564837855,0.0,0.00015372224152088165,0.6107442378997803,0.0,0.006786531303077936,1.0486533641815186,0.0,-0.008534658700227737
208.0,221.0,-7.5416,-0.6616,6.5533,-0.0331,0.0284,-0.1164,-2.610014101068014,0.0,5.695291519165039,-0.8583159446716309,-0.0,1.9576077461242676,5.7505037663276575,0.0,0.1475033462047577,-1.5696943441974085,0.0,-0.006982709746807814,0.6106963157653809,0.0,0.004273131024092436,1.0486936569213867,0.0,0.01596437394618988
208.0,221.0,-7.5416,-0.6616,6.5533,-0.0331,0.0284,-0.1164,-2.610002656976217,0.0,5.668817520141602,-0.8583478927612305,-0.0,1.9725401401519775,5.750468241959371,0.0,0.13533082604408264,-1.5696499983416956,0.0,-0.006185885984450579,0.6107041835784912,0.0,-0.008997742086648941,1.0486409664154053,0.0,0.03296273574233055
208.0,221.0,-7.5416,-0.6616,6.5533,-0.0331,0.0284,-0.1164,-2.6099983654417933,0.0,5.718941688537598,-0.8583400249481201,-0.0,2.0229249000549316,5.750507819443502,0.0,0.13698524236679077,-1.569634262715475,0.0,-0.011677829548716545,0.6107648015022278,0.0,0.00741129694506526,1.0486774444580078,0.0,0.01000400073826313
208.0,221.0,-7.5416,-0.6616,6.5533,-0.0331,0.0284,-0.1164,-2.609969755212301,0.0,5.68242073059082,-0.8582676649093628,-0.0,1.9894413948059082,5.750539767533102,0.0,0.13974757492542267,-1.569702450429098,0.0,0.008270900696516037,0.6106922626495361,0.0,0.008459215052425861,1.0486693382263184,0.0,0.007181942462921143
208.0,221.0,-7.5416,-0.6616,6.5533,-0.0331,0.0284,-0.1164,-2.6100064716734828,0.0,5.702178478240967,-0.8583040237426758,-0.0,1.9865260124206543,5.750547754555502,0.0,0.13164296746253967,-1.5696738401996058,0.0,-0.014174075797200203,0.6107283234596252,0.0,0.0005727895768359303,1.0487018823623657,0.0,-0.03264889866113663
208.0,221.0,-7.5416,-0.6616,6.5533,-0.0331,0.0284,-0.1164,-2.6099940739073695,0.0,5.712562084197998,-0.8583198189735413,-0.0,1.9667744636535645,5.750464188843527,0.0,0.1375417560338974,-1.569686237965719,0.0,-0.009252399206161499,0.6106479167938232,0.0,0.0038201664574444294,1.0486693382263184,0.0,0.009645285084843636
208.0,221.0,-7.5416,-0.6616,6.5533,-0.0331,0.0284,-0.1164,-2.609990259210104,0.0,5.70615291595459,-0.8583199381828308,-0.0,1.9193992614746094,5.750551807671346,0.0,0.1300269514322281,-1.5696662108050745,0.0,-0.01300910022109747,0.6107484102249146,0.0,0.006836170796304941,1.048673391342163,0.0,-0.018105970695614815
208.0,221.0,-7.5416,-0.6616,6.5533,-0.0331,0.0284,-0.1164,-2.6099983654417933,0.0,5.694424629211426,-0.8582758903503418,-0.0,2.0113372802734375,5.7505156872566126,0.0,0.12555183470249176,-1.5696542898761194,0.0,-0.0063080210238695145,0.6107165217399597,0.0,0.0171714648604393,1.048689365386963,0.0,-0.0324680432677269
208.0,221.0,-7.5416,-0.6616,6.5533,-0.0331,0.0284,-0.1164,-2.6099420986571253,0.0,5.669526100158691,-0.8583643436431885,-0.0,1.951380729675293,5.7504955408866785,0.0,0.1372937560081482,-1.5696662108050745,0.0,-0.00014137662947177887,0.6106958985328674,0.0,0.010951368138194084,1.0487338304519653,0.0,-0.02727559208869934
208.0,221.0,-7.5416,-0.6616,6.5533,-0.0331,0.0284,-0.1164,-2.6100064716734828,0.0,5.703229904174805,-0.858323872089386,-0.0,1.9651553630828857,5.7505318997199915,0.0,0.131794735789299,-1.5697348753558558,0.0,-0.01572013832628727,0.6107524633407593,0.0,0.010601934976875782,1.0487096309661865,0.0,0.05260799825191498
215.0,214.0,-7.6774,-0.6879,6.7591,-0.0357,0.0255,-0.1084,-2.610002656976217,0.0,5.7206621170043945,-0.8583602905273438,-0.0,1.992823600769043,5.750483619957723,0.0,0.14288724958896637,-1.5696900526629847,0.0,-0.0026246635243296623,0.6107565760612488,0.0,0.0123582873493433,1.0486373901367188,0.0,0.01673159748315811
215.0,214.0,-7.6774,-0.6879,6.7591,-0.0357,0.0255,-0.1084,-2.6099821529784144,0.0,5.716317653656006,-0.8582799434661865,-0.0,1.9739822149276733,5.750523793488302,0.0,0.13011756539344788,-1.5696905295001429,0.0,-0.00377883343026042,0.6107804775238037,0.0,0.008182963356375694,1.0486533641815186,0.0,0.006608863361179829
215.0,214.0,-7.6774,-0.6879,6.7591,-0.0357,0.0255,-0.1084,-2.609981676141256,0.0,5.686932563781738,-0.8583199381828308,-0.0,1.9375792741775513,5.750579821854391,0.0,0.13203579187393188,-1.5696499983416956,0.0,-0.021075453609228134,0.6106479167938232,0.0,0.004607204347848892,1.0486652851104736,0.0,0.0008300747722387314
215.0,214.0,-7.6774,-0.6879,6.7591,-0.0357,0.0255,-0.1084,-2.609981676141256,0.0,5.699099540710449,-0.8583359718322754,-0.0,2.0131959915161133,5.750527846604147,0.0,0.1372518539428711,-1.569658104573385,0.0,-0.011639637872576714,0.6107204556465149,0.0,-0.009015249088406563,1.0486770868301392,0.0,0.011534519493579865
215.0,214.0,-7.6774,-0.6879,6.7591,-0.0357,0.0255,-0.1084,-2.6100064716734828,0.0,5.647051811218262,-0.8583400249481201,-0.0,1.997063398361206,5.750507819443502,0.0,0.13504129648208618,-1.5696619192706507,0.0,-0.009573414921760559,0.610711932182312,0.0,0.009401717223227024,1.048697829246521,0.0,0.04865983873605728
215.0,214.0,-7.6774,-0.6879,6.7591,-0.0357,0.0255,-0.1084,-2.609957834283346,0.0,5.661246299743652,-0.8582636117935181,-0.0,1.9428150653839111,5.750487673073568,0.0,0.13549070060253143,-1.5696423689471644,0.0,-0.00856504775583744,0.6106919050216675,0.0,0.0066931042820215225,1.0486693382263184,0.0,0.018303735181689262
215.0,214.0,-7.6774,-0.6879,6.7591,-0.0357,0.0255,-0.1084,-2.6099497280516566,0.0,5.66982364654541,-0.8583278656005859,-0.0,1.9746479988098145,5.750547873764791,0.0,0.13423621654510498,-1.5696705023394983,0.0,-0.0015481002628803253,0.610744297504425,0.0,0.014976000413298607,1.04861319065094,0.0,0.00010853912681341171
215.0,214.0,-7.6774,-0.6879,6.7591,-0.0357,0.0255,-0.1084,-2.6099983654417933,0.0,5.72873592376709,-0.858323872089386,-0.0,1.9293603897094727,5.750499713211813,0.0,0.12116885185241699,-1.5696981588946741,0.0,-0.00920088030397892,0.6107763051986694,0.0,0.002084792824462056,1.048673391342163,0.0,-0.017511192709207535
215.0,214.0,-7.6774,-0.6879,6.7591,-0.0357,0.0255,-0.1084,-2.609969755212301,0.0,5.702951431274414,-0.8583478927612305,-0.0,1.9566514492034912,5.750531661301412,0.0,0.13236287236213684,-1.569629971181051,0.0,-0.01409226469695568,0.610720157623291,0.0,0.007066882681101561,1.0486774444580078,0.0,0.01916464790701866
215.0,214.0,-7.6774,-0.6879,6.7591,-0.0357,0.0255,-0.1084,-2.6099378071227015,0.0,5.667187690734863,-0.8582878708839417,-0.0,1.967455267906189,5.750539886742391,0.0,0.13617798686027527,-1.5696499983416956,0.0,-0.018389776349067688,0.6106963157653809,0.0,0.006972688250243664,1.0486652851104736,0.0,-0.020325811579823494
215.0,214.0,-7.6774,-0.6879,6.7591,-0.0357,0.0255,-0.1084,-2.6100179157652796,0.0,5.725502967834473,-0.8582756519317627,-0.0,1.9832038879394531,5.750487792282858,0.0,0.1303446888923645,-1.5696662108050745,0.0,-0.021275540813803673,0.6107524633407593,0.0,0.0013650974724441767,1.0486814975738525,0.0,-0.0016882847994565964
215.0,214.0,-7.6774,-0.6879,6.7591,-0.0357,0.0255,-0.1084,-2.610002656976217,0.0,5.690848350524902,-0.8583159446716309,-0.0,1.9691581726074219,5.750539767533102,0.0,0.14131656289100647,-1.5696738401996058,0.0,-0.006017167121171951,0.6107082366943359,0.0,0.00321075227111578,1.0487018823623657,0.0,0.025236640125513077
215.0,214.0,-7.6774,-0.6879,6.7591,-0.0357,0.0255,-0.1084,-2.609969755212301,0.0,5.693133354187012,-0.8582959175109863,-0.0,1.9850764274597168,5.750543939858236,0.0,0.132546067237854,-1.5696261564837855,0.0,0.00032446254044771194,0.610720157623291,0.0,0.010357244871556759,1.0486652851104736,0.0,-0.018738916143774986
215.0,214.0,-7.6774,-0.6879,6.7591,-0.0357,0.0255,-0.1084,-2.6099940739073695,0.0,5.702950954437256,-0.8583158850669861,-0.0,1.9216066598892212,5.750511872559347,0.0,0.13337257504463196,-1.5696781317340296,0.0,0.004743632860481739,0.6107324361801147,0.0,-0.00023239850997924805,1.048633337020874,0.0,0.000626271590590477
215.0,214.0,-7.6774,-0.6879,6.7591,-0.0357,0.0255,-0.1084,-2.6100064716734828,0.0,5.689518451690674,-0.8583319783210754,-0.0,1.989686131477356,5.7505156872566126,0.0,0.13025322556495667,-1.5696094671832483,0.0,-0.01934400014579296,0.6107443571090698,0.0,0.0008083631983026862,1.0486533641815186,0.0,-0.034896235913038254
215.0,214.0,-7.6774,-0.6879,6.7591,-0.0357,0.0255,-0.1084,-2.6100107632079066,0.0,5.665460109710693,-0.8583197593688965,-0.0,1.9639770984649658,5.750571834831991,0.0,0.12344604730606079,-1.5696418921100062,0.0,-0.001957857748493552,0.6107122898101807,0.0,0.008364192210137844,1.0486574172973633,0.0,-0.04436362534761429
215.0,214.0,-7.6774,-0.6879,6.7591,-0.0357,0.0255,-0.1084,-2.6099420986571253,0.0,5.697122573852539,-0.8583359718322754,-0.0,1.9134747982025146,5.7505156872566126,0.0,0.1181093379855156,-1.5696499983416956,0.0,-0.00800588820129633,0.6107082366943359,0.0,0.006800400093197823,1.0486291646957397,0.0,0.008179073221981525
204.0,218.0,-7.5476,-0.6485,6.5749,-0.0365,0.0249,-0.118,-2.6099983654417933,0.0,5.676074504852295,-0.8583918213844299,-0.0,1.9635698795318604,5.750523793488302,0.0,0.12997755408287048,-1.56964618364443,0.0,0.0012264903634786606,0.6107123494148254,0.0,0.006884475238621235,1.0486611127853394,0.0,0.013980445452034473
204.0,218.0,-7.5476,-0.6485,6.5749,-0.0365,0.0249,-0.118,-2.610030313531393,0.0,5.7084503173828125,-0.858343780040741,-0.0,1.966269612312317,5.750531661301412,0.0,0.1384240835905075,-1.5696423689471644,0.0,-0.0007086520781740546,0.6107402443885803,0.0,0.005012947600334883,1.048673391342163,0.0,-0.01893497258424759
204.0,218.0,-7.5476,-0.6485,6.5749,-0.0365,0.0249,-0.118,-2.609957834283346,0.0,5.697933673858643,-0.8583359718322754,-0.0,1.9784588813781738,5.750551807671346,0.0,0.11862005293369293,-1.5696705023394983,0.0,-0.005867736879736185,0.6106881499290466,0.0,-0.0025293759535998106,1.048673391342163,0.0,0.0015450622886419296
204.0,218.0,-7.5476,-0.6485,6.5749,-0.0365,0.0249,-0.118,-2.609978338281149,0.0,5.712320804595947,-0.8583278656005859,-0.0,2.032257080078125,5.750563847809591,0.0,0.13846337795257568,-1.5696738401996058,0.0,-0.011098230257630348,0.6107004880905151,0.0,0.01686190441250801,1.0486936569213867,0.0,-0.022123172879219055
204.0,218.0,-7.5476,-0.6485,6.5749,-0.0365,0.0249,-0.118,-2.6100107632079066,0.0,5.712702751159668,-0.8583160042762756,-0.0,1.9496095180511475,5.750543582230367,0.0,0.12034526467323303,-1.5696619192706507,0.0,0.0016129077412188053,0.610711932182312,0.0,0.004558537155389786,1.04860520362854,0.0,0.005967848002910614
204.0,218.0,-7.5476,-0.6485,6.5749,-0.0365,0.0249,-0.118,-2.609969755212301,0.0,5.68067741394043,-0.8583159446716309,-0.0,1.9851356744766235,5.750507819443502,0.0,0.13939620554447174,-1.5696542898761194,0.0,-0.012726536020636559,0.610720157623291,0.0,0.001977472100406885,1.0486770868301392,0.0,0.022400259971618652
204.0,218.0,-7.5476,-0.6485,6.5749,-0.0365,0.0249,-0.118,-2.6099659405150355,0.0,5.6822943687438965,-0.8582959175109863,-0.0,1.919110655784607,5.750499594002523,0.0,0.13560137152671814,-1.5696857611285608,0.0,-0.0008478541858494282,0.6107000708580017,0.0,0.002341330051422119,1.0486493110656738,0.0,-0.020462900400161743
204.0,218.0,-7.5476,-0.6485,6.5749,-0.0365,0.0249,-0.118,-2.6100064716734828,0.0,5.70137882232666,-0.858343780040741,-0.0,1.9531285762786865,5.750507819443502,0.0,0.13000060617923737,-1.5696981588946741,0.0,-0.0007359581650234759,0.6107402443885803,0.0,-0.00513656297698617,1.0486454963684082,0.0,-0.06693786382675171
204.0,218.0,-7.5476,-0.6485,6.5749,-0.0365,0.0249,-0.118,-2.6099735699095667,0.0,5.631701469421387,-0.8583239316940308,-0.0,1.9201531410217285,5.750547635346212,0.0,0.1297721415758133,-1.5696905295001429,0.0,-0.011232025921344757,0.6107164621353149,0.0,0.007788877468556166,1.0486853122711182,0.0,-0.03313551843166351
204.0,218.0,-7.5476,-0.6485,6.5749,-0.0365,0.0249,-0.118,-2.610002656976217,0.0,5.763339519500732,-0.8582918643951416,-0.0,1.961514949798584,5.750543939858236,0.0,0.13167427480220795,-1.5696376005755823,0.0,-0.010007425211369991,0.6107361316680908,0.0,0.004418561700731516,1.0486853122711182,0.0,-0.006789421662688255
204.0,218.0,-7.5476,-0.6485,6.5749,-0.0365,0.0249,-0.118,-2.6100064716734828,0.0,5.70933198928833,-0.858323872089386,-0.0,1.9914281368255615,5.750511872559347,0.0,0.12961916625499725,-1.5696900526629847,0.0,0.010401356033980846,0.6107161045074463,0.0,0.0043734414502978325,1.0486611127853394,0.0,-0.02739735133945942
204.0,218.0,-7.5476,-0.6485,6.5749,-0.0365,0.0249,-0.118,-2.6099497280516566,0.0,5.713146209716797,-0.8583198189735413,-0.0,1.9659193754196167,5.750551688462057,0.0,0.12932758033275604,-1.5696981588946741,0.0,-0.003041797084733844,0.6106963157653809,0.0,0.01017050165683031,1.0487018823623657,0.0,0.021495016291737556
204.0,218.0,-7.5476,-0.6485,6.5749,-0.0365,0.0249,-0.118,-2.6100264988341273,0.0,5.685905456542969,-0.8583319783210754,-0.0,1.9595463275909424,5.750519740372457,0.0,0.12884780764579773,-1.5696705023394983,0.0,0.0005966434255242348,0.6106963157653809,0.0,0.007010993547737598,1.048625111579895,0.0,0.025234578177332878
204.0,218.0,-7.5476,-0.6485,6.5749,-0.0365,0.0249,-0.118,-2.60998596767568,0.0,5.710163116455078,-0.8583400249481201,-0.0,2.006272554397583,5.7505156872566126,0.0,0.13790380954742432,-1.5696619192706507,0.0,-0.0035323442425578833,0.6106643080711365,0.0,0.01668155938386917,1.0486611127853394,0.0,0.0008891301695257425
204.0,218.0,-7.5476,-0.6485,6.5749,-0.0365,0.0249,-0.118,-2.609929700891012,0.0,5.632164001464844,-0.858299970626831,-0.0,1.9429646730422974,5.750551807671346,0.0,0.12414880841970444,-1.5696499983416956,0.0,-0.01760224997997284,0.610720157623291,0.0,0.0032637775875627995,1.048653483390808,0.0,-0.02866969257593155
204.0,218.0,-7.5476,-0.6485,6.5749,-0.0365,0.0249,-0.118,-2.6099940739073695,0.0,5.681064605712891,-0.8583199381828308,-0.0,1.984555721282959,5.750539767533102,0.0,0.12264785170555115,-1.5696738401996058,0.0,-0.01144134160131216,0.6106718182563782,0.0,0.017604118213057518,1.0486853122711182,0.0,0.016570977866649628
204.0,218.0,-7.5476,-0.6485,6.5749,-0.0365,0.0249,-0.118,-2.609990259210104,0.0,5.697410583496094,-0.858343780040741,-0.0,1.9716570377349854,5.750519740372457,0.0,0.13598491251468658,-1.569686237965719,0.0,-0.014564761891961098,0.6107164621353149,0.0,0.006595002021640539,1.0486770868301392,0.0,0.012562526389956474
204.0,220.0,-7.5703,-0.6365,6.5252,-0.0402,0.0301,-0.1171,-2.609981676141256,0.0,5.6915283203125,-0.858295738697052,-0.0,1.9109485149383545,5.750483619957723,0.0,0.13064464926719666,-1.569629971181051,0.0,-0.002128883497789502,0.6106881499290466,0.0,-0.010615689679980278,1.048661470413208,0.0,0.03119557909667492
204.0,220.0,-7.5703,-0.6365,6.5252,-0.0402,0.0301,-0.1171,-2.6099983654417933,0.0,5.700532913208008,-0.8583280444145203,-0.0,1.9927128553390503,5.750519740372457,0.0,0.1401110291481018,-1.5696938673602503,0.0,-0.012989225797355175,0.6107442378997803,0.0,-0.0031743203289806843,1.0486693382263184,0.0,0.006456092931330204
204.0,220.0,-7.5703,-0.6365,6.5252,-0.0402,0.0301,-0.1171,-2.610002656976217,0.0,5.6814680099487305,-0.8583399653434753,-0.0,1.998637318611145,5.750468241959371,0.0,0.1443297564983368,-1.5696662108050745,0.0,-0.012499334290623665,0.6107242107391357,0.0,0.0029975133948028088,1.0486171245574951,0.0,0.011344002559781075
204.0,220.0,-7.5703,-0.6365,6.5252,-0.0402,0.0301,-0.1171,-2.6099497280516566,0.0,5.659481048583984,-0.858343780040741,-0.0,1.9399828910827637,5.750487673073568,0.0,0.12799382209777832,-1.5696981588946741,0.0,0.0015943257603794336,0.6107524633407593,0.0,0.0007670189952477813,1.048697829246521,0.0,0.012588614597916603
204.0,220.0,-7.5703,-0.6365,6.5252,-0.0402,0.0301,-0.1171,-2.6099821529784144,0.0,5.693032264709473,-0.8583400249481201,-0.0,1.9710416793823242,5.750464188843527,0.0,0.14491432905197144,-1.569686237965719,0.0,0.0011885485146194696,0.6107004880905151,0.0,0.010567409917712212,1.0486853122711182,0.0,-0.03002564236521721
204.0,220.0,-7.5703,-0.6365,6.5252,-0.0402,0.0301,-0.1171,-2.6100107632079066,0.0,5.717015743255615,-0.858339786529541,-0.0,1.979506015777588,5.750543939858236,0.0,0.13748222589492798,-1.5696376005755823,0.0,-0.003627210855484009,0.6107123494148254,0.0,0.011626199819147587,1.0486574172973633,0.0,-0.0026275618001818657
204.0,220.0,-7.5703,-0.6365,6.5252,-0.0402,0.0301,-0.1171,-2.6100222072997035,0.0,5.678200721740723,-0.8583962321281433,-0.0,1.9860353469848633,5.750563609391012,0.0,0.12461893260478973,-1.5697267691241663,0.0,-0.011654991656541824,0.6107484102249146,0.0,0.0030246744863688946,1.048689365386963,0.0,-0.025472814217209816
204.0,220.0,-7.5703,-0.6365,6.5252,-0.0402,0.0301,-0.1171,-2.609990259210104,0.0,5.719216346740723,-0.858288049697876,-0.0,1.9948601722717285,5.750519740372457,0.0,0.14211805164813995,-1.5696943441974085,0.0,-0.0019817505963146687,0.6107324957847595,0.0,0.008753759786486626,1.048697590827942,0.0,-0.013569651171565056
204.0,220.0,-7.5703,-0.6365,6.5252,-0.0402,0.0301,-0.1171,-2.6100179157652796,0.0,5.697425842285156,-0.858360230922699,-0.0,1.976989984512329,5.750535714417257,0.0,0.1306980848312378,-1.5696619192706507,0.0,-0.002270342316478491,0.6108044385910034,0.0,0.013163364492356777,1.0486693382263184,0.0,0.02786390483379364
204.0,220.0,-7.5703,-0.6365,6.5252,-0.0402,0.0301,-0.1171,-2.6099659405150355,0.0,5.663175582885742,-0.8582918643951416,-0.0,1.9808166027069092,5.750519740372457,0.0,0.13624307513237,-1.5696824232684534,0.0,-0.01826573722064495,0.6107122898101807,0.0,-0.00789707526564598,1.0487059354782104,0.0,0.028709758073091507
204.0,220.0,-7.5703,-0.6365,6.5252,-0.0402,0.0301,-0.1171,-2.6100222072997035,0.0,5.69821834564209,-0.8583118915557861,-0.0,1.9817800521850586,5.750519740372457,0.0,0.12493543326854706,-1.5696337858783167,0.0,-0.01610926166176796,0.6107082366943359,0.0,0.014280994422733784,1.0486892461776733,0.0,-0.013484668917953968
204.0,220.0,-7.5703,-0.6365,6.5252,-0.0402,0.0301,-0.1171,-2.6099940739073695,0.0,5.6624555587768555,-0.8583440184593201,-0.0,1.9725217819213867,5.750559556275167,0.0,0.1392086297273636,-1.5696857611285608,0.0,-0.015612557530403137,0.6107606291770935,0.0,0.0019678613170981407,1.0487099885940552,0.0,0.020747002214193344
204.0,220.0,-7.5703,-0.6365,6.5252,-0.0402,0.0301,-0.1171,-2.60998596767568,0.0,5.703060626983643,-0.8583118319511414,-0.0,2.007967472076416,5.7505156872566126,0.0,0.13096892833709717,-1.569658104573385,0.0,0.0036343815736472607,0.6107401847839355,0.0,-0.0022185940761119127,1.0486373901367188,0.0,-0.05947938561439514
204.0,220.0,-7.5703,-0.6365,6.5252,-0.0402,0.0301,-0.1171,-2.609974046746725,0.0,5.735508918762207,-0.8583078384399414,-0.0,1.9575060606002808,5.750551807671346,0.0,0.13181528449058533,-1.5696662108050745,0.0,-0.012098900973796844,0.6107242107391357,0.0,-0.004363629501312971,1.0486373901367188,0.0,0.021319299936294556
204.0,220.0,-7.5703,-0.6365,6.5252,-0.0402,0.0301,-0.1171,-2.610002656976217,0.0,5.661716938018799,-0.858323872089386,-0.0,1.9719841480255127,5.750523793488302,0.0,0.12709581851959229,-1.5696418921100062,0.0,0.0037792716175317764,0.6106881499290466,0.0,0.006634967401623726,1.0487059354782104,0.0,0.0060147251933813095
204.0,220.0,-7.5703,-0.6365,6.5252,-0.0402,0.0301,-0.1171,-2.6100107632079066,0.0,5.720852375030518,-0.858360230922699,-0.0,1.9664607048034668,5.750539529114523,0.0,0.13492943346500397,-1.5696705023394983,0.0,-0.01982976123690605,0.6106635332107544,0.0,0.00748341903090477,1.0486410856246948,0.0,0.01866845414042473
204.0,220.0,-7.5703,-0.6365,6.5252,-0.0402,0.0301,-0.1171,-2.6099940739073695,0.0,5.691775321960449,-0.8583319783210754,-0.0,1.986343264579773,5.750567781716146,0.0,0.14068853855133057,-1.5696261564837855,0.0,-0.012915065512061119,0.6107123494148254,0.0,0.00044830652768723667,1.048689365386963,0.0,0.010142749175429344
215.0,217.0,-7.5619,-0.6861,6.6796,-0.0321,0.0209,-0.1075,-2.60998596767568,0.0,5.652283668518066,-0.8583000302314758,-0.0,2.0029287338256836,5.750519740372457,0.0,0.13506253063678741,-1.5696619192706507,0.0,-0.01230965368449688,0.6106520891189575,0.0,0.008616378530859947,1.048673391342163,0.0,0.06150146573781967
215.0,217.0,-7.5619,-0.6861,6.6796,-0.0321,0.0209,-0.1075,-2.6100222072997035,0.0,5.679089546203613,-0.8582475781440735,-0.0,1.9833269119262695,5.750519740372457,0.0,0.13100320100784302,-1.5696981588946741,0.0,0.0031136367470026016,0.6106997132301331,0.0,0.015397230163216591,1.0486853122711182,0.0,0.021759912371635437
215.0,217.0,-7.5619,-0.6861,6.6796,-0.0321,0.0209,-0.1075,-2.609969755212301,0.0,5.683920860290527,-0.8582920432090759,-0.0,2.0127923488616943,5.750515806465902,0.0,0.12912032008171082,-1.5696781317340296,0.0,0.004211535677313805,0.6107164621353149,0.0,0.006858850829303265,1.048633337020874,0.0,-0.009002638049423695
215.0,217.0,-7.5619,-0.6861,6.6796,-0.0321,0.0209,-0.1075,-2.6099983654417933,0.0,5.6725616455078125,-0.8582758903503418,-0.0,2.0049777030944824,5.750527608185568,0.0,0.12805496156215668,-1.569702450429098,0.0,-0.0018429569900035858,0.6107122898101807,0.0,0.0036741793155670166,1.0487018823623657,0.0,0.012638499960303307
215.0,217.0,-7.5619,-0.6861,6.6796,-0.0321,0.0209,-0.1075,-2.6099659405150355,0.0,5.682948589324951,-0.8583319187164307,-0.0,1.9895179271697998,5.750523555069723,0.0,0.1320788711309433,-1.5696824232684534,0.0,0.00014114845544099808,0.6107606291770935,0.0,-0.006665890570729971,1.048673391342163,0.0,0.009005801752209663
215.0,217.0,-7.5619,-0.6861,6.6796,-0.0321,0.0209,-0.1075,-2.6100064716734828,0.0,5.722869396209717,-0.858343780040741,-0.0,1.9704110622406006,5.750531661301412,0.0,0.1349048912525177,-1.56964618364443,0.0,-0.01106693409383297,0.6107164621353149,0.0,0.009051184169948101,1.0486611127853394,0.0,-0.030082032084465027
215.0,217.0,-7.5619,-0.6861,6.6796,-0.0321,0.0209,-0.1075,-2.6100017033019007,0.0,5.684988021850586,-0.8583280444145203,-0.0,1.9424288272857666,5.750527846604147,0.0,0.12990257143974304,-1.5696499983416956,0.0,-5.131191574037075e-05,0.6107524633407593,0.0,0.017413465306162834,1.0486454963684082,0.0,0.014936214312911034
215.0,217.0,-7.5619,-0.6861,6.6796,-0.0321,0.0209,-0.1075,-2.6100064716734828,0.0,5.699746131896973,-0.8583559393882751,-0.0,1.9663044214248657,5.750511872559347,0.0,0.1385822594165802,-1.5696700255023401,0.0,-0.019528858363628387,0.6107402443885803,0.0,0.0013037968892604113,1.0487018823623657,0.0,0.047382138669490814
215.0,217.0,-7.5619,-0.6861,6.6796,-0.0321,0.0209,-0.1075,-2.610042711297506,0.0,5.649491310119629,-0.8583716750144958,-0.0,2.003387212753296,5.750487673073568,0.0,0.1365828961133957,-1.5696781317340296,0.0,-0.004375981166958809,0.6107079386711121,0.0,0.013893606141209602,1.0486892461776733,0.0,0.0025244662538170815
215.0,217.0,-7.5619,-0.6861,6.6796,-0.0321,0.0209,-0.1075,-2.609957834283346,0.0,5.67240047454834,-0.8582921028137207,-0.0,1.9789825677871704,5.750519978791036,0.0,0.13899534940719604,-1.5696900526629847,0.0,-0.011220685206353664,0.6107599139213562,0.0,0.005028696730732918,1.0486496686935425,0.0,-0.03749290108680725
215.0,217.0,-7.5619,-0.6861,6.6796,-0.0321,0.0209,-0.1075,-2.6099940739073695,0.0,5.682464599609375,-0.858343780040741,-0.0,1.9881961345672607,5.750523793488302,0.0,0.12935397028923035,-1.569719139729635,0.0,-0.0021136999130249023,0.6107004880905151,0.0,0.002386513166129589,1.0486652851104736,0.0,-0.02060176059603691
215.0,217.0,-7.5619,-0.6861,6.6796,-0.0321,0.0209,-0.1075,-2.6099497280516566,0.0,5.716967582702637,-0.8583643436431885,-0.0,2.002944231033325,5.750523793488302,0.0,0.12834349274635315,-1.5696619192706507,0.0,-0.0017806654796004295,0.6107484102249146,0.0,0.009116913191974163,1.0486774444580078,0.0,-0.04700826108455658
215.0,217.0,-7.5619,-0.6861,6.6796,-0.0321,0.0209,-0.1075,-2.609974046746725,0.0,5.694662570953369,-0.8583478927612305,-0.0,1.9678809642791748,5.750539767533102,0.0,0.13891637325286865,-1.5696705023394983,0.0,-0.018559150397777557,0.6107283234596252,0.0,0.007761332206428051,1.0486936569213867,0.0,0.01091340184211731
215.0,217.0,-7.5619,-0.6861,6.6796,-0.0321,0.0209,-0.1075,-2.6099659405150355,0.0,5.6163482666015625,-0.8583519458770752,-0.0,1.9565801620483398,5.75050317028121,0.0,0.13947051763534546,-1.5696824232684534,0.0,-0.004175158217549324,0.6107524633407593,0.0,0.016880445182323456,1.0486652851104736,0.0,0.0313420332968235
215.0,217.0,-7.5619,-0.6861,6.6796,-0.0321,0.0209,-0.1075,-2.6099659405150355,0.0,5.714491844177246,-0.8583118319511414,-0.0,1.9964642524719238,5.750567662506857,0.0,0.13280878961086273,-1.5696781317340296,0.0,-0.0026244064792990685,0.6107041835784912,0.0,0.004560798406600952,1.0486814975738525,0.0,-0.012090392410755157
215.0,217.0,-7.5619,-0.6861,6.6796,-0.0321,0.0209,-0.1075,-2.6100222072997035,0.0,5.715503692626953,-0.8582634925842285,-0.0,1.9472848176956177,5.750491845398702,0.0,0.12783381342887878,-1.5696585814105433,0.0,0.0007919133640825748,0.6106881499290466,0.0,0.0024537406861782074,1.048645257949829,0.0,-0.031076665967702866
210.0,221.0,-7.5093,-0.6419,6.53,-0.0328,0.0171,-0.1168,-2.6099940739073695,0.0,5.693868160247803,-0.8583319783210754,-0.0,1.9751570224761963,5.750539767533102,0.0,0.14255844056606293,-1.5696619192706507,0.0,-0.012911653146147728,0.6107361316680908,0.0,-0.0012427179608494043,1.0486693382263184,0.0,-0.009381010197103024
210.0,221.0,-7.5093,-0.6419,6.53,-0.0328,0.0171,-0.1168,-2.6099659405150355,0.0,5.696155071258545,-0.8583518862724304,-0.0,2.0071284770965576,5.750483619957723,0.0,0.131027951836586,-1.569629971181051,0.0,-0.008362007327377796,0.6107161045074463,0.0,0.009855690412223339,1.0486611127853394,0.0,-0.00931084156036377
210.0,221.0,-7.5093,-0.6419,6.53,-0.0328,0.0171,-0.1168,-2.609990259210104,0.0,5.681985855102539,-0.8582878708839417,-0.0,1.9668139219284058,5.7505037663276575,0.0,0.13220936059951782,-1.5697105566607874,0.0,-0.006239092443138361,0.6106881499290466,0.0,0.011300885118544102,1.0486652851104736,0.0,-0.024748824536800385
210.0,221.0,-7.5093,-0.6419,6.53,-0.0328,0.0171,-0.1168,-2.6099940739073695,0.0,5.670878887176514,-0.8583478927612305,-0.0,2.0186033248901367,5.750543939858236,0.0,0.13789016008377075,-1.569686237965719,0.0,-0.0050698998384177685,0.6106635928153992,0.0,0.01363138947635889,1.0486533641815186,0.0,0.034418828785419464
210.0,221.0,-7.5093,-0.6419,6.53,-0.0328,0.0171,-0.1168,-2.609974046746725,0.0,5.677433490753174,-0.8582716584205627,-0.0,1.9614046812057495,5.7505156872566126,0.0,0.14461524784564972,-1.569629971181051,0.0,-0.006702338345348835,0.6106840968132019,0.0,0.014893898740410805,1.048689365386963,0.0,-0.029144566506147385
210.0,221.0,-7.5093,-0.6419,6.53,-0.0328,0.0171,-0.1168,-2.610002656976217,0.0,5.6936445236206055,-0.8583080768585205,-0.0,1.9276349544525146,5.750511872559347,0.0,0.14143319427967072,-1.5696738401996058,0.0,-0.002256960840895772,0.6107000708580017,0.0,0.004973352886736393,1.0486533641815186,0.0,-0.01820128597319126
210.0,221.0,-7.5093,-0.6419,6.53,-0.0328,0.0171,-0.1168,-2.609974046746725,0.0,5.718410968780518,-0.8582799434661865,-0.0,1.9956344366073608,5.750531661301412,0.0,0.13707669079303741,-1.5696542898761194,0.0,-0.013493063859641552,0.6107161045074463,0.0,0.012661594897508621,1.0486375093460083,0.0,0.015749134123325348
210.0,221.0,-7.5093,-0.6419,6.53,-0.0328,0.0171,-0.1168,-2.6099940739073695,0.0,5.690708160400391,-0.8583040237426758,-0.0,1.9468119144439697,5.750499713211813,0.0,0.12750309705734253,-1.569702450429098,0.0,-0.004416218958795071,0.6106642484664917,0.0,0.012506227940320969,1.0486770868301392,0.0,-0.0010914290323853493
210.0,221.0,-7.5093,-0.6419,6.53,-0.0328,0.0171,-0.1168,-2.60998596767568,0.0,5.67755126953125,-0.858323872089386,-0.0,1.9710612297058105,5.750507819443502,0.0,0.12801547348499298,-1.5696700255023401,0.0,-0.015906119719147682,0.6106602549552917,0.0,0.010082374326884747,1.0486496686935425,0.0,-0.025046605616807938
210.0,221.0,-7.5093,-0.6419,6.53,-0.0328,0.0171,-0.1168,-2.60998596767568,0.0,5.654360771179199,-0.8583278656005859,-0.0,1.9688600301742554,5.750475513726034,0.0,0.1299876868724823,-1.569686237965719,0.0,-0.006897918879985809,0.6106881499290466,0.0,0.009785235859453678,1.048693299293518,0.0,-0.0007167661096900702
210.0,221.0,-7.5093,-0.6419,6.53,-0.0328,0.0171,-0.1168,-2.609978338281149,0.0,5.679877281188965,-0.8583319783210754,-0.0,1.9646059274673462,5.750499713211813,0.0,0.1369631290435791,-1.569686237965719,0.0,-0.0062269531190395355,0.6106881499290466,0.0,0.012526160106062889,1.0487059354782104,0.0,0.013826263137161732
210.0,221.0,-7.5093,-0.6419,6.53,-0.0328,0.0171,-0.1168,-2.610002656976217,0.0,5.659660816192627,-0.8583199381828308,-0.0,1.9817209243774414,5.750519740372457,0.0,0.13196733593940735,-1.5696499983416956,0.0,0.0015595487784594297,0.6106520891189575,0.0,0.012628182768821716,1.0487138032913208,0.0,0.0069173118099570274
210.0,221.0,-7.5093,-0.6419,6.53,-0.0328,0.0171,-0.1168,-2.6099378071227015,0.0,5.6756415367126465,-0.8583521842956543,-0.0,1.9808412790298462,5.750555860787191,0.0,0.12777309119701385,-1.5696981588946741,0.0,-0.012382514774799347,0.6106759309768677,0.0,-0.013072202913463116,1.0486574172973633,0.0,0.022167153656482697
210.0,221.0,-7.5093,-0.6419,6.53,-0.0328,0.0171,-0.1168,-2.609990259210104,0.0,5.6960272789001465,-0.8583080768585205,-0.0,1.9483790397644043,5.7505037663276575,0.0,0.13522598147392273,-1.5696938673602503,0.0,0.0021106370259076357,0.6107082366943359,0.0,0.008479866199195385,1.0486693382263184,0.0,-0.0041182818822562695
210.0,221.0,-7.5093,-0.6419,6.53,-0.0328,0.0171,-0.1168,-2.6099940739073695,0.0,5.6691131591796875,-0.8582878112792969,-0.0,1.9860730171203613,5.750563847809591,0.0,0.13772431015968323,-1.569629971181051,0.0,-0.009579802863299847,0.6106677651405334,0.0,0.002541594672948122,1.0486934185028076,0.0,-0.006047728005796671
210.0,221.0,-7.5093,-0.6419,6.53,-0.0328,0.0171,-0.1168,-2.6100064716734828,0.0,5.666314125061035,-0.8583199381828308,-0.0,1.9698994159698486,5.750539767533102,0.0,0.12293858826160431,-1.5696981588946741,0.0,-0.00034150853753089905,0.6107122898101807,0.0,0.005673437379300594,1.0486652851104736,0.0,-0.039748914539813995
210.0,221.0,-7.5093,-0.6419,6.53,-0.0328,0.0171,-0.1168,-2.6100107632079066,0.0,5.694003105163574,-0.858360230922699,-0.0,1.9725110530853271,5.750535833626547,0.0,0.1342008411884308,-1.5696781317340296,0.0,-0.005834625102579594,0.6107320785522461,0.0,-2.028420567512512e-06,1.048673391342163,0.0,0.010115676559507847
204.0,219.0,-7.6199,-1.1456,6.6724,-0.0512,0.024,-0.1013,-2.6100064716734828,0.0,5.742639541625977,-0.8582921028137207,-0.0,1.9571185111999512,5.750559913903036,0.0,0.12072862684726715,-1.5696824232684534,0.0,-0.007854850962758064,0.6107364296913147,0.0,0.007394543848931789,1.048689365386963,0.0,-0.019317124038934708
204.0,219.0,-7.6199,-1.1456,6.6724,-0.0512,0.024,-0.1013,-2.609957834283346,0.0,5.6756672859191895,-0.8583359718322754,-0.0,1.9636704921722412,5.750519740372457,0.0,0.12611505389213562,-1.5696705023394983,0.0,-0.01323953177779913,0.6107282638549805,0.0,0.00800013355910778,1.0486533641815186,0.0,-0.017990803346037865
204.0,219.0,-7.6199,-1.1456,6.6724,-0.0512,0.024,-0.1013,-2.60998596767568,0.0,5.680670738220215,-0.8583199381828308,-0.0,2.008013963699341,5.7505156872566126,0.0,0.13141781091690063,-1.5696662108050745,0.0,-0.02106480672955513,0.610720157623291,0.0,-0.003363360185176134,1.048697829246521,0.0,0.014952671714127064
204.0,219.0,-7.6199,-1.1456,6.6724,-0.0512,0.024,-0.1013,-2.6100346050658167,0.0,5.6656494140625,-0.8583118319511414,-0.0,1.9670898914337158,5.750531661301412,0.0,0.1346759796142578,-1.5696781317340296,0.0,-0.011549939401447773,0.610768735408783,0.0,0.005917999893426895,1.0487059354782104,0.0,0.00353659363463521
204.0,219.0,-7.6199,-1.1456,6.6724,-0.0512,0.024,-0.1013,-2.60998596767568,0.0,5.647724151611328,-0.8582475185394287,-0.0,1.9743173122406006,5.750491845398702,0.0,0.12438800930976868,-1.5696662108050745,0.0,-0.007037145085632801,0.6106759309768677,0.0,-0.009408589452505112,1.0487219095230103,0.0,0.012756859883666039
204.0,219.0,-7.6199,-1.1456,6.6724,-0.0512,0.024,-0.1013,-2.609969755212301,0.0,5.698290824890137,-0.8583643436431885,-0.0,1.9444527626037598,5.750511514931478,0.0,0.13572335243225098,-1.5696542898761194,0.0,-0.00599321722984314,0.610756516456604,0.0,-0.007125490810722113,1.0486652851104736,0.0,-0.03750404715538025
204.0,219.0,-7.6199,-1.1456,6.6724,-0.0512,0.024,-0.1013,-2.6100150547423304,0.0,5.677666664123535,-0.858339786529541,-0.0,1.9731711149215698,5.750567781716146,0.0,0.13277366757392883,-1.569719139729635,0.0,-0.010741018690168858,0.6107082366943359,0.0,0.00576306227594614,1.0486652851104736,0.0,0.027248356491327286
204.0,219.0,-7.6199,-1.1456,6.6724,-0.0512,0.024,-0.1013,-2.6099659405150355,0.0,5.704159736633301,-0.8583602905273438,-0.0,2.0025582313537598,5.7505119917686365,0.0,0.13035881519317627,-1.5696738401996058,0.0,-0.019905799999833107,0.6107282638549805,0.0,0.002721182070672512,1.0486812591552734,0.0,0.015413136221468449
204.0,219.0,-7.6199,-1.1456,6.6724,-0.0512,0.024,-0.1013,-2.6100064716734828,0.0,5.708844184875488,-0.8583278656005859,-0.0,1.9946627616882324,5.750527965813436,0.0,0.1296711266040802,-1.569686237965719,0.0,-0.010789191350340843,0.6106840968132019,0.0,0.003040468553081155,1.0486611127853394,0.0,-0.02548213116824627
204.0,219.0,-7.6199,-1.1456,6.6724,-0.0512,0.024,-0.1013,-2.6100346050658167,0.0,5.687231063842773,-0.8583199381828308,-0.0,1.9857134819030762,5.750535714417257,0.0,0.14172802865505219,-1.569686237965719,0.0,-0.023693978786468506,0.6107161045074463,0.0,0.01731019653379917,1.0486974716186523,0.0,-0.023877417668700218
204.0,219.0,-7.6199,-1.1456,6.6724,-0.0512,0.024,-0.1013,-2.6100264988341273,0.0,5.643946647644043,-0.8582958579063416,-0.0,1.9735627174377441,5.750519740372457,0.0,0.14144384860992432,-1.5697186628924769,0.0,-0.01401842013001442,0.6107242107391357,0.0,0.01517670787870884,1.048697829246521,0.0,-0.040651023387908936
204.0,219.0,-7.6199,-1.1456,6.6724,-0.0512,0.024,-0.1013,-2.609974046746725,0.0,5.65604829788208,-0.8583000302314758,-0.0,1.98040771484375,5.750539767533102,0.0,0.13253051042556763,-1.5696542898761194,0.0,-0.015437688678503036,0.6107401847839355,0.0,0.00428325729444623,1.0486693382263184,0.0,0.018845045939087868
204.0,219.0,-7.6199,-1.1456,6.6724,-0.0512,0.024,-0.1013,-2.610002656976217,0.0,5.671796798706055,-0.8583120703697205,-0.0,2.0097780227661133,5.7505074618156335,0.0,0.14063064754009247,-1.569702450429098,0.0,-0.00446507940068841,0.6107445359230042,0.0,0.01479367259889841,1.0487018823623657,0.0,-0.00490808580070734
204.0,219.0,-7.6199,-1.1456,6.6724,-0.0512,0.024,-0.1013,-2.609974046746725,0.0,5.679356575012207,-0.8582921028137207,2.4489668248861562e-06,2.016946792602539,5.750531661301412,7.548307934257537e-08,0.1222718358039856,-1.5696585814105433,0.0,-0.0024248699191957712,0.6107242107391357,0.0,0.008378980681300163,1.0486812591552734,0.0,-0.04889768734574318
204.0,219.0,-7.6199,-1.1456,6.6724,-0.0512,0.024,-0.1013,-2.609957834283346,0.0,5.696565628051758,-0.8583321571350098,5.9139680999575894e-12,1.9334237575531006,5.750547635346212,2.1010993292436275e-11,0.13436569273471832,-1.5695813337909144,0.0,-0.00025920290499925613,0.610720157623291,0.0,0.005237863399088383,1.0486574172973633,0.0,0.017653675749897957
204.0,219.0,-7.6199,-1.1456,6.6724,-0.0512,0.024,-0.1013,-2.610030313531393,0.0,5.703036308288574,-0.8583280444145203,1.064493303989673e-15,1.9640932083129883,5.7504955408866785,8.957315818973813e-14,0.12321233749389648,-1.569686237965719,0.0,-0.012034080922603607,0.6107605695724487,0.0,0.003914919216185808,1.0486770868301392,0.0,-0.0024727543350309134
204.0,219.0,-7.6199,-1.1456,6.6724,-0.0512,0.024,-0.1013,-2.6100064716734828,0.0,5.655813694000244,-0.8582634925842285,0.00022758191335015,1.9955990314483643,5.750547635346212,2.493301698991627e-17,0.12875129282474518,-1.5696499983416956,0.0,-0.015234805643558502,0.6107041835784912,0.0,-0.007555495481938124,1.048689603805542,0.0,0.01859031245112419
203.0,223.0,-7.4142,-0.9936,6.3511,-0.0415,0.0096,-0.1158,-2.609969755212301,0.0,5.642993927001953,-0.8583120703697205,0.0001656161475693807,1.944718837738037,5.750511514931478,6.940197204510488e-21,0.13152417540550232,-1.5696705023394983,0.0,0.0023268130607903004,0.6107161045074463,0.0,0.0032555297948420048,1.0487456321716309,0.0,0.035108260810375214
203.0,223.0,-7.4142,-0.9936,6.3511,-0.0415,0.0096,-0.1158,-2.609990259210104,0.0,5.732013702392578,-0.8583083152770996,0.00019467102538328618,1.9857439994812012,5.750523793488302,1.931829243451705e-24,0.1281927227973938,-1.5696705023394983,0.0,-0.005126402713358402,0.6107324361801147,0.0,0.011878428049385548,1.0487055778503418,0.0,-0.04614870995283127
203.0,223.0,-7.4142,-0.9936,6.3511,-0.0415,0.0096,-0.1158,-2.6099821529784144,0.0,5.671296119689941,-0.8583815097808838,0.00017052447947207838,2.006469964981079,5.750551688462057,8.235692443067808e-27,0.12777292728424072,-1.5696705023394983,0.0,-0.008869738318026066,0.6107361316680908,0.0,0.012910265475511551,1.0486936569213867,0.00019330297072883695,-0.015675408765673637
203.0,223.0,-7.4142,-0.9936,6.3511,-0.0415,0.0096,-0.1158,-2.6099778614439906,0.0,5.703854560852051,-0.8582797050476074,-7.298063428606838e-05,1.980994701385498,5.750531661301412,2.2924355412787036e-30,0.13958288729190826,-1.5696662108050745,0.0,-0.023165684193372726,0.610720157623291,0.0,0.004402930848300457,1.0486855506896973,0.0002458311209920794,-0.02029353752732277
203.0,223.0,-7.4142,-0.9936,6.3511,-0.0415,0.0096,-0.1158,-2.6099778614439906,0.0,5.697445392608643,-0.8582716584205627,-5.869813685421832e-05,1.9714512825012207,5.75050317028121,6.381078329587668e-34,0.13050132989883423,-1.5696538130389612,0.0,-0.01021291222423315,0.6107004880905151,0.0,0.008217055350542068,1.0487055778503418,0.0002534545783419162,0.01598561555147171
203.0,223.0,-7.4142,-0.9936,6.3511,-0.0415,0.0096,-0.1158,-2.609990259210104,0.0,5.657990455627441,-0.858271598815918,-9.81792327365838e-05,1.9971516132354736,5.750495660095968,1.77619669869193e-37,0.12737029790878296,-1.569674317036764,0.0,0.0005067738238722086,0.6107122898101807,0.0,0.006019366905093193,1.0487500429153442,0.00022217031801119447,-0.0008141631260514259
203.0,223.0,-7.4142,-0.9936,6.3511,-0.0415,0.0096,-0.1158,-2.6100222072997035,0.0,5.742096900939941,-0.8583118319511414,-0.0001265586179215461,1.9857394695281982,5.750535714417257,4.94406124183082e-41,0.12568989396095276,-1.5696662108050745,0.0,-0.017457058653235435,0.6106882095336914,0.0,-0.005024731159210205,1.0487055778503418,0.00019775984401348978,0.016657724976539612
203.0,223.0,-7.4142,-0.9936,6.3511,-0.0415,0.0096,-0.1158,-2.60998596767568,0.0,5.686136245727539,-0.8583199977874756,-0.00011571279173949733,1.9663867950439453,5.750531661301412,2.1019476964872256e-43,0.13286647200584412,-1.5696943441974085,0.0,-0.009771497920155525,0.6107442378997803,0.0,0.006589509546756744,1.0487096309661865,0.00018426326278131455,0.05122675374150276
203.0,223.0,-7.4142,-0.9936,6.3511,-0.0415,0.0096,-0.1158,-2.6099778614439906,0.0,5.718867301940918,-0.8582921028137207,-0.00010252965876134112,1.9655683040618896,5.750571834831991,0.0,0.13831967115402222,-1.569634262715475,0.0,-0.026809919625520706,0.6106524467468262,0.0,0.008361753076314926,1.0487055778503418,0.00013942539226263762,-0.01323702186346054
203.0,223.0,-7.4142,-0.9936,6.3511,-0.0415,0.0096,-0.1158,-2.609990259210104,0.0,5.677452564239502,-0.8583201169967651,-9.204349771607667e-05,1.9399175643920898,5.750535714417257,0.0,0.13109232485294342,-1.5696781317340296,0.0,-0.013164456002414227,0.6107761859893799,0.0,0.0035522845573723316,1.0486812591552734,0.00010496033792151138,-0.05008494853973389
203.0,223.0,-7.4142,-0.9936,6.3511,-0.0415,0.0096,-0.1158,-2.6099778614439906,0.0,5.651771545410156,-0.8582799434661865,-8.350337157025933e-05,1.9910557270050049,5.750535714417257,0.0,0.14693115651607513,-1.5696900526629847,0.0,0.004199788440018892,0.6107320785522461,0.0,0.021402304992079735,1.048596978187561,7.142958202166483e-05,0.036628905683755875
203.0,223.0,-7.4142,-0.9936,6.3511,-0.0415,0.0096,-0.1158,-2.60998596767568,0.0,5.6653313636779785,-0.8583239912986755,-7.222078420454636e-05,2.01364803314209,5.750531661301412,0.0,0.12502053380012512,-1.5696542898761194,0.0,0.0027143037877976894,0.610720157623291,0.0,0.0031629293225705624,1.0487018823623657,6.724149716319516e-05,0.016465209424495697
203.0,223.0,-7.4142,-0.9936,6.3511,-0.0415,0.0096,-0.1158,-2.6099940739073695,1.65922373063232e-10,5.698483467102051,-0.8583159446716309,-6.445907638408244e-05,1.9672670364379883,5.750487792282858,0.0,0.1301513910293579,-1.5696619192706507,0.0,-0.016263756901025772,0.6107282638549805,0.0,0.009091001935303211,1.048649549484253,-9.55646246438846e-05,0.028003545477986336
203.0,223.0,-7.4142,-0.9936,6.3511,-0.0415,0.0096,-0.1158,-2.609981676141256,4.006829535284568e-16,5.675360202789307,-0.8582921028137207,-5.8205812820233405e-05,1.9938397407531738,5.7505074618156335,0.0,0.13711538910865784,-1.5696824232684534,0.0,-0.004519608803093433,0.6107242107391357,0.0,0.010737679898738861,1.0486812591552734,-0.00011524363799253479,-0.01335022784769535
203.0,223.0,-7.4142,-0.9936,6.3511,-0.0415,0.0096,-0.1158,-2.6099983654417933,0.0004725799954030663,5.675032615661621,-0.8582877516746521,-5.305848753778264e-05,1.9324445724487305,5.750519263535299,0.0,0.12122529745101929,-1.5696662108050745,0.0,-0.002164504723623395,0.6106324195861816,0.0,0.011441035196185112,1.0486493110656738,-0.0001314337132498622,0.007814941927790642
203.0,223.0,-7.4142,-0.9936,6.3511,-0.0415,0.0096,-0.1158,-2.6099821529784144,0.00039619221934117377,5.6967926025390625,-0.8583240509033203,-4.874765363638289e-05,1.9908113479614258,5.750531661301412,0.0,0.13066256046295166,-1.569674317036764,0.0,-0.008664209395647049,0.6106841564178467,0.0,0.005409195087850094,1.048649549484253,-0.00012084507034160197,0.011373952031135559
207.0,210.0,-7.6032,-0.6359,6.8028,-0.0206,0.038,-0.1176,-2.6099301777281703,0.00040141434874385595,5.68338680267334,-0.8583002090454102,-4.624291977961548e-05,1.9787569046020508,5.750547635346212,0.0,0.13030540943145752,-1.5696662108050745,0.0,-0.009786657057702541,0.6107041835784912,0.0,0.002136909170076251,1.0486853122711182,-0.0001146854629041627,-0.010420605540275574
207.0,210.0,-7.6032,-0.6359,6.8028,-0.0206,0.038,-0.1176,-2.6099378071227015,0.0003300860698800534,5.684352397918701,-0.8583400845527649,-4.293391975807026e-05,1.9906044006347656,5.750531661301412,0.0,0.13337288796901703,-1.5696824232684534,0.0,-0.0063031818717718124,0.6107483506202698,0.0,0.013197594322264194,1.0486770868301392,-0.0001065396354533732,-0.030617283657193184
207.0,210.0,-7.6032,-0.6359,6.8028,-0.0206,0.038,-0.1176,-2.6099659405150355,0.00023251917446032166,5.698965072631836,-0.858368456363678,-4.0066872315946966e-05,2.0296566486358643,5.750543939858236,0.0,0.13298726081848145,-1.5696900526629847,0.0,-0.0063644894398748875,0.6107282638549805,0.0,0.010905473493039608,1.0486494302749634,-7.957999332575127e-05,-0.0464591346681118
207.0,210.0,-7.6032,-0.6359,6.8028,-0.0206,0.038,-0.1176,-2.6099983654417933,0.00020125175069551915,5.70855712890625,-0.8583481907844543,-5.632784450426698e-05,1.9569716453552246,5.7505156872566126,0.0,0.1297670602798462,-1.5696542898761194,0.0,-0.007095419801771641,0.61073237657547,0.0,0.015272767283022404,1.0486812591552734,-7.463034853572026e-05,-0.052844736725091934
207.0,210.0,-7.6032,-0.6359,6.8028,-0.0206,0.038,-0.1176,-2.609978338281149,0.00018472768715582788,5.679465293884277,-0.858271598815918,-5.408128708950244e-05,1.9531316757202148,5.7505637286003015,0.0,0.13835705816745758,-1.5696662108050745,0.0,-0.01524612121284008,0.6107161045074463,0.0,-0.002720363438129425,1.0486770868301392,-7.170862227212638e-05,-0.08941230177879333
207.0,210.0,-7.6032,-0.6359,6.8028,-0.0206,0.038,-0.1176,-2.609957834283346,0.0001644715666770935,5.677845478057861,-0.8582921028137207,-5.101576607557945e-05,2.0139145851135254,5.750519740372457,0.0,0.13377824425697327,-1.5696738401996058,0.0,-0.007034024689346552,0.6107761859893799,0.0,0.01135042030364275,1.048693299293518,-3.332510095788166e-05,-0.0063218530267477036
207.0,210.0,-7.6032,-0.6359,6.8028,-0.0206,0.038,-0.1176,-2.609945913354391,0.0001482193183619529,5.713366508483887,-0.8583120703697205,-4.827910379390232e-05,1.9590933322906494,5.7505037663276575,0.0,0.13527488708496094,-1.5696781317340296,0.0,-0.006028884090483189,0.6107442378997803,0.0,-0.0001275781833101064,1.0487055778503418,-2.893838427553419e-05,0.028179384768009186
207.0,210.0,-7.6032,-0.6359,6.8028,-0.0206,0.038,-0.1176,-2.609990259210104,0.00013489001139532775,5.683315753936768,-0.8583278656005859,-4.5821128878742456e-05,1.9511528015136719,5.7505191443260095,0.0,0.12425415962934494,-1.569634262715475,0.0,-0.003510007867589593,0.6107001304626465,0.0,0.006038116756826639,1.0486451387405396,-6.988279399600117e-11,0.010286855511367321
207.0,210.0,-7.6032,-0.6359,6.8028,-0.0206,0.038,-0.1176,-2.6099821529784144,0.0001272606896236539,5.653313636779785,-0.8583080768585205,-4.4316973799141124e-05,1.972902774810791,5.750523435860433,0.0,0.12976886332035065,-1.5696786085711878,0.0,-0.02265269309282303,0.6107082366943359,0.0,-0.006234519649296999,1.0487459897994995,-1.2578656954193804e-14,0.029983535408973694
207.0,210.0,-7.6032,-0.6359,6.8028,-0.0206,0.038,-0.1176,-2.610002656976217,0.00011730800906661898,5.711529731750488,-0.8582797050476074,-4.223720679874532e-05,1.9780172109603882,5.7505637286003015,0.0,0.13711252808570862,-1.5696781317340296,0.0,-0.016505783423781395,0.6107320785522461,0.0,0.015420794486999512,1.048661231994629,-3.037597848576517e-20,0.028634291142225266
207.0,210.0,-7.6032,-0.6359,6.8028,-0.0206,0.038,-0.1176,-2.609981676141256,0.00010879938781727105,5.664852619171143,-0.8583319783210754,-4.0343904402107e-05,1.9570252895355225,5.750507819443502,0.0,0.1426166296005249,-1.569686237965719,0.0,0.0063773556612432,0.6107279658317566,0.0,0.012881578877568245,1.048664927482605,-7.335441912839261e-26,-0.012047188356518745
207.0,210.0,-7.6032,-0.6359,6.8028,-0.0206,0.038,-0.1176,-2.609990259210104,0.00010144155385205522,5.696770191192627,-0.858288049697876,-3.8613037759205326e-05,1.967436671257019,5.750460135727682,0.0,0.13583648204803467,-1.5696662108050745,0.0,-0.013536311686038971,0.6106963157653809,0.0,0.0003804783336818218,1.048689603805542,-1.7714230844645895e-31,-0.002742205746471882
207.0,210.0,-7.6032,-0.6359,6.8028,-0.0206,0.038,-0.1176,-2.60998596767568,9.501579916104674e-05,5.707259178161621,-0.8583080768585205,-3.7024572520749643e-05,1.9693176746368408,5.750539767533102,0.0,0.1357489824295044,-1.569702450429098,0.0,-0.011027047410607338,0.6107680797576904,0.0,0.0022862828336656094,1.048717737197876,-4.277778125830776e-37,-0.03189295530319214
207.0,210.0,-7.6032,-0.6359,6.8028,-0.0206,0.038,-0.1176,-2.6099540195860804,9.116600267589092e-05,5.688739776611328,-0.8582879900932312,-3.603629011195153e-05,1.9591071605682373,5.7505156872566126,0.0,0.13174007833003998,-1.5696542898761194,0.0,-0.022527407854795456,0.6107161045074463,0.0,0.009864960797131062,1.0487096309661865,-7.699854801772005e-41,0.0007285987958312035
207.0,210.0,-7.6032,-0.6359,6.8028,-0.0206,0.038,-0.1176,-2.609978338281149,8.59427236719057e-05,5.665264129638672,-0.8583080768585205,-3.464896508376114e-05,1.972550630569458,5.750527608185568,0.0,0.1256452351808548,-1.5696700255023401,0.0,-0.013196906074881554,0.6107401251792908,0.0,-0.010434539057314396,1.0486770868301392,-0.0,-0.018808603286743164
207.0,210.0,-7.6032,-0.6359,6.8028,-0.0206,0.038,-0.1176,-2.6099659405150355,8.128541230689734e-05,5.649142265319824,-0.8583118319511414,-3.3364496630383655e-05,1.9385749101638794,5.750519740372457,0.0,0.14559513330459595,-1.5696538130389612,0.0,-0.006700239609926939,0.6107041835784912,0.0,0.004402168560773134,1.048729658126831,0.0,0.00871244166046381
207.0,210.0,-7.6032,-0.6359,6.8028,-0.0206,0.038,-0.1176,-2.609957834283346,7.71070845075883e-05,5.737179279327393,-0.858303964138031,-3.217185440007597e-05,1.9385690689086914,5.750499594002523,0.0,0.13301998376846313,-1.5696900526629847,0.0,-0.0077840350568294525,0.6107122898101807,0.0,0.0006548762321472168,1.0487337112426758,0.0,0.0348663330078125
207.0,215.0,-7.4656,0.1723,6.4487,-0.0339,0.0316,-0.1081,-2.6100064716734828,7.4552241130732e-05,5.6668009757995605,-0.8583040237426758,-3.142301648040302e-05,2.0088047981262207,5.750527608185568,0.0,0.13069629669189453,-1.5696981588946741,0.0,-0.0075089228339493275,0.6107483506202698,0.0,0.0032798959873616695,1.0486851930618286,0.0,0.015093725174665451
207.0,215.0,-7.4656,0.1723,6.4487,-0.0339,0.0316,-0.1081,-2.609957834283346,7.102237577782944e-05,5.6718950271606445,-0.8582556247711182,-3.0362951292772777e-05,1.9478275775909424,5.750547635346212,0.0,0.126680389046669,-1.569686237965719,0.0,-0.0033797575160861015,0.610696017742157,0.0,0.013793466612696648,1.0486730337142944,0.0,0.007302841171622276
207.0,215.0,-7.4656,0.1723,6.4487,-0.0339,0.0316,-0.1081,-2.609945913354391,6.781161209801212e-05,5.6981658935546875,-0.8583199977874756,1.3037482858635485e-05,1.9883873462677002,5.750519740372457,0.0,0.1224297285079956,-1.5696981588946741,0.0,-0.009673938155174255,0.6107161045074463,0.0,0.007246747147291899,1.0487099885940552,0.0,-0.030316036194562912
207.0,215.0,-7.4656,0.1723,6.4487,-0.0339,0.0316,-0.1081,-2.6099497280516566,6.487870268756524e-05,5.70031213760376,-0.8583481311798096,1.255624920304399e-05,1.9875547885894775,5.750527846604147,0.0,0.1261553019285202,-1.5696542898761194,0.0,-0.01848542131483555,0.6107361912727356,0.0,0.0022680661641061306,1.048697829246521,0.0,0.0010894408915191889
207.0,215.0,-7.4656,0.1723,6.4487,-0.0339,0.0316,-0.1081,-2.609974046746725,7.413120329147205e-05,5.66435432434082,-0.8582468628883362,1.2051837074977811e-05,1.9619022607803345,5.750511634140768,0.0,0.1344612091779709,-1.5696619192706507,0.0,-0.012709574773907661,0.6106481552124023,0.0,0.0019673537462949753,1.0487096309661865,0.0,-0.007563860155642033
207.0,215.0,-7.4656,0.1723,6.4487,-0.0339,0.0316,-0.1081,-2.6099983654417933,7.261947030201554e-05,5.701306343078613,-0.8583199381828308,1.1737492968677543e-05,1.9990839958190918,5.750563609391012,0.0,0.12868216633796692,-1.5696738401996058,0.0,-0.007321248762309551,0.6107403039932251,0.0,0.005737362429499626,1.0486494302749634,0.0,-0.0454271100461483
207.0,215.0,-7.4656,0.1723,6.4487,-0.0339,0.0316,-0.1081,-2.609957834283346,7.746511255390942e-05,5.691633224487305,-0.858251690864563,1.873472319857683e-05,1.9512457847595215,5.750543939858236,0.0,0.12803378701210022,-1.5697224775897425,3.1670450084675394e-07,-0.009676857851445675,0.610720157623291,0.0,0.013719137758016586,1.0487138032913208,0.0,-0.024104081094264984
207.0,215.0,-7.4656,0.1723,6.4487,-0.0339,0.0316,-0.1081,-2.6099664173521937,8.954486838774756e-05,5.718178749084473,-0.858271598815918,2.1771413230453618e-05,1.9774012565612793,5.7505156872566126,0.0,0.13239635527133942,-1.5696819464312952,8.815585761379197e-11,0.002450502710416913,0.6107001304626465,0.0,0.006137586198747158,1.0487174987792969,5.913409768254496e-05,-0.04098154604434967
207.0,215.0,-7.4656,0.1723,6.4487,-0.0339,0.0316,-0.1081,-2.6098972759642542,8.304754737764597e-05,5.6694793701171875,-0.8582510352134705,4.204199285595678e-05,1.9833401441574097,5.750480520516195,0.0,0.13891063630580902,-1.5697186628924769,2.4538508906573296e-14,-0.0030322594102472067,0.610696017742157,0.0,0.002128592226654291,1.048785924911499,0.0019781263545155525,-0.010270291939377785
207.0,215.0,-7.4656,0.1723,6.4487,-0.0339,0.0316,-0.1081,-2.609933992425436,0.00138365279417485,5.679409027099609,-0.8582474589347839,0.00029288168298080564,1.9920601844787598,5.75048445442275,0.0,0.13256825506687164,-1.5697620550738733,-0.0005345084937289357,0.0024001849815249443,0.6107082366943359,0.0,0.001031363382935524,1.04881751537323,0.0037418226711452007,0.04916710406541824
207.0,215.0,-7.4656,0.1723,6.4487,-0.0339,0.0316,-0.1081,-2.6098700962462367,0.004358914215117693,5.662317276000977,-0.8582362532615662,0.0013694739900529385,1.9685229063034058,5.750487673073568,0.0,0.13953343033790588,-1.569726292287008,-0.0004865502123720944,-0.006502130534499884,0.6106882095336914,0.0,0.003676378633826971,1.0488415956497192,0.009208813309669495,-0.0016450709663331509
207.0,215.0,-7.4656,0.1723,6.4487,-0.0339,0.0316,-0.1081,-2.609825750390524,0.009904464706778526,5.729671001434326,-0.8582404851913452,0.0028074283618479967,2.0010719299316406,5.750499713211813,0.0,0.13578854501247406,-1.569686237965719,-0.0003830179339274764,-0.004071368835866451,0.6107361316680908,0.0,0.009323145262897015,1.048941969871521,0.013689647428691387,0.011491266079246998
207.0,215.0,-7.4656,0.1723,6.4487,-0.0339,0.0316,-0.1081,-2.609781881371969,0.015600251965224743,5.731808662414551,-0.8581551909446716,0.007311781402677298,1.945156455039978,5.750439750939169,0.0,0.1300651878118515,-1.5697343985186976,-0.00031578377820551395,0.004387638997286558,0.6107001304626465,0.0,0.004249684512615204,1.049013614654541,0.014008898288011551,0.012045338749885559
207.0,215.0,-7.4656,0.1723,6.4487,-0.0339,0.0316,-0.1081,-2.609718462029928,0.013282491825520992,5.727269172668457,-0.8581230640411377,0.010065034031867981,1.9525398015975952,5.750519740372457,0.0,0.14272253215312958,-1.569726292287008,-0.00022987104603089392,-0.01625720039010048,0.610667884349823,0.0,-0.004332634620368481,1.0491056442260742,0.010660911910235882,0.06774120777845383
207.0,215.0,-7.4656,0.1723,6.4487,-0.0339,0.0316,-0.1081,-2.6096660099425257,0.009662124328315258,5.745300769805908,-0.8580952286720276,0.008910126984119415,1.991042137145996,5.750515806465902,0.0,0.13821420073509216,-1.569726292287008,-0.00020362719078548253,-0.0015101449098438025,0.6107363104820251,0.0,0.008748196996748447,1.0491015911102295,0.008108481764793396,-0.045260488986968994
207.0,215.0,-7.4656,0.1723,6.4487,-0.0339,0.0316,-0.1081,-2.6096183262267054,0.004125353880226612,5.702273845672607,-0.8580924868583679,0.005382386967539787,1.9746687412261963,5.750527846604147,0.0,0.14006191492080688,-1.5697067419635218,-0.00017926395230460912,0.011802739463746548,0.6107164025306702,0.0,0.007310727145522833,1.0490853786468506,0.004008070100098848,-0.01902242749929428
207.0,215.0,-7.4656,0.1723,6.4487,-0.0339,0.0316,-0.1081,-2.6096021137633265,0.0018244237871840596,5.711246013641357,-0.858003556728363,0.002586299553513527,2.027155876159668,5.750543939858236,0.0,0.13837358355522156,-1.5697343985186976,-0.00016012435662560165,-0.007678771857172251,0.610667884349823,0.0,0.005462250206619501,1.0490813255310059,0.0011080852709710598,0.0012100432068109512
201.0,212.0,-7.4369,-1.0917,6.4457,-0.0461,0.0046,-0.119,-2.60961451152944,0.0012722942046821117,5.717824935913086,-0.8580436110496521,0.0012278484646230936,1.9613752365112305,5.75048445442275,0.0,0.14485958218574524,-1.5697100798236292,-0.00011576004180824384,-0.014725396409630775,0.6107524037361145,0.0,0.007894276641309261,1.049045443534851,-0.0003796256787609309,0.06934846937656403
201.0,212.0,-7.4369,-1.0917,6.4457,-0.0461,0.0046,-0.119,-2.609570165673727,0.0028261877596378326,5.686283588409424,-0.8579791784286499,0.0008519166731275618,1.9855966567993164,5.750547754555502,0.0,0.13389280438423157,-1.5696857611285608,-0.00010874916915781796,0.00025030365213751793,0.610752284526825,0.0,0.008714767172932625,1.0490576028823853,-0.0004259868001099676,0.0405961237847805
201.0,212.0,-7.4369,-1.0917,6.4457,-0.0461,0.0046,-0.119,-2.609549661675924,0.003520512953400612,5.654416084289551,-0.8579792380332947,0.000605930108577013,1.973423719406128,5.750495898514547,0.0,0.13800977170467377,-1.5696900526629847,-9.971193503588438e-05,-0.008386649191379547,0.6107401847839355,0.0,0.01674792170524597,1.0490896701812744,-0.0011958781396970153,0.008112592622637749
201.0,212.0,-7.4369,-1.0917,6.4457,-0.0461,0.0046,-0.119,-2.6095782719054164,0.0016884268261492252,5.7167887687683105,-0.858039379119873,0.0004702073347289115,1.9458246231079102,5.7504968521888635,9.34375208316851e-08,0.1359153687953949,-1.5696662108050745,-6.907556962687522e-05,-0.0022635911591351032,0.6107041835784912,0.0,0.01606336049735546,1.0489692687988281,-0.005223364569246769,-0.021215971559286118
201.0,212.0,-7.4369,-1.0917,6.4457,-0.0461,0.0046,-0.119,-2.6095620594420375,0.000581140338908881,5.679512977600098,-0.8580553531646729,2.0594170564436354e-05,2.0313451290130615,5.7505156872566126,2.60086778502977e-11,0.12670950591564178,-1.5696738401996058,5.1236493163742125e-05,-0.00784548744559288,0.6106522679328918,0.0,0.004941241815686226,1.0489413738250732,-0.008094261400401592,0.02430567890405655
201.0,212.0,-7.4369,-1.0917,6.4457,-0.0461,0.0046,-0.119,-2.609549661675924,0.0002932898642029613,5.67198371887207,-0.8580192923545837,4.973249936868207e-11,2.008458137512207,5.750456321030416,7.239610928973239e-15,0.13223281502723694,-1.5697067419635218,4.723471647594124e-05,-0.007263424806296825,0.6106800436973572,0.0,0.010204428806900978,1.0488282442092896,-0.010099484585225582,0.05277802050113678
201.0,212.0,-7.4369,-1.0917,6.4457,-0.0461,0.0046,-0.119,-2.609586378137106,-0.0001844601792981848,5.70731258392334,-0.8580837845802307,8.951674579545099e-15,1.9262968301773071,5.750519859581747,3.086359427073361e-17,0.13936445116996765,-1.5696499983416956,6.58161734463647e-05,-0.0018585182260721922,0.6107282638549805,0.0,0.004609827417880297,1.0488214492797852,-0.011242730543017387,0.020120929926633835
201.0,212.0,-7.4369,-1.0917,6.4457,-0.0461,0.0046,-0.119,-2.6095859012999476,-0.00021355511853471398,5.682769775390625,-0.8580799102783203,2.161724086042819e-20,2.028449535369873,5.75046848037795,8.590994444399176e-21,0.14154689013957977,-1.5696418921100062,6.26332257525064e-05,5.392754610511474e-05,0.6107242107391357,0.0,0.004069147165864706,1.0487734079360962,-0.013247186318039894,-0.03522645682096481
201.0,212.0,-7.4369,-1.0917,6.4457,-0.0461,0.0046,-0.119,-2.609610219995016,-0.00017259221931453794,5.686655521392822,-0.8580599427223206,5.220309843310587e-26,1.9469971656799316,5.750468361168661,-0.0002973663795273751,0.12025037407875061,-1.5696662108050745,5.855823110323399e-05,-0.0024078423157334328,0.6107483506202698,0.0,0.005671762861311436,1.048653244972229,-0.015310767106711864,-0.03989143669605255
201.0,212.0,-7.4369,-1.0917,6.4457,-0.0461,0.0046,-0.119,-2.6096512279906214,-0.00014481708058156073,5.69767951965332,-0.8579952120780945,1.2606434000139314e-31,1.9728968143463135,5.7504238961036584,-0.000301361083984375,0.14058220386505127,-1.5697148481952112,5.498083191923797e-05,-0.006362952757626772,0.6107203364372253,0.0,0.0010574560146778822,1.0485494136810303,-0.01841956563293934,-0.04312827065587044
201.0,212.0,-7.4369,-1.0917,6.4457,-0.0461,0.0046,-0.119,-2.609570165673727,-8.897355291992426e-05,5.711668491363525,-0.8580105900764465,-0.0002208938676631078,1.9944640398025513,5.750472533493795,-0.0003155399754177779,0.1324537843465805,-1.5696705023394983,6.926619244040921e-05,-0.007811826653778553,0.6107646226882935,0.0,0.013179337605834007,1.0484850406646729,-0.01862325519323349,0.0065870266407728195
201.0,212.0,-7.4369,-1.0917,6.4457,-0.0461,0.0046,-0.119,-2.609570642510885,-3.961292895837687e-05,5.711026191711426,-0.8580315113067627,-6.378352736646775e-06,1.9524266719818115,5.7504522679145715,-0.0004517502384260297,0.14033755660057068,-1.5697105566607874,6.653308810200542e-05,-0.0033640526235103607,0.6107164025306702,0.0,-0.002135177841410041,1.048349380493164,-0.01855413056910038,-0.007739191874861717
201.0,212.0,-7.4369,-1.0917,6.4457,-0.0461,0.0046,-0.119,-2.609549661675924,-1.9121589645010317e-08,5.740852355957031,-0.8579795360565186,-1.540297230040455e-11,1.9723842144012451,5.750384199410238,-0.0004311455995775759,0.13808931410312653,-1.5696824232684534,7.228114554891363e-05,-0.01869283802807331,0.610692024230957,0.0,0.0014515507500618696,1.0482453107833862,-0.017939724028110504,-0.018418770283460617
201.0,212.0,-7.4369,-1.0917,6.4457,-0.0461,0.0046,-0.119,-2.6095744572081507,-4.617639414285571e-14,5.677121639251709,-0.8579791188240051,0.0011789469281211495,1.9900164604187012,5.750428426056661,-0.0004066844703629613,0.14821243286132812,-1.5696938673602503,6.482559547293931e-05,-0.009578579105436802,0.6107279658317566,0.0,0.008744386956095695,1.048129677772522,-0.016610439866781235,-0.008788320235908031
201.0,212.0,-7.4369,-1.0917,6.4457,-0.0461,0.0046,-0.119,-2.6095382175841273,-8.311588549910402e-18,5.695583343505859,-0.8579517006874084,0.0011527278693392873,2.0170609951019287,5.750428545265951,-0.0004116338095627725,0.13673846423625946,-1.5696657339679163,6.046951966709457e-05,-0.008146420121192932,0.6106800436973572,0.0,0.006781818810850382,1.0480328798294067,-0.015516141429543495,-0.0454428531229496
201.0,212.0,-7.4369,-1.0917,6.4457,-0.0461,0.0046,-0.119,-2.609530111352438,0.0005679011228494346,5.6582441329956055,-0.857987642288208,0.0015850155614316463,1.9822402000427246,5.750380384712972,-0.00046020292211323977,0.15034551918506622,-1.5697067419635218,5.4932617786107585e-05,0.007664969190955162,0.6106685400009155,0.0,0.0026411903090775013,1.0479772090911865,-0.013206052593886852,0.013810578733682632
200.0,217.0,-7.7498,-0.545,6.6395,-0.0333,0.0234,-0.1069,-2.609542509118551,0.0007014150614850223,5.631394386291504,-0.8580161929130554,0.0020196321420371532,1.9496170282363892,5.750384557038107,-0.00048490590415894985,0.14715830981731415,-1.5696738401996058,5.0324822950642556e-05,-0.006638635881245136,0.610760509967804,0.0,-0.00016331509687006474,1.0479373931884766,-0.011036351323127747,0.04120500385761261
200.0,217.0,-7.7498,-0.545,6.6395,-0.0333,0.0234,-0.1069,-2.6095344028868617,0.0008260035538114607,5.723145484924316,-0.85793536901474,0.0023447582498192787,1.9505715370178223,5.750409114151754,-0.0005349389975890517,0.15241412818431854,-1.5697067419635218,2.3228863938129507e-05,0.008732810616493225,0.610720157623291,0.0,0.012301197275519371,1.0478854179382324,-0.008617060258984566,-0.01709454506635666
200.0,217.0,-7.7498,-0.545,6.6395,-0.0333,0.0234,-0.1069,-2.6095181904234828,0.0007550338050350547,5.765680313110352,-0.8579435348510742,0.002393553964793682,2.022655963897705,5.750404584198751,-0.0005433702026493847,0.14564365148544312,-1.569702450429098,2.154759749828372e-05,-0.00859326496720314,0.6106880903244019,0.0,0.009822776541113853,1.0478334426879883,-0.005689135752618313,0.04898054152727127
200.0,217.0,-7.7498,-0.545,6.6395,-0.0333,0.0234,-0.1069,-2.6095549068846644,0.000750398263335228,5.743320465087891,-0.8579155206680298,0.0023855275940150023,1.938246250152588,5.750364768296041,-0.0005362327210605145,0.15016695857048035,-1.5697100798236292,2.0562911231536418e-05,0.011323794722557068,0.6106880307197571,0.0,0.01602862775325775,1.0478174686431885,-0.003983077593147755,0.05705945938825607
200.0,217.0,-7.7498,-0.545,6.6395,-0.0333,0.0234,-0.1069,-2.609530111352438,0.0006209810962900519,5.71887731552124,-0.8578993678092957,0.0023304333444684744,2.0078186988830566,5.750361072808065,-0.0007119393558241427,0.157812237739563,-1.5696981588946741,1.9243843780714087e-05,0.008270046673715115,0.6106839179992676,0.0,0.006413095630705357,1.0477656126022339,-0.0017680221935734153,-0.010565930046141148
200.0,217.0,-7.7498,-0.545,6.6395,-0.0333,0.0234,-0.1069,-2.6095224819579066,0.0005476874066516757,5.702844142913818,-0.8579356670379639,0.0019723211880773306,2.0353844165802,5.750332700997152,-0.0010616258950904012,0.13941672444343567,-1.5696981588946741,1.808379965950735e-05,0.007593256887048483,0.6106638312339783,0.0,0.008518295362591743,1.0477814674377441,-0.0008943178108893335,-0.07607629895210266
200.0,217.0,-7.7498,-0.545,6.6395,-0.0333,0.0234,-0.1069,-2.609530111352438,0.00041626032907515764,5.681537628173828,-0.8579441905021667,0.0018508610082790256,2.0062079429626465,5.75036512592391,-0.0010538301430642605,0.1472231149673462,-1.5697224775897425,1.7055661373888142e-05,-0.009091002866625786,0.6107242107391357,0.0,0.003556429874151945,1.0478014945983887,-0.0005099246045574546,0.03619234636425972
200.0,217.0,-7.7498,-0.545,6.6395,-0.0333,0.0234,-0.1069,-2.609501977960104,0.00035125392605550587,5.729495048522949,-0.8578793406486511,0.001464899512939155,2.0283052921295166,5.750317084580221,-0.0010496621252968907,0.14477771520614624,-1.569702450429098,1.6432824850198813e-05,0.009670589119195938,0.6107799410820007,0.0,0.0067551108077168465,1.0478296279907227,-0.0003294707275927067,0.04648290574550629
200.0,217.0,-7.7498,-0.545,6.6395,-0.0333,0.0234,-0.1069,-2.609525819818014,0.0002845951821655035,5.702960968017578,-0.8578994870185852,0.0011925315484404564,1.9756276607513428,5.7502808449561975,-0.0020015626214444637,0.15930652618408203,-1.5696819464312952,1.557943323859945e-05,0.009527408517897129,0.6107962131500244,0.0,0.010577932931482792,1.0478496551513672,0.00010421002662042156,0.09703122079372406
200.0,217.0,-7.7498,-0.545,6.6395,-0.0333,0.0234,-0.1069,-2.609558244744772,0.00023920406238175929,5.739429473876953,-0.8578633666038513,0.000681725621689111,2.003129482269287,5.750261175423422,-0.0038730790838599205,0.15221022069454193,-1.5696900526629847,1.4810308130108751e-05,0.002361676888540387,0.6107242107391357,0.0,0.013967160135507584,1.047825574874878,0.00028952842694707215,0.08897855132818222
200.0,217.0,-7.7498,-0.545,6.6395,-0.0333,0.0234,-0.1069,-2.6095177135863246,0.00016504187078680843,5.723508358001709,-0.8579199314117432,0.00046858080895617604,2.02217173576355,5.7501975176628015,-0.005575702525675297,0.13884252309799194,-1.569702450429098,2.821110319928266e-05,-0.0003856845432892442,0.610720157623291,0.0,0.0035827448591589928,1.047849416732788,0.0014106538146734238,0.06685024499893188
200.0,217.0,-7.7498,-0.545,6.6395,-0.0333,0.0234,-0.1069,-2.609525819818014,0.0001450862764613703,5.772336006164551,-0.8578715324401855,0.00042541653965599835,2.079275369644165,5.750146138459005,-0.007736169267445803,0.13839903473854065,-1.5697267691241663,2.6958814487443306e-05,-0.003242070786654949,0.6107401251792908,0.0,0.006914357654750347,1.0478975772857666,0.0019184909760951996,0.1327577531337738
200.0,217.0,-7.7498,-0.545,6.6395,-0.0333,0.0234,-0.1069,-2.6095663509764613,0.000134263580548577,5.755112648010254,-0.8578633666038513,0.0003697296779137105,2.0425543785095215,5.750158297806539,-0.008462403900921345,0.14512453973293304,-1.5697186628924769,2.6174775484832935e-05,0.0019194786436855793,0.6107279658317566,0.0,-0.0061887349002063274,1.047933578491211,0.0021580469328910112,0.15799438953399658
200.0,217.0,-7.7498,-0.545,6.6395,-0.0333,0.0234,-0.1069,-2.6095177135863246,5.131007492309436e-05,5.767571449279785,-0.857935905456543,0.00034207143471576273,2.047536849975586,5.75010226944045,-0.008151022717356682,0.1411450207233429,-1.5696857611285608,2.5080655177589506e-05,0.0021778405643999577,0.6107483506202698,0.0,0.007655576337128878,1.0479376316070557,0.00181224150583148,0.17413048446178436
200.0,217.0,-7.7498,-0.545,6.6395,-0.0333,0.0234,-0.1069,-2.609542509118551,3.6882593121845275e-05,5.760058403015137,-0.8578994870185852,0.0009701137896627188,2.0611236095428467,5.750063049584188,-0.006472674198448658,0.14381495118141174,-1.5697186628924769,2.4074302928056568e-05,-0.0026374750304967165,0.6107720136642456,0.0,0.014846406877040863,1.0479495525360107,0.0018300561932846904,0.1581997275352478
200.0,217.0,-7.7498,-0.545,6.6395,-0.0333,0.0234,-0.1069,-2.6095382175841273,3.284439299022779e-05,5.780610084533691,-0.8578476905822754,0.0018717709463089705,2.0335140228271484,5.749990689545431,-0.005905742757022381,0.1428741216659546,-1.5696495215045374,2.314562334504444e-05,0.006652234122157097,0.6107799410820007,0.0,0.012141291052103043,1.0479414463043213,0.0025986104737967253,0.1819315254688263
200.0,217.0,-7.7498,-0.545,6.6395,-0.0333,0.0234,-0.1069,-2.6095620594420375,3.0610139219788834e-05,5.809324264526367,-0.8578476905822754,0.002340250415727496,2.1230931282043457,5.749939548760214,-0.00572841614484787,0.1325915902853012,-1.5697100798236292,1.1660956261039246e-05,0.011852657422423363,0.6107483506202698,0.0,0.011367008090019226,1.047953724861145,0.0034233340993523598,0.22151079773902893
205.0,214.0,-9.1597,-0.8692,7.0032,0.0046,-0.0374,-0.1205,-2.6095787487425746,2.7775971830124035e-05,5.851884841918945,-0.857892632484436,0.0033282283693552017,2.0468599796295166,5.7499029515083215,-0.005914496723562479,0.13002412021160126,-1.5696657339679163,1.0873813153011724e-05,-0.014030548743903637,0.6107041835784912,0.0,0.0019609262235462666,1.0479614734649658,0.004935469478368759,0.2372632622718811
205.0,214.0,-9.1597,-0.8692,7.0032,0.0046,-0.0374,-0.1205,-2.6095506153502406,2.5422214093850926e-05,5.815521240234375,-0.8577952980995178,0.0034839187283068895,2.100253105163574,5.749891507416525,-0.00658242404460907,0.1213313415646553,-1.569702450429098,1.0493376066733617e-05,-0.012428514659404755,0.6107403039932251,0.0,-0.0010702284052968025,1.0480016469955444,0.006411895155906677,0.24952849745750427
205.0,214.0,-9.1597,-0.8692,7.0032,0.0046,-0.0374,-0.1205,-2.6095906696715296,2.3436177798430435e-05,5.849013328552246,-0.857811450958252,0.0025865896604955196,2.0537099838256836,5.7498360750968835,-0.008204695768654346,0.129374161362648,-1.5697181860553187,1.0138746802113019e-05,-0.0014552765060216188,0.6107678413391113,0.0,0.007386749144643545,1.0480214357376099,0.00559774087741971,0.23058724403381348
205.0,214.0,-9.1597,-0.8692,7.0032,0.0046,-0.0374,-0.1205,-2.6095944843687953,5.659562055115863e-11,5.840167045593262,-0.8577995300292969,0.0015473663806915283,2.0656049251556396,5.749724256783285,-0.010213556699454784,0.12978360056877136,-1.569702450429098,3.2815444228617707e-07,-0.01679224707186222,0.6107839345932007,0.0,-0.002242136048153043,1.048061490058899,0.0038560472894459963,0.24297791719436646
205.0,214.0,-9.1597,-0.8692,7.0032,0.0046,-0.0374,-0.1205,-2.6095782719054164,1.0187011146743294e-14,5.873857021331787,-0.8578073978424072,0.0011496106162667274,2.122270107269287,5.749708640366354,-0.011545485816895962,0.11487889289855957,-1.5697343985186976,1.398973825672556e-09,-0.0188695527613163,0.610771894454956,0.0,-0.0007705401512794197,1.0481013059616089,0.003353436477482319,0.23626676201820374
205.0,214.0,-9.1597,-0.8692,7.0032,0.0046,-0.0374,-0.1205,-2.6096025906004847,2.4600430581096604e-20,5.882740497589111,-0.8578033447265625,0.0007437214371748269,2.1057138442993164,5.749593126564779,-0.015168893150985241,0.1144179254770279,-1.5697105566607874,3.89409451949721e-13,-0.014051534235477448,0.6107279658317566,7.917598243700752e-10,0.015048697590827942,1.0481457710266113,0.002934511285275221,0.254984974861145
205.0,214.0,-9.1597,-0.8692,7.0032,0.0046,-0.0374,-0.1205,-2.609530111352438,5.940714261993135e-26,5.872073173522949,-0.8578035831451416,0.0005491379997693002,2.0734915733337402,5.749521958618917,-0.0198662206530571,0.1279670149087906,-1.5697186628924769,1.0839355556304663e-16,-0.01255750097334385,0.6107403039932251,2.2038927215313475e-13,0.018870212137699127,1.048121452331543,0.0023001539520919323,0.25920960307121277
205.0,214.0,-9.1597,-0.8692,7.0032,0.0046,-0.0374,-0.1205,-2.6096025906004847,1.4346126848042722e-31,5.849886894226074,-0.8577876091003418,0.0004352816613391042,2.133199691772461,5.749374377518453,-0.026572925969958305,0.11864720284938812,-1.5696981588946741,3.0171745653821266e-20,-0.009299220517277718,0.6107441782951355,6.134616929899059e-17,0.007894199341535568,1.0481538772583008,0.001649231999181211,0.29310452938079834
205.0,214.0,-9.1597,-0.8692,7.0032,0.0046,-0.0374,-0.1205,-2.6095739803709925,2.582252004914809e-35,5.884065628051758,-0.8578559160232544,0.0003824270097538829,2.093946933746338,5.749251115113058,-0.03433610871434212,0.11390956491231918,-1.5697224775897425,1.2862686293103444e-22,-0.006645711604505777,0.6107680201530457,2.6152835010239536e-19,0.006133176386356354,1.0481336116790771,0.001357263303361833,0.282598614692688
205.0,214.0,-9.1597,-0.8692,7.0032,0.0046,-0.0374,-0.1205,-2.609626432458395,6.235778166245436e-41,5.8867645263671875,-0.8577952980995178,0.00035378418397158384,2.099369764328003,5.748956429749288,-0.05481700226664543,0.08509787917137146,-1.5697186628924769,3.580375565284198e-26,-0.017768848687410355,0.6107840538024902,7.279737175479229e-23,0.005538138095289469,1.0481089353561401,0.0011585215106606483,0.28152549266815186
205.0,214.0,-9.1597,-0.8692,7.0032,0.0046,-0.0374,-0.1205,-2.6095663509764613,0.0,5.847106456756592,-0.8577794432640076,0.0002606343477964401,2.111645460128784,5.748506414681234,-0.08475887030363083,0.08416169881820679,-1.569658104573385,9.966107426271476e-30,-0.014844419434666634,0.6107677817344666,2.0263417687117643e-26,-0.0014681161846965551,1.0481337308883667,0.0011057191295549273,0.28729796409606934
205.0,214.0,-9.1597,-0.8692,7.0032,0.0046,-0.0374,-0.1205,-2.609558244744772,0.0,5.88868522644043,-0.8577632904052734,0.0007684274460189044,2.094708204269409,5.747842061310568,-0.12365269660949707,0.0706329420208931,-1.5696900526629847,2.774102934106265e-33,-0.013248597271740437,0.6107442378997803,5.640397301121214e-30,0.0040237996727228165,1.0481817722320557,0.0009253742755390704,0.29592710733413696
205.0,214.0,-9.1597,-0.8692,7.0032,0.0046,-0.0374,-0.1205,-2.6095739803709925,0.0,5.8997297286987305,-0.8578236103057861,0.0015928545035421848,2.140871286392212,5.747043835907736,-0.1459404081106186,0.058681800961494446,-1.5696900526629847,7.721816399720412e-37,-0.02052927017211914,0.6107281446456909,1.5700253361177795e-33,0.013912411406636238,1.0481536388397217,0.0007400639588013291,0.2675251066684723
205.0,214.0,-9.1597,-0.8692,7.0032,0.0046,-0.0374,-0.1205,-2.609549661675924,0.0,5.888458251953125,-0.8577190637588501,0.002266238909214735,2.085463523864746,5.7464332459266565,-0.15115469694137573,0.05312187224626541,-1.5696900526629847,3.2919317536903246e-39,-0.017260311171412468,0.610784113407135,6.693263685638403e-36,0.0066774506121873856,1.0481857061386108,0.000581171945668757,0.30530279874801636
205.0,214.0,-9.1597,-0.8692,7.0032,0.0046,-0.0374,-0.1205,-2.609586378137106,0.0,5.864412307739258,-0.8576899170875549,0.002910197013989091,2.141052722930908,5.745515453606405,-0.15099862217903137,0.05154898762702942,-1.5696700255023401,9.164491956684304e-43,-0.013952720910310745,0.6108161211013794,1.8630949719445962e-39,0.01293068379163742,1.0481457710266113,0.000366065971320495,0.2656399607658386
205.0,214.0,-9.1597,-0.8692,7.0032,0.0046,-0.0374,-0.1205,-2.6095782719054164,0.0,5.909142971038818,-0.857743501663208,0.0030435146763920784,2.0829641819000244,5.744634616165914,-0.1742207407951355,0.04361721873283386,-1.5696900526629847,0.0,-0.0070884209126234055,0.6107757687568665,5.184804318001823e-43,0.010976744815707207,1.0481336116790771,0.00023783106007613242,0.29908284544944763
205.0,214.0,-9.1597,-0.8692,7.0032,0.0046,-0.0374,-0.1205,-2.6095458469786585,0.0,5.882149696350098,-0.8576871156692505,0.003341666189953685,2.1036620140075684,5.743439900666036,-0.2010360211133957,0.02851138263940811,-1.569702450429098,0.0,-0.021915748715400696,0.6107679605484009,0.0,-0.0015553149860352278,1.0480693578720093,0.000147829603520222,0.30674445629119873
207.0,234.0,-7.3017,-0.7226,6.0766,0.0163,-0.3816,-0.1235,-2.609542509118551,0.0,5.838774681091309,-0.8576871156692505,0.002973209135234356,2.0815701484680176,5.74261902549819,-0.20803293585777283,0.04186885431408882,-1.5696943441974085,0.0,-0.013418974354863167,0.6107879877090454,0.0,0.011518636718392372,1.0481173992156982,-0.00016353098908439279,0.29310745000839233
207.0,234.0,-7.3017,-0.7226,6.0766,0.0163,-0.3816,-0.1235,-2.6095663509764613,0.0,5.850671768188477,-0.8576634526252747,0.002695344155654311,2.1388962268829346,5.741310226708212,-0.23703210055828094,0.01322466041892767,-1.5696900526629847,0.0,-0.012249831110239029,0.610844075679779,0.0,0.0021326602436602116,1.048093318939209,-0.00023863348178565502,0.2751360833644867
207.0,234.0,-7.3017,-0.7226,6.0766,0.0163,-0.3816,-0.1235,-2.6095220051207484,0.0,5.845361709594727,-0.8576550483703613,0.0029112021438777447,2.100795030593872,5.7397498963172815,-0.26742619276046753,-0.004253002814948559,-1.5696781317340296,0.0,-0.027569206431508064,0.6107401251792908,0.00010826729703694582,0.0026200488209724426,1.0481014251708984,-0.000814787985291332,0.2831849455833435
207.0,234.0,-7.3017,-0.7226,6.0766,0.0163,-0.3816,-0.1235,-2.609546800652975,0.0,5.843847274780273,-0.8576394319534302,0.002937269862741232,2.1526503562927246,5.738093006401815,-0.2805865705013275,0.0036270669661462307,-1.5697105566607874,0.0,-0.011465751565992832,0.6107597351074219,0.00010103329259436578,0.02182302251458168,1.0480732917785645,-0.0009263756801374257,0.29027673602104187
207.0,234.0,-7.3017,-0.7226,6.0766,0.0163,-0.3816,-0.1235,-2.609542509118551,0.0,5.835031986236572,-0.8576185703277588,0.003368464531376958,2.1098523139953613,5.736916291504659,-0.2983214855194092,-0.008161087520420551,-1.5697224775897425,1.7980313714360818e-05,-0.013291282579302788,0.6108200550079346,9.669142309576273e-05,0.013135993853211403,1.0480214357376099,-0.0009195124730467796,0.3046635389328003
207.0,234.0,-7.3017,-0.7226,6.0766,0.0163,-0.3816,-0.1235,-2.609525819818014,0.0,5.856797218322754,-0.8575907945632935,0.004189196974039078,2.1031792163848877,5.735032546311178,-0.3075377345085144,-0.016970645636320114,-1.5696981588946741,5.004886283188625e-09,-0.013211721554398537,0.6106681823730469,9.083582699531689e-05,0.011292049661278725,1.0480173826217651,-0.0009319919627159834,0.28890448808670044
207.0,234.0,-7.3017,-0.7226,6.0766,0.0163,-0.3816,-0.1235,-2.6095663509764613,0.0,5.842226982116699,-0.8575472235679626,0.004970934242010117,2.114494800567627,5.733165609627523,-0.3450312912464142,-0.015268171206116676,-1.5696738401996058,1.3931284511409237e-12,-0.01694367825984955,0.6107321977615356,8.564905147068202e-05,0.01699981652200222,1.0480456352233887,-0.0011578394332900643,0.23051154613494873
207.0,234.0,-7.3017,-0.7226,6.0766,0.0163,-0.3816,-0.1235,-2.609530111352438,0.0,5.84205436706543,-0.8575472831726074,0.006281389854848385,2.0943026542663574,5.73095856884078,-0.35753577947616577,-0.027795620262622833,-1.5696619192706507,3.877823770439778e-16,-0.01835509017109871,0.6107403039932251,9.719075751490891e-05,0.0005452099721878767,1.048061490058899,-0.0015145005891099572,0.276933491230011
207.0,234.0,-7.3017,-0.7226,6.0766,0.0163,-0.3816,-0.1235,-2.609501977960104,0.00039051842759363353,5.82427978515625,-0.8574829697608948,0.007186875678598881,2.1697723865509033,5.728807914047994,-0.375754177570343,-0.029609762132167816,-1.5696499983416956,1.0794065928842283e-19,-0.008714682422578335,0.6107040643692017,9.224447421729565e-05,0.005260181613266468,1.0480215549468994,-0.002047101967036724,0.2829171419143677
207.0,234.0,-7.3017,-0.7226,6.0766,0.0163,-0.3816,-0.1235,-2.609546800652975,0.0007414569263346493,5.805133819580078,-0.8574633598327637,0.00841644499450922,2.100341320037842,5.727315771370687,-0.38270169496536255,-0.032629095017910004,-1.5696538130389612,4.60167986269226e-22,-0.011702943593263626,0.6107403039932251,8.919706306187436e-05,0.01365580689162016,1.0480215549468994,-0.0021956702694296837,0.21527254581451416
