ramyac6/ROB537/final_project/csv/all/good_61.csv
tof_0,tof_1,accelx,accely,accelz,gyrox,gyroy,gyroz,shoulder_lift_joint_position,shoulder_lift_joint_velocity,shoulder_lift_joint_effort,elbow_joint_position,elbow_joint_velocity,elbow_joint_effort,wrist_1_joint_position,wrist_1_joint_velocity,wrist_1_joint_effort,wrist_2_joint_position,wrist_2_joint_velocity,wrist_2_joint_effort,wrist_3_joint_position,wrist_3_joint_velocity,wrist_3_joint_effort,shoulder_pan_joint_position,shoulder_pan_joint_velocity,shoulder_pan_joint_effort
301.0,341.0,-5.8002,-0.1484,8.1051,-0.0414,0.0206,-0.1116,-2.3926545582213343,0.0,5.036096572875977,-1.244319200515747,-0.0,1.848114252090454,5.712468731194296,-0.0,0.1810406744480133,-1.6872451941119593,0.0,0.012052088975906372,0.4769953489303589,-0.0,-0.0019184814300388098,1.2766255140304565,0.0,-0.004772075917571783
301.0,341.0,-5.8002,-0.1484,8.1051,-0.0414,0.0206,-0.1116,-2.392646928826803,0.0,5.029983043670654,-1.2442950010299683,-0.0,1.887259602546692,5.712488639145651,-0.0,0.17876920104026794,-1.6872533003436487,0.0,0.007053331471979618,0.47697898745536804,-0.0,0.001920394948683679,1.276572823524475,0.0,0.023907404392957687
301.0,341.0,-5.8002,-0.1484,8.1051,-0.0414,0.0206,-0.1116,-2.3926226101317347,0.0,4.999452590942383,-1.2443270683288574,-0.0,1.8593072891235352,5.7124966261680505,-0.0,0.1779915690422058,-1.6872695128070276,0.0,0.02073810249567032,0.4770432710647583,-0.0,-0.0004472520959097892,1.2766411304473877,0.0,0.020745674148201942
301.0,341.0,-5.8002,-0.1484,8.1051,-0.0414,0.0206,-0.1116,-2.392646928826803,0.0,5.033363342285156,-1.2443232536315918,-0.0,1.8575162887573242,5.712508547097006,-0.0,0.17754019796848297,-1.687249485646383,0.0,0.00814146175980568,0.4769953489303589,-0.0,0.0033055655658245087,1.2765768766403198,0.0,0.007128458004444838
301.0,341.0,-5.8002,-0.1484,8.1051,-0.0414,0.0206,-0.1116,-2.392590662042135,0.0,5.035397052764893,-1.244327425956726,-0.0,1.8808479309082031,5.712500560074606,-0.0,0.1840347796678543,-1.6872814337359827,0.0,0.01239042915403843,0.47699904441833496,-0.0,-0.0012849592603743076,1.276625156402588,0.0,-0.014034399762749672
301.0,341.0,-5.8002,-0.1484,8.1051,-0.0414,0.0206,-0.1116,-2.3926474056639613,0.0,5.062309265136719,-1.2443633079528809,-0.0,1.8684968948364258,5.7124647972877405,-0.0,0.17989584803581238,-1.6872614065753382,0.0,0.012397819198668003,0.47706738114356995,-0.0,0.0006377181271091104,1.276609182357788,0.0,0.0007533188909292221
301.0,341.0,-5.8002,-0.1484,8.1051,-0.0414,0.0206,-0.1116,-2.392646928826803,0.0,5.032945156097412,-1.244319200515747,-0.0,1.8888773918151855,5.7124647972877405,-0.0,0.1694837510585785,-1.6872571150409144,0.0,0.0010972560849040747,0.47693437337875366,-0.0,9.79213509708643e-05,1.276609182357788,0.0,0.012715926393866539
313.0,355.0,-5.8642,-0.1753,8.1559,-0.0368,0.0215,-0.1165,-2.3926755390562953,0.0,5.010467529296875,-1.2442991733551025,-0.0,1.922365665435791,5.712520468025961,-0.0,0.17631497979164124,-1.6872451941119593,0.0,0.012010033242404461,0.4769747853279114,-0.0,0.00523238442838192,1.2766010761260986,0.0,0.0347338542342186
313.0,355.0,-5.8642,-0.1753,8.1559,-0.0368,0.0215,-0.1165,-2.3926755390562953,0.0,5.044168472290039,-1.244310975074768,-0.0,1.872091293334961,5.712456810265341,-0.0,0.18550127744674683,-1.687253777180807,0.0,0.02285735495388508,0.47699078917503357,-0.0,-0.002770067425444722,1.2765932083129883,0.0,-0.017445936799049377
313.0,355.0,-5.8642,-0.1753,8.1559,-0.0368,0.0215,-0.1165,-2.3926712475218714,0.0,5.072711944580078,-1.2442708015441895,-0.0,1.888474464416504,5.712476718216696,-0.0,0.1774936020374298,-1.6872571150409144,0.0,0.014541780576109886,0.47696298360824585,-0.0,-0.006696261465549469,1.2766170501708984,0.0,-0.008942432701587677
313.0,355.0,-5.8642,-0.1753,8.1559,-0.0368,0.0215,-0.1165,-2.3926426372923792,0.0,5.028911113739014,-1.2443151473999023,-0.0,1.9161105155944824,5.712452876358785,-0.0,0.17240260541439056,-1.687249485646383,0.0,0.009955156594514847,0.47699904441833496,-0.0,-0.00530270067974925,1.2765932083129883,0.0,-0.016687996685504913
313.0,355.0,-5.8642,-0.1753,8.1559,-0.0368,0.0215,-0.1165,-2.392679353753561,0.0,5.010387420654297,-1.2443352937698364,-0.0,1.9159018993377686,5.712476718216696,-0.0,0.1757064163684845,-1.6872413794146937,0.0,0.016280286014080048,0.47697895765304565,-0.0,0.0013523221714422107,1.276617407798767,0.0,-0.03864350542426109
313.0,355.0,-5.8642,-0.1753,8.1559,-0.0368,0.0215,-0.1165,-2.3926106892027796,0.0,5.000826835632324,-1.2443270683288574,-0.0,1.8965482711791992,5.712476718216696,-0.0,0.1686938852071762,-1.6872533003436487,0.0,0.010664324276149273,0.4770313501358032,-0.0,0.00504886731505394,1.2765851020812988,0.0,-0.005420026369392872
313.0,355.0,-5.8642,-0.1753,8.1559,-0.0368,0.0215,-0.1165,-2.3926755390562953,0.0,5.061833381652832,-1.244278907775879,-0.0,1.8763962984085083,5.712472665100851,-0.0,0.18019816279411316,-1.6872451941119593,0.0,0.010524635203182697,0.4770272970199585,-0.0,-0.00550013966858387,1.2766133546829224,0.0,-0.030727023258805275
313.0,355.0,-5.8642,-0.1753,8.1559,-0.0368,0.0215,-0.1165,-2.3926388225951136,0.0,5.074953079223633,-1.2443114519119263,-0.0,1.8987332582473755,5.712452876358785,-0.0,0.18386608362197876,-1.6872132460223597,0.0,0.017714204266667366,0.4769751727581024,-0.0,-0.004821851383894682,1.2766211032867432,0.0,0.0187889002263546
313.0,355.0,-5.8642,-0.1753,8.1559,-0.0368,0.0215,-0.1165,-2.392663141290182,0.0,5.003595352172852,-1.2442913055419922,-0.0,1.8645434379577637,5.712520468025961,-0.0,0.18558579683303833,-1.6872614065753382,0.0,0.005208885762840509,0.47700682282447815,-0.0,-0.0003435082617215812,1.2766170501708984,0.0,-0.00047489162534475327
313.0,355.0,-5.8642,-0.1753,8.1559,-0.0368,0.0215,-0.1165,-2.392658849755758,0.0,5.016404151916504,-1.2442872524261475,-0.0,1.8415188789367676,5.712452876358785,-0.0,0.17861145734786987,-1.6872332731830042,0.0,0.0044789863750338554,0.47698304057121277,-0.0,0.010536136105656624,1.276581048965454,0.0,0.008263704366981983
313.0,355.0,-5.8642,-0.1753,8.1559,-0.0368,0.0215,-0.1165,-2.3926149807372035,0.0,5.034844398498535,-1.244318962097168,-0.0,1.8584445714950562,5.712508547097006,-0.0,0.17839506268501282,-1.687265698109762,0.0,0.008961673825979233,0.476991206407547,-0.0,0.0018045245669782162,1.2766214609146118,0.0,-0.02873828634619713
313.0,355.0,-5.8642,-0.1753,8.1559,-0.0368,0.0215,-0.1165,-2.3926426372923792,0.0,5.062345027923584,-1.244319200515747,-0.0,1.9177379608154297,5.712488639145651,-0.0,0.18754202127456665,-1.6872814337359827,0.0,0.02666020765900612,0.47700679302215576,-0.0,0.0003030735533684492,1.2765891551971436,0.0,0.014964797534048557
313.0,355.0,-5.8642,-0.1753,8.1559,-0.0368,0.0215,-0.1165,-2.3926669559874476,0.0,5.027872085571289,-1.2442831993103027,-0.0,1.86260187625885,5.712436902313986,-0.0,0.17665880918502808,-1.6873095671283167,0.0,0.012388203293085098,0.4770354926586151,-0.0,-0.004327385686337948,1.2766051292419434,0.0,0.017584143206477165
318.0,341.0,-5.8044,-0.1167,8.0662,-0.0325,0.0263,-0.1153,-2.3926149807372035,0.0,5.01931619644165,-1.2442872524261475,-0.0,1.9056222438812256,5.712500560074606,-0.0,0.1770109087228775,-1.6872175375567835,0.0,0.01511362288147211,0.4769710302352905,-0.0,-0.006820276379585266,1.2765772342681885,0.0,0.019510235637426376
318.0,341.0,-5.8044,-0.1167,8.0662,-0.0325,0.0263,-0.1153,-2.39263453106069,0.0,5.039429187774658,-1.2443549633026123,-0.0,1.8566175699234009,5.712488639145651,-0.0,0.18656852841377258,-1.6872132460223597,0.0,0.012866206467151642,0.47697895765304565,-0.0,0.0013330131769180298,1.2766411304473877,0.0,0.023796988651156425
318.0,341.0,-5.8044,-0.1167,8.0662,-0.0325,0.0263,-0.1153,-2.3926712475218714,0.0,5.054913520812988,-1.2443476915359497,-0.0,1.9049906730651855,5.712456810265341,-0.0,0.17784348130226135,-1.6872695128070276,0.0,0.024493802338838577,0.4770473539829254,-0.0,-0.008416273631155491,1.276572823524475,0.0,0.007450828328728676
318.0,341.0,-5.8044,-0.1167,8.0662,-0.0325,0.0263,-0.1153,-2.3926426372923792,0.0,5.04656457901001,-1.2442790269851685,-0.0,1.8604943752288818,5.712468850403585,-0.0,0.18137003481388092,-1.6872294584857386,0.0,0.025243090465664864,0.47692686319351196,-0.0,0.0011050913017243147,1.2765891551971436,0.0,-0.020493224263191223
318.0,341.0,-5.8044,-0.1167,8.0662,-0.0325,0.0263,-0.1153,-2.3926712475218714,0.0,5.044974327087402,-1.2443435192108154,-0.0,1.8573133945465088,5.712488639145651,-0.0,0.18621858954429626,-1.687265698109762,0.0,0.002287834184244275,0.4770272970199585,-0.0,-0.003592466004192829,1.276645302772522,0.0,-0.06560401618480682
318.0,341.0,-5.8044,-0.1167,8.0662,-0.0325,0.0263,-0.1153,-2.3926269016661585,0.0,5.056077480316162,-1.2443394660949707,-0.0,1.9035471677780151,5.712500560074606,-0.0,0.1894681751728058,-1.6872337500201624,0.0,0.011762285605072975,0.4769383370876312,-0.0,0.0024239560589194298,1.2766247987747192,0.0,-0.013876384124159813
318.0,341.0,-5.8044,-0.1167,8.0662,-0.0325,0.0263,-0.1153,-2.392646928826803,0.0,5.038314342498779,-1.2443312406539917,-0.0,1.8608776330947876,5.712484586029806,-0.0,0.16888171434402466,-1.6872895399676722,0.0,0.007388671860098839,0.4769507348537445,-0.0,0.010719379410147667,1.276581048965454,0.0,-0.009636242873966694
318.0,341.0,-5.8044,-0.1167,8.0662,-0.0325,0.0263,-0.1153,-2.3926712475218714,0.0,5.052737712860107,-1.2443032264709473,-0.0,1.8674522638320923,5.712448823242941,-0.0,0.17336505651474,-1.6872614065753382,0.0,0.013751640915870667,0.47697481513023376,-0.0,-0.001389054348692298,1.2766129970550537,0.0,0.004606693983078003
318.0,341.0,-5.8044,-0.1167,8.0662,-0.0325,0.0263,-0.1153,-2.3926879368224085,0.0,5.018796920776367,-1.2443312406539917,-0.0,1.869926929473877,5.712452876358785,-0.0,0.176524817943573,-1.687249485646383,0.0,0.018422823399305344,0.4769470691680908,-0.0,-0.001149783842265606,1.2766247987747192,0.0,0.03129054605960846
318.0,341.0,-5.8044,-0.1167,8.0662,-0.0325,0.0263,-0.1153,-2.3926426372923792,0.0,5.0647478103637695,-1.2443028688430786,-0.0,1.8870149850845337,5.712456810265341,-0.0,0.17344176769256592,-1.6872451941119593,0.0,0.0007044553058221936,0.4769871234893799,-0.0,-0.012339065782725811,1.2766330242156982,0.0,-0.017390474677085876
318.0,341.0,-5.8044,-0.1167,8.0662,-0.0325,0.0263,-0.1153,-2.392663141290182,0.0,5.013913154602051,-1.2443032264709473,-0.0,1.865383267402649,5.712508547097006,-0.0,0.1816895604133606,-1.687265698109762,0.0,0.02588701620697975,0.476991206407547,-0.0,-0.010865254327654839,1.276625156402588,0.0,0.029413877055048943
318.0,341.0,-5.8044,-0.1167,8.0662,-0.0325,0.0263,-0.1153,-2.392651220361227,0.0,5.007469654083252,-1.244319200515747,-0.0,1.9106587171554565,5.712460863381185,-0.0,0.16793695092201233,-1.6872933546649378,0.0,0.010133951902389526,0.47695890069007874,-0.0,0.005745925009250641,1.276569128036499,0.0,-0.012613191269338131
318.0,341.0,-5.8044,-0.1167,8.0662,-0.0325,0.0263,-0.1153,-2.392658849755758,0.0,5.064648628234863,-1.2443352937698364,-0.0,1.8814893960952759,5.712468731194296,-0.0,0.16614723205566406,-1.687277619038717,0.0,0.01697724126279354,0.4769871234893799,-0.0,0.007519335951656103,1.2766411304473877,0.0,-0.0257496926933527
292.0,341.0,-5.7649,-0.1621,8.126,-0.0388,0.0238,-0.1104,-2.392663141290182,0.0,5.0113525390625,-1.2442547082901,-0.0,1.8998725414276123,5.71247278431014,-0.0,0.18488745391368866,-1.6872571150409144,0.0,0.010531810112297535,0.4770031273365021,-0.0,-0.002620127983391285,1.2766170501708984,0.0,-0.005542398430407047
292.0,341.0,-5.7649,-0.1621,8.126,-0.0388,0.0238,-0.1104,-2.3925987682738246,0.0,5.0457353591918945,-1.2443312406539917,-0.0,1.866336464881897,5.712532388954916,-0.0,0.1850193738937378,-1.6872738043414515,0.0,-0.009728727862238884,0.4770432412624359,-0.0,0.004403219558298588,1.2765932083129883,0.0,-0.024455886334180832
292.0,341.0,-5.7649,-0.1621,8.126,-0.0388,0.0238,-0.1104,-2.3926712475218714,0.0,5.052004337310791,-1.2443032264709473,-0.0,1.905956745147705,5.712476718216696,-0.0,0.18216758966445923,-1.6872251669513147,0.0,0.01433592103421688,0.4769629240036011,-0.0,-0.008432409726083279,1.2766211032867432,0.0,-0.013429905287921429
292.0,341.0,-5.7649,-0.1621,8.126,-0.0388,0.0238,-0.1104,-2.3926269016661585,0.0,5.0064005851745605,-1.244310975074768,-0.0,1.8315093517303467,5.712456810265341,-0.0,0.18043994903564453,-1.6872857252704065,0.0,0.0036122037563472986,0.47706738114356995,-0.0,0.0021438822150230408,1.2765529155731201,0.0,0.007713512051850557
292.0,341.0,-5.7649,-0.1621,8.126,-0.0388,0.0238,-0.1104,-2.392630716363424,0.0,5.038443565368652,-1.2443032264709473,-0.0,1.8719794750213623,5.712492573052206,-0.0,0.16915452480316162,-1.687265698109762,0.0,0.008627234026789665,0.4769588112831116,-0.0,0.00293784961104393,1.2765647172927856,0.0,-0.004182133357971907
292.0,341.0,-5.7649,-0.1621,8.126,-0.0388,0.0238,-0.1104,-2.39269556621694,0.0,5.041079998016357,-1.2443435192108154,-0.0,1.8554813861846924,5.7124847052390955,-0.0,0.1789916753768921,-1.6872895399676722,0.0,0.005694026593118906,0.47700682282447815,-0.0,-0.001433216966688633,1.276609182357788,0.0,0.016643211245536804
292.0,341.0,-5.7649,-0.1621,8.126,-0.0388,0.0238,-0.1104,-2.3926836452879847,0.0,5.027478218078613,-1.2442790269851685,-0.0,1.9075822830200195,5.712480652123251,-0.0,0.18648239970207214,-1.6872451941119593,0.0,-0.007314200047403574,0.4770231544971466,-0.0,-0.0002584611065685749,1.2765851020812988,0.0,0.01785530149936676
292.0,341.0,-5.7649,-0.1621,8.126,-0.0388,0.0238,-0.1104,-2.392646928826803,0.0,5.062082290649414,-1.2443270683288574,-0.0,1.8723185062408447,5.71244095542983,-0.0,0.18545860052108765,-1.687265698109762,0.0,0.009287122637033463,0.47699904441833496,-0.0,-0.008784915320575237,1.2766051292419434,0.0,-0.003549855202436447
292.0,341.0,-5.7649,-0.1621,8.126,-0.0388,0.0238,-0.1104,-2.3926149807372035,0.0,5.048311233520508,-1.2442547082901,-0.0,1.8879584074020386,5.71244894245223,-0.0,0.17731252312660217,-1.6872451941119593,0.0,0.0193076953291893,0.4770191013813019,-0.0,-0.005946965888142586,1.2765768766403198,0.0,-0.016944769769906998
292.0,341.0,-5.7649,-0.1621,8.126,-0.0388,0.0238,-0.1104,-2.3926149807372035,0.0,5.039196491241455,-1.2442909479141235,-0.0,1.8418586254119873,5.712468731194296,-0.0,0.15986815094947815,-1.6872413794146937,0.0,0.026194250211119652,0.47699904441833496,-0.0,0.0057367924600839615,1.2766211032867432,0.0,-0.009498517960309982
292.0,341.0,-5.7649,-0.1621,8.126,-0.0388,0.0238,-0.1104,-2.392663141290182,0.0,5.018313407897949,-1.2442790269851685,-0.0,1.9173636436462402,5.71244095542983,-0.0,0.16440092027187347,-1.6872533003436487,0.0,0.013040938414633274,0.47702735662460327,-0.0,-0.002651213202625513,1.2765891551971436,0.0,-0.0495464950799942
292.0,341.0,-5.7649,-0.1621,8.126,-0.0388,0.0238,-0.1104,-2.392646928826803,0.0,5.0300703048706055,-1.2442909479141235,-0.0,1.8648723363876343,5.712448823242941,-0.0,0.1658095121383667,-1.6872571150409144,0.0,0.019774004817008972,0.4769871234893799,-0.0,-0.010923653841018677,1.2766247987747192,0.0,-0.03778432309627533
292.0,341.0,-5.7649,-0.1621,8.126,-0.0388,0.0238,-0.1104,-2.3926426372923792,0.0,5.008566856384277,-1.2442991733551025,-0.0,1.9244704246520996,5.712448823242941,-0.0,0.18458111584186554,-1.6872413794146937,0.0,0.023927461355924606,0.4770354628562927,-0.0,0.017358791083097458,1.2765687704086304,0.0,0.0034443517215549946
292.0,341.0,-5.7649,-0.1621,8.126,-0.0388,0.0238,-0.1104,-2.3926426372923792,0.0,5.0541672706604,-1.2443796396255493,-0.0,1.8722481727600098,5.712437021523275,-0.0,0.17997978627681732,-1.6872857252704065,0.0,0.005412396974861622,0.4770313501358032,-0.0,-0.0037451216485351324,1.276625156402588,0.0,-0.06813058257102966
294.0,334.0,-5.8439,-0.1334,8.0895,-0.0418,0.0261,-0.1184,-2.392658849755758,0.0,5.026457786560059,-1.244327425956726,-0.0,1.8914341926574707,5.7124966261680505,-0.0,0.192448228597641,-1.687253777180807,0.0,0.014239966869354248,0.4770031273365021,-0.0,0.002370669972151518,1.2766051292419434,0.0,-0.005856705363839865
294.0,334.0,-5.8439,-0.1334,8.0895,-0.0418,0.0261,-0.1184,-2.3926269016661585,0.0,5.022365093231201,-1.2442988157272339,-0.0,1.862267017364502,5.712512481003561,-0.0,0.19301004707813263,-1.6872857252704065,0.0,0.0035674278624355793,0.47694259881973267,-0.0,0.009772496297955513,1.276569128036499,0.0,0.004636869300156832
294.0,334.0,-5.8439,-0.1334,8.0895,-0.0418,0.0261,-0.1184,-2.392646928826803,0.0,5.020217418670654,-1.2442868947982788,-0.0,1.9283437728881836,5.712437021523275,-0.0,0.18233060836791992,-1.687277619038717,0.0,0.0017796334577724338,0.4769911468029022,-0.0,-0.008582154288887978,1.2766211032867432,0.0,-0.03910719230771065
294.0,334.0,-5.8439,-0.1334,8.0895,-0.0418,0.0261,-0.1184,-2.3926106892027796,0.0,5.036617755889893,-1.2443032264709473,-0.0,1.8605930805206299,5.7124966261680505,-0.0,0.17664717137813568,-1.687265698109762,0.0,0.015431341715157032,0.4770030975341797,-0.0,-0.006626486778259277,1.2765851020812988,0.0,0.007447544019669294
294.0,334.0,-5.8439,-0.1334,8.0895,-0.0418,0.0261,-0.1184,-2.392679353753561,0.0,5.0032453536987305,-1.2442671060562134,-0.0,1.8761039972305298,5.7124249813850305,-0.0,0.1806161105632782,-1.6872451941119593,0.0,0.012765131890773773,0.4769588112831116,-0.0,-0.0012337977532297373,1.276633381843567,0.0,-0.017505424097180367
294.0,334.0,-5.8439,-0.1334,8.0895,-0.0418,0.0261,-0.1184,-2.392635007897848,0.0,5.033925533294678,-1.244319200515747,-0.0,1.8229480981826782,5.712492692261495,-0.0,0.19488677382469177,-1.6872814337359827,0.0,-0.006511402782052755,0.4769630432128906,-0.0,-0.0091744689270854,1.2766493558883667,0.0,0.0022880584001541138
294.0,334.0,-5.8439,-0.1334,8.0895,-0.0418,0.0261,-0.1184,-2.39260258297109,0.0,5.068068027496338,-1.2443073987960815,-0.0,1.9042484760284424,5.712512481003561,-0.0,0.1772182583808899,-1.6872933546649378,0.0,0.018361639231443405,0.47700682282447815,-0.0,-0.00039505184395238757,1.2766133546829224,0.0,-0.043438758701086044
294.0,334.0,-5.8439,-0.1334,8.0895,-0.0418,0.0261,-0.1184,-2.392663141290182,0.0,5.04617977142334,-1.2442991733551025,-0.0,1.8674821853637695,5.712476718216696,-0.0,0.18692898750305176,-1.6872332731830042,0.0,0.008214429952204227,0.4769548177719116,-0.0,0.007125384174287319,1.276609182357788,0.0,-0.00924602523446083
294.0,334.0,-5.8439,-0.1334,8.0895,-0.0418,0.0261,-0.1184,-2.3926545582213343,0.0,5.000184059143066,-1.2443188428878784,-0.0,1.879883885383606,5.712460863381185,-0.0,0.18106406927108765,-1.687237564717428,0.0,0.004903243854641914,0.4769711494445801,-0.0,-3.6501267459243536e-05,1.2766095399856567,0.0,-0.019234150648117065
294.0,334.0,-5.8439,-0.1334,8.0895,-0.0418,0.0261,-0.1184,-2.392658849755758,0.0,5.099060535430908,-1.244307279586792,-0.0,1.8458831310272217,5.712512481003561,-0.0,0.193586066365242,-1.6872337500201624,0.0,0.0071200476959347725,0.47699904441833496,-0.0,-0.002141062868759036,1.276625156402588,0.0,0.018818311393260956
294.0,334.0,-5.8439,-0.1334,8.0895,-0.0418,0.0261,-0.1184,-2.392635007897848,0.0,5.048585891723633,-1.2443393468856812,-0.0,1.9203405380249023,5.712492573052206,-0.0,0.16992568969726562,-1.6872294584857386,0.0,0.002078769728541374,0.4769911766052246,-0.0,0.0027303206734359264,1.2765891551971436,0.0,-0.009892571717500687
294.0,334.0,-5.8439,-0.1334,8.0895,-0.0418,0.0261,-0.1184,-2.392658849755758,0.0,5.038311004638672,-1.2442991733551025,-0.0,1.8610286712646484,5.712492573052206,-0.0,0.18089419603347778,-1.687265698109762,0.0,0.015266011469066143,0.47703951597213745,-0.0,-0.012996305711567402,1.2765650749206543,0.0,0.004636840894818306
294.0,334.0,-5.8439,-0.1334,8.0895,-0.0418,0.0261,-0.1184,-2.3926273785033167,0.0,4.99785041809082,-1.2442991733551025,-0.0,1.923516869544983,5.712476718216696,-0.0,0.1718273162841797,-1.6872814337359827,0.0,0.01322968490421772,0.47692692279815674,-0.0,-0.001690322533249855,1.2765851020812988,0.0,-0.022133851423859596
312.0,347.0,-5.7697,-0.1537,8.0758,-0.0385,0.0272,-0.1179,-2.3926507435240687,0.0,5.090138912200928,-1.2443394660949707,-0.0,1.8934075832366943,5.7124966261680505,-0.0,0.1845068633556366,-1.6872571150409144,0.0,0.009241864085197449,0.47699081897735596,-0.0,-0.006632035598158836,1.2765768766403198,0.0,-0.03424326702952385
312.0,347.0,-5.7697,-0.1537,8.0758,-0.0385,0.0272,-0.1179,-2.392646928826803,0.0,5.030320167541504,-1.2443631887435913,-0.0,1.8780157566070557,5.712468731194296,-0.0,0.17976215481758118,-1.687277619038717,0.0,0.00154570781160146,0.47699904441833496,-0.0,-0.0013148658908903599,1.276673436164856,0.0,-0.0025608749128878117
312.0,347.0,-5.7697,-0.1537,8.0758,-0.0385,0.0272,-0.1179,-2.3926712475218714,0.0,5.014284133911133,-1.2443312406539917,-0.0,1.882371425628662,5.712460863381185,-0.0,0.18983180820941925,-1.6872332731830042,0.0,0.018764309585094452,0.4769871234893799,-0.0,-0.0010809400118887424,1.2765932083129883,0.0,0.011419667862355709
312.0,347.0,-5.7697,-0.1537,8.0758,-0.0385,0.0272,-0.1179,-2.3926755390562953,0.0,5.0438432693481445,-1.244310975074768,-0.0,1.9004418849945068,5.712460863381185,-0.0,0.17561747133731842,-1.6872895399676722,0.0,0.00902988575398922,0.47699907422065735,-0.0,-0.008965609595179558,1.2766010761260986,0.0,-0.04028116166591644
312.0,347.0,-5.7697,-0.1537,8.0758,-0.0385,0.0272,-0.1179,-2.39269556621694,0.0,5.039001941680908,-1.244279384613037,-0.0,1.8707852363586426,5.712456810265341,-0.0,0.18236786127090454,-1.687237564717428,0.0,0.009555874392390251,0.4769708216190338,-0.0,-0.006942455656826496,1.2765932083129883,0.0,0.01381249912083149
312.0,347.0,-5.7697,-0.1537,8.0758,-0.0385,0.0272,-0.1179,-2.3926998577513636,0.0,5.026360511779785,-1.2443032264709473,-0.0,1.886818289756775,5.7124966261680505,-0.0,0.1901492476463318,-1.6872337500201624,0.0,0.0218741986900568,0.47701504826545715,-0.0,-0.00941572617739439,1.2765851020812988,0.0,0.017785657197237015
312.0,347.0,-5.7697,-0.1537,8.0758,-0.0385,0.0272,-0.1179,-2.392658849755758,0.0,5.025521278381348,-1.244351863861084,-0.0,1.8522851467132568,5.712488639145651,-0.0,0.18416711688041687,-1.6872413794146937,0.0,0.00897985976189375,0.47703537344932556,-0.0,-0.0010359364096075296,1.276581048965454,0.0,-0.00018256297335028648
312.0,347.0,-5.7697,-0.1537,8.0758,-0.0385,0.0272,-0.1179,-2.392675062219137,0.0,5.092062950134277,-1.2442469596862793,-0.0,1.8797085285186768,5.71247278431014,-0.0,0.18195028603076935,-1.6872690359698694,0.0,0.006974018178880215,0.47695890069007874,-0.0,0.004658899269998074,1.2766051292419434,0.0,0.010645057074725628
312.0,347.0,-5.7697,-0.1537,8.0758,-0.0385,0.0272,-0.1179,-2.3926545582213343,0.0,5.040640830993652,-1.2443113327026367,-0.0,1.8822839260101318,5.712492692261495,-0.0,0.18455934524536133,-1.6872814337359827,0.0,0.008581215515732765,0.47699904441833496,-0.0,0.01094829011708498,1.2765932083129883,0.0,0.013428155332803726
312.0,347.0,-5.7697,-0.1537,8.0758,-0.0385,0.0272,-0.1179,-2.3926755390562953,0.0,4.997045040130615,-1.2443352937698364,-0.0,1.9164891242980957,5.712452876358785,-0.0,0.1885397583246231,-1.687249485646383,0.0,0.009098207578063011,0.47694674134254456,-0.0,0.0038597609382122755,1.276560664176941,0.0,-0.015353001654148102
312.0,347.0,-5.7697,-0.1537,8.0758,-0.0385,0.0272,-0.1179,-2.3926712475218714,0.0,5.010538101196289,-1.2443069219589233,-0.0,1.8599193096160889,5.712468850403585,-0.0,0.17393858730793,-1.6872571150409144,0.0,0.0004831062979064882,0.4770231246948242,-0.0,0.005425883922725916,1.2765928506851196,0.0,0.040828946977853775
312.0,347.0,-5.7697,-0.1537,8.0758,-0.0385,0.0272,-0.1179,-2.392630716363424,0.0,5.079347610473633,-1.2442831993103027,-0.0,1.8621325492858887,5.712452757149496,-0.0,0.17779317498207092,-1.6872738043414515,0.0,0.007901125587522984,0.4769871234893799,-0.0,0.012793057598173618,1.276637077331543,0.0,0.01913273334503174
312.0,347.0,-5.7697,-0.1537,8.0758,-0.0385,0.0272,-0.1179,-2.3926149807372035,0.0,5.065378665924072,-1.244310975074768,-0.0,1.8791358470916748,5.7124847052390955,-0.0,0.18161776661872864,-1.687265698109762,0.0,0.01731591857969761,0.47695890069007874,-0.0,-0.005732577294111252,1.2765932083129883,0.0,-0.013017579913139343
297.0,333.0,-5.8056,-0.1848,8.0602,-0.0467,0.0195,-0.1187,-2.3926593265929164,0.0,5.074728965759277,-1.2442909479141235,-0.0,1.8454875946044922,5.712480652123251,-0.0,0.18083472549915314,-1.6872571150409144,0.0,-0.004649291280657053,0.4769911766052246,-0.0,-0.004538057371973991,1.2765768766403198,0.0,-0.01803544908761978
297.0,333.0,-5.8056,-0.1848,8.0602,-0.0467,0.0195,-0.1187,-2.3926269016661585,0.0,5.019983291625977,-1.2443312406539917,-0.0,1.8728511333465576,5.712440836220541,-0.0,0.18454113602638245,-1.6872895399676722,0.0,0.01824813522398472,0.4770190715789795,-0.0,-0.0030732492450624704,1.2766051292419434,0.0,-0.020857306197285652
297.0,333.0,-5.8056,-0.1848,8.0602,-0.0467,0.0195,-0.1187,-2.392663141290182,0.0,5.068270206451416,-1.2443270683288574,-0.0,1.83633553981781,5.712476718216696,-0.0,0.19001397490501404,-1.687249485646383,0.0,0.014370928518474102,0.4769953191280365,-0.0,-0.00914236344397068,1.2765851020812988,0.0,-0.027656471356749535
297.0,333.0,-5.8056,-0.1848,8.0602,-0.0467,0.0195,-0.1187,-2.392651220361227,0.0,5.035885334014893,-1.2443069219589233,-0.0,1.8858262300491333,5.712452876358785,-0.0,0.18682906031608582,-1.6872213522540491,0.0,0.008806158788502216,0.47699499130249023,-0.0,0.005012888461351395,1.2765891551971436,0.0,-0.0020194584503769875
297.0,333.0,-5.8056,-0.1848,8.0602,-0.0467,0.0195,-0.1187,-2.392639299432272,0.0,5.057819366455078,-1.2443591356277466,-0.0,1.8818516731262207,5.712520468025961,-0.0,0.18238544464111328,-1.687249485646383,0.0,0.00254452065564692,0.47703537344932556,-0.0,-0.008321843110024929,1.2765568494796753,0.0,-0.00848587416112423
297.0,333.0,-5.8056,-0.1848,8.0602,-0.0467,0.0195,-0.1187,-2.392658849755758,0.0,5.033256530761719,-1.2443270683288574,-0.0,1.893681287765503,5.71250461319045,-0.0,0.186757892370224,-1.6872533003436487,0.0,0.008991052396595478,0.47698307037353516,-0.0,0.00802033580839634,1.27660071849823,0.0,0.038959380239248276
297.0,333.0,-5.8056,-0.1848,8.0602,-0.0467,0.0195,-0.1187,-2.392618795434469,0.0,5.072301387786865,-1.2442872524261475,-0.0,1.8275156021118164,5.712488639145651,-0.0,0.17310139536857605,-1.6872370878802698,0.0,0.006532683968544006,0.4770394265651703,-0.0,0.0008385052205994725,1.2766051292419434,0.0,0.029063168913125992
297.0,333.0,-5.8056,-0.1848,8.0602,-0.0467,0.0195,-0.1187,-2.3926669559874476,0.0,5.062481880187988,-1.2443755865097046,-0.0,1.9085640907287598,5.712468731194296,-0.0,0.17398902773857117,-1.6872533003436487,0.0,0.005746987648308277,0.47696709632873535,-0.0,-0.0011900917161256075,1.2766211032867432,0.0,0.027629107236862183
297.0,333.0,-5.8056,-0.1848,8.0602,-0.0467,0.0195,-0.1187,-2.3926269016661585,0.0,5.001471042633057,-1.2443435192108154,-0.0,1.8742059469223022,5.712472665100851,-0.0,0.18315139412879944,-1.6872857252704065,0.0,0.007698783650994301,0.4769711494445801,-0.0,-0.003585081547498703,1.2765851020812988,0.0,-0.06250175088644028
297.0,333.0,-5.8056,-0.1848,8.0602,-0.0467,0.0195,-0.1187,-2.392646928826803,0.0,4.991596698760986,-1.2442991733551025,-0.0,1.9120391607284546,5.712500679283895,-0.0,0.19476118683815002,-1.6871970335589808,0.0,0.013644545339047909,0.4769790470600128,-0.0,-0.010624421760439873,1.276625156402588,0.0,0.03072594664990902
297.0,333.0,-5.8056,-0.1848,8.0602,-0.0467,0.0195,-0.1187,-2.3926149807372035,0.0,5.049683570861816,-1.2442950010299683,-0.0,1.8683760166168213,5.712484586029806,-0.0,0.17214184999465942,-1.6872451941119593,0.0,0.014681891538202763,0.4769871234893799,-0.0,-0.0051663885824382305,1.276609182357788,0.0,0.026325197890400887
297.0,333.0,-5.8056,-0.1848,8.0602,-0.0467,0.0195,-0.1187,-2.392630716363424,0.0,5.051961898803711,-1.2443352937698364,-0.0,1.863987684249878,5.712476837425985,-0.0,0.17512068152427673,-1.6872733275042933,0.0,0.01244385540485382,0.47694674134254456,-0.0,0.010751865804195404,1.2766211032867432,0.0,0.02742418460547924
297.0,333.0,-5.8056,-0.1848,8.0602,-0.0467,0.0195,-0.1187,-2.392679353753561,0.0,5.008822441101074,-1.244307279586792,-0.0,1.8418478965759277,5.712472665100851,-0.0,0.18836836516857147,-1.6872370878802698,0.0,0.0036401317920535803,0.4769749343395233,-0.0,-0.0037987849209457636,1.2766293287277222,0.0,0.03744134306907654
303.0,354.0,-5.8385,-0.1519,8.1458,-0.0379,0.0279,-0.1144,-2.392679353753561,0.0,5.0445427894592285,-1.2443151473999023,-0.0,1.8523380756378174,5.712452757149496,-0.0,0.18423765897750854,-1.6872533003436487,0.0,0.013075817376375198,0.4769711494445801,-0.0,0.002458994509652257,1.276665449142456,0.0,-0.0457935594022274
303.0,354.0,-5.8385,-0.1519,8.1458,-0.0379,0.0279,-0.1144,-2.3926106892027796,0.0,5.072879314422607,-1.2443312406539917,-0.0,1.85988450050354,5.7124448893363855,-0.0,0.18000948429107666,-1.6872614065753382,0.0,0.00565399881452322,0.47701913118362427,-0.0,-0.00012078089639544487,1.276645302772522,0.0,-0.03055155836045742
303.0,354.0,-5.8385,-0.1519,8.1458,-0.0379,0.0279,-0.1144,-2.392658849755758,0.0,4.999693870544434,-1.2443435192108154,-0.0,1.870683193206787,5.712508547097006,-0.0,0.1820233166217804,-1.6872571150409144,0.0,0.009433647617697716,0.47698304057121277,-0.0,-0.003882594406604767,1.2765891551971436,0.0,-0.021428696811199188
303.0,354.0,-5.8385,-0.1519,8.1458,-0.0379,0.0279,-0.1144,-2.3926836452879847,0.0,5.031500816345215,-1.2443509101867676,-0.0,1.8974721431732178,5.712476837425985,-0.0,0.18350884318351746,-1.6872976461993616,0.0,0.011791366152465343,0.47696298360824585,-0.0,0.002093459479510784,1.2766211032867432,0.0,0.02417898178100586
303.0,354.0,-5.8385,-0.1519,8.1458,-0.0379,0.0279,-0.1144,-2.3926755390562953,0.0,5.045443058013916,-1.244310975074768,-0.0,1.8599116802215576,5.712460744171896,-0.0,0.17249666154384613,-1.6872294584857386,0.0,0.00790367554873228,0.4769630432128906,-0.0,-0.0028258359525352716,1.2765851020812988,0.0,-0.02736133523285389
303.0,354.0,-5.8385,-0.1519,8.1458,-0.0379,0.0279,-0.1144,-2.3926545582213343,0.0,5.055962562561035,-1.244258999824524,-0.0,1.9197368621826172,5.712476718216696,-0.0,0.16798962652683258,-1.6872213522540491,0.0,0.016924794763326645,0.4770191013813019,-0.0,0.00988253764808178,1.276625156402588,0.0,0.009307706728577614
303.0,354.0,-5.8385,-0.1519,8.1458,-0.0379,0.0279,-0.1144,-2.3926545582213343,0.0,5.016831874847412,-1.244335412979126,-0.0,1.8583929538726807,5.712452876358785,-0.0,0.1879788637161255,-1.6872132460223597,0.0,0.008226045407354832,0.4770272672176361,-0.0,-0.0009393054060637951,1.276609182357788,0.0,0.004872998222708702
303.0,354.0,-5.8385,-0.1519,8.1458,-0.0379,0.0279,-0.1144,-2.3926426372923792,0.0,5.064888954162598,-1.2442913055419922,-0.0,1.8849836587905884,5.712508547097006,-0.0,0.18188020586967468,-1.6872451941119593,0.0,0.0077636050991714,0.4770190715789795,-0.0,0.007670307531952858,1.2766051292419434,0.0,-0.004601241089403629
303.0,354.0,-5.8385,-0.1519,8.1458,-0.0379,0.0279,-0.1144,-2.3926269016661585,0.0,5.033092021942139,-1.244319200515747,-0.0,1.883333444595337,5.712452876358785,-0.0,0.18441568315029144,-1.687265698109762,0.0,0.0080898217856884,0.47699904441833496,-0.0,2.644304186105728e-05,1.2766170501708984,0.0,-0.031517572700977325
303.0,354.0,-5.8385,-0.1519,8.1458,-0.0379,0.0279,-0.1144,-2.392646928826803,0.0,5.05518913269043,-1.2443032264709473,-0.0,1.8564536571502686,5.712468731194296,-0.0,0.16850444674491882,-1.6872451941119593,0.0,-0.0011402906384319067,0.4770473539829254,-0.0,0.00556638790294528,1.2766010761260986,0.0,0.018554579466581345
303.0,354.0,-5.8385,-0.1519,8.1458,-0.0379,0.0279,-0.1144,-2.392663141290182,0.0,5.001306056976318,-1.2443032264709473,-0.0,1.9024732112884521,5.712472665100851,-0.0,0.1759326457977295,-1.6872337500201624,0.0,0.008805405348539352,0.47697901725769043,-0.0,-0.0001647123135626316,1.2765851020812988,0.0,0.004646993242204189
303.0,354.0,-5.8385,-0.1519,8.1458,-0.0379,0.0279,-0.1144,-2.392663141290182,0.0,5.044750213623047,-1.244310975074768,-0.0,1.8677688837051392,5.712445008545675,-0.0,0.1800229549407959,-1.6872895399676722,0.0,0.002864097710698843,0.47701096534729004,-0.0,0.003698519663885236,1.2765891551971436,0.0,-0.014737015590071678
303.0,354.0,-5.8385,-0.1519,8.1458,-0.0379,0.0279,-0.1144,-2.3926269016661585,0.0,5.012989044189453,-1.244270920753479,-0.0,1.8224718570709229,5.712432849198141,-0.0,0.18675895035266876,-1.6872695128070276,0.0,0.006979599129408598,0.477039098739624,-0.0,0.0036224189680069685,1.2766289710998535,0.0,-0.06487652659416199
311.0,335.0,-5.7488,-0.1501,8.1769,-0.0308,0.0243,-0.1109,-2.392606397668356,0.0,5.06105375289917,-1.244343638420105,-0.0,1.8962351083755493,5.712520468025961,-0.0,0.1938246488571167,-1.687277619038717,0.0,0.009649934247136116,0.476954847574234,-0.0,0.002252046950161457,1.2766010761260986,0.0,0.005978843197226524
311.0,335.0,-5.7488,-0.1501,8.1769,-0.0308,0.0243,-0.1109,-2.392658849755758,0.0,5.029495716094971,-1.2443394660949707,-0.0,1.890125036239624,5.712436902313986,-0.0,0.18192054331302643,-1.6872933546649378,0.0,0.005348192993551493,0.4770355224609375,-0.0,-0.00821579247713089,1.2765768766403198,0.0,0.015968207269906998
311.0,335.0,-5.7488,-0.1501,8.1769,-0.0308,0.0243,-0.1109,-2.392618318597311,0.0,5.0239644050598145,-1.2442749738693237,-0.0,1.8587501049041748,5.71248077133254,-0.0,0.17818030714988708,-1.6872337500201624,0.0,0.018119079992175102,0.47699081897735596,-0.0,-0.007496866397559643,1.2766132354736328,0.0,-0.010578797198832035
311.0,335.0,-5.7488,-0.1501,8.1769,-0.0308,0.0243,-0.1109,-2.392618795434469,0.0,5.032131195068359,-1.2442630529403687,-0.0,1.8434553146362305,5.7124966261680505,-0.0,0.18841439485549927,-1.6872738043414515,0.0,0.014815609902143478,0.4770031273365021,-0.0,-0.0024156812578439713,1.2765851020812988,0.0,0.019456515088677406
311.0,335.0,-5.7488,-0.1501,8.1769,-0.0308,0.0243,-0.1109,-2.392630716363424,0.0,5.034021377563477,-1.2443270683288574,-0.0,1.87693452835083,5.712492692261495,-0.0,0.1854199320077896,-1.6872413794146937,0.0,0.004424023441970348,0.477031409740448,-0.0,-0.0048671080730855465,1.276609182357788,0.0,-0.010071041993796825
311.0,335.0,-5.7488,-0.1501,8.1769,-0.0308,0.0243,-0.1109,-2.392658849755758,0.0,5.042032241821289,-1.244307279586792,-0.0,1.8664594888687134,5.712440836220541,-0.0,0.1841738522052765,-1.687265698109762,0.0,0.008038535714149475,0.4770030677318573,-0.0,0.000879320316016674,1.2766132354736328,0.0,0.026032112538814545
311.0,335.0,-5.7488,-0.1501,8.1769,-0.0308,0.0243,-0.1109,-2.3926269016661585,0.0,5.023598670959473,-1.2442630529403687,-0.0,1.8769071102142334,5.712452876358785,-0.0,0.19730213284492493,-1.6872451941119593,0.0,0.021015360951423645,0.4769989848136902,-0.0,0.00456480635330081,1.2766411304473877,0.0,0.004719777964055538
311.0,335.0,-5.7488,-0.1501,8.1769,-0.0308,0.0243,-0.1109,-2.392707487145895,0.0,5.033270359039307,-1.2442790269851685,-0.0,1.8679404258728027,5.712436902313986,-0.0,0.18850907683372498,-1.6872451941119593,0.0,0.007911067456007004,0.47699907422065735,-0.0,0.006450213026255369,1.2765973806381226,0.0,0.006419412791728973
311.0,335.0,-5.7488,-0.1501,8.1769,-0.0308,0.0243,-0.1109,-2.3926426372923792,0.0,5.010741233825684,-1.244278907775879,-0.0,1.884002685546875,5.712468731194296,-0.0,0.18083184957504272,-1.6872614065753382,0.0,0.0012606808450073004,0.47699904441833496,-0.0,-0.004821685142815113,1.2766013145446777,0.0,-0.045194678008556366
311.0,335.0,-5.7488,-0.1501,8.1769,-0.0308,0.0243,-0.1109,-2.392651220361227,0.0,5.035768508911133,-1.2442748546600342,-0.0,1.9053229093551636,5.712488639145651,-0.0,0.17908650636672974,-1.6872814337359827,0.0,-0.007021655328571796,0.4770030975341797,-0.0,-0.006053558550775051,1.276581048965454,0.0,-0.007807692047208548
311.0,335.0,-5.7488,-0.1501,8.1769,-0.0308,0.0243,-0.1109,-2.3926106892027796,0.0,5.053094863891602,-1.244307279586792,-0.0,1.8511568307876587,5.712460744171896,-0.0,0.16567310690879822,-1.6872733275042933,0.0,-0.0049237157218158245,0.4770674705505371,-0.0,0.00015337776858359575,1.276581048965454,0.0,0.0061101955361664295
311.0,335.0,-5.7488,-0.1501,8.1769,-0.0308,0.0243,-0.1109,-2.392651220361227,0.0,5.022341251373291,-1.2443393468856812,-0.0,1.8349075317382812,5.712500679283895,-0.0,0.18692547082901,-1.6871932188617151,0.0,0.006059417966753244,0.47700273990631104,-0.0,0.0038452940061688423,1.276637077331543,0.0,0.015310866758227348
311.0,335.0,-5.7488,-0.1501,8.1769,-0.0308,0.0243,-0.1109,-2.392658849755758,0.0,5.003831386566162,-1.2443476915359497,-0.0,1.870133876800537,5.712472665100851,-0.0,0.1834554672241211,-1.6872614065753382,0.0,0.006290856283158064,0.4769347310066223,-0.0,-0.0059960028156638145,1.2765891551971436,0.0,0.0005381982773542404
308.0,353.0,-5.8205,-0.1992,8.0183,-0.0357,0.0231,-0.1141,-2.3926149807372035,0.0,5.063548564910889,-1.2443314790725708,-0.0,1.8622674942016602,5.712460744171896,-0.0,0.19199898838996887,-1.6872533003436487,0.0,0.007086280267685652,0.47703543305397034,-0.0,0.006372564472258091,1.2766010761260986,0.0,-0.04022080451250076
308.0,353.0,-5.8205,-0.1992,8.0183,-0.0357,0.0231,-0.1141,-2.3926426372923792,0.0,5.078503131866455,-1.2442913055419922,-0.0,1.8784797191619873,5.712508547097006,-0.0,0.18148592114448547,-1.6872575918780726,0.0,0.019765563309192657,0.47697895765304565,-0.0,0.011214655824005604,1.2765932083129883,0.0,-0.041622038930654526
308.0,353.0,-5.8205,-0.1992,8.0183,-0.0357,0.0231,-0.1141,-2.392658849755758,0.0,5.034267425537109,-1.244351863861084,-0.0,1.8167123794555664,5.712532508164205,-0.0,0.1747320145368576,-1.6872814337359827,0.0,0.017261095345020294,0.47701913118362427,-0.0,-0.005729379132390022,1.2766247987747192,0.0,0.002082464285194874
308.0,353.0,-5.8205,-0.1992,8.0183,-0.0357,0.0231,-0.1141,-2.3925987682738246,0.0,5.062329292297363,-1.2442872524261475,-0.0,1.8827767372131348,5.712440836220541,-0.0,0.18079490959644318,-1.6872814337359827,0.0,0.01929410733282566,0.476999431848526,-0.0,0.02146396040916443,1.2765932083129883,0.0,-0.018596278503537178
308.0,353.0,-5.8205,-0.1992,8.0183,-0.0357,0.0231,-0.1141,-2.3926507435240687,0.0,5.070122241973877,-1.2442991733551025,-0.0,1.88908052444458,5.7124647972877405,-0.0,0.18413123488426208,-1.687277619038717,0.0,0.010555755347013474,0.47695887088775635,-0.0,0.006870192475616932,1.27656888961792,0.0,-0.008951053023338318
308.0,353.0,-5.8205,-0.1992,8.0183,-0.0357,0.0231,-0.1141,-2.3926755390562953,0.0,5.039865970611572,-1.2443032264709473,-0.0,1.8967994451522827,5.7124966261680505,-0.0,0.17668521404266357,-1.6873052755938929,0.0,0.0022315620444715023,0.47699904441833496,-0.0,0.006063410080969334,1.2765851020812988,0.0,0.03263372182846069
308.0,353.0,-5.8205,-0.1992,8.0183,-0.0357,0.0231,-0.1141,-2.3926269016661585,0.0,5.024079322814941,-1.2442909479141235,-0.0,1.8219343423843384,5.712452757149496,-0.0,0.18716375529766083,-1.6872895399676722,0.0,0.012384648434817791,0.4769670367240906,-0.0,0.011884339153766632,1.2765891551971436,0.0,-0.004662323743104935
308.0,353.0,-5.8205,-0.1992,8.0183,-0.0357,0.0231,-0.1141,-2.392658849755758,0.0,5.042442321777344,-1.2443352937698364,-0.0,1.889471173286438,5.7124966261680505,-0.0,0.18532618880271912,-1.6872733275042933,0.0,0.001154082827270031,0.4770432710647583,-0.0,0.0074181635864079,1.2765729427337646,0.0,0.006426951847970486
308.0,353.0,-5.8205,-0.1992,8.0183,-0.0357,0.0231,-0.1141,-2.392723699609274,0.0,5.030131816864014,-1.2442429065704346,-0.0,1.8806287050247192,5.7124966261680505,-0.0,0.17571622133255005,-1.6872614065753382,0.0,0.0030288200359791517,0.47701913118362427,-0.0,-0.010815142653882504,1.2766010761260986,0.0,0.027820799499750137
308.0,353.0,-5.8205,-0.1992,8.0183,-0.0357,0.0231,-0.1141,-2.3926755390562953,0.0,5.04279899597168,-1.2443599700927734,-0.0,1.8778036832809448,5.712492692261495,-0.0,0.17940133810043335,-1.6872695128070276,0.0,0.01906084269285202,0.47699904441833496,-0.0,0.011220702901482582,1.2766013145446777,0.0,-0.008791310712695122
308.0,353.0,-5.8205,-0.1992,8.0183,-0.0357,0.0231,-0.1141,-2.392646928826803,0.0,5.02044677734375,-1.2442831993103027,-0.0,1.8895962238311768,5.71248077133254,-0.0,0.177590474486351,-1.6872695128070276,0.0,0.015679828822612762,0.4770674705505371,-0.0,0.010132478550076485,1.2765851020812988,0.0,0.032926708459854126
308.0,353.0,-5.8205,-0.1992,8.0183,-0.0357,0.0231,-0.1141,-2.3926550350584925,0.0,5.0154218673706055,-1.2443476915359497,-0.0,1.8615278005599976,5.7124647972877405,-0.0,0.1836792230606079,-1.6872814337359827,0.0,0.0036179739981889725,0.4770354628562927,-0.0,0.007703093346208334,1.2766132354736328,0.0,-0.009538628160953522
308.0,353.0,-5.8205,-0.1992,8.0183,-0.0357,0.0231,-0.1141,-2.3926836452879847,0.0,5.03997278213501,-1.2443838119506836,-0.0,1.905869960784912,5.71247278431014,-0.0,0.18972179293632507,-1.6872614065753382,0.0,0.00574882235378027,0.47700315713882446,-0.0,-0.01280190423130989,1.276637077331543,0.0,0.030706139281392097
304.0,340.0,-5.799,-0.1382,8.1888,-0.0327,0.0319,-0.1222,-2.3926712475218714,0.0,5.029234886169434,-1.244310975074768,-0.0,1.8897790908813477,5.712452876358785,-0.0,0.18910905718803406,-1.6872695128070276,0.0,-0.0006377808749675751,0.4769425392150879,-0.0,-0.003434395417571068,1.2765973806381226,0.0,0.05464444309473038
304.0,340.0,-5.799,-0.1382,8.1888,-0.0327,0.0319,-0.1222,-2.3926669559874476,0.0,5.021950721740723,-1.2443517446517944,-0.0,1.8959264755249023,5.712480652123251,-0.0,0.17733007669448853,-1.6872733275042933,0.0,0.006202400662004948,0.4769711196422577,-0.0,-0.0059932805597782135,1.2766292095184326,0.0,0.007151560392230749
304.0,340.0,-5.799,-0.1382,8.1888,-0.0327,0.0319,-0.1222,-2.3926669559874476,0.0,5.015614032745361,-1.2442593574523926,-0.0,1.804764986038208,5.712460744171896,-0.0,0.18328137695789337,-1.6872976461993616,0.0,0.009489323943853378,0.47705191373825073,-0.0,-0.004051863681524992,1.276625156402588,0.0,0.049936339259147644
304.0,340.0,-5.799,-0.1382,8.1888,-0.0327,0.0319,-0.1222,-2.3926426372923792,0.0,5.027019500732422,-1.2442950010299683,-0.0,1.895557165145874,5.712488639145651,-0.0,0.18018171191215515,-1.6872413794146937,0.0,0.011417971923947334,0.4769950211048126,-0.0,0.0020794034935534,1.2765768766403198,0.0,0.02057645283639431
304.0,340.0,-5.799,-0.1382,8.1888,-0.0327,0.0319,-0.1222,-2.392651220361227,0.0,5.009858131408691,-1.2443151473999023,-0.0,1.858314871788025,5.712420928269186,-0.0,0.19026874005794525,-1.6872738043414515,0.0,0.012765621766448021,0.4770030975341797,-0.0,-0.004566419869661331,1.2765932083129883,0.0,0.0022815167903900146
304.0,340.0,-5.799,-0.1382,8.1888,-0.0327,0.0319,-0.1222,-2.3926426372923792,0.0,5.022177696228027,-1.2443270683288574,-0.0,1.887121558189392,5.712464678078451,-0.0,0.18437334895133972,-1.6872733275042933,0.0,-0.003931913059204817,0.47699904441833496,-0.0,-0.0060257031582295895,1.2766492366790771,0.0,0.00744256004691124
304.0,340.0,-5.799,-0.1382,8.1888,-0.0327,0.0319,-0.1222,-2.392663141290182,0.0,5.0679192543029785,-1.2443393468856812,-0.0,1.8664546012878418,5.7124847052390955,-0.0,0.1687851846218109,-1.6872451941119593,0.0,0.004346427507698536,0.476999431848526,-0.0,-0.0008393479511141777,1.2766292095184326,0.0,-0.006964640226215124
304.0,340.0,-5.799,-0.1382,8.1888,-0.0327,0.0319,-0.1222,-2.3926426372923792,0.0,5.0331220626831055,-1.2443032264709473,-0.0,1.9096686840057373,5.712524521141805,-0.0,0.18133285641670227,-1.6872614065753382,0.0,0.00030836445512250066,0.47698304057121277,-0.0,-0.00132123869843781,1.2766172885894775,0.0,0.007117589004337788
304.0,340.0,-5.799,-0.1382,8.1888,-0.0327,0.0319,-0.1222,-2.392651220361227,0.0,5.085381507873535,-1.244318962097168,-0.0,1.903343915939331,5.712456810265341,-0.0,0.19134892523288727,-1.6872733275042933,0.0,0.00908820703625679,0.47699499130249023,-0.0,0.010118294507265091,1.2765768766403198,0.0,-0.009084796532988548
304.0,340.0,-5.799,-0.1382,8.1888,-0.0327,0.0319,-0.1222,-2.3926998577513636,0.0,5.0398149490356445,-1.2443230152130127,-0.0,1.870829463005066,5.712492692261495,-0.0,0.185674250125885,-1.6872976461993616,0.0,0.006608603056520224,0.4770072102546692,-0.0,0.00660411361604929,1.2765932083129883,0.0,-0.024096831679344177
304.0,340.0,-5.799,-0.1382,8.1888,-0.0327,0.0319,-0.1222,-2.3926669559874476,0.0,5.034725666046143,-1.2443032264709473,-0.0,1.8860433101654053,5.71248875835494,-0.0,0.17353558540344238,-1.6872614065753382,0.0,0.011155806481838226,0.4770231246948242,-0.0,-0.005158265586942434,1.2765891551971436,0.0,0.03776617348194122
304.0,340.0,-5.799,-0.1382,8.1888,-0.0327,0.0319,-0.1222,-2.3926507435240687,0.0,5.031863212585449,-1.2443352937698364,-0.0,1.8821442127227783,5.712436902313986,-0.0,0.17109158635139465,-1.687225643788473,0.0,0.006623278371989727,0.47700679302215576,-0.0,0.015801994130015373,1.276625156402588,0.0,0.0009511414682492614
304.0,340.0,-5.799,-0.1382,8.1888,-0.0327,0.0319,-0.1222,-2.392635007897848,0.0,5.004018306732178,-1.2442991733551025,-0.0,1.8793983459472656,5.712476718216696,-0.0,0.18508292734622955,-1.6872614065753382,0.0,-0.0032164142467081547,0.4770231246948242,-0.0,-0.0032407771795988083,1.2765648365020752,0.0,0.009314463473856449
304.0,340.0,-5.799,-0.1382,8.1888,-0.0327,0.0319,-0.1222,-2.392646928826803,0.0,5.022465705871582,-1.2442950010299683,-0.0,1.8836650848388672,5.712460863381185,-0.0,0.17080725729465485,-1.6872614065753382,0.0,0.018703259527683258,0.4769711196422577,-0.0,0.003062073141336441,1.2766132354736328,0.0,-0.00990741141140461
316.0,346.0,-5.857,-0.1376,8.1697,-0.0351,0.0218,-0.1156,-2.392658849755758,0.0,5.039438724517822,-1.2443352937698364,-0.0,1.9090908765792847,5.712508547097006,-0.0,0.18851876258850098,-1.6872733275042933,0.0,0.012908236123621464,0.4770072102546692,-0.0,0.01330980472266674,1.2765973806381226,0.0,-0.030543606728315353
316.0,346.0,-5.857,-0.1376,8.1697,-0.0351,0.0218,-0.1156,-2.3926669559874476,0.0,5.0300188064575195,-1.244335412979126,-0.0,1.898201584815979,5.7125165341194055,-0.0,0.18514394760131836,-1.6872213522540491,0.0,0.006896640174090862,0.4769588112831116,-0.0,-0.002590721473097801,1.276609182357788,0.0,-0.004509745165705681
316.0,346.0,-5.857,-0.1376,8.1697,-0.0351,0.0218,-0.1156,-2.392679353753561,0.0,5.04310941696167,-1.2442991733551025,-0.0,1.8421940803527832,5.712500679283895,-0.0,0.1759519726037979,-1.6872733275042933,0.0,0.0030778972432017326,0.47700679302215576,-0.0,-0.013566811569035053,1.2765973806381226,0.0,0.01219234336167574
316.0,346.0,-5.857,-0.1376,8.1697,-0.0351,0.0218,-0.1156,-2.392663141290182,0.0,5.047643661499023,-1.2442749738693237,-0.0,1.891305685043335,5.712492692261495,-0.0,0.18610218167304993,-1.6873176733600062,0.0,0.0008210003143176436,0.4769630432128906,-0.0,-0.006450293585658073,1.276609182357788,0.0,0.01248627807945013
316.0,346.0,-5.857,-0.1376,8.1697,-0.0351,0.0218,-0.1156,-2.3926388225951136,0.0,5.031079292297363,-1.2443028688430786,-0.0,1.8955729007720947,5.712488639145651,-0.0,0.18638727068901062,-1.6872695128070276,0.0,0.006011655554175377,0.47699907422065735,-0.0,0.01245564129203558,1.276609182357788,0.0,-0.026252053678035736
316.0,346.0,-5.857,-0.1376,8.1697,-0.0351,0.0218,-0.1156,-2.3926712475218714,0.0,5.023395538330078,-1.2442749738693237,-0.0,1.927340030670166,5.712436902313986,-0.0,0.18225866556167603,-1.6872451941119593,0.0,0.02138753980398178,0.47701913118362427,-0.0,0.0038036182522773743,1.2766211032867432,0.0,0.018424827605485916
316.0,346.0,-5.857,-0.1376,8.1697,-0.0351,0.0218,-0.1156,-2.392630716363424,0.0,5.054408073425293,-1.244318962097168,-0.0,1.8935463428497314,5.712492692261495,-0.0,0.18425297737121582,-1.6872614065753382,0.0,0.01114415843039751,0.47708380222320557,-0.0,0.001516588032245636,1.2766132354736328,0.0,-0.008814096450805664
316.0,346.0,-5.857,-0.1376,8.1697,-0.0351,0.0218,-0.1156,-2.392646928826803,0.0,5.04682731628418,-1.2442913055419922,-0.0,1.91585111618042,5.712492692261495,-0.0,0.18682406842708588,-1.6872895399676722,0.0,0.009268281981348991,0.4770313501358032,-0.0,0.010554660111665726,1.2765851020812988,0.0,0.02566077746450901
316.0,346.0,-5.857,-0.1376,8.1697,-0.0351,0.0218,-0.1156,-2.392663141290182,0.0,5.030331134796143,-1.2442790269851685,-0.0,1.879425287246704,5.712460744171896,-0.0,0.18308889865875244,-1.6872337500201624,0.0,0.0007841824553906918,0.4770551919937134,-0.0,-0.008403696119785309,1.2766211032867432,0.0,0.022890836000442505
316.0,346.0,-5.857,-0.1376,8.1697,-0.0351,0.0218,-0.1156,-2.3926426372923792,0.0,4.993751525878906,-1.2442950010299683,-0.0,1.873786211013794,5.71250473239974,-0.0,0.18163847923278809,-1.6873014608966272,0.0,-0.0008394111646339297,0.477023184299469,-0.0,0.005724946968257427,1.27656888961792,0.0,0.014921381138265133
316.0,346.0,-5.857,-0.1376,8.1697,-0.0351,0.0218,-0.1156,-2.3926426372923792,0.0,5.002592086791992,-1.2443151473999023,-0.0,1.855021357536316,5.71248875835494,-0.0,0.18047484755516052,-1.6872413794146937,0.0,-0.0011907991720363498,0.4769871234893799,-0.0,-0.0113935312256217,1.2766492366790771,0.0,0.005538943223655224
316.0,346.0,-5.857,-0.1376,8.1697,-0.0351,0.0218,-0.1156,-2.392679353753561,0.0,5.014009475708008,-1.2442991733551025,-0.0,1.8672562837600708,5.712440836220541,-0.0,0.17068618535995483,-1.6872451941119593,0.0,0.017527233809232712,0.477023184299469,-0.0,0.00040566036477684975,1.2766051292419434,0.0,-0.012447762303054333
316.0,346.0,-5.857,-0.1376,8.1697,-0.0351,0.0218,-0.1156,-2.3926269016661585,0.0,5.0313849449157715,-1.244310736656189,-0.0,1.8868948221206665,5.71247278431014,-0.0,0.1850014626979828,-1.6873176733600062,0.0,0.0032883272506296635,0.47695478796958923,-0.0,0.0011362675577402115,1.276637077331543,0.0,0.058206960558891296
302.0,350.0,-5.7775,-0.1537,8.0399,-0.0273,0.0264,-0.1121,-2.39263453106069,0.0,5.063318729400635,-1.2442909479141235,-0.0,1.9010025262832642,5.7124847052390955,-0.0,0.1757628619670868,-1.6872614065753382,0.0,0.01216620858758688,0.47697481513023376,-0.0,-0.0026172231882810593,1.276625156402588,0.0,0.00402955012395978
302.0,350.0,-5.7775,-0.1537,8.0399,-0.0273,0.0264,-0.1121,-2.392707487145895,0.0,5.050970554351807,-1.2442551851272583,-0.0,1.8199248313903809,5.712488639145651,-0.0,0.18314099311828613,-1.687249485646383,0.0,-0.004900308325886726,0.47698304057121277,-0.0,0.014005742967128754,1.276637077331543,0.0,-0.031183946877717972
302.0,350.0,-5.7775,-0.1537,8.0399,-0.0273,0.0264,-0.1121,-2.3926426372923792,0.0,5.028350830078125,-1.2443232536315918,-0.0,1.8787996768951416,5.712436902313986,-0.0,0.1926737129688263,-1.6872451941119593,0.0,-0.004072743467986584,0.47700271010398865,-0.0,0.002018696628510952,1.276625156402588,0.0,0.014275357127189636
302.0,350.0,-5.7775,-0.1537,8.0399,-0.0273,0.0264,-0.1121,-2.3926712475218714,0.0,5.016783714294434,-1.2443435192108154,-0.0,1.8396034240722656,5.712492692261495,-0.0,0.1883784830570221,-1.6872571150409144,0.0,0.006800410803407431,0.476991206407547,-0.0,0.01741280034184456,1.276581048965454,0.0,0.02720296010375023
302.0,350.0,-5.7775,-0.1537,8.0399,-0.0273,0.0264,-0.1121,-2.392663141290182,0.0,5.00172233581543,-1.2443312406539917,-0.0,1.8665004968643188,5.712476718216696,-0.0,0.16594606637954712,-1.6872451941119593,0.0,0.004396524745970964,0.4769871234893799,-0.0,0.00028654676862061024,1.2765769958496094,0.0,0.028086064383387566
302.0,350.0,-5.7775,-0.1537,8.0399,-0.0273,0.0264,-0.1121,-2.392630716363424,0.0,4.992008686065674,-1.2443352937698364,-0.0,1.9078549146652222,5.712424862175741,-0.0,0.17625239491462708,-1.6872294584857386,0.0,0.004960850812494755,0.47698304057121277,-0.0,0.000291388132609427,1.27656090259552,0.0,0.017811201512813568
302.0,350.0,-5.7775,-0.1537,8.0399,-0.0273,0.0264,-0.1121,-2.392663141290182,0.0,5.02543830871582,-1.2443435192108154,-0.0,1.8643468618392944,5.7125165341194055,-0.0,0.18232621252536774,-1.6872451941119593,0.0,0.012152664363384247,0.47704774141311646,-0.0,0.0049933865666389465,1.276581048965454,0.0,0.030813127756118774
302.0,350.0,-5.7775,-0.1537,8.0399,-0.0273,0.0264,-0.1121,-2.3926426372923792,0.0,4.989627838134766,-1.2442950010299683,-0.0,1.851628065109253,5.7124847052390955,-0.0,0.17785674333572388,-1.6872294584857386,0.0,-0.00711626373231411,0.47700273990631104,-0.0,0.0181050393730402,1.276609182357788,0.0,-0.022788643836975098
302.0,350.0,-5.7775,-0.1537,8.0399,-0.0273,0.0264,-0.1121,-2.392646928826803,0.0,5.023585796356201,-1.244375467300415,-0.0,1.8766088485717773,5.7124847052390955,-0.0,0.1999337375164032,-1.6872294584857386,0.0,-0.00171285483520478,0.4770072102546692,-0.0,-0.006542087532579899,1.276597261428833,0.0,-0.01087456475943327
302.0,350.0,-5.7775,-0.1537,8.0399,-0.0273,0.0264,-0.1121,-2.3926431141295375,0.0,5.042533874511719,-1.2442950010299683,-0.0,1.8522762060165405,5.712448704033651,-0.0,0.1832200586795807,-1.6872814337359827,0.0,0.009556432254612446,0.4770113527774811,-0.0,-0.0010541817173361778,1.2765529155731201,0.0,0.001831158879213035
302.0,350.0,-5.7775,-0.1537,8.0399,-0.0273,0.0264,-0.1121,-2.3926545582213343,0.0,4.994083404541016,-1.244307279586792,-0.0,1.8824739456176758,5.712456691056051,-0.0,0.1784241646528244,-1.6872451941119593,0.0,0.003312766784802079,0.4769953489303589,-0.0,0.0029331431724131107,1.2766292095184326,0.0,-0.02054818719625473
302.0,350.0,-5.7775,-0.1537,8.0399,-0.0273,0.0264,-0.1121,-2.3926269016661585,0.0,4.9945068359375,-1.2443434000015259,-0.0,1.891859769821167,5.712480652123251,-0.0,0.17881326377391815,-1.6872575918780726,0.0,0.0035517006181180477,0.4770031273365021,-0.0,0.0007839026511646807,1.2766051292419434,0.0,-0.0046987030655145645
302.0,350.0,-5.7775,-0.1537,8.0399,-0.0273,0.0264,-0.1121,-2.392606397668356,0.0,5.031931400299072,-1.2443151473999023,-0.0,1.8642101287841797,5.712448704033651,-0.0,0.18367426097393036,-1.6872294584857386,0.0,0.01028517633676529,0.4770109951496124,-0.0,0.0010603496339172125,1.276609182357788,0.0,-0.014096895232796669
303.0,342.0,-5.8092,-0.1196,8.0877,-0.0374,0.0165,-0.1104,-2.392658849755758,0.0,5.033783912658691,-1.2443232536315918,-0.0,1.9187883138656616,5.7124966261680505,-0.0,0.19627715647220612,-1.6872413794146937,0.0,0.007428849581629038,0.4769987463951111,-0.0,0.004540916532278061,1.2765769958496094,0.0,0.03910119831562042
303.0,342.0,-5.8092,-0.1196,8.0877,-0.0374,0.0165,-0.1104,-2.392675062219137,0.0,5.034943580627441,-1.2442872524261475,-0.0,1.8552573919296265,5.712472665100851,-0.0,0.19222457706928253,-1.6872614065753382,0.0,0.021728523075580597,0.47701916098594666,-0.0,-0.0014370409771800041,1.2765769958496094,0.0,-0.028076007962226868
303.0,342.0,-5.8092,-0.1196,8.0877,-0.0374,0.0165,-0.1104,-2.3926755390562953,0.0,5.021463871002197,-1.2442872524261475,-0.0,1.8913847208023071,5.712524521141805,-0.0,0.18988128006458282,-1.687249008809225,0.0,0.0011657318100333214,0.4769793152809143,-0.0,0.0008676914731040597,1.2765891551971436,0.0,0.03886043280363083
303.0,342.0,-5.8092,-0.1196,8.0877,-0.0374,0.0165,-0.1104,-2.392651220361227,0.0,5.082287788391113,-1.244310975074768,-0.0,1.8542697429656982,5.712500679283895,-0.0,0.18288052082061768,-1.6872170607196253,0.0,-0.0037300335243344307,0.47700685262680054,-0.0,0.0007759282598271966,1.2766132354736328,0.0,-0.005882094614207745
303.0,342.0,-5.8092,-0.1196,8.0877,-0.0374,0.0165,-0.1104,-2.3926593265929164,0.0,5.041561603546143,-1.2443557977676392,-0.0,1.890669345855713,5.712468731194296,-0.0,0.18382591009140015,-1.6872733275042933,0.0,0.007424269802868366,0.4770272970199585,-0.0,-0.0024932948872447014,1.2765811681747437,0.0,-0.009294242598116398
303.0,342.0,-5.8092,-0.1196,8.0877,-0.0374,0.0165,-0.1104,-2.3926550350584925,0.0,5.043992519378662,-1.244279384613037,-0.0,1.8337948322296143,5.712412941246786,-0.0,0.18356852233409882,-1.6872614065753382,0.0,0.016186194494366646,0.4770473837852478,-0.0,0.013300728984177113,1.2766211032867432,0.0,-0.026429977267980576
303.0,342.0,-5.8092,-0.1196,8.0877,-0.0374,0.0165,-0.1104,-2.3926874599852503,0.0,5.0571393966674805,-1.2443270683288574,-0.0,1.894655466079712,5.712472665100851,-0.0,0.18167486786842346,-1.6872814337359827,0.0,0.020693574100732803,0.4769870936870575,-0.0,0.012640152126550674,1.2766051292419434,0.0,0.012838919647037983
303.0,342.0,-5.8092,-0.1196,8.0877,-0.0374,0.0165,-0.1104,-2.39269556621694,0.0,5.044913291931152,-1.2443394660949707,-0.0,1.9103087186813354,5.712452876358785,-0.0,0.1856290102005005,-1.6872413794146937,0.0,0.007215783931314945,0.47701495885849,-0.0,0.010921134613454342,1.276625156402588,0.0,-0.008268667384982109
303.0,342.0,-5.8092,-0.1196,8.0877,-0.0374,0.0165,-0.1104,-2.3926712475218714,0.0,5.019028186798096,-1.244310975074768,-0.0,1.842059850692749,5.71252058723525,-0.0,0.19072598218917847,-1.687249485646383,0.0,0.009652798064053059,0.4769871234893799,-0.0,0.0032717320136725903,1.2765891551971436,0.0,0.03188364952802658
303.0,342.0,-5.8092,-0.1196,8.0877,-0.0374,0.0165,-0.1104,-2.3926669559874476,0.0,4.987157821655273,-1.244307279586792,-0.0,1.9021282196044922,5.712476718216696,-0.0,0.18597900867462158,-1.687305752431051,0.0,0.007013504393398762,0.4769871234893799,-0.0,0.001735247322358191,1.2766292095184326,0.0,0.004035069607198238
303.0,342.0,-5.8092,-0.1196,8.0877,-0.0374,0.0165,-0.1104,-2.3926426372923792,0.0,5.042726516723633,-1.2443032264709473,-0.0,1.8977209329605103,5.7124966261680505,-0.0,0.17436900734901428,-1.6872695128070276,0.0,0.0029419432394206524,0.47705143690109253,-0.0,0.013055682182312012,1.2765891551971436,0.0,-0.02503312937915325
303.0,342.0,-5.8092,-0.1196,8.0877,-0.0374,0.0165,-0.1104,-2.3926669559874476,0.0,5.029477119445801,-1.2442913055419922,-0.0,1.9235644340515137,5.712476718216696,-0.0,0.20081087946891785,-1.6872933546649378,0.0,0.004347677808254957,0.4770231246948242,-0.0,0.005612526088953018,1.276597261428833,0.0,-0.005512952338904142
303.0,342.0,-5.8092,-0.1196,8.0877,-0.0374,0.0165,-0.1104,-2.3926426372923792,0.0,4.9968366622924805,-1.2443312406539917,-0.0,1.8845264911651611,5.71247278431014,-0.0,0.17096172273159027,-1.6872251669513147,0.0,0.012076200917363167,0.4770391285419464,-0.0,-0.0005769752897322178,1.27656888961792,0.0,0.011945470236241817
301.0,335.0,-5.8104,-0.1944,8.0285,-0.0336,0.0252,-0.1139,-2.3926388225951136,0.0,5.038578987121582,-1.2442588806152344,-0.0,1.917555570602417,5.712508547097006,-0.0,0.17033442854881287,-1.6872533003436487,0.0,0.009135151281952858,0.4769670367240906,-0.0,-0.0029194317758083344,1.276625156402588,0.0,0.018282575532794
301.0,335.0,-5.8104,-0.1944,8.0285,-0.0336,0.0252,-0.1139,-2.392663141290182,0.0,5.040837287902832,-1.2443394660949707,-0.0,1.8610875606536865,5.71252058723525,-0.0,0.18940427899360657,-1.6872294584857386,0.0,0.006172673776745796,0.47697481513023376,-0.0,0.005174078047275543,1.276637077331543,0.0,0.006671138107776642
301.0,335.0,-5.8104,-0.1944,8.0285,-0.0336,0.0252,-0.1139,-2.3926149807372035,0.0,5.044983863830566,-1.2442790269851685,-0.0,1.9028024673461914,5.712484586029806,-0.0,0.18443745374679565,-1.6872170607196253,0.0,0.0010561137460172176,0.4770432710647583,-0.0,0.011970995925366879,1.276597023010254,0.0,0.04708672687411308
301.0,335.0,-5.8104,-0.1944,8.0285,-0.0336,0.0252,-0.1139,-2.39269556621694,0.0,5.00772762298584,-1.2443230152130127,-0.0,1.894453763961792,5.712456810265341,-0.0,0.17698845267295837,-1.687277619038717,0.0,0.0038451463915407658,0.47699496150016785,-0.0,0.011055530048906803,1.2766051292419434,0.0,-0.008149214088916779
301.0,335.0,-5.8104,-0.1944,8.0285,-0.0336,0.0252,-0.1139,-2.3926269016661585,0.0,5.001481533050537,-1.2443270683288574,-0.0,1.8355892896652222,5.712424862175741,-0.0,0.18578284978866577,-1.6872370878802698,0.0,0.01732322946190834,0.4770272970199585,-0.0,0.013524715788662434,1.2766010761260986,0.0,0.013657862320542336
301.0,335.0,-5.8104,-0.1944,8.0285,-0.0336,0.0252,-0.1139,-2.392646928826803,0.0,5.037189483642578,-1.2443598508834839,-0.0,1.8696798086166382,5.7124966261680505,-0.0,0.18956071138381958,-1.6872695128070276,0.0,0.008884224109351635,0.47701504826545715,-0.0,-0.002725790487602353,1.2766132354736328,0.0,0.022942204028367996
301.0,335.0,-5.8104,-0.1944,8.0285,-0.0336,0.0252,-0.1139,-2.392646928826803,0.0,4.983523368835449,-1.244335412979126,-0.0,1.8147897720336914,5.712456691056051,-0.0,0.19313883781433105,-1.687277619038717,0.0,-0.015016555786132812,0.47695884108543396,-0.0,0.0054917167872190475,1.276597261428833,0.0,0.011987739242613316
301.0,335.0,-5.8104,-0.1944,8.0285,-0.0336,0.0252,-0.1139,-2.392651220361227,0.0,5.034055709838867,-1.2443517446517944,-0.0,1.8611938953399658,5.7124647972877405,-0.0,0.1755516529083252,-1.6872814337359827,0.0,0.0034151149448007345,0.47701096534729004,-0.0,0.011548668146133423,1.276581048965454,0.0,-0.030985411256551743
301.0,335.0,-5.8104,-0.1944,8.0285,-0.0336,0.0252,-0.1139,-2.3926426372923792,0.0,5.040496826171875,-1.244327425956726,-0.0,1.931074619293213,5.712484586029806,-0.0,0.18626834452152252,-1.687249485646383,0.0,-0.0001942669041454792,0.4770313501358032,-0.0,0.01138461846858263,1.276625156402588,0.0,-0.03880656883120537
301.0,335.0,-5.8104,-0.1944,8.0285,-0.0336,0.0252,-0.1139,-2.392663141290182,0.0,5.001224040985107,-1.2443230152130127,-0.0,1.8807568550109863,5.712488639145651,-0.0,0.1726858913898468,-1.6872614065753382,0.0,0.012520948424935341,0.4769990146160126,-0.0,0.00918510090559721,1.2766211032867432,0.0,-0.003245314583182335
301.0,335.0,-5.8104,-0.1944,8.0285,-0.0336,0.0252,-0.1139,-2.392635007897848,0.0,5.02571439743042,-1.2442913055419922,-0.0,1.8943086862564087,5.712468611985006,-0.0,0.17280739545822144,-1.6872733275042933,0.0,0.0034025413915514946,0.4769911766052246,-0.0,0.002863578498363495,1.2765929698944092,0.0,-0.006590941920876503
301.0,335.0,-5.8104,-0.1944,8.0285,-0.0336,0.0252,-0.1139,-2.392635007897848,0.0,5.0367817878723145,-1.2443233728408813,-0.0,1.8696720600128174,5.712484586029806,-0.0,0.18578746914863586,-1.687277619038717,0.0,0.009383171796798706,0.4770071804523468,-0.0,-0.0127493841573596,1.2765932083129883,0.0,-0.044071778655052185
301.0,335.0,-5.8104,-0.1944,8.0285,-0.0336,0.0252,-0.1139,-2.392646928826803,0.0,4.998000144958496,-1.2442872524261475,-0.0,1.9367947578430176,5.712456691056051,-0.0,0.18552863597869873,-1.6872895399676722,0.0,0.009436827152967453,0.4770113527774811,-0.0,0.0014923644484952092,1.2765932083129883,0.0,-0.01691785454750061
306.0,340.0,-5.8086,-0.3924,8.1601,-0.0319,0.0232,-0.109,-2.3926755390562953,0.0,5.057081699371338,-1.2443270683288574,-0.0,1.8507463932037354,5.71249674537734,-0.0,0.18187487125396729,-1.6872895399676722,0.0,0.012385303154587746,0.47701096534729004,-0.0,0.016704393550753593,1.2765932083129883,0.0,0.044057171791791916
306.0,340.0,-5.8086,-0.3924,8.1601,-0.0319,0.0232,-0.109,-2.3926269016661585,0.0,5.056278228759766,-1.2442913055419922,-0.0,1.8941035270690918,5.71252857425765,-0.0,0.17565366625785828,-1.6872614065753382,3.019443113316811e-07,0.003357469802722335,0.476974755525589,-0.0,0.005883368197828531,1.2765891551971436,0.0,-0.018464356660842896
306.0,340.0,-5.8086,-0.3924,8.1601,-0.0319,0.0232,-0.109,-2.392658849755758,0.0,5.052367210388184,-1.2443352937698364,-0.0,1.8719229698181152,5.712460744171896,-0.0,0.18237796425819397,-1.6872370878802698,8.404730383881898e-11,0.005073233507573605,0.4770110547542572,-0.0,0.008180832490324974,1.2766170501708984,0.0,-0.016370922327041626
306.0,340.0,-5.8086,-0.3924,8.1601,-0.0319,0.0232,-0.109,-2.39269556621694,0.0,5.045675277709961,-1.2443270683288574,-0.0,1.8638520240783691,5.712448823242941,-0.0,0.17274321615695953,-1.6872652212726038,1.5275180412547239e-15,0.013038779608905315,0.4770633578300476,-0.0,0.008905635215342045,1.276625156402588,0.0,-0.023530075326561928
306.0,340.0,-5.8086,-0.3924,8.1601,-0.0319,0.0232,-0.109,-2.3926269016661585,0.0,5.036595821380615,-1.244360089302063,-0.0,1.8187265396118164,5.712456810265341,-0.0,0.19453954696655273,-1.6872809568988245,4.2519029944604536e-19,0.002328387927263975,0.4769588112831116,-0.0,0.001712295226752758,1.276608943939209,1.0982049758467838e-07,-0.01149025373160839
306.0,340.0,-5.8086,-0.3924,8.1601,-0.0319,0.0232,-0.109,-2.392623086968893,0.0,5.026277542114258,-1.244262933731079,-0.0,1.8952962160110474,5.712452876358785,-0.0,0.1756189465522766,-1.687249008809225,1.183532686159643e-22,0.006283140741288662,0.4769752025604248,-0.0,-0.0029336712323129177,1.2766492366790771,2.6520357633043334e-13,-0.015842590481042862
306.0,340.0,-5.8086,-0.3924,8.1601,-0.0319,0.0232,-0.109,-2.392651220361227,0.0,5.027382850646973,-1.2443312406539917,-0.0,1.8825123310089111,5.712428915291586,-2.2236816832332806e-08,0.1907419115304947,-1.6873090902911585,2.1510126066157944e-27,-0.00014437129721045494,0.4770272970199585,-0.0,0.0027947351336479187,1.276608943939209,0.0009066438651643693,-0.02161375805735588
306.0,340.0,-5.8086,-0.3924,8.1601,-0.0319,0.0232,-0.109,-2.392658849755758,0.0,4.997031211853027,-1.2442913055419922,-0.0,1.8703023195266724,5.712449180870809,-6.18969936069802e-12,0.16994532942771912,-1.6873014608966272,5.987422793709951e-31,0.005743991117924452,0.4770031273365021,-0.0,-0.006403790786862373,1.2766690254211426,0.0011361284414306283,-0.010107384994626045
306.0,340.0,-5.8086,-0.3924,8.1601,-0.0319,0.0232,-0.109,-2.3926426372923792,0.0,5.050597190856934,-1.2443032264709473,-0.0,1.9128210544586182,5.71247278431014,-1.1249471042263965e-16,0.17835314571857452,-1.6872809568988245,1.0881846227093323e-35,0.0073172785341739655,0.47703543305397034,-0.0,0.01732841320335865,1.2766809463500977,0.0007408534293062985,-0.04416358098387718
306.0,340.0,-5.8086,-0.3924,8.1601,-0.0319,0.0232,-0.109,-2.3926426372923792,0.0,4.9808669090271,-1.2442630529403687,-0.0,1.858122706413269,5.71247278431014,-3.131331629145553e-20,0.17000608146190643,-1.6872690359698694,3.029001918933666e-39,0.002244594506919384,0.47699496150016785,-0.0,0.015922343358397484,1.2767090797424316,0.0006899171276018023,-0.012524661608040333
306.0,340.0,-5.8086,-0.3924,8.1601,-0.0319,0.0232,-0.109,-2.392658849755758,0.0,5.009288311004639,-1.2443352937698364,-0.0,1.9277113676071167,5.71244095542983,-5.691041264604882e-25,0.1756490170955658,-1.6872652212726038,5.465064010866787e-44,0.001580097945407033,0.4769871234893799,-0.0,-0.0044457754120230675,1.276697039604187,0.0005505749140866101,0.04668678715825081
306.0,340.0,-5.8086,-0.3924,8.1601,-0.0319,0.0232,-0.109,-2.392658849755758,0.0,5.00652551651001,-1.2442634105682373,-0.0,1.8564207553863525,5.71247278431014,-1.5841221571297085e-28,0.18706217408180237,-1.6873090902911585,0.0,0.007186682429164648,0.47702309489250183,-0.0,0.012194519862532616,1.2767250537872314,0.00039937041583471,-0.004358777776360512
306.0,340.0,-5.8086,-0.3924,8.1601,-0.0319,0.0232,-0.109,-2.39271940807485,0.0,5.0699920654296875,-1.244271159172058,-0.0,1.8453288078308105,5.71247278431014,-2.8790635593751562e-33,0.16556456685066223,-1.6872976461993616,0.0,0.0012721884995698929,0.47701096534729004,-0.0,0.0105752469971776,1.2766647338867188,0.00041015903116203845,0.04639744758605957
303.0,344.0,-5.8098,-0.3523,8.1368,-0.0417,0.0212,-0.1077,-2.3926545582213343,0.0,5.036950588226318,-1.2443151473999023,-0.0,1.8724961280822754,5.71248077133254,-8.013978833845228e-37,0.1738707274198532,-1.6872690359698694,0.0,0.013279514387249947,0.47702735662460327,-0.0,0.010818387381732464,1.276733160018921,0.00034483871422708035,0.0015689898282289505
303.0,344.0,-5.8098,-0.3523,8.1368,-0.0417,0.0212,-0.1077,-2.392663141290182,0.0,5.010194301605225,-1.244315505027771,-0.0,1.80915105342865,5.71244095542983,-1.4565096238192149e-41,0.16559851169586182,-1.6872814337359827,0.0,0.0022046901285648346,0.4770191013813019,-0.0,0.0010664139408618212,1.2766647338867188,0.000322740146657452,-0.006510716397315264
303.0,344.0,-5.8098,-0.3523,8.1368,-0.0417,0.0212,-0.1077,-2.3926950893797816,0.0,5.074479579925537,-1.2443032264709473,1.801263825595978e-11,1.9346966743469238,5.712445008545675,-4.203895392974451e-45,0.18712320923805237,-1.6873052755938929,0.0,0.0050049456767737865,0.4770071804523468,-0.0,0.00600914191454649,1.2767090797424316,0.00028492248384281993,0.010364427231252193
303.0,344.0,-5.8098,-0.3523,8.1368,-0.0417,0.0212,-0.1077,-2.392714639703268,0.0,5.0393781661987305,-1.2442551851272583,4.349840424184423e-17,1.8573390245437622,5.712436902313986,-0.0,0.18244607746601105,-1.6872652212726038,0.0,0.012831938453018665,0.47703543305397034,-0.0,0.0067547340877354145,1.2767009735107422,0.00024001389101613313,0.011099336668848991
303.0,344.0,-5.8098,-0.3523,8.1368,-0.0417,0.0212,-0.1077,-2.3926831684508265,0.0,5.032678604125977,-1.2443195581436157,1.4092930060368038e-24,1.905827522277832,5.712408411293783,-8.498139504808933e-05,0.17829398810863495,-1.6872289816485804,0.0,0.015063660219311714,0.4770190715789795,-0.0,0.011621655896306038,1.2767292261123657,0.00026837625773623586,-0.06413236260414124
303.0,344.0,-5.8098,-0.3523,8.1368,-0.0417,0.0212,-0.1077,-2.3926712475218714,0.0,5.066092491149902,-1.2442994117736816,3.403276198172996e-30,1.8947252035140991,5.71245692947463,-0.00012728922592941672,0.18210506439208984,-1.6872809568988245,0.0,0.012826517224311829,0.4769871234893799,-0.0,0.010209737345576286,1.2767088413238525,0.0006267275894060731,-0.025851139798760414
303.0,344.0,-5.8098,-0.3523,8.1368,-0.0417,0.0212,-0.1077,-2.39263453106069,4.974978207172853e-10,5.03029727935791,-1.244271159172058,0.00036470117629505694,1.89756178855896,5.712408768921652,-0.0001356766006210819,0.18639546632766724,-1.6872852484332483,0.0,0.01125545334070921,0.4770031273365021,-0.0,0.007055455818772316,1.2767006158828735,0.0005645966739393771,-0.015442385338246822
303.0,344.0,-5.8098,-0.3523,8.1368,-0.0417,0.0212,-0.1077,-2.3926993809142054,1.2013984981005567e-15,5.074091911315918,-1.2442995309829712,0.00037320988485589623,1.8317588567733765,5.712388801365652,-0.00012751869508065283,0.1820719689130783,-1.687272850667135,0.0,0.013497574254870415,0.4769870936870575,-0.0,0.006216057576239109,1.2767250537872314,0.00044494733447209,0.007376604247838259
303.0,344.0,-5.8098,-0.3523,8.1368,-0.0417,0.0212,-0.1077,-2.392651220361227,3.892378545879791e-23,5.056462287902832,-1.2442317008972168,0.001239143661223352,1.8786962032318115,5.712392794876852,-0.0001348196092294529,0.18199153244495392,-1.6872809568988245,0.0,0.012351644225418568,0.47697481513023376,-0.0,0.007204440422356129,1.2767131328582764,0.0001485103857703507,0.03912508487701416
303.0,344.0,-5.8098,-0.3523,8.1368,-0.0417,0.0212,-0.1077,-2.3926712475218714,9.399634704971796e-29,5.034932613372803,-1.244267463684082,0.001017722417600453,1.828890085220337,5.712360906391897,-0.00025862277834676206,0.17800644040107727,-1.68726092973818,0.0,0.003284796141088009,0.4770314395427704,-0.0,-0.000794251449406147,1.2766047716140747,2.469013907102635e-06,0.06611867249011993
303.0,344.0,-5.8098,-0.3523,8.1368,-0.0417,0.0212,-0.1077,-2.3926755390562953,3.0453626278136564e-36,5.029408931732178,-1.2442392110824585,0.0005706422962248325,1.8808386325836182,5.712372827320852,-0.00025246539735235274,0.18022646009922028,-1.6872809568988245,0.0,-0.0025652695912867785,0.47704365849494934,-0.0,0.0040536196902394295,1.276677131652832,7.999289707190382e-14,0.002160242758691311
303.0,344.0,-5.8098,-0.3523,8.1368,-0.0417,0.0212,-0.1077,-2.392663141290182,7.35401434077664e-42,5.0223002433776855,-1.2442876100540161,0.000330654060235247,1.9072613716125488,5.712376820832052,-0.0002902778796851635,0.17956992983818054,-1.6873214880572718,0.0,0.013967840932309628,0.47697481513023376,-0.0,-0.002430984750390053,1.2766249179840088,-0.001599151873961091,-0.02453293278813362
303.0,344.0,-5.8098,-0.3523,8.1368,-0.0417,0.0212,-0.1077,-2.3926545582213343,0.0,5.011575698852539,-1.244211196899414,0.00024179100000765175,1.8726832866668701,5.712381231575765,-0.00033889830228872597,0.16855168342590332,-1.6872332731830042,0.0,0.014911685138940811,0.47700273990631104,-0.0,0.011962968856096268,1.2765852212905884,-0.0019437274895608425,0.064198337495327
303.0,344.0,-5.8098,-0.3523,8.1368,-0.0417,0.0212,-0.1077,-2.392691274682516,0.0,5.031452178955078,-1.244247317314148,7.138380169635639e-05,1.915433406829834,5.712360906391897,-0.0003278785152360797,0.18169797956943512,-1.6872857252704065,0.0,0.011252224445343018,0.47705966234207153,-0.0,0.006365606561303139,1.2765891551971436,-0.0021818599198013544,-0.039956528693437576
306.0,341.0,-5.8672,-0.2297,7.9364,-0.0457,0.0237,-0.1272,-2.392658849755758,0.0,5.029496192932129,-1.2442797422409058,5.751884964411147e-05,1.8679416179656982,5.712380873947897,-0.0002800840884447098,0.1718604862689972,-1.6873253027545374,0.0,0.002496639732271433,0.47695472836494446,-0.0,-0.0007818352896720171,1.276569128036499,-0.0027908929623663425,-0.03766133263707161
306.0,341.0,-5.8672,-0.2297,7.9364,-0.0457,0.0237,-0.1272,-2.3926712475218714,0.0,5.0444183349609375,-1.2442679405212402,0.00018132463446818292,1.8869354724884033,5.712337064533987,-0.00023194911773316562,0.18912668526172638,-1.687249008809225,0.0,0.017121948301792145,0.477047324180603,-0.0,0.0059722233563661575,1.2765287160873413,-0.003899809205904603,-0.03313913196325302
306.0,341.0,-5.8672,-0.2297,7.9364,-0.0457,0.0237,-0.1272,-2.392623086968893,0.0,5.02304220199585,-1.2442193031311035,0.0012880738358944654,1.9141075611114502,5.712373006134786,-0.00020546735322568566,0.19082191586494446,-1.6872614065753382,0.0,0.007191603071987629,0.4770031273365021,-0.0,-0.0003976188600063324,1.2765171527862549,-0.004998005926609039,0.002747936174273491
306.0,341.0,-5.8672,-0.2297,7.9364,-0.0457,0.0237,-0.1272,-2.3926388225951136,0.0,5.038557529449463,-1.2442233562469482,0.0033600199967622757,1.8831875324249268,5.712357032089987,-0.000230039659072645,0.18153738975524902,-1.6872413794146937,0.0,0.004817366600036621,0.47704365849494934,-0.0,-0.0026731735561043024,1.2764489650726318,-0.005831257905811071,0.04807748645544052
306.0,341.0,-5.8672,-0.2297,7.9364,-0.0457,0.0237,-0.1272,-2.392635007897848,0.0,5.052177429199219,-1.2441996335983276,0.004407570697367191,1.8845512866973877,5.712349283486166,-0.00019834459817502648,0.1885623037815094,-1.6872618834124964,0.0,0.0054498943500220776,0.4770432114601135,-0.0,-0.0015671068103983998,1.2764172554016113,-0.006803336553275585,0.034413840621709824
306.0,341.0,-5.8672,-0.2297,7.9364,-0.0457,0.0237,-0.1272,-2.392646928826803,0.0,5.056507110595703,-1.2441279888153076,0.005162836518138647,1.925199270248413,5.7123451111610315,-0.00020134430087637156,0.18723931908607483,-1.6872418562518519,0.0,0.0023100499529391527,0.4770514667034149,-0.0,0.010185644030570984,1.2763409614562988,-0.007253583054989576,-0.0373130664229393
306.0,341.0,-5.8672,-0.2297,7.9364,-0.0457,0.0237,-0.1272,-2.392646928826803,0.0,5.063379287719727,-1.2440314292907715,0.003948952537029982,1.8857173919677734,5.712296592980184,-0.00021124059276189655,0.19266504049301147,-1.6872299353228968,0.0,0.006123370956629515,0.47700679302215576,-0.0,0.019377857446670532,1.2762408256530762,-0.008298232220113277,-0.05101387947797775
306.0,341.0,-5.8672,-0.2297,7.9364,-0.0457,0.0237,-0.1272,-2.3926426372923792,0.0,5.027523040771484,-1.2440681457519531,0.001972476253286004,1.9087823629379272,5.712344813137808,-0.00021288882999215275,0.17948201298713684,-1.6872132460223597,0.0,0.003908901941031218,0.477023184299469,-0.0,0.0013186584692448378,1.2761850357055664,-0.009236169047653675,-0.0468641072511673
306.0,341.0,-5.8672,-0.2297,7.9364,-0.0457,0.0237,-0.1272,-2.3926669559874476,7.915092282928526e-05,5.047240734100342,-1.2441320419311523,0.0011652781395241618,1.8307359218597412,5.712344813137808,-0.00030207919189706445,0.17504777014255524,-1.687225643788473,0.0,0.011569707654416561,0.47699859738349915,-0.0,0.00590268149971962,1.2761852741241455,-0.011001122184097767,-0.022914910688996315
306.0,341.0,-5.8672,-0.2297,7.9364,-0.0457,0.0237,-0.1272,-2.3926431141295375,9.848971967585385e-05,5.063385009765625,-1.2440885305404663,0.0007071178406476974,1.874403715133667,5.712312924652853,-0.00028579161153174937,0.18826140463352203,-1.6872299353228968,0.0,0.0013655612710863352,0.47705546021461487,-0.0,0.005604733247309923,1.2760930061340332,-0.010324783623218536,-0.02927878312766552
306.0,341.0,-5.8672,-0.2297,7.9364,-0.0457,0.0237,-0.1272,-2.3926550350584925,0.00011221422755625099,5.0053606033325195,-1.2440803050994873,0.000441036798292771,1.858077883720398,5.712245094567098,-0.00028763432055711746,0.18395663797855377,-1.6871650854693812,0.0,0.00049555953592062,0.47698307037353516,-0.0,-0.0009687717538326979,1.275964617729187,-0.010671616531908512,0.0020272042602300644
306.0,341.0,-5.8672,-0.2297,7.9364,-0.0457,0.0237,-0.1272,-2.392623086968893,0.00010771500819828361,5.069672584533691,-1.2440475225448608,0.0003672650782391429,1.9195365905761719,5.712289082794943,-0.00028887548251077533,0.17828506231307983,-1.6872337500201624,0.0,0.007118364330381155,0.47698721289634705,-0.0,-0.006198203191161156,1.2759208679199219,-0.011405924335122108,-0.0009036138653755188
306.0,341.0,-5.8672,-0.2297,7.9364,-0.0457,0.0237,-0.1272,-2.392639299432272,0.00010163318802369758,5.027924060821533,-1.2440639734268188,0.0006239783251658082,1.8621795177459717,5.712289082794943,-0.00032296241261065006,0.19529396295547485,-1.6872213522540491,0.0,0.008591976948082447,0.47697481513023376,-0.0,0.010281882248818874,1.275881290435791,-0.010764000006020069,-0.017570316791534424
307.0,350.0,-5.7882,-0.3625,8.1637,-0.0348,0.0305,-0.1203,-2.392623086968893,9.750427852850407e-05,5.043641090393066,-1.2440638542175293,0.0005312524153850973,1.9036715030670166,5.712236869126119,-0.0003652681189123541,0.16537511348724365,-1.6872175375567835,0.0,0.0040919119492173195,0.47699081897735596,-0.0,-3.949226811528206e-05,1.2758171558380127,-0.010355958715081215,-0.029791997745633125
307.0,350.0,-5.7882,-0.3625,8.1637,-0.0348,0.0305,-0.1203,-2.392635007897848,9.249399590771645e-05,5.038643836975098,-1.2440803050994873,0.0004447262908797711,1.8929266929626465,5.712253618031301,-0.0007134093320928514,0.1711578667163849,-1.6872089544879358,0.0,0.007299082353711128,0.4770227372646332,-0.0,-0.0017821602523326874,1.2757411003112793,-0.008313082158565521,-0.023050861433148384
307.0,350.0,-5.7882,-0.3625,8.1637,-0.0348,0.0305,-0.1203,-2.392618795434469,8.906178845791146e-05,5.090490341186523,-1.2440803050994873,0.00036699316115118563,1.8753124475479126,5.712249266892233,-0.0010047371033579111,0.1768980324268341,-1.68718129793276,0.0,0.015768330544233322,0.47708335518836975,-0.0,0.013704333454370499,1.2757010459899902,-0.007104083430022001,-0.053051091730594635
307.0,350.0,-5.7882,-0.3625,8.1637,-0.0348,0.0305,-0.1203,-2.392639299432272,8.486294245813042e-05,5.02609920501709,-1.2440720796585083,0.0002976329415105283,1.9208099842071533,5.712237047940054,-0.0016905367374420166,0.17095497250556946,-1.687237564717428,0.0,0.0008964111912064254,0.4770473539829254,-0.0,0.0016761801671236753,1.2756086587905884,-0.005544389598071575,-0.05110318958759308
307.0,350.0,-5.7882,-0.3625,8.1637,-0.0348,0.0305,-0.1203,-2.392618795434469,8.196473208954558e-05,5.049205780029297,-1.2440557479858398,0.00026068417355418205,1.8752307891845703,5.712232994824209,-0.004960821475833654,0.18174703419208527,-1.6871932188617151,0.0,0.013940748758614063,0.47704699635505676,-0.0,-0.00122783612459898,1.2756167650222778,-0.003798022633418441,0.023556776344776154
307.0,350.0,-5.7882,-0.3625,8.1637,-0.0348,0.0305,-0.1203,-2.3926550350584925,3.6288227533987083e-07,5.005473613739014,-1.2440762519836426,0.0002556130930315703,1.8786163330078125,5.712057876377859,-0.02504136972129345,0.18905532360076904,-1.6872132460223597,0.0,0.00648712832480669,0.47696298360824585,-0.0,0.011062966659665108,1.2756412029266357,-0.0025605671107769012,-0.045944422483444214
307.0,350.0,-5.7882,-0.3625,8.1637,-0.0348,0.0305,-0.1203,-2.392618795434469,8.763180068746546e-13,5.041700839996338,-1.24404776096344,0.00020291379769332707,1.8836085796356201,5.711945640831747,-0.022685332223773003,0.1688002347946167,-1.687225643788473,0.0,0.012129310518503189,0.47698265314102173,-0.0,0.0129347313195467,1.2756049633026123,-0.0016057033790275455,-0.10397732257843018
307.0,350.0,-5.7882,-0.3625,8.1637,-0.0348,0.0305,-0.1203,-2.392630716363424,2.8391588352121795e-20,5.008664131164551,-1.244055986404419,0.000248054537223652,1.8775707483291626,5.711777913361349,-0.012888859026134014,0.17725953459739685,-1.6872089544879358,0.0,0.004301262088119984,0.47701096534729004,-0.0,-0.009767581708729267,1.2756534814834595,-0.00085608777590096,-0.06518708169460297
307.0,350.0,-5.7882,-0.3625,8.1637,-0.0348,0.0305,-0.1203,-2.3926269016661585,6.856233564820784e-26,5.074174404144287,-1.2440040111541748,0.0007223461288958788,1.8907361030578613,5.7117581246192834,-0.00590143958106637,0.17648375034332275,-1.6871932188617151,0.0,0.013810604810714722,0.47701096534729004,-0.0,-0.002556104678660631,1.2756452560424805,-0.0006439932039938867,-0.03110707551240921
307.0,350.0,-5.7882,-0.3625,8.1637,-0.0348,0.0305,-0.1203,-2.392646928826803,1.6556997798563631e-31,5.060572624206543,-1.244016170501709,0.0006202961667440832,1.895967960357666,5.711722838669576,-0.0015436613466590643,0.17556488513946533,-1.687169377003805,0.0,0.030227594077587128,0.4770713746547699,-0.0,-0.012300773523747921,1.2756249904632568,-0.0005123976734466851,-0.08589601516723633
307.0,350.0,-5.7882,-0.3625,8.1637,-0.0348,0.0305,-0.1203,-2.392630716363424,5.3642560006417236e-39,5.011237144470215,-1.2439792156219482,0.0005412303144112229,1.9174740314483643,5.711710917740621,-0.0006469090585596859,0.18084478378295898,-1.6872299353228968,0.0,0.015516378916800022,0.4770391285419464,-0.0,-0.002873835852369666,1.2756452560424805,-0.0004418239986989647,-0.08107539266347885
307.0,350.0,-5.7882,-0.3625,8.1637,-0.0348,0.0305,-0.1203,-2.3926836452879847,1.2611686178923354e-44,5.09506368637085,-1.2439998388290405,0.00041611248161643744,1.88486647605896,5.711710917740621,-0.0005176917184144258,0.18691116571426392,-1.6872132460223597,0.0,0.012052115052938461,0.47698673605918884,-0.0,0.0020029789302498102,1.275612711906433,-0.0003731243486981839,-0.045939475297927856
307.0,350.0,-5.7882,-0.3625,8.1637,-0.0348,0.0305,-0.1203,-2.392663141290182,0.0,5.0374579429626465,-1.244055986404419,0.0003710654564201832,1.876213788986206,5.711719202786245,-0.00048111568321473897,0.17213377356529236,-1.68718129793276,0.0,0.016411108896136284,0.4770272970199585,-0.0,-0.010482736863195896,1.2756168842315674,-0.00022856435680296272,-0.07086928933858871
304.0,346.0,-6.0287,-0.1119,8.187,-0.0348,0.013,-0.1051,-2.3926755390562953,0.0,5.048343658447266,-1.2440400123596191,0.000360312667908147,1.9372607469558716,5.711694288044729,-0.0003418622072786093,0.17764312028884888,-1.6871932188617151,0.0,0.011429386213421822,0.47703543305397034,-0.0,0.013955800794064999,1.275589108467102,-0.0002364335086895153,-0.134590283036232
304.0,346.0,-6.0287,-0.1119,8.187,-0.0348,0.013,-0.1051,-2.3926550350584925,0.0,5.053215026855469,-1.244028091430664,0.0002507130557205528,1.8954880237579346,5.711698758393087,-0.0009068836225196719,0.18370679020881653,-1.6872089544879358,6.641566869802773e-05,0.021168790757656097,0.47697901725769043,-0.0,0.02006375417113304,1.2756693363189697,-0.0002351400617044419,-0.08939707279205322
304.0,346.0,-6.0287,-0.1119,8.187,-0.0348,0.013,-0.1051,-2.39269556621694,0.0,5.066845417022705,-1.2440321445465088,0.00029874162282794714,1.8757638931274414,5.711634683399954,-0.0011622795136645436,0.1780606508255005,-1.6871970335589808,6.440667493734509e-05,0.015557089820504189,0.47707927227020264,-0.0,0.007698210887610912,1.2756249904632568,-0.0002416719071334228,-0.12924198806285858
304.0,346.0,-6.0287,-0.1119,8.187,-0.0348,0.013,-0.1051,-2.392639299432272,0.0,5.103023529052734,-1.2439996004104614,0.0006507487851195037,1.9318181276321411,5.711630809098043,-0.0014119883999228477,0.1773267686367035,-1.687225643788473,6.091926115914248e-05,0.018060630187392235,0.4770190715789795,-0.0,0.009904510341584682,1.2756290435791016,-0.0003011018561664969,-0.16664338111877441
304.0,346.0,-6.0287,-0.1119,8.187,-0.0348,0.013,-0.1051,-2.392639299432272,0.0,5.055241584777832,-1.2439602613449097,0.0009057467104867101,1.9064502716064453,5.711651193886556,-0.0019328222842887044,0.18169927597045898,-1.6872337500201624,5.854170740349218e-05,0.02961594983935356,0.4770350456237793,-0.0,0.015331711620092392,1.275620937347412,-0.00025080121122300625,-0.13188380002975464
304.0,346.0,-6.0287,-0.1119,8.187,-0.0348,0.013,-0.1051,-2.39260258297109,0.0,5.056593894958496,-1.2440078258514404,0.0011295777512714267,1.916111946105957,5.711574423104086,-0.002301029395312071,0.19104278087615967,-1.6872418562518519,5.564608727581799e-05,0.01677599921822548,0.4770510494709015,-0.0,0.008540069684386253,1.2756168842315674,-0.00020507701265159994,-0.13753432035446167
304.0,346.0,-6.0287,-0.1119,8.187,-0.0348,0.013,-0.1051,-2.392630716363424,0.0,5.065032958984375,-1.2439922094345093,0.0012248095590621233,1.956895351409912,5.7116150734718225,-0.002064417116343975,0.171220600605011,-1.6871932188617151,5.365561446524225e-05,0.016110900789499283,0.47709158062934875,-0.0,-0.0079497080296278,1.2756290435791016,-0.0001804103667382151,-0.14279663562774658
304.0,346.0,-6.0287,-0.1119,8.187,-0.0348,0.013,-0.1051,-2.392679353753561,0.0,5.081578731536865,-1.2439519166946411,0.0016016027657315135,1.8650890588760376,5.711589979916372,-0.001839086296968162,0.16968780755996704,-1.6872575918780726,5.1802624511765316e-05,0.02217632532119751,0.47706326842308044,-0.0,0.0028169427532702684,1.275620937347412,-0.00016104034148156643,-0.1236276775598526
304.0,346.0,-6.0287,-0.1119,8.187,-0.0348,0.013,-0.1051,-2.392606397668356,0.0,5.089672088623047,-1.2439767122268677,0.00240925420075655,1.9131492376327515,5.711610722332754,-0.001231182599440217,0.16663002967834473,-1.687253777180807,2.5102230210904963e-05,0.014353781938552856,0.4770190417766571,-0.0,0.008347601629793644,1.2756330966949463,-0.00014087410818319768,-0.12938037514686584
304.0,346.0,-6.0287,-0.1119,8.187,-0.0348,0.013,-0.1051,-2.3927275143065394,0.0,5.063525676727295,-1.2439358234405518,0.0035558787640184164,1.9442369937896729,5.711590754776754,-0.0008437326760031283,0.1842273324728012,-1.6872175375567835,6.987297851424046e-09,0.026078658178448677,0.4770469665527344,-0.0,0.0024843199644237757,1.2756372690200806,-0.0001287795603275299,-0.16307125985622406
304.0,346.0,-6.0287,-0.1119,8.187,-0.0348,0.013,-0.1051,-2.392679353753561,0.0,5.073489189147949,-1.243848443031311,0.004823693074285984,1.906650424003601,5.71159844377593,-0.0005758877960033715,0.16012685000896454,-1.6871770063983362,1.2699067600437097e-13,0.015393948182463646,0.4770391285419464,-0.0,0.015999210998415947,1.2756330966949463,-0.000115552160423249,-0.17092445492744446
304.0,346.0,-6.0287,-0.1119,8.187,-0.0348,0.013,-0.1051,-2.392618795434469,0.0,5.050596714019775,-1.2438400983810425,0.005054429639130831,1.9317597150802612,5.711651193886556,-0.00043673458276316524,0.15745899081230164,-1.6872175375567835,3.534831939781236e-17,0.027228370308876038,0.47703874111175537,-0.0,0.006979958154261112,1.2756249904632568,-0.00012139775935793296,-0.1930115818977356
304.0,346.0,-6.0287,-0.1119,8.187,-0.0348,0.013,-0.1051,-2.392663141290182,0.0,5.034217834472656,-1.2438565492630005,0.0046400101855397224,1.9069979190826416,5.71159844377593,-0.0003839047276414931,0.17266105115413666,-1.6871770063983362,6.4243817330530725e-22,0.015129128471016884,0.4770469665527344,-0.0,-0.004382614977657795,1.2755849361419678,-0.00013711430074181408,-0.14672276377677917
315.0,362.0,-5.8008,-0.1687,8.0758,-0.0292,0.0325,-0.1251,-2.3926874599852503,0.0,5.092948913574219,-1.2438244819641113,0.004187882412225008,1.9530129432678223,5.711590754776754,-0.0003252705791965127,0.1759030967950821,-1.6872089544879358,1.7882505436370784e-25,0.023642845451831818,0.47707560658454895,-0.0,-0.0001463047810830176,1.2756290435791016,-0.0001263359299628064,-0.20063988864421844
315.0,362.0,-5.8008,-0.1687,8.0758,-0.0292,0.0325,-0.1251,-2.3926836452879847,0.0,5.088507652282715,-1.2438088655471802,0.0032219444401562214,1.9469001293182373,5.711614775448599,-0.0003080914611928165,0.1721624732017517,-1.6871970335589808,0.00011596791591728106,0.021732773631811142,0.47697481513023376,-0.0,0.013894090428948402,1.2756129503250122,-0.0010364614427089691,-0.18595129251480103
315.0,362.0,-5.8008,-0.1687,8.0758,-0.0292,0.0325,-0.1251,-2.392639299432272,0.0,5.060338973999023,-1.2437849044799805,0.0030145447235554457,1.898908019065857,5.711602675705709,-0.0002161269512725994,0.1739273965358734,-1.6871932188617151,0.0006433565868064761,0.021690733730793,0.4770510494709015,-0.0,0.0022261671256273985,1.2756211757659912,-0.0014654413098469377,-0.20111683011054993
315.0,362.0,-5.8008,-0.1687,8.0758,-0.0292,0.0325,-0.1251,-2.3926669559874476,0.0,5.091004848480225,-1.2437204122543335,0.00383755867369473,1.9272619485855103,5.711631345539846,-0.0001751761737978086,0.17174050211906433,-1.6871808210956019,0.002647929359227419,0.030705658718943596,0.4770350456237793,-0.0,0.002833444159477949,1.2755489349365234,-0.0015997637528926134,-0.23170411586761475
315.0,362.0,-5.8008,-0.1687,8.0758,-0.0292,0.0325,-0.1251,-2.392635007897848,0.0,5.094239711761475,-1.243680715560913,0.004133505281060934,1.9463696479797363,5.711586701660909,-0.00015685500693507493,0.1659862995147705,-1.687157932912008,0.007108207792043686,0.02995673008263111,0.47699084877967834,-0.0,0.004194085486233234,1.2755690813064575,-0.0016400919994339347,-0.19226369261741638
315.0,362.0,-5.8008,-0.1687,8.0758,-0.0292,0.0325,-0.1251,-2.392646928826803,0.0,5.079597473144531,-1.2437007427215576,0.004419100005179644,1.9397008419036865,5.711627352028646,-0.0001694284874247387,0.16932180523872375,-1.6870821158038538,0.010736899450421333,0.03262622654438019,0.47699496150016785,-0.0,-0.00319158798083663,1.2755730152130127,-0.0013854987919330597,-0.2029813826084137
315.0,362.0,-5.8008,-0.1687,8.0758,-0.0292,0.0325,-0.1251,-2.392630716363424,0.0,5.1238250732421875,-1.243669033050537,0.004646660760045052,2.013125419616699,5.711610781937399,-0.0001513043389422819,0.18441297113895416,-1.687033478413717,0.003913952503353357,0.02113153785467148,0.4770713746547699,-0.0,-0.0034311593044549227,1.2755411863327026,-0.0012034911196678877,-0.21465709805488586
315.0,362.0,-5.8008,-0.1687,8.0758,-0.0292,0.0325,-0.1251,-2.392679353753561,0.0,5.1041154861450195,-1.2436492443084717,0.004409725312143564,1.9552443027496338,5.7115468857581995,-0.00018302402168046683,0.16285133361816406,-1.6870420614825647,0.0005435062921606004,0.018620286136865616,0.4770551025867462,-0.0,0.0008640943560749292,1.2755810022354126,-0.0011993899242952466,-0.15909409523010254
315.0,362.0,-5.8008,-0.1687,8.0758,-0.0292,0.0325,-0.1251,-2.3926226101317347,0.0,5.086234092712402,-1.2435846328735352,0.004249372519552708,1.9153542518615723,5.711610781937399,-0.00016865739598870277,0.16062280535697937,-1.6870463530169886,0.0002365215914323926,0.025834286585450172,0.4770313501358032,-0.0,0.003228008048608899,1.275512933731079,-0.0017717697191983461,-0.2103266566991806
315.0,362.0,-5.8008,-0.1687,8.0758,-0.0292,0.0325,-0.1251,-2.3926545582213343,0.0,5.048378944396973,-1.243532419204712,0.004302270710468292,1.9697389602661133,5.711546528130331,-0.00018264766549691558,0.17989060282707214,-1.6870420614825647,0.0001695524260867387,0.018967892974615097,0.47700679302215576,-0.0,-0.005003376863896847,1.2755651473999023,-0.0020684979390352964,-0.22542086243629456
315.0,362.0,-5.8008,-0.1687,8.0758,-0.0292,0.0325,-0.1251,-2.3926388225951136,0.0,5.107841491699219,-1.24354887008667,0.004478980787098408,1.9691705703735352,5.711602675705709,-0.0001571883331052959,0.1767670065164566,-1.6870101133929651,0.00012312013132032007,0.03863007202744484,0.4770027697086334,-0.0,0.004114600829780102,1.2755131721496582,-0.0025112091097980738,-0.2507084608078003
315.0,362.0,-5.8008,-0.1687,8.0758,-0.0292,0.0325,-0.1251,-2.392646928826803,0.0,5.114041805267334,-1.2435694932937622,0.00486144470050931,1.9806225299835205,5.711627352028646,-0.000142276898259297,0.17927637696266174,-1.6870258490191858,0.00010214831854682416,0.02520451694726944,0.47706738114356995,-0.0,0.0021008802577853203,1.2755131721496582,-0.002440133597701788,-0.2492472231388092
315.0,362.0,-5.8008,-0.1687,8.0758,-0.0292,0.0325,-0.1251,-2.392651220361227,0.0,5.078141212463379,-1.2434691190719604,0.005608240142464638,1.993856430053711,5.711631405144491,-0.00015112277469597757,0.18074704706668854,-1.687094513569967,8.324535883730277e-05,0.030670367181301117,0.4770031273365021,-0.0,0.013800584711134434,1.275501012802124,-0.0027247725520282984,-0.24501948058605194
299.0,355.0,-5.7428,-0.0138,8.1858,-0.036,0.0351,-0.1266,-2.392635007897848,0.0,5.1093292236328125,-1.2434333562850952,0.006150874774903059,1.9491002559661865,5.7116232989128015,-0.00013979132927488536,0.17119234800338745,-1.6870701948748987,0.00010960704821627587,0.03582628071308136,0.4770031273365021,-0.0,-0.005976645741611719,1.2754771709442139,-0.0027675824239850044,-0.2500607967376709
299.0,355.0,-5.7428,-0.0138,8.1858,-0.036,0.0351,-0.1266,-2.392658849755758,0.0,5.101570129394531,-1.2434139251708984,0.00723558384925127,1.9147597551345825,5.71159844377593,-0.00015815021470189095,0.17647065222263336,-1.6870339552508753,9.432589286006987e-05,0.04187240079045296,0.47709161043167114,-0.0,-0.002627743873745203,1.2754290103912354,-0.0031604503747075796,-0.295110285282135
299.0,355.0,-5.7428,-0.0138,8.1858,-0.036,0.0351,-0.1266,-2.392663141290182,0.0,5.091426372528076,-1.2433297634124756,0.007772601675242186,1.9700419902801514,5.7115588066871545,-0.00015779025852680206,0.18772098422050476,-1.6870902220355433,8.53767414810136e-05,0.028971439227461815,0.4769747853279114,-0.0,0.008099732920527458,1.2754290103912354,-0.003335150657221675,-0.27771323919296265
299.0,355.0,-5.7428,-0.0138,8.1858,-0.036,0.0351,-0.1266,-2.3926836452879847,0.0,5.1080241203308105,-1.2432692050933838,0.009023265913128853,1.963404893875122,5.711534964829244,-0.00017258233856409788,0.1740298867225647,-1.6870506445514124,7.797867874614894e-05,0.021194452419877052,0.47702735662460327,-0.0,0.006484903395175934,1.275404930114746,-0.00372689520008862,-0.2602277100086212
299.0,355.0,-5.7428,-0.0138,8.1858,-0.036,0.0351,-0.1266,-2.392635007897848,0.0,5.13740348815918,-1.2431939840316772,0.010177567601203918,1.9288113117218018,5.711566555290975,-0.0001793003175407648,0.17561466991901398,-1.687105957661764,6.990273686824366e-05,0.04041982814669609,0.4769343435764313,-0.0,0.012543309479951859,1.2753970623016357,-0.0040259044617414474,-0.2329191416501999
299.0,355.0,-5.7428,-0.0138,8.1858,-0.036,0.0351,-0.1266,-2.392618795434469,0.0,5.139429092407227,-1.243150234222412,0.011792478151619434,1.9304449558258057,5.711590754776754,-0.0001632778294151649,0.15857172012329102,-1.6870463530169886,6.486447819042951e-05,0.03341210260987282,0.47698673605918884,-0.0,0.014930257573723793,1.2753289937973022,-0.004710638429969549,-0.2866954505443573
299.0,355.0,-5.7428,-0.0138,8.1858,-0.036,0.0351,-0.1266,-2.392663141290182,0.0,5.1186909675598145,-1.2431068420410156,0.013734919019043446,1.9991178512573242,5.711566555290975,-0.0001456594909541309,0.16517511010169983,-1.6870630423175257,5.917752787354402e-05,0.035001594573259354,0.47699081897735596,-0.0,-0.00018713646568357944,1.2753210067749023,-0.005644871387630701,-0.3014943599700928
299.0,355.0,-5.7428,-0.0138,8.1858,-0.036,0.0351,-0.1266,-2.3926269016661585,0.0,5.069043159484863,-1.2429144382476807,0.015009121969342232,1.9707958698272705,5.711566555290975,-0.00015711254673078656,0.1613459289073944,-1.6870506445514124,7.399330206681043e-05,0.04649503529071808,0.4770313501358032,-0.0,-0.008076728321611881,1.2753289937973022,-0.005825583357363939,-0.26539015769958496
299.0,355.0,-5.7428,-0.0138,8.1858,-0.036,0.0351,-0.1266,-2.392646928826803,0.0,5.115555286407471,-1.242859125137329,0.01758452132344246,2.0267157554626465,5.711554991989889,-0.00021024615853093565,0.17012986540794373,-1.6870101133929651,6.840768037363887e-05,0.04274783656001091,0.4770674407482147,-0.0,0.011381831020116806,1.2752692699432373,-0.00687006488442421,-0.29494237899780273
299.0,355.0,-5.7428,-0.0138,8.1858,-0.036,0.0351,-0.1266,-2.392606874505514,0.0,5.08153772354126,-1.2427033185958862,0.019036713987588882,2.000706911087036,5.711558985501089,-0.00026377287576906383,0.17489787936210632,-1.687054459248678,6.471834058174863e-05,0.0431135892868042,0.4770674407482147,-0.0,0.009529795497655869,1.2751891613006592,-0.007871285080909729,-0.34366732835769653
299.0,355.0,-5.7428,-0.0138,8.1858,-0.036,0.0351,-0.1266,-2.3926030598082484,0.0,5.121119499206543,-1.242547869682312,0.0212766882032156,1.9852814674377441,5.711582886963644,-0.0008308122050948441,0.18430569767951965,-1.6870506445514124,3.148034738842398e-05,0.05090434104204178,0.4769507348537445,-0.0,0.00966663658618927,1.2751331329345703,-0.009630325250327587,-0.3152911365032196
299.0,355.0,-5.7428,-0.0138,8.1858,-0.036,0.0351,-0.1266,-2.392635007897848,0.0,5.109551429748535,-1.242363452911377,0.023187242448329926,2.0013442039489746,5.711550938874044,-0.001073450199328363,0.1602831482887268,-1.6870253721820276,2.9909973818575963e-05,0.03142223879694939,0.4770592749118805,-0.0,-0.007877401076257229,1.2751052379608154,-0.011525985784828663,-0.2838711738586426
299.0,355.0,-5.7428,-0.0138,8.1858,-0.036,0.0351,-0.1266,-2.3926273785033167,0.0,5.141177177429199,-1.2422122955322266,0.02552906796336174,1.9741532802581787,5.711506473809042,-0.0010926685063168406,0.16135475039482117,-1.6870296637164515,4.182923657936044e-05,0.03467188775539398,0.47699496150016785,-0.0,-4.824274219572544e-05,1.275001049041748,-0.010941991582512856,-0.31710749864578247
308.0,332.0,-5.8546,-0.1238,8.0824,-0.037,0.0538,-0.1295,-2.392651220361227,0.0,5.0774993896484375,-1.2420287132263184,0.027417801320552826,2.014272689819336,5.711494552880087,-0.0010072540026158094,0.18315255641937256,-1.6870101133929651,4.0190101572079584e-05,0.03356238454580307,0.47705909609794617,-0.0,0.007826034910976887,1.274921178817749,-0.011232291348278522,-0.2726322412490845
308.0,332.0,-5.8546,-0.1238,8.0824,-0.037,0.0538,-0.1295,-2.392651220361227,0.0,5.097288131713867,-1.2418290376663208,0.0293019637465477,1.9578907489776611,5.711527097016134,-0.0009326058207079768,0.17278814315795898,-1.6870420614825647,3.847217158181593e-05,0.028213195502758026,0.47699499130249023,-0.0,-0.008769478648900986,1.274833083152771,-0.011328903026878834,-0.2780604064464569
308.0,332.0,-5.8546,-0.1238,8.0824,-0.037,0.0538,-0.1295,-2.3926426372923792,0.0,5.0932464599609375,-1.2416820526123047,0.030365511775016785,1.9971280097961426,5.7115832445915125,-0.0008192332461476326,0.18438634276390076,-1.6870744864093226,3.63976760127116e-05,0.030560828745365143,0.47703132033348083,-0.0,0.001920086215250194,1.2746968269348145,-0.01161382719874382,-0.3246951103210449
308.0,332.0,-5.8546,-0.1238,8.0824,-0.037,0.0538,-0.1295,-2.392606874505514,0.0,5.136920928955078,-1.241402506828308,0.030153311789035797,1.989556074142456,5.71151881197051,-0.0006133811548352242,0.17614969611167908,-1.687037769948141,3.498289515846409e-05,0.04240373894572258,0.47699081897735596,-0.0,0.015591233968734741,1.2746928930282593,-0.011852698400616646,-0.3012748956680298
308.0,332.0,-5.8546,-0.1238,8.0824,-0.037,0.0538,-0.1295,-2.3926507435240687,0.0,5.111972332000732,-1.241191029548645,0.028291093185544014,2.0175013542175293,5.711514580040731,-0.0005546774482354522,0.17130407691001892,-1.6870296637164515,4.425006409292109e-05,0.030979223549365997,0.4770432710647583,-0.0,-0.007699425332248211,1.2745412588119507,-0.01191407535225153,-0.33532607555389404
308.0,332.0,-5.8546,-0.1238,8.0824,-0.037,0.0538,-0.1295,-2.3926269016661585,0.0,5.117123603820801,-1.241019368171692,0.02761217951774597,2.0045976638793945,5.7115105269248865,-0.0006480410229414701,0.18098147213459015,-1.6870463530169886,4.276519757695496e-05,0.04289134219288826,0.47700679302215576,-0.0,-0.0034842202439904213,1.2744808197021484,-0.012620675377547741,-0.3283911347389221
308.0,332.0,-5.8546,-0.1238,8.0824,-0.037,0.0538,-0.1295,-2.3926030598082484,1.4369144762937935e-11,5.139394760131836,-1.2408519983291626,0.025971421971917152,2.012946605682373,5.711531328945913,-0.0012922307942062616,0.16186027228832245,-1.687070671712057,5.0357633881503716e-05,0.04213160276412964,0.47701504826545715,-0.0,0.005031138192862272,1.274393081665039,-0.014108330011367798,-0.28705650568008423
