ramyac6/ROB537/final_project/csv/all/good_37.csv
tof_0,tof_1,accelx,accely,accelz,gyrox,gyroy,gyroz,shoulder_lift_joint_position,shoulder_lift_joint_velocity,shoulder_lift_joint_effort,elbow_joint_position,elbow_joint_velocity,elbow_joint_effort,wrist_1_joint_position,wrist_1_joint_velocity,wrist_1_joint_effort,wrist_2_joint_position,wrist_2_joint_velocity,wrist_2_joint_effort,wrist_3_joint_position,wrist_3_joint_velocity,wrist_3_joint_effort,shoulder_pan_joint_position,shoulder_pan_joint_velocity,shoulder_pan_joint_effort
200.0,230.0,0.1137,-0.5109,9.5605,-0.0347,0.0281,-0.1132,-1.9038893185057582,0.0,3.3937621116638184,-1.6349611282348633,-0.0,2.0333595275878906,4.986968207150259,0.0,0.2577952742576599,-1.531274143849508,0.0,0.0025855018757283688,0.9151129722595215,0.0,-0.015735553577542305,0.7861002683639526,0.0,-0.05875784158706665
200.0,230.0,0.1137,-0.5109,9.5605,-0.0347,0.0281,-0.1132,-1.903877397576803,0.0,3.394564628601074,-1.6349976062774658,-0.0,2.0276918411254883,4.986951905279913,0.0,0.257243275642395,-1.5312698523150843,0.0,0.013146400451660156,0.9150733947753906,0.0,-0.005939546041190624,0.7861084938049316,0.0,0.044824715703725815
200.0,230.0,0.1137,-0.5109,9.5605,-0.0347,0.0281,-0.1132,-1.9038931332030238,0.0,3.431882619857788,-1.6349811553955078,-0.0,2.0148637294769287,4.9869601903255365,0.0,0.26790374517440796,-1.5312660376178187,0.0,0.006692165043205023,0.9150654077529907,0.0,-0.01823246106505394,0.7860802412033081,0.0,-0.013854479417204857
200.0,230.0,0.1137,-0.5109,9.5605,-0.0347,0.0281,-0.1132,-1.9038812122740687,0.0,3.4135336875915527,-1.6349936723709106,-0.0,2.0618739128112793,4.986988293915548,0.0,0.2569008469581604,-1.531278435383932,0.0,0.0008669346570968628,0.9150654673576355,0.0,-0.02284001186490059,0.7860925197601318,0.0,-0.022807881236076355
200.0,230.0,0.1137,-0.5109,9.5605,-0.0347,0.0281,-0.1132,-1.903865476647848,0.0,3.4183642864227295,-1.6349692344665527,-0.0,2.0645434856414795,4.986968236952581,0.0,0.2615754008293152,-1.531302277241842,0.0,0.003034745343029499,0.9151129126548767,0.0,-0.009599829092621803,0.7860560417175293,0.0,-0.03180871158838272
200.0,230.0,0.1137,-0.5109,9.5605,-0.0347,0.0281,-0.1132,-1.9039012394347132,0.0,3.4611754417419434,-1.6349369287490845,-0.0,2.0281600952148438,4.986956018000402,0.0,0.2662126123905182,-1.5312822500811976,0.0,0.008050576783716679,0.9150732755661011,0.0,-0.0241992250084877,0.7860925197601318,0.0,0.003542722202837467
200.0,230.0,0.1137,-0.5109,9.5605,-0.0347,0.0281,-0.1132,-1.903865476647848,0.0,3.407986640930176,-1.6349611282348633,-0.0,1.97336745262146,4.9869883237178705,0.0,0.2573758661746979,-1.531278435383932,0.0,-0.0010774293914437294,0.9151732325553894,0.0,-0.018698478117585182,0.7861286997795105,0.0,-0.03153995797038078
200.0,230.0,0.1137,-0.5109,9.5605,-0.0347,0.0281,-0.1132,-1.9038573704161585,0.0,3.4114742279052734,-1.6349653005599976,-0.0,2.0341269969940186,4.9869883237178705,0.0,0.26490527391433716,-1.5312665144549769,0.0,0.012780250050127506,0.915101170539856,0.0,-0.010806737467646599,0.7861366868019104,0.0,-0.05294134467840195
200.0,230.0,0.1137,-0.5109,9.5605,-0.0347,0.0281,-0.1132,-1.9038616619505824,0.0,3.4017324447631836,-1.63494873046875,-0.0,2.045658826828003,4.986980128079214,0.0,0.2662630081176758,-1.5312460104571741,0.0,0.005495696794241667,0.9150969982147217,0.0,-0.014620091766119003,0.7861007452011108,0.0,-0.025253286585211754
201.0,232.0,0.1801,-0.4696,9.4851,-0.0347,0.0246,-0.1177,-1.903865476647848,0.0,3.433847188949585,-1.6349730491638184,-0.0,2.0120954513549805,4.986972319870748,0.0,0.2594987452030182,-1.5312541166888636,0.0,0.011417584493756294,0.9151090383529663,0.0,-0.016361240297555923,0.7860842347145081,0.0,-0.013848560862243176
201.0,232.0,0.1801,-0.4696,9.4851,-0.0347,0.0246,-0.1177,-1.903877397576803,0.0,3.4835824966430664,-1.6349492073059082,-0.0,2.054657220840454,4.986964243441381,0.0,0.25666600465774536,-1.5312421957599085,0.0,0.014549346640706062,0.9150454998016357,0.0,-0.015275847166776657,0.7861081957817078,0.0,-0.001304488629102707
201.0,232.0,0.1801,-0.4696,9.4851,-0.0347,0.0246,-0.1177,-1.9038855038084925,0.0,3.4568891525268555,-1.634989619255066,-0.0,2.021013021469116,4.987000244646826,0.0,0.2690659165382385,-1.531222168599264,0.0,0.003599452320486307,0.9150892496109009,0.0,-0.006018794607371092,0.7861126065254211,0.0,-0.019534960389137268
201.0,232.0,0.1801,-0.4696,9.4851,-0.0347,0.0246,-0.1177,-1.9038573704161585,0.0,3.4037816524505615,-1.6349811553955078,-0.0,1.9918622970581055,4.98698057511405,0.0,0.2678776979446411,-1.5313141981707972,0.0,0.01724069193005562,0.9151013493537903,0.0,-0.0224490687251091,0.7860844135284424,0.0,-0.02500901184976101
201.0,232.0,0.1801,-0.4696,9.4851,-0.0347,0.0246,-0.1177,-1.9038573704161585,0.0,3.4406819343566895,-1.634989619255066,-0.0,2.058356761932373,4.986951905279913,0.0,0.25828826427459717,-1.5312817732440394,0.0,0.010177841410040855,0.915101170539856,0.0,-0.015965238213539124,0.7861084938049316,0.0,0.020737789571285248
201.0,232.0,0.1801,-0.4696,9.4851,-0.0347,0.0246,-0.1177,-1.903865476647848,0.0,3.4318957328796387,-1.634997844696045,-0.0,2.0684280395507812,4.986972319870748,0.0,0.2622643709182739,-1.5312665144549769,0.0,-0.003137932624667883,0.9150971174240112,0.0,-0.016897162422537804,0.7861448526382446,0.0,0.014539830386638641
201.0,232.0,0.1801,-0.4696,9.4851,-0.0347,0.0246,-0.1177,-1.9038616619505824,0.0,3.431842803955078,-1.6349209547042847,-0.0,2.044727087020874,4.986964243441381,0.0,0.2643411457538605,-1.5312498251544397,0.0,0.0036848837044090033,0.9150574803352356,0.0,-0.020809121429920197,0.7861366868019104,0.0,-0.0354437455534935
201.0,232.0,0.1801,-0.4696,9.4851,-0.0347,0.0246,-0.1177,-1.9039212665953578,0.0,3.4241890907287598,-1.6349369287490845,-0.0,2.0143609046936035,4.986960160523214,0.0,0.2637175917625427,-1.5312703291522425,0.0,0.01258854940533638,0.915133535861969,0.0,-0.022066175937652588,0.7860602140426636,0.0,-0.005554132163524628
201.0,232.0,0.1801,-0.4696,9.4851,-0.0347,0.0246,-0.1177,-1.9038616619505824,0.0,3.415499687194824,-1.6349977254867554,-0.0,1.9959914684295654,4.986976521998205,0.0,0.2529269754886627,-1.5312941710101526,0.0,0.013508432544767857,0.9150891304016113,0.0,-0.014236525632441044,0.7860639095306396,0.0,0.011284682899713516
201.0,232.0,0.1801,-0.4696,9.4851,-0.0347,0.0246,-0.1177,-1.903877397576803,0.0,3.4566986560821533,-1.6349895000457764,-0.0,2.007730722427368,4.986931788712301,0.0,0.24866436421871185,-1.531262222920553,0.0,0.010593216866254807,0.9150416254997253,0.0,-0.0023785647936165333,0.7861407995223999,0.0,-0.0012983037158846855
201.0,232.0,0.1801,-0.4696,9.4851,-0.0347,0.0246,-0.1177,-1.9038449726500453,0.0,3.4340806007385254,-1.6349327564239502,-0.0,1.9701220989227295,4.987008499890127,0.0,0.26048195362091064,-1.5313060919391077,0.0,0.01826917566359043,0.9151209592819214,0.0,-0.007288615219295025,0.7861043810844421,0.0,0.01591305062174797
201.0,232.0,0.1801,-0.4696,9.4851,-0.0347,0.0246,-0.1177,-1.9038931332030238,0.0,3.4421257972717285,-1.634977102279663,-0.0,2.0507912635803223,4.986944156676092,0.0,0.2631221413612366,-1.531262222920553,0.0,0.004198786336928606,0.9151210784912109,0.0,-0.02715934067964554,0.7861449122428894,0.0,-0.01115061528980732
201.0,232.0,0.1801,-0.4696,9.4851,-0.0347,0.0246,-0.1177,-1.9038931332030238,0.0,3.4872589111328125,-1.6349772214889526,-0.0,2.0570626258850098,4.986992496043005,0.0,0.2596856355667114,-1.5312665144549769,0.0,-7.876753807067871e-05,0.9151336550712585,0.0,-0.027764836326241493,0.7860801815986633,0.0,-0.009546385146677494
201.0,232.0,0.1801,-0.4696,9.4851,-0.0347,0.0246,-0.1177,-1.9038449726500453,0.0,3.433793306350708,-1.6349936723709106,-0.0,2.027515411376953,4.98695598819808,0.0,0.2609789967536926,-1.531290356312887,0.0,0.009267795830965042,0.9151458740234375,0.0,-0.022946879267692566,0.7861167192459106,0.0,-0.03883920609951019
201.0,232.0,0.1801,-0.4696,9.4851,-0.0347,0.0246,-0.1177,-1.903865476647848,0.0,3.380441665649414,-1.6349048614501953,-0.0,1.9718800783157349,4.986972319870748,0.0,0.2467310130596161,-1.5312259832965296,0.0,-0.002748621627688408,0.9151010513305664,0.0,-0.01736033894121647,0.7861167192459106,0.0,-0.03687332570552826
201.0,232.0,0.1801,-0.4696,9.4851,-0.0347,0.0246,-0.1177,-1.9038573704161585,0.0,3.413062334060669,-1.6349411010742188,-0.0,2.00932240486145,4.986939954548635,0.0,0.2526790499687195,-1.531262222920553,0.0,0.015981322154402733,0.9150808453559875,0.0,-0.011973138898611069,0.7861287593841553,0.0,0.01912500709295273
199.0,232.0,0.1974,-0.4672,9.527,-0.0367,0.0221,-0.1182,-1.9038616619505824,0.0,3.449233055114746,-1.634968876838684,-0.0,2.0604519844055176,4.986996608763494,0.0,0.26654788851737976,-1.5313347021686,0.0,0.0014149160124361515,0.9150853157043457,0.0,-0.01959858648478985,0.7861408591270447,0.0,-0.08414939045906067
199.0,232.0,0.1974,-0.4672,9.527,-0.0367,0.0221,-0.1182,-1.9038292370238246,0.0,3.4303555488586426,-1.63490891456604,-0.0,2.02306866645813,4.987000244646826,0.0,0.2588288187980652,-1.5313060919391077,0.0,0.012535959482192993,0.9150850176811218,0.0,-0.018604012206196785,0.7861205339431763,0.0,-0.026416700333356857
199.0,232.0,0.1974,-0.4672,9.527,-0.0367,0.0221,-0.1182,-1.9038812122740687,0.0,3.3921406269073486,-1.634977102279663,-0.0,2.009918212890625,4.9870245335395715,0.0,0.26010215282440186,-1.5312698523150843,0.0,0.004025649279356003,0.9151697754859924,0.0,-0.009941819123923779,0.7861328721046448,0.0,-0.04409034177660942
199.0,232.0,0.1974,-0.4672,9.527,-0.0367,0.0221,-0.1182,-1.9039174518980921,0.0,3.4501118659973145,-1.6349811553955078,-0.0,1.9696013927459717,4.986984240799703,0.0,0.2653292417526245,-1.5312660376178187,0.0,-0.007053037639707327,0.9151418805122375,0.0,-0.004651722498238087,0.7861246466636658,0.0,-0.009662996977567673
199.0,232.0,0.1974,-0.4672,9.527,-0.0367,0.0221,-0.1182,-1.9038735828795375,0.0,3.423461437225342,-1.634917140007019,-0.0,1.9802196025848389,4.986972319870748,0.0,0.250121146440506,-1.5313227812396448,0.0,-0.007305343169718981,0.9150886535644531,0.0,-0.007275054231286049,0.7861205339431763,0.0,0.006055274046957493
199.0,232.0,0.1974,-0.4672,9.527,-0.0367,0.0221,-0.1182,-1.9038692913451136,0.0,3.421693801879883,-1.6349611282348633,-0.0,2.010359287261963,4.98695598819808,0.0,0.24942730367183685,-1.531274143849508,0.0,-0.0002656911965459585,0.9150487184524536,0.0,-0.01210859790444374,0.7860842347145081,0.0,-0.013494111597537994
199.0,232.0,0.1974,-0.4672,9.527,-0.0367,0.0221,-0.1182,-1.9038893185057582,0.0,3.4395997524261475,-1.634953260421753,-0.0,2.0276896953582764,4.986951935082235,0.0,0.2650814354419708,-1.531274143849508,0.0,0.014905539341270924,0.915113627910614,0.0,-0.024060619994997978,0.7861125469207764,0.0,-0.02503599226474762
199.0,232.0,0.1974,-0.4672,9.527,-0.0367,0.0221,-0.1182,-1.9038893185057582,0.0,3.448662519454956,-1.6349451541900635,-0.0,1.9968571662902832,4.9869961617286584,0.0,0.26815712451934814,-1.531274143849508,0.0,0.0030246777459979057,0.9151500463485718,0.0,-0.024058915674686432,0.7861526608467102,0.0,-0.02772372215986252
199.0,232.0,0.1974,-0.4672,9.527,-0.0367,0.0221,-0.1182,-1.9038893185057582,0.0,3.4770545959472656,-1.634985327720642,-0.0,2.035414218902588,4.986976492195883,0.0,0.25430890917778015,-1.5312698523150843,0.0,0.02158406190574169,0.9151051044464111,0.0,-0.011787156574428082,0.7861084938049316,0.0,-0.00981228705495596
199.0,232.0,0.1974,-0.4672,9.527,-0.0367,0.0221,-0.1182,-1.9039293728270472,0.0,3.407956600189209,-1.6350051164627075,-0.0,2.0358381271362305,4.986996578961172,0.0,0.2582572400569916,-1.531274143849508,0.0,0.015278194099664688,0.9150487780570984,0.0,-0.014203183352947235,0.7861286997795105,0.0,-0.03744126111268997
199.0,232.0,0.1974,-0.4672,9.527,-0.0367,0.0221,-0.1182,-1.903849264184469,0.0,3.478285312652588,-1.6349090337753296,-0.0,2.036985158920288,4.987012225180425,0.0,0.2696717083454132,-1.5313103834735315,0.0,0.0016278550028800964,0.9150890707969666,0.0,-0.014525854028761387,0.7861367464065552,0.0,-0.009023692458868027
199.0,232.0,0.1974,-0.4672,9.527,-0.0367,0.0221,-0.1182,-1.9038893185057582,0.0,3.4453330039978027,-1.6349811553955078,-0.0,2.021328926086426,4.98695598819808,0.0,0.2634022533893585,-1.5313103834735315,0.0,0.005916315130889416,0.9150772094726562,0.0,-0.009789526462554932,0.7861246466636658,0.0,-0.002916250843554735
199.0,232.0,0.1974,-0.4672,9.527,-0.0367,0.0221,-0.1182,-1.903849264184469,0.0,3.448228359222412,-1.634965181350708,-0.0,2.0338377952575684,4.98695598819808,0.0,0.24952228367328644,-1.5312660376178187,0.0,0.013318760320544243,0.9151210784912109,0.0,-0.011390243656933308,0.7861284613609314,0.0,-0.032111234962940216
199.0,232.0,0.1974,-0.4672,9.527,-0.0367,0.0221,-0.1182,-1.9038692913451136,0.0,3.4555294513702393,-1.634989619255066,-0.0,2.0324318408966064,4.986968326359548,0.0,0.25885164737701416,-1.5312541166888636,0.0,0.0010421740589663386,0.9151738286018372,0.0,-0.010743847116827965,0.7861367464065552,0.0,-0.009239052422344685
199.0,232.0,0.1974,-0.4672,9.527,-0.0367,0.0221,-0.1182,-1.9038735828795375,0.0,3.4377241134643555,-1.6349854469299316,-0.0,2.004948139190674,4.986968236952581,0.0,0.2665001451969147,-1.5313060919391077,0.0,-0.0013435021974146366,0.9150730967521667,0.0,-0.018917609006166458,0.7861246466636658,0.0,0.022143924608826637
199.0,232.0,0.1974,-0.4672,9.527,-0.0367,0.0221,-0.1182,-1.9038893185057582,0.0,3.4218664169311523,-1.6349047422409058,-0.0,2.05126953125,4.9869883237178705,0.0,0.26824837923049927,-1.531222168599264,0.0,-0.006764000281691551,0.9150530695915222,0.0,-0.0020731850527226925,0.7861084938049316,0.0,0.018523644655942917
204.0,234.0,0.4528,-0.3535,8.9366,-0.0334,0.022,-0.1179,-1.9038893185057582,0.0,3.4132394790649414,-1.6349570751190186,-0.0,2.0317444801330566,4.986960160523214,0.0,0.26639628410339355,-1.531262222920553,0.0,0.001843182952143252,0.9151051044464111,0.0,-0.015922922641038895,0.7860761880874634,0.0,-0.02255898527801037
204.0,234.0,0.4528,-0.3535,8.9366,-0.0334,0.022,-0.1179,-1.9038573704161585,0.0,3.4547648429870605,-1.6349488496780396,-0.0,1.9876306056976318,4.987036692887106,0.0,0.2584735155105591,-1.5313103834735315,0.0,-0.004781360737979412,0.9150968194007874,0.0,-0.012524493969976902,0.7861328721046448,0.0,0.03959226235747337
204.0,234.0,0.4528,-0.3535,8.9366,-0.0334,0.022,-0.1179,-1.9039131603636683,0.0,3.4843199253082275,-1.63490891456604,-0.0,1.9938499927520752,4.986960160523214,0.0,0.254568874835968,-1.5312822500811976,0.0,-0.012796849943697453,0.9151127934455872,0.0,-0.01921156793832779,0.7861084938049316,0.0,-0.007958631962537766
204.0,234.0,0.4528,-0.3535,8.9366,-0.0334,0.022,-0.1179,-1.9038855038084925,0.0,3.435375213623047,-1.634981393814087,-0.0,1.9586570262908936,4.987000244646826,0.0,0.27070051431655884,-1.5313103834735315,0.0,0.005464720074087381,0.9151578545570374,0.0,-0.02010384015738964,0.7861650586128235,0.0,-0.007447864394634962
204.0,234.0,0.4528,-0.3535,8.9366,-0.0334,0.022,-0.1179,-1.9039050541319789,0.0,3.4754157066345215,-1.6349492073059082,-0.0,2.0141801834106445,4.98695598819808,0.0,0.2510606348514557,-1.5312579313861292,0.0,0.00021138088777661324,0.9151336550712585,0.0,-0.018365781754255295,0.7860884070396423,0.0,-0.022230256348848343
204.0,234.0,0.4528,-0.3535,8.9366,-0.0334,0.022,-0.1179,-1.9038855038084925,0.0,3.4705207347869873,-1.634953260421753,-0.0,1.996652364730835,4.986960160523214,0.0,0.2638854384422302,-1.531278435383932,0.0,0.0007330041262321174,0.9151212573051453,0.0,-0.027031520381569862,0.7860844135284424,0.0,0.005593585316091776
204.0,234.0,0.4528,-0.3535,8.9366,-0.0334,0.022,-0.1179,-1.9038812122740687,0.0,3.4379348754882812,-1.6349451541900635,-0.0,2.0573434829711914,4.986960160523214,0.0,0.2664138376712799,-1.531262222920553,0.0,0.0013572947354987264,0.9151418209075928,0.0,-0.00747627904638648,0.7861084938049316,0.0,0.04023214057087898
204.0,234.0,0.4528,-0.3535,8.9366,-0.0334,0.022,-0.1179,-1.9038692913451136,0.0,3.4688963890075684,-1.6349291801452637,-0.0,1.9900816679000854,4.987004327564993,0.0,0.262887567281723,-1.5312822500811976,0.0,0.0032312506809830666,0.9151013493537903,0.0,-0.014205841347575188,0.7860522270202637,0.0,-0.0059017217718064785
204.0,234.0,0.4528,-0.3535,8.9366,-0.0334,0.022,-0.1179,-1.9038855038084925,0.0,3.4137377738952637,-1.6349290609359741,-0.0,2.016186237335205,4.986972319870748,0.0,0.25994521379470825,-1.5312984625445765,0.0,0.00420894380658865,0.9151253700256348,0.0,-0.014365246519446373,0.7860720753669739,0.0,-0.03894368186593056
204.0,234.0,0.4528,-0.3535,8.9366,-0.0334,0.022,-0.1179,-1.9038855038084925,0.0,3.4487497806549072,-1.6349854469299316,-0.0,1.973106861114502,4.986972319870748,0.0,0.2643764019012451,-1.531318489705221,0.0,-0.00023357360623776913,0.915117084980011,0.0,-0.009065221063792706,0.7860679030418396,0.0,-0.017961103469133377
204.0,234.0,0.4528,-0.3535,8.9366,-0.0334,0.022,-0.1179,-1.9038611851134242,0.0,3.4803202152252197,-1.6349811553955078,-0.0,2.0257840156555176,4.98694001415328,0.0,0.26696598529815674,-1.5312703291522425,0.0,0.015756450593471527,0.915064811706543,0.0,-0.02522159181535244,0.786112368106842,0.0,0.014334447681903839
204.0,234.0,0.4528,-0.3535,8.9366,-0.0334,0.022,-0.1179,-1.9038530788817347,0.0,3.443347215652466,-1.6349692344665527,-0.0,2.0316240787506104,4.986972319870748,0.0,0.26125815510749817,-1.5312984625445765,0.0,0.007546102162450552,0.9150606989860535,0.0,-0.019873566925525665,0.7861407995223999,0.0,-0.00411366019397974
204.0,234.0,0.4528,-0.3535,8.9366,-0.0334,0.022,-0.1179,-1.9038573704161585,0.0,3.402144432067871,-1.6349977254867554,-0.0,2.0876245498657227,4.986935931235113,0.0,0.25748658180236816,-1.5313227812396448,0.0,0.0023312794510275126,0.9150571227073669,0.0,-0.014444243162870407,0.7861125469207764,0.0,0.022588759660720825
204.0,234.0,0.4528,-0.3535,8.9366,-0.0334,0.022,-0.1179,-1.9038735828795375,0.0,3.4437780380249023,-1.634977102279663,-0.0,2.058586835861206,4.986936318665304,0.0,0.2574329972267151,-1.5312860647784632,0.0,0.004128065891563892,0.9151013493537903,0.0,-0.010523796081542969,0.7861002087593079,0.0,-0.003750089555978775
204.0,234.0,0.4528,-0.3535,8.9366,-0.0334,0.022,-0.1179,-1.9038974247374476,0.0,3.412053346633911,-1.6349611282348633,-0.0,1.9845335483551025,4.986960160523214,0.0,0.2662656605243683,-1.531278435383932,0.0,0.005238634999841452,0.9150812029838562,0.0,-0.023536883294582367,0.7861205339431763,0.0,-0.005600947421044111
204.0,234.0,0.4528,-0.3535,8.9366,-0.0334,0.022,-0.1179,-1.9039131603636683,0.0,3.4310693740844727,-1.6349492073059082,-0.0,1.9951622486114502,4.986972349673071,0.0,0.26182568073272705,-1.5313060919391077,0.0,0.008782951161265373,0.9151336550712585,0.0,-0.026564324274659157,0.7860925197601318,0.0,0.004520181566476822
204.0,234.0,0.1561,-0.4624,9.5695,-0.0382,0.0247,-0.119,-1.9038411579527796,0.0,3.4409637451171875,-1.634965181350708,-0.0,2.0586094856262207,4.986976492195883,0.0,0.2694523334503174,-1.531274143849508,0.0,-0.00042329318239353597,0.9150730967521667,0.0,-0.028144987300038338,0.7861205339431763,0.0,-0.06607015430927277
197.0,228.0,0.1561,-0.4624,9.5695,-0.0382,0.0247,-0.119,-1.903849264184469,0.0,3.469254732131958,-1.6349533796310425,-0.0,2.0463640689849854,4.987004327564993,0.0,0.24757394194602966,-1.531274143849508,0.0,0.01865142397582531,0.9150648713111877,0.0,-0.0189913809299469,0.7860842347145081,0.0,-0.01701647788286209
197.0,228.0,0.1561,-0.4624,9.5695,-0.0382,0.0247,-0.119,-1.9038616619505824,0.0,3.430893898010254,-1.6349730491638184,-0.0,2.018420934677124,4.986951935082235,0.0,0.24998418986797333,-1.5312579313861292,0.0,0.014998795464634895,0.9151173233985901,0.0,-0.01569373719394207,0.7861449122428894,0.0,-0.018137436360120773
197.0,228.0,0.1561,-0.4624,9.5695,-0.0382,0.0247,-0.119,-1.9038454494872035,0.0,3.395268440246582,-1.6349529027938843,-0.0,2.058234214782715,4.987000185042181,0.0,0.2653823494911194,-1.5313103834735315,0.0,0.0014693902339786291,0.9151618480682373,0.0,-0.012568655423820019,0.7861246466636658,0.0,0.015439730137586594
197.0,228.0,0.1561,-0.4624,9.5695,-0.0382,0.0247,-0.119,-1.9038292370238246,0.0,3.422024726867676,-1.6349730491638184,-0.0,2.001138210296631,4.986915844469824,0.0,0.2578694522380829,-1.5312941710101526,0.0,-0.0015841361600905657,0.9150812029838562,0.0,-0.010448961518704891,0.7861043810844421,0.0,0.0006457642302848399
197.0,228.0,0.1561,-0.4624,9.5695,-0.0382,0.0247,-0.119,-1.9038855038084925,0.0,3.442321538925171,-1.6349611282348633,-0.0,2.0259737968444824,4.986976432591238,0.0,0.2689788341522217,-1.531274143849508,0.0,0.008994108065962791,0.9150972366333008,0.0,-0.010790655389428139,0.7861286997795105,0.0,0.015747617930173874
197.0,228.0,0.1561,-0.4624,9.5695,-0.0382,0.0247,-0.119,-1.9039050541319789,0.0,3.4200658798217773,-1.634977102279663,-0.0,2.0135135650634766,4.986951905279913,0.0,0.2596133351325989,-1.5313470999347132,0.0,0.0014715716242790222,0.9150488376617432,0.0,-0.0004556146450340748,0.7861007452011108,0.0,-0.026549402624368668
197.0,228.0,0.1561,-0.4624,9.5695,-0.0382,0.0247,-0.119,-1.9039250812926234,0.0,3.4034860134124756,-1.634956955909729,-0.0,2.0451765060424805,4.986972290068426,0.0,0.27143189311027527,-1.531262222920553,0.0,0.027094924822449684,0.9151046872138977,0.0,-0.019014468416571617,0.7861125469207764,0.0,-0.051774654537439346
197.0,228.0,0.1561,-0.4624,9.5695,-0.0382,0.0247,-0.119,-1.9038931332030238,0.0,3.4515280723571777,-1.634917140007019,-0.0,2.080097198486328,4.986976492195883,0.0,0.2574046850204468,-1.5312698523150843,0.0,0.0007340511656366289,0.9151132702827454,0.0,-0.010378874838352203,0.786112368106842,0.0,-0.03280390799045563
197.0,228.0,0.1561,-0.4624,9.5695,-0.0382,0.0247,-0.119,-1.9038931332030238,0.0,3.444535255432129,-1.635013222694397,-0.0,2.0164778232574463,4.986960160523214,0.0,0.25561875104904175,-1.531245533620016,0.0,0.008998019620776176,0.9151087403297424,0.0,-0.020425945520401,0.7861205339431763,0.0,-0.033645838499069214
197.0,228.0,0.1561,-0.4624,9.5695,-0.0382,0.0247,-0.119,-1.903865476647848,0.0,3.3992207050323486,-1.6350059509277344,-0.0,2.0003883838653564,4.987004357367315,0.0,0.24934200942516327,-1.5312817732440394,0.0,0.0024534552358090878,0.9151418209075928,0.0,-0.02143614925444126,0.7860842347145081,0.0,-0.022366033867001534
197.0,228.0,0.1561,-0.4624,9.5695,-0.0382,0.0247,-0.119,-1.903877397576803,0.0,3.45432186126709,-1.6349090337753296,-0.0,2.065401077270508,4.986976551800527,0.0,0.257983922958374,-1.531262222920553,0.0,0.0045500402338802814,0.9151009917259216,0.0,-0.007877676747739315,0.7861246466636658,0.0,0.02075384184718132
197.0,228.0,0.1561,-0.4624,9.5695,-0.0382,0.0247,-0.119,-1.9038893185057582,0.0,3.4765071868896484,-1.6349451541900635,-0.0,2.0324928760528564,4.986984240799703,0.0,0.26500919461250305,-1.5312660376178187,0.0,0.014871769584715366,0.9151051044464111,0.0,-0.018749333918094635,0.7861246466636658,0.0,0.0025685951113700867
197.0,228.0,0.1561,-0.4624,9.5695,-0.0382,0.0247,-0.119,-1.9038893185057582,0.0,3.4379749298095703,-1.634968876838684,-0.0,1.9985013008117676,4.986968236952581,0.0,0.2606040835380554,-1.5312698523150843,0.0,-0.0023312661796808243,0.9151697158813477,0.0,-0.01123872771859169,0.7861084938049316,0.0,-0.01427438110113144
197.0,228.0,0.1561,-0.4624,9.5695,-0.0382,0.0247,-0.119,-1.9038735828795375,0.0,3.430522918701172,-1.6349570751190186,-0.0,2.0278360843658447,4.986968207150259,0.0,0.26692160964012146,-1.5312460104571741,0.0,0.014313064515590668,0.9151013493537903,0.0,-0.01378668937832117,0.7860883474349976,0.0,-0.04229778051376343
197.0,228.0,0.1561,-0.4624,9.5695,-0.0382,0.0247,-0.119,-1.9038735828795375,0.0,3.4294910430908203,-1.6349812746047974,-0.0,2.0288243293762207,4.986976492195883,0.0,0.2530180513858795,-1.531318489705221,0.0,0.017805060371756554,0.915137767791748,0.0,-0.012894664891064167,0.7860642671585083,0.0,0.002406542655080557
197.0,228.0,0.1107,-0.5402,9.6269,-0.0319,0.0293,-0.1113,-1.903849264184469,0.0,3.435418128967285,-1.6349369287490845,-0.0,2.014484405517578,4.986984658032217,0.0,0.27751949429512024,-1.5313227812396448,0.0,0.00513707660138607,0.9150571227073669,0.0,-0.010552825406193733,0.7861491441726685,0.0,-0.005131457932293415
200.0,224.0,0.1107,-0.5402,9.6269,-0.0319,0.0293,-0.1113,-1.9038855038084925,0.0,3.403623580932617,-1.634965181350708,-0.0,2.009733200073242,4.986976521998205,0.0,0.2651081085205078,-1.5312941710101526,0.0,-0.003574301954358816,0.9151214361190796,0.0,-0.022073844447731972,0.7861366868019104,0.0,-0.0061632366850972176
200.0,224.0,0.1107,-0.5402,9.6269,-0.0319,0.0293,-0.1113,-1.9038692913451136,0.0,3.4398672580718994,-1.6349291801452637,-0.0,1.9786473512649536,4.986972349673071,0.0,0.2658749520778656,-1.531262222920553,0.0,0.00463542714715004,0.9151210784912109,0.0,-0.015028789639472961,0.7860884070396423,0.0,0.010673701763153076
200.0,224.0,0.1107,-0.5402,9.6269,-0.0319,0.0293,-0.1113,-1.9039131603636683,0.0,3.406494140625,-1.6349648237228394,-0.0,1.9897503852844238,4.986951905279913,0.0,0.26107367873191833,-1.5312898794757288,0.0,0.0026000968646258116,0.9150927662849426,0.0,-0.016187531873583794,0.7861448526382446,0.0,-0.06999805569648743
200.0,224.0,0.1107,-0.5402,9.6269,-0.0319,0.0293,-0.1113,-1.903849264184469,0.0,3.400078296661377,-1.6349570751190186,-0.0,2.028669595718384,4.986972319870748,0.0,0.279239684343338,-1.5312698523150843,0.0,-0.0009541958570480347,0.915069043636322,0.0,-0.022323329001665115,0.7861002087593079,0.0,-0.0050775739364326
200.0,224.0,0.1107,-0.5402,9.6269,-0.0319,0.0293,-0.1113,-1.9038931332030238,0.0,3.4171717166900635,-1.6349250078201294,-0.0,2.0254335403442383,4.986972319870748,0.0,0.262431263923645,-1.5312541166888636,0.0,0.005605307873338461,0.9151537418365479,0.0,-0.0024026024620980024,0.7861286997795105,0.0,-0.02294805645942688
200.0,224.0,0.1107,-0.5402,9.6269,-0.0319,0.0293,-0.1113,-1.9038616619505824,0.0,3.4205894470214844,-1.6349811553955078,-0.0,2.038231611251831,4.9869239805038355,0.0,0.2597632110118866,-1.5312984625445765,0.0,0.010163783095777035,0.9151009917259216,0.0,-0.01552663091570139,0.7861002087593079,0.0,-0.02065027505159378
200.0,224.0,0.1107,-0.5402,9.6269,-0.0319,0.0293,-0.1113,-1.9039131603636683,0.0,3.435737371444702,-1.6349570751190186,-0.0,2.0292887687683105,4.986947822361746,0.0,0.26012831926345825,-1.5312698523150843,0.0,0.002928202971816063,0.915137767791748,0.0,-0.024279799312353134,0.7860679030418396,0.0,-0.02633410319685936
200.0,224.0,0.1107,-0.5402,9.6269,-0.0319,0.0293,-0.1113,-1.9038812122740687,0.0,3.432422161102295,-1.6349492073059082,-0.0,2.0330612659454346,4.986968326359548,0.0,0.2641456425189972,-1.5312941710101526,0.0,0.011742118746042252,0.9150890707969666,0.0,-0.01941712386906147,0.7861043810844421,0.0,-0.0013845149660483003
200.0,224.0,0.1107,-0.5402,9.6269,-0.0319,0.0293,-0.1113,-1.9038735828795375,0.0,3.3971874713897705,-1.6349130868911743,-0.0,1.9906103610992432,4.9869965491588495,0.0,0.2481239140033722,-1.5312660376178187,0.0,0.0002010297030210495,0.9151336550712585,0.0,-0.031950898468494415,0.7860925197601318,0.0,0.027893876656889915
200.0,224.0,0.1107,-0.5402,9.6269,-0.0319,0.0293,-0.1113,-1.9038573704161585,0.0,3.4445905685424805,-1.634917140007019,-0.0,2.0356826782226562,4.9869441268737695,0.0,0.2611360251903534,-1.531274143849508,0.0,0.007075169123709202,0.9150730967521667,0.0,-0.003217002609744668,0.7861205339431763,0.0,-0.015271616168320179
200.0,224.0,0.1107,-0.5402,9.6269,-0.0319,0.0293,-0.1113,-1.9039012394347132,0.0,3.4799365997314453,-1.6349854469299316,-0.0,2.0576372146606445,4.986976492195883,0.0,0.2669329345226288,-1.531274143849508,0.0,0.015175307169556618,0.9151701331138611,0.0,-0.013873695395886898,0.7861205339431763,0.0,-0.011347023770213127
200.0,224.0,0.1107,-0.5402,9.6269,-0.0319,0.0293,-0.1113,-1.9038974247374476,0.0,3.4250094890594482,-1.634968876838684,-0.0,1.9830970764160156,4.986992496043005,0.0,0.2656293511390686,-1.5312660376178187,0.0,0.021921560168266296,0.9151051044464111,0.0,-0.00612846901640296,0.7860924601554871,0.0,0.03594433516263962
200.0,224.0,0.1107,-0.5402,9.6269,-0.0319,0.0293,-0.1113,-1.9039250812926234,0.0,3.4497568607330322,-1.6349977254867554,-0.0,2.0156147480010986,4.986992496043005,0.0,0.27214527130126953,-1.5312579313861292,0.0,-0.004231223836541176,0.9150850176811218,0.0,-0.01121819019317627,0.7861287593841553,0.0,-0.04089229181408882
200.0,224.0,0.1107,-0.5402,9.6269,-0.0319,0.0293,-0.1113,-1.9039012394347132,0.0,3.408855676651001,-1.6349692344665527,-0.0,2.037710189819336,4.987024473934927,0.0,0.2606624364852905,-1.531278435383932,0.0,0.0001605694997124374,0.9151860475540161,0.0,-0.0248416755348444,0.7861287593841553,0.0,-0.01604168489575386
200.0,224.0,0.1107,-0.5402,9.6269,-0.0319,0.0293,-0.1113,-1.9038974247374476,0.0,3.411592483520508,-1.6350051164627075,-0.0,2.024052619934082,4.986988770752706,0.0,0.27306708693504333,-1.5312178770648401,0.0,0.012889972887933254,0.9151698350906372,0.0,-0.013683799654245377,0.7860842347145081,0.0,0.01227216050028801
200.0,224.0,0.2405,-0.4289,9.3655,-0.0399,0.0281,-0.1155,-1.9038168392577113,0.0,3.4273815155029297,-1.634965181350708,-0.0,2.043919086456299,4.986956018000402,0.0,0.2577519714832306,-1.5312698523150843,0.0,0.005566663108766079,0.9151086807250977,0.0,-0.022625291720032692,0.7861164212226868,0.0,-0.009725860320031643
200.0,224.0,0.2405,-0.4289,9.3655,-0.0399,0.0281,-0.1155,-1.9039293728270472,0.0,3.3966867923736572,-1.6349812746047974,-0.0,2.0466127395629883,4.986931848316946,0.0,0.26304593682289124,-1.5312860647784632,2.882227363443235e-07,0.0011399186914786696,0.9150850176811218,0.0,-0.027447082102298737,0.7861164212226868,0.0,-0.02378399670124054
203.0,233.0,0.2405,-0.4289,9.3655,-0.0399,0.0281,-0.1155,-1.903877397576803,0.0,3.4344236850738525,-1.6350175142288208,-0.0,2.0375895500183105,4.986960160523214,0.0,0.26828277111053467,-1.531222168599264,8.022784520056447e-11,0.003824498038738966,0.9150648713111877,0.0,-0.02000376023352146,0.7861126065254211,0.0,0.01396249607205391
203.0,233.0,0.2405,-0.4289,9.3655,-0.0399,0.0281,-0.1155,-1.9038330517210902,0.0,3.432865619659424,-1.6349852085113525,-0.0,1.9770994186401367,4.986992496043005,0.0,0.2585884630680084,-1.5312336126910608,2.2331718722498617e-14,0.01415601372718811,0.9150927066802979,0.0,-0.027092939242720604,0.7861367464065552,0.0,-0.0028970392886549234
203.0,233.0,0.2405,-0.4289,9.3655,-0.0399,0.0281,-0.1155,-1.9039050541319789,0.0,3.4070777893066406,-1.6349209547042847,-0.0,2.052750587463379,4.986980545311727,0.0,0.25678372383117676,-1.5312941710101526,6.216114651596662e-18,0.008483918383717537,0.9150652885437012,0.0,-0.014542002230882645,0.7861084938049316,0.0,-0.0036201304756104946
203.0,233.0,0.2405,-0.4289,9.3655,-0.0399,0.0281,-0.1155,-1.9038974247374476,0.0,3.396751880645752,-1.634965181350708,-0.0,1.9829328060150146,4.986944156676092,0.0,0.2598276734352112,-1.531278435383932,2.6500275424436243e-20,-0.005488619673997164,0.9151010513305664,0.0,-0.015084980987012386,0.7860678434371948,0.0,-0.03083045221865177
203.0,233.0,0.2405,-0.4289,9.3655,-0.0399,0.0281,-0.1155,-1.9038616619505824,0.0,3.457540512084961,-1.634968876838684,-0.0,2.074191093444824,4.9869887111480615,0.0,0.26622188091278076,-1.5312941710101526,7.376448998104428e-24,0.0028332313522696495,0.9151377081871033,0.0,-0.008422758430242538,0.7861449122428894,0.0,-0.04676266759634018
203.0,233.0,0.2405,-0.4289,9.3655,-0.0399,0.0281,-0.1155,-1.9039050541319789,0.0,3.394186019897461,-1.6349611282348633,-0.0,2.0468971729278564,4.98692815282897,0.0,0.2720490097999573,-1.5312421957599085,2.0532616471024313e-27,0.007543799467384815,0.9151613712310791,0.0,-0.013097243383526802,0.7861286997795105,0.0,-0.03426658362150192
203.0,233.0,0.2405,-0.4289,9.3655,-0.0399,0.0281,-0.1155,-1.9038735828795375,0.0,3.461538791656494,-1.6349411010742188,-0.0,2.0510401725769043,4.98695598819808,0.0,0.26189345121383667,-1.531274143849508,5.715328295138674e-31,0.01027538813650608,0.9151292443275452,0.0,-0.023145437240600586,0.7861568331718445,0.0,-0.03302250802516937
203.0,233.0,0.2405,-0.4289,9.3655,-0.0399,0.0281,-0.1155,-1.9038812122740687,0.0,3.413097858428955,-1.6349455118179321,-1.8415526048531916e-11,2.0217320919036865,4.987004327564993,0.0,0.27108800411224365,-1.5313227812396448,1.5908828303341902e-34,0.008060438558459282,0.9151578545570374,0.0,-0.007043877150863409,0.7861081957817078,-5.865665175797119e-10,-0.056610412895679474
203.0,233.0,0.2405,-0.4289,9.3655,-0.0399,0.0281,-0.1155,-1.9038735828795375,0.0,3.454378366470337,-1.6349492073059082,-3.314730031390512e-15,2.015943765640259,4.986972379475393,0.0,0.26315411925315857,-1.5313103834735315,6.782183225427175e-37,0.00015111267566680908,0.9150891304016113,0.0,-0.022131536155939102,0.7861648797988892,-1.0557990571223586e-13,-0.0007237701211124659
203.0,233.0,0.2405,-0.4289,9.3655,-0.0399,0.0281,-0.1155,-1.9038931332030238,0.0,3.4594168663024902,-1.6349451541900635,-8.004682525431768e-21,2.0490946769714355,4.986980545311727,0.0,0.25290223956108093,-1.531274143849508,1.887843304123037e-40,-0.014993400312960148,0.9150967597961426,0.0,-0.019378162920475006,0.78617262840271,-2.549630434299561e-19,-0.02026616595685482
203.0,233.0,0.2405,-0.4289,9.3655,-0.0399,0.0281,-0.1155,-1.9038616619505824,0.0,3.4397153854370117,-1.6349492073059082,-1.9330364718076292e-26,2.0098836421966553,4.986968236952581,0.0,0.2698839604854584,-1.531290356312887,5.324934164434305e-44,-0.006475313566625118,0.915084958076477,0.0,-0.008593155071139336,0.7861648797988892,0.0004593762569129467,0.031094610691070557
203.0,233.0,0.2405,-0.4289,9.3655,-0.0399,0.0281,-0.1155,-1.903905530969137,0.0,3.447866439819336,-1.6349574327468872,-4.668055281186708e-32,2.0249292850494385,4.986980545311727,0.0,0.26160377264022827,-1.5312703291522425,0.0,0.0064632948487997055,0.9151820540428162,0.0,-0.01044778898358345,0.7861608266830444,0.0005605265032500029,0.00792917050421238
203.0,233.0,0.2405,-0.4289,9.3655,-0.0399,0.0281,-0.1155,-1.9039174518980921,0.0,3.4554314613342285,-1.6349211931228638,-1.1272803790277107e-37,2.036550760269165,4.986948239594259,0.0,0.26148030161857605,-1.531274143849508,0.0,0.01502130925655365,0.9151577949523926,0.0,-0.018792130053043365,0.7861403226852417,0.0004600123211275786,0.015084072947502136
203.0,233.0,0.2405,-0.4289,9.3655,-0.0399,0.0281,-0.1155,-1.9038573704161585,0.0,3.441767454147339,-1.634965181350708,-6.168944673845544e-05,2.0714938640594482,4.986960160523214,0.0,0.2552933990955353,-1.531278435383932,0.0,-0.0034261057153344154,0.9150530099868774,0.0,-0.015344616957008839,0.7861279845237732,0.00040788366459310055,-0.018704816699028015
203.0,233.0,0.4199,-0.8602,9.6239,-0.0298,0.0263,-0.117,-1.9038735828795375,0.0,3.448972702026367,-1.6349730491638184,-0.00012920249719172716,2.046386957168579,4.9869039235408685,0.0,0.265462726354599,-1.5313103834735315,0.0,0.0023837487678974867,0.9150931239128113,0.0,-0.010197483003139496,0.7861285209655762,0.00034862718894146383,-0.015915051102638245
203.0,233.0,0.4199,-0.8602,9.6239,-0.0298,0.0263,-0.117,-1.9038893185057582,0.0,3.4458439350128174,-1.6349409818649292,-0.00010694390221033245,2.0311291217803955,4.987008470087805,0.0,0.2622852325439453,-1.5312822500811976,0.0,0.011271357536315918,0.9151252508163452,0.0,-0.0038566035218536854,0.7861403226852417,0.00030440519913099706,-0.000132273999042809
200.0,229.0,0.4199,-0.8602,9.6239,-0.0298,0.0263,-0.117,-1.9038411579527796,0.0,3.3855724334716797,-1.634981393814087,-9.076373680727556e-05,2.0072481632232666,4.98695598819808,0.0,0.268169105052948,-1.5312698523150843,0.0,-0.004287759307771921,0.9150730967521667,0.0,-0.012451001442968845,0.78617262840271,0.00027014027000404894,0.008768272586166859
200.0,229.0,0.4199,-0.8602,9.6239,-0.0298,0.0263,-0.117,-1.9039012394347132,0.0,3.452449083328247,-1.634973406791687,-7.883697253419086e-05,2.0340278148651123,4.986980545311727,0.0,0.2684224247932434,-1.5312541166888636,0.0,0.005435410421341658,0.9151173233985901,0.0,-0.006984833627939224,0.7860961556434631,0.0002428092557238415,0.033236611634492874
200.0,229.0,0.4199,-0.8602,9.6239,-0.0298,0.0263,-0.117,-1.9038812122740687,0.0,3.4173898696899414,-1.6349451541900635,-0.00010872341226786375,1.9989993572235107,4.986944156676092,0.0,0.2632775604724884,-1.531274143849508,0.0,0.00020012655295431614,0.9150927066802979,0.0,-0.01801261305809021,0.7861809134483337,0.00022746666218154132,-0.03790568560361862
200.0,229.0,0.4199,-0.8602,9.6239,-0.0298,0.0263,-0.117,-1.9038692913451136,0.0,3.4764089584350586,-1.634989619255066,-9.701008093543351e-05,2.0213353633880615,4.986944156676092,0.0,0.27041763067245483,-1.5313103834735315,0.0,0.011427522636950016,0.915081262588501,0.0,-0.015280162915587425,0.7861485481262207,0.0002077738317893818,0.02088215760886669
200.0,229.0,0.4199,-0.8602,9.6239,-0.0298,0.0263,-0.117,-1.9039012394347132,0.0,3.4306225776672363,-1.6350133419036865,-8.744842489250004e-05,1.9801034927368164,4.986980545311727,0.0,0.27871981263160706,-1.5312698523150843,0.0,0.004021037835627794,0.9151091575622559,0.0,-0.00915481522679329,0.7860879898071289,0.00016735571261961013,0.013501743786036968
200.0,229.0,0.4199,-0.8602,9.6239,-0.0298,0.0263,-0.117,-1.903865476647848,0.0,3.4334137439727783,-1.6349977254867554,-7.636461668880656e-05,2.0231215953826904,4.987012165575781,0.0,0.263226717710495,-1.5312421957599085,0.0,-0.002061929553747177,0.9150530695915222,0.0,-0.016040034592151642,0.7861285209655762,0.0001549697044538334,0.005648775026202202
200.0,229.0,0.4199,-0.8602,9.6239,-0.0298,0.0263,-0.117,-1.9038735828795375,0.0,3.445033073425293,-1.634917140007019,-8.997608529170975e-05,2.1011927127838135,4.98694001415328,0.0,0.2678469717502594,-1.531262222920553,0.0,0.0021427515894174576,0.9151132106781006,0.0,-0.014880301430821419,0.7861608266830444,5.28668133483734e-05,0.01981079950928688
200.0,229.0,0.4199,-0.8602,9.6239,-0.0298,0.0263,-0.117,-1.9039093456664027,0.0,3.446763277053833,-1.6349409818649292,-9.449805656913668e-05,2.001675605773926,4.986935961037435,0.0,0.26441672444343567,-1.5312941710101526,0.0,0.009904204867780209,0.9150767922401428,0.0,-0.012757383286952972,0.7861285209655762,4.879970947513357e-05,-0.026331698521971703
200.0,229.0,0.4199,-0.8602,9.6239,-0.0298,0.0263,-0.117,-1.9038812122740687,0.0,3.4375548362731934,-1.6349451541900635,-8.552036160835996e-05,2.012984275817871,4.98697646239356,0.0,0.27116721868515015,-1.531302277241842,0.0,0.0026102049741894007,0.9151292443275452,0.0,-0.01811251789331436,0.7861325740814209,4.5129043428460136e-05,0.03862757980823517
200.0,229.0,0.4199,-0.8602,9.6239,-0.0298,0.0263,-0.117,-1.9038616619505824,0.0,3.3799853324890137,-1.634965181350708,-7.809903036104515e-05,2.0083212852478027,4.986960160523214,0.0,0.26725536584854126,-1.5313103834735315,0.0,-0.00279950606636703,0.9151377081871033,0.0,-0.01919546164572239,0.7861566543579102,4.197202360955998e-05,-0.009437470696866512
200.0,229.0,0.4199,-0.8602,9.6239,-0.0298,0.0263,-0.117,-1.9038616619505824,0.0,3.462507486343384,-1.6349492073059082,-7.186289440141991e-05,2.016763210296631,4.986951935082235,0.0,0.26214224100112915,-1.5312579313861292,0.0,0.01149074174463749,0.9151336550712585,0.0,-0.01068445760756731,0.7861246466636658,3.922792529920116e-05,-0.027170274406671524
200.0,229.0,0.4199,-0.8602,9.6239,-0.0298,0.0263,-0.117,-1.903849264184469,0.0,3.4381585121154785,-1.6349208354949951,-6.654916796833277e-05,2.0252456665039062,4.986964243441381,0.0,0.2790617048740387,-1.531278435383932,0.0,-0.0023017730563879013,0.9151010513305664,0.0,-0.016350029036402702,0.7861285209655762,3.6820634704781696e-05,0.03507528826594353
200.0,229.0,0.4199,-0.8602,9.6239,-0.0298,0.0263,-0.117,-1.9038249454894007,0.0,3.4268436431884766,-1.634965181350708,-6.196707545313984e-05,2.021756172180176,4.9869883237178705,0.0,0.25100886821746826,-1.5313141981707972,0.0,0.0007929587736725807,0.9151086807250977,0.0,-0.009068064391613007,0.786112368106842,3.469166767899878e-05,-0.035566773265600204
200.0,229.0,0.4199,-0.8602,9.6239,-0.0298,0.0263,-0.117,-1.9038616619505824,0.0,3.439283847808838,-1.634925127029419,-5.924756987951696e-05,2.007655620574951,4.986976492195883,0.0,0.25180572271347046,-1.5313227812396448,0.0,0.00013505341485142708,0.9151010513305664,0.0,-0.022622115910053253,0.7861325740814209,3.340409239172004e-05,-0.031973373144865036
200.0,229.0,-0.3051,-0.0879,9.6221,-0.0234,0.036,-0.1579,-1.9038893185057582,0.0,3.4816579818725586,-1.6349854469299316,-5.5588163377251476e-05,2.0358080863952637,4.986972349673071,0.0,0.25006812810897827,-1.5312460104571741,0.0,0.014085084199905396,0.9151091575622559,0.0,-0.01571238413453102,0.7860842943191528,3.164247391396202e-05,-0.005915434565395117
200.0,229.0,-0.3051,-0.0879,9.6221,-0.0234,0.036,-0.1579,-1.9038411579527796,0.0,3.4175631999969482,-1.6349854469299316,-5.235451681073755e-05,2.0106375217437744,4.98700429776267,1.5398987329717784e-07,0.2699139714241028,-1.531274143849508,0.0,0.008859421126544476,0.9150926470756531,0.0,-0.01857905462384224,0.7860925197601318,3.0057342883083038e-05,0.012610964477062225
204.0,232.0,-0.3051,-0.0879,9.6221,-0.0234,0.036,-0.1579,-1.9038893185057582,0.0,3.4053611755371094,-1.634925127029419,-4.9476402637083083e-05,1.9789942502975464,4.9870080826576135,4.2863653598734786e-11,0.26845884323120117,-1.531274143849508,0.0,-0.00230469461530447,0.9151091575622559,0.0,-0.011730802245438099,0.7861366868019104,2.8623437174246646e-05,-0.014984916895627975
204.0,232.0,-0.3051,-0.0879,9.6221,-0.0234,0.036,-0.1579,-1.9038692913451136,0.0,3.4204061031341553,-1.6349653005599976,2.4003154976526275e-05,2.0280938148498535,4.987004357367315,1.193125527304724e-14,0.2746850550174713,-1.5312817732440394,0.0,0.0005117926048114896,0.9151251912117004,0.0,-0.005666463635861874,0.786112368106842,2.7320138542563654e-05,-0.016772432252764702
204.0,232.0,-0.3051,-0.0879,9.6221,-0.0234,0.036,-0.1579,-1.903849264184469,0.0,3.4248456954956055,-1.6349812746047974,2.279965701745823e-05,2.035637617111206,4.987008470087805,5.0864814864820917e-17,0.2560963034629822,-1.531278435383932,0.0,0.008158363401889801,0.9151051044464111,0.0,-0.01188153401017189,0.7861123085021973,2.651524482644163e-05,-0.013990434817969799
204.0,232.0,-0.3051,-0.0879,9.6221,-0.0234,0.036,-0.1579,-1.903865476647848,0.0,3.4478256702423096,-1.6349372863769531,2.1189312974456698e-05,2.0203425884246826,4.9870080826576135,1.4158406258608354e-20,0.2575683891773224,-1.5312660376178187,0.0,-0.0003948025405406952,0.9151251316070557,0.0,-0.014242410659790039,0.7861407995223999,2.5393102987436578e-05,-0.011076701804995537
204.0,232.0,-0.3051,-0.0879,9.6221,-0.0234,0.036,-0.1579,-1.9038292370238246,0.0,3.467787981033325,-1.6349811553955078,1.9791417798842303e-05,2.0133543014526367,4.987028467446127,3.9410441639837806e-24,0.26853030920028687,-1.5313146750079554,0.0,0.006981745362281799,0.9151540398597717,0.0,-0.014873383566737175,0.7861568331718445,2.436207068967633e-05,0.016479473561048508
204.0,232.0,-0.3051,-0.0879,9.6221,-0.0234,0.036,-0.1579,-1.9038449726500453,0.0,3.4202895164489746,-1.6349455118179321,1.856654489529319e-05,2.0023107528686523,4.987024473934927,1.0970041111261308e-27,0.2631027400493622,-1.531278435383932,0.0,0.0138753242790699,0.9151132106781006,0.0,-0.02268817648291588,0.7861205339431763,2.3411506845150143e-05,0.025936465710401535
204.0,232.0,-0.3051,-0.0879,9.6221,-0.0234,0.036,-0.1579,-1.9038530788817347,0.0,3.4152188301086426,-1.6349730491638184,1.748445902194362e-05,2.002746105194092,4.98701627829627,3.053551582475675e-31,0.26791179180145264,-1.5312660376178187,0.0,0.01551315002143383,0.9151010513305664,0.0,-0.0029602802824229,0.786108136177063,2.2532320144819096e-05,-0.001073894090950489
204.0,232.0,-0.3051,-0.0879,9.6221,-0.0234,0.036,-0.1579,-1.9038330517210902,0.0,3.4473140239715576,-1.6349693536758423,1.683055415924173e-05,2.0589113235473633,4.986943769245901,1.3017768824116604e-33,0.26118728518486023,-1.5313103834735315,0.0,0.012324974872171879,0.9150530099868774,0.0,-0.015642233192920685,0.7861809730529785,2.198200672864914e-05,-0.05048660188913345
204.0,232.0,-0.3051,-0.0879,9.6221,-0.0234,0.036,-0.1579,-1.9038893185057582,0.0,3.4637672901153564,-1.6349648237228394,3.4764496836814374e-10,2.068948268890381,4.986964154034414,3.623543710338628e-37,0.2724405825138092,-1.5312860647784632,0.0,-0.008169032633304596,0.9151336550712585,0.0,-0.00623965822160244,0.786152720451355,3.180765997967683e-05,-0.018492495641112328
204.0,232.0,-0.3051,-0.0879,9.6221,-0.0234,0.036,-0.1579,-1.9038812122740687,0.0,3.4799342155456543,-1.6349332332611084,8.395217767154044e-16,2.019617795944214,4.9869883237178705,1.0086266086517168e-40,0.26217061281204224,-1.5312817732440394,0.0,-0.001120841596275568,0.9151294231414795,0.0,-0.015236864797770977,0.7861608266830444,3.072193430853076e-05,-0.015900660306215286
204.0,232.0,-0.3051,-0.0879,9.6221,-0.0234,0.036,-0.1579,-1.9038616619505824,0.0,3.3697593212127686,-1.6349730491638184,2.0273463741012705e-21,1.995093584060669,4.986972349673071,2.802596928649634e-44,0.24973109364509583,-1.5312979857074183,0.0,0.004931212402880192,0.9150850772857666,0.0,-0.01804478093981743,0.7861403226852417,1.0138169272977393e-05,0.016400039196014404
204.0,232.0,-0.3051,-0.0879,9.6221,-0.0234,0.036,-0.1579,-1.9038411579527796,0.0,3.44974946975708,-1.6349127292633057,4.8958021262238065e-27,2.047822952270508,4.98695598819808,0.0,0.27209407091140747,-1.5312860647784632,0.0,0.009971631690859795,0.9150772094726562,0.0,-0.012891595251858234,0.7861768007278442,2.4482482013921114e-11,0.019964633509516716
204.0,232.0,-0.3051,-0.0879,9.6221,-0.0234,0.036,-0.1579,-1.9039174518980921,0.0,3.4444899559020996,-1.6349730491638184,8.812270195289642e-31,2.0682785511016846,4.986976045161047,0.0,0.2626270055770874,-1.5312660376178187,0.0,0.00608611898496747,0.915076732635498,0.0,-0.02241438627243042,0.7860999703407288,4.4067604823745405e-15,-0.031109752133488655
204.0,232.0,-0.3051,-0.0879,9.6221,-0.0234,0.036,-0.1579,-1.9038573704161585,0.0,3.400970458984375,-1.634968876838684,2.1280598283830857e-36,2.040889263153076,4.987004357367315,0.0,0.26899224519729614,-1.531302277241842,0.0,0.009035861119627953,0.9151010513305664,0.0,-0.006711943075060844,0.7861485481262207,1.0641806211878279e-20,-0.031244508922100067
204.0,232.0,-0.3051,-0.0879,9.6221,-0.0234,0.036,-0.1579,-1.9038931332030238,0.0,3.438145160675049,-1.6350376605987549,5.138561468679104e-42,2.0169808864593506,4.986968266754904,0.0,0.24860969185829163,-1.531302277241842,0.0,-0.0028078032191842794,0.9151051044464111,0.0,-0.017163559794425964,0.786144495010376,2.5698707842689302e-26,-0.02406023070216179
204.0,232.0,0.122,-0.74,9.5635,-0.0487,0.0313,-0.122,-1.9038411579527796,0.0,3.480471611022949,-1.6349812746047974,0.0,1.938201665878296,4.987004357367315,0.0,0.25324392318725586,-1.531302277241842,0.0,0.00205789553001523,0.9151614904403687,0.0,-0.023482073098421097,0.7860961556434631,6.205934263089955e-32,-0.016572758555412292
204.0,232.0,0.122,-0.74,9.5635,-0.0487,0.0313,-0.122,-1.9038130245604457,0.0,3.416696071624756,-1.634884238243103,-0.0,1.9914801120758057,4.986943769245901,0.0,0.26522669196128845,-1.5312779585467737,0.0,0.016907833516597748,0.9151537418365479,0.0,-0.015921100974082947,0.7861970663070679,1.4986600090028425e-37,-0.04008108004927635
204.0,225.0,0.122,-0.74,9.5635,-0.0487,0.0313,-0.122,-1.9038893185057582,0.0,3.38419771194458,-1.6349570751190186,-0.0,2.041429281234741,4.9869601903255365,3.522070255712606e-05,0.2572290003299713,-1.5312898794757288,0.0,0.0017234340775758028,0.915073037147522,0.0,-0.01084056030958891,0.7861566543579102,2.697499543825273e-41,-0.00365453097037971
204.0,225.0,0.122,-0.74,9.5635,-0.0487,0.0313,-0.122,-1.9038616619505824,0.0,3.4423255920410156,-1.6349811553955078,-0.0,2.0439212322235107,4.986960160523214,3.352530620759353e-05,0.2730337381362915,-1.5312979857074183,0.0,-0.0001322354655712843,0.915117084980011,0.0,-0.002914997050538659,0.7861403226852417,0.0,0.0024184228386729956
204.0,225.0,0.122,-0.74,9.5635,-0.0487,0.0313,-0.122,-1.9038735828795375,0.0,3.443413734436035,-1.6349693536758423,-0.0,2.0427141189575195,4.986992496043005,3.175125311827287e-05,0.2608274221420288,-1.531330410634176,0.0,0.0017747589154168963,0.9150968194007874,0.0,-0.018710225820541382,0.7861366868019104,0.0,-0.042106643319129944
204.0,225.0,0.122,-0.74,9.5635,-0.0487,0.0313,-0.122,-1.9038893185057582,0.0,3.409064292907715,-1.6349332332611084,-0.0,2.0261788368225098,4.987008499890127,3.015546280948911e-05,0.2576568126678467,-1.531285587941305,0.0,0.011584164574742317,0.9150570631027222,0.0,-0.00390223553404212,0.7861608266830444,0.0,0.023173080757260323
204.0,225.0,0.122,-0.74,9.5635,-0.0487,0.0313,-0.122,-1.9038812122740687,0.0,3.442976474761963,-1.6349488496780396,-0.0,2.020007848739624,4.986960160523214,2.8712374842143618e-05,0.2662773132324219,-1.5312898794757288,0.0,0.011920868419110775,0.9150891304016113,0.0,-0.015513674356043339,0.7861403226852417,0.0,-0.04656180739402771
204.0,225.0,0.122,-0.74,9.5635,-0.0487,0.0313,-0.122,-1.9038931332030238,0.0,3.3968591690063477,-1.6350051164627075,-0.0,2.0083930492401123,4.986992496043005,2.7401119950809516e-05,0.2564270496368408,-1.5313265959369105,0.0,-0.00011835922487080097,0.9150530099868774,0.0,-0.025248050689697266,0.7861525416374207,0.0,-0.005608057603240013
204.0,225.0,0.122,-0.74,9.5635,-0.0487,0.0313,-0.122,-1.9038974247374476,0.0,3.428548812866211,-1.6349250078201294,-0.0,2.0587968826293945,4.986968236952581,1.374284693156369e-05,0.25441086292266846,-1.531330410634176,0.0,0.009316285140812397,0.9151377081871033,0.0,-0.014014065265655518,0.7861887812614441,2.1759560695500113e-06,0.03386995941400528
204.0,225.0,0.122,-0.74,9.5635,-0.0487,0.0313,-0.122,-1.9038974247374476,0.0,3.3818650245666504,-1.6349411010742188,-0.0,2.0545246601104736,4.986980128079214,1.273164070880739e-05,0.2662717401981354,-1.531302277241842,0.0,-0.0048387907445430756,0.9150807857513428,0.0,-0.0019591390155255795,0.7861603498458862,5.254678636656962e-12,-0.0532805472612381
204.0,225.0,0.122,-0.74,9.5635,-0.0487,0.0313,-0.122,-1.9038616619505824,0.0,3.438173770904541,-1.6349451541900635,-0.0,2.032611131668091,4.987008499890127,1.221321235789219e-05,0.2636127173900604,-1.5312979857074183,0.0,0.0019592521712183952,0.9150731563568115,0.0,-0.0035094718914479017,0.7861925363540649,0.00046007754281163216,-0.06449306011199951
204.0,225.0,0.122,-0.74,9.5635,-0.0487,0.0313,-0.122,-1.9038573704161585,0.0,3.4682183265686035,-1.635013222694397,-0.0,2.0042872428894043,4.986939984350958,1.1735452062566765e-05,0.25394177436828613,-1.5313223044024866,0.0,0.011657608672976494,0.9151051044464111,0.0,-0.006054674740880728,0.7862289547920227,0.001851901994086802,0.0045494195073843
204.0,225.0,0.122,-0.74,9.5635,-0.0487,0.0313,-0.122,-1.9039093456664027,0.0,3.409088611602783,-1.6349331140518188,-0.0,2.0382516384124756,4.987000244646826,1.1293675925116986e-05,0.25774767994880676,-1.5313223044024866,0.0,0.019942976534366608,0.9151170253753662,0.0,-0.01632353477180004,0.7862083911895752,0.0038787759840488434,-0.00801831018179655
204.0,225.0,0.122,-0.74,9.5635,-0.0487,0.0313,-0.122,-1.9038974247374476,0.0,3.4523794651031494,-1.634953260421753,0.000593544275034219,2.000661849975586,4.987008499890127,1.1017172255378682e-05,0.2581585943698883,-1.5313423315631312,0.0,0.015370598062872887,0.9150891900062561,0.0,-0.015401878394186497,0.7862245440483093,0.004968835040926933,-0.006560321897268295
204.0,225.0,0.122,-0.74,9.5635,-0.0487,0.0313,-0.122,-1.9039250812926234,0.0,3.4216980934143066,-1.634856939315796,0.002701232908293605,1.9843947887420654,4.986939984350958,1.0626918083289638e-05,0.2624155580997467,-1.5312817732440394,0.0,0.012065996415913105,0.9151619076728821,0.0,-0.019926851615309715,0.7863734364509583,0.008130475878715515,0.013801991008222103
204.0,225.0,0.122,-0.74,9.5635,-0.0487,0.0313,-0.122,-1.9039012394347132,0.0,3.457231283187866,-1.634856939315796,0.004621686413884163,2.0193119049072266,4.986972319870748,1.0263364856655244e-05,0.2670227289199829,-1.5313385168658655,0.0,0.009823299944400787,0.9151336550712585,0.0,-0.01683150790631771,0.7864050269126892,0.011722750030457973,0.021780064329504967
204.0,225.0,-0.0562,-1.3741,10.0152,-0.0454,0.0246,-0.0922,-1.9039775333800257,-0.000788889592513442,3.439828872680664,-1.634800672531128,0.004153576213866472,2.027015209197998,4.986964154034414,2.5498484319541603e-06,0.24853700399398804,-1.5312936941729944,0.0,0.0055212900042533875,0.9151336550712585,0.0,-0.013214854523539543,0.7864930629730225,0.014363841153681278,-0.024994146078824997
204.0,225.0,-0.0562,-1.3741,10.0152,-0.0454,0.0246,-0.0922,-1.9039656124510707,-0.002906752983108163,3.4612793922424316,-1.6348776817321777,0.0013314778916537762,2.052157402038574,4.986956405430593,7.097595844385296e-10,0.2511453330516815,-1.5313265959369105,0.0,0.011841805651783943,0.915064811706543,0.0,-0.014297234825789928,0.7865649461746216,0.01833209954202175,-0.0017579952254891396
201.0,223.0,-0.0562,-1.3741,10.0152,-0.0454,0.0246,-0.0922,-1.903940816918844,-0.0033607615623623133,3.4050445556640625,-1.634820818901062,-0.000713519228156656,2.001516819000244,4.9869441268737695,3.025816359622513e-12,0.2662391662597656,-1.531318489705221,0.0,0.010160475969314575,0.9151778221130371,0.0,-0.0044431425631046295,0.7866612076759338,0.02064002864062786,0.037639521062374115
201.0,223.0,-0.0562,-1.3741,10.0152,-0.0454,0.0246,-0.0922,-1.9039694271483363,-0.0034996189642697573,3.4409050941467285,-1.6348248720169067,-0.0007062757504172623,1.9985979795455933,4.986952173500814,8.422472111023135e-16,0.26311740279197693,-1.5312936941729944,0.0,0.0008435119525529444,0.9151127934455872,0.0,-0.013813041150569916,0.7868095636367798,0.02379622310400009,0.03738810122013092
201.0,223.0,-0.0562,-1.3741,10.0152,-0.0454,0.0246,-0.0922,-1.903973241845602,-0.002886161906644702,3.462463855743408,-1.6348693370819092,-4.839659231947735e-05,2.037348747253418,4.986908006459036,2.344426311370762e-19,0.2650652527809143,-1.5312936941729944,0.0,0.007489815354347229,0.9151496291160583,1.2822607686757692e-07,-0.00326593522913754,0.7869452834129333,0.026014715433120728,0.029526889324188232
201.0,223.0,-0.0562,-1.3741,10.0152,-0.0454,0.0246,-0.0922,-1.9040247402586878,-0.0024860589765012264,3.4509236812591553,-1.6348496675491333,-1.168720537014778e-10,2.019139051437378,4.9868876216705225,6.525797564810541e-23,0.2825627624988556,-1.5313265959369105,0.0,0.0017221360467374325,0.9150806069374084,3.5692199196191154e-11,-0.0028784906025975943,0.7870973944664001,0.026268761605024338,-0.002337859943509102
201.0,223.0,-0.0562,-1.3741,10.0152,-0.0454,0.0246,-0.0922,-1.9040171108641566,-0.0022640125826001167,3.440749168395996,-1.6348211765289307,-2.8223230446741893e-16,2.0348215103149414,4.986960160523214,1.8164794997221048e-26,0.2674667239189148,-1.5312979857074183,0.0,-0.0053339810110628605,0.9151496291160583,9.935053573285977e-15,0.004362133331596851,0.7872133255004883,0.02521052397787571,0.05592607706785202
201.0,223.0,-0.0562,-1.3741,10.0152,-0.0454,0.0246,-0.0922,-1.9040571651854457,-0.002436020178720355,3.475919246673584,-1.6348538398742676,0.0007934808381833136,2.078447103500366,4.986928421049871,7.74393800961261e-29,0.263921856880188,-1.5313180128680628,0.0,0.0005484082503244281,0.9151372909545898,4.235469469609166e-17,-0.0027624485082924366,0.7873057723045349,0.022966668009757996,-0.0025053026620298624
201.0,223.0,-0.0562,-1.3741,10.0152,-0.0454,0.0246,-0.0922,-1.9040729008116664,-0.0031070401892066,3.424635410308838,-1.6347928047180176,0.0006254687323234975,2.0687737464904785,4.9869165299232385,2.155553508802357e-32,0.271138072013855,-1.531346623097555,0.0,-0.0008917569066397846,0.9151613712310791,1.1789585550868094e-20,-0.006229683756828308,0.7874258160591125,0.019412163645029068,-0.0016674483194947243
201.0,223.0,-0.0562,-1.3741,10.0152,-0.0454,0.0246,-0.0922,-1.904173036614889,-0.00490284338593483,3.4240360260009766,-1.6348414421081543,0.0004641138657461852,2.0687649250030518,4.986895787506857,-7.535526674473658e-05,0.2806420624256134,-1.5312898794757288,0.0,0.01473664864897728,0.9151613712310791,3.281674776354798e-24,-0.016900684684515,0.7875459790229797,0.0153155867010355,0.026757970452308655
201.0,223.0,-0.0562,-1.3741,10.0152,-0.0454,0.0246,-0.0922,-1.904161115685934,-0.005600697360932827,3.4606266021728516,-1.634769082069397,0.0003689560107886791,1.984021544456482,4.986932235747137,-7.054241723380983e-05,0.2645658552646637,-1.5313103834735315,0.0,-0.0076035140082240105,0.9151976108551025,9.134662615069327e-28,-0.0017245322233065963,0.7876298427581787,0.011210043914616108,-0.018202565610408783
201.0,223.0,-0.0562,-1.3741,10.0152,-0.0454,0.0246,-0.0922,-1.9041930637755335,-0.005846880376338959,3.383075714111328,-1.6348093748092651,0.0003569642431102693,2.0466010570526123,4.986976551800527,-6.312123878160492e-05,0.28081077337265015,-1.5313103834735315,0.0,-0.016820572316646576,0.9151451587677002,0.00021074307733215392,0.0010089894058182836,0.7875852584838867,0.00737369479611516,0.03668292984366417
201.0,223.0,-0.0562,-1.3741,10.0152,-0.0454,0.0246,-0.0922,-1.904229303399557,-0.005520101170986891,3.4397683143615723,-1.6347968578338623,0.0003229500143788755,1.9810179471969604,4.986951905279913,-5.898390372749418e-05,0.28738489747047424,-1.5312898794757288,0.0,0.00039162859320640564,0.9151656031608582,0.00019896340381819755,0.0012905732728540897,0.7876778841018677,0.004561072681099176,0.010219110175967216
201.0,223.0,-0.0562,-1.3741,10.0152,-0.0454,0.0246,-0.0922,-1.9042169056334437,-0.004597393795847893,3.4290006160736084,-1.6347730159759521,0.0014191181398928165,2.0744097232818604,4.986980545311727,-5.37039122718852e-05,0.27868425846099854,-1.5312936941729944,-5.992309161229059e-05,-0.017225107178092003,0.9151692390441895,0.00020166246395092458,0.0025205761194229126,0.7876333594322205,0.0020076208747923374,0.03458794578909874
201.0,223.0,-0.0562,-1.3741,10.0152,-0.0454,0.0246,-0.0922,-1.9042126140990199,-0.0030408655293285847,3.4857442378997803,-1.6347928047180176,0.001761808292940259,2.042628288269043,4.9869402823741815,-4.929167698719539e-05,0.2827528715133667,-1.53127366701235,-6.272719474509358e-05,-0.009375451132655144,0.9151212573051453,0.00020412509911693633,0.0016733183292672038,0.7876214981079102,0.0001657434768276289,0.040815453976392746
201.0,223.0,-0.0562,-1.3741,10.0152,-0.0454,0.0246,-0.0922,-1.9042407474913539,-0.0018339547095820308,3.4431312084198,-1.6347533464431763,0.0016162184765562415,2.0559821128845215,4.986932235747137,-4.554936458589509e-05,0.2781432271003723,-1.5313265959369105,-6.021078661433421e-05,-0.007667331025004387,0.915173351764679,0.00019926736422348768,-0.017093373462557793,0.7876133918762207,1.1075383943293104e-09,0.05871023237705231
201.0,223.0,0.1101,-0.9565,9.5665,-0.053,0.0316,-0.1177,-1.9042731724181117,-0.0008867471478879452,3.4349355697631836,-1.6346851587295532,0.0013617901131510735,2.071737766265869,4.986912119179525,-4.2335359466960654e-05,0.28131383657455444,-1.5313299337970179,-5.7887184084393084e-05,-0.005783780477941036,0.9151573777198792,0.0002012588520301506,0.011394304223358631,0.7876014113426208,-0.001229607849381864,-0.007939187809824944
201.0,223.0,0.1101,-0.9565,9.5665,-0.053,0.0316,-0.1177,-1.9042850933470667,-0.000635674106888473,3.438093900680542,-1.6347209215164185,0.0012411910574883223,2.0620265007019043,4.98694001415328,-4.043333319714293e-05,0.27138957381248474,-1.5312979857074183,-5.643521581077948e-05,-0.0174417681992054,0.9151492118835449,0.00019660935504361987,0.0014690442476421595,0.7876096963882446,-0.002361471299082041,0.01625332050025463
201.0,223.0,0.1101,-0.9565,9.5665,-0.053,0.0316,-0.1177,-1.904269357720846,-0.0004463685618247837,3.442805290222168,-1.6347131729125977,0.0009212587610818446,2.0855627059936523,4.986952203303137,-3.7880523450439796e-05,0.2881096601486206,-1.5312936941729944,-5.4388950957218185e-05,-0.028178177773952484,0.9152094125747681,0.0001817462471080944,-0.005182190332561731,0.7875935435295105,-0.0027664918452501297,0.03582659363746643
202.0,228.0,0.1101,-0.9565,9.5665,-0.053,0.0316,-0.1177,-1.9042450390257777,-0.00034397048875689507,3.4480581283569336,-1.6347249746322632,0.0006839802372269332,2.0091776847839355,4.986960160523214,-3.563093923730776e-05,0.2838018834590912,-1.531302277241842,-5.248586239758879e-05,-0.008809942752122879,0.9151852130889893,0.00019566139962989837,0.008029725402593613,0.7875133752822876,-0.001965931849554181,0.005160840228199959
202.0,228.0,0.1101,-0.9565,9.5665,-0.053,0.0316,-0.1177,-1.9042331180968226,-0.0002797952911350876,3.4637417793273926,-1.6347616910934448,0.0006541367620229721,2.0654079914093018,4.986916231900015,-3.363357609487139e-05,0.2907264232635498,-1.531290356312887,-5.071144551038742e-05,-0.021944204345345497,0.9151451587677002,0.0001731143129291013,-0.006949152797460556,0.7874889373779297,-0.0010362075408920646,0.012219331227242947
202.0,228.0,0.1101,-0.9565,9.5665,-0.053,0.0316,-0.1177,-1.904269357720846,-0.00023580524430144578,3.4665422439575195,-1.6347532272338867,0.0006146872765384614,2.030242443084717,4.986920314818182,-4.671391434385441e-05,0.27464449405670166,-1.5313060919391077,-1.6413300727435853e-06,-0.012526213191449642,0.9151492118835449,0.0001551999303046614,-0.0010382563341408968,0.787537693977356,-0.0007667979225516319,-0.02857639268040657
202.0,228.0,0.1101,-0.9565,9.5665,-0.053,0.0316,-0.1177,-1.9042407474913539,-0.00020376862084958702,3.433384418487549,-1.6347451210021973,0.0006188418483361602,2.044205904006958,4.986908036261358,-4.536408232524991e-05,0.28648075461387634,-1.5312617460833948,-4.568702083318499e-10,-0.02092690020799637,0.915249764919281,0.00014064607967156917,0.014491497538983822,0.787537693977356,-0.0005616517155431211,-0.0023785345256328583
202.0,228.0,0.1101,-0.9565,9.5665,-0.053,0.0316,-0.1177,-1.9042331180968226,-0.0001868463004939258,3.469834804534912,-1.6347332000732422,0.0007989961886778474,2.073702335357666,4.986936378269949,-5.6606386351631954e-05,0.27625641226768494,-1.5312379042254847,-1.9477093549102875e-12,-0.018607230857014656,0.9151692390441895,0.0001323709439020604,0.006492650136351585,0.7875536680221558,-0.0004766394558828324,0.0009369282051920891
202.0,228.0,0.1101,-0.9565,9.5665,-0.053,0.0316,-0.1177,-1.9042650661864222,-0.0001661489368416369,3.4824271202087402,-1.634701132774353,0.0006466186023317277,2.041794776916504,4.986952203303137,-4.4052681914763525e-05,0.27777671813964844,-1.5312860647784632,-5.421520670382651e-16,-0.02343779057264328,0.9151729941368103,0.00014594875392504036,-0.005302023142576218,0.7875781059265137,-0.00012750479800160974,0.0329214408993721
202.0,228.0,0.1101,-0.9565,9.5665,-0.053,0.0316,-0.1177,-1.9042850933470667,-0.00014957995153963566,3.4456229209899902,-1.6346932649612427,0.0005661913310177624,2.0190014839172363,4.986932682781973,-5.670512473443523e-05,0.2807631492614746,-1.5312698523150843,-1.5091001669825889e-19,-0.012387752532958984,0.9151451587677002,0.00013501406647264957,-0.005900564603507519,0.7875698208808899,-0.0001051179351634346,-0.05038541927933693
202.0,228.0,0.1101,-0.9565,9.5665,-0.053,0.0316,-0.1177,-1.9042650661864222,-0.00016321758448611945,3.471771001815796,-1.6347135305404663,0.0004904631059616804,2.0603275299072266,4.986864197045126,-6.475599366240203e-05,0.2864209711551666,-1.5313060919391077,-4.20063477983704e-23,-0.009243679232895374,0.9152171611785889,0.00012559318565763533,-0.012604962103068829,0.7875616550445557,-4.472383443498984e-05,-0.04367493838071823
202.0,228.0,0.1101,-0.9565,9.5665,-0.053,0.0316,-0.1177,-1.904269357720846,-0.00017458621005062014,3.432717800140381,-1.6347697973251343,0.0005130729987286031,1.9904844760894775,4.986860620766439,-8.28170232125558e-05,0.2949802875518799,-1.531274143849508,-1.1692621907818211e-26,-0.011840769089758396,0.9151532649993896,0.00011740134505089372,-0.004546798765659332,0.7875616550445557,-6.467725199854613e-08,0.001954550389200449
202.0,228.0,0.1101,-0.9565,9.5665,-0.053,0.0316,-0.1177,-1.9042612514891566,-0.00018904087482951581,3.4095969200134277,-1.6346932649612427,0.0006420877762138844,2.02799916267395,4.986900347262182,-8.409125439357013e-05,0.29738691449165344,-1.5313103834735315,-4.98474845625516e-29,-0.003664616495370865,0.915189266204834,0.00011250910756643862,-0.005176977254450321,0.78759765625,-1.1641675470852597e-11,0.06733755767345428
202.0,228.0,0.1101,-0.9565,9.5665,-0.053,0.0316,-0.1177,-1.9043013058104457,-0.00015990345855243504,3.4656083583831787,-1.6346850395202637,0.0006565062212757766,2.0510425567626953,4.986900347262182,-0.0003092844854108989,0.2850748896598816,-1.5313103834735315,-1.3875231157943006e-32,-0.012120621278882027,0.9151492118835449,0.00010589024896034971,0.0027957395650446415,0.7876297831535339,-2.8113274982276444e-17,0.011247948743402958
202.0,228.0,0.1101,-0.9565,9.5665,-0.053,0.0316,-0.1177,-1.904308935204977,-0.0008803880191408098,3.4406659603118896,-1.6346529722213745,0.00081585010048002,2.0435233116149902,4.986888366728582,-0.0003072588879149407,0.2926052510738373,-1.5312936941729944,-3.862221788251052e-36,-0.0032846860121935606,0.9151611328125,0.00010000688780564815,-0.00504244165495038,0.7875857353210449,-6.789025302753412e-23,0.055353131145238876
202.0,228.0,0.1101,-0.9565,9.5665,-0.053,0.0316,-0.1177,-1.9042850933470667,-0.0012561801122501493,3.429431915283203,-1.634680986404419,0.0008300755871459842,2.0733489990234375,4.98690031745986,-0.00026279434678144753,0.28245702385902405,-1.531302277241842,-1.0750635701438207e-39,-0.0056322552263736725,0.9151971936225891,9.474281978327781e-05,0.006392324343323708,0.7875935435295105,-1.6394696522421304e-28,0.04592617601156235
202.0,228.0,0.1107,-0.2794,9.5605,-0.0328,0.0241,-0.1194,-1.9043451748290003,-0.0016193652991205454,3.4494876861572266,-1.6346447467803955,0.0008562193834222853,2.004051685333252,4.986928093224325,-0.0002293075667694211,0.2914589047431946,-1.5312698523150843,-2.9987787136551085e-43,-0.014994356781244278,0.9152090549468994,9.000537102110684e-05,0.003162101376801729,0.7875853180885315,-3.959125584996929e-34,0.06429214030504227
202.0,228.0,0.1107,-0.2794,9.5605,-0.0328,0.0241,-0.1194,-1.904320856133932,-0.0019383459584787488,3.43205189704895,-1.6347014904022217,0.0009538650629110634,2.013267755508423,4.986920076399603,-0.00021135386487003416,0.2816525995731354,-1.5312660376178187,-1.401298464324817e-45,-0.025124844163656235,0.9151930809020996,0.00010137045319424942,0.0014893334591761231,0.7876256704330444,0.000561130465939641,0.056406088173389435
202.0,228.0,0.1107,-0.2794,9.5605,-0.0328,0.0241,-0.1194,-1.9043451748290003,-0.002342896070331335,3.442845344543457,-1.6346932649612427,0.0010340865701436996,2.0672733783721924,4.98690419176177,-0.00018914176325779408,0.2878941297531128,-1.5313227812396448,-0.0,-0.013029750436544418,0.9151890873908997,9.692811727290973e-05,-0.0047910031862556934,0.7876256704330444,0.0005735683953389525,0.025767680257558823
198.0,228.0,0.1107,-0.2794,9.5605,-0.0328,0.0241,-0.1194,-1.9043647251524867,-0.0032877300400286913,3.4365763664245605,-1.6346404552459717,0.0013804869959130883,2.1087491512298584,4.986868577986517,-0.0001995511120185256,0.29617181420326233,-1.5313146750079554,-0.0,-0.0238216333091259,0.9152050018310547,9.265178960049525e-05,-0.0020609465427696705,0.7875852584838867,0.0007880363846197724,0.09140156209468842
198.0,228.0,0.1107,-0.2794,9.5605,-0.0328,0.0241,-0.1194,-1.904433389703268,-0.0041514551267027855,3.485419750213623,-1.6346735954284668,0.0016180817037820816,2.084394931793213,4.986924069910803,-0.00018234118761029094,0.29616206884384155,-1.5312860647784632,-0.0,-0.036532025784254074,0.9151811599731445,8.873669139575213e-05,0.0022707257885485888,0.7876174449920654,0.0006628711707890034,0.05722808837890625
198.0,228.0,0.1107,-0.2794,9.5605,-0.0328,0.0241,-0.1194,-1.9044128857054652,-0.005472724791616201,3.4214682579040527,-1.6346652507781982,0.0020135154481977224,2.0740458965301514,4.986872422486105,-0.00016777259588707238,0.30036693811416626,-1.5312460104571741,-0.0,-0.012503829784691334,0.9151530265808105,8.513910870533437e-05,-0.005056396592408419,0.7876337766647339,0.0005072664935141802,-0.00928599014878273
198.0,228.0,0.1107,-0.2794,9.5605,-0.0328,0.0241,-0.1194,-1.9044248066344203,-0.006166286766529083,3.434887647628784,-1.63460111618042,0.002618186641484499,2.0984597206115723,4.986872422486105,-0.000159288159920834,0.2894880473613739,-1.5313141981707972,-0.0,-0.016802918165922165,0.9151811003684998,8.289847755804658e-05,0.01380739826709032,0.7876297235488892,0.000495485553983599,0.009588977321982384
198.0,228.0,0.1107,-0.2794,9.5605,-0.0328,0.0241,-0.1194,-1.9045211277403773,-0.00629377132281661,3.4387221336364746,-1.6345769166946411,0.0032149350736290216,2.0247035026550293,4.986920076399603,-0.00014805712271481752,0.28358590602874756,-1.5313103834735315,-0.0,-0.028551261872053146,0.9151890277862549,7.975028711371124e-05,-0.006928550079464912,0.7876580357551575,0.0003892584645655006,-0.009048422798514366
198.0,228.0,0.1107,-0.2794,9.5605,-0.0328,0.0241,-0.1194,-1.9045654735960902,-0.006324204616248608,3.40303111076355,-1.6345731019973755,0.00411066273227334,2.048316478729248,4.9868764756019495,-0.00013830563693773001,0.28723305463790894,-1.531278435383932,-0.0,-0.004187118262052536,0.9152090549468994,7.683240983169526e-05,-0.001420204876922071,0.7876379489898682,0.00026678794529289007,-0.03628445789217949
198.0,228.0,0.1107,-0.2794,9.5605,-0.0328,0.0241,-0.1194,-1.9045926533141078,-0.006380310282111168,3.4168405532836914,-1.6345173120498657,0.004689185880124569,2.0837409496307373,4.986884760647573,-0.00012975958816241473,0.28146499395370483,-1.531302277241842,-0.0,-0.011680270545184612,0.9151650071144104,8.46630209707655e-05,-0.00347247626632452,0.7876497507095337,0.00022643244301434606,-0.03335759788751602
198.0,228.0,0.1107,-0.2794,9.5605,-0.0328,0.0241,-0.1194,-1.9046250782408656,-0.006845535710453987,3.382366418838501,-1.6345418691635132,0.0047124275006353855,2.088738441467285,4.9868963835533044,-0.00012220807548146695,0.2863329350948334,-1.5312541166888636,-0.0,-0.01306280866265297,0.9152738451957703,8.182127203326672e-05,-0.007180379703640938,0.7876055836677551,0.00019673170754685998,0.03498689830303192
198.0,228.0,0.1107,-0.2794,9.5605,-0.0328,0.0241,-0.1194,-1.9046932659544886,-0.007162334863096476,3.3778510093688965,-1.6345254182815552,0.004617201630026102,2.0909273624420166,4.986884760647573,-0.00011764380178647116,0.2822946310043335,-1.5312660376178187,-0.0,-0.0012976494617760181,0.915185272693634,8.000295929377899e-05,-0.007772322744131088,0.7876096963882446,0.00018091221863869578,-0.04051082208752632
198.0,228.0,0.1107,-0.2794,9.5605,-0.0328,0.0241,-0.1194,-1.9046970806517542,-0.0075355456210672855,3.379046678543091,-1.63448965549469,0.004898098297417164,2.057859182357788,4.986868548184194,-0.0001114028345909901,0.2992459535598755,-1.5312941710101526,-0.0,-0.007973476313054562,0.9151930809020996,8.666904705023626e-08,0.0014123476576060057,0.7876296639442444,0.00012915329716634005,-0.034086111932992935
198.0,228.0,0.1107,-0.2794,9.5605,-0.0328,0.0241,-0.1194,-1.904764314691061,-0.007256340701133013,3.403360366821289,-1.6344856023788452,0.004750449676066637,2.0586090087890625,4.986912238388815,-0.00010579075751593336,0.2920103371143341,-1.5312698523150843,-0.0,-0.0005048725288361311,0.9152169227600098,5.3919076890451834e-05,-0.008553383871912956,0.7875775098800659,8.746828825678676e-05,-0.06989198178052902
198.0,228.0,0.1107,-0.2794,9.5605,-0.0328,0.0241,-0.1194,-1.9047686062254847,-0.006534577812999487,3.4076950550079346,-1.6344289779663086,0.004989789333194494,2.0642001628875732,4.98691617229537,-0.00010071691212942824,0.3019542098045349,-1.531274143849508,-0.0,-0.004167499952018261,0.9152294993400574,5.749910997110419e-05,0.0011537158861756325,0.7876580357551575,-6.770891923224553e-05,-0.05510813742876053
198.0,228.0,0.1107,-0.2794,9.5605,-0.0328,0.0241,-0.1194,-1.9047962627806605,-0.006483742501586676,3.3599605560302734,-1.6343648433685303,0.0050545441918075085,2.074002265930176,4.986960011511602,-9.610763663658872e-05,0.29838258028030396,-1.531278435383932,-0.0,-0.002545717405155301,0.915212869644165,5.537785909837112e-05,-0.00520364148542285,0.7876220345497131,-9.126812074100599e-05,-0.018658343702554703
198.0,228.0,0.2058,-0.5809,9.6108,-0.0321,0.0137,-0.1235,-1.904872556725973,-0.006144060753285885,3.32725191116333,-1.6343731880187988,0.006022080313414335,2.079118251800537,4.9869121489818475,-9.190163837047294e-05,0.2908281087875366,-1.531278435383932,-0.0,-0.018963243812322617,0.915212869644165,5.340617644833401e-05,0.007090864237397909,0.7875692844390869,-8.2864731666632e-05,-0.056872524321079254
198.0,228.0,0.2058,-0.5809,9.6108,-0.0321,0.0137,-0.1235,-1.904912611047262,-0.006562797352671623,3.4148120880126953,-1.6343492269515991,0.006089203990995884,2.1410114765167236,4.986856627255239,-8.929644536692649e-05,0.29818475246429443,-1.531262222920553,-0.0,-0.01205362193286419,0.9151045083999634,6.251171726034954e-05,0.003094668732956052,0.7876540422439575,-0.00010397328878752887,-0.04992718994617462
198.0,228.0,0.2058,-0.5809,9.6108,-0.0321,0.0137,-0.1235,-1.9048963985838832,-0.005765165202319622,3.333646535873413,-1.634269118309021,0.00764481071382761,2.067091941833496,4.9869161424930475,-8.565423195250332e-05,0.2813725769519806,-1.5312665144549769,-4.323790658844473e-09,-0.0009633605368435383,0.9151729941368103,6.049744479241781e-05,0.0020872573368251324,0.7875857353210449,-9.578711615176871e-05,-0.08710914850234985
200.0,224.0,0.2058,-0.5809,9.6108,-0.0321,0.0137,-0.1235,-1.9050127468504847,-0.00550512271001935,3.3573615550994873,-1.6342291831970215,0.008637522347271442,2.0593700408935547,4.98691617229537,-8.229754894273356e-05,0.2759224772453308,-1.531222168599264,-1.2035431245366324e-12,-0.004482618998736143,0.91520094871521,5.03156911690894e-07,0.0018826569430530071,0.7875452637672424,-0.00021687502157874405,-0.07234649360179901
200.0,224.0,0.2058,-0.5809,9.6108,-0.0321,0.0137,-0.1235,-1.905008932153219,-0.005182728171348572,3.335590124130249,-1.6341888904571533,0.009958870708942413,2.1097099781036377,4.98690419176177,-9.049467917066067e-05,0.28906816244125366,-1.5312822500811976,-3.3501066271303837e-16,-0.007041430100798607,0.915245532989502,1.4005557824603443e-10,0.00843194592744112,0.7875898480415344,-0.00023116960073821247,-0.06880228966474533
200.0,224.0,0.2058,-0.5809,9.6108,-0.0321,0.0137,-0.1235,-1.9050642452635707,-0.005441618617624044,3.352816104888916,-1.6341534852981567,0.012205052189528942,2.054701328277588,4.986892658263006,-8.72183300089091e-05,0.2949034571647644,-1.531278435383932,-9.325146964843252e-20,-0.00817729439586401,0.9151530265808105,3.898498616484482e-14,0.001527430023998022,0.78759765625,-0.00024016427050810307,-0.0760316401720047
200.0,224.0,0.2058,-0.5809,9.6108,-0.0321,0.0137,-0.1235,-1.9050361118712367,-0.00498665077611804,3.3044233322143555,-1.6341338157653809,0.013332843780517578,2.1117727756500244,4.986908215075292,-8.515526860719547e-05,0.27402153611183167,-1.5313141981707972,-3.9754565801433644e-22,-0.018256571143865585,0.9152616858482361,1.6619910067273465e-16,0.001670220633968711,0.78759765625,-0.00022070869454182684,-0.10126328468322754
200.0,224.0,0.2058,-0.5809,9.6108,-0.0321,0.0137,-0.1235,-1.9050642452635707,-0.005338877905160189,3.294198513031006,-1.633956789970398,0.01566077023744583,2.095700740814209,4.986888634949484,-5.95614910707809e-05,0.29539304971694946,-1.5312302748309534,-1.1065830164458923e-25,-0.015987906605005264,0.9151849150657654,4.626213401503665e-20,0.008854500949382782,0.7875452041625977,-0.0002292111312272027,-0.12985309958457947
200.0,224.0,0.2058,-0.5809,9.6108,-0.0321,0.0137,-0.1235,-1.905104776422018,-0.005610927473753691,3.311656951904297,-1.6338287591934204,0.01911965198814869,2.0870847702026367,4.986912238388815,-5.710538971470669e-05,0.26607900857925415,-1.5313428084002894,-3.0802143898438513e-29,5.248922389000654e-05,0.915212869644165,1.287723604363934e-23,0.006817865651100874,0.787605881690979,-0.00020678178407251835,-0.12297062575817108
200.0,224.0,0.2058,-0.5809,9.6108,-0.0321,0.0137,-0.1235,-1.905140062371725,-0.0055085765197873116,3.277895450592041,-1.6337692737579346,0.02225530333817005,2.1318352222442627,4.986836808710851,-6.0434642364270985e-05,0.2847239375114441,-1.5312865416156214,-8.573889756320711e-33,-0.0034593003802001476,0.9151849150657654,3.584425641882849e-27,0.006592547986656427,0.7875977158546448,-0.00021512219973374158,-0.16563710570335388
200.0,224.0,0.2058,-0.5809,9.6108,-0.0321,0.0137,-0.1235,-1.9051767788329066,-0.0055821980349719524,3.289341926574707,-1.633601427078247,0.02705470845103264,2.1708946228027344,4.986931967526235,-6.367645983118564e-05,0.27669334411621094,-1.5312383810626429,-2.386573880208576e-36,0.0005533643998205662,0.9152376651763916,9.977380699214506e-31,0.011524800211191177,0.7876099944114685,-0.00019743865414056927,-0.15328460931777954
200.0,224.0,0.2058,-0.5809,9.6108,-0.0321,0.0137,-0.1235,-1.905192037621969,-0.006120054982602596,3.2451493740081787,-1.6334896087646484,0.030998291447758675,2.1786956787109375,4.986852782755651,-7.223212742246687e-05,0.271679162979126,-1.531234089528219,-1.0174337694999983e-38,0.012294861488044262,0.9152496457099915,4.253513451480985e-33,0.011052785441279411,0.7875492572784424,-0.0001871733256848529,-0.18284668028354645
200.0,224.0,0.2058,-0.5809,9.6108,-0.0321,0.0137,-0.1235,-1.905208250085348,-0.0058848196640610695,3.3004016876220703,-1.633277177810669,0.03594361990690231,2.1410744190216064,4.986860471754827,-8.017024083528668e-05,0.2764327824115753,-1.531250301991598,-2.8320241964004553e-42,-0.014955849386751652,0.915184497833252,1.1839810627377472e-36,0.0038123871199786663,0.7876138687133789,-0.00017363179358653724,-0.11443595588207245
200.0,224.0,0.2058,-0.5809,9.6108,-0.0321,0.0137,-0.1235,-1.905248304406637,-0.006338687147945166,3.314267158508301,-1.6329810619354248,0.041287075728178024,2.1568500995635986,4.9868764756019495,-0.00032376861781813204,0.27804505825042725,-1.531262222920553,-1.401298464324817e-45,0.00370286637917161,0.9151926040649414,3.2956578063069643e-40,0.0014596972614526749,0.7875655293464661,-0.00016191766189876944,-0.15928368270397186
200.0,224.0,0.2058,-0.5809,9.6108,-0.0321,0.0137,-0.1235,-1.905299802819723,-0.007656963542103767,3.267176628112793,-1.6328057050704956,0.045706626027822495,2.11582350730896,4.986844706326284,-0.0008100135019049048,0.2798832058906555,-1.531250301991598,-0.0,-0.009110119193792343,0.9151729941368103,9.10844001811131e-44,0.01073282491415739,0.7875573039054871,-0.0001516841584816575,-0.15095674991607666
200.0,224.0,0.2058,-0.5809,9.6108,-0.0321,0.0137,-0.1235,-1.905384202996725,-0.008887603878974915,3.2440905570983887,-1.6324928998947144,0.051315486431121826,2.1599903106689453,4.986856597452917,-0.0007137255161069334,0.284665048122406,-1.531222168599264,-0.0,0.017335982993245125,0.9151771068572998,0.0,0.008061805739998817,0.7875695824623108,-0.00014266735524870455,-0.17664341628551483
200.0,224.0,0.2231,-0.5456,10.194,-0.0255,0.0977,-0.1228,-1.905412336389059,-0.008582639507949352,3.2552618980407715,-1.632280945777893,0.05662555620074272,2.1497621536254883,4.986868577986517,-0.0006648166454397142,0.27592769265174866,-1.5312460104571741,0.0001071146471076645,0.0050179255194962025,0.9151651859283447,0.0,0.01799663156270981,0.7876421809196472,-0.00013722908624913543,-0.17841345071792603
200.0,224.0,0.2231,-0.5456,10.194,-0.0255,0.0977,-0.1228,-1.9054843387999476,-0.00830208882689476,3.248624324798584,-1.631897211074829,0.06605374813079834,2.18338942527771,4.986828583269872,-0.0006023111054673791,0.27390262484550476,-1.5312584082232874,0.00010068696428788826,-0.0046600764617323875,0.9151923060417175,0.0,0.018060384318232536,0.7875816226005554,-0.00011485722643556073,-0.16425377130508423
200.0,224.0,0.2231,-0.5456,10.194,-0.0255,0.0977,-0.1228,-1.9055243931212367,-0.009138723835349083,3.233485221862793,-1.6314568519592285,0.07499302178621292,2.2251241207122803,4.986864554672994,-0.0006908278446644545,0.2808789312839508,-1.5312746206866663,0.00011258458107477054,0.008906126022338867,0.915245532989502,0.0,0.002985541708767414,0.787569522857666,-0.0001066878394340165,-0.1562103033065796
200.0,224.0,0.2231,-0.5456,10.194,-0.0255,0.0977,-0.1228,-1.9055844746031703,-0.011111070401966572,3.2357065677642822,-1.6310094594955444,0.08258936554193497,2.2078444957733154,4.986848670035162,-0.0010731859365478158,0.2637726962566376,-1.5312383810626429,0.00010652316268533468,0.0027911467477679253,0.9152171015739441,0.0,0.015275873243808746,0.7875935435295105,-9.960344323189929e-05,-0.18759459257125854
198.0,222.0,0.2231,-0.5456,10.194,-0.0255,0.0977,-0.1228,-1.9056760273375453,-0.013546702452003956,3.2443394660949707,-1.630509853363037,0.09037081152200699,2.2192742824554443,4.986804771214285,-0.001139239058829844,0.27013230323791504,-1.531290356312887,0.00011704579810611904,0.015543319284915924,0.9152376651763916,0.0,0.009185278788208961,0.7875980734825134,-9.340147516923025e-05,-0.21759480237960815
198.0,222.0,0.2231,-0.5456,10.194,-0.0255,0.0977,-0.1228,-1.9057198963561,-0.014909559860825539,3.2245874404907227,-1.6300811767578125,0.0938604548573494,2.2521023750305176,4.986860590964117,-0.0008737791795283556,0.2498227059841156,-1.5312183539019983,0.000113118534500245,0.013093549758195877,0.915245532989502,0.0,0.00784348789602518,0.7875693440437317,-8.967864414444193e-05,-0.242677241563797
198.0,222.0,0.2231,-0.5456,10.194,-0.0255,0.0977,-0.1228,-1.9058400593199671,-0.016637437045574188,3.162454605102539,-1.6295051574707031,0.09313676506280899,2.2076845169067383,4.986828523665228,-0.0005537949618883431,0.25758638978004456,-1.5312016646014612,0.00012215461174491793,0.024586906656622887,0.9152331948280334,0.0,0.0035379561595618725,0.787605881690979,-8.461975085083395e-05,-0.21446989476680756
198.0,222.0,0.2231,-0.5456,10.194,-0.0255,0.0977,-0.1228,-1.9059320888915003,-0.017538707703351974,3.1994543075561523,-1.6289054155349731,0.09516575932502747,2.1869070529937744,4.9868086753185175,-0.000404281570808962,0.27130669355392456,-1.531250301991598,0.00020572745415847749,0.02081047184765339,0.915221095085144,0.0,0.012621081434190273,0.7875736951828003,-8.010103192646056e-05,-0.1849547028541565
198.0,222.0,0.2231,-0.5456,10.194,-0.0255,0.0977,-0.1228,-1.9059754810728968,-0.01737593486905098,3.1832661628723145,-1.62832510471344,0.09974195808172226,2.2678022384643555,4.98682855346755,-0.00031839049188420177,0.2640302777290344,-1.5312746206866663,0.0002014859055634588,0.011856870725750923,0.9152656197547913,0.0,0.005579062737524509,0.7875939607620239,-7.604040729347616e-05,-0.26850420236587524
198.0,222.0,0.2231,-0.5456,10.194,-0.0255,0.0977,-0.1228,-1.906107564965719,-0.015083027072250843,3.1915102005004883,-1.6277697086334229,0.10543838143348694,2.1664795875549316,4.986836451082983,-0.00026261628954671323,0.2566297650337219,-1.531262222920553,0.00019621450337581336,0.02250937558710575,0.9151849150657654,5.2343639254104346e-05,0.023683149367570877,0.7875733971595764,-7.237170211737975e-05,-0.21812224388122559
198.0,222.0,0.2231,-0.5456,10.194,-0.0255,0.0977,-0.1228,-1.9061838589110316,-0.015319958329200745,3.1667070388793945,-1.6272693872451782,0.10780468583106995,2.221554756164551,4.986828583269872,-0.0002351583243580535,0.2650372087955475,-1.531250301991598,0.00018292396271135658,0.03571595624089241,0.9152816534042358,5.5332842748612165e-05,0.01081751100718975,0.7876179218292236,-5.610073640127666e-05,-0.2266741394996643
198.0,222.0,0.2231,-0.5456,10.194,-0.0255,0.0977,-0.1228,-1.906255384484762,-0.01837482489645481,3.1387577056884766,-1.6265572309494019,0.11261607706546783,2.2174322605133057,4.986832487374105,-0.000243923015659675,0.2490110695362091,-1.5312703291522425,0.0001927722041727975,0.01750229485332966,0.9152417778968811,5.3381776524474844e-05,-0.004121911246329546,0.7876133918762207,-5.35882318217773e-05,-0.23418991267681122
198.0,222.0,0.2231,-0.5456,10.194,-0.0255,0.0977,-0.1228,-1.9064275226988734,-0.02399681881070137,3.2133312225341797,-1.6258739233016968,0.12019304931163788,2.202305793762207,4.986816632538595,-0.0002770030696410686,0.26654741168022156,-1.5312302748309534,0.0001773592666722834,0.027345582842826843,0.9151885509490967,5.154731115908362e-05,0.016506461426615715,0.7875816822052002,-5.129744022269733e-05,-0.18373264372348785
198.0,222.0,0.2231,-0.5456,10.194,-0.0255,0.0977,-0.1228,-1.9065796337523402,-0.03111094981431961,3.12398099899292,-1.6251134872436523,0.12718451023101807,2.2631919384002686,4.986800747900762,-0.00024485739413648844,0.2629741430282593,-1.5312545935260218,0.0001635457738302648,0.021258540451526642,0.9152252674102783,4.983473991160281e-05,0.0229751318693161,0.7875934839248657,-4.9194561142940074e-05,-0.1771307736635208
198.0,222.0,0.2231,-0.5456,10.194,-0.0255,0.0977,-0.1228,-1.9068242512144984,-0.038560252636671066,3.090163230895996,-1.6243747472763062,0.12943099439144135,2.2608461380004883,4.98680471160964,-0.0007413990097120404,0.25021013617515564,-1.5312703291522425,0.00017339776968583465,0.022949906066060066,0.9152331352233887,2.7365434362991437e-08,0.0037734948564320803,0.7876133918762207,-4.725724284071475e-05,-0.21506857872009277
198.0,222.0,0.2231,-0.5456,10.194,-0.0255,0.0977,-0.1228,-1.9071036777892054,-0.04397851973772049,3.1172451972961426,-1.6235666275024414,0.1308230608701706,2.233201026916504,4.98682855346755,-0.0005765847163274884,0.2670520544052124,-1.5312302748309534,0.00018637125322129577,0.023869987577199936,0.9152212142944336,7.617267927528815e-12,0.00774519145488739,0.7876337766647339,-4.546672062133439e-05,-0.20346978306770325
198.0,222.0,-0.6407,-0.2082,9.3039,-0.0131,0.1306,-0.13,-1.9072519741454066,-0.046133145689964294,3.159104347229004,-1.6229901313781738,0.1352435201406479,2.2765254974365234,4.986852633744039,-0.0004588131851051003,0.25738099217414856,-1.531234089528219,0.00017223488248419017,0.04270899295806885,0.9152212142944336,3.247360334194399e-14,0.01154837291687727,0.7875932455062866,-4.434660149854608e-05,-0.2515731453895569
198.0,222.0,-0.6407,-0.2082,9.3039,-0.0131,0.1306,-0.13,-1.9074508152403773,-0.048882558941841125,3.1181235313415527,-1.6221460103988647,0.14263731241226196,2.2841403484344482,4.98681269863204,-0.00035124964779242873,0.25374171137809753,-1.531250301991598,0.00018531951354816556,0.026398498564958572,0.9152252674102783,9.039147665390606e-18,0.009165333583950996,0.7875972986221313,-4.276621257304214e-05,-0.25744423270225525
198.0,222.0,-0.6407,-0.2082,9.3039,-0.0131,0.1306,-0.13,-1.9077989063658656,-0.053574882447719574,3.066706657409668,-1.6212780475616455,0.14814898371696472,2.324068307876587,4.98682855346755,-0.0003413374361116439,0.25930652022361755,-1.5312507788287562,0.00016807815700303763,0.03498624637722969,0.915265679359436,2.5160802633042232e-21,0.021471751853823662,0.7876174449920654,-3.097280205111019e-05,-0.24329125881195068
198.0,222.0,-0.6407,-0.2082,9.3039,-0.0131,0.1306,-0.13,-1.9082275829710902,-0.06117982044816017,3.1482033729553223,-1.6203702688217163,0.15424224734306335,2.2885775566101074,4.986808645516195,-0.00032906472915783525,0.2524148225784302,-1.531234089528219,0.00015372307098004967,0.013605302199721336,0.9152252674102783,7.003601286822704e-25,0.003892535110935569,0.7876133918762207,2.6255360353388824e-05,-0.19430193305015564
190.0,207.0,-0.6407,-0.2082,9.3039,-0.0131,0.1306,-0.13,-1.9086066685118617,-0.0702073723077774,3.098579168319702,-1.6194267272949219,0.16028328239917755,2.2513113021850586,4.9867969928081415,-0.002019059145823121,0.26418161392211914,-1.531250301991598,0.00014162682055030018,0.0379304513335228,0.9151968955993652,1.9494782898172586e-28,0.015874912962317467,0.7876216173171997,3.1896026484901085e-05,-0.19088132679462433
190.0,207.0,-0.6407,-0.2082,9.3039,-0.0131,0.1306,-0.13,-1.9089671574034632,-0.07804299890995026,3.069336175918579,-1.6187388896942139,0.16078409552574158,2.3097896575927734,4.986768740206518,-0.0043182820081710815,0.2513394057750702,-1.5312584082232874,0.00013456764281727374,0.03517131134867668,0.9152495861053467,8.310931258618743e-31,0.015414441004395485,0.7875973582267761,3.08043381664902e-05,-0.19946105778217316
190.0,207.0,-0.6407,-0.2082,9.3039,-0.0131,0.1306,-0.13,-1.909466405908102,-0.08988252282142639,3.035674571990967,-1.6177629232406616,0.16450747847557068,2.2740495204925537,4.986704963236608,-0.007888461463153362,0.24795463681221008,-1.5312464872943323,0.00014571375504601747,0.02874818444252014,0.9152004718780518,2.313378162959291e-34,0.008938996121287346,0.7876379489898682,2.930007758550346e-05,-0.16438710689544678
190.0,207.0,-0.6407,-0.2082,9.3039,-0.0131,0.1306,-0.13,-1.9099980793394984,-0.09351678192615509,3.108874797821045,-1.6167672872543335,0.17129401862621307,2.305302619934082,4.98664082863883,-0.010892330668866634,0.2377055585384369,-1.531238857899801,0.00013657411909662187,0.036834102123975754,0.915212869644165,6.439373380646574e-38,0.015102981589734554,0.7876051664352417,2.793587373162154e-05,-0.22263464331626892
190.0,207.0,-0.6407,-0.2082,9.3039,-0.0131,0.1306,-0.13,-1.9106327495970667,-0.09234070777893066,3.0868406295776367,-1.6157437562942505,0.1760084182024002,2.325802803039551,4.986605095654287,-0.011877108365297318,0.23780721426010132,-1.5312383810626429,0.00014654775441158563,0.029640015214681625,0.9151648283004761,1.7924008657178735e-41,0.009670057334005833,0.7876256704330444,1.334657190454891e-05,-0.2074573040008545
190.0,207.0,-0.6407,-0.2082,9.3039,-0.0131,0.1306,-0.13,-1.911140581170553,-0.08982541412115097,3.0790529251098633,-1.6146548986434937,0.18030273914337158,2.3198626041412354,4.986469405680456,-0.01301185879856348,0.23469658195972443,-1.5312097708331507,0.0001507100387243554,0.03667229413986206,0.9151968955993652,5.605193857299268e-45,0.01641157642006874,0.7876741886138916,1.2778073141817003e-05,-0.2282831221818924
190.0,207.0,-0.6407,-0.2082,9.3039,-0.0131,0.1306,-0.13,-1.9115978680052699,-0.09200216084718704,3.1009626388549805,-1.6139720678329468,0.18180564045906067,2.335617780685425,4.98644973614768,-0.014183927327394485,0.23581543564796448,-1.5312183539019983,0.0001685490133240819,0.03054846078157425,0.9151926040649414,0.0,0.006561927497386932,0.787645697593689,1.2425248314684723e-05,-0.2373754382133484
190.0,207.0,-0.6407,-0.2082,9.3039,-0.0131,0.1306,-0.13,-1.9121324024596156,-0.09853383898735046,3.1202688217163086,-1.6128792762756348,0.18110056221485138,2.323037624359131,4.986313420325079,-0.01681198552250862,0.2299615740776062,-1.5312264601336878,0.00017901277169585228,0.03638875484466553,0.9151766300201416,0.0,0.014086172915995121,0.787653923034668,3.9855385693954304e-05,-0.20065535604953766
190.0,207.0,-0.6407,-0.2082,9.3039,-0.0131,0.1306,-0.13,-1.9127432308592738,-0.1053343117237091,3.0908713340759277,-1.6118804216384888,0.18300995230674744,2.3304476737976074,4.986230093031683,-0.019844764843583107,0.2368524968624115,-1.5311945120440882,0.00017810026474762708,0.04162079840898514,0.9151968955993652,0.0,0.006162025034427643,0.7876174449920654,3.5182769352104515e-05,-0.17717504501342773
190.0,207.0,-0.6407,-0.2082,9.3039,-0.0131,0.1306,-0.13,-1.9134441814818324,-0.11370468139648438,3.0261268615722656,-1.6108003854751587,0.18377186357975006,2.3589377403259277,4.986094581871786,-0.022227687761187553,0.2295457422733307,-1.531182114277975,0.0003326676960568875,0.03311243653297424,0.9152331948280334,0.0,0.00757656479254365,0.7876174449920654,1.7738326363314627e-08,-0.15236958861351013
190.0,207.0,-0.6407,-0.2082,9.3039,-0.0131,0.1306,-0.13,-1.914075037042135,-0.1162753701210022,3.048022747039795,-1.609728455543518,0.18737755715847015,2.321568489074707,4.985974895745077,-0.017585191875696182,0.24310791492462158,-1.5311735312091272,0.0003832131624221802,0.04131937026977539,0.9152413010597229,0.0,0.009861092083156109,0.7876174449920654,4.283597063755966e-14,-0.20142872631549835
190.0,207.0,-0.6407,-0.2082,9.3039,-0.0131,0.1306,-0.13,-1.9144989452757777,-0.11893153190612793,3.06471586227417,-1.6089040040969849,0.1880960315465927,2.313729763031006,4.985938894539633,-0.014284659177064896,0.2243984192609787,-1.5312345663653772,0.0003921858733519912,0.027452725917100906,0.9151849746704102,0.0,0.002080044476315379,0.7876379489898682,7.710322543174182e-18,-0.2687913179397583
190.0,207.0,-0.2255,-0.463,9.8483,-0.0165,0.1006,-0.1249,-1.9152261219420375,-0.12395456433296204,3.0231380462646484,-1.6077841520309448,0.18823137879371643,2.3065333366394043,4.985851216107168,-0.006162087433040142,0.22638143599033356,-1.5311983267413538,0.0004952778108417988,0.04155972972512245,0.9152169227600098,0.0,0.0029539749957621098,0.7876297235488892,1.8619524966698613e-23,-0.24617961049079895
190.0,207.0,-0.2255,-0.463,9.8483,-0.0165,0.1006,-0.1249,-1.9159780941405238,-0.12290070950984955,3.063833475112915,-1.606681227684021,0.19537408649921417,2.3135695457458496,4.985878962069311,-0.0009544450440444052,0.2259419858455658,-1.5312140623675745,0.00044721667654812336,0.040564827620983124,0.9152169227600098,0.0,0.004268968012183905,0.7876138091087341,4.4963970206410726e-29,-0.2965518832206726
190.0,207.0,-0.2255,-0.463,9.8483,-0.0165,0.1006,-0.1249,-1.9167939625182093,-0.11974211037158966,3.0958056449890137,-1.6055048704147339,0.20163466036319733,2.290501356124878,4.985843288689413,-0.00027940006111748517,0.22391360998153687,-1.5312264601336878,0.00035828721593134105,0.03860517591238022,0.9151689410209656,0.0,0.0025375818368047476,0.7876297831535339,1.085826861139846e-34,-0.25336360931396484
190.0,207.0,-0.2255,-0.463,9.8483,-0.0165,0.1006,-0.1249,-1.9175292454161585,-0.12023147940635681,3.0286896228790283,-1.6043012142181396,0.2038961797952652,2.37003231048584,4.985838997154989,-0.000394283706555143,0.23069922626018524,-1.531210724507467,0.0003485201741568744,0.04688835144042969,0.9151811599731445,0.0,-0.004789645783603191,0.7876618504524231,2.622137712413884e-40,-0.2588084638118744
190.0,207.0,-0.2255,-0.463,9.8483,-0.0165,0.1006,-0.1249,-1.918032785455221,-0.12590865790843964,3.0395820140838623,-1.6035218238830566,0.19815994799137115,2.3296475410461426,4.985787409334936,-0.0010051581775769591,0.23802345991134644,-1.531182114277975,0.0003138403408229351,0.06723158061504364,0.9151890277862549,0.0,-0.005479969549924135,0.7876379489898682,4.764414778704378e-44,-0.2530641257762909
187.0,196.0,-0.2255,-0.463,9.8483,-0.0165,0.1006,-0.1249,-1.9187761745848597,-0.13444124162197113,3.043551445007324,-1.6023660898208618,0.1967695653438568,2.387589931488037,4.985795366555013,-0.0015879716956987977,0.23710176348686218,-1.5312183539019983,0.00031200508237816393,0.045830585062503815,0.9151930809020996,0.0,-2.7148707886226475e-05,0.7876497507095337,0.0,-0.2933318018913269
187.0,196.0,-0.2255,-0.463,9.8483,-0.0165,0.1006,-0.1249,-1.919567724267477,-0.1430702656507492,3.0570764541625977,-1.6011897325515747,0.19462540745735168,2.367750883102417,4.985791104822912,-0.001426336937583983,0.22831743955612183,-1.5312264601336878,0.00024044726160354912,0.040673647075891495,0.9151651859283447,0.0,-0.002520489040762186,0.7876497507095337,0.0,-0.30680346488952637
187.0,196.0,-0.2255,-0.463,9.8483,-0.0165,0.1006,-0.1249,-1.9203578434386195,-0.14523102343082428,3.1048052310943604,-1.60001802444458,0.19892536103725433,2.371182441711426,4.985803323775091,-0.001374441315419972,0.23814180493354797,-1.5312302748309534,0.00020680908346548676,0.04427681118249893,0.9151446223258972,0.0,0.014097093604505062,0.7876174449920654,0.0,-0.17759591341018677
187.0,196.0,-0.2255,-0.463,9.8483,-0.0165,0.1006,-0.1249,-1.921206613580221,-0.1358540803194046,3.0276708602905273,-1.5988028049468994,0.20044906437397003,2.352444648742676,4.985779183893957,-0.0007862602942623198,0.23925110697746277,-1.5311620871173304,0.00021808332530781627,0.0439908467233181,0.9151849746704102,0.0,0.002442883560433984,0.7876096963882446,0.0,-0.24502399563789368
187.0,196.0,-0.2255,-0.463,9.8483,-0.0165,0.1006,-0.1249,-1.9219900570311488,-0.12782597541809082,3.0959019660949707,-1.5976063013076782,0.19648636877536774,2.294926881790161,4.985775220185079,-0.00045662859338335693,0.23904630541801453,-1.531177822743551,0.00022665009601041675,0.044291868805885315,0.9152091145515442,0.0,7.16459471732378e-05,0.7876337766647339,0.0,-0.24682950973510742
187.0,196.0,-0.2255,-0.463,9.8483,-0.0165,0.1006,-0.1249,-1.922570367852682,-0.12976519763469696,3.06603741645813,-1.5968486070632935,0.19778534770011902,2.3635413646698,4.985747444420614,-0.00037887130747549236,0.23744072020053864,-1.5311740080462855,0.00021168767125345767,0.05190318822860718,0.9151606559753418,0.0,0.007924005389213562,0.7876174449920654,0.0,-0.252133846282959
187.0,196.0,-0.2255,-0.463,9.8483,-0.0165,0.1006,-0.1249,-1.9233008823790492,-0.12971536815166473,3.063458204269409,-1.5957145690917969,0.19580546021461487,2.3530197143554688,4.985783117800512,-0.0003911659587174654,0.2379809468984604,-1.531165901814596,0.00019230188627261668,0.06172823905944824,0.9151971936225891,0.0,0.0019401516765356064,0.7876415848731995,0.0,-0.2553086578845978
187.0,196.0,-0.2255,-0.463,9.8483,-0.0165,0.1006,-0.1249,-1.9241730175414027,-0.13331303000450134,3.047250270843506,-1.5944883823394775,0.19314400851726532,2.3274972438812256,4.985763269453802,-0.00040223411633633077,0.25462910532951355,-1.531182591115133,0.0001761679886840284,0.03900664299726486,0.9152251482009888,0.0,-0.014270306564867496,0.7876940369606018,0.0,-0.2550390958786011
187.0,196.0,-0.2255,-0.463,9.8483,-0.0165,0.1006,-0.1249,-1.9249240360655726,-0.13771679997444153,3.1224656105041504,-1.5933024883270264,0.18545252084732056,2.3189504146575928,4.9857554016406915,-0.00033626388176344335,0.23334455490112305,-1.5311902205096644,0.00016253229114226997,0.05507129803299904,0.9151089787483215,0.0,-0.005691116210073233,0.7876379489898682,0.0,-0.24580365419387817
187.0,196.0,-0.2255,-0.463,9.8483,-0.0165,0.1006,-0.1249,-1.9257036648192347,-0.13943135738372803,3.1352524757385254,-1.5921725034713745,0.17983682453632355,2.272575855255127,4.985771256476202,-0.0002357571793254465,0.2446078658103943,-1.5311782995807093,0.0001695723767625168,0.043802183121442795,0.9151569604873657,0.0,-0.0019423291087150574,0.7876379489898682,0.0,-0.2545543909072876
187.0,196.0,-0.2255,-0.463,9.8483,-0.0165,0.1006,-0.1249,-1.9262153110899867,-0.13612963259220123,3.160336971282959,-1.5914338827133179,0.17845512926578522,2.3262314796447754,4.985787468939581,-1.699022868706379e-05,0.24502432346343994,-1.5311740080462855,0.0001645150186959654,0.047341108322143555,0.9152376651763916,0.0,-0.0022902488708496094,0.7875935435295105,0.0,-0.2605743110179901
187.0,196.0,-0.2255,-0.463,9.8483,-0.0165,0.1006,-0.1249,-1.9270030460753382,-0.1282968968153,3.132204294204712,-1.5903922319412231,0.178743377327919,2.2626004219055176,4.985771286278524,-4.729292957250664e-09,0.24702851474285126,-1.531222168599264,0.0001539715740364045,0.04964835196733475,0.9152373671531677,0.0,0.0012430708156898618,0.7876092791557312,0.0,-0.21646010875701904
187.0,196.0,-0.3823,-0.4026,9.6174,-0.0101,0.102,-0.1446,-1.927774568597311,-0.12400274723768234,3.1172590255737305,-1.5893054008483887,0.17856465280056,2.3385097980499268,4.985779183893957,-1.3164161601075808e-12,0.24628996849060059,-1.5312069098102015,0.00014468884910456836,0.05169648304581642,0.9152012467384338,0.0,0.008473020978271961,0.7876092791557312,0.0,-0.2636560797691345
187.0,196.0,-0.3823,-0.4026,9.6174,-0.0101,0.102,-0.1446,-1.9284736118712367,-0.12362696975469589,3.16717267036438,-1.5882717370986938,0.17701458930969238,2.352785587310791,4.985739546805181,-3.664292587788481e-16,0.24664273858070374,-1.531182114277975,0.00013646160368807614,0.04587474837899208,0.9151570200920105,0.0,-0.0031402618624269962,0.7876337766647339,0.0,-0.21236661076545715
187.0,196.0,-0.3823,-0.4026,9.6174,-0.0101,0.102,-0.1446,-1.9292370281615199,-0.1246553584933281,3.1580257415771484,-1.5872137546539307,0.173581063747406,2.2794413566589355,4.9857554016406915,-1.0199694007222597e-19,0.23628923296928406,-1.5311983267413538,0.00012911998783238232,0.043173354119062424,0.9151606559753418,0.0,0.01765909604728222,0.7876134514808655,0.0,-0.18432098627090454
