ramyac6/ROB537/final_project/csv/all/good_155.csv
tof_0,tof_1,accelx,accely,accelz,gyrox,gyroy,gyroz,shoulder_lift_joint_position,shoulder_lift_joint_velocity,shoulder_lift_joint_effort,elbow_joint_position,elbow_joint_velocity,elbow_joint_effort,wrist_1_joint_position,wrist_1_joint_velocity,wrist_1_joint_effort,wrist_2_joint_position,wrist_2_joint_velocity,wrist_2_joint_effort,wrist_3_joint_position,wrist_3_joint_velocity,wrist_3_joint_effort,shoulder_pan_joint_position,shoulder_pan_joint_velocity,shoulder_pan_joint_effort
8190.0,8190.0,1.0056,-0.1795,9.5426,-0.0411,0.0208,-0.1155,-1.2043605905822297,1.2630420082040974e-36,0.6133652925491333,-1.8291542530059814,-0.0,2.173210859298706,4.405428572291992,0.00032233548699878156,0.3065618872642517,-1.5840376059161585,0.0,-0.012389549985527992,0.8531955480575562,-0.0,0.0015017628902569413,0.8106716275215149,0.0,-0.0148705979809165
8190.0,8190.0,1.0056,-0.1795,9.5426,-0.0411,0.0208,-0.1155,-1.2043886345675965,3.050626756835127e-42,0.6239041686058044,-1.8292107582092285,-0.0,2.1986608505249023,4.4054810243793945,0.0003183773660566658,0.2923646569252014,-1.5840099493609827,0.0,-0.0036274841986596584,0.8531478643417358,-0.0,-0.005011418368667364,0.8106879591941833,0.0,0.003234095871448517
8190.0,8190.0,1.0056,-0.1795,9.5426,-0.0411,0.0208,-0.1155,-1.2043807071498414,0.0,0.6254388093948364,-1.8291869163513184,-0.0,2.210855007171631,4.405505819911621,0.0003149992262478918,0.28921929001808167,-1.5839818159686487,0.0,-0.007977754808962345,0.8531995415687561,-0.0,-0.0021527523640543222,0.8106558918952942,0.0,-0.0520828440785408
8190.0,8190.0,1.0056,-0.1795,9.5426,-0.0411,0.0208,-0.1155,-1.204388902788498,0.0,0.692453145980835,-1.8291667699813843,-0.0,2.1897501945495605,4.405444784755371,0.0002630531962495297,0.29036781191825867,-1.584034268056051,0.0,0.0018347593722864985,0.8532394170761108,-0.0,0.003791450522840023,0.8106597065925598,0.0,0.0248569305986166
8190.0,8190.0,1.0056,-0.1795,9.5426,-0.0411,0.0208,-0.1155,-1.2044089001468201,0.0,0.6495580673217773,-1.8292107582092285,-0.0,2.178311347961426,4.405493422145508,0.00026715020067058504,0.29275625944137573,-1.5840099493609827,0.0,-0.018095748499035835,0.853207528591156,-0.0,0.0005713656428270042,0.8106476068496704,0.0,-0.01601884700357914
8190.0,8190.0,1.0056,-0.1795,9.5426,-0.0411,0.0208,-0.1155,-1.204392747288086,0.0,0.6467548608779907,-1.829267144203186,-0.0,2.1758065223693848,4.405501528377197,0.00024039643176365644,0.2923828959465027,-1.5840337912188929,0.0,-0.005242591258138418,0.8532034754753113,-0.0,-0.0065801688469946384,0.8106515407562256,0.0,-0.019042963162064552
8190.0,8190.0,1.0056,-0.1795,9.5426,-0.0411,0.0208,-0.1155,-1.2043888729861756,0.0,0.6448094844818115,-1.829202651977539,-0.0,2.1270124912261963,4.405501528377197,0.00021207075042184442,0.301493763923645,-1.5840256849872034,0.0,0.003597286529839039,0.8531955480575562,-0.0,-0.006268395110964775,0.810639500617981,0.0,-0.004141888115555048
8190.0,8190.0,1.1073,-0.0604,9.4648,-0.0363,0.031,-0.1162,-1.2043403548053284,0.0,0.6189716458320618,-1.8291993141174316,-0.0,2.241532802581787,4.405436678523682,0.00019485152733977884,0.2966620922088623,-1.5840180555926722,0.0,-0.015842415392398834,0.853223443031311,-0.0,0.006391976960003376,0.8107122182846069,0.0,0.0015702418750151992
8190.0,8190.0,1.1073,-0.0604,9.4648,-0.0363,0.031,-0.1162,-1.2043683987906952,0.0,0.6746563911437988,-1.8292591571807861,-0.0,2.1816139221191406,4.405464811916016,0.000175818131538108,0.2982404828071594,-1.5840542952166956,0.0,-0.013355599716305733,0.853171706199646,-0.0,-0.0010165789863094687,0.8106275796890259,0.0,-0.017846349626779556
8190.0,8190.0,1.1073,-0.0604,9.4648,-0.0363,0.031,-0.1162,-1.2044291359237214,0.0,0.6353044509887695,-1.8291667699813843,-0.0,2.1812524795532227,4.405537768001221,0.00016381674504373223,0.2928062081336975,-1.5839899222003382,0.0,-0.009195823222398758,0.8532506227493286,-0.0,4.2855681385844946e-05,0.810611367225647,0.0,-0.04575556144118309
8190.0,8190.0,1.1073,-0.0604,9.4648,-0.0363,0.031,-0.1162,-1.2043804389289399,0.0,0.6699874997138977,-1.8292148113250732,-0.0,2.2132949829101562,4.405464811916016,0.00015334924682974815,0.29163873195648193,-1.584034268056051,0.0,0.0009231290314346552,0.853243350982666,-0.0,-0.006538579240441322,0.8106675148010254,0.0,-0.04353149235248566
8190.0,8190.0,1.1073,-0.0604,9.4648,-0.0363,0.031,-0.1162,-1.2043765944293519,0.0,0.6457394361495972,-1.829202651977539,-0.0,2.211857795715332,4.405489130611084,0.00014131014177110046,0.29628267884254456,-1.5840461889850062,0.0,-0.005227230489253998,0.8532393574714661,-0.0,0.018167685717344284,0.8106961846351624,0.0,-0.025359902530908585
8190.0,8190.0,1.1073,-0.0604,9.4648,-0.0363,0.031,-0.1162,-1.2044089001468201,0.0,0.6522858738899231,-1.8292630910873413,-0.0,2.1662797927856445,4.405464811916016,0.0001334523258265108,0.28080064058303833,-1.5840218702899378,0.0,-0.007280276156961918,0.8532711863517761,-0.0,-0.009732966311275959,0.8106797933578491,0.0,-0.030908871442079544
8190.0,8190.0,1.1073,-0.0604,9.4648,-0.0363,0.031,-0.1162,-1.2043968600085755,2.989745553350076e-05,0.664429783821106,-1.8292148113250732,-0.0,2.2012195587158203,4.405493422145508,0.0001242409780388698,0.2848816215991974,-1.5840666929828089,0.0,-0.00939827412366867,0.8532426357269287,-0.0,0.0013465521624311805,0.8106716275215149,0.0,-0.007831703871488571
8190.0,8190.0,1.1073,-0.0604,9.4648,-0.0363,0.031,-0.1162,-1.2044250530055542,2.847843279596418e-05,0.6255793571472168,-1.8292067050933838,-0.0,2.1701765060424805,4.405521555537842,0.00011812591401394457,0.27209633588790894,-1.5839937368976038,0.0,-0.006694985553622246,0.8532114624977112,-0.0,0.004885545466095209,0.8106473684310913,0.0,0.041296813637018204
8190.0,8190.0,1.1073,-0.0604,9.4648,-0.0363,0.031,-0.1162,-1.2044170957854767,2.7188007152290083e-05,0.6969231367111206,-1.8292067050933838,-0.0,2.159900426864624,4.4054810243793945,0.00011258455197094008,0.2891240417957306,-1.5840500036822718,0.0,0.007834388874471188,0.853203535079956,-0.0,-0.004491656553000212,0.8106757402420044,0.0,0.03540746867656708
8190.0,8190.0,1.1073,-0.0604,9.4648,-0.0363,0.031,-0.1162,-1.2044130128673096,3.4079886972904205e-05,0.5849165320396423,-1.829178810119629,-0.0,2.201158046722412,4.405440493220947,0.0001059791975421831,0.2878827452659607,-1.5839694182025355,0.0,-0.010258806869387627,0.8532194495201111,-0.0,-0.004077699035406113,0.8106880187988281,0.0,0.04791148379445076
8190.0,8190.0,1.1073,-0.0604,9.4648,-0.0363,0.031,-0.1162,-1.2044212383082886,3.688244760269299e-05,0.666303277015686,-1.829202651977539,-0.0,2.232158660888672,4.40546099721875,7.609194290125743e-05,0.29472488164901733,-1.5840018431292933,0.0,0.003367041237652302,0.853167712688446,-0.0,0.0010139845544472337,0.8105993270874023,0.0,0.05773482471704483
8190.0,8190.0,1.1073,-0.0604,9.4648,-0.0363,0.031,-0.1162,-1.2043687862208863,4.724063546746038e-05,0.6305082440376282,-1.829218864440918,-0.0,2.184999942779541,4.405537768001221,7.241178536787629e-05,0.2843683362007141,-1.5839937368976038,0.0,-0.009249594062566757,0.853203535079956,5.2093767521910195e-08,-0.007190386299043894,0.8105992674827576,0.0,-0.014841371215879917
8190.0,8190.0,1.1073,-0.0604,9.4648,-0.0363,0.031,-0.1162,-1.2044089001468201,3.368133548065089e-05,0.6441543102264404,-1.8292311429977417,-0.0,2.2505760192871094,4.405472918147705,5.4658481531077996e-05,0.3106837272644043,-1.5840137640582483,0.0,-0.0028361596632748842,0.853223443031311,9.467784629207943e-13,-0.009186710231006145,0.8106638193130493,-7.831778930267319e-05,-0.031245438382029533
8190.0,803.0,1.0822,-0.125,9.4463,-0.042,0.0186,-0.1112,-1.2043765944293519,-3.40947080985643e-05,0.6300173997879028,-1.8292591571807861,5.054795906289655e-07,2.211547374725342,4.405477209682129,5.206486821407452e-05,0.29025977849960327,-1.5840099493609827,0.0,-0.0044499970972537994,0.8531758189201355,2.635392667033618e-16,-0.005899390205740929,0.8106476664543152,-0.0001022857177304104,-0.003238664474338293
8190.0,803.0,1.0822,-0.125,9.4463,-0.042,0.0186,-0.1112,-1.2044127148440857,-0.00011933398491237313,0.6595152616500854,-1.829246997833252,1.6376895838250173e-14,2.1927576065063477,4.405457182521484,4.921758227283135e-05,0.28788477182388306,-1.5840137640582483,0.0,-0.01076512411236763,0.8532466292381287,4.7896952290377575e-21,-0.002317003672942519,0.8106597065925598,-9.702456736704335e-05,-0.028366057202219963
8190.0,803.0,1.0822,-0.125,9.4463,-0.042,0.0186,-0.1112,-1.2044209104827424,-0.00010858051246032119,0.6535693407058716,-1.829246997833252,3.954828056798452e-20,2.1293740272521973,4.405444784755371,4.727847408503294e-05,0.29864954948425293,-1.5840700308429163,0.0,0.006339014507830143,0.853279173374176,1.3332294598335834e-24,0.0009641916258260608,0.8106353878974915,-4.196135705569759e-05,-0.07117599993944168
8190.0,803.0,1.0822,-0.125,9.4463,-0.042,0.0186,-0.1112,-1.2044168275645752,-9.957096335710958e-05,0.6396177411079407,-1.8292189836502075,9.550444389266496e-26,2.2229390144348145,4.405477209682129,4.548638389678672e-05,0.3056580722332001,-1.5840542952166956,0.0,-0.0058014653623104095,0.8532313704490662,3.7110931876567225e-28,-0.0004431502893567085,0.8106151819229126,-1.0133172773096888e-10,0.03288310393691063
8190.0,803.0,1.0822,-0.125,9.4463,-0.042,0.0186,-0.1112,-1.2044006747058411,-6.723916885675862e-05,0.6191980838775635,-1.8292549848556519,3.094222922942798e-33,2.15474271774292,4.405469103450439,4.3298099626554176e-05,0.29486072063446045,-1.5840666929828089,0.0,-0.014874987304210663,0.8532631397247314,6.744727976261105e-33,-0.005933397449553013,0.8106839656829834,-3.2830192602430973e-18,0.0031047873198986053
8190.0,803.0,1.0822,-0.125,9.4463,-0.042,0.0186,-0.1112,-1.204413042669632,-6.275833584368229e-05,0.6405587792396545,-1.8292272090911865,7.472184438974687e-39,2.149536371231079,4.4054528909870605,4.1790251998463646e-05,0.2901008427143097,-1.5840666929828089,0.0,-0.009372846223413944,0.8531757593154907,1.8774199528883294e-36,-0.012769720517098904,0.8106715679168701,-7.928104951151818e-24,0.008015172556042671
8190.0,803.0,1.0822,-0.125,9.4463,-0.042,0.0186,-0.1112,-1.2043565076640625,-8.056006481638178e-05,0.6610776782035828,-1.8292148113250732,0.0,2.1592016220092773,4.405469103450439,3.9935905078891665e-05,0.29547619819641113,-1.5840585867511194,0.0,-0.00031293719075620174,0.8532353639602661,3.4121617606309296e-41,0.004768422804772854,0.8106353282928467,-2.5686056198236035e-31,-0.028736941516399384
8190.0,803.0,1.0822,-0.125,9.4463,-0.042,0.0186,-0.1112,-1.2044086021235962,-0.000106534302176442,0.6760559678077698,-1.8291985988616943,-0.0,2.168525457382202,4.405469103450439,2.1930059546093617e-08,0.29289427399635315,-1.5840666929828089,0.0,-0.01020880602300167,0.8532831072807312,9.80908925027372e-45,0.003868681378662586,0.8107120990753174,-6.202880162458175e-37,-0.0311930812895298
8190.0,803.0,1.0822,-0.125,9.4463,-0.042,0.0186,-0.1112,-1.2043683689883729,-9.525864152237773e-05,0.6831144690513611,-1.8292477130889893,-0.0,2.1911587715148926,4.405501528377197,6.1043123680826206e-12,0.2819158136844635,-1.5840299765216272,0.0,-0.0014713180717080832,0.8532631397247314,0.0,0.002420211909338832,0.8106312155723572,-1.4979880583632294e-42,0.0418253019452095
8190.0,803.0,1.0822,-0.125,9.4463,-0.042,0.0186,-0.1112,-1.2044006449035187,-0.00011130333587061614,0.6564440131187439,-1.829202651977539,-0.0,2.1883742809295654,4.405497236842773,1.1094287327137586e-16,0.27861759066581726,-1.584062401448385,0.0,-0.008728811517357826,0.8531440496444702,0.0,0.015789896249771118,0.8106593489646912,0.0,0.009204576723277569
8190.0,803.0,1.0822,-0.125,9.4463,-0.042,0.0186,-0.1112,-1.2043923896602173,-0.00010185581049881876,0.6202585697174072,-1.8292311429977417,-0.0,2.199906826019287,4.4054810243793945,3.088135675946666e-20,0.2870529592037201,-1.584017578755514,0.0,-0.014181787148118019,0.8532154560089111,0.0,0.009900785982608795,0.8106878995895386,0.0,-0.003824755549430847
8190.0,803.0,1.0822,-0.125,9.4463,-0.042,0.0186,-0.1112,-1.2043886345675965,-9.388672333443537e-05,0.6670759916305542,-1.8292107582092285,-0.0,2.2157223224639893,4.405537768001221,8.595939605154728e-24,0.29412710666656494,-1.5840337912188929,0.0,-0.010431394912302494,0.8532392978668213,0.0,0.012899568304419518,0.8106675148010254,0.0,0.014421175234019756
8190.0,803.0,1.0822,-0.125,9.4463,-0.042,0.0186,-0.1112,-1.204413042669632,-8.501771662849933e-05,0.6490899324417114,-1.8292509317398071,-0.0,2.192547082901001,4.405497236842773,1.5622694726450972e-28,0.2992677688598633,-1.5840418974505823,0.0,-0.011219402775168419,0.8532592058181763,0.0,-0.003478279570117593,0.8106597065925598,0.0,0.00636640377342701
8190.0,666.0,1.1809,0.816,9.195,-0.0029,0.0061,-0.137,-1.2044127148440857,-7.939289935166016e-05,0.637534499168396,-1.8292272090911865,-0.0,2.2162718772888184,4.405477209682129,4.348634380881128e-32,0.2782864272594452,-1.5840542952166956,0.0,-0.00955055933445692,0.8531917333602905,0.0,0.01687236875295639,0.8106316328048706,0.0,0.04115116223692894
8190.0,666.0,1.1809,0.816,9.195,-0.0029,0.0061,-0.137,-1.2044374209693451,-7.301852019736543e-05,0.6302657127380371,-1.829251766204834,-0.0,2.1558995246887207,4.405493422145508,7.903428268020977e-37,0.28418344259262085,-1.5840299765216272,0.0,-0.0041721356101334095,0.8532114624977112,0.0,0.0007308227941393852,0.8106476068496704,0.0,0.03534133359789848
8190.0,666.0,1.1809,0.816,9.195,-0.0029,0.0061,-0.137,-1.2044370931437989,-7.018861651886255e-05,0.6622201204299927,-1.8292436599731445,-1.745942427078262e-05,2.2248106002807617,4.405473394984863,2.1999545110821033e-40,0.29281067848205566,-1.5840299765216272,0.0,-0.006900862790644169,0.8531917333602905,0.0,0.007374032400548458,0.810611367225647,0.0,0.03968052938580513
8190.0,666.0,1.1809,0.816,9.195,-0.0029,0.0061,-0.137,-1.2044412058642884,-9.707038407213986e-05,0.6310983896255493,-1.8292551040649414,-1.6539881471544504e-05,2.1729519367218018,4.4054810243793945,6.165713243029195e-44,0.2906293570995331,-1.5840376059161585,0.0,-0.004632230382412672,0.8531955480575562,0.0,0.004810848738998175,0.8106193542480469,-2.246886106149759e-05,-0.010072971694171429
8190.0,666.0,1.1809,0.816,9.195,-0.0029,0.0061,-0.137,-1.2044206422618409,-0.0004529825528152287,0.6545803546905518,-1.8291993141174316,-1.5407293176394887e-05,2.170809030532837,4.4054528909870605,0.0,0.29419761896133423,-1.5840018431292933,0.0,-0.0021629638504236937,0.8532313704490662,0.0,0.009639298543334007,0.8106316328048706,-2.0452338503673673e-05,-0.050074510276317596
8190.0,666.0,1.1809,0.816,9.195,-0.0029,0.0061,-0.137,-1.2044606071761628,-0.0004176114161964506,0.6374258995056152,-1.8291985988616943,-1.465467630623607e-05,2.206676959991455,4.405392809505127,0.0,0.3084002435207367,-1.5839937368976038,0.0,-0.015457327477633953,0.853223443031311,0.0,-0.0017287444788962603,0.8106476068496704,-3.8290407246677205e-05,0.022961966693401337
8190.0,666.0,1.1809,0.816,9.195,-0.0029,0.0061,-0.137,-1.204440788631775,-0.0004244954907335341,0.6617858409881592,-1.8291985988616943,-1.3758563000010327e-05,2.199324369430542,4.405501528377197,0.0,0.27830299735069275,-1.584073845540182,0.0,-0.021174190565943718,0.8532235622406006,0.0,0.014959074556827545,0.810611367225647,-3.528971501509659e-05,0.024321816861629486
8190.0,666.0,1.1809,0.816,9.195,-0.0029,0.0061,-0.137,-1.2045053404620667,-0.00045991395018063486,0.6524143218994141,-1.8292591571807861,-1.3155250599083956e-05,2.170414924621582,4.405489130611084,0.0,0.2947676181793213,-1.5840137640582483,0.0,-0.003972676116973162,0.8531955480575562,0.0,0.011971782892942429,0.8106275796890259,-3.333043059683405e-05,-0.0188492052257061
8190.0,666.0,1.1809,0.816,9.195,-0.0029,0.0061,-0.137,-1.2044732433608552,-0.0004943885141983628,0.6710847020149231,-1.8291666507720947,-1.2602625247382093e-05,2.212676763534546,4.405417128200195,0.0,0.28910139203071594,-1.5840256849872034,0.0,-0.015101463533937931,0.853211522102356,0.0,-0.0003639755304902792,0.8106393814086914,-3.157636820105836e-05,-0.02910655550658703
8190.0,666.0,1.1809,0.816,9.195,-0.0029,0.0061,-0.137,-1.2044729751399537,-0.0007699514972046018,0.6537498235702515,-1.8291985988616943,-1.1934193025808781e-05,2.1810615062713623,4.405440493220947,0.0,0.31092506647109985,-1.5839818159686487,0.0,-0.019078504294157028,0.8532631993293762,0.0,0.01091858558356762,0.8106555938720703,-2.9505958082154393e-05,-0.018272418528795242
8190.0,666.0,1.1809,0.816,9.195,-0.0029,0.0061,-0.137,-1.2044685643962403,-0.000755086715798825,0.6265261173248291,-1.8292231559753418,-1.1477604857645929e-05,2.203411340713501,4.405444784755371,0.0,0.29794391989707947,-1.584034268056051,0.0,-0.025045257061719894,0.8532114624977112,0.0,0.00922282412648201,0.8106679916381836,-2.8122998628532514e-05,0.005187860690057278
8190.0,666.0,1.1809,0.816,9.195,-0.0029,0.0061,-0.137,-1.2044929724982758,-0.0009527548099868,0.6633596420288086,-1.8292231559753418,-1.1054685273848008e-05,2.2192068099975586,4.405412836665771,0.0,0.2835712432861328,-1.5840418974505823,0.0,-0.014634053222835064,0.8532592058181763,0.0,-0.008705474436283112,0.8106558918952942,-2.6863855964620598e-05,-0.03904034197330475
8190.0,666.0,1.1809,0.816,9.195,-0.0029,0.0061,-0.137,-1.2044967871955414,-0.001139884116128087,0.7144555449485779,-1.8292275667190552,-1.0536988156673033e-05,2.214561700820923,4.405408545131348,0.0,0.2962983250617981,-1.5839980284320276,0.0,-0.023204650729894638,0.853187620639801,0.0,-0.006975129246711731,0.8106394410133362,-2.5350538635393605e-05,0.031969767063856125
8190.0,666.0,1.1809,0.816,9.195,-0.0029,0.0061,-0.137,-1.2045008701137085,-0.0013856181176379323,0.6247410178184509,-1.8292067050933838,-1.0179463970416691e-05,2.2400505542755127,4.405469103450439,0.0,0.2880413234233856,-1.5840862433062952,0.0,-0.009672736749053001,0.853223443031311,0.0,0.016007406637072563,0.8106839656829834,-2.4322887838934548e-05,-0.005367951933294535
8190.0,8190.0,0.9422,0.2614,9.6102,-0.0469,0.0221,-0.1339,-1.2045168739608307,-0.0015617827884852886,0.673172652721405,-1.8292311429977417,-5.250063939143956e-09,2.172476053237915,4.405489130611084,0.0,0.2987420856952667,-1.5840018431292933,0.0,-0.016721056774258614,0.8531996011734009,0.0,0.010048387572169304,0.8106679320335388,-2.3075639546732418e-05,-0.05806019902229309
8190.0,8190.0,0.9422,0.2614,9.6102,-0.0469,0.0221,-0.1339,-1.2045529049685975,-0.002052833093330264,0.6415969729423523,-1.829202651977539,-1.267828666351575e-14,2.204557180404663,4.4054528909870605,0.0,0.29041939973831177,-1.5840099493609827,0.0,-0.020323242992162704,0.8532114624977112,0.0,0.009053699672222137,0.8106476664543152,-2.222104558313731e-05,-0.016176868230104446
8190.0,8190.0,0.9422,0.2614,9.6102,-0.0469,0.0221,-0.1339,-1.204573170547821,-0.002761994954198599,0.672870397567749,-1.8291985988616943,-3.061657172174446e-20,2.1971487998962402,4.405473394984863,0.0,0.3008667826652527,-1.584062401448385,0.0,-0.011521490290760994,0.8532353043556213,0.0,0.018405724316835403,0.8106637597084045,-2.1427493265946396e-05,-0.011741791851818562
8190.0,8190.0,0.9422,0.2614,9.6102,-0.0469,0.0221,-0.1339,-1.2046049994281312,-0.004254403989762068,0.6480628252029419,-1.8292545080184937,-9.919378919050017e-28,2.227911949157715,4.405481501216553,0.0,0.2944599986076355,-1.584034268056051,0.0,-0.015550652518868446,0.8532872200012207,0.0,0.023019060492515564,0.8106072545051575,-2.0453591787372716e-05,0.009093415923416615
8190.0,8190.0,0.9422,0.2614,9.6102,-0.0469,0.0221,-0.1339,-1.2046130162528534,-0.004555810242891312,0.621399998664856,-1.8292067050933838,-2.395413388227034e-33,2.2018556594848633,4.405493422145508,0.0,0.29488033056259155,-1.5840585867511194,0.0,-0.009804113768041134,0.8532388210296631,2.929963784481515e-06,0.0027526835910975933,0.8106675148010254,-6.749914973624982e-06,0.025958392769098282
8190.0,8190.0,0.9422,0.2614,9.6102,-0.0469,0.0221,-0.1339,-1.2046654385379334,-0.0028760700952261686,0.6400244235992432,-1.829202651977539,-7.760811284970134e-41,2.204439163208008,4.405497236842773,0.0,0.31043198704719543,-1.5840461889850062,0.0,-0.010425926186144352,0.8532187938690186,5.3250643478053306e-11,0.01480341237038374,0.8106353282928467,-2.1868863328295546e-13,0.022733110934495926
8190.0,8190.0,0.9422,0.2614,9.6102,-0.0469,0.0221,-0.1339,-1.2046770316413422,-0.0031855131965130568,0.659933865070343,-1.8292107582092285,-0.0,2.165527105331421,4.405477209682129,0.0,0.30458980798721313,-1.5840376059161585,0.0,-0.011123839765787125,0.8532750606536865,1.4822512453007385e-14,0.00921421404927969,0.8105869889259338,-5.281072582298864e-19,0.013532345183193684
8190.0,8190.0,0.9422,0.2614,9.6102,-0.0469,0.0221,-0.1339,-1.204640493994095,-0.003976010251790285,0.6389493942260742,-1.829202651977539,-0.0,2.2075395584106445,4.405425234431885,0.0,0.29275524616241455,-1.5840137640582483,0.0,-0.014514071866869926,0.853203535079956,4.12590162197876e-18,0.023788444697856903,0.8106879591941833,-1.27531671559098e-24,-0.030986934900283813
8190.0,8190.0,0.9422,0.2614,9.6102,-0.0469,0.0221,-0.1339,-1.2047453385642548,-0.004183617420494556,0.6799095273017883,-1.8292713165283203,-0.0,2.1707849502563477,4.405461474055908,0.0,0.31869158148765564,-1.5840376059161585,0.0,-0.008037213236093521,0.8533148765563965,7.498622726395265e-23,0.03442564979195595,0.810619592666626,-4.131864112508279e-32,-0.06209111958742142
8190.0,8190.0,0.9422,0.2614,9.6102,-0.0469,0.0221,-0.1339,-1.2047374111464997,-0.004079342354089022,0.5902206897735596,-1.829178810119629,-0.0,2.1905229091644287,4.405440970058105,0.0,0.30573147535324097,-1.5840500036822718,0.0,-0.025248916819691658,0.8532671332359314,2.0872692558372345e-26,0.028015589341521263,0.8106234073638916,-9.977964772883975e-38,0.027912547811865807
8190.0,8190.0,0.9422,0.2614,9.6102,-0.0469,0.0221,-0.1339,-1.2047811609557648,-0.0037388689815998077,0.6565710306167603,-1.8292272090911865,-0.0,2.208742141723633,4.405440970058105,0.0,0.31391942501068115,-1.5840461889850062,0.0,-0.025324789807200432,0.8532553315162659,3.793509054496264e-31,0.013945351354777813,0.8106597065925598,-2.802596928649634e-45,0.033865585923194885
8190.0,8190.0,0.9422,0.2614,9.6102,-0.0469,0.0221,-0.1339,-1.2048131984523316,-0.0039043701253831387,0.6504666805267334,-1.829235553741455,-0.0,2.1853723526000977,4.405477209682129,0.0,0.3085519075393677,-1.584034268056051,0.0,-0.01750778965651989,0.8532553315162659,0.0001891348510980606,0.02735508233308792,0.8105989694595337,0.0,0.0388057604432106
8190.0,8190.0,0.9422,0.2614,9.6102,-0.0469,0.0221,-0.1339,-1.2047766608050843,-0.004725546110421419,0.6422344446182251,-1.8292148113250732,-0.0,2.1669607162475586,4.4054528909870605,0.0,0.3086962103843689,-1.5840666929828089,0.0,-0.010262330062687397,0.8531677722930908,0.00016826479986775666,0.027556054294109344,0.8106234073638916,0.0,0.052843403071165085
8190.0,8190.0,1.072,0.2351,9.4301,-0.0174,0.0163,-0.1232,-1.204853044157364,-0.006108091212809086,0.6612334847450256,-1.8292107582092285,-0.0,2.1824707984924316,4.405428572291992,0.0,0.30872178077697754,-1.584034268056051,0.0,-0.007697828114032745,0.8532789945602417,0.0001746363559504971,0.034413136541843414,0.8106715679168701,0.0,0.014757288619875908
8190.0,8190.0,1.072,0.2351,9.4301,-0.0174,0.0163,-0.1232,-1.2049294871142884,-0.0067528001964092255,0.6764539480209351,-1.829219102859497,-0.0,2.248429298400879,4.405412836665771,0.0,0.31169697642326355,-1.5840137640582483,0.0,-0.016608113422989845,0.8532592058181763,0.0001600260438863188,0.02759571745991707,0.8106193542480469,0.0,0.019941164180636406
8190.0,8190.0,1.072,0.2351,9.4301,-0.0174,0.0163,-0.1232,-1.2049610775760193,-0.007679071743041277,0.6790436506271362,-1.8292591571807861,-0.0,2.2233164310455322,4.405457182521484,0.0,0.31216397881507874,-1.5839861075030726,0.0,-0.011584313586354256,0.8532909750938416,0.0001469600247219205,0.03417319059371948,0.8106234669685364,0.0,0.03547501564025879
8190.0,8190.0,1.072,0.2351,9.4301,-0.0174,0.0163,-0.1232,-1.205009089117386,-0.009318780153989792,0.6872798204421997,-1.8292396068572998,-0.0,2.259495973587036,4.405444784755371,0.0,0.31731370091438293,-1.5840261618243616,0.0,-0.022536776959896088,0.8532154560089111,0.00015461718430742621,0.032640330493450165,0.8106797933578491,0.0,-0.006995720788836479
8190.0,8190.0,1.072,0.2351,9.4301,-0.0174,0.0163,-0.1232,-1.2051175695708771,-0.010244064033031464,0.7006169557571411,-1.8292436599731445,-0.0,2.1991958618164062,4.4054528909870605,1.0565682941887644e-06,0.32183125615119934,-1.584034268056051,0.0,-0.017026646062731743,0.8532989025115967,0.00014401625958271325,0.021610528230667114,0.8106637597084045,0.0,0.04530894011259079
8190.0,8190.0,1.072,0.2351,9.4301,-0.0174,0.0163,-0.1232,-1.2051572066596528,-0.010914348997175694,0.6352993845939636,-1.829202651977539,-0.0,2.2530198097229004,4.40546099721875,1.9202604784052113e-11,0.330596923828125,-1.5840180555926722,0.0,-0.026344969868659973,0.8532512187957764,0.00013195053907111287,0.011914532631635666,0.8106675148010254,0.0,0.053712084889411926
8190.0,8190.0,1.072,0.2351,9.4301,-0.0174,0.0163,-0.1232,-1.2052413684180756,-0.011793361976742744,0.6547684073448181,-1.8292033672332764,-0.0,2.286729097366333,4.405457182521484,5.345116286837063e-15,0.33073925971984863,-1.5840380827533167,0.0,-0.01726585254073143,0.8532115817070007,0.00014184514293447137,0.027611132711172104,0.8106114268302917,0.0,0.033016644418239594
8190.0,8190.0,1.072,0.2351,9.4301,-0.0174,0.0163,-0.1232,-1.2053336960128327,-0.0125769367441535,0.7008426785469055,-1.8291869163513184,-0.0,2.2602968215942383,4.405477209682129,1.4878328105965735e-18,0.331137478351593,-1.5840380827533167,0.0,-0.021515652537345886,0.8532631397247314,0.0001339651207672432,0.04165131226181984,0.8106555938720703,0.0,0.027322223410010338
8190.0,8190.0,1.072,0.2351,9.4301,-0.0174,0.0163,-0.1232,-1.2054254871657868,-0.013870789669454098,0.6795341968536377,-1.8291542530059814,-0.0,2.287318706512451,4.405456705684326,0.000425877544330433,0.3392731249332428,-1.5839861075030726,0.0,-0.017912423238158226,0.8532472848892212,0.0001246853789780289,0.021420374512672424,0.8106555938720703,0.0,0.06374433636665344
8190.0,8190.0,1.072,0.2351,9.4301,-0.0174,0.0163,-0.1232,-1.205505446796753,-0.015262939035892487,0.6486507058143616,-1.8292149305343628,0.0004712168301921338,2.326314926147461,4.405476732844971,0.000537670508492738,0.3516620099544525,-1.5840180555926722,0.0,-0.006257994566112757,0.8532314300537109,0.00011499307584017515,0.04161185771226883,0.8106555938720703,0.0,0.03073830157518387
8190.0,8190.0,1.072,0.2351,9.4301,-0.0174,0.0163,-0.1232,-1.2056213778308411,-0.016996003687381744,0.661582350730896,-1.8292473554611206,0.0004895025631412864,2.3362679481506348,4.405504866237305,0.0005945743760094047,0.33984923362731934,-1.5840142408954065,0.0,-0.023994259536266327,0.853270947933197,0.00011458264634711668,0.03179854899644852,0.8106555938720703,0.0,0.07181653380393982
8190.0,8190.0,1.072,0.2351,9.4301,-0.0174,0.0163,-0.1232,-1.2057092052749177,-0.018335137516260147,0.6896067261695862,-1.829159140586853,0.0007357897702604532,2.355337381362915,4.405469103450439,0.000607116729952395,0.3420642614364624,-1.5840180555926722,0.0,-0.022953461855649948,0.8532871007919312,0.000117047420644667,0.04100256413221359,0.8106394410133362,0.0,0.09233082830905914
8190.0,8190.0,1.072,0.2351,9.4301,-0.0174,0.0163,-0.1232,-1.2058416169932862,-0.01966066285967827,0.6801937222480774,-1.829174518585205,0.0007348013459704816,2.3378145694732666,4.405525370235107,0.0006218883208930492,0.35317057371139526,-1.5840256849872034,0.0,-0.047821179032325745,0.8532472848892212,0.0001099033688660711,0.03601158782839775,0.8106394410133362,0.0,0.10532105714082718
8190.0,8190.0,0.9511,-0.0694,9.3757,-0.0405,0.0105,-0.1177,-1.20599781096492,-0.021056510508060455,0.6695984601974487,-1.8291912078857422,0.0011201468296349049,2.365802764892578,4.4055091577717285,0.0009593400754965842,0.3526145815849304,-1.5840137640582483,0.0,-0.03403756394982338,0.8532670736312866,0.00011856718629132956,0.03864104673266411,0.8106555938720703,0.0,0.16472399234771729
8190.0,8190.0,0.9511,-0.0694,9.3757,-0.0405,0.0105,-0.1177,-1.2060932976058503,-0.02184155583381653,0.6147013306617737,-1.829155683517456,0.0019319612765684724,2.392436981201172,4.405517264003418,0.0016235647490248084,0.3517796993255615,-1.584022347127096,0.0,-0.0409960113465786,0.8532871007919312,0.00012824567966163158,0.049558430910110474,0.8106514811515808,0.0,0.1312248408794403
8190.0,8190.0,0.9511,-0.0694,9.3757,-0.0405,0.0105,-0.1177,-1.2062775951674958,-0.022732097655534744,0.6961050629615784,-1.8291678428649902,0.003326877485960722,2.359272003173828,4.405549688930176,0.0032980924006551504,0.3438926637172699,-1.5840099493609827,0.0,-0.041023582220077515,0.853270947933197,0.00012184877414256334,0.04508291929960251,0.8106151819229126,0.0,0.1952366977930069
8190.0,8190.0,0.9511,-0.0694,9.3757,-0.0405,0.0105,-0.1177,-1.2064258319190522,-0.02238611876964569,0.7010278105735779,-1.829103946685791,0.004607584793120623,2.4178977012634277,4.405552073115967,0.016271863132715225,0.3773566484451294,-1.5840461889850062,0.0,-0.04853782057762146,0.8533068299293518,0.0002023100241785869,0.04676729068160057,0.8106514811515808,0.0,0.137860968708992
8190.0,8190.0,0.9511,-0.0694,9.3757,-0.0405,0.0105,-0.1177,-1.2065537732890625,-0.023047182708978653,0.611431896686554,-1.8290512561798096,0.005045762285590172,2.4480183124542236,4.405766649837158,0.02345046028494835,0.3735150992870331,-1.5840380827533167,0.0,-0.04211747646331787,0.8532750606536865,0.0002007211442105472,0.03288976848125458,0.8106514811515808,0.0002559238637331873,0.20306721329689026
8190.0,8190.0,0.9511,-0.0694,9.3757,-0.0405,0.0105,-0.1177,-1.2067702573588868,-0.02401164546608925,0.646582841873169,-1.8290596008300781,0.004995154216885567,2.459224224090576,4.40592543661084,0.022800296545028687,0.3825293481349945,-1.5840666929828089,0.0,-0.034544095396995544,0.8532751202583313,0.0002139237039955333,0.048977095633745193,0.8106916546821594,0.000250913726631552,0.1549723595380783
8190.0,8190.0,0.9511,-0.0694,9.3757,-0.0405,0.0105,-0.1177,-1.2068779033473511,-0.024690626189112663,0.7009568214416504,-1.8290033340454102,0.006437385454773903,2.4591100215911865,4.406025095576904,0.019319212064146996,0.3747333586215973,-1.5840666929828089,0.0,-0.04810165613889694,0.8532909750938416,0.00019943929510191083,0.041974540799856186,0.8106391429901123,0.0002527557371649891,0.1644255816936493
8190.0,8190.0,0.9511,-0.0694,9.3757,-0.0405,0.0105,-0.1177,-1.2070862513831635,-0.024832211434841156,0.6540131568908691,-1.828927993774414,0.00808221660554409,2.491386890411377,4.406181498164795,0.014773807488381863,0.3852073550224304,-1.584022347127096,0.0,-0.036712151020765305,0.8532909750938416,0.000265727547230199,0.040306780487298965,0.8107118606567383,0.00022905504738446325,0.18025967478752136
8190.0,8190.0,0.9511,-0.0694,9.3757,-0.0405,0.0105,-0.1177,-1.2072545749000092,-0.024843966588377953,0.6889883279800415,-1.8288713693618774,0.008601703681051731,2.4805400371551514,4.406201048488281,0.008916232734918594,0.3784603476524353,-1.5840137640582483,0.0,-0.04305058717727661,0.8533187508583069,0.0002534673549234867,0.04275565221905708,0.8106796741485596,0.0002285392547491938,0.21711944043636322
8190.0,8190.0,0.9511,-0.0694,9.3757,-0.0405,0.0105,-0.1177,-1.2073660057834168,-0.023921260610222816,0.6335910558700562,-1.8287873268127441,0.010198739357292652,2.4964706897735596,4.406281157130859,0.005278086289763451,0.3870818018913269,-1.5840018431292933,0.0,-0.04419506713747978,0.8533266186714172,0.00022660833201371133,0.04754062369465828,0.8106797337532043,0.00020959993707947433,0.200668066740036
8190.0,8190.0,0.9511,-0.0694,9.3757,-0.0405,0.0105,-0.1177,-1.2076223951629181,-0.023541707545518875,0.6606020331382751,-1.8287556171417236,0.011084944941103458,2.498772382736206,4.4062768655964355,0.0016773095121607184,0.3825796842575073,-1.5840304533587855,0.0,-0.051085613667964935,0.8533027768135071,0.00025652095791883767,0.04848549887537956,0.8106551766395569,0.00020348378166090697,0.20180116593837738
8190.0,8190.0,0.9511,-0.0694,9.3757,-0.0405,0.0105,-0.1177,-1.2077745360187073,-0.02382620796561241,0.6477758884429932,-1.8286638259887695,0.012199022807180882,2.4551424980163574,4.406232996577881,0.0007870762492530048,0.380458801984787,-1.5840380827533167,0.0,-0.043644532561302185,0.8532869219779968,0.00027545506600290537,0.048647813498973846,0.8107036352157593,0.00021483944146893919,0.26705265045166016
8190.0,8190.0,0.9511,-0.0694,9.3757,-0.0405,0.0105,-0.1177,-1.2078700822642823,-0.024272311478853226,0.6616063117980957,-1.8285921812057495,0.012293939478695393,2.5408120155334473,4.406261129970215,0.0005156082333996892,0.38668936491012573,-1.584006134663717,0.0,-0.051686618477106094,0.8533187508583069,0.0002897744416259229,0.0535074844956398,0.8106473088264465,0.00019206746947020292,0.25516021251678467
1015.0,8190.0,1.4477,0.0156,9.2913,-0.0376,0.004,-0.118,-1.2080700558475037,-0.027182694524526596,0.652052640914917,-1.8285443782806396,0.011879104189574718,2.5036251544952393,4.406188650722168,0.0002827382122632116,0.38287192583084106,-1.584034268056051,0.0,-0.05203896760940552,0.8532989025115967,0.0002802599046844989,0.04393133148550987,0.810599148273468,0.00019616851932369173,0.23054543137550354
1015.0,8190.0,1.4477,0.0156,9.2913,-0.0376,0.004,-0.118,-1.2082381707480927,-0.02868068404495716,0.6308838129043579,-1.828416347503662,0.012235336005687714,2.5299935340881348,4.406309290523193,0.00022878946037963033,0.3800567388534546,-1.5839980284320276,0.0,-0.0545838437974453,0.8533227443695068,0.0002785031683743,0.046291571110486984,0.8107118606567383,0.00017940920952241868,0.24275195598602295
1015.0,8190.0,1.4477,0.0156,9.2913,-0.0376,0.004,-0.118,-1.2084387105754395,-0.03119906783103943,0.6128988862037659,-1.8283519744873047,0.013109367340803146,2.507969856262207,4.406268282527588,6.400232086889446e-05,0.36915355920791626,-1.5840180555926722,0.0,-0.055558495223522186,0.8533470630645752,0.00025331630604341626,0.04401659965515137,0.8106874823570251,0.00016528801643289626,0.23728694021701813
1015.0,8190.0,1.4477,0.0156,9.2913,-0.0376,0.004,-0.118,-1.2086503964713593,-0.0324934720993042,0.6142622828483582,-1.8282008171081543,0.01576298102736473,2.548203706741333,4.406280680293701,4.386431101011112e-05,0.38610416650772095,-1.584006134663717,0.0,-0.05419809743762016,0.8533392548561096,0.0003091976686846465,0.04742018133401871,0.8106796741485596,0.0001810860267141834,0.24491311609745026
1015.0,8190.0,1.4477,0.0156,9.2913,-0.0376,0.004,-0.118,-1.2088993352702637,-0.03398187458515167,0.6072527170181274,-1.8281373977661133,0.0170797910541296,2.5204386711120605,4.406240625972412,3.486809134756186e-07,0.3833783268928528,-1.5839818159686487,0.0,-0.05888356268405914,0.8533227443695068,0.0003049412334803492,0.04621564596891403,0.8106838464736938,0.0001660279813222587,0.2274978756904602
1015.0,8190.0,1.4477,0.0156,9.2913,-0.0376,0.004,-0.118,-1.2091467839530488,-0.03607232868671417,0.6248995661735535,-1.8279532194137573,0.017544416710734367,2.5714759826660156,4.4063049989887695,6.337102283898721e-12,0.3821793496608734,-1.5840380827533167,0.0,-0.06317188590765,0.8532710671424866,0.0002960666606668383,0.05876442790031433,0.8106714487075806,0.0001446758833480999,0.3105320930480957
1015.0,8190.0,1.4477,0.0156,9.2913,-0.0376,0.004,-0.118,-1.2094352704337616,-0.03761102631688118,0.5852794647216797,-1.8279173374176025,0.019214382395148277,2.5530402660369873,4.406256838435791,1.7639557476568555e-15,0.3697836101055145,-1.5839980284320276,0.0,-0.058377448469400406,0.8533788919448853,0.00026407185941934586,0.0642109289765358,0.8106957077980042,0.0001846033992478624,0.31827718019485474
1015.0,8190.0,1.4477,0.0156,9.2913,-0.0376,0.004,-0.118,-1.2096431118300934,-0.03844834864139557,0.6083601117134094,-1.8277443647384644,0.021038971841335297,2.561936855316162,4.406293078059814,4.910035548659375e-19,0.38124871253967285,-1.584010426198141,0.0,-0.07241308689117432,0.8532988429069519,0.0002674843999557197,0.061275914311409,0.8107078075408936,0.0003406478208489716,0.3206794559955597
1015.0,8190.0,1.4477,0.0156,9.2913,-0.0376,0.004,-0.118,-1.2099595230868836,-0.038600556552410126,0.6141738295555115,-1.8276100158691406,0.020215602591633797,2.547504425048828,4.406284971828125,8.923747598875698e-24,0.38124334812164307,-1.583994213734762,0.0,-0.07126016914844513,0.8533108234405518,0.00021784630371257663,0.059054840356111526,0.8106915950775146,0.00031431938987225294,0.28149259090423584
1015.0,8190.0,1.4477,0.0156,9.2913,-0.0376,0.004,-0.118,-1.2102360886386414,-0.03973622992634773,0.6269882321357727,-1.8274948596954346,0.018996115773916245,2.5901758670806885,4.4062768655964355,2.4839579383447322e-27,0.38400179147720337,-1.583994213734762,0.0,-0.06529343873262405,0.8533186316490173,0.0002282451605424285,0.0468674935400486,0.8107160329818726,0.00026758777676150203,0.3319094777107239
1015.0,8190.0,1.4477,0.0156,9.2913,-0.0376,0.004,-0.118,-1.2106084686568757,-0.04330715164542198,0.614801287651062,-1.82736337184906,0.01904779113829136,2.53615665435791,4.406253023738525,4.514471066780022e-32,0.38305503129959106,-1.5840418974505823,0.0,-0.05652125924825668,0.853359043598175,0.00022720571723766625,0.06167685240507126,0.8107196688652039,0.0003557036689016968,0.2893526554107666
1015.0,8190.0,1.4477,0.0156,9.2913,-0.0376,0.004,-0.118,-1.2108039122870942,-0.04471045359969139,0.6479647159576416,-1.8272274732589722,0.018982773646712303,2.5794429779052734,4.406312628383301,1.256619532240853e-35,0.38319694995880127,-1.5840137640582483,0.0,-0.0610094852745533,0.8533748984336853,0.00020548808970488608,0.06728435307741165,0.8107114434242249,0.00040331814670935273,0.36327826976776123
1015.0,8190.0,1.4477,0.0156,9.2913,-0.0376,0.004,-0.118,-1.2110841435245057,-0.04719925299286842,0.60741126537323,-1.8270866870880127,0.017385166138410568,2.5746989250183105,4.406272574062012,3.497846957828999e-39,0.371454119682312,-1.5839861075030726,0.0,-0.07397176325321198,0.853326678276062,0.00021378860401455313,0.0550842359662056,0.8107113838195801,0.00039221334736794233,0.3224448263645172
967.0,759.0,0.8303,0.0766,9.6814,-0.0229,0.0348,-0.1153,-1.211476282482483,-0.053124360740184784,0.6033633947372437,-1.8269591331481934,0.017301136627793312,2.5729310512542725,4.406297369594238,6.305843089461677e-44,0.38350746035575867,-1.584006134663717,0.0,-0.06790712475776672,0.8533068299293518,0.0001911875733640045,0.06995414197444916,0.810735821723938,0.0005090311751700938,0.29677578806877136
967.0,759.0,0.8303,0.0766,9.6814,-0.0229,0.0348,-0.1153,-1.2118206483176728,-0.05842176452279091,0.5839830636978149,-1.8268029689788818,0.018748223781585693,2.5495152473449707,4.406293078059814,0.0,0.38890132308006287,-1.583994213734762,0.0,-0.06790758669376373,0.8533068299293518,0.00018170820840168744,0.06644380837678909,0.8107237815856934,0.0010863750940188766,0.3037768602371216
967.0,759.0,0.8303,0.0766,9.6814,-0.0229,0.0348,-0.1153,-1.2121766966632386,-0.06357666850090027,0.5836066603660583,-1.8266797065734863,0.020339956507086754,2.594783306121826,4.406280680293701,0.0,0.3694761395454407,-1.584006134663717,0.0,-0.0569220632314682,0.8533310294151306,0.00016213823982980102,0.052405714988708496,0.8107640743255615,0.0030583261977881193,0.34339722990989685
967.0,759.0,0.8303,0.0766,9.6814,-0.0229,0.0348,-0.1153,-1.2127288442901154,-0.06897851079702377,0.5743913650512695,-1.8265552520751953,0.02098655141890049,2.5444886684417725,4.406284971828125,0.00011897550575667992,0.3653305172920227,-1.5840018431292933,0.0,-0.05580725520849228,0.8533714413642883,0.00014171149814501405,0.05427810549736023,0.8107714653015137,0.006158990319818258,0.3807680606842041
967.0,759.0,0.8303,0.0766,9.6814,-0.0229,0.0348,-0.1153,-1.2131290596774598,-0.06713417917490005,0.6378359794616699,-1.8263883590698242,0.023000387474894524,2.5583367347717285,4.406284971828125,0.0001597016816958785,0.37574270367622375,-1.584034268056051,0.0,-0.06267537921667099,0.8533232808113098,0.0001553434121888131,0.05227498710155487,0.8108357191085815,0.008939835242927074,0.34176474809646606
967.0,759.0,0.8303,0.0766,9.6814,-0.0229,0.0348,-0.1153,-1.2136972409537812,-0.06628447026014328,0.5690131187438965,-1.826188564300537,0.027360504493117332,2.5848097801208496,4.406261129970215,0.0006316364742815495,0.388927161693573,-1.583994213734762,0.0,-0.06899711489677429,0.8533554077148438,0.00013933614536654204,0.06946377456188202,0.8109519481658936,0.009145072661340237,0.33411163091659546
967.0,759.0,0.8303,0.0766,9.6814,-0.0229,0.0348,-0.1153,-1.2141255897334595,-0.06541908532381058,0.5914938449859619,-1.8260207176208496,0.029802199453115463,2.593724012374878,4.406325026149414,0.0005457354127429426,0.38059449195861816,-1.584045712147848,0.0,-0.05520114302635193,0.8533310294151306,0.00015050543879624456,0.05665358155965805,0.8109720945358276,0.009350516833364964,0.3855574131011963
967.0,759.0,0.8303,0.0766,9.6814,-0.0229,0.0348,-0.1153,-1.2145573061755677,-0.06446198374032974,0.5983065366744995,-1.825853705406189,0.034056007862091064,2.6569747924804688,4.406252546901367,0.0004365765198599547,0.3845413327217102,-1.5840380827533167,0.0,-0.0750465840101242,0.8533595204353333,0.00014076443039812148,0.07069798558950424,0.8110440373420715,0.009676584973931313,0.3640340566635132
967.0,759.0,0.8303,0.0766,9.6814,-0.0229,0.0348,-0.1153,-1.2150851351073761,-0.0622868686914444,0.5626986622810364,-1.8255287408828735,0.037077441811561584,2.6094255447387695,4.406265421504639,0.00013917518663220108,0.36420759558677673,-1.5839861075030726,0.0,-0.07321835309267044,0.8533470630645752,0.00014767215179745108,0.06794853508472443,0.8110756278038025,0.010087789967656136,0.365921288728714
967.0,759.0,0.8303,0.0766,9.6814,-0.0229,0.0348,-0.1153,-1.2154929500869294,-0.0640772134065628,0.6016378402709961,-1.8253378868103027,0.04027175530791283,2.5790634155273438,4.406281157130859,0.00011295358854113147,0.37410104274749756,-1.5840180555926722,0.0,-0.07118277251720428,0.8533548712730408,0.0001540878292871639,0.0671583041548729,0.8111521601676941,0.009552166797220707,0.3251704275608063
967.0,759.0,0.8303,0.0766,9.6814,-0.0229,0.0348,-0.1153,-1.2160730224898835,-0.06935405731201172,0.550275444984436,-1.8249825239181519,0.044968344271183014,2.593696117401123,4.406264467830322,4.519742651609704e-05,0.36922723054885864,-1.584010426198141,0.0,-0.08074331283569336,0.8533755540847778,0.0001509605353930965,0.0651015192270279,0.8112524747848511,0.010191209614276886,0.3448916971683502
967.0,759.0,0.8303,0.0766,9.6814,-0.0229,0.0348,-0.1153,-1.2165007156184693,-0.0762551873922348,0.5637392997741699,-1.8247032165527344,0.05120671167969704,2.6152942180633545,4.406257315272949,3.923580879927613e-05,0.34483179450035095,-1.5840180555926722,0.0,-0.04756036400794983,0.8533347249031067,0.00015111170068848878,0.07000952959060669,0.8112882375717163,0.009148195385932922,0.35785967111587524
967.0,759.0,0.8303,0.0766,9.6814,-0.0229,0.0348,-0.1153,-1.2169370514205475,-0.08495296537876129,0.5057770013809204,-1.8243515491485596,0.05720352753996849,2.6126747131347656,4.406272574062012,3.46969609381631e-05,0.36731263995170593,-1.5840261618243616,0.0,-0.06787151098251343,0.8534389734268188,0.00015958520816639066,0.07044840604066849,0.8113442063331604,0.007433001417666674,0.25322437286376953
8190.0,8190.0,0.804,0.3852,9.4971,-0.0195,-0.0252,-0.1084,-1.2176524263671418,-0.09526931494474411,0.4893519878387451,-1.8238554000854492,0.0664486289024353,2.608370542526245,4.406260176295898,3.0060629796935245e-05,0.3386397361755371,-1.5840500036822718,0.0,-0.07685820758342743,0.8533589839935303,0.0001474210585001856,0.062247827649116516,0.8114208579063416,0.0049964189529418945,0.32041433453559875
8190.0,8190.0,0.804,0.3852,9.4971,-0.0195,-0.0252,-0.1084,-1.218325213795044,-0.10468951612710953,0.4780234396457672,-1.8234251737594604,0.07456786930561066,2.5533499717712402,4.40632884084668,2.7322561436449178e-05,0.33430802822113037,-1.5840380827533167,0.0,-0.07101868093013763,0.8533430099487305,0.00013775074330624193,0.07378914952278137,0.8113963603973389,0.0033089297357946634,0.32297784090042114
8190.0,8190.0,0.804,0.3852,9.4971,-0.0195,-0.0252,-0.1084,-1.2191885870746155,-0.11293783038854599,0.4957997798919678,-1.8228261470794678,0.08520577102899551,2.6080846786499023,4.406289263362549,4.7895173338474706e-05,0.3599359393119812,-1.5840180555926722,0.0,-0.05750183388590813,0.8533470630645752,0.0001435614685760811,0.07095396518707275,0.8114083409309387,0.0018610359402373433,0.2958953082561493
8190.0,8190.0,0.804,0.3852,9.4971,-0.0195,-0.0252,-0.1084,-1.2199283999255677,-0.11395259946584702,0.4935758709907532,-1.8223037719726562,0.08894776552915573,2.6022374629974365,4.4063049989887695,4.506697951001115e-05,0.35423415899276733,-1.584006134663717,0.0,-0.06398868560791016,0.8533671498298645,0.00013653132191393524,0.06321503967046738,0.8114202618598938,0.0012328331358730793,0.3005335330963135
8190.0,8190.0,0.804,0.3852,9.4971,-0.0195,-0.0252,-0.1084,-1.220632092361786,-0.11101160198450089,0.5138731598854065,-1.8216798305511475,0.08948205411434174,2.633375644683838,4.406308813686035,4.191850166535005e-05,0.3576413094997406,-1.584006134663717,0.0,-0.0647047758102417,0.8534034490585327,0.0001291822991333902,0.05997423455119133,0.8113881349563599,0.0006553400889970362,0.23168990015983582
8190.0,8190.0,0.804,0.3852,9.4971,-0.0195,-0.0252,-0.1084,-1.2215717297843476,-0.11343047767877579,0.5153306722640991,-1.8210340738296509,0.08361776918172836,2.6420860290527344,4.406268282527588,2.1689857021556236e-05,0.34308111667633057,-1.584006134663717,0.0,-0.051504895091056824,0.8533429503440857,0.00012053189857397228,0.07040704041719437,0.8114806413650513,0.0005783639498986304,0.34306105971336365
8190.0,8190.0,0.804,0.3852,9.4971,-0.0195,-0.0252,-0.1084,-1.2221911412528534,-0.12221294641494751,0.5552718639373779,-1.8206026554107666,0.0819963589310646,2.6254258155822754,4.406240625972412,1.8022064978140406e-05,0.3309992551803589,-1.584010426198141,0.0,-0.05181267112493515,0.8533991575241089,0.0001147679504356347,0.0563507042825222,0.8114161491394043,0.0005190721130929887,0.28264284133911133
8190.0,8190.0,0.804,0.3852,9.4971,-0.0195,-0.0252,-0.1084,-1.2229397159865876,-0.13421645760536194,0.49960091710090637,-1.8200557231903076,0.08119118213653564,2.566107988357544,4.406280680293701,3.8261450896470706e-08,0.33808255195617676,-1.5839985052691858,0.0,-0.06071937829256058,0.8533714413642883,0.00010953025048365816,0.052634723484516144,0.811396062374115,0.00042675991426222026,0.3191763162612915
8190.0,8190.0,0.804,0.3852,9.4971,-0.0195,-0.0252,-0.1084,-1.2239955228618165,-0.13988614082336426,0.4597025513648987,-1.8193689584732056,0.08408229053020477,2.572239637374878,4.4063049989887695,6.953828788833216e-13,0.33156970143318176,-1.5839985052691858,0.0,-0.04583965986967087,0.8533434867858887,0.0001032475265674293,0.06929358094930649,0.8113918900489807,5.860692181158811e-05,0.25510573387145996
8190.0,8190.0,0.804,0.3852,9.4971,-0.0195,-0.0252,-0.1084,-1.2248070699027558,-0.1363961100578308,0.4322504997253418,-1.8188576698303223,0.09119592607021332,2.574462890625,4.4062768655964355,1.935623809197766e-16,0.32014042139053345,-1.5840142408954065,0.0,-0.037210557609796524,0.8533548712730408,9.89890395430848e-05,0.08122329413890839,0.8114084005355835,3.9737393930927567e-10,0.23974840342998505
8190.0,8190.0,0.804,0.3852,9.4971,-0.0195,-0.0252,-0.1084,-1.2258946758559723,-0.12597157061100006,0.4838080406188965,-1.8180592060089111,0.10451687127351761,2.569775104522705,4.406272574062012,3.517900998269643e-21,0.31739360094070435,-1.5839861075030726,0.0,-0.04835664480924606,0.853306233882904,9.382891585119069e-05,0.07308413833379745,0.8113803267478943,1.2874407798620284e-17,0.26950085163116455
8190.0,8190.0,0.804,0.3852,9.4971,-0.0195,-0.0252,-0.1084,-1.2267304819873353,-0.12991949915885925,0.46768832206726074,-1.8174397945404053,0.11072315275669098,2.598788022994995,4.406204386348389,9.792205358294416e-25,0.3179434835910797,-1.5839899222003382,0.0,-0.032636988908052444,0.8533630967140198,9.029871580423787e-05,0.07803843170404434,0.8114526271820068,-1.5016353245300706e-05,0.22878742218017578
8190.0,8190.0,0.804,0.3852,9.4971,-0.0195,-0.0252,-0.1084,-1.2275380057147522,-0.14569319784641266,0.49033987522125244,-1.8168127536773682,0.1025533452630043,2.5669100284576416,4.406265421504639,-0.0015850922791287303,0.32939136028289795,-1.583977524434225,0.0,-0.035633232444524765,0.8532861471176147,8.702451304998249e-05,0.04861735552549362,0.8113918900489807,-3.626272199186431e-11,0.22160495817661285
8190.0,831.0,1.2425,0.009,9.5037,-0.0499,-0.0626,-0.1208,-1.2288185519031067,-0.16849635541439056,0.4260323643684387,-1.8159983158111572,0.0897015854716301,2.519787311553955,4.406224890346191,-0.001307113328948617,0.3073047399520874,-1.5840142408954065,0.0,-0.037189316004514694,0.8533429503440857,8.301112393382937e-05,0.0526653528213501,0.8114001750946045,-1.1748661307049916e-18,0.2571146488189697
8190.0,831.0,1.2425,0.009,9.5037,-0.0499,-0.0626,-0.1208,-1.2297059756568451,-0.17363901436328888,0.3927934765815735,-1.8154191970825195,0.0901074931025505,2.5066442489624023,4.40629689275708,-0.0004186978912912309,0.3152673840522766,-1.5839336554156702,0.0001676631800364703,-0.025418154895305634,0.8533595204353333,8.02359645604156e-05,0.05443141609430313,0.8114203810691833,-2.8371632919611097e-24,0.17873740196228027
8190.0,831.0,1.2425,0.009,9.5037,-0.0499,-0.0626,-0.1208,-1.231017993097641,-0.16017095744609833,0.4024970531463623,-1.8146131038665771,0.0990365669131279,2.537715196609497,4.406268282527588,0.00020078920351807028,0.3099096715450287,-1.5839455763446253,0.0002359766949666664,-0.022822309285402298,0.8534069061279297,1.1196082283504438e-08,0.04646320641040802,0.8113641738891602,-0.00036570208612829447,0.18845881521701813
8190.0,831.0,1.2425,0.009,9.5037,-0.0499,-0.0626,-0.1208,-1.2319736343673249,-0.1479426622390747,0.42780065536499023,-1.8140697479248047,0.10125502198934555,2.515897750854492,4.406301184291504,0.00015178037574514747,0.30107083916664124,-1.5839818159686487,0.0005191813688725233,-0.02315947785973549,0.8533229231834412,3.1164701895514124e-12,0.053069546818733215,0.8113799691200256,-0.00029601482674479485,0.1756768822669983
8190.0,831.0,1.2425,0.009,9.5037,-0.0499,-0.0626,-0.1208,-1.232957349424698,-0.15175820887088776,0.4352206587791443,-1.813455581665039,0.10120156407356262,2.5078811645507812,4.406236334437988,6.879665306769311e-05,0.308452844619751,-1.5839861075030726,0.00039964006282389164,-0.02029457315802574,0.8533108830451965,8.674810108152888e-16,0.05699014663696289,0.811396062374115,-4.523911684373161e-06,0.22948576509952545
8190.0,831.0,1.2425,0.009,9.5037,-0.0499,-0.0626,-0.1208,-1.2342567306808014,-0.17645739018917084,0.4316118359565735,-1.8126567602157593,0.10278734564781189,2.5434863567352295,4.406265421504639,3.289811502327211e-06,0.3078080415725708,-1.5839656035052698,0.00035350260441191494,-0.030565809458494186,0.8533511757850647,1.57660382414537e-20,0.05673660337924957,0.8114484548568726,0.0016290554776787758,0.1743585467338562
8190.0,831.0,1.2425,0.009,9.5037,-0.0499,-0.0626,-0.1208,-1.235300825243332,-0.1954219490289688,0.39071035385131836,-1.8120577335357666,0.10372135788202286,2.527996063232422,4.406261129970215,9.157312130803064e-10,0.3108733594417572,-1.5839455763446253,0.0002956525422632694,-0.025921553373336792,0.8533630967140198,4.388535373231715e-24,0.05571941286325455,0.811452329158783,0.0011483783600851893,0.2665110230445862
8190.0,831.0,1.2425,0.009,9.5037,-0.0499,-0.0626,-0.1208,-1.2363645297339936,-0.1972215473651886,0.43786340951919556,-1.8114265203475952,0.09945212304592133,2.48974609375,4.406229181880615,2.5489715047878614e-13,0.28066182136535645,-1.5839698950396937,0.00033707739203236997,-0.008555598556995392,0.8533511161804199,1.2215649784303364e-27,0.0670010969042778,0.8114079236984253,0.00012943436740897596,0.2152257263660431
8190.0,831.0,1.2425,0.009,9.5037,-0.0499,-0.0626,-0.1208,-1.2378759247115632,-0.1908717155456543,0.39610832929611206,-1.8105367422103882,0.09853684157133102,2.4671006202697754,4.406289263362549,-0.0001479852362535894,0.29557812213897705,-1.5839503447162073,0.0003240810474380851,-0.018098659813404083,0.853290319442749,2.220133699068595e-32,0.04828261211514473,0.8114244341850281,4.19350925512374e-12,0.2214529812335968
8190.0,831.0,1.2425,0.009,9.5037,-0.0499,-0.0626,-0.1208,-1.2389594179442902,-0.1835508793592453,0.39826080203056335,-1.8099613189697266,0.10658057034015656,2.447226047515869,4.406284971828125,-7.401987431876478e-07,0.31165811419487,-1.5839741865741175,0.0008423995459452271,-0.014422794803977013,0.8533310294151306,6.179824340985721e-36,0.05686745047569275,0.811387836933136,-0.0008435946656391025,0.17102853953838348
8190.0,831.0,1.2425,0.009,9.5037,-0.0499,-0.0626,-0.1208,-1.2405353647521515,-0.182463601231575,0.4519084692001343,-1.8090951442718506,0.11022164672613144,2.4916555881500244,4.406321211452148,-1.345274586173062e-11,0.2955785393714905,-1.5839861075030726,0.0008685638313181698,-0.01154365949332714,0.8533589839935303,1.1231547321409841e-40,0.05487493425607681,0.8114083409309387,-0.0002891954791266471,0.12398260086774826
8190.0,831.0,1.2425,0.009,9.5037,-0.0499,-0.0626,-0.1208,-1.241719053392746,-0.19067919254302979,0.41917312145233154,-1.808488130569458,0.10698480159044266,2.494659423828125,4.406236334437988,-3.744621274978698e-15,0.2956206500530243,-1.5839536825763147,0.0007979931542649865,-0.005295657552778721,0.8533475399017334,3.0828566215145976e-44,0.05391924828290939,0.8113839626312256,0.00030025391606613994,0.188904270529747
8190.0,831.0,1.2425,0.009,9.5037,-0.0499,-0.0626,-0.1208,-1.2429507833770295,-0.20497499406337738,0.3759009838104248,-1.8078209161758423,0.10729587078094482,2.506856679916382,4.406256838435791,-1.0423292559023045e-18,0.3083299994468689,-1.583954159413473,0.000773772073443979,-0.016199978068470955,0.8533671498298645,0.0,0.053475603461265564,0.8114563822746277,0.0003030342631973326,0.1358121782541275
8190.0,831.0,1.2425,0.009,9.5037,-0.0499,-0.0626,-0.1208,-1.2445902985385437,-0.2212618887424469,0.4054088294506073,-1.806938886642456,0.11315911263227463,2.5464322566986084,4.406221075648926,-1.894382095166954e-23,0.3019481301307678,-1.5839141050921839,0.000965326966252178,-0.009499743580818176,0.8533750176429749,0.0,0.054750628769397736,0.8114079236984253,9.273480100091547e-05,0.12103404104709625
8190.0,8190.0,1.4333,0.0532,10.4106,-0.0209,-0.0296,-0.1038,-1.2458737355521698,-0.21860292553901672,0.3924615681171417,-1.806186318397522,0.11671211570501328,2.554152011871338,4.406244440669678,-5.273082943051522e-27,0.2869458794593811,-1.5839460531817835,0.0019497312605381012,-0.012242760509252548,0.8533470630645752,0.0,0.049772970378398895,0.8114202618598938,6.391788209825222e-10,0.1469273418188095
8190.0,8190.0,1.4333,0.0532,10.4106,-0.0209,-0.0296,-0.1038,-1.247609631424286,-0.20674416422843933,0.415738582611084,-1.8052860498428345,0.12211182713508606,2.5158793926239014,4.406293078059814,-9.583568580142419e-32,0.2861149311065674,-1.5839222113238733,0.004074499476701021,0.006741298362612724,0.853350818157196,0.0,0.05481293797492981,0.8114121556282043,2.0708582440550805e-17,0.15719348192214966
8190.0,8190.0,1.4333,0.0532,10.4106,-0.0209,-0.0296,-0.1038,-1.2490060490420838,-0.2128022313117981,0.4743865430355072,-1.8045316934585571,0.12772269546985626,2.508702278137207,4.406301184291504,-2.6676211341995756e-35,0.28842711448669434,-1.5839389006244105,0.010152495466172695,0.0019320838619023561,0.8533429503440857,0.0,0.05222321301698685,0.8113961219787598,5.000878947920391e-23,0.1573999673128128
8190.0,8190.0,1.4333,0.0532,10.4106,-0.0209,-0.0296,-0.1038,-1.2503451269916077,-0.22466784715652466,0.4744417071342468,-1.8037264347076416,0.1306723803281784,2.5588057041168213,4.406284971828125,-7.425421707921704e-39,0.3020596504211426,-1.5838306585894983,0.009673192165791988,0.0012774700298905373,0.8533434867858887,0.0,0.0363566130399704,0.8113721609115601,1.2076532882924225e-28,0.19627109169960022
8190.0,8190.0,1.4333,0.0532,10.4106,-0.0209,-0.0296,-0.1038,-1.252160207634308,-0.2244836837053299,0.5294532775878906,-1.8026403188705444,0.13548633456230164,2.5347986221313477,4.406240625972412,-1.3452465257518244e-43,0.3020116090774536,-1.5837820211993616,0.0035291719250380993,-0.01605602726340294,0.8533144593238831,0.0,0.0471801832318306,0.8114484548568726,3.912642704233451e-36,0.13671711087226868
8190.0,8190.0,1.4333,0.0532,10.4106,-0.0209,-0.0296,-0.1038,-1.2535397869399567,-0.22503413259983063,0.5435724854469299,-1.8018665313720703,0.13795937597751617,2.578739643096924,4.406261129970215,-0.0,0.3171178698539734,-1.5837982336627405,0.0015387570019811392,-0.004631713964045048,0.853350818157196,0.0,0.05246398225426674,0.8114120960235596,9.448955544942242e-42,0.08873860538005829
8190.0,8190.0,1.4333,0.0532,10.4106,-0.0209,-0.0296,-0.1038,-1.254927710895874,-0.2352982759475708,0.49417197704315186,-1.8010029792785645,0.1367003172636032,2.5479729175567627,4.406293078059814,-2.8680682589765638e-05,0.32157498598098755,-1.5837705771075647,0.000935869466047734,-0.011244385503232479,0.8533511757850647,0.0,0.051525555551052094,0.8113921880722046,0.0,0.1470595896244049
8190.0,8190.0,1.4333,0.0532,10.4106,-0.0209,-0.0296,-0.1038,-1.2567912203124543,-0.24039269983768463,0.5128354430198669,-1.799959421157837,0.13635025918483734,2.5422396659851074,4.406329317683838,-2.6276587959728204e-05,0.3053963780403137,-1.5837538878070276,0.0006153759313747287,0.014933647587895393,0.8533470630645752,0.0,0.04024982452392578,0.8114283680915833,-4.2196195863652974e-05,0.155363991856575
8190.0,8190.0,1.4333,0.0532,10.4106,-0.0209,-0.0296,-0.1038,-1.2582071286490937,-0.22817306220531464,0.5057012438774109,-1.7990931272506714,0.1452665477991104,2.588740825653076,4.406284971828125,-7.3141843692781094e-09,0.29849326610565186,-1.5837743918048304,0.0003487883077468723,0.0067532360553741455,0.8533470630645752,0.0,0.04934783652424812,0.8113559484481812,-0.00010659600229701027,0.08083820343017578
8190.0,8190.0,1.4333,0.0532,10.4106,-0.0209,-0.0296,-0.1038,-1.2599818867496033,-0.22903913259506226,0.5506029725074768,-1.7978605031967163,0.15648530423641205,2.554561138153076,4.406265421504639,-1.32931710886304e-13,0.29271072149276733,-1.5837786833392542,0.0002904844586737454,0.003637556219473481,0.8533511757850647,0.0,0.05599992722272873,0.8113921880722046,-0.00042844261042773724,0.12332172691822052
8190.0,8190.0,1.4333,0.0532,10.4106,-0.0209,-0.0296,-0.1038,-1.261466459637024,-0.23749688267707825,0.5627676844596863,-1.79694664478302,0.1592964082956314,2.578166961669922,4.406240625972412,-3.700202549587327e-17,0.3183112144470215,-1.5837858358966272,0.00025991088477894664,0.007542615756392479,0.8533143997192383,0.0,0.045487381517887115,0.8113840222358704,-0.000266860646661371,0.06371713429689407
8190.0,8190.0,1.4333,0.0532,10.4106,-0.0209,-0.0296,-0.1038,-1.262849287395813,-0.2429962158203125,0.6028439402580261,-1.795974612236023,0.16070309281349182,2.566558837890625,4.406301184291504,-1.0299651514107528e-20,0.31799185276031494,-1.5837820211993616,0.0002456268994137645,-0.001139432773925364,0.853294312953949,0.0,0.04025248438119888,0.8114083409309387,-0.00016372698883060366,0.09549295902252197
8190.0,8190.0,1.4333,0.0532,10.4106,-0.0209,-0.0296,-0.1038,-1.2647443872741242,-0.24064980447292328,0.5920323133468628,-1.7947090864181519,0.16061367094516754,2.5454931259155273,4.406265421504639,-1.871910721749964e-25,0.305145263671875,-1.5837538878070276,0.0002268020180054009,0.008521541953086853,0.8532705903053284,0.0,0.03912894427776337,0.811396062374115,-0.00017567441682331264,0.06043329834938049
8190.0,519.0,1.3789,-0.2447,9.8285,-0.0418,-0.1113,-0.1165,-1.2661318343928833,-0.24603837728500366,0.5397071838378906,-1.793647050857544,0.16817431151866913,2.5521700382232666,4.406261129970215,-5.210532445872967e-29,0.29193538427352905,-1.5837538878070276,0.00020469249284360558,0.005193500313907862,0.8533351421356201,0.0,0.03712507337331772,0.8113682866096497,-0.00015324582636822015,0.04175764322280884
8190.0,519.0,1.3789,-0.2447,9.8285,-0.0418,-0.1113,-0.1165,-1.2681243878654023,-0.24074527621269226,0.603891134262085,-1.7922807931900024,0.17886598408222198,2.5537304878234863,4.406261129970215,-9.469885345980045e-34,0.29906898736953735,-1.5837777296649378,0.0002070176269626245,-0.004011498298496008,0.8533393740653992,0.0,0.0367254801094532,0.8113762140274048,-0.00013094788300804794,0.11011576652526855
8190.0,519.0,1.3789,-0.2447,9.8285,-0.0418,-0.1113,-0.1165,-1.2695031625083466,-0.23971866071224213,0.6398122310638428,-1.7912037372589111,0.18567019701004028,2.600285530090332,4.4062768655964355,-2.6359771602553104e-37,0.3015609085559845,-1.583733860646383,0.0001905841927509755,0.000602050859015435,0.8533228039741516,0.0,0.03891907259821892,0.8114084601402283,-0.00011806382826762274,0.05276700481772423
8190.0,519.0,1.3789,-0.2447,9.8285,-0.0418,-0.1113,-0.1165,-1.2708985370448609,-0.24082159996032715,0.6237258911132812,-1.790045142173767,0.18782900273799896,2.5988240242004395,4.406240625972412,-7.337338889051175e-41,0.30386924743652344,-1.583733860646383,0.00016436437726952136,-0.002612578682601452,0.8533671498298645,0.0,0.0498327873647213,0.8113716840744019,-0.00010748839849838987,0.044023264199495316
8190.0,519.0,1.3789,-0.2447,9.8285,-0.0418,-0.1113,-0.1165,-1.2728461486152192,-0.24235355854034424,0.6308823823928833,-1.7885690927505493,0.1992114782333374,2.5911598205566406,4.4063049989887695,-1.401298464324817e-45,0.3045664429664612,-1.583773438130514,0.00017128844046965241,0.008246567100286484,0.8533143997192383,0.0,0.044781394302845,0.8114001750946045,-7.201977132353932e-05,0.07012525200843811
8190.0,519.0,1.3789,-0.2447,9.8285,-0.0418,-0.1113,-0.1165,-1.2743221384337922,-0.2442522644996643,0.6515571475028992,-1.787407398223877,0.2054564207792282,2.6305410861968994,4.406305475825928,-0.0,0.3097565174102783,-1.583790127431051,0.00015651194553356618,0.010336545296013355,0.8533229231834412,0.0,0.036878809332847595,0.8113799095153809,-6.667972047580406e-05,0.05846833437681198
8190.0,519.0,1.3789,-0.2447,9.8285,-0.0418,-0.1113,-0.1165,-1.2758660477450867,-0.24862463772296906,0.6177963614463806,-1.7861645221710205,0.2124258130788803,2.58343505859375,4.406232996577881,-0.0,0.30118778347969055,-1.5837581793414515,0.00014399082283489406,0.016004493460059166,0.8533595204353333,0.0,0.03401312977075577,0.8113961219787598,-8.194355177693069e-05,0.09132292866706848
8190.0,519.0,1.3789,-0.2447,9.8285,-0.0418,-0.1113,-0.1165,-1.2778808337501069,-0.24067406356334686,0.6891535520553589,-1.7843964099884033,0.21078884601593018,2.576991558074951,4.4063049989887695,-0.0,0.3150050938129425,-1.5837858358966272,0.0001517005730420351,0.0015108983498066664,0.8533915281295776,0.0,0.05185287818312645,0.8113799691200256,-7.580211240565404e-05,0.058971501886844635
8190.0,519.0,1.3789,-0.2447,9.8285,-0.0418,-0.1113,-0.1165,-1.2793566447547455,-0.24162209033966064,0.6371472477912903,-1.7831507921218872,0.21750253438949585,2.535393714904785,4.406289263362549,-0.0,0.3106907904148102,-1.583766285573141,0.00014156421821098775,0.00569150922819972,0.8533671498298645,0.0,0.04779504984617233,0.8114161491394043,-5.347707337932661e-05,-0.0312710665166378
8190.0,519.0,1.3789,-0.2447,9.8285,-0.0418,-0.1113,-0.1165,-1.2813281279853364,-0.2511415481567383,0.6702678203582764,-1.7812947034835815,0.2306338995695114,2.594503402709961,4.406280680293701,-0.0,0.31065818667411804,-1.5837538878070276,0.00012988914386369288,0.005271567031741142,0.8534194231033325,0.0,0.035056859254837036,0.8113679885864258,-6.0417882195906714e-05,0.034148119390010834
8190.0,519.0,1.3789,-0.2447,9.8285,-0.0418,-0.1113,-0.1165,-1.2828799051097413,-0.24449391663074493,0.731725811958313,-1.7799030542373657,0.23272705078125,2.616741180419922,4.406229181880615,-0.0,0.3100319802761078,-1.5837581793414515,0.00013750724610872567,-0.007531811483204365,0.8533351421356201,0.0,0.03920968249440193,0.8114202618598938,-2.3673588657402433e-05,0.06009344011545181
8190.0,519.0,1.3789,-0.2447,9.8285,-0.0418,-0.1113,-0.1165,-1.2843472224524994,-0.23999328911304474,0.6564574241638184,-1.7784500122070312,0.22956141829490662,2.6129603385925293,4.406284971828125,-0.0,0.31181442737579346,-1.5838106314288538,0.0001321020390605554,0.008387682028114796,0.8533714413642883,0.0,0.036155425012111664,0.8113722205162048,-1.7443750039092265e-05,0.03913464769721031
8190.0,519.0,1.3789,-0.2447,9.8285,-0.0418,-0.1113,-0.1165,-1.2862743598273774,-0.2499699592590332,0.674480140209198,-1.7765549421310425,0.2430143505334854,2.6352152824401855,4.4062768655964355,-0.0,0.3065124452114105,-1.5837376753436487,0.0001415596780134365,0.0084286630153656,0.8532742261886597,0.0,0.043072983622550964,0.8113881945610046,-3.5340569359831875e-10,-0.0035303914919495583
8190.0,755.0,1.6295,0.0568,9.9679,-0.0226,-0.0278,-0.1071,-1.2877455812743683,-0.2553976774215698,0.7007753252983093,-1.7751208543777466,0.24849209189414978,2.61538028717041,4.4062086778828125,-0.0,0.2916770577430725,-1.5837581793414515,0.00015524339687544852,0.016576701775193214,0.8532704710960388,0.0,0.0361320823431015,0.811404287815094,-8.53433181143313e-16,0.011250926181674004
8190.0,755.0,1.6295,0.0568,9.9679,-0.0226,-0.0278,-0.1071,-1.2897208792022248,-0.24583733081817627,0.682037889957428,-1.7730718851089478,0.24679958820343018,2.5739855766296387,4.406237288112305,-0.0,0.3042618930339813,-1.5837581793414515,0.00018527098291087896,0.013080501928925514,0.8533630967140198,0.0,0.03499296307563782,0.811428427696228,-2.7650149018735465e-23,0.07362711429595947
8190.0,755.0,1.6295,0.0568,9.9679,-0.0226,-0.0278,-0.1071,-1.2912774246982117,-0.24775779247283936,0.6371071338653564,-1.7715766429901123,0.2519930899143219,2.5860066413879395,4.406288786525391,-0.0,0.30191704630851746,-1.5837457815753382,0.00040364995948038995,0.015216357074677944,0.8533351421356201,0.0,0.043145909905433655,0.8114202618598938,-6.677187681981502e-29,0.015188544988632202
8190.0,755.0,1.6295,0.0568,9.9679,-0.0226,-0.0278,-0.1071,-1.2927240592292328,-0.2518443167209625,0.6184706091880798,-1.7700285911560059,0.26628243923187256,2.721550941467285,4.406293078059814,-0.0,0.3032911717891693,-1.583761994038717,0.00045850270544178784,0.007271802518516779,0.8533754348754883,0.0,0.032438065856695175,0.8113757967948914,-1.6124624500157652e-34,-0.016639336943626404
8190.0,755.0,1.6295,0.0568,9.9679,-0.0226,-0.0278,-0.1071,-1.294719861154892,-0.2493419051170349,0.7013437747955322,-1.7679651975631714,0.2684965133666992,2.620720386505127,4.406229181880615,-0.0,0.29577377438545227,-1.583738152180807,0.000726166763342917,0.0074863554909825325,0.8533024787902832,0.0,0.04273930564522743,0.811404287815094,-5.224040675002918e-42,-0.010698221623897552
8190.0,755.0,1.6295,0.0568,9.9679,-0.0226,-0.0278,-0.1071,-1.2961627405932923,-0.2504844665527344,0.6693326830863953,-1.7663986682891846,0.27183592319488525,2.6542961597442627,4.406224890346191,-0.0,0.29590362310409546,-1.5837419668780726,0.0005856206407770514,0.022166121751070023,0.853306770324707,0.0,0.03307591378688812,0.811404287815094,-0.0,0.06355199217796326
8190.0,755.0,1.6295,0.0568,9.9679,-0.0226,-0.0278,-0.1071,-1.2982108455947419,-0.25962498784065247,0.642688512802124,-1.76409912109375,0.2756377160549164,2.568998098373413,4.4062487322041015,-0.0004268905322533101,0.28947579860687256,-1.5837257544146937,0.00044161081314086914,0.019170153886079788,0.853294849395752,0.0,0.021486040204763412,0.8114243745803833,0.0,0.05819470435380936
8190.0,755.0,1.6295,0.0568,9.9679,-0.0226,-0.0278,-0.1071,-1.299770550136902,-0.26462113857269287,0.654418408870697,-1.762434959411621,0.28231900930404663,2.61207914352417,4.406216784114502,-0.000267519528279081,0.2760215699672699,-1.5836857000934046,0.00040929720853455365,0.018478138372302055,0.8532587885856628,0.0,0.022211754694581032,0.8114324808120728,0.0,0.03514552116394043
8190.0,755.0,1.6295,0.0568,9.9679,-0.0226,-0.0278,-0.1071,-1.301313893204071,-0.2637109160423279,0.6402508020401001,-1.7608203887939453,0.2908599078655243,2.570578098297119,4.406293078059814,-0.00016466705710627139,0.27797508239746094,-1.5836814085589808,0.0004370499518699944,0.024638421833515167,0.8533143997192383,0.0,0.03461668640375137,0.8113961219787598,0.0,0.019906215369701385
8190.0,755.0,1.6295,0.0568,9.9679,-0.0226,-0.0278,-0.1071,-1.3033811014941712,-0.2589152753353119,0.6655682325363159,-1.7584654092788696,0.2911463677883148,2.5991458892822266,4.406253023738525,-0.0007505806279368699,0.2791888117790222,-1.5837424437152308,0.00045426670112647116,0.03406684100627899,0.8533143997192383,0.0,0.029163328930735588,0.8113757371902466,-0.0001509040012024343,-0.013125543482601643
8190.0,755.0,1.6295,0.0568,9.9679,-0.0226,-0.0278,-0.1071,-1.3049526375583191,-0.25904035568237305,0.6444114446640015,-1.7567143440246582,0.2991184890270233,2.574732780456543,4.4062487322041015,-0.00042905856389552355,0.2713567912578583,-1.5836694876300257,0.000480541872093454,0.04114775359630585,0.8533024787902832,0.0,0.032533369958400726,0.8113840222358704,-0.00013748323544859886,0.009280746802687645
8190.0,755.0,1.6295,0.0568,9.9679,-0.0226,-0.0278,-0.1071,-1.3065919143012543,-0.26507753133773804,0.6616976261138916,-1.754879117012024,0.3137081265449524,2.658328056335449,4.4062487322041015,-0.00014497237862087786,0.2776317000389099,-1.5837262312518519,0.0005936422967351973,0.03644236549735069,0.8533516526222229,0.0,0.0227622352540493,0.8113721013069153,-0.00015078009164426476,0.0032380763441324234
8190.0,755.0,1.6295,0.0568,9.9679,-0.0226,-0.0278,-0.1071,-1.3088033360293885,-0.26500216126441956,0.6600745916366577,-1.7523819208145142,0.3086129426956177,2.5685131549835205,4.406224890346191,-0.00033014037762768567,0.25864553451538086,-1.5836895147906702,0.0005581192090176046,0.03278941661119461,0.8532907366752625,0.0,0.021023720502853394,0.8113886117935181,-0.0003258998622186482,0.0016188304871320724
885.0,616.0,1.7282,-0.1155,10.2018,-0.0279,0.0223,-0.1196,-1.3105117839625855,-0.26898685097694397,0.6750906705856323,-1.7504422664642334,0.30977869033813477,2.604508399963379,4.406181021327637,-0.0006816964014433324,0.2669810950756073,-1.5837019125567835,0.0005103391595184803,0.035377420485019684,0.8533351421356201,6.517562489705142e-09,0.031061921268701553,0.8113762140274048,-0.00038230849895626307,-0.035472724586725235
885.0,616.0,1.7282,-0.1155,10.2018,-0.0279,0.0223,-0.1196,-1.31273107350383,-0.2819887697696686,0.6454512476921082,-1.7479205131530762,0.3156096339225769,2.6011576652526855,4.406277342433594,-0.0004528732970356941,0.25969046354293823,-1.5837062040912073,0.000543788424693048,0.037541814148426056,0.8533475995063782,1.1845349191536708e-13,0.018279410898685455,0.8113642334938049,-0.0003305188147351146,0.013204251416027546
885.0,616.0,1.7282,-0.1155,10.2018,-0.0279,0.0223,-0.1196,-1.3143497568419953,-0.27539801597595215,0.6969245672225952,-1.7459542751312256,0.31897538900375366,2.6186344623565674,4.406196756953857,-0.00036177909350953996,0.2637423872947693,-1.583681885396139,0.0006433679373003542,0.039091914892196655,0.8532829284667969,3.297196515556797e-17,0.025506196543574333,0.8113963603973389,-0.00034067558590322733,-0.04299253970384598
885.0,616.0,1.7282,-0.1155,10.2018,-0.0279,0.0223,-0.1196,-1.3160011035254975,-0.2708532214164734,0.6544256210327148,-1.744001865386963,0.3212999701499939,2.6002371311187744,4.406209154719971,-0.00034464173950254917,0.2736530303955078,-1.5836737791644495,0.0007480151834897697,0.04136471450328827,0.8533067107200623,9.177870203276313e-21,0.017862660810351372,0.8113521337509155,-0.0004787217185366899,-0.05894622951745987
885.0,616.0,1.7282,-0.1155,10.2018,-0.0279,0.0223,-0.1196,-1.3182410162738343,-0.2816796898841858,0.6395875215530396,-1.7414578199386597,0.3166569173336029,2.613987445831299,4.406212969417236,-0.00037088795215822756,0.26286613941192627,-1.5837186018573206,0.0007964982069097459,0.046326883137226105,0.8532748222351074,1.6680324557644717e-25,0.015227215364575386,0.8113721013069153,-0.0005781473591923714,-0.08376692980527878
885.0,616.0,1.7282,-0.1155,10.2018,-0.0279,0.0223,-0.1196,-1.3199528020671387,-0.28032395243644714,0.6923965811729431,-1.7395309209823608,0.32226425409317017,2.6223835945129395,4.40619341909375,-0.00031597321503795683,0.260998010635376,-1.5836699644671839,0.0009576029260642827,0.04057885333895683,0.8533351421356201,4.643030405295979e-29,0.012410258874297142,0.8113803267478943,-0.00036814241320826113,-0.001741789747029543
885.0,616.0,1.7282,-0.1155,10.2018,-0.0279,0.0223,-0.1196,-1.3220954698375245,-0.2828022837638855,0.5997582674026489,-1.736965298652649,0.3254193961620331,2.599456310272217,4.406184836024902,-0.00029094761703163385,0.2578345239162445,-1.5836499373065394,0.0020451333839446306,0.043352749198675156,0.8532788157463074,8.438479970274684e-34,0.011232741177082062,0.8113521337509155,-9.51396141317673e-05,-0.04370094835758209
885.0,616.0,1.7282,-0.1155,10.2018,-0.0279,0.0223,-0.1196,-1.3237910729697724,-0.2869708836078644,0.6542624831199646,-1.7350378036499023,0.3240900933742523,2.58115816116333,4.406189127559326,-0.0005437019863165915,0.2586250603199005,-1.583625618611471,0.003948719706386328,0.06267610192298889,0.853379487991333,2.3488818213774934e-37,0.016948867589235306,0.8113682866096497,-0.00014440479571931064,-0.06349941343069077
885.0,616.0,1.7282,-0.1155,10.2018,-0.0279,0.0223,-0.1196,-1.3255309176496048,-0.28394773602485657,0.6576359272003174,-1.7330377101898193,0.3211789131164551,2.60302734375,4.406184836024902,-0.0014256044523790479,0.25582578778266907,-1.5835936705218714,0.008148453198373318,0.04885292053222656,0.8532782793045044,6.538178374846731e-41,0.004054192919284105,0.811348021030426,-0.00017458551155868918,-0.026586268097162247
885.0,616.0,1.7282,-0.1155,10.2018,-0.0279,0.0223,-0.1196,-1.3277934354594727,-0.2870798110961914,0.6688668727874756,-1.7304577827453613,0.32495811581611633,2.559040069580078,4.406205816859863,-0.0008136680698953569,0.23260730504989624,-1.5835378805743616,0.010809367522597313,0.052624739706516266,0.8532384634017944,1.401298464324817e-45,0.020402243360877037,0.8113762140274048,-0.00013870513066649437,-0.12423760443925858
885.0,616.0,1.7282,-0.1155,10.2018,-0.0279,0.0223,-0.1196,-1.3294606369784852,-0.293721079826355,0.664513111114502,-1.7285311222076416,0.3290010094642639,2.5868172645568848,4.406156702632568,-0.0007361607276834548,0.25913864374160767,-1.5834615866290491,0.008972485549747944,0.06339879333972931,0.8532865047454834,0.0,0.022020554170012474,0.811348021030426,-0.00012018155393889174,-0.09060966223478317
885.0,616.0,1.7282,-0.1155,10.2018,-0.0279,0.0223,-0.1196,-1.3312082302621384,-0.29977425932884216,0.6048396229743958,-1.7266770601272583,0.32209938764572144,2.5037121772766113,4.406080408687256,-0.0026821736246347427,0.24956731498241425,-1.5834420363055628,0.005927796009927988,0.05398954823613167,0.8533267974853516,0.0,0.009942349046468735,0.8113682866096497,-0.00010602283873595297,-0.06665860116481781
885.0,616.0,1.7282,-0.1155,10.2018,-0.0279,0.0223,-0.1196,-1.3335949939540406,-0.3037306070327759,0.6406786441802979,-1.724127173423767,0.32522785663604736,2.538203001022339,4.406128569240234,-0.005544784013181925,0.23188331723213196,-1.5834582487689417,0.0020412022713571787,0.054604820907115936,0.853338897228241,0.0,0.025555361062288284,0.8113682866096497,-0.0001221928105223924,-0.1037842407822609
8190.0,8190.0,1.1689,-0.1322,8.9234,-0.036,0.0603,-0.115,-1.3353951287320633,-0.3033883273601532,0.6484081149101257,-1.7221237421035767,0.3214530944824219,2.5177316665649414,4.406036539668701,-0.010795182548463345,0.23444600403308868,-1.5834224859820765,0.001182709471322596,0.06312592327594757,0.8532984256744385,0.0,0.017756156623363495,0.8113359808921814,-0.0002146154729416594,-0.10340027511119843
8190.0,8190.0,1.1689,-0.1322,8.9234,-0.036,0.0603,-0.115,-1.3379469078830262,-0.30905333161354065,0.5784515738487244,-1.7195310592651367,0.3197921812534332,2.508098602294922,4.406033201808594,-0.009426583535969257,0.22976791858673096,-1.5834057966815394,0.0005227042711339891,0.07387946546077728,0.8533594608306885,0.0,0.019730521366000175,0.8113644123077393,-0.00021730804292019457,-0.13311836123466492
8190.0,8190.0,1.1689,-0.1322,8.9234,-0.036,0.0603,-0.115,-1.3398114305785676,-0.3082021474838257,0.6447859406471252,-1.717626929283142,0.3204495310783386,2.492495059967041,4.405952616328857,-0.004694811999797821,0.22778505086898804,-1.5834100882159632,0.0004543071845546365,0.07346441596746445,0.8533310294151306,0.0,0.02196335606276989,0.8113321661949158,-0.0002250621619168669,-0.1354587972164154
8190.0,8190.0,1.1689,-0.1322,8.9234,-0.036,0.0603,-0.115,-1.3417167526534577,-0.309352308511734,0.6106469035148621,-1.7156625986099243,0.31537020206451416,2.511488437652588,4.406026049251221,-0.001739325001835823,0.2171975076198578,-1.583398167287008,0.0004225728043820709,0.05279266834259033,0.8533108234405518,0.0,0.011878443881869316,0.8113682866096497,-0.00034947789390571415,-0.1486573964357376
8190.0,8190.0,1.1689,-0.1322,8.9234,-0.036,0.0603,-0.115,-1.3443103593638916,-0.3255593776702881,0.5643731951713562,-1.7131507396697998,0.3148350715637207,2.4972691535949707,4.4059411722370605,-0.0006918248254805803,0.24835386872291565,-1.583430592213766,0.0004698153934441507,0.06001618877053261,0.8533351421356201,0.0,0.023470193147659302,0.811356246471405,-0.0002666388463694602,-0.10785170644521713
8190.0,8190.0,1.1689,-0.1322,8.9234,-0.036,0.0603,-0.115,-1.3462672990611573,-0.3229721486568451,0.6573056578636169,-1.7113149166107178,0.30779919028282166,2.4711647033691406,4.405932589168213,-0.0006629181443713605,0.2238442599773407,-1.5834139029132288,0.0005106555763632059,0.07060270011425018,0.8533554077148438,0.0,0.019627198576927185,0.8113765716552734,-0.00027159301680512726,-0.1403627246618271
8190.0,8190.0,1.1689,-0.1322,8.9234,-0.036,0.0603,-0.115,-1.3488817822984238,-0.3339274227619171,0.6243391036987305,-1.7088829278945923,0.30453982949256897,2.4685893058776855,4.405960722560547,-0.0005110792117193341,0.21132981777191162,-1.583430592213766,0.0008149814093485475,0.06420175731182098,0.8533434867858887,0.0,0.006942658219486475,0.8113682866096497,-0.00030151792452670634,-0.14685478806495667
8190.0,8190.0,1.1689,-0.1322,8.9234,-0.036,0.0603,-0.115,-1.3509068352035065,-0.33427926898002625,0.6052231788635254,-1.7070709466934204,0.30053794384002686,2.4330506324768066,4.4059082704731445,-0.0003335257642902434,0.21370229125022888,-1.5833576361285608,0.0009442914742976427,0.06660948693752289,0.8533103466033936,0.0,0.011327252723276615,0.811348021030426,-0.0002678803284652531,-0.14322543144226074
8190.0,8190.0,1.1689,-0.1322,8.9234,-0.036,0.0603,-0.115,-1.3528720897487183,-0.33196333050727844,0.5794118046760559,-1.7053033113479614,0.2991710603237152,2.4378795623779297,4.405936880702637,-0.0003337358357384801,0.21175608038902283,-1.583369557057516,0.0008886850555427372,0.06467778980731964,0.8533475995063782,0.0,0.015500606037676334,0.8113479614257812,-0.00027933012461289763,-0.10581804811954498
8190.0,8190.0,1.1689,-0.1322,8.9234,-0.036,0.0603,-0.115,-1.3555700194886704,-0.336860328912735,0.5979056358337402,-1.7029632329940796,0.2974035143852234,2.456373691558838,4.405908747310303,-0.001593488035723567,0.20346540212631226,-1.5833776632892054,0.0007434355793520808,0.06689077615737915,0.8532989025115967,0.0,0.013002583757042885,0.8113442063331604,-0.0010401251493021846,-0.18351973593235016
8190.0,8190.0,1.1689,-0.1322,8.9234,-0.036,0.0603,-0.115,-1.3575473141721268,-0.33713993430137634,0.6251141428947449,-1.7011713981628418,0.28902989625930786,2.421286106109619,4.405932589168213,-0.0025298118125647306,0.19615033268928528,-1.5833538214312952,0.0005993578815832734,0.0653296634554863,0.8533709049224854,0.0,0.016584821045398712,0.8113524317741394,-0.0010721755679696798,-0.17270931601524353
8190.0,8190.0,1.1689,-0.1322,8.9234,-0.036,0.0603,-0.115,-1.3595522505095978,-0.34325098991394043,0.6148621439933777,-1.699471116065979,0.28960931301116943,2.40980863571167,4.405904932613037,-0.0013937667245045304,0.21497146785259247,-1.583358112965719,0.0005989624769426882,0.0806734710931778,0.8532947897911072,0.0,0.014507805928587914,0.8113202452659607,-0.000924252497497946,-0.1669425070285797
8190.0,8190.0,1.1689,-0.1322,8.9234,-0.036,0.0603,-0.115,-1.362326369886734,-0.3514353632926941,0.609334409236908,-1.6972233057022095,0.28588417172431946,2.397843360900879,4.405904932613037,-0.0023405528627336025,0.20782363414764404,-1.583386246358053,0.0006403354927897453,0.0677075982093811,0.8533309102058411,0.0,0.00710644107311964,0.811307966709137,-0.0007528383866883814,-0.2358781397342682
8190.0,729.0,0.9703,-0.1525,8.6363,-0.0504,-0.0082,-0.1155,-1.3644080025008698,-0.35736724734306335,0.6243049502372742,-1.6954790353775024,0.27609771490097046,2.3942995071411133,4.4058567720600585,-0.004013824742287397,0.2092580795288086,-1.5833624045001429,0.0006139950710348785,0.078983835875988,0.8533268570899963,0.0,0.008316014893352985,0.811324417591095,-0.0007568133296445012,-0.13657432794570923
8190.0,729.0,0.9703,-0.1525,8.6363,-0.0504,-0.0082,-0.1155,-1.3672380310348053,-0.3562428951263428,0.5827824473381042,-1.693291425704956,0.27927345037460327,2.4219470024108887,4.405824823970459,-0.0024245406966656446,0.1954253613948822,-1.5833261648761194,0.0006613701116293669,0.08945924043655396,0.8533185124397278,0.0,0.008182532154023647,0.8113040924072266,-0.0032757611479610205,-0.16616201400756836
8190.0,729.0,0.9703,-0.1525,8.6363,-0.0504,-0.0082,-0.1155,-1.3694401395371933,-0.36002686619758606,0.5985363721847534,-1.6916109323501587,0.2790672481060028,2.39992618560791,4.405812426204346,-0.0015009864000603557,0.20732319355010986,-1.583341423665182,0.000733102613594383,0.07898849993944168,0.8533108234405518,0.0,0.01973150297999382,0.8112717270851135,-0.005380209069699049,-0.16561846435070038
8190.0,729.0,0.9703,-0.1525,8.6363,-0.0504,-0.0082,-0.1155,-1.3716730040362854,-0.35780149698257446,0.5861629843711853,-1.6899629831314087,0.2708565592765808,2.387854814529419,4.405829115504883,-0.0008570888894610107,0.20917871594429016,-1.5833700338946741,0.0006252932362258434,0.0858759731054306,0.8533475995063782,0.0,0.017014455050230026,0.8112601637840271,-0.006313842721283436,-0.15798160433769226
8190.0,729.0,0.9703,-0.1525,8.6363,-0.0504,-0.0082,-0.1155,-1.3746547859958191,-0.3697454333305359,0.5273000001907349,-1.6877834796905518,0.26821771264076233,2.4153103828430176,4.405869169826172,-0.0005316667375154793,0.20925340056419373,-1.5833943525897425,0.0004976199707016349,0.06869783997535706,0.8533434867858887,0.0,0.00908302329480648,0.811183750629425,-0.004476787988096476,-0.17011511325836182
8190.0,729.0,0.9703,-0.1525,8.6363,-0.0504,-0.0082,-0.1155,-1.3769845378449936,-0.37295010685920715,0.6525890231132507,-1.686194896697998,0.26474758982658386,2.3891637325286865,4.405837221736572,-0.00041033385787159204,0.20998439192771912,-1.5833342711078089,0.00040311957127414644,0.08685818314552307,0.8533108234405518,0.0,0.010004786774516106,0.8112002611160278,-0.0025163316167891026,-0.17445990443229675
8190.0,729.0,0.9703,-0.1525,8.6363,-0.0504,-0.0082,-0.1155,-1.380003185277321,-0.3828662931919098,0.5744073390960693,-1.6840753555297852,0.2552599608898163,2.343932867050171,4.405909700984619,-0.00036707951221615076,0.21690626442432404,-1.5833261648761194,0.000366786407539621,0.07549062371253967,0.8533024787902832,0.0,0.0015364459250122309,0.8111920356750488,-0.001169840106740594,-0.20816858112812042
8190.0,729.0,0.9703,-0.1525,8.6363,-0.0504,-0.0082,-0.1155,-1.3822601002505799,-0.3870362341403961,0.6388639211654663,-1.682502031326294,0.2528601288795471,2.366702079772949,4.405864878291748,-0.0003124451613985002,0.21076756715774536,-1.5833781401263636,0.0003181515203323215,0.07520504295825958,0.8533108234405518,0.0,-0.004585417918860912,0.8111720085144043,-0.0001410044642398134,-0.16063058376312256
8190.0,729.0,0.9703,-0.1525,8.6363,-0.0504,-0.0082,-0.1155,-1.3845736694386979,-0.3881703019142151,0.6317139863967896,-1.680983304977417,0.24669024348258972,2.365647315979004,4.405821009273193,-0.0002951255301013589,0.21668297052383423,-1.5833900610553187,0.00022123368398752064,0.07507316768169403,0.8533517122268677,0.0,0.008733865804970264,0.8111921548843384,-0.000251272227615118,-0.18508635461330414
8190.0,729.0,0.9703,-0.1525,8.6363,-0.0504,-0.0082,-0.1155,-1.387696073656418,-0.3854760229587555,0.6542779207229614,-1.6790152788162231,0.24458569288253784,2.395078659057617,4.405833407039307,-0.000827452982775867,0.20983783900737762,-1.5833824316607874,0.0002028600574703887,0.0712357833981514,0.8532788157463074,0.0,0.01558210700750351,0.8112043142318726,-0.00026689289370551705,-0.2037842571735382
8190.0,729.0,0.9703,-0.1525,8.6363,-0.0504,-0.0082,-0.1155,-1.389892817740776,-0.38006681203842163,0.6425951719284058,-1.6775507926940918,0.24279502034187317,2.37838077545166,4.405845327968262,-0.00021839130204170942,0.21768498420715332,-1.5833538214312952,0.000197406712686643,0.07708770036697388,0.853347659111023,0.0,-0.0028603016398847103,0.8112084269523621,-0.0001401000190526247,-0.1833597719669342
8190.0,729.0,0.9703,-0.1525,8.6363,-0.0504,-0.0082,-0.1155,-1.3921504479697724,-0.37993156909942627,0.6618990898132324,-1.6761271953582764,0.23958995938301086,2.333275318145752,4.405861063594482,-0.00012098190927645192,0.21179036796092987,-1.5833457151996058,0.00017789847333915532,0.07399769872426987,0.853306770324707,0.0,0.008852292783558369,0.8111637830734253,-0.00011592308874242008,-0.1586630791425705
8190.0,729.0,0.9703,-0.1525,8.6363,-0.0504,-0.0082,-0.1155,-1.3951888096383591,-0.3844977021217346,0.6689988374710083,-1.6742316484451294,0.23712106049060822,2.377103090286255,4.40580861150708,-0.00011661736061796546,0.21040990948677063,-1.5833624045001429,0.00015718342910986394,0.07741047441959381,0.8532989025115967,0.0,-0.0007347953505814075,0.8111517429351807,-4.535092011792585e-05,-0.11956672370433807
8190.0,729.0,0.9703,-0.1525,8.6363,-0.0504,-0.0082,-0.1155,-1.3974419993213196,-0.3865843415260315,0.7331763505935669,-1.672853946685791,0.23312488198280334,2.366564989089966,4.405792875880859,-0.00037029481609351933,0.2146189957857132,-1.5833175818072718,0.00016703541041351855,0.09190874546766281,0.8533349633216858,0.0,-0.0015135835856199265,0.8111720085144043,-6.979735917411745e-05,-0.1851799190044403
916.0,738.0,0.7842,-0.1854,9.4337,-0.0499,-0.1384,-0.1077,-1.400584341292717,-0.3901871144771576,0.6932178735733032,-1.6709836721420288,0.2304997444152832,2.3127546310424805,4.405845327968262,-0.00042582739843055606,0.20669730007648468,-1.5833500067340296,0.00015233833983074874,0.08964802324771881,0.8532910943031311,0.0,-0.003570175264030695,0.8111801743507385,-0.00021339640079531819,-0.224030539393425
916.0,738.0,0.7842,-0.1854,9.4337,-0.0499,-0.1384,-0.1077,-1.4029119324735184,-0.3813426196575165,0.7506061792373657,-1.6695711612701416,0.2325238585472107,2.3005313873291016,4.405829115504883,-0.0003540678881108761,0.21720397472381592,-1.5833342711078089,0.00015708110004197806,0.0772450640797615,0.8533309102058411,0.0,-0.005947594065219164,0.8111640214920044,-0.0015236816834658384,-0.14209848642349243
916.0,738.0,0.7842,-0.1854,9.4337,-0.0499,-0.1384,-0.1077,-1.4052804571441193,-0.38057199120521545,0.7337446212768555,-1.6681556701660156,0.24166806042194366,2.3772385120391846,4.40580861150708,-0.00030293158488348126,0.22646601498126984,-1.5833538214312952,0.00015204005467239767,0.0811137706041336,0.8532587289810181,0.0,-0.004477167967706919,0.8111681938171387,-0.0017606178298592567,-0.16086609661579132
916.0,738.0,0.7842,-0.1854,9.4337,-0.0499,-0.1384,-0.1077,-1.4084527653506775,-0.37703737616539,0.7691503167152405,-1.6661813259124756,0.24127696454524994,2.4560861587524414,4.405829115504883,-0.00029037933563813567,0.22491255402565002,-1.583329979573385,0.00013570058217737824,0.08837811648845673,0.8533024787902832,0.0,-0.009670616127550602,0.8111078143119812,-0.0013989165890961885,-0.16160054504871368
916.0,738.0,0.7842,-0.1854,9.4337,-0.0499,-0.1384,-0.1077,-1.4107641291669388,-0.38956859707832336,0.7832835912704468,-1.6647741794586182,0.23705700039863586,2.3589324951171875,4.405821009273193,-0.0002590423682704568,0.21500933170318604,-1.5833385626422327,0.00014930103498045355,0.0719161182641983,0.8532869815826416,0.0,-0.003928115591406822,0.8111763596534729,-0.0009145750664174557,-0.21231770515441895
916.0,738.0,0.7842,-0.1854,9.4337,-0.0499,-0.1384,-0.1077,-1.4139171552709122,-0.40067654848098755,0.7875761985778809,-1.6629807949066162,0.23904211819171906,2.4172892570495605,4.405821009273193,-0.00021406405721791089,0.21246309578418732,-1.58331805864443,0.00017888579168356955,0.07619915902614594,0.8533111810684204,-2.2874859496369027e-05,-0.0012959034647792578,0.8111278414726257,-0.0005450222524814308,-0.15945331752300262
916.0,738.0,0.7842,-0.1854,9.4337,-0.0499,-0.1384,-0.1077,-1.4162329894355317,-0.4076477289199829,0.769132673740387,-1.6615062952041626,0.2412710338830948,2.405508279800415,4.405797167415283,-0.00028948404360562563,0.19822843372821808,-1.5833056608783167,0.0003909180231858045,0.08622472733259201,0.8532668948173523,-7.785283378325403e-05,-0.004817154724150896,0.8111320734024048,-0.0005548171466216445,-0.18793520331382751
916.0,738.0,0.7842,-0.1854,9.4337,-0.0499,-0.1384,-0.1077,-1.4186175626567383,-0.4059090316295624,0.7914134860038757,-1.6601026058197021,0.23351691663265228,2.3565011024475098,4.405785246486328,-0.0031364313326776028,0.20260408520698547,-1.5832937399493616,0.0007228882168419659,0.09799377620220184,0.8533070683479309,-8.879846427589655e-05,0.013378280214965343,0.8111361265182495,-0.0018379671964794397,-0.2154138833284378
916.0,738.0,0.7842,-0.1854,9.4337,-0.0499,-0.1384,-0.1077,-1.4218129080585022,-0.3963570296764374,0.7526075839996338,-1.6581766605377197,0.23489224910736084,2.3559203147888184,4.405805273646973,-0.0006962153129279613,0.207099050283432,-1.583289925252096,0.0013651771005243063,0.09049160033464432,0.853234589099884,-8.334717131219804e-05,0.0002057036617770791,0.8111283779144287,-0.0037249226588755846,-0.21633753180503845
916.0,738.0,0.7842,-0.1854,9.4337,-0.0499,-0.1384,-0.1077,-1.4241249126246949,-0.3921571373939514,0.7922004461288452,-1.6567273139953613,0.2435486912727356,2.3748908042907715,4.405780478114746,-0.00048360784421674907,0.2074497938156128,-1.5832536856280726,0.0013346308842301369,0.0823318362236023,0.8533070683479309,-9.290547313867137e-05,-0.012119374237954617,0.8110193014144897,-0.0036303589586168528,-0.22428905963897705
916.0,738.0,0.7842,-0.1854,9.4337,-0.0499,-0.1384,-0.1077,-1.4273017209819336,-0.3945384919643402,0.8260486125946045,-1.6547915935516357,0.23599885404109955,2.449648141860962,4.405785246486328,-0.0002504200383555144,0.20016969740390778,-1.5833218733416956,0.0007859902689233422,0.07931256294250488,0.8532589673995972,-8.7756707216613e-05,-0.00604180246591568,0.8110154867172241,-0.0027842060662806034,-0.20717987418174744
916.0,738.0,0.7842,-0.1854,9.4337,-0.0499,-0.1384,-0.1077,-1.4296654176763077,-0.39562711119651794,0.8014465570449829,-1.65336012840271,0.22761373221874237,2.3616645336151123,4.4057203966328125,-0.0008874267805367708,0.20230430364608765,-1.5833142439471644,0.0006671068258583546,0.09867101162672043,0.8533111810684204,-9.62176636676304e-05,-0.006131825037300587,0.811039924621582,-0.001917667337693274,-0.20467349886894226
916.0,738.0,0.7842,-0.1854,9.4337,-0.0499,-0.1384,-0.1077,-1.4321138870767136,-0.39992043375968933,0.8188155889511108,-1.6519333124160767,0.23086625337600708,2.4131627082824707,4.405869169826172,-0.0004380084865260869,0.19530515372753143,-1.583278004323141,0.0006150619010441005,0.09721516072750092,0.8532869815826416,-9.255763870896772e-05,0.0076776230707764626,0.8110237121582031,-0.0012278897920623422,-0.17959725856781006
941.0,642.0,2.2684,-0.1896,9.6275,-0.0417,-0.1939,-0.1158,-1.4353013646653672,-0.3920338451862335,0.8446042537689209,-1.6500535011291504,0.23634305596351624,2.3633015155792236,4.405800982112549,-0.00010615148494252935,0.19348207116127014,-1.5832660833941858,0.0006210712599568069,0.08875764906406403,0.8532750606536865,-8.803101081866771e-05,0.004220093600451946,0.8110159635543823,-0.0022410477977246046,-0.2150009274482727
941.0,642.0,2.2684,-0.1896,9.6275,-0.0417,-0.1939,-0.1158,-1.4377346348813553,-0.3888663351535797,0.83195960521698,-1.6486049890518188,0.23103207349777222,2.3678431510925293,4.405805273646973,-0.00020926875004079193,0.19833125174045563,-1.583306137715475,0.0007756677223369479,0.09575223922729492,0.8532389402389526,-0.00015005825844127685,-0.004304459318518639,0.8110079169273376,-0.0039041137788444757,-0.1804104447364807
941.0,642.0,2.2684,-0.1896,9.6275,-0.0417,-0.1939,-0.1158,-1.4401102823070069,-0.3778926730155945,0.9108081459999084,-1.6472084522247314,0.23161324858665466,2.368744373321533,4.405800982112549,-0.00024441161076538265,0.21382412314414978,-1.583245579396383,0.0008429602603428066,0.08490733802318573,0.8532710075378418,-0.00013692068750970066,0.003133488353341818,0.8109638094902039,-0.0038970024324953556,-0.2628070116043091
941.0,642.0,2.2684,-0.1896,9.6275,-0.0417,-0.1939,-0.1158,-1.4431655269912262,-0.3899141550064087,0.8984489440917969,-1.6453866958618164,0.23357243835926056,2.3754665851593018,4.405792875880859,-0.00019814212282653898,0.18683964014053345,-1.5832417646991175,0.0011606034822762012,0.09754855930805206,0.853267252445221,-0.00013405179197434336,0.0017492352053523064,0.8109638094902039,-0.002737435046583414,-0.24156031012535095
941.0,642.0,2.2684,-0.1896,9.6275,-0.0417,-0.1939,-0.1158,-1.445586697464325,-0.39314961433410645,0.8689619302749634,-1.6439462900161743,0.22864603996276855,2.3438639640808105,4.405749006862305,-0.00028071264387108386,0.19781821966171265,-1.5832017103778284,0.0015879125567153096,0.09918957203626633,0.8532753586769104,-0.0001354491978418082,0.0001734213437885046,0.810931384563446,-0.0018495444674044847,-0.22267641127109528
941.0,642.0,2.2684,-0.1896,9.6275,-0.0417,-0.1939,-0.1158,-1.4486467626741906,-0.40406534075737,0.8746996521949768,-1.6422059535980225,0.22096604108810425,2.3874263763427734,4.405664606685303,-0.007085025310516357,0.1971060037612915,-1.5832379500018519,0.0028348665218800306,0.10425466299057007,0.8532471656799316,-0.00012310074816923589,-0.008541141636669636,0.810935914516449,-0.0016851406544446945,-0.24088090658187866
941.0,642.0,2.2684,-0.1896,9.6275,-0.0417,-0.1939,-0.1158,-1.450966441338398,-0.39626774191856384,0.8481194972991943,-1.6408882141113281,0.22231358289718628,2.324023962020874,4.405685110683105,-0.007801400497555733,0.19269898533821106,-1.5832064787494105,0.004570155870169401,0.11415483057498932,0.8532631397247314,-0.00011522057320689783,-0.006726534105837345,0.81088787317276,-0.0032207712065428495,-0.2720717787742615
941.0,642.0,2.2684,-0.1896,9.6275,-0.0417,-0.1939,-0.1158,-1.4532260310700913,-0.38978689908981323,0.9132785797119141,-1.639512538909912,0.22333373129367828,2.301454544067383,4.405713244075439,-0.0031820915173739195,0.19770687818527222,-1.583182160054342,0.00672169029712677,0.11114022135734558,0.8532754778862,-0.00012631600839085877,-0.005639014765620232,0.8108717203140259,-0.004570513032376766,-0.2888942360877991
941.0,642.0,2.2684,-0.1896,9.6275,-0.0417,-0.1939,-0.1158,-1.4562338155559083,-0.3811832070350647,0.9066707491874695,-1.637772798538208,0.22527772188186646,2.340932846069336,4.405644579524658,-0.0002795231412164867,0.18531681597232819,-1.5830982367144983,0.005066362209618092,0.11460733413696289,0.853246808052063,-0.00011695501598296687,-0.010983087122440338,0.8108035326004028,-0.004908866714686155,-0.28222668170928955
941.0,642.0,2.2684,-0.1896,9.6275,-0.0417,-0.1939,-0.1158,-1.458534189765789,-0.37923866510391235,0.8938696384429932,-1.6364632844924927,0.22525016963481903,2.315563201904297,4.405656977290771,-0.0011239169398322701,0.18836823105812073,-1.5830815474139612,0.0019954275339841843,0.10237523168325424,0.8532590270042419,-0.00011078482202719897,-0.007456114981323481,0.8108195066452026,-0.0041508604772388935,-0.3048563003540039
941.0,642.0,2.2684,-0.1896,9.6275,-0.0417,-0.1939,-0.1158,-1.4616437640837212,-0.38361838459968567,0.9442831873893738,-1.6346516609191895,0.21698534488677979,2.2757387161254883,4.405620737666748,-0.002657304285094142,0.19029158353805542,-1.5831220785724085,0.00044112696195952594,0.11554650962352753,0.8531991243362427,-0.00011828216520370916,0.011941434815526009,0.8108240962028503,-0.0022221961989998817,-0.21934005618095398
941.0,642.0,2.2684,-0.1896,9.6275,-0.0417,-0.1939,-0.1158,-1.4639908385327836,-0.3873569071292877,0.8702957630157471,-1.6333404779434204,0.21816499531269073,2.31660532951355,4.405624552364014,-0.0010664834408089519,0.18947100639343262,-1.583102051411764,0.0002971773501485586,0.11557218432426453,0.8532304763793945,-0.00011273418203927577,0.003808694425970316,0.8107714653015137,-0.0013519407948479056,-0.2876245677471161
941.0,642.0,2.2684,-0.1896,9.6275,-0.0417,-0.1939,-0.1158,-1.4662714910558243,-0.37888798117637634,0.9392472505569458,-1.6320440769195557,0.22215887904167175,2.3021538257598877,4.405596895808838,-0.0007130782469175756,0.17176863551139832,-1.583057705556051,0.0002963611332233995,0.11253851652145386,0.853271484375,-0.00010767633648356423,-0.0038411784917116165,0.8107714653015137,-0.0010931885335594416,-0.29063963890075684
893.0,556.0,2.5771,-0.3003,8.6441,-0.0533,-0.1565,-0.119,-1.469328799550869,-0.3735004961490631,0.9150161743164062,-1.6302841901779175,0.2268465757369995,2.3121213912963867,4.4056007105061035,-0.0006152993883006275,0.19101440906524658,-1.5830982367144983,0.0001411277917213738,0.1037571132183075,0.8531914353370667,-0.00010568052675807849,-0.00849834643304348,0.8107069134712219,-0.0027378899976611137,-0.27722054719924927
893.0,556.0,2.5771,-0.3003,8.6441,-0.0533,-0.1565,-0.119,-1.4716791746071358,-0.36570075154304504,0.976112961769104,-1.628964900970459,0.21894700825214386,2.3377628326416016,4.405633135432861,-0.0004825095529668033,0.17494483292102814,-1.5830863157855433,0.00011021401587640867,0.10753948241472244,0.853246808052063,-9.87480889307335e-05,-0.0005270738620311022,0.8107031583786011,-0.0034682604018598795,-0.28403788805007935
893.0,556.0,2.5771,-0.3003,8.6441,-0.0533,-0.1565,-0.119,-1.473936842089035,-0.3767422139644623,0.8994113802909851,-1.6275813579559326,0.21788308024406433,2.3025364875793457,4.405636950130127,-0.00039316999027505517,0.16724324226379395,-1.5830901304828089,0.00013922341167926788,0.11013075709342957,0.853271484375,-0.00010994442709488794,-0.00461048586294055,0.8107561469078064,-0.004242542199790478,-0.2872748374938965
893.0,556.0,2.5771,-0.3003,8.6441,-0.0533,-0.1565,-0.119,-1.4769582462361832,-0.3786400854587555,0.9189208745956421,-1.625845193862915,0.21411080658435822,2.308316707611084,4.405588789577148,-0.0004923198139294982,0.16873985528945923,-1.5830939451800745,0.00015164664364419878,0.11032052338123322,0.8532875180244446,-0.00010271875362377614,-0.006043711677193642,0.8106592297554016,-0.005536124110221863,-0.19548463821411133
893.0,556.0,2.5771,-0.3003,8.6441,-0.0533,-0.1565,-0.119,-1.4791558322361489,-0.3879336714744568,0.8991605639457703,-1.6246176958084106,0.20557822287082672,2.2817277908325195,4.405544920558594,-0.004092126619070768,0.18279051780700684,-1.5830658117877405,0.00016197163495235145,0.11185315251350403,0.8532593846321106,-0.00011124831507913768,-0.005816125310957432,0.8106515407562256,-0.005580416880548,-0.3002830743789673
893.0,556.0,2.5771,-0.3003,8.6441,-0.0533,-0.1565,-0.119,-1.4821453478983422,-0.3780941963195801,0.9505605101585388,-1.6229901313781738,0.19350384175777435,2.245105504989624,4.405593081111572,-0.0032390733249485493,0.16082580387592316,-1.5830901304828089,0.0003252419992350042,0.11007063090801239,0.8532074689865112,-0.00010575632768450305,-0.017226923257112503,0.8105795383453369,-0.006128071341663599,-0.253377228975296
