ramyac6/ROB537/final_project/csv/all/good_235.csv
tof_0,tof_1,accelx,accely,accelz,gyrox,gyroy,gyroz,shoulder_lift_joint_position,shoulder_lift_joint_velocity,shoulder_lift_joint_effort,elbow_joint_position,elbow_joint_velocity,elbow_joint_effort,wrist_1_joint_position,wrist_1_joint_velocity,wrist_1_joint_effort,wrist_2_joint_position,wrist_2_joint_velocity,wrist_2_joint_effort,wrist_3_joint_position,wrist_3_joint_velocity,wrist_3_joint_effort,shoulder_pan_joint_position,shoulder_pan_joint_velocity,shoulder_pan_joint_effort
144.0,168.0,-4.1988,-0.0281,8.8576,-0.0441,0.0299,-0.1162,-2.3307281933226527,0.0,5.005084991455078,-1.166956901550293,-0.0,1.9933604001998901,5.349981295853414,0.0,0.2241608202457428,-1.6762664953814905,0.0,-0.006980564445257187,0.3484421372413635,0.0,0.007345995865762234,1.1580114364624023,0.0,0.05493439361453056
144.0,168.0,-4.1988,-0.0281,8.8576,-0.0441,0.0299,-0.1162,-2.3307444057860316,0.0,4.9992265701293945,-1.1668884754180908,-0.0,2.030912399291992,5.350009608059683,0.0,0.21841052174568176,-1.6763060728656214,0.0,0.00869338121265173,0.348501980304718,0.0,-0.0004681998980231583,1.158051609992981,0.0,-0.009907606989145279
144.0,168.0,-4.1988,-0.0281,8.8576,-0.0441,0.0299,-0.1162,-2.330752512017721,0.0,5.039841175079346,-1.166884422302246,-0.0,1.9767811298370361,5.349985408573904,0.0,0.2258579283952713,-1.6763022581683558,0.0,-0.004542394541203976,0.3484141230583191,0.0,-0.002759635215625167,1.1580073833465576,0.0,0.011661168187856674
144.0,168.0,-4.1988,-0.0281,8.8576,-0.0441,0.0299,-0.1162,-2.330723901788229,0.0,5.007754325866699,-1.166844129562378,-0.0,2.0050058364868164,5.349985408573904,0.0,0.23120276629924774,-1.6763103644000452,0.0,0.0025278315879404545,0.3484502136707306,0.0,0.008366760797798634,1.1580314636230469,0.0,-0.0576634518802166
144.0,168.0,-4.1988,-0.0281,8.8576,-0.0441,0.0299,-0.1162,-2.3307486973204554,0.0,4.995799541473389,-1.1668200492858887,-0.0,2.0479931831359863,5.349953341275015,0.0,0.22811280190944672,-1.6762784163104456,0.0,0.01218697801232338,0.3484424352645874,0.0,-0.0011180824367329478,1.1579910516738892,0.0,0.03455964848399162
144.0,168.0,-4.1988,-0.0281,8.8576,-0.0441,0.0299,-0.1162,-2.330679555932516,0.0,5.025744438171387,-1.166908621788025,-0.0,1.9969078302383423,5.349969374924459,0.0,0.22101014852523804,-1.6762946287738245,0.0,0.015715517103672028,0.34849411249160767,0.0,-0.005370032042264938,1.1580393314361572,0.0,0.036491744220256805
144.0,168.0,-4.1988,-0.0281,8.8576,-0.0441,0.0299,-0.1162,-2.33068384746694,0.0,4.9557061195373535,-1.1669005155563354,-0.0,2.0523879528045654,5.3499775407607935,0.0,0.22760118544101715,-1.6762703100787562,0.0,0.0009338274830952287,0.34842613339424133,0.0,-0.01642978936433792,1.1580593585968018,0.0,-0.010346740484237671
144.0,168.0,-4.1988,-0.0281,8.8576,-0.0441,0.0299,-0.1162,-2.3307157955565394,0.0,4.990171909332275,-1.1669127941131592,-0.0,2.0153579711914062,5.350017416268148,0.0,0.22767604887485504,-1.6762664953814905,0.0,0.006091074552386999,0.34846997261047363,0.0,0.0137087507173419,1.1579951047897339,0.0,0.006662237457931042
144.0,168.0,-4.1988,-0.0281,8.8576,-0.0441,0.0299,-0.1162,-2.3307200870909632,0.0,5.045769691467285,-1.1669046878814697,-0.0,2.0120134353637695,5.349969374924459,0.0,0.2303031086921692,-1.6762908140765589,0.0,0.01762320101261139,0.34845781326293945,0.0,0.0017974162474274635,1.1579991579055786,0.0,-0.015850823372602463
147.0,170.0,-4.2174,-0.0502,8.8822,-0.0414,0.0243,-0.1206,-2.330752512017721,0.0,4.981170177459717,-1.1669210195541382,-0.0,2.0618715286254883,5.349953341275015,0.0,0.2169680893421173,-1.6763303915606897,0.0,0.008316539227962494,0.34844955801963806,0.0,0.009387228637933731,1.1580114364624023,0.0,-0.011562753468751907
147.0,170.0,-4.2174,-0.0502,8.8822,-0.0414,0.0243,-0.1206,-2.3307320080199183,0.0,4.967616081237793,-1.16688072681427,-0.0,2.0413060188293457,5.349981593876638,0.0,0.23170751333236694,-1.67627460161318,0.0,0.0026282225735485554,0.3484421372413635,0.0,-0.005003861151635647,1.158015489578247,0.0,-0.008759755641222
147.0,170.0,-4.2174,-0.0502,8.8822,-0.0414,0.0243,-0.1206,-2.330736299554342,0.0,5.057901859283447,-1.1668721437454224,-0.0,2.0201313495635986,5.349953400879659,0.0,0.2179722785949707,-1.6763103644000452,0.0,0.0017126218881458044,0.34842193126678467,0.0,0.017285481095314026,1.1580314636230469,0.0,-0.019372789189219475
147.0,170.0,-4.2174,-0.0502,8.8822,-0.0414,0.0243,-0.1206,-2.3307320080199183,0.0,4.971869468688965,-1.166860580444336,-0.0,2.0403029918670654,5.349981295853414,0.0,0.2299097776412964,-1.6762946287738245,0.0,-0.002161765471100807,0.34845784306526184,0.0,0.004084724001586437,1.158043384552002,0.0,0.018001297488808632
147.0,170.0,-4.2174,-0.0502,8.8822,-0.0414,0.0243,-0.1206,-2.3307401142516078,0.0,4.9770941734313965,-1.166884422302246,-0.0,2.0344886779785156,5.350033390312948,0.0,0.2145283818244934,-1.6763060728656214,0.0,0.011673130095005035,0.34838154911994934,0.0,0.0028018178418278694,1.1580839157104492,0.0,-0.028723182156682014
147.0,170.0,-4.2174,-0.0502,8.8822,-0.0414,0.0243,-0.1206,-2.3307320080199183,0.0,5.019201755523682,-1.1669210195541382,-0.0,2.0985188484191895,5.34996526220397,0.0,0.2277897298336029,-1.6762908140765589,0.0,0.005393189378082752,0.3484223186969757,0.0,0.0036520203575491905,1.158087968826294,0.0,-0.02893473207950592
147.0,170.0,-4.2174,-0.0502,8.8822,-0.0414,0.0243,-0.1206,-2.3307200870909632,0.0,5.004660606384277,-1.1668404340744019,-0.0,2.0213546752929688,5.349997329502859,0.0,0.2263159453868866,-1.6762946287738245,0.0,0.017512142658233643,0.3484821617603302,0.0,-0.0038077214267104864,1.1580233573913574,0.0,0.025408700108528137
147.0,170.0,-4.2174,-0.0502,8.8822,-0.0414,0.0243,-0.1206,-2.3307000599303187,0.0,4.990072250366211,-1.1669211387634277,-0.0,2.03694748878479,5.349969374924459,0.0,0.23203882575035095,-1.6763022581683558,0.0,0.014639944769442081,0.3484821617603302,0.0,0.005635494831949472,1.1580593585968018,0.0,-0.005119708366692066
147.0,170.0,-4.2174,-0.0502,8.8822,-0.0414,0.0243,-0.1206,-2.3307401142516078,0.0,4.999800205230713,-1.1668885946273804,-0.0,2.0569205284118652,5.349985408573904,0.0,0.21842029690742493,-1.676258389149801,0.0,0.0007810746319591999,0.34847813844680786,0.0,-0.0026858486235141754,1.158043384552002,0.0,-0.038279831409454346
147.0,170.0,-4.2174,-0.0502,8.8822,-0.0414,0.0243,-0.1206,-2.330724378625387,0.0,4.9990410804748535,-1.1668241024017334,-0.0,2.064206123352051,5.350001382618704,0.0,0.22433115541934967,-1.676258389149801,0.0,0.016324980184435844,0.348510205745697,0.0,0.009810524061322212,1.1580314636230469,0.0,-0.011691542342305183
147.0,170.0,-4.2174,-0.0502,8.8822,-0.0414,0.0243,-0.1206,-2.3306919536986292,0.0,5.035789489746094,-1.166876196861267,-0.0,2.059349298477173,5.349981295853414,0.0,0.21708548069000244,-1.6762946287738245,0.0,0.000497451052069664,0.34845778346061707,0.0,0.006863811518996954,1.1580593585968018,0.0,0.0028451085090637207
147.0,170.0,-4.2174,-0.0502,8.8822,-0.0414,0.0243,-0.1206,-2.3307038746275843,0.0,5.006300926208496,-1.166953206062317,-0.0,2.000657320022583,5.349945533066549,0.0,0.22316797077655792,-1.6762869993792933,0.0,-0.0030842593405395746,0.3484300673007965,0.0,0.002930629998445511,1.158043384552002,0.0,0.009374460205435753
147.0,170.0,-4.2174,-0.0502,8.8822,-0.0414,0.0243,-0.1206,-2.330756803552145,0.0,4.985091686248779,-1.166908860206604,-0.0,1.9898638725280762,5.34994928815917,0.0,0.22410079836845398,-1.67627460161318,0.0,0.013851003721356392,0.3484901487827301,0.0,0.00683381874114275,1.1580356359481812,0.0,-0.011165650561451912
147.0,170.0,-4.2174,-0.0502,8.8822,-0.0414,0.0243,-0.1206,-2.330736299554342,0.0,5.011802673339844,-1.1668963432312012,-0.0,2.00028920173645,5.3499653218086145,0.0,0.2222062051296234,-1.6762946287738245,0.0,-0.00416225753724575,0.3484421372413635,0.0,0.0037361744325608015,1.1579828262329102,0.0,0.02949265018105507
147.0,170.0,-4.2174,-0.0502,8.8822,-0.0414,0.0243,-0.1206,-2.3307281933226527,0.0,4.985917568206787,-1.1668802499771118,-0.0,1.9794120788574219,5.349973487644949,0.0,0.23110148310661316,-1.6762822310077112,0.0,0.015197394415736198,0.3484461307525635,0.0,0.006153978873044252,1.1580352783203125,0.0,0.0012322142720222473
147.0,170.0,-4.2174,-0.0502,8.8822,-0.0414,0.0243,-0.1206,-2.3307200870909632,0.0,4.963077068328857,-1.1669127941131592,-0.0,2.027984619140625,5.349997329502859,0.0,0.22967740893363953,-1.67627460161318,0.0,0.014196598902344704,0.34849411249160767,0.0,0.0024731173180043697,1.158015489578247,0.0,0.05724361166357994
147.0,170.0,-4.2174,-0.0502,8.8822,-0.0414,0.0243,-0.1206,-2.3307000599303187,0.0,4.96358585357666,-1.166864275932312,-0.0,2.004030704498291,5.34996526220397,0.0,0.2298906147480011,-1.6762545744525355,0.0,0.004139318130910397,0.34843796491622925,0.0,0.016755621880292892,1.1580352783203125,0.0,-0.03128260374069214
144.0,169.0,-4.2784,-0.0616,9.0275,-0.0243,0.0176,-0.1101,-2.330724378625387,0.0,4.975814342498779,-1.166852355003357,-0.0,2.0413427352905273,5.350037443428793,0.0,0.21863164007663727,-1.6762822310077112,0.0,0.0008146516047418118,0.3484741151332855,0.0,0.012076988816261292,1.1580716371536255,0.0,0.025235615670681
144.0,169.0,-4.2784,-0.0616,9.0275,-0.0243,0.0176,-0.1101,-2.3307486973204554,0.0,5.03210973739624,-1.1668363809585571,-0.0,2.028937578201294,5.349985348969259,0.0,0.22773103415966034,-1.6763184706317347,0.0,-0.0024517476558685303,0.3484461307525635,0.0,0.001972714439034462,1.1580675840377808,0.0,-0.006218894850462675
144.0,169.0,-4.2784,-0.0616,9.0275,-0.0243,0.0176,-0.1101,-2.3307200870909632,0.0,4.984379768371582,-1.166860580444336,-0.0,2.0625505447387695,5.349945235043325,0.0,0.2299479842185974,-1.6762984434710901,0.0,0.004862348083406687,0.3484461307525635,0.0,-0.0065004657953977585,1.158043384552002,0.0,0.0348871573805809
144.0,169.0,-4.2784,-0.0616,9.0275,-0.0243,0.0176,-0.1101,-2.330708166162008,0.0,5.008266448974609,-1.1668802499771118,-0.0,2.031013250350952,5.349993514805593,0.0,0.23223619163036346,-1.6763303915606897,0.0,0.008017095737159252,0.348397821187973,0.0,-0.009981226176023483,1.1580474376678467,0.0,0.0429956391453743
144.0,169.0,-4.2784,-0.0616,9.0275,-0.0243,0.0176,-0.1101,-2.3307157955565394,0.0,4.969426155090332,-1.1668848991394043,-0.0,2.01689076423645,5.349953400879659,0.0,0.2160760462284088,-1.6762788931476038,0.0,0.013873565942049026,0.34840595722198486,0.0,0.004159819800406694,1.1580274105072021,0.0,-0.05913194641470909
144.0,169.0,-4.2784,-0.0616,9.0275,-0.0243,0.0176,-0.1101,-2.330736299554342,0.0,4.998943328857422,-1.1669005155563354,-0.0,2.0519261360168457,5.34993331411437,0.0,0.2302127480506897,-1.676258389149801,0.0,0.004055322147905827,0.3484339118003845,0.0,0.007142267189919949,1.1580233573913574,0.0,0.005492815747857094
144.0,169.0,-4.2784,-0.0616,9.0275,-0.0243,0.0176,-0.1101,-2.330752512017721,0.0,4.98512601852417,-1.166864275932312,-0.0,2.01737117767334,5.349961507111349,0.0,0.22174036502838135,-1.6762869993792933,0.0,0.00730080297216773,0.3483535349369049,0.0,-0.0017479793168604374,1.157979130744934,0.0,-0.019717631861567497
144.0,169.0,-4.2784,-0.0616,9.0275,-0.0243,0.0176,-0.1101,-2.3307401142516078,0.0,4.966845512390137,-1.1668239831924438,-0.0,2.0135350227355957,5.349953818112173,0.0,0.21743591129779816,-1.6762989203082483,0.0,-0.0021441527642309666,0.348490446805954,0.0,0.007325564511120319,1.1580393314361572,0.0,0.004524959251284599
144.0,169.0,-4.2784,-0.0616,9.0275,-0.0243,0.0176,-0.1101,-2.3307038746275843,0.0,4.967339515686035,-1.1669005155563354,-0.0,2.0240044593811035,5.350021469383993,0.0,0.2334291934967041,-1.6762946287738245,0.0,0.004580599721521139,0.3484382927417755,0.0,0.01451992429792881,1.1579831838607788,0.0,0.015291118994355202
144.0,169.0,-4.2784,-0.0616,9.0275,-0.0243,0.0176,-0.1101,-2.3307157955565394,0.0,4.999704837799072,-1.1669169664382935,-0.0,2.0054304599761963,5.34993331411437,0.0,0.22637927532196045,-1.6763346830951136,0.0,0.0026406976394355297,0.3484625816345215,0.0,0.0015232511796057224,1.1580474376678467,0.0,-0.009632705710828304
144.0,169.0,-4.2784,-0.0616,9.0275,-0.0243,0.0176,-0.1101,-2.3307486973204554,0.0,4.978057384490967,-1.1668602228164673,-0.0,2.017817735671997,5.350001382618704,0.0,0.22469529509544373,-1.6762827078448694,0.0,0.008489098399877548,0.3484461307525635,0.0,0.012123458087444305,1.1580311059951782,0.0,-0.0229491014033556
144.0,169.0,-4.2784,-0.0616,9.0275,-0.0243,0.0176,-0.1101,-2.3307157955565394,0.0,5.026652812957764,-1.166872501373291,-0.0,2.040168523788452,5.349981295853414,0.0,0.22856104373931885,-1.6762989203082483,0.0,0.009831719100475311,0.348501980304718,0.0,-0.006721210200339556,1.1580233573913574,0.0,-0.029524926096200943
144.0,169.0,-4.2784,-0.0616,9.0275,-0.0243,0.0176,-0.1101,-2.3307038746275843,0.0,4.988795757293701,-1.166864275932312,-0.0,2.0522329807281494,5.349973487644949,0.0,0.22235728800296783,-1.6762426535235804,0.0,0.005132440011948347,0.3484618067741394,0.0,0.0031584776006639004,1.158015489578247,0.0,0.002243791241198778
144.0,169.0,-4.2784,-0.0616,9.0275,-0.0243,0.0176,-0.1101,-2.3307038746275843,0.0,5.034518241882324,-1.1668884754180908,-0.0,2.0139083862304688,5.349989402085104,0.0,0.22270220518112183,-1.6762908140765589,0.0,0.007808609865605831,0.3484421372413635,0.0,0.011739245615899563,1.158043384552002,0.0,-0.06165805086493492
144.0,169.0,-4.2784,-0.0616,9.0275,-0.0243,0.0176,-0.1101,-2.3307401142516078,0.0,4.991469383239746,-1.1668684482574463,-0.0,2.0839595794677734,5.3499693153198145,0.0,0.23188380897045135,-1.676302735005514,0.0,0.007642590906471014,0.3484182357788086,0.0,-0.0041825613006949425,1.1580151319503784,0.0,-0.010550287552177906
144.0,169.0,-4.2784,-0.0616,9.0275,-0.0243,0.0176,-0.1101,-2.3307401142516078,0.0,4.981380462646484,-1.166917085647583,-0.0,1.9919676780700684,5.349985348969259,0.0,0.22980248928070068,-1.6762703100787562,0.0,0.006376634351909161,0.3484862744808197,0.0,0.007651600055396557,1.1580716371536255,0.0,0.015502674505114555
144.0,169.0,-4.2784,-0.0616,9.0275,-0.0243,0.0176,-0.1101,-2.330708166162008,0.0,4.980168342590332,-1.1669005155563354,-0.0,2.033054828643799,5.34993331411437,0.0,0.23427890241146088,-1.6763103644000452,0.0,0.015580915845930576,0.3484821915626526,0.0,0.002471442800015211,1.1580151319503784,0.0,0.08568158745765686
144.0,169.0,-4.2784,-0.0616,9.0275,-0.0243,0.0176,-0.1101,-2.3307320080199183,0.0,5.007434844970703,-1.166892647743225,-0.0,2.0141279697418213,5.349981295853414,0.0,0.2248654067516327,-1.6762703100787562,0.0,0.008460542187094688,0.3484741449356079,0.0,-0.009755118750035763,1.1580554246902466,0.0,-0.018419813364744186
146.0,164.0,-4.2251,-0.0658,8.8229,-0.0405,0.0205,-0.1187,-2.3306719265379847,0.0,5.022097587585449,-1.166852355003357,-0.0,2.029900312423706,5.3499775407607935,0.0,0.2160336971282959,-1.67627460161318,0.0,0.013816178776323795,0.3484859764575958,0.0,0.013625094667077065,1.1580716371536255,0.0,-0.03697419911623001
146.0,164.0,-4.2251,-0.0658,8.8229,-0.0405,0.0205,-0.1187,-2.330708166162008,0.0,5.018925666809082,-1.166884422302246,-0.0,2.04044246673584,5.349941122322836,0.0,0.2248113453388214,-1.6762822310077112,0.0,0.0003854322712868452,0.3484421372413635,0.0,0.021008940413594246,1.1579710245132446,0.0,-0.017579898238182068
146.0,164.0,-4.2251,-0.0658,8.8229,-0.0405,0.0205,-0.1187,-2.3307162723936976,0.0,5.0596842765808105,-1.166852355003357,-0.0,2.015826940536499,5.34994928815917,0.0,0.2352927327156067,-1.6762703100787562,0.0,0.008558683097362518,0.3484421372413635,0.0,-0.0003311857581138611,1.1580233573913574,0.0,0.008460796438157558
146.0,164.0,-4.2251,-0.0658,8.8229,-0.0405,0.0205,-0.1187,-2.330724378625387,0.0,4.995197296142578,-1.1668684482574463,-0.0,2.0323233604431152,5.3499775407607935,0.0,0.23458021879196167,-1.6762869993792933,0.0,0.007987583056092262,0.34842199087142944,0.0,0.01305875089019537,1.1580634117126465,0.0,-0.007018102798610926
146.0,164.0,-4.2251,-0.0658,8.8229,-0.0405,0.0205,-0.1187,-2.33068384746694,0.0,4.951175689697266,-1.166876196861267,-0.0,2.0054545402526855,5.349953400879659,0.0,0.2303786724805832,-1.67627460161318,0.0,0.005937338341027498,0.3484618067741394,0.0,0.0003579873591661453,1.1579991579055786,0.0,0.0007580623496323824
146.0,164.0,-4.2251,-0.0658,8.8229,-0.0405,0.0205,-0.1187,-2.330655714074606,0.0,4.977031707763672,-1.166864275932312,-0.0,2.004951238632202,5.349969374924459,0.0,0.24137482047080994,-1.6763060728656214,0.0,0.0011109394254162908,0.3484658896923065,0.0,0.004113054368644953,1.1580393314361572,0.0,-0.005535576492547989
146.0,164.0,-4.2251,-0.0658,8.8229,-0.0405,0.0205,-0.1187,-2.330708166162008,0.0,5.014496803283691,-1.1669169664382935,-0.0,2.0189149379730225,5.349949347763815,0.0,0.21868669986724854,-1.6762545744525355,0.0,0.003188824513927102,0.3485061228275299,0.0,0.004855914507061243,1.1579991579055786,0.0,0.0042282030917704105
146.0,164.0,-4.2251,-0.0658,8.8229,-0.0405,0.0205,-0.1187,-2.3307157955565394,0.0,4.9867024421691895,-1.1668884754180908,-0.0,2.042390823364258,5.350005435734548,0.0,0.22993117570877075,-1.676262680684225,0.0,0.0037332403007894754,0.34841012954711914,0.0,0.014405217953026295,1.1579910516738892,0.0,0.02143748104572296
146.0,164.0,-4.2251,-0.0658,8.8229,-0.0405,0.0205,-0.1187,-2.330736299554342,0.0,5.002471923828125,-1.1669169664382935,-0.0,1.986332654953003,5.349973487644949,0.0,0.22613200545310974,-1.6762869993792933,0.0,0.004044018220156431,0.348450243473053,0.0,0.011085348203778267,1.1579910516738892,0.0,-0.03875116631388664
146.0,164.0,-4.2251,-0.0658,8.8229,-0.0405,0.0205,-0.1187,-2.330667635003561,0.0,5.004159450531006,-1.1668802499771118,-0.0,2.0440640449523926,5.349953818112173,0.0,0.21931150555610657,-1.6763022581683558,0.0,-0.003322892589494586,0.3483896553516388,0.0,0.0010887510143220425,1.1580193042755127,0.0,-0.026162192225456238
146.0,164.0,-4.2251,-0.0658,8.8229,-0.0405,0.0205,-0.1187,-2.3307281933226527,0.0,4.9627532958984375,-1.1669005155563354,-0.0,2.01987361907959,5.349937367230215,0.0,0.2198212593793869,-1.676262680684225,0.0,-0.0034299357794225216,0.3484301269054413,0.0,0.00804404728114605,1.1580634117126465,0.0,0.028902223333716393
146.0,164.0,-4.2251,-0.0658,8.8229,-0.0405,0.0205,-0.1187,-2.330736299554342,0.0,4.994882583618164,-1.1668765544891357,-0.0,2.031694173812866,5.34993742683486,0.0,0.21386565268039703,-1.6762908140765589,0.0,0.010153116658329964,0.3484256863594055,0.0,0.004377272445708513,1.1580233573913574,0.0,-0.020151611417531967
146.0,164.0,-4.2251,-0.0658,8.8229,-0.0405,0.0205,-0.1187,-2.3307320080199183,0.0,4.945158958435059,-1.166860580444336,-0.0,2.025665044784546,5.350001382618704,0.0,0.22344624996185303,-1.67627460161318,0.0,0.0004867594689130783,0.3484618067741394,0.0,0.0014421159867197275,1.1580675840377808,0.0,-0.0007119299843907356
146.0,164.0,-4.2251,-0.0658,8.8229,-0.0405,0.0205,-0.1187,-2.3307157955565394,0.0,5.025806427001953,-1.1668884754180908,-0.0,2.0001206398010254,5.3499857662017725,0.0,0.22186161577701569,-1.6763022581683558,0.0,-0.0023751072585582733,0.34842613339424133,0.0,0.0037518925964832306,1.1580073833465576,0.0,0.043340444564819336
146.0,164.0,-4.2251,-0.0658,8.8229,-0.0405,0.0205,-0.1187,-2.3307157955565394,0.0,4.968908309936523,-1.166884422302246,-0.0,2.0302391052246094,5.34994928815917,0.0,0.22588250041007996,-1.6763060728656214,0.0,0.008296096697449684,0.34842613339424133,0.0,0.014401663094758987,1.1580274105072021,0.0,-0.010907541029155254
146.0,164.0,-4.2251,-0.0658,8.8229,-0.0405,0.0205,-0.1187,-2.330708166162008,0.0,5.009844779968262,-1.1668922901153564,-0.0,2.022559642791748,5.349937367230215,0.0,0.22700241208076477,-1.6762269178973597,0.0,-0.0026692787650972605,0.3484301269054413,0.0,0.005011864006519318,1.1580314636230469,0.0,-0.018241167068481445
146.0,164.0,-4.2251,-0.0658,8.8229,-0.0405,0.0205,-0.1187,-2.3307200870909632,0.0,4.99396276473999,-1.1669045686721802,-0.0,2.010425567626953,5.349957513600149,0.0,0.22352202236652374,-1.6762908140765589,0.0,-0.003853690344840288,0.3484782576560974,0.0,0.006223696283996105,1.1580193042755127,0.0,0.017812129110097885
142.0,168.0,-4.2467,-0.073,8.8834,-0.0356,0.0272,-0.1174,-2.3306719265379847,0.0,4.994263648986816,-1.1668884754180908,-0.0,2.015634536743164,5.34993331411437,0.0,0.22296492755413055,-1.676262680684225,0.0,0.005800405517220497,0.3484536409378052,0.0,-0.01421299111098051,1.1580073833465576,0.0,-0.051080796867609024
142.0,168.0,-4.2467,-0.073,8.8834,-0.0356,0.0272,-0.1174,-2.330736299554342,0.0,5.020094394683838,-1.166860580444336,-0.0,1.973081111907959,5.349985348969259,0.0,0.22651252150535583,-1.6762784163104456,0.0,0.0049178022891283035,0.3484901189804077,0.0,-0.0033943401649594307,1.1580756902694702,0.0,-0.04968080669641495
142.0,168.0,-4.2467,-0.073,8.8834,-0.0356,0.0272,-0.1174,-2.3306762180724085,0.0,4.995231628417969,-1.166860580444336,-0.0,2.0045087337493896,5.3499857662017725,0.0,0.21753554046154022,-1.6763141790973108,0.0,-0.013472935184836388,0.3484222888946533,0.0,0.005398370325565338,1.1580314636230469,0.0,0.007348259910941124
142.0,168.0,-4.2467,-0.073,8.8834,-0.0356,0.0272,-0.1174,-2.3307000599303187,0.0,5.001309394836426,-1.1669129133224487,-0.0,2.0207786560058594,5.349949705391683,0.0,0.23204320669174194,-1.676330868397848,0.0,-0.0007249087211675942,0.3484339118003845,0.0,-0.004983347840607166,1.1579951047897339,0.0,-0.003952473867684603
142.0,168.0,-4.2467,-0.073,8.8834,-0.0356,0.0272,-0.1174,-2.3307157955565394,0.0,4.99662446975708,-1.1669127941131592,-0.0,1.9946300983428955,5.349941479950704,0.0,0.2190035879611969,-1.6762869993792933,0.0,0.007203864865005016,0.34841790795326233,0.0,-0.0025911713019013405,1.1579951047897339,0.0,-0.01212249044328928
142.0,168.0,-4.2467,-0.073,8.8834,-0.0356,0.0272,-0.1174,-2.3307320080199183,0.0,5.036889553070068,-1.1668646335601807,-0.0,2.073739528656006,5.349933671742239,0.0,0.22658902406692505,-1.6762388388263147,0.0,0.01162487082183361,0.34841012954711914,0.0,-0.006473138928413391,1.1579951047897339,0.0,-0.01480539608746767
142.0,168.0,-4.2467,-0.073,8.8834,-0.0356,0.0272,-0.1174,-2.3307200870909632,0.0,5.001941680908203,-1.1668481826782227,-0.0,1.99055016040802,5.349977183132925,0.0,0.22918778657913208,-1.6762908140765589,0.0,0.0032764652278274298,0.34846997261047363,0.0,0.010870276018977165,1.1580233573913574,0.0,-0.0490276925265789
142.0,168.0,-4.2467,-0.073,8.8834,-0.0356,0.0272,-0.1174,-2.3307320080199183,0.0,5.020261287689209,-1.166940689086914,-0.0,2.011569023132324,5.3499653218086145,0.0,0.2203977406024933,-1.6762545744525355,0.0,0.005757293663918972,0.3484542965888977,0.0,0.0009789454052224755,1.1580798625946045,0.0,0.0016120759537443519
142.0,168.0,-4.2467,-0.073,8.8834,-0.0356,0.0272,-0.1174,-2.3307038746275843,0.0,4.999139785766602,-1.1668602228164673,-0.0,2.051908016204834,5.349957453995504,0.0,0.22299665212631226,-1.676262680684225,0.0,-0.0016924688825383782,0.3484658896923065,0.0,0.0020173718221485615,1.158043384552002,0.0,0.009788105264306068
142.0,168.0,-4.2467,-0.073,8.8834,-0.0356,0.0272,-0.1174,-2.3307200870909632,0.0,5.021974086761475,-1.1668963432312012,-0.0,2.0328152179718018,5.349985408573904,0.0,0.22090604901313782,-1.6762784163104456,0.0,0.013661062344908714,0.34845781326293945,0.0,0.001400310778990388,1.1580396890640259,0.0,0.013422906398773193
142.0,168.0,-4.2467,-0.073,8.8834,-0.0356,0.0272,-0.1174,-2.3307157955565394,0.0,5.001583099365234,-1.1668965816497803,-0.0,2.0336554050445557,5.3499894616897485,0.0,0.23189876973628998,-1.6763103644000452,0.0,0.008655138313770294,0.34849411249160767,0.0,0.010337243787944317,1.1579991579055786,0.0,-0.03639976307749748
142.0,168.0,-4.2467,-0.073,8.8834,-0.0356,0.0272,-0.1174,-2.330724378625387,0.0,4.984426021575928,-1.1669087409973145,-0.0,2.014478921890259,5.349937367230215,0.0,0.2195165455341339,-1.6762784163104456,0.0,0.010628070682287216,0.3484741449356079,0.0,-0.004734102636575699,1.1580393314361572,0.0,0.03828642517328262
142.0,168.0,-4.2467,-0.073,8.8834,-0.0356,0.0272,-0.1174,-2.330712457696432,0.0,4.998045444488525,-1.1668646335601807,-0.0,2.0676865577697754,5.349981295853414,0.0,0.22305583953857422,-1.676262680684225,-3.3243396924120816e-09,0.010344062000513077,0.3484658896923065,0.0,0.004771051462739706,1.1580193042755127,0.0,-0.028351271525025368
142.0,168.0,-4.2467,-0.073,8.8834,-0.0356,0.0272,-0.1174,-2.330736299554342,0.0,4.997557640075684,-1.1668565273284912,-0.0,2.026765823364258,5.350025522499838,0.0,0.22032122313976288,-1.67627460161318,2.4691906219231896e-05,0.010935429483652115,0.34852612018585205,0.0,-0.013207560405135155,1.1580233573913574,0.0,-0.029577240347862244
142.0,168.0,-4.2467,-0.073,8.8834,-0.0356,0.0272,-0.1174,-2.3307038746275843,0.0,4.9551005363464355,-1.166852355003357,-0.0,1.9931424856185913,5.3499775407607935,0.0,0.21612507104873657,-1.67627460161318,1.0526545679567789e-07,0.006095705553889275,0.3484542965888977,0.0,0.01544648315757513,1.1580393314361572,0.0,0.011949053034186363
142.0,168.0,-4.2467,-0.073,8.8834,-0.0356,0.0272,-0.1174,-2.3307401142516078,0.0,5.007734775543213,-1.1668802499771118,-0.0,2.039750576019287,5.349953400879659,0.0,0.23243457078933716,-1.6762908140765589,2.930102688258884e-11,0.0018929744837805629,0.3484301269054413,0.0,0.013845663517713547,1.1580593585968018,0.0,0.017470333725214005
142.0,168.0,-4.2467,-0.073,8.8834,-0.0356,0.0272,-0.1174,-2.3307200870909632,0.0,5.003686428070068,-1.1668884754180908,-0.0,2.014478921890259,5.350025582104482,0.0,0.21649733185768127,-1.6762784163104456,8.15604890889261e-15,0.0018722485983744264,0.3484542965888977,0.0,0.0020176181569695473,1.1580393314361572,0.0,0.06455789506435394
142.0,172.0,-4.2317,-0.0556,8.939,-0.0353,0.0188,-0.1202,-2.3307000599303187,0.0,4.985034942626953,-1.1668565273284912,-0.0,2.0478718280792236,5.349997508316793,0.0,0.22979134321212769,-1.6762703100787562,3.477051719633182e-17,-0.0006093624979257584,0.3484940528869629,0.0,0.008184622973203659,1.1580150127410889,0.0,-0.0026343457866460085
142.0,172.0,-4.2317,-0.0556,8.939,-0.0353,0.0188,-0.1202,-2.3307367763915003,0.0,4.994815349578857,-1.1668684482574463,-0.0,2.010885000228882,5.349981295853414,0.0,0.22076182067394257,-1.676262680684225,9.678501881978426e-21,0.006822698749601841,0.34838181734085083,0.0,-0.011029556393623352,1.1580393314361572,0.0,0.005497489124536514
142.0,172.0,-4.2317,-0.0556,8.939,-0.0353,0.0188,-0.1202,-2.3307000599303187,0.0,5.012346267700195,-1.166884422302246,-0.0,2.080965518951416,5.349957453995504,0.0,0.24957355856895447,-1.6762388388263147,2.694046371598877e-24,-0.0003351279301568866,0.34844210743904114,0.0,0.0009626290993764997,1.1580032110214233,0.0,0.04293336719274521
142.0,172.0,-4.2317,-0.0556,8.939,-0.0353,0.0188,-0.1202,-2.330752512017721,0.0,5.001412868499756,-1.1668884754180908,-0.0,2.0230419635772705,5.349953400879659,0.0,0.2154669314622879,-1.6763103644000452,1.1485142245281352e-26,0.001740521751344204,0.3484421372413635,0.0,0.0004779924638569355,1.1580474376678467,0.0,-0.022295843809843063
142.0,172.0,-4.2317,-0.0556,8.939,-0.0353,0.0188,-0.1202,-2.3307401142516078,0.0,5.014721393585205,-1.1669448614120483,-0.0,2.0094544887542725,5.34991734006957,0.0,0.21875545382499695,-1.6763222853290003,3.196931236383325e-30,-0.0012462674640119076,0.3484904170036316,0.0,0.0025601815432310104,1.158043384552002,0.0,0.010177744552493095
142.0,172.0,-4.2317,-0.0556,8.939,-0.0353,0.0188,-0.1202,-2.330712457696432,0.0,4.985584259033203,-1.1668405532836914,-0.0,2.055631637573242,5.34997724273757,0.0,0.21791398525238037,-1.6763103644000452,8.898776007407845e-34,0.0006460564909502864,0.3484818935394287,0.0,0.014612281695008278,1.15805983543396,0.0,-0.016975637525320053
142.0,172.0,-4.2317,-0.0556,8.939,-0.0353,0.0188,-0.1202,-2.3307320080199183,0.0,4.982717037200928,-1.1669127941131592,-0.0,2.012982130050659,5.349981295853414,0.0,0.22062323987483978,-1.6762784163104456,2.477006687814166e-37,0.006199064664542675,0.3485022783279419,0.0,0.016330493614077568,1.158015489578247,0.0,-0.04077748581767082
142.0,172.0,-4.2317,-0.0556,8.939,-0.0353,0.0188,-0.1202,-2.3307038746275843,0.0,5.017432689666748,-1.1668963432312012,-0.0,2.0482935905456543,5.349941479950704,0.0,0.2190205454826355,-1.6763022581683558,1.0559862928505027e-39,0.004775733221322298,0.3484421372413635,0.0,-0.002977499272674322,1.1580356359481812,0.0,0.006076210644096136
142.0,172.0,-4.2317,-0.0556,8.939,-0.0353,0.0188,-0.1202,-2.330724378625387,0.0,4.992674827575684,-1.1669005155563354,-0.0,2.0320000648498535,5.349905061512747,0.0,0.22598199546337128,-1.6763060728656214,2.942726775082116e-43,-0.0014686743961647153,0.34845781326293945,0.0,0.009433329105377197,1.1580233573913574,0.0,-0.018963994458317757
142.0,172.0,-4.2317,-0.0556,8.939,-0.0353,0.0188,-0.1202,-2.33068384746694,0.0,4.995626449584961,-1.1668922901153564,-0.0,2.0280964374542236,5.34993742683486,0.0,0.22797632217407227,-1.6763060728656214,0.0,0.011343805119395256,0.34840598702430725,0.0,0.005914171691983938,1.1580196619033813,0.0,0.013470829464495182
142.0,172.0,-4.2317,-0.0556,8.939,-0.0353,0.0188,-0.1202,-2.3306919536986292,0.0,4.995388031005859,-1.1668802499771118,-0.0,2.0542562007904053,5.349957453995504,0.0,0.23238301277160645,-1.6762946287738245,0.0,0.0014767353422939777,0.34844958782196045,0.0,0.00035617651883512735,1.1580393314361572,0.0,0.0020112404599785805
142.0,172.0,-4.2317,-0.0556,8.939,-0.0353,0.0188,-0.1202,-2.330708166162008,0.0,5.005255699157715,-1.1668720245361328,-0.0,1.9906796216964722,5.350017356663503,0.0,0.22667722404003143,-1.67627460161318,0.0,0.011341441422700882,0.3484859764575958,0.0,0.004884584806859493,1.1580073833465576,0.0,-0.011187012307345867
142.0,172.0,-4.2317,-0.0556,8.939,-0.0353,0.0188,-0.1202,-2.3307157955565394,0.0,5.030154705047607,-1.1669284105300903,-0.0,2.0480213165283203,5.349973428040304,0.0,0.23103486001491547,-1.6762908140765589,0.0,0.006651496980339289,0.3484618067741394,0.0,0.004596577025949955,1.158015489578247,0.0,-0.01930568367242813
142.0,172.0,-4.2317,-0.0556,8.939,-0.0353,0.0188,-0.1202,-2.330736299554342,0.0,5.000874042510986,-1.1669210195541382,-0.0,2.02349853515625,5.349973487644949,0.0,0.22428148984909058,-1.6762784163104456,0.0,0.009675366804003716,0.3483896553516388,0.0,0.013165327720344067,1.1580073833465576,0.0,0.051486000418663025
142.0,172.0,-4.2317,-0.0556,8.939,-0.0353,0.0188,-0.1202,-2.330696245233053,0.0,4.980774402618408,-1.1668360233306885,-0.0,2.030404567718506,5.349913227349081,0.0,0.23712067306041718,-1.67627460161318,0.0,-0.0006423499435186386,0.3484981954097748,0.0,0.020950952544808388,1.1580196619033813,0.0,-0.06074453517794609
142.0,172.0,-4.2317,-0.0556,8.939,-0.0353,0.0188,-0.1202,-2.3307200870909632,0.0,4.970349311828613,-1.166892647743225,-0.0,2.0352888107299805,5.349953400879659,0.0,0.22269229590892792,-1.6762703100787562,0.0,-0.0072367493994534016,0.3484536409378052,0.0,0.013195106759667397,1.158043384552002,0.0,-0.036033399403095245
142.0,172.0,-4.2317,-0.0556,8.939,-0.0353,0.0188,-0.1202,-2.3307200870909632,0.0,5.031759738922119,-1.1669005155563354,-0.0,1.9661476612091064,5.3499857662017725,0.0,0.2339373379945755,-1.6762908140765589,0.0,0.007599527481943369,0.3484222888946533,0.0,-0.005117305554449558,1.1580474376678467,0.0,-0.0033052274957299232
146.0,168.0,-4.2574,-0.0718,8.9133,-0.0319,0.0287,-0.1184,-2.3307157955565394,0.0,4.995593070983887,-1.1668565273284912,-0.0,2.054150104522705,5.349969374924459,0.0,0.22478808462619781,-1.6762989203082483,0.0,0.015563209541141987,0.3484182059764862,0.0,-0.0029474671464413404,1.1580393314361572,0.0,0.06317374855279922
146.0,168.0,-4.2574,-0.0718,8.9133,-0.0319,0.0287,-0.1184,-2.3307200870909632,0.0,5.0010271072387695,-1.166884422302246,-0.0,2.0238542556762695,5.349961209088125,0.0,0.23379579186439514,-1.6763184706317347,0.0,0.01087074726819992,0.34839382767677307,0.0,0.01934150606393814,1.158043384552002,0.0,0.0015057725831866264
146.0,168.0,-4.2574,-0.0718,8.9133,-0.0319,0.0287,-0.1184,-2.330708166162008,0.0,5.0536298751831055,-1.166872501373291,-0.0,2.034778118133545,5.34997724273757,0.0,0.22933992743492126,-1.6762507597552698,0.0,-0.00813696812838316,0.3484138250350952,0.0,0.008367776870727539,1.1580314636230469,0.0,-0.012738130986690521
146.0,168.0,-4.2574,-0.0718,8.9133,-0.0319,0.0287,-0.1184,-2.33068384746694,0.0,4.984415054321289,-1.166908621788025,-0.0,2.0279524326324463,5.3499653218086145,0.0,0.2284243404865265,-1.676262680684225,0.0,0.013052564114332199,0.34838151931762695,0.0,0.004046106711030006,1.1579828262329102,0.0,0.008677640929818153
146.0,168.0,-4.2574,-0.0718,8.9133,-0.0319,0.0287,-0.1184,-2.3307277164854945,0.0,5.017061710357666,-1.1668802499771118,-0.0,2.038872718811035,5.349973428040304,0.0,0.2129649519920349,-1.6762827078448694,0.0,-0.00950388703495264,0.3483896553516388,0.0,-0.00481480173766613,1.1580675840377808,0.0,0.013921699486672878
146.0,168.0,-4.2574,-0.0718,8.9133,-0.0319,0.0287,-0.1184,-2.330724378625387,0.0,4.991697311401367,-1.166892647743225,-0.0,2.0280959606170654,5.349945533066549,0.0,0.23374399542808533,-1.6763060728656214,0.0,0.019203050062060356,0.34839382767677307,0.0,0.0004262588918209076,1.1580474376678467,0.0,-0.054929621517658234
146.0,168.0,-4.2574,-0.0718,8.9133,-0.0319,0.0287,-0.1184,-2.33068384746694,0.0,4.975698947906494,-1.1669161319732666,-0.0,2.038886547088623,5.349985408573904,0.0,0.2130981981754303,-1.6762908140765589,0.0,-0.0018769425805658102,0.34847816824913025,0.0,0.0012987458612769842,1.1580233573913574,0.0,-0.00407000258564949
146.0,168.0,-4.2574,-0.0718,8.9133,-0.0319,0.0287,-0.1184,-2.33068384746694,0.0,4.989459991455078,-1.1669046878814697,-0.0,2.0088376998901367,5.34995715597228,0.0,0.23528385162353516,-1.6762984434710901,0.0,-0.00785231776535511,0.34845367074012756,0.0,0.012871227227151394,1.1580193042755127,0.0,-0.004792367108166218
146.0,168.0,-4.2574,-0.0718,8.9133,-0.0319,0.0287,-0.1184,-2.3307200870909632,0.0,5.004781246185303,-1.1669045686721802,-0.0,2.0196807384490967,5.349993514805593,0.0,0.2112247794866562,-1.67627460161318,0.0,-0.0010854233987629414,0.348482221364975,0.0,-0.009974547661840916,1.1580474376678467,0.0,0.029656369239091873
146.0,168.0,-4.2574,-0.0718,8.9133,-0.0319,0.0287,-0.1184,-2.3307200870909632,0.0,5.004459857940674,-1.1668963432312012,-0.0,2.03372859954834,5.349961209088125,0.0,0.22671949863433838,-1.6762784163104456,0.0,0.006044362671673298,0.34843823313713074,0.0,0.009803975000977516,1.158043384552002,0.0,0.00796013418585062
146.0,168.0,-4.2574,-0.0718,8.9133,-0.0319,0.0287,-0.1184,-2.3307157955565394,0.0,4.993178367614746,-1.1669243574142456,-0.0,2.057079792022705,5.349909174233236,0.0,0.2259344905614853,-1.6762426535235804,0.0,-0.000975685368757695,0.3484141230583191,0.0,0.007917121052742004,1.1579828262329102,0.0,0.01620112732052803
146.0,168.0,-4.2574,-0.0718,8.9133,-0.0319,0.0287,-0.1184,-2.3306919536986292,0.0,5.010671615600586,-1.1669005155563354,-0.0,2.0086891651153564,5.349945235043325,0.0,0.214095801115036,-1.676234547291891,0.0,-0.0003548995591700077,0.3484461009502411,0.0,0.005322245880961418,1.1580593585968018,0.0,-0.02539275772869587
146.0,168.0,-4.2574,-0.0718,8.9133,-0.0319,0.0287,-0.1184,-2.3307324848570765,0.0,4.979888916015625,-1.166852355003357,-0.0,2.0290844440460205,5.349969374924459,0.0,0.2279960811138153,-1.6762545744525355,0.0,0.00038661761209368706,0.34837788343429565,0.0,0.004217374604195356,1.158043384552002,0.0,0.007054802495986223
146.0,168.0,-4.2574,-0.0718,8.9133,-0.0319,0.0287,-0.1184,-2.3307444057860316,0.0,4.989246368408203,-1.166872501373291,-0.0,1.9970632791519165,5.350009488850393,0.0,0.22322621941566467,-1.6762545744525355,0.0,0.0064893304370343685,0.3484140932559967,0.0,-0.000715027388650924,1.1579869985580444,0.0,-0.006628872826695442
146.0,168.0,-4.2574,-0.0718,8.9133,-0.0319,0.0287,-0.1184,-2.3307401142516078,0.0,4.975436210632324,-1.1668963432312012,-0.0,2.021540641784668,5.349993514805593,0.0,0.23170912265777588,-1.6762869993792933,0.0,0.003574814647436142,0.34840601682662964,0.0,0.011722791939973831,1.1579951047897339,0.0,0.005739002488553524
146.0,168.0,-4.2574,-0.0718,8.9133,-0.0319,0.0287,-0.1184,-2.3306919536986292,0.0,4.98371696472168,-1.166925072669983,-0.0,2.0491297245025635,5.349921393185415,0.0,0.2283909022808075,-1.676258389149801,0.0,0.008427630178630352,0.3484542667865753,0.0,0.0012306238058954477,1.1580233573913574,0.0,0.032271821051836014
146.0,168.0,-4.2574,-0.0718,8.9133,-0.0319,0.0287,-0.1184,-2.3307038746275843,0.0,4.975165367126465,-1.1668684482574463,-0.0,2.008767604827881,5.349957453995504,0.0,0.22650614380836487,-1.676262680684225,0.0,0.012308603152632713,0.3484741151332855,0.0,-0.006009245757013559,1.1580073833465576,0.0,0.04436127841472626
146.0,168.0,-4.2574,-0.0718,8.9133,-0.0319,0.0287,-0.1184,-2.3307043514647425,0.0,4.945310115814209,-1.1668483018875122,-0.0,2.0508780479431152,5.349981295853414,0.0,0.237390398979187,-1.6762822310077112,0.0,0.006083446089178324,0.34840598702430725,0.0,-0.005080199800431728,1.1580114364624023,0.0,-0.03253503516316414
144.0,173.0,-4.2096,-0.0508,8.9384,-0.0334,0.026,-0.1177,-2.3307162723936976,0.0,4.990372657775879,-1.1668483018875122,-0.0,2.034669876098633,5.34996126869277,0.0,0.23241670429706573,-1.6763265768634241,0.0,0.006694278679788113,0.34843015670776367,0.0,-0.003752776188775897,1.158055305480957,0.0,0.056832920759916306
144.0,173.0,-4.2096,-0.0508,8.9384,-0.0334,0.026,-0.1177,-2.3306881390013636,0.0,4.973197937011719,-1.166892647743225,-0.0,1.9981034994125366,5.349961507111349,0.0,0.23391273617744446,-1.6763022581683558,0.0,0.005594684276729822,0.3484421372413635,0.0,-0.007716216146945953,1.1580193042755127,0.0,0.013008803129196167
144.0,173.0,-4.2096,-0.0508,8.9384,-0.0334,0.026,-0.1177,-2.33068384746694,0.0,4.985190391540527,-1.166884422302246,-0.0,2.035618305206299,5.349949347763815,0.0,0.2356310486793518,-1.67627460161318,0.0,0.004918809048831463,0.3484141528606415,0.0,-0.002274849219247699,1.1580474376678467,0.0,-0.03255901485681534
144.0,173.0,-4.2096,-0.0508,8.9384,-0.0334,0.026,-0.1177,-2.3307320080199183,0.0,5.0167717933654785,-1.166864275932312,-0.0,2.041961669921875,5.349953400879659,0.0,0.22778385877609253,-1.676302735005514,0.0,0.0014270199462771416,0.34843015670776367,0.0,0.006501213647425175,1.1579991579055786,0.0,-0.04169454053044319
144.0,173.0,-4.2096,-0.0508,8.9384,-0.0334,0.026,-0.1177,-2.330764432946676,0.0,4.977522850036621,-1.1668963432312012,-0.0,2.008604049682617,5.349985348969259,0.0,0.22548417747020721,-1.6763423124896448,0.0,0.006835798732936382,0.3484542667865753,0.0,0.0020856165792793036,1.1580352783203125,0.0,0.015192259103059769
144.0,173.0,-4.2096,-0.0508,8.9384,-0.0334,0.026,-0.1177,-2.330724378625387,0.0,4.9789137840271,-1.1668925285339355,-0.0,1.993396520614624,5.349985348969259,0.0,0.22628603875637054,-1.6763184706317347,0.0,0.0011328866239637136,0.3484342098236084,0.0,0.019585048779845238,1.1580474376678467,0.0,-0.0365745984017849
144.0,173.0,-4.2096,-0.0508,8.9384,-0.0334,0.026,-0.1177,-2.3307000599303187,0.0,5.025257110595703,-1.1668884754180908,-0.0,2.070089817047119,5.34996126869277,0.0,0.22619673609733582,-1.6763060728656214,0.0,0.013916702941060066,0.3484342098236084,0.0,-0.0017591603100299835,1.1580756902694702,0.0,0.03438961133360863
144.0,173.0,-4.2096,-0.0508,8.9384,-0.0334,0.026,-0.1177,-2.3307000599303187,0.0,4.960930824279785,-1.1669374704360962,-0.0,2.015861988067627,5.349997269898214,0.0,0.23851531744003296,-1.67627460161318,0.0,0.010305162519216537,0.34841012954711914,0.0,-0.004480188712477684,1.1580352783203125,0.0,-0.0014619105495512486
144.0,173.0,-4.2096,-0.0508,8.9384,-0.0334,0.026,-0.1177,-2.3306762180724085,0.0,5.004827976226807,-1.1668967008590698,-0.0,2.030151844024658,5.349957453995504,0.0,0.2230304777622223,-1.6762784163104456,0.0,-0.0018666214309632778,0.3484421372413635,0.0,0.007278853096067905,1.158043384552002,0.0,-0.01836773380637169
144.0,173.0,-4.2096,-0.0508,8.9384,-0.0334,0.026,-0.1177,-2.330736299554342,0.0,5.042119026184082,-1.1669127941131592,-0.0,2.0464868545532227,5.349961507111349,0.0,0.23465922474861145,-1.676258389149801,0.0,0.008740236051380634,0.3484179675579071,0.0,0.0036650365218520164,1.1580756902694702,0.0,-0.030864138156175613
144.0,173.0,-4.2096,-0.0508,8.9384,-0.0334,0.026,-0.1177,-2.3307200870909632,0.0,5.001852989196777,-1.166916847229004,-0.0,2.031087875366211,5.349985348969259,0.0,0.2176230549812317,-1.6763179937945765,0.0,0.01561039686203003,0.34840595722198486,0.0,-0.005123698152601719,1.1580593585968018,0.0,0.013409633189439774
144.0,173.0,-4.2096,-0.0508,8.9384,-0.0334,0.026,-0.1177,-2.3307200870909632,0.0,4.982001304626465,-1.1668802499771118,-0.0,2.062490940093994,5.34997724273757,0.0,0.22395598888397217,-1.6763227621661585,0.0,0.007371475920081139,0.3484261929988861,0.0,0.01284038182348013,1.1580474376678467,0.0,-0.00509213749319315
144.0,173.0,-4.2096,-0.0508,8.9384,-0.0334,0.026,-0.1177,-2.3307320080199183,0.0,5.020176410675049,-1.166872501373291,-0.0,2.0781707763671875,5.34997724273757,0.0,0.22213521599769592,-1.6763103644000452,0.0,-0.0035123303532600403,0.3484496474266052,0.0,0.008396017365157604,1.1580756902694702,0.0,0.013491498306393623
144.0,173.0,-4.2096,-0.0508,8.9384,-0.0334,0.026,-0.1177,-2.3307320080199183,0.0,4.967616081237793,-1.166884422302246,-0.0,2.024200677871704,5.349945235043325,0.0,0.215572789311409,-1.6762703100787562,0.0,0.000212482875213027,0.3483978807926178,0.0,0.0002810527803376317,1.158043384552002,0.0,0.032149288803339005
144.0,173.0,-4.2096,-0.0508,8.9384,-0.0334,0.026,-0.1177,-2.3307200870909632,0.0,5.001911640167236,-1.1669005155563354,-0.0,2.0506749153137207,5.349993216782369,0.0,0.2209654599428177,-1.676234547291891,0.0,0.015044781379401684,0.348501980304718,0.0,0.001426593866199255,1.1580193042755127,0.0,0.020518705248832703
144.0,173.0,-4.2096,-0.0508,8.9384,-0.0334,0.026,-0.1177,-2.3307200870909632,0.0,4.997262001037598,-1.1668483018875122,-0.0,2.0363597869873047,5.349969374924459,0.0,0.22947530448436737,-1.67627460161318,0.0,0.007328438572585583,0.3484222888946533,0.0,0.007526801899075508,1.1579910516738892,0.0,-0.01676417700946331
144.0,173.0,-4.2096,-0.0508,8.9384,-0.0334,0.026,-0.1177,-2.3307157955565394,0.0,4.974646091461182,-1.1669087409973145,-0.0,2.0213356018066406,5.350041436939993,0.0,0.2267470359802246,-1.6763103644000452,0.0,0.012588968500494957,0.34843799471855164,0.0,0.006840192712843418,1.1580114364624023,0.0,0.019447647035121918
146.0,169.0,-4.2508,-0.0479,8.9761,-0.0396,0.0255,-0.118,-2.330724378625387,0.0,4.97178840637207,-1.166892647743225,-0.0,2.005235195159912,5.350001323014059,0.0,0.2248687446117401,-1.6762664953814905,0.0,0.0004492737352848053,0.3484261929988861,0.0,-0.0023190996143966913,1.158043384552002,0.0,0.018510645255446434
146.0,169.0,-4.2508,-0.0479,8.9761,-0.0396,0.0255,-0.118,-2.3307157955565394,0.0,5.031641483306885,-1.1668884754180908,-0.0,2.044649600982666,5.349949347763815,0.0,0.2207166999578476,-1.6762703100787562,0.0,-0.0007901924545876682,0.34845781326293945,0.0,-0.0007775169797241688,1.1580393314361572,0.0,-0.016453532502055168
146.0,169.0,-4.2508,-0.0479,8.9761,-0.0396,0.0255,-0.118,-2.3307157955565394,0.0,5.0204291343688965,-1.1668884754180908,-0.0,2.028437614440918,5.349945533066549,0.0,0.23685739934444427,-1.6763346830951136,0.0,0.011192481964826584,0.34847402572631836,0.0,0.011504163034260273,1.1579951047897339,0.0,-0.02702091634273529
146.0,169.0,-4.2508,-0.0479,8.9761,-0.0396,0.0255,-0.118,-2.3307320080199183,0.0,4.981837272644043,-1.1668840646743774,-0.0,2.0381581783294678,5.3499934552009485,0.0,0.22938862442970276,-1.6762822310077112,0.0,-0.0018535563722252846,0.3484261929988861,0.0,-0.004138144664466381,1.1580032110214233,0.0,0.012341282330453396
146.0,169.0,-4.2508,-0.0479,8.9761,-0.0396,0.0255,-0.118,-2.3307277164854945,0.0,5.044140815734863,-1.1668524742126465,-0.0,2.045116662979126,5.349957453995504,0.0,0.23449474573135376,-1.6762827078448694,0.0,0.002460846910253167,0.3484421670436859,0.0,0.01807304657995701,1.158043384552002,0.0,0.0078899459913373
146.0,169.0,-4.2508,-0.0479,8.9761,-0.0396,0.0255,-0.118,-2.3307320080199183,0.0,5.000059127807617,-1.1668239831924438,-0.0,2.0618808269500732,5.349993514805593,0.0,0.2290450930595398,-1.6762507597552698,0.0,0.007476252503693104,0.348461776971817,0.0,0.0009050988592207432,1.158015489578247,0.0,-0.016402646899223328
146.0,169.0,-4.2508,-0.0479,8.9761,-0.0396,0.0255,-0.118,-2.3306881390013636,0.0,4.994481086730957,-1.166908621788025,-0.0,1.9888675212860107,5.3499693153198145,0.0,0.2358674257993698,-1.6762908140765589,0.0,-0.005720031913369894,0.3484461307525635,0.0,0.007985617034137249,1.158043384552002,0.0,-0.03128930181264877
146.0,169.0,-4.2508,-0.0479,8.9761,-0.0396,0.0255,-0.118,-2.3307038746275843,0.0,4.971870422363281,-1.1668239831924438,-0.0,2.054349422454834,5.349941479950704,0.0,0.23208333551883698,-1.6763103644000452,0.0,0.0021244152449071407,0.3484780788421631,0.0,-0.004004085436463356,1.1580594778060913,0.0,0.0017078928649425507
146.0,169.0,-4.2508,-0.0479,8.9761,-0.0396,0.0255,-0.118,-2.3307157955565394,0.0,5.034655570983887,-1.1668524742126465,-0.0,2.0356550216674805,5.350021409779348,0.0,0.2356884777545929,-1.6763179937945765,0.0,-0.0006235048640519381,0.34840598702430725,0.0,-0.003938476555049419,1.1580393314361572,0.0,-0.01517823152244091
146.0,169.0,-4.2508,-0.0479,8.9761,-0.0396,0.0255,-0.118,-2.33068384746694,0.0,5.006338119506836,-1.1669127941131592,-0.0,2.0965797901153564,5.349913286953726,0.0,0.22322368621826172,-1.676286522542135,0.0,0.012622713111341,0.34845423698425293,0.0,0.009894272312521935,1.157999038696289,0.0,-0.004276278894394636
146.0,169.0,-4.2508,-0.0479,8.9761,-0.0396,0.0255,-0.118,-2.3307281933226527,0.0,5.018104553222656,-1.166844129562378,-0.0,2.0086824893951416,5.350009488850393,0.0,0.22038115561008453,-1.6762703100787562,0.0,-0.0019240620313212276,0.34845423698425293,0.0,-0.0015280325897037983,1.158015489578247,0.0,0.012194626033306122
146.0,169.0,-4.2508,-0.0479,8.9761,-0.0396,0.0255,-0.118,-2.3307157955565394,0.0,4.979047775268555,-1.1668963432312012,-0.0,2.013152599334717,5.349985348969259,0.0,0.22312793135643005,-1.6763227621661585,0.0,-0.004102244507521391,0.3484222888946533,0.0,0.0017847553826868534,1.1579909324645996,0.0,-0.04637078940868378
146.0,169.0,-4.2508,-0.0479,8.9761,-0.0396,0.0255,-0.118,-2.3307401142516078,0.0,5.017617702484131,-1.1669005155563354,-0.0,1.9734410047531128,5.349969374924459,0.0,0.2247900366783142,-1.6762946287738245,0.0,-0.005737063474953175,0.34841418266296387,0.0,-0.0005835214396938682,1.1580393314361572,0.0,0.009852822870016098
146.0,169.0,-4.2508,-0.0479,8.9761,-0.0396,0.0255,-0.118,-2.3307200870909632,0.0,4.978628635406494,-1.166884422302246,-0.0,1.9809980392456055,5.34993742683486,0.0,0.2304798811674118,-1.6762784163104456,0.0,-0.002118471311405301,0.348438024520874,0.0,0.012861093506217003,1.1580274105072021,0.0,-0.01010297704488039
146.0,169.0,-4.2508,-0.0479,8.9761,-0.0396,0.0255,-0.118,-2.3307200870909632,0.0,5.015098571777344,-1.1668925285339355,-0.0,2.0555896759033203,5.349993514805593,0.0,0.22483369708061218,-1.6762869993792933,0.0,0.0016188613371923566,0.34841418266296387,0.0,0.002728431485593319,1.1579909324645996,0.0,0.015326329506933689
146.0,169.0,-4.2508,-0.0479,8.9761,-0.0396,0.0255,-0.118,-2.3306719265379847,0.0,5.004031181335449,-1.166864275932312,-0.0,2.024850368499756,5.349953400879659,0.0,0.22564591467380524,-1.6762869993792933,0.0,0.0060756150633096695,0.3484019637107849,0.0,-0.011616453528404236,1.1580677032470703,0.0,-0.041145022958517075
146.0,169.0,-4.2508,-0.0479,8.9761,-0.0396,0.0255,-0.118,-2.330724378625387,0.0,5.02680778503418,-1.1668442487716675,-0.0,2.0403239727020264,5.3499653218086145,0.0,0.2239794135093689,-1.676258389149801,0.0,0.009544724598526955,0.3484618067741394,0.0,0.005044328048825264,1.1580356359481812,0.0,-0.008606207557022572
143.0,172.0,-4.3944,-0.0443,8.8887,-0.0385,0.0257,-0.117,-2.330679555932516,0.0,5.036005973815918,-1.1668802499771118,-0.0,2.0217299461364746,5.349953341275015,0.0,0.23170259594917297,-1.6762869993792933,0.0,0.002263112226501107,0.3484940230846405,0.0,0.013605854474008083,1.1580716371536255,0.0,-0.009602268226444721
143.0,172.0,-4.3944,-0.0443,8.8887,-0.0385,0.0257,-0.117,-2.33068384746694,0.0,5.0007171630859375,-1.1669005155563354,-0.0,2.0244436264038086,5.349989402085104,0.0,0.22361767292022705,-1.6763103644000452,0.0,-0.0027710353024303913,0.34841421246528625,0.0,0.013517126441001892,1.158007264137268,0.0,-0.027762193232774734
143.0,172.0,-4.3944,-0.0443,8.8887,-0.0385,0.0257,-0.117,-2.3307000599303187,0.0,4.998688220977783,-1.166852355003357,-0.0,2.025581121444702,5.349997567921438,0.0,0.2214878797531128,-1.6763022581683558,0.0,0.008735734038054943,0.3484461307525635,0.0,-0.0011455956846475601,1.1580193042755127,0.0,-0.030568666756153107
143.0,172.0,-4.3944,-0.0443,8.8887,-0.0385,0.0257,-0.117,-2.330724378625387,0.0,4.954286575317383,-1.1668483018875122,-0.0,2.0336928367614746,5.349973428040304,0.0,0.22374965250492096,-1.6762788931476038,0.0,0.019665837287902832,0.3484182357788086,0.0,0.017128802835941315,1.158051609992981,0.0,0.029650449752807617
143.0,172.0,-4.3944,-0.0443,8.8887,-0.0385,0.0257,-0.117,-2.3306881390013636,0.0,5.028144359588623,-1.1668802499771118,-0.0,2.0353894233703613,5.350013243943014,0.0,0.22522591054439545,-1.6763303915606897,0.0,0.0040213605388998985,0.34846174716949463,0.0,-0.002462887903675437,1.1580196619033813,0.0,-0.026119409129023552
143.0,172.0,-4.3944,-0.0443,8.8887,-0.0385,0.0257,-0.117,-2.3307401142516078,0.0,5.008180618286133,-1.1669201850891113,-0.0,2.020538330078125,5.349945533066549,0.0,0.2229108214378357,-1.676258389149801,0.0,0.018426265567541122,0.3484780490398407,0.0,0.002981671364977956,1.15809166431427,0.0,0.002012205310165882
143.0,172.0,-4.3944,-0.0443,8.8887,-0.0385,0.0257,-0.117,-2.3307401142516078,0.0,5.005721569061279,-1.1668561697006226,-0.0,2.0279338359832764,5.349993514805593,0.0,0.2345184087753296,-1.6762545744525355,0.0,-0.006614320445805788,0.3484220802783966,0.0,8.861534297466278e-05,1.1579749584197998,0.0,-0.04614182189106941
143.0,172.0,-4.3944,-0.0443,8.8887,-0.0385,0.0257,-0.117,-2.3307401142516078,0.0,4.981761932373047,-1.1668963432312012,-0.0,2.0408904552459717,5.349953341275015,0.0,0.229109987616539,-1.676302735005514,0.0,0.007062533404678106,0.348393976688385,0.0,0.008044179528951645,1.1580311059951782,0.0,-0.013695454224944115
143.0,172.0,-4.3944,-0.0443,8.8887,-0.0385,0.0257,-0.117,-2.3307320080199183,0.0,5.003537178039551,-1.166872501373291,-0.0,2.0122344493865967,5.3499934552009485,0.0,0.22785383462905884,-1.6762989203082483,0.0,0.002446824684739113,0.3484461307525635,0.0,0.0048121060244739056,1.158043384552002,0.0,-0.01713402383029461
143.0,172.0,-4.3944,-0.0443,8.8887,-0.0385,0.0257,-0.117,-2.3307200870909632,0.0,4.997225761413574,-1.1668963432312012,-0.0,2.0221738815307617,5.349933373719015,0.0,0.23544660210609436,-1.6762784163104456,0.0,0.00796806812286377,0.34847399592399597,0.0,-0.005958592984825373,1.1580274105072021,0.0,0.04831868037581444
143.0,172.0,-4.3944,-0.0443,8.8887,-0.0385,0.0257,-0.117,-2.330736299554342,0.0,5.030784606933594,-1.1669087409973145,-0.0,2.0382487773895264,5.349953400879659,0.0,0.23050343990325928,-1.6762946287738245,0.0,-0.0011363942176103592,0.3484424352645874,0.0,0.009183036163449287,1.1580393314361572,0.0,-0.03351736068725586
143.0,172.0,-4.3944,-0.0443,8.8887,-0.0385,0.0257,-0.117,-2.3307157955565394,0.0,5.014904975891113,-1.1668564081192017,-0.0,2.036635637283325,5.349929260998525,0.0,0.23237138986587524,-1.6762703100787562,0.0,-0.005366860423237085,0.3484262228012085,0.0,-0.002199915936216712,1.1580073833465576,0.0,0.054752036929130554
143.0,172.0,-4.3944,-0.0443,8.8887,-0.0385,0.0257,-0.117,-2.3307486973204554,0.0,5.000546932220459,-1.1668806076049805,-0.0,2.048079490661621,5.350013601570883,0.0,0.22964438796043396,-1.6763060728656214,0.0,6.391876377165318e-05,0.34840601682662964,0.0,0.010809976607561111,1.158051609992981,0.0,0.0020812684670090675
143.0,172.0,-4.3944,-0.0443,8.8887,-0.0385,0.0257,-0.117,-2.3307000599303187,0.0,5.02901554107666,-1.1668565273284912,-0.0,2.046032667160034,5.349989402085104,0.0,0.2176600992679596,-1.6763184706317347,0.0,-0.0013119736686348915,0.348393976688385,0.0,0.0043494985438883305,1.158043384552002,0.0,0.010515758767724037
143.0,172.0,-4.3944,-0.0443,8.8887,-0.0385,0.0257,-0.117,-2.3307281933226527,0.0,4.996335983276367,-1.1668602228164673,-0.0,2.0482277870178223,5.34994928815917,0.0,0.23721525073051453,-1.6763060728656214,0.0,0.00837448425590992,0.3484340012073517,0.0,0.007772764656692743,1.1580193042755127,0.0,-0.017150789499282837
143.0,172.0,-4.3944,-0.0443,8.8887,-0.0385,0.0257,-0.117,-2.33068384746694,0.0,5.0232648849487305,-1.166917085647583,-0.0,2.033241033554077,5.349945235043325,0.0,0.23053239285945892,-1.6762784163104456,0.0,0.004052470438182354,0.3484501838684082,0.0,-0.0019013447454199195,1.1580512523651123,0.0,-0.0067210872657597065
143.0,172.0,-4.3944,-0.0443,8.8887,-0.0385,0.0257,-0.117,-2.3307000599303187,0.0,4.997298240661621,-1.166844129562378,-0.0,2.0303828716278076,5.34996526220397,0.0,0.23475044965744019,-1.6762946287738245,0.0,-0.007258518598973751,0.3483899235725403,0.0,0.005241121631115675,1.1580356359481812,0.0,-0.024338653311133385
147.0,165.0,-4.2012,0.0389,8.8684,-0.0403,0.0247,-0.1213,-2.3307157955565394,0.0,5.03961706161499,-1.1669325828552246,-0.0,2.00593900680542,5.349945235043325,0.0,0.23508629202842712,-1.676258389149801,0.0,-0.006259942427277565,0.34845781326293945,0.0,0.00866326317191124,1.1580073833465576,0.0,0.001561746932566166
147.0,165.0,-4.2012,0.0389,8.8684,-0.0403,0.0247,-0.1213,-2.3307486973204554,0.0,4.997794151306152,-1.166892647743225,-0.0,2.020533561706543,5.349921393185415,0.0,0.21870265901088715,-1.6762941519366663,0.0,0.002674988005310297,0.34841418266296387,0.0,-0.008571859449148178,1.158063530921936,0.0,-0.019825387746095657
147.0,165.0,-4.2012,0.0389,8.8684,-0.0403,0.0247,-0.1213,-2.3307157955565394,0.0,5.021603107452393,-1.1668964624404907,-0.0,2.0060181617736816,5.349961566715994,0.0,0.21539604663848877,-1.6762869993792933,0.0,0.005715576000511646,0.3484461307525635,0.0,-0.006704890169203281,1.158079743385315,0.0,-0.005153905600309372
147.0,165.0,-4.2012,0.0389,8.8684,-0.0403,0.0247,-0.1213,-2.3306881390013636,0.0,5.007041931152344,-1.1668802499771118,-0.0,2.0393881797790527,5.349937367230215,0.0,0.22594967484474182,-1.6762946287738245,0.0,-0.0063821058720350266,0.3484618067741394,0.0,0.00039454526267945766,1.158063530921936,0.0,-0.04684768244624138
147.0,165.0,-4.2012,0.0389,8.8684,-0.0403,0.0247,-0.1213,-2.3306919536986292,0.0,5.035601615905762,-1.1668646335601807,-0.0,2.012478828430176,5.349993514805593,0.0,0.22217810153961182,-1.6762703100787562,0.0,0.00019491289276629686,0.34840601682662964,0.0,0.010129787027835846,1.1580274105072021,0.0,0.011398963630199432
147.0,165.0,-4.2012,0.0389,8.8684,-0.0403,0.0247,-0.1213,-2.3307687244811,0.0,4.999974727630615,-1.1668646335601807,-0.0,2.028372287750244,5.349973428040304,0.0,0.22244049608707428,-1.6762664953814905,0.0,-0.00943234097212553,0.3484262526035309,0.0,-0.0018165770452469587,1.157947063446045,0.0,-0.03852449357509613
147.0,165.0,-4.2012,0.0389,8.8684,-0.0403,0.0247,-0.1213,-2.3307320080199183,0.0,5.004848480224609,-1.1668641567230225,-0.0,1.9836827516555786,5.3499653218086145,0.0,0.23113039135932922,-1.6763060728656214,0.0,0.004202940501272678,0.34848591685295105,0.0,-0.007575545459985733,1.1579991579055786,0.0,-0.0423961877822876
147.0,165.0,-4.2012,0.0389,8.8684,-0.0403,0.0247,-0.1213,-2.3307200870909632,0.0,5.026167869567871,-1.166864275932312,-0.0,2.0092830657958984,5.349945592671194,0.0,0.21680660545825958,-1.6763103644000452,0.0,0.01702064648270607,0.34841808676719666,0.0,0.004281821195036173,1.1580314636230469,0.0,0.015186908654868603
147.0,165.0,-4.2012,0.0389,8.8684,-0.0403,0.0247,-0.1213,-2.3306881390013636,0.0,4.984137058258057,-1.1668565273284912,-0.0,2.0208301544189453,5.3499653218086145,0.0,0.2329336702823639,-1.6762984434710901,0.0,0.009192727506160736,0.3484739363193512,0.0,-0.006353695411235094,1.1580191850662231,0.0,-0.012653998099267483
147.0,165.0,-4.2012,0.0389,8.8684,-0.0403,0.0247,-0.1213,-2.330736299554342,0.0,4.969983100891113,-1.1669201850891113,-0.0,2.0423178672790527,5.349953400879659,0.0,0.21469883620738983,-1.6762908140765589,0.0,0.005665304139256477,0.34845417737960815,0.0,-0.005878221243619919,1.1580594778060913,0.0,0.021364644169807434
147.0,165.0,-4.2012,0.0389,8.8684,-0.0403,0.0247,-0.1213,-2.3307486973204554,0.0,4.994678497314453,-1.1668882369995117,-0.0,2.0633952617645264,5.349985408573904,0.0,0.21396414935588837,-1.6762664953814905,0.0,0.015607418492436409,0.3484939932823181,0.0,-0.0017526084557175636,1.1580512523651123,0.0,-0.036125123500823975
147.0,165.0,-4.2012,0.0389,8.8684,-0.0403,0.0247,-0.1213,-2.3307000599303187,0.0,4.969151496887207,-1.1669087409973145,-0.0,2.04048228263855,5.349929559021749,0.0,0.22864171862602234,-1.6763103644000452,0.0,-0.0022671096958220005,0.34846994280815125,0.0,0.006135981995612383,1.158063530921936,0.0,-0.01007036492228508
147.0,165.0,-4.2012,0.0389,8.8684,-0.0403,0.0247,-0.1213,-2.3306762180724085,0.0,5.0161004066467285,-1.1669087409973145,-0.0,1.9950613975524902,5.350021111756124,0.0,0.22228729724884033,-1.6763504187213343,0.0,-0.0006187479011714458,0.34845781326293945,0.0,0.005866135936230421,1.157999038696289,0.0,-0.02009628713130951
147.0,165.0,-4.2012,0.0389,8.8684,-0.0403,0.0247,-0.1213,-2.330724378625387,0.0,5.018898963928223,-1.1668963432312012,-0.0,2.0328845977783203,5.350005435734548,0.0,0.21865558624267578,-1.6762827078448694,0.0,0.0036879393737763166,0.34839797019958496,0.0,0.0036104570608586073,1.1580475568771362,0.0,0.022016368806362152
147.0,165.0,-4.2012,0.0389,8.8684,-0.0403,0.0247,-0.1213,-2.3307320080199183,0.0,4.9704108238220215,-1.166884422302246,-0.0,1.9907732009887695,5.34994928815917,0.0,0.22434531152248383,-1.6762269178973597,0.0,0.011529284529387951,0.34846174716949463,0.0,0.004620542749762535,1.1580393314361572,0.0,0.007992828264832497
147.0,165.0,-4.2012,0.0389,8.8684,-0.0403,0.0247,-0.1213,-2.3307038746275843,0.0,4.981023788452148,-1.166908860206604,-0.0,1.9965829849243164,5.34994928815917,0.0,0.21163949370384216,-1.6762908140765589,0.0,0.0002538248081691563,0.34841424226760864,0.0,0.011400986462831497,1.1580233573913574,0.0,-0.014477439224720001
147.0,165.0,-4.2012,0.0389,8.8684,-0.0403,0.0247,-0.1213,-2.330724378625387,0.0,5.060702800750732,-1.166864275932312,-0.0,2.055401086807251,5.3499653218086145,0.0,0.23052312433719635,-1.6763103644000452,0.0,-0.004515858832746744,0.34845370054244995,0.0,0.0015253790188580751,1.15809166431427,0.0,0.0017671745736151934
147.0,165.0,-4.2012,0.0389,8.8684,-0.0403,0.0247,-0.1213,-2.3307200870909632,0.0,4.966300964355469,-1.1668446063995361,-0.0,2.0422611236572266,5.349973428040304,0.0,0.2302723526954651,-1.6763141790973108,0.0,0.0040421863086521626,0.34840214252471924,0.0,0.00035486172419041395,1.1580474376678467,0.0,0.04116878658533096
145.0,173.0,-4.1599,-0.0299,8.857,-0.0338,0.0221,-0.1184,-2.330724378625387,0.0,5.0107831954956055,-1.1669169664382935,-0.0,1.9957356452941895,5.349973428040304,0.0,0.2252710610628128,-1.6763184706317347,0.0,0.00756815867498517,0.34842219948768616,0.0,-0.006001554429531097,1.1580032110214233,0.0,0.03548961877822876
145.0,173.0,-4.1599,-0.0299,8.857,-0.0338,0.0221,-0.1184,-2.3307038746275843,0.0,4.997064590454102,-1.166876196861267,-0.0,2.0131795406341553,5.3499172804649255,0.0,0.23960396647453308,-1.676258389149801,0.0,-0.00496623245999217,0.34845370054244995,0.0,-0.0049971966072916985,1.158079743385315,0.0,0.02881755121052265
145.0,173.0,-4.1599,-0.0299,8.857,-0.0338,0.0221,-0.1184,-2.330724378625387,0.0,4.996104717254639,-1.1669292449951172,-0.0,2.021076202392578,5.349917399674215,0.0,0.22340121865272522,-1.6762946287738245,0.0,0.0021123785991221666,0.3483898639678955,0.0,-0.0029372868593782187,1.158079743385315,0.0,-0.004836101084947586
145.0,173.0,-4.1599,-0.0299,8.857,-0.0338,0.0221,-0.1184,-2.3307200870909632,0.0,5.0156450271606445,-1.166876196861267,-0.0,2.033350706100464,5.349921393185415,0.0,0.21873557567596436,-1.6763580481158655,0.0,0.012727741152048111,0.3483736515045166,0.0,0.010710153728723526,1.158055305480957,0.0,0.05836614966392517
145.0,173.0,-4.1599,-0.0299,8.857,-0.0338,0.0221,-0.1184,-2.3307200870909632,0.0,4.9831953048706055,-1.1668363809585571,-0.0,2.0000720024108887,5.3499411819274805,0.0,0.22883835434913635,-1.6763184706317347,0.0,0.0032470538280904293,0.3484380543231964,0.0,-0.00039507183828391135,1.1580474376678467,0.0,-0.008378580212593079
145.0,173.0,-4.1599,-0.0299,8.857,-0.0338,0.0221,-0.1184,-2.330736299554342,0.0,4.960068702697754,-1.1668802499771118,-0.0,2.043789863586426,5.349957394390859,0.0,0.2275565266609192,-1.6763184706317347,0.0,-0.01429301779717207,0.34846997261047363,0.0,0.012254536151885986,1.1580356359481812,0.0,-0.04168611764907837
145.0,173.0,-4.1599,-0.0299,8.857,-0.0338,0.0221,-0.1184,-2.3306881390013636,0.0,4.990060806274414,-1.1668363809585571,-0.0,1.9658091068267822,5.349953341275015,0.0,0.2255057990550995,-1.676262680684225,0.0,0.007361968979239464,0.34842216968536377,0.0,0.015281327068805695,1.158055305480957,0.0,0.0026383521035313606
145.0,173.0,-4.1599,-0.0299,8.857,-0.0338,0.0221,-0.1184,-2.330736299554342,0.0,4.997607231140137,-1.1669572591781616,-0.0,2.045816421508789,5.34994928815917,0.0,0.22799208760261536,-1.6763227621661585,0.0,0.006538749672472477,0.34839800000190735,0.0,0.005768409930169582,1.1580756902694702,0.0,0.007936916314065456
145.0,173.0,-4.1599,-0.0299,8.857,-0.0338,0.0221,-0.1184,-2.330708166162008,0.0,4.993490219116211,-1.166884422302246,-0.0,1.9848439693450928,5.34994928815917,0.0,0.22279289364814758,-1.6763265768634241,0.0,-0.004711608402431011,0.34848999977111816,0.0,0.010140761733055115,1.1580193042755127,0.0,-0.022646673023700714
145.0,173.0,-4.1599,-0.0299,8.857,-0.0338,0.0221,-0.1184,-2.330724378625387,0.0,5.01646614074707,-1.1668802499771118,-0.0,2.0081372261047363,5.34994928815917,0.0,0.22963102161884308,-1.6762984434710901,0.0,0.00806545652449131,0.3484501540660858,0.0,-0.005511589348316193,1.1580398082733154,0.0,0.011672545224428177
145.0,173.0,-4.1599,-0.0299,8.857,-0.0338,0.0221,-0.1184,-2.330667635003561,0.0,4.989866256713867,-1.1669005155563354,-0.0,2.083739757537842,5.34995715597228,0.0,0.2219870388507843,-1.6762784163104456,0.0,0.005310378968715668,0.34846174716949463,0.0,-0.00047415285371243954,1.158047080039978,0.0,-0.007276222109794617
145.0,173.0,-4.1599,-0.0299,8.857,-0.0338,0.0221,-0.1184,-2.3307320080199183,1.3135562082489116e-10,4.980052471160889,-1.1669169664382935,-0.0,2.0088295936584473,5.34997724273757,0.0,0.22866986691951752,-1.6762822310077112,0.0,-0.003883694065734744,0.3485059440135956,0.0,-0.00033730571158230305,1.1580512523651123,0.0,-0.00945287849754095
145.0,173.0,-4.1599,-0.0299,8.857,-0.0338,0.0221,-0.1184,-2.330708166162008,2.3643550835163347e-14,4.974253177642822,-1.1668922901153564,-0.0,1.9764659404754639,5.3499894616897485,0.0,0.22740471363067627,-1.676302735005514,0.0,0.00752671342343092,0.3484901487827301,0.0,0.0009613761212676764,1.1579828262329102,0.0,-0.006812838837504387
145.0,173.0,-4.1599,-0.0299,8.857,-0.0338,0.0221,-0.1184,-2.330736299554342,5.709639381306562e-20,5.008456230163574,-1.166872501373291,-0.0,2.0237185955047607,5.349981295853414,0.0,0.23334980010986328,-1.6763022581683558,0.0,-0.0015297725331038237,0.3484501540660858,0.0,0.009401317685842514,1.1580512523651123,0.0,-0.013115894049406052
145.0,173.0,-4.1599,-0.0299,8.857,-0.0338,0.0221,-0.1184,-2.3307205639281214,1.378810656450062e-25,4.974529266357422,-1.1668684482574463,-0.0,2.017857551574707,5.3499775407607935,0.0,0.21998760104179382,-1.6762869993792933,0.0,0.010168609209358692,0.34850987792015076,0.0,0.00832191202789545,1.1580512523651123,0.0,-0.009842902421951294
145.0,173.0,-4.1599,-0.0299,8.857,-0.0338,0.0221,-0.1184,-2.3307162723936976,2.4818102014560623e-29,4.984994888305664,-1.1669087409973145,-0.0,2.0233490467071533,5.34996526220397,0.0,0.23446866869926453,-1.6763227621661585,0.0,0.00036665028892457485,0.3484461307525635,0.0,0.009992383420467377,1.1580712795257568,0.0,-0.008083609864115715
145.0,173.0,-4.1599,-0.0299,8.857,-0.0338,0.0221,-0.1184,-2.330736299554342,5.993279184625919e-35,4.959468841552734,-1.1668565273284912,-0.0,2.0625782012939453,5.3499653218086145,0.0,0.23187166452407837,-1.6762869993792933,0.0,-0.001526232110336423,0.3484979569911957,0.0,-0.0022545941174030304,1.1580756902694702,0.0,-0.011143695563077927
147.0,167.0,-4.346,-0.058,8.8469,-0.0368,0.0316,-0.1237,-2.330736299554342,1.4473030929086008e-40,4.970184326171875,-1.1669251918792725,-0.0,2.0060060024261475,5.34994928815917,0.0,0.21379360556602478,-1.676258389149801,0.0,0.0024682856164872646,0.34844231605529785,0.0,-0.005520099774003029,1.158047080039978,0.0,0.0024799597449600697
147.0,167.0,-4.346,-0.058,8.8469,-0.0368,0.0316,-0.1237,-2.3307200870909632,2.6624670822171524e-44,5.031213283538818,-1.1668802499771118,-0.0,2.0808448791503906,5.3499653218086145,0.0,0.22676783800125122,-1.676314655934469,0.0,-0.0007328127976506948,0.3484421968460083,0.0,-0.0023289602249860764,1.1580593585968018,0.0,-0.026217561215162277
147.0,167.0,-4.346,-0.058,8.8469,-0.0368,0.0316,-0.1237,-2.3307200870909632,0.0,5.058018684387207,-1.1668765544891357,-0.0,2.0599782466888428,5.349921393185415,0.0,0.22457356750965118,-1.6762827078448694,0.0,0.005599692929536104,0.34847405552864075,0.0,0.013384673744440079,1.1580393314361572,0.0,-0.0024108621291816235
147.0,167.0,-4.346,-0.058,8.8469,-0.0368,0.0316,-0.1237,-2.3307000599303187,0.0,4.9690961837768555,-1.16688072681427,-0.0,2.034905195236206,5.349961507111349,0.0,0.22458818554878235,-1.6763103644000452,0.0,-0.0004546699346974492,0.34848999977111816,0.0,0.0018966302741318941,1.1580716371536255,0.0,-0.037829458713531494
147.0,167.0,-4.346,-0.058,8.8469,-0.0368,0.0316,-0.1237,-2.330711980859274,0.0,4.974552154541016,-1.1669046878814697,-0.0,1.9915653467178345,5.349953400879659,0.0,0.23578208684921265,-1.6763103644000452,0.0,0.007860573939979076,0.34845778346061707,0.0,-0.0030304421670734882,1.158047080039978,0.0,-0.009796177968382835
147.0,167.0,-4.346,-0.058,8.8469,-0.0368,0.0316,-0.1237,-2.330708166162008,0.0,4.979970455169678,-1.1668446063995361,-0.0,2.0877513885498047,5.349953043251791,0.0,0.21971184015274048,-1.6763141790973108,0.0,-0.0016835731221362948,0.3484780192375183,0.0,0.00029258738504722714,1.1580435037612915,0.0,-0.05227615684270859
147.0,167.0,-4.346,-0.058,8.8469,-0.0368,0.0316,-0.1237,-2.330708166162008,0.0,4.980388641357422,-1.1668165922164917,-0.0,2.0283851623535156,5.3499775407607935,0.0,0.23313219845294952,-1.676262680684225,0.0,0.0009123906493186951,0.3484262526035309,0.0,0.020983777940273285,1.158007264137268,5.7807275879895315e-05,0.003659132868051529
147.0,167.0,-4.346,-0.058,8.8469,-0.0368,0.0316,-0.1237,-2.3307157955565394,0.0,4.981130123138428,-1.1669129133224487,-0.0,2.036393404006958,5.350009548455038,0.0,0.2269236147403717,-1.676314655934469,0.0,0.0009641472715884447,0.3484780192375183,0.0,-0.00605879258364439,1.1580114364624023,8.122360304696485e-05,0.015360308811068535
147.0,167.0,-4.346,-0.058,8.8469,-0.0368,0.0316,-0.1237,-2.3306919536986292,0.0,4.982178688049316,-1.166860580444336,4.279705194676353e-07,2.063793659210205,5.350001382618704,0.0,0.2188488095998764,-1.6763265768634241,0.0,0.005630671977996826,0.34843409061431885,0.0,0.006545609328895807,1.157999038696289,-0.00013550755102187395,-0.014890502206981182
147.0,167.0,-4.346,-0.058,8.8469,-0.0368,0.0316,-0.1237,-2.3306881390013636,0.0,5.031346321105957,-1.1669127941131592,1.0334984821072646e-12,2.0279526710510254,5.350013601570883,0.0,0.23645439743995667,-1.6763265768634241,0.0,0.0070076994597911835,0.3484900891780853,0.0,0.00704720476642251,1.1580917835235596,-9.484545444138348e-05,0.011602233164012432
147.0,167.0,-4.346,-0.058,8.8469,-0.0368,0.0316,-0.1237,-2.330773016015524,0.0,4.983217716217041,-1.1668646335601807,1.8602606409025908e-16,2.007474184036255,5.349941122322836,0.0,0.2191234976053238,-1.6762908140765589,0.0,0.002939636120572686,0.3485219180583954,0.0,0.002349433721974492,1.1579909324645996,-0.00015660500503145158,-0.019813554361462593
147.0,167.0,-4.346,-0.058,8.8469,-0.0368,0.0316,-0.1237,-2.3307200870909632,0.0,4.994525909423828,-1.1668802499771118,4.4923096624375225e-22,2.031620502471924,5.3499653218086145,0.0,0.23881429433822632,-1.6762703100787562,0.0,0.003775729099288583,0.34839802980422974,0.0,-0.0009229627321474254,1.1580274105072021,-0.00012421395513229072,0.026149827986955643
147.0,167.0,-4.346,-0.058,8.8469,-0.0368,0.0316,-0.1237,-2.330711980859274,0.0,4.9991350173950195,-1.1669210195541382,1.0848402264868727e-27,2.0248124599456787,5.349985408573904,0.0,0.2065136730670929,-1.6763227621661585,0.0,0.0013313540257513523,0.3484501242637634,0.0,0.0031271488405764103,1.158043384552002,-0.0001029059785651043,0.011772903613746166
147.0,167.0,-4.346,-0.058,8.8469,-0.0368,0.0316,-0.1237,-2.3307320080199183,0.0,4.973025321960449,-1.1668802499771118,1.952674086560534e-31,2.078481912612915,5.350009190827169,0.0,0.23647354543209076,-1.6763108412372034,0.0,-0.004774987697601318,0.34847405552864075,0.0,0.0017147748731076717,1.158015489578247,-0.0001226020831381902,-0.01477075181901455
147.0,167.0,-4.346,-0.058,8.8469,-0.0368,0.0316,-0.1237,-2.3307200870909632,0.0,4.979067802429199,-1.1669127941131592,4.715477849006087e-37,1.9998146295547485,5.349985348969259,0.0,0.23836514353752136,-1.6762908140765589,0.0,-0.007683729752898216,0.3484697639942169,0.0,0.007169260643422604,1.1580393314361572,-0.00012004135351162404,0.028444599360227585
147.0,167.0,-4.346,-0.058,8.8469,-0.0368,0.0316,-0.1237,-2.330776353875631,0.0,4.9964165687561035,-1.1668802499771118,1.1392556514960763e-42,2.073709487915039,5.350009250431814,0.0,0.22887147963047028,-1.6762703100787562,0.0,0.01300643477588892,0.34846174716949463,0.0,0.005869955290108919,1.1580352783203125,-0.0001410489931004122,0.03139887750148773
147.0,167.0,-4.346,-0.058,8.8469,-0.0368,0.0316,-0.1237,-2.3307157955565394,0.0,5.000240325927734,-1.1668565273284912,0.0,2.0208945274353027,5.34997313001708,0.0,0.2262832522392273,-1.6763580481158655,0.0,0.009752796962857246,0.34846174716949463,0.0,-0.006842954084277153,1.1580274105072021,-0.00020085688447579741,-0.030644096434116364
149.0,168.0,-4.2664,0.2183,9.0885,-0.0356,0.0298,-0.1316,-2.3307486973204554,0.0,5.050243377685547,-1.166868805885315,-0.0,2.0190958976745605,5.349981295853414,0.0,0.23120281100273132,-1.6763060728656214,0.0,0.004060655366629362,0.34843820333480835,0.0,-0.01023488212376833,1.157987356185913,-0.0002470039762556553,0.04086674749851227
149.0,168.0,-4.2664,0.2183,9.0885,-0.0356,0.0298,-0.1316,-2.3307682476439417,0.0,5.028419017791748,-1.1668238639831543,-0.0,2.0708415508270264,5.349997269898214,7.787074096654578e-09,0.23614802956581116,-1.6763466040240687,0.0,0.0013507107505574822,0.34846997261047363,0.0,0.00844598188996315,1.1580073833465576,-0.0002526756434235722,-0.025801265612244606
149.0,168.0,-4.2664,0.2183,9.0885,-0.0356,0.0298,-0.1316,-2.330736299554342,0.0,4.965823173522949,-1.1668481826782227,-0.0,2.012918472290039,5.3499653218086145,2.167560835680815e-12,0.23075798153877258,-1.6762908140765589,0.0,0.003769270144402981,0.34845781326293945,0.0,0.008024998009204865,1.1579949855804443,-0.00043389631900936365,-0.004074646160006523
149.0,168.0,-4.2664,0.2183,9.0885,-0.0356,0.0298,-0.1316,-2.3307486973204554,0.0,4.9657673835754395,-1.1668720245361328,-0.0,2.032792329788208,5.349969374924459,9.240651727962165e-15,0.23639169335365295,-1.6762703100787562,0.0,-0.0014429799048230052,0.3484659790992737,0.0,-0.000917492900043726,1.1580479145050049,-0.0003840441640932113,-0.010540233924984932
149.0,168.0,-4.2664,0.2183,9.0885,-0.0356,0.0298,-0.1316,-2.330776353875631,0.0,5.013803482055664,-1.1669045686721802,5.100026464788243e-05,2.047295093536377,5.349961209088125,2.5721687795461584e-18,0.21424971520900726,-1.6763060728656214,0.0,-0.008799398317933083,0.34845781326293945,0.0,-0.006489572115242481,1.1579431295394897,-0.00034572501317597926,-0.013176783919334412
149.0,168.0,-4.2664,0.2183,9.0885,-0.0356,0.0298,-0.1316,-2.330808301965231,0.0,4.949667453765869,-1.1668884754180908,6.956640572752804e-05,2.047865390777588,5.349941479950704,7.159726314463891e-22,0.22905218601226807,-1.6763184706317347,0.0,0.009667190723121166,0.3485018312931061,0.0,0.0033550180960446596,1.1580438613891602,-0.00030476381652988493,0.02258872613310814
149.0,168.0,-4.2664,0.2183,9.0885,-0.0356,0.0298,-0.1316,-2.3307844601073207,0.0,4.975802421569824,-1.1668528318405151,6.701116217300296e-05,2.023373603820801,5.349945533066549,3.052303410185247e-24,0.2237282395362854,-1.6762941519366663,0.0,0.007517383433878422,0.34844574332237244,0.0,0.0071847932413220406,1.158003330230713,-0.00027384923305362463,-0.027723215520381927
149.0,168.0,-4.2664,0.2183,9.0885,-0.0356,0.0298,-0.1316,-2.3307320080199183,0.0,4.967944145202637,-1.1668198108673096,8.305910159833729e-05,2.013467788696289,5.349933612137594,8.496198542170487e-28,0.23106732964515686,-1.6762869993792933,0.0,0.003456277307122946,0.3484497368335724,0.0,0.01053518895059824,1.158003330230713,-0.00023768513347022235,0.04245549440383911
149.0,168.0,-4.2664,0.2183,9.0885,-0.0356,0.0298,-0.1316,-2.3307320080199183,0.0,5.029326915740967,-1.1669127941131592,0.0001355684653390199,2.0021119117736816,5.349965560227194,2.36494793215946e-31,0.2390257716178894,-1.6763265768634241,0.0,0.012295683845877647,0.34848588705062866,0.0,0.0025429099332541227,1.1580597162246704,-0.00017496630607638508,-0.011788996867835522
149.0,168.0,-4.2664,0.2183,9.0885,-0.0356,0.0298,-0.1316,-2.3307725391783656,0.0,5.0124688148498535,-1.1668446063995361,0.00017624029715079814,2.023146390914917,5.349985706597128,1.0082144333670718e-33,0.22387605905532837,-1.6762827078448694,0.0,-0.00031308713369071484,0.34843823313713074,0.0,0.0013585502747446299,1.1580196619033813,-0.00019435722788330168,-0.004857932683080435
149.0,168.0,-4.2664,0.2183,9.0885,-0.0356,0.0298,-0.1316,-2.330736299554342,0.0,5.025206089019775,-1.1668486595153809,0.00019720847194548696,2.0357747077941895,5.349993574410238,2.8064024068632318e-37,0.2313382625579834,-1.6763108412372034,0.0,0.007472014985978603,0.34846213459968567,0.0,-0.0030450583435595036,1.1579831838607788,-0.0002016309736063704,0.007959333248436451
149.0,168.0,-4.2664,0.2183,9.0885,-0.0356,0.0298,-0.1316,-2.3306995830931605,0.0,4.990438461303711,-1.166812539100647,0.00021179027680773288,2.0373997688293457,5.349957453995504,7.811678419225125e-41,0.2237887978553772,-1.6763227621661585,0.0,0.018163640052080154,0.34849387407302856,0.0,-0.00864808913320303,1.1579675674438477,-0.0001943233364727348,-0.014868192374706268
149.0,168.0,-4.2664,0.2183,9.0885,-0.0356,0.0298,-0.1316,-2.330776353875631,0.0,5.02889347076416,-1.1668239831924438,0.00040112523129209876,2.076613426208496,5.3499255059059045,3.3350903450930646e-43,0.2153075635433197,-1.6763060728656214,0.0,-0.0020471042953431606,0.3484422266483307,0.0,0.010290920734405518,1.1579512357711792,-0.00026015430921688676,0.03629521653056145
149.0,168.0,-4.2664,0.2183,9.0885,-0.0356,0.0298,-0.1316,-2.330752035180563,0.0,5.0334672927856445,-1.166888952255249,0.00031848278013058007,2.101938009262085,5.34991734006957,0.0,0.22242197394371033,-1.6763303915606897,0.0,-0.0006235443870536983,0.3484978675842285,0.0,0.01773347333073616,1.1579636335372925,-0.0023243711329996586,-0.004580803215503693
149.0,168.0,-4.2664,0.2183,9.0885,-0.0356,0.0298,-0.1316,-2.3307281933226527,0.0,5.0113139152526855,-1.1668568849563599,0.0002626972855068743,2.034813165664673,5.349937367230215,0.0,0.2365526705980301,-1.6762469450580042,0.0,0.009899923577904701,0.3484739065170288,0.0,0.002876843558624387,1.157911777496338,-0.005008302163332701,-0.049424394965171814
149.0,168.0,-4.2664,0.2183,9.0885,-0.0356,0.0298,-0.1316,-2.330736299554342,0.0,4.999215602874756,-1.1668320894241333,0.00023522903211414814,2.0371904373168945,5.349969792156973,0.0,0.227716863155365,-1.6762946287738245,0.0,0.009453808888792992,0.34842222929000854,0.0,-0.002725765574723482,1.157904028892517,-0.006495571229606867,0.0168082844465971
149.0,168.0,-4.2664,0.2183,9.0885,-0.0356,0.0298,-0.1316,-2.3307563267149867,0.0,5.015009880065918,-1.1668528318405151,0.0002033398050116375,2.032180070877075,5.349941479950704,0.0,0.24000808596611023,-1.6762908140765589,0.0,0.007722373586148024,0.34845373034477234,0.0,0.008241284638643265,1.1578155755996704,-0.010047401301562786,-0.04760788753628731
145.0,172.0,-4.2634,-0.3434,9.0353,-0.0457,0.0313,-0.1168,-2.3307072124876917,0.0,4.965847969055176,-1.1667804718017578,0.00021485600154846907,2.0428473949432373,5.349893080979147,0.0,0.24169835448265076,-1.6762946287738245,0.0,0.01582338660955429,0.34845781326293945,0.0,0.006705288775265217,1.157763957977295,-0.009467324241995811,0.009514708071947098
145.0,172.0,-4.2634,-0.3434,9.0353,-0.0457,0.0313,-0.1168,-2.330736299554342,0.0,5.000610828399658,-1.166820764541626,0.00023218915157485753,2.0293378829956055,5.349961924343862,0.0,0.23778843879699707,-1.6762784163104456,0.0,0.012565860524773598,0.3484659790992737,0.0,0.014344381168484688,1.1578086614608765,-0.008750048466026783,-0.056738924235105515
145.0,172.0,-4.2634,-0.3434,9.0353,-0.0457,0.0313,-0.1168,-2.3307444057860316,0.0,5.043964385986328,-1.1668568849563599,0.00023896998027339578,2.0413970947265625,5.349881219654836,0.0,0.2299780249595642,-1.6762908140765589,0.0,0.0039382269605994225,0.34849387407302856,0.0,0.009254790842533112,1.1576359272003174,-0.008192881941795349,-0.01092374138534069
145.0,172.0,-4.2634,-0.3434,9.0353,-0.0457,0.0313,-0.1168,-2.3307444057860316,0.0,5.014089584350586,-1.1668568849563599,0.00023359480837825686,2.026097059249878,5.349889743119039,0.0,0.23239216208457947,-1.676258389149801,0.0,-0.006133507937192917,0.34845781326293945,0.0,0.013902065344154835,1.1576122045516968,-0.00788117665797472,-0.00824090838432312
145.0,172.0,-4.2634,-0.3434,9.0353,-0.0457,0.0313,-0.1168,-2.3307486973204554,0.0,4.997759819030762,-1.1667803525924683,0.0002518987166695297,2.037652015686035,5.349873471051016,0.0,0.24042758345603943,-1.676234547291891,0.0,0.017271429300308228,0.34844574332237244,0.0,0.0004491877043619752,1.1575963497161865,-0.008039616979658604,-0.04090583324432373
145.0,172.0,-4.2634,-0.3434,9.0353,-0.0457,0.0313,-0.1168,-2.3307844601073207,0.0,5.016203880310059,-1.1668444871902466,0.0005315716261975467,2.0261764526367188,5.349901306420126,0.0,0.23843175172805786,-1.6762908140765589,0.0,0.01062835194170475,0.34848982095718384,0.0,0.019903123378753662,1.157540202140808,-0.006766209378838539,-0.01520155742764473
145.0,172.0,-4.2634,-0.3434,9.0353,-0.0457,0.0313,-0.1168,-2.3307486973204554,0.0,5.022747993469238,-1.1668248176574707,0.0006586777162738144,1.9858037233352661,5.349893557816305,0.0,0.22424796223640442,-1.6762507597552698,0.0,0.015245679765939713,0.3485177159309387,0.0,0.01978025957942009,1.1575205326080322,-0.005525882355868816,-0.023371033370494843
145.0,172.0,-4.2634,-0.3434,9.0353,-0.0457,0.0313,-0.1168,-2.3307444057860316,0.0,4.978094100952148,-1.1668164730072021,0.0012528222287073731,2.0332746505737305,5.349865603237905,0.0,0.24469783902168274,-1.676262680684225,0.0,0.02276552841067314,0.3485058844089508,0.0,0.012547051534056664,1.157532811164856,-0.004091276321560144,-0.021827291697263718
145.0,172.0,-4.2634,-0.3434,9.0353,-0.0457,0.0313,-0.1168,-2.3307277164854945,0.0,4.97062873840332,-1.1667606830596924,0.0028282864950597286,2.004744291305542,5.349941837578573,0.0,0.24070358276367188,-1.676246468220846,0.0,0.012321634218096733,0.34848588705062866,0.0,0.007211208343505859,1.1575164794921875,-0.0024827742017805576,0.03680770844221115
145.0,172.0,-4.2634,-0.3434,9.0353,-0.0457,0.0313,-0.1168,-2.330736299554342,0.0,5.012475967407227,-1.1667368412017822,0.005370182450860739,2.060011148452759,5.349893557816305,-0.00014015918713994324,0.22645986080169678,-1.6762784163104456,0.0,0.01881127804517746,0.34847790002822876,0.0,0.02948000282049179,1.1574803590774536,-0.0015014143427833915,0.009161161258816719
145.0,172.0,-4.2634,-0.3434,9.0353,-0.0457,0.0313,-0.1168,-2.3307320080199183,0.0,5.009134292602539,-1.1667811870574951,0.006309309974312782,2.070784091949463,5.34989761093215,-0.00014495389768853784,0.23688773810863495,-1.67627460161318,0.0,0.020359640941023827,0.3484898507595062,0.0,0.024487148970365524,1.1574803590774536,-0.0009253403986804187,0.024629971012473106
145.0,172.0,-4.2634,-0.3434,9.0353,-0.0457,0.0313,-0.1168,-2.330736299554342,0.0,4.993371963500977,-1.166693091392517,0.006981757003813982,2.048692226409912,5.34992145279006,-0.00014558153634425253,0.23014342784881592,-1.6762507597552698,0.0,0.0034040792379528284,0.3485458791255951,0.0,0.016083167865872383,1.157468557357788,-0.0006771938060410321,0.04746051877737045
145.0,172.0,-4.2634,-0.3434,9.0353,-0.0457,0.0313,-0.1168,-2.3307444057860316,0.0,5.008213520050049,-1.1666693687438965,0.005900919903069735,2.100362777709961,5.3499135849769495,-0.0001571258471813053,0.2334083914756775,-1.6762226263629358,0.0,-0.004970635287463665,0.34845805168151855,1.4070797860199491e-08,0.021260064095258713,1.15745210647583,-0.0005457871011458337,-0.01738254725933075
145.0,172.0,-4.2634,-0.3434,9.0353,-0.0457,0.0313,-0.1168,-2.3307320080199183,0.0,5.042815208435059,-1.1666051149368286,0.004706055391579866,2.0867414474487305,5.349893557816305,-0.00016568828141316772,0.22631999850273132,-1.6763065497027796,0.0,0.008840402588248253,0.3485138416290283,3.916658664060435e-12,0.02593579888343811,1.1574602127075195,-0.00045097811380401254,0.018747786059975624
145.0,172.0,-4.2634,-0.3434,9.0353,-0.0457,0.0313,-0.1168,-2.330780645410055,0.0,4.98580265045166,-1.1666258573532104,0.0034922161139547825,2.0651798248291016,5.349913942604818,-0.00015966726641636342,0.22531269490718842,-1.6762784163104456,0.0,0.005298238713294268,0.3485259413719177,1.669733348439416e-14,0.032147783786058426,1.1574926376342773,-0.0003944893542211503,0.041646361351013184
145.0,172.0,-4.2634,-0.3434,9.0353,-0.0457,0.0313,-0.1168,-2.330723901788229,0.0,4.953509330749512,-1.1665730476379395,0.0030831967014819384,2.0677120685577393,5.3498737690742395,-0.00024176556325983256,0.23019400238990784,-1.676262680684225,0.0,-0.0011331684654578567,0.3485136926174164,4.647764080174177e-18,0.015309073962271214,1.1574645042419434,-0.000332095252815634,0.07174529135227203
145.0,172.0,-4.2634,-0.3434,9.0353,-0.0457,0.0313,-0.1168,-2.330764432946676,0.0,5.003007411956787,-1.1665337085723877,0.002762149553745985,2.0496652126312256,5.349865603237905,-0.0002500510890968144,0.23110969364643097,-1.67627460161318,0.0,0.0004162894329056144,0.34850993752479553,1.2937223929880477e-21,0.01193704642355442,1.157460331916809,-0.00032285149791277945,0.11099609732627869
145.0,172.0,-4.2634,-0.3434,9.0353,-0.0457,0.0313,-0.1168,-2.3307320080199183,0.0,4.986549377441406,-1.1665698289871216,0.0034563166555017233,2.1073577404022217,5.34985779502944,-0.00026682886527851224,0.21467605233192444,-1.676258389149801,0.0,0.001393927726894617,0.34849780797958374,5.51534152923624e-24,0.02962067723274231,1.1574645042419434,-0.00025508785620331764,0.08281726390123367
147.0,169.0,-4.3184,-0.0706,8.9803,-0.0234,0.0544,-0.119,-2.330736299554342,0.0,4.981632232666016,-1.166477918624878,0.0041040596552193165,2.0790514945983887,5.3498737690742395,-0.00027064330060966313,0.22348053753376007,-1.6762545744525355,0.0,-0.007016625255346298,0.34846988320350647,1.5352158624939168e-27,0.039501212537288666,1.1574525833129883,-0.00027987619978375733,0.09529664367437363
147.0,169.0,-4.3184,-0.0706,8.9803,-0.0234,0.0544,-0.119,-2.3307682476439417,-5.052064352639718e-06,5.0246734619140625,-1.166501522064209,0.004942785482853651,2.0652222633361816,5.349913942604818,-0.0003969840472564101,0.21771228313446045,-1.6762784163104456,0.0,-0.007928716018795967,0.34849780797958374,4.27332962667988e-31,0.03812555596232414,1.157500982284546,-0.0008616005070507526,0.1358630508184433
147.0,169.0,-4.3184,-0.0706,8.9803,-0.0234,0.0544,-0.119,-2.3307486973204554,-9.093537034488008e-10,4.957542896270752,-1.1664776802062988,0.005155249033123255,2.1185479164123535,5.3498819945152185,-0.0004118067445233464,0.21587759256362915,-1.6762903372394007,0.0,-0.004439160227775574,0.3484739363193512,1.82178738971812e-33,0.030450161546468735,1.1574246883392334,-0.0008377341437153518,0.0833093672990799
147.0,169.0,-4.3184,-0.0706,8.9803,-0.0234,0.0544,-0.119,-2.3307444057860316,-2.1959820436677144e-15,4.986783027648926,-1.1664258241653442,0.005880516488105059,2.054030418395996,5.349886107235708,-0.000489655474666506,0.1997862458229065,-1.6762703100787562,0.0,0.001029379665851593,0.34848588705062866,5.0710130532970364e-37,0.03823111206293106,1.157452940940857,-0.000801873451564461,0.10609328001737595
147.0,169.0,-4.3184,-0.0706,8.9803,-0.0234,0.0544,-0.119,-2.3307320080199183,-5.3030379434125546e-21,5.004456520080566,-1.1664382219314575,0.00625787116587162,2.058356285095215,5.34984182098464,-0.0005095149390399456,0.21842555701732635,-1.67627460161318,0.0,-0.009769054129719734,0.34853389859199524,1.4115419560990315e-40,0.027312669903039932,1.1574608087539673,-0.000562771107070148,0.12449105083942413
147.0,169.0,-4.3184,-0.0706,8.9803,-0.0234,0.0544,-0.119,-2.330719610253805,-9.545282034198924e-25,4.9802069664001465,-1.166361689567566,0.006266927812248468,2.1018476486206055,5.349870073586263,-0.000500006484799087,0.21627116203308105,-1.676286522542135,0.0,-0.0007722084410488605,0.34854182600975037,6.011570411953465e-43,0.041162021458148956,1.1574366092681885,-0.0004656660894397646,0.14384283125400543
147.0,169.0,-4.3184,-0.0706,8.9803,-0.0234,0.0544,-0.119,-2.3307320080199183,-2.3050735161432642e-30,4.981764793395996,-1.166390299797058,0.0076562585309147835,2.1021690368652344,5.349854099541464,-0.0005395342595875263,0.2132367342710495,-1.6762784163104456,0.0,-0.014409128576517105,0.3484818637371063,0.0,0.03083634190261364,1.1574164628982544,-0.0003699357039295137,0.1891806721687317
147.0,169.0,-4.3184,-0.0706,8.9803,-0.0234,0.0544,-0.119,-2.3307320080199183,-5.5664812496121994e-36,5.004341125488281,-1.1663103103637695,0.008294129744172096,2.0820794105529785,5.349753606110372,-0.0005615588743239641,0.19859163463115692,-1.6762903372394007,0.0,-0.01622455194592476,0.34855374693870544,0.0,0.02084982767701149,1.157408356666565,-0.00025644272682256997,0.1912258118391037
147.0,169.0,-4.3184,-0.0706,8.9803,-0.0234,0.0544,-0.119,-2.3307157955565394,-1.0019466188722804e-39,5.00004768371582,-1.1662378311157227,0.00939856842160225,2.1030216217041016,5.349818277149954,-0.000548242125660181,0.21413125097751617,-1.6762784163104456,0.0,-0.016470851376652718,0.3484857678413391,0.0,0.03733505681157112,1.1573725938796997,-0.0002296164893778041,0.1984328329563141
147.0,169.0,-4.3184,-0.0706,8.9803,-0.0234,0.0544,-0.119,-2.3307277164854945,-2.802596928649634e-45,4.969307899475098,-1.1661823987960815,0.010445683263242245,2.1347544193267822,5.349841880589285,-0.0006819653790444136,0.20294147729873657,-1.6762188116656702,0.0,-0.008612295612692833,0.3484937250614166,0.0,0.035655565559864044,1.157460331916809,-0.00015986377547960728,0.15422087907791138
147.0,169.0,-4.3184,-0.0706,8.9803,-0.0234,0.0544,-0.119,-2.330723901788229,0.0,4.9696526527404785,-1.1661182641983032,0.01229899562895298,2.1496763229370117,5.349818217545309,-0.0009793558856472373,0.19992010295391083,-1.6762664953814905,0.0,-0.019796159118413925,0.3485378623008728,0.0,0.03551177307963371,1.1574366092681885,-0.0001406339870300144,0.22019360959529877
147.0,169.0,-4.3184,-0.0706,8.9803,-0.0234,0.0544,-0.119,-2.330752512017721,0.0,4.951153755187988,-1.166078805923462,0.013396111316978931,2.107893466949463,5.349838065892019,-0.0011829481227323413,0.20237675309181213,-1.676234547291891,0.0,-0.018210701644420624,0.34848180413246155,0.0,0.021923601627349854,1.1574889421463013,-9.915267582982779e-05,0.14775237441062927
147.0,169.0,-4.3184,-0.0706,8.9803,-0.0234,0.0544,-0.119,-2.3307277164854945,0.0,4.93651008605957,-1.1660635471343994,0.015910202637314796,2.1359291076660156,5.349830555706777,-0.002106122672557831,0.19991236925125122,-1.6762703100787562,0.0,-0.006364190019667149,0.34848982095718384,0.0,0.027980536222457886,1.1574205160140991,-8.823936514090747e-05,0.2372392863035202
147.0,169.0,-4.3184,-0.0706,8.9803,-0.0234,0.0544,-0.119,-2.3307563267149867,0.0,4.970154762268066,-1.1658310890197754,0.019065026193857193,2.1393213272094727,5.349770355015554,-0.005713966209441423,0.19309833645820618,-1.6762068907367151,0.0,-0.022500071674585342,0.34850969910621643,0.0,0.028158176690340042,1.1574848890304565,6.231408042367548e-05,0.17769834399223328
147.0,169.0,-4.3184,-0.0706,8.9803,-0.0234,0.0544,-0.119,-2.3307320080199183,0.0,4.923985004425049,-1.1657674312591553,0.021418165415525436,2.1491687297821045,5.349718558579244,-0.010730667971074581,0.18435463309288025,-1.6762226263629358,0.0,-0.018749792128801346,0.3484658896923065,0.0,0.041950054466724396,1.1574562788009644,8.654320845380425e-05,0.22015637159347534
147.0,169.0,-4.3184,-0.0706,8.9803,-0.0234,0.0544,-0.119,-2.3307606182494105,0.0,4.979928016662598,-1.1656761169433594,0.025338444858789444,2.1243553161621094,5.3496307013328455,-0.012838663533329964,0.19342446327209473,-1.6762703100787562,0.0,-0.01430448330938816,0.3485497832298279,0.0,0.024891285225749016,1.1574645042419434,7.993330655153841e-05,0.2410438507795334
147.0,169.0,-4.3184,-0.0706,8.9803,-0.0234,0.0544,-0.119,-2.3307725391783656,0.0,4.955427646636963,-1.16550874710083,0.029835442081093788,2.210414409637451,5.349567162781515,-0.01144930999726057,0.18893367052078247,-1.6762107054339808,0.0,-0.003990632947534323,0.3485219478607178,0.0,0.02311011403799057,1.1574325561523438,7.34130444470793e-05,0.20300884544849396
144.0,162.0,-4.4327,0.3858,8.7021,-0.0331,0.0809,-0.1405,-2.3307277164854945,0.0,4.972650527954102,-1.1653163433074951,0.033164624124765396,2.157670497894287,5.349499153881826,-0.009153265506029129,0.19395586848258972,-1.6762741247760218,0.0,-0.020335938781499863,0.34851375222206116,5.4033484047977254e-05,0.053813688457012177,1.1575045585632324,6.96266652084887e-05,0.22684696316719055
144.0,162.0,-4.4327,0.3858,8.7021,-0.0331,0.0809,-0.1405,-2.3307563267149867,0.0,4.977879524230957,-1.1651254892349243,0.03888998553156853,2.1618781089782715,5.3494794247444055,-0.006548067554831505,0.2006564736366272,-1.6762545744525355,0.0,-0.021322103217244148,0.3485337793827057,6.889449286973104e-05,0.04041190445423126,1.1574848890304565,6.462689634645358e-05,0.205646812915802
144.0,162.0,-4.4327,0.3858,8.7021,-0.0331,0.0809,-0.1405,-2.3307444057860316,0.0,4.949991226196289,-1.1648541688919067,0.04508214071393013,2.1900711059570312,5.349391507893362,-0.003958509769290686,0.1887085735797882,-1.6762107054339808,0.0,-0.006078062579035759,0.34844985604286194,6.587374809896573e-05,0.04544449970126152,1.1574485301971436,4.023041401524097e-05,0.22273071110248566
144.0,162.0,-4.4327,0.3858,8.7021,-0.0331,0.0809,-0.1405,-2.3307606182494105,-3.430891956668347e-05,4.943807601928711,-1.1645545959472656,0.04915136471390724,2.161564826965332,5.349439549237051,-0.0024295898620039225,0.1929326355457306,-1.676234547291891,0.0,-0.02360411360859871,0.34855762124061584,6.310255412245169e-05,0.042579665780067444,1.1574406623840332,1.884054290712811e-05,0.20734721422195435
144.0,162.0,-4.4327,0.3858,8.7021,-0.0331,0.0809,-0.1405,-2.330780645410055,-3.375169762875885e-05,4.955774307250977,-1.164351463317871,0.05140698701143265,2.226685047149658,5.34941195228652,-0.0016520102508366108,0.18971577286720276,-1.6762068907367151,0.0,-0.013529796153306961,0.34848588705062866,6.138112075859681e-05,0.03522993624210358,1.1574809551239014,3.391231073734957e-09,0.196297749876976
144.0,162.0,-4.4327,0.3858,8.7021,-0.0331,0.0809,-0.1405,-2.330719610253805,-3.195432873326354e-05,4.964199066162109,-1.1640528440475464,0.05498139187693596,2.1534957885742188,5.349435615330496,-0.0010403887135908008,0.19580382108688354,-1.6762507597552698,0.0,-0.02834095060825348,0.3484223783016205,5.896807124372572e-05,0.038398344069719315,1.1574488878250122,8.18942454811327e-15,0.15840989351272583
144.0,162.0,-4.4327,0.3858,8.7021,-0.0331,0.0809,-0.1405,-2.3307444057860316,-1.577490365889389e-05,4.937255859375,-1.1636935472488403,0.05685577914118767,2.1921348571777344,5.349383818894186,-0.0008729357505217195,0.19273121654987335,-1.676234547291891,0.0,-0.021907202899456024,0.348513662815094,5.6737619161140174e-05,0.03631047159433365,1.1574046611785889,-0.0007128269062377512,0.1415109783411026
144.0,162.0,-4.4327,0.3858,8.7021,-0.0331,0.0809,-0.1405,-2.3307882748045863,-1.4674732483399566e-05,4.967479228973389,-1.163426160812378,0.057217709720134735,2.2151992321014404,5.349407899170675,-0.0007856013253331184,0.2130686342716217,-1.6762664953814905,0.0,-0.01292429119348526,0.348513662815094,5.534208321478218e-05,0.04202397167682648,1.1573766469955444,-0.0007471325807273388,0.1904774159193039
144.0,162.0,-4.4327,0.3858,8.7021,-0.0331,0.0809,-0.1405,-2.330764432946676,-1.3990296793053858e-05,4.977044105529785,-1.163131594657898,0.055563200265169144,2.1825225353240967,5.349371599942007,-0.000648289336822927,0.19991473853588104,-1.6762307325946253,0.0,-0.0034244307316839695,0.3485298752784729,5.337293987395242e-05,0.03448590636253357,1.157416582107544,-0.0006346415029838681,0.18638664484024048
144.0,162.0,-4.4327,0.3858,8.7021,-0.0331,0.0809,-0.1405,-2.33070768932485,-3.3784922776058934e-11,4.93489933013916,-1.1627483367919922,0.05576479434967041,2.2430076599121094,5.349375593453207,-0.0005612899549305439,0.2013394832611084,-1.6762426535235804,0.0,-0.002251693978905678,0.3484898507595062,5.1539085689000785e-05,0.044499486684799194,1.1574287414550781,-0.0005039909156039357,0.15779349207878113
144.0,162.0,-4.4327,0.3858,8.7021,-0.0331,0.0809,-0.1405,-2.330736299554342,-6.0811671656938425e-15,5.009756088256836,-1.1625328063964844,0.05831873416900635,2.2085680961608887,5.349416184216299,-0.0004892608849331737,0.17982260882854462,-1.676234547291891,0.0,-0.018877685070037842,0.3485378623008728,5.038494782638736e-05,0.03526545315980911,1.1574288606643677,-0.000400439283112064,0.13150176405906677
144.0,162.0,-4.4327,0.3858,8.7021,-0.0331,0.0809,-0.1405,-2.3307157955565394,-1.4685304152933294e-20,4.996692657470703,-1.1622135639190674,0.05987470597028732,2.2265493869781494,5.349416124611654,-0.000421060569351539,0.19838714599609375,-1.6762703100787562,0.0,-0.032465700060129166,0.348513662815094,4.1906199044206005e-07,0.05593249946832657,1.1574006080627441,-0.000502491369843483,0.13470593094825745
144.0,162.0,-4.4327,0.3858,8.7021,-0.0331,0.0809,-0.1405,-2.330756803552145,-3.546328513504134e-26,4.970172882080078,-1.1618177890777588,0.06461890041828156,2.2256882190704346,5.349392044335165,-0.00046412719530053437,0.1963825523853302,-1.6762784163104456,0.0,-0.005993615835905075,0.34845808148384094,1.1664744170580832e-10,0.018908724188804626,1.1574127674102783,-0.0017610026989132166,0.13709840178489685
144.0,162.0,-4.4327,0.3858,8.7021,-0.0331,0.0809,-0.1405,-2.330780645410055,-6.383266096490597e-30,4.996644973754883,-1.161550521850586,0.0672931894659996,2.228210687637329,5.349339890270986,-0.0010330728255212307,0.18587300181388855,-1.6762507597552698,0.0,-0.009239506907761097,0.3485298156738281,4.972864025946933e-13,0.03179056569933891,1.1574206352233887,-0.0020911095198243856,0.13829880952835083
144.0,162.0,-4.4327,0.3858,8.7021,-0.0331,0.0809,-0.1405,-2.3307320080199183,-1.541483483801475e-35,4.983268737792969,-1.16116201877594,0.07061125338077545,2.2174441814422607,5.3493361351783655,-0.002401880919933319,0.17373542487621307,-1.6761868635760706,0.0,-0.017311841249465942,0.34844595193862915,1.3842148896558732e-16,0.03794126212596893,1.1573326587677002,-0.002519734436646104,0.11273423582315445
144.0,162.0,-4.4327,0.3858,8.7021,-0.0331,0.0809,-0.1405,-2.3307439289488734,-3.7225493704788765e-41,4.966109275817871,-1.1606943607330322,0.07346133887767792,2.2630372047424316,5.349328386574545,-0.004457815550267696,0.19245702028274536,-1.6761792341815394,0.0,-0.012019378133118153,0.34855371713638306,3.8530124631508314e-20,0.030700821429491043,1.157336950302124,-0.003111995989456773,0.11226701736450195
144.0,162.0,-4.4327,0.3858,8.7021,-0.0331,0.0809,-0.1405,-2.3307844601073207,-7.006492321624085e-45,4.970359802246094,-1.1603665351867676,0.07514147460460663,2.2562005519866943,5.349256145745077,-0.006644870154559612,0.1911775767803192,-1.6761987845050257,0.0,-0.0071273609064519405,0.34850969910621643,1.6425996245535722e-22,0.036890529096126556,1.1572927236557007,-0.0038432928267866373,0.10030527412891388
138.0,154.0,-4.3687,0.055,8.9521,-0.0557,0.1115,-0.1472,-2.3307601414122523,0.0,5.00090217590332,-1.1599229574203491,0.07981695234775543,2.28861403465271,5.349216270237722,-0.009337526746094227,0.18013569712638855,-1.6761553923236292,0.0,0.005184870213270187,0.3484857976436615,4.572236265917029e-26,0.03570903465151787,1.1573090553283691,-0.005225337576121092,0.10819998383522034
138.0,154.0,-4.3687,0.055,8.9521,-0.0557,0.1115,-0.1472,-2.3307115040221156,0.0,4.936935901641846,-1.15945565700531,0.08468243479728699,2.24904727935791,5.349156784802236,-0.010189825668931007,0.1879791021347046,-1.6762068907367151,0.0,-0.01364351250231266,0.34856972098350525,1.2726988939177725e-29,0.03689916059374809,1.1572767496109009,-0.00682600075379014,0.09817434102296829
138.0,154.0,-4.3687,0.055,8.9521,-0.0557,0.1115,-0.1472,-2.3308125934996546,0.0,4.981074810028076,-1.1590434312820435,0.08806785941123962,2.275360345840454,5.3491288898284814,-0.01078345999121666,0.18201112747192383,-1.6762107054339808,0.0,-0.009592995047569275,0.3485337793827057,5.425715169158223e-32,0.03557701036334038,1.15724515914917,-0.007443997077643871,0.08990353345870972
138.0,154.0,-4.3687,0.055,8.9521,-0.0557,0.1115,-0.1472,-2.3307682476439417,0.0,5.031546115875244,-1.1585726737976074,0.08982433378696442,2.2703592777252197,5.349105584412374,-0.00956009142100811,0.18212935328483582,-1.6762188116656702,0.0,-0.0037361206486821175,0.3484818637371063,1.51026788119256e-35,0.037862926721572876,1.1572054624557495,-0.009321872144937515,0.08344434201717377
138.0,154.0,-4.3687,0.055,8.9521,-0.0557,0.1115,-0.1472,-2.3307882748045863,0.0,4.993222713470459,-1.1579368114471436,0.09110242873430252,2.275026559829712,5.349021065026083,-0.00725017162039876,0.1919560730457306,-1.6762307325946253,0.0,0.0026206769980490208,0.3485298454761505,4.203885583885201e-39,0.04434753209352493,1.1571452617645264,-0.01048369612544775,0.09225238114595413
138.0,154.0,-4.3687,0.055,8.9521,-0.0557,0.1115,-0.1472,-2.3307606182494105,0.0,4.988898277282715,-1.1576166152954102,0.09097635746002197,2.3020548820495605,5.348985659867086,-0.004931172356009483,0.18268166482448578,-1.6762388388263147,0.0,-0.0011658471776172519,0.34852585196495056,1.7921206060250086e-41,0.03698992729187012,1.1571012735366821,-0.011204788461327553,0.06435181945562363
138.0,154.0,-4.3687,0.055,8.9521,-0.0557,0.1115,-0.1472,-2.3307401142516078,-9.206017421092838e-05,5.004744529724121,-1.1570571660995483,0.09254048019647598,2.252763271331787,5.3490415690238855,-0.0020787592511624098,0.19500169157981873,-1.6762030760394495,0.0,0.001493458985351026,0.34850171208381653,5.605193857299268e-45,0.031177178025245667,1.1570136547088623,-0.012394116260111332,0.03933889418840408
138.0,154.0,-4.3687,0.055,8.9521,-0.0557,0.1115,-0.1472,-2.3307277164854945,-8.069466275628656e-05,5.029966831207275,-1.1565380096435547,0.09141619503498077,2.27659010887146,5.348985659867086,-0.0011123571312054992,0.19045057892799377,-1.6761749426471155,0.0,0.006245275028049946,0.34850969910621643,0.0,0.03285912424325943,1.1569452285766602,-0.013347907923161983,0.021688416600227356
138.0,154.0,-4.3687,0.055,8.9521,-0.0557,0.1115,-0.1472,-2.3307401142516078,-7.405480573652312e-05,4.972080230712891,-1.1560657024383545,0.09378877282142639,2.284041166305542,5.348953234940328,-0.0008491821936331689,0.18444478511810303,-1.6761987845050257,0.0,-0.0013265726156532764,0.3484898805618286,0.0,0.030644727870821953,1.156909704208374,-0.01425892859697342,0.05605641379952431
