ramyac6/ROB537/final_project/csv/all/good_206.csv
tof_0,tof_1,accelx,accely,accelz,gyrox,gyroy,gyroz,shoulder_lift_joint_position,shoulder_lift_joint_velocity,shoulder_lift_joint_effort,elbow_joint_position,elbow_joint_velocity,elbow_joint_effort,wrist_1_joint_position,wrist_1_joint_velocity,wrist_1_joint_effort,wrist_2_joint_position,wrist_2_joint_velocity,wrist_2_joint_effort,wrist_3_joint_position,wrist_3_joint_velocity,wrist_3_joint_effort,shoulder_pan_joint_position,shoulder_pan_joint_velocity,shoulder_pan_joint_effort
176.0,228.0,5.0477,-1.9418,7.5727,-0.0389,0.0287,-0.1231,-1.7241078815855921,0.0,2.822054862976074,-1.3637841939926147,-0.0,2.209923028945923,3.9979888635822753,0.0,0.2882700264453888,-1.527729336415426,-0.0,-0.013607528060674667,0.9956368207931519,0.0,-0.004522358998656273,0.9716625213623047,0.0,-0.0170121006667614
176.0,228.0,5.0477,-1.9418,7.5727,-0.0389,0.0287,-0.1231,-1.7240592441954554,0.0,2.8859033584594727,-1.3638485670089722,-0.0,2.1439907550811768,3.9980456072041015,0.0,0.29133716225624084,-1.5277450720416468,-0.0,-0.013174266554415226,0.9956368207931519,0.0,-0.0082925446331501,0.9716829657554626,0.0,0.015283804386854172
176.0,228.0,5.0477,-1.9418,7.5727,-0.0389,0.0287,-0.1231,-1.7240921459593714,0.0,2.86897873878479,-1.3638243675231934,-0.0,2.201941967010498,3.9980456072041015,0.0,0.2855623960494995,-1.5277131239520472,-0.0,-0.013360061682760715,0.9956961274147034,0.0,-0.004328388255089521,0.9717272520065308,0.0,0.013621553778648376
176.0,228.0,5.0477,-1.9418,7.5727,-0.0389,0.0287,-0.1231,-1.7240754566588343,0.0,2.845184803009033,-1.3637800216674805,-0.0,2.1468563079833984,3.9980055528828125,0.0,0.2718545198440552,-1.5277450720416468,-0.0,-0.0005442127585411072,0.9956640601158142,0.0,0.00877834390848875,0.9716584086418152,0.0,0.016441933810710907
176.0,228.0,5.0477,-1.9418,7.5727,-0.0389,0.0287,-0.1231,-1.7240354023375453,0.0,2.7968697547912598,-1.363840103149414,-0.0,2.195331335067749,3.9980174738117675,0.0,0.29822462797164917,-1.5277813116656702,-0.0,-0.020571306347846985,0.9956201910972595,0.0,-0.00828874483704567,0.9716989994049072,0.0,0.03038010001182556
176.0,228.0,5.0477,-1.9418,7.5727,-0.0389,0.0287,-0.1231,-1.7240430317320765,0.0,2.8554530143737793,-1.3638322353363037,-0.0,2.2234365940093994,3.9980098444172363,0.0,0.2903011441230774,-1.5277650992022913,-0.0,-0.02057555317878723,0.9956562519073486,0.0,0.010244341567158699,0.9716830253601074,0.0,0.0391647070646286
174.0,236.0,5.1206,-1.9119,7.4285,-0.036,0.0223,-0.1129,-1.7240916691222132,0.0,2.865398406982422,-1.3638362884521484,-0.0,2.1994707584381104,3.9980131822773437,0.0,0.2887352705001831,-1.5276969114886683,-0.0,-0.011601969599723816,0.9956803917884827,0.0,-0.007674064487218857,0.9717230200767517,0.0,0.018414389342069626
174.0,236.0,5.1206,-1.9119,7.4285,-0.036,0.0223,-0.1129,-1.724095960656637,0.0,2.8472132682800293,-1.3638403415679932,-0.0,2.224107265472412,3.9980012613483886,0.0,0.2876237630844116,-1.5277693907367151,-0.0,-0.015235344879329205,0.9956760406494141,0.0,-0.01117328554391861,0.971714973449707,0.0,0.00016251008491963148
174.0,236.0,5.1206,-1.9119,7.4285,-0.036,0.0223,-0.1129,-1.7240716419615687,0.0,2.892618417739868,-1.3637923002243042,-0.0,2.1857824325561523,3.997997446651123,0.0,0.28859943151474,-1.5277250448810022,-0.0,-0.032194238156080246,0.9956408739089966,0.0,0.001928324461914599,0.9716829657554626,0.0,0.0028624143451452255
174.0,236.0,5.1206,-1.9119,7.4285,-0.036,0.0223,-0.1129,-1.7240473232665003,0.0,2.849216938018799,-1.3638485670089722,-0.0,2.1810789108276367,3.9979888635822753,0.0,0.28836363554000854,-1.5277531782733362,-0.0,0.0038711184170097113,0.9956921339035034,0.0,0.005296678282320499,0.9716625809669495,0.0,0.015865294262766838
174.0,236.0,5.1206,-1.9119,7.4285,-0.036,0.0223,-0.1129,-1.724051137963766,0.0,2.874891519546509,-1.3638203144073486,-0.0,2.204772472381592,3.9979888635822753,0.0,0.2902793884277344,-1.5277007261859339,-0.0,-0.008991990238428116,0.995664119720459,0.0,-0.009243189357221127,0.9717272520065308,0.0,0.00034766318276524544
174.0,236.0,5.1206,-1.9119,7.4285,-0.036,0.0223,-0.1129,-1.7240554294981898,0.0,2.8617658615112305,-1.3638200759887695,-0.0,2.1864070892333984,3.9980498987385253,0.0,0.28452959656715393,-1.5277932325946253,-0.0,-0.006483039818704128,0.995700478553772,0.0,-0.016788018867373466,0.9717150330543518,0.0,0.017972970381379128
174.0,236.0,5.1206,-1.9119,7.4285,-0.036,0.0223,-0.1129,-1.7240673504271449,0.0,2.8682665824890137,-1.3638403415679932,-0.0,2.19273042678833,3.998037500972412,0.0,0.2879696190357208,-1.5277531782733362,-0.0,-0.01765645667910576,0.9956286549568176,0.0,-0.006489068269729614,0.971735417842865,0.0,0.04985705018043518
174.0,236.0,5.1206,-1.9119,7.4285,-0.036,0.0223,-0.1129,-1.7241078815855921,0.0,2.8450469970703125,-1.3637923002243042,-0.0,2.2144033908843994,3.9980012613483886,0.0,0.2835766673088074,-1.5277531782733362,-0.0,-0.010097438469529152,0.9956490397453308,0.0,-0.008536563254892826,0.9716989398002625,0.0,-0.008389290422201157
174.0,236.0,5.1206,-1.9119,7.4285,-0.036,0.0223,-0.1129,-1.724063058892721,0.0,2.869596481323242,-1.3638200759887695,-0.0,2.18418550491333,3.9980098444172363,0.0,0.28713053464889526,-1.5277488867389124,-0.0,-0.012245441786944866,0.9956246018409729,0.0,-0.0035420027561485767,0.9717190861701965,0.0,0.028815340250730515
174.0,236.0,5.1206,-1.9119,7.4285,-0.036,0.0223,-0.1129,-1.7240554294981898,0.0,2.8511040210723877,-1.3638161420822144,-0.0,2.2057180404663086,3.9980174738117675,0.0,0.2938816547393799,-1.5276888052569788,-0.0,-0.019556868821382523,0.9956368207931519,0.0,0.0004431973211467266,0.9716706871986389,0.0,0.029996875673532486
174.0,236.0,5.1206,-1.9119,7.4285,-0.036,0.0223,-0.1129,-1.724124094048971,0.0,2.8475823402404785,-1.3638325929641724,-0.0,2.1903340816497803,3.9980336862751464,0.0,0.29002809524536133,-1.52775746980776,-0.0,-0.012901274487376213,0.9956761598587036,0.0,-0.009579429402947426,0.9716626405715942,0.0,0.031191345304250717
174.0,236.0,5.1206,-1.9119,7.4285,-0.036,0.0223,-0.1129,-1.724063058892721,0.0,2.8540167808532715,-1.3638606071472168,-0.0,2.186457872390747,3.9980174738117675,0.0,0.28895166516304016,-1.5277894178973597,-0.0,-0.006143514066934586,0.9956759810447693,0.0,-0.00694222142919898,0.9716830253601074,0.0,0.02596679888665676
179.0,227.0,5.0608,-1.9406,7.5535,-0.0362,0.0286,-0.1193,-1.7240759334959925,0.0,2.826107978820801,-1.3638203144073486,-0.0,2.2036542892456055,3.997965021724365,0.0,0.2832886576652527,-1.5277894178973597,-0.0,-0.015069114975631237,0.9956163763999939,0.0,-0.009403157979249954,0.9717190861701965,0.0,-0.015069901943206787
179.0,227.0,5.0608,-1.9406,7.5535,-0.0362,0.0286,-0.1193,-1.7240430317320765,0.0,2.8621397018432617,-1.3638325929641724,-0.0,2.229902744293213,3.9980460840412597,0.0,0.28097692131996155,-1.52775746980776,-0.0,0.0008955094963312149,0.995688259601593,0.0,-0.013262441381812096,0.971714973449707,0.0,-0.0511111356317997
179.0,227.0,5.0608,-1.9406,7.5535,-0.0362,0.0286,-0.1193,-1.7241116962828578,0.0,2.8442161083221436,-1.3638122081756592,-0.0,2.211921215057373,3.998061342830322,0.0,0.293063759803772,-1.5277250448810022,-0.0,-0.019521821290254593,0.9956601858139038,0.0,0.001010283944196999,0.9716989994049072,0.0,0.043674029409885406
179.0,227.0,5.0608,-1.9406,7.5535,-0.0362,0.0286,-0.1193,-1.724063058892721,0.0,2.8585119247436523,-1.3638160228729248,-0.0,2.2043075561523438,3.9980460840412597,0.0,0.2796211540699005,-1.5277212301837366,-0.0,-0.008987043984234333,0.9956682324409485,0.0,0.0031711794435977936,0.9716543555259705,0.0,0.04046954959630966
179.0,227.0,5.0608,-1.9406,7.5535,-0.0362,0.0286,-0.1193,-1.7240997753539027,0.0,2.849996566772461,-1.3637964725494385,-0.0,2.1918935775756836,3.9980098444172363,0.0,0.2872297167778015,-1.527785603200094,-0.0,-0.00014003226533532143,0.9956601858139038,0.0,-0.006809904705733061,0.9717313051223755,0.0,-0.030715228989720345
179.0,227.0,5.0608,-1.9406,7.5535,-0.0362,0.0286,-0.1193,-1.7240554294981898,0.0,2.8210744857788086,-1.3638800382614136,-0.0,2.1873586177825928,3.9979612070270996,0.0,0.29068243503570557,-1.5277650992022913,-0.0,-0.007370944134891033,0.9956201910972595,0.0,0.0001431475393474102,0.9717026948928833,0.0,-0.05440562963485718
179.0,227.0,5.0608,-1.9406,7.5535,-0.0362,0.0286,-0.1193,-1.724063058892721,0.0,2.822160482406616,-1.3637882471084595,-0.0,2.1983368396759033,3.9980012613483886,0.0,0.2901141047477722,-1.5278013388263147,-0.0,0.0014141553547233343,0.9956921339035034,0.0,-0.015576820820569992,0.971674919128418,0.0,-0.005477678030729294
179.0,227.0,5.0608,-1.9406,7.5535,-0.0362,0.0286,-0.1193,-1.7240797481932582,0.0,2.8569765090942383,-1.3638523817062378,-0.0,2.2211713790893555,3.997980757350586,0.0,0.2793128490447998,-1.5277212301837366,-0.0,0.0007417257875204086,0.9956281781196594,0.0,-0.011601172387599945,0.9716866612434387,0.0,-0.0017432472668588161
179.0,227.0,5.0608,-1.9406,7.5535,-0.0362,0.0286,-0.1193,-1.7240430317320765,0.0,2.8658156394958496,-1.3638285398483276,-0.0,2.1845450401306152,3.9980179506489257,0.0,0.2861814796924591,-1.5277732054339808,-0.0,-0.015148916281759739,0.995664119720459,0.0,-0.006905451416969299,0.9716830253601074,0.0,-0.024903234094381332
179.0,227.0,5.0608,-1.9406,7.5535,-0.0362,0.0286,-0.1193,-1.7240797481932582,0.0,2.8537497520446777,-1.3638160228729248,-0.0,2.2251830101013184,3.998037500972412,0.0,0.27022162079811096,-1.5277774969684046,-0.0,-0.028620166704058647,0.9956722259521484,0.0,0.009125255048274994,0.9716989994049072,0.0,-0.0117537472397089
179.0,227.0,5.0608,-1.9406,7.5535,-0.0362,0.0286,-0.1193,-1.7240549526610316,0.0,2.8589084148406982,-1.36381196975708,-0.0,2.1899359226226807,3.9980012613483886,0.0,0.29114535450935364,-1.5277007261859339,-0.0,-0.00575263099744916,0.9956242442131042,0.0,-0.011048343032598495,0.9716912508010864,0.0,-0.00717408861964941
174.0,236.0,5.0967,-1.9537,7.5218,-0.0437,0.0254,-0.1153,-1.7240549526610316,0.0,2.8677897453308105,-1.363803744316101,-0.0,2.2025763988494873,3.9979850488850097,0.0,0.286277174949646,-1.527740780507223,-0.0,-0.01238023117184639,0.9957042336463928,0.0,-0.012336282059550285,0.9716747403144836,0.0,-8.243182674050331e-05
174.0,236.0,5.0967,-1.9537,7.5218,-0.0437,0.0254,-0.1153,-1.7240797481932582,0.0,2.85050106048584,-1.3638243675231934,-0.0,2.193643569946289,3.997997446651123,0.0,0.2917358875274658,-1.5277045408831995,-0.0,-0.018643096089363098,0.9956803917884827,0.0,-0.004079642705619335,0.971743643283844,0.0,0.007608792744576931
174.0,236.0,5.0967,-1.9537,7.5218,-0.0437,0.0254,-0.1153,-1.724063058892721,0.0,2.8167507648468018,-1.3638362884521484,-0.0,2.2290611267089844,3.9980498987385253,0.0,0.2907790541648865,-1.52775746980776,-0.0,-0.011080538854002953,0.9956041574478149,0.0,-0.012369967997074127,0.9716789126396179,0.0,-0.013813135214149952
174.0,236.0,5.0967,-1.9537,7.5218,-0.0437,0.0254,-0.1153,-1.7240878544249476,0.0,2.8640646934509277,-1.3638322353363037,-0.0,2.172285556793213,3.9980217653461914,0.0,0.27146926522254944,-1.5277650992022913,-0.0,-0.01709594763815403,0.9956480860710144,0.0,-0.0023035143967717886,0.971714973449707,0.0,-0.02035164274275303
174.0,236.0,5.0967,-1.9537,7.5218,-0.0437,0.0254,-0.1153,-1.7240797481932582,0.0,2.8380751609802246,-1.3638604879379272,-0.0,2.181833267211914,3.9980055528828125,0.0,0.2767655551433563,-1.5277255217181605,-0.0,-0.005004295613616705,0.9957361817359924,0.0,-0.0010308444034308195,0.9717395305633545,0.0,0.027045544236898422
174.0,236.0,5.0967,-1.9537,7.5218,-0.0437,0.0254,-0.1153,-1.7240673504271449,0.0,2.868596315383911,-1.3638677597045898,-0.0,2.211259365081787,3.9980131822773437,0.0,0.28045353293418884,-1.5277364889727991,-0.0,-0.014218123629689217,0.9956960678100586,0.0,0.0033844823483377695,0.9716870784759521,0.0,-0.002232741564512253
174.0,236.0,5.0967,-1.9537,7.5218,-0.0437,0.0254,-0.1153,-1.724112173120016,0.0,2.851154327392578,-1.3638482093811035,-0.0,2.2087717056274414,3.9980055528828125,0.0,0.27326324582099915,-1.5277975241290491,-0.0,-0.027990231290459633,0.9957321882247925,0.0,0.0030135882552713156,0.9716907739639282,0.0,-0.038135379552841187
174.0,236.0,5.0967,-1.9537,7.5218,-0.0437,0.0254,-0.1153,-1.7241040668883265,0.0,2.871954917907715,-1.36381196975708,-0.0,2.2040553092956543,3.998037500972412,0.0,0.28653666377067566,-1.5277732054339808,-0.0,-0.010938332416117191,0.9956286549568176,0.0,-0.011904863640666008,0.971714973449707,0.0,-0.0064468891359865665
174.0,236.0,5.0967,-1.9537,7.5218,-0.0437,0.0254,-0.1153,-1.724095960656637,0.0,2.8666131496429443,-1.3637996912002563,-0.0,2.200483798980713,3.997969313258789,0.0,0.28250616788864136,-1.5277488867389124,-0.0,-0.011875255964696407,0.9956120252609253,0.0,-0.006520593538880348,0.971714973449707,0.0,0.02381828799843788
174.0,236.0,5.0967,-1.9537,7.5218,-0.0437,0.0254,-0.1153,-1.724063058892721,0.0,2.8323216438293457,-1.363820195198059,-0.0,2.1763529777526855,3.9980174738117675,0.0,0.28212183713912964,-1.5277326742755335,-0.0,-0.014209412969648838,0.9956760406494141,0.0,-0.011571020819246769,0.9716747403144836,0.0,-0.04513559490442276
174.0,236.0,5.0967,-1.9537,7.5218,-0.0437,0.0254,-0.1153,-1.7240430317320765,0.0,2.8169541358947754,-1.3638077974319458,-0.0,2.1901469230651855,3.9980293947407226,0.0,0.28830307722091675,-1.5277488867389124,-0.0,-0.005822864361107349,0.9956364631652832,0.0,-0.01399293728172779,0.9716989994049072,0.0,-0.006267951801419258
176.0,240.0,4.9041,-2.0369,7.8239,-0.036,0.0223,-0.1222,-1.7240797481932582,0.0,2.830331325531006,-1.3637956380844116,-0.0,2.197075366973877,3.9980131822773437,0.0,0.2978036403656006,-1.5277851263629358,-0.0,-0.017179973423480988,0.9956399202346802,0.0,-0.002183256670832634,0.9717313051223755,0.0,0.02482830360531807
176.0,240.0,4.9041,-2.0369,7.8239,-0.036,0.0223,-0.1222,-1.724084039727682,0.0,2.8417763710021973,-1.3638325929641724,-0.0,2.1492533683776855,3.9980174738117675,0.0,0.28942129015922546,-1.5277732054339808,-0.0,-0.002946933265775442,0.9957079887390137,0.0,-0.01875457353889942,0.9717109203338623,0.0,-0.016255855560302734
176.0,240.0,4.9041,-2.0369,7.8239,-0.036,0.0223,-0.1222,-1.7240673504271449,0.0,2.8185904026031494,-1.363828182220459,-0.0,2.1969478130340576,3.9979850488850097,0.0,0.2788577079772949,-1.5277608076678675,-0.0,-0.010351262986660004,0.9956600069999695,0.0,-0.006558008957654238,0.9717232584953308,0.0,0.03002876788377762
176.0,240.0,4.9041,-2.0369,7.8239,-0.036,0.0223,-0.1222,-1.7240554294981898,0.0,2.8417985439300537,-1.3638077974319458,-0.0,2.217998504638672,3.9979612070270996,0.0,0.29679974913597107,-1.5277283827411097,-0.0,-0.014856496825814247,0.9956722259521484,0.0,-0.004795513581484556,0.9717232584953308,0.0,0.03247526288032532
176.0,240.0,4.9041,-2.0369,7.8239,-0.036,0.0223,-0.1222,-1.724006792108053,0.0,2.831109046936035,-1.3638242483139038,-0.0,2.2172694206237793,3.997997446651123,0.0,0.2778487205505371,-1.5278051535235804,-0.0,-0.013877223245799541,0.9956681728363037,0.0,-0.00346518587321043,0.971706748008728,0.0,0.0025863340124487877
176.0,240.0,4.9041,-2.0369,7.8239,-0.036,0.0223,-0.1222,-1.7240797481932582,0.0,2.872231960296631,-1.363796353340149,-0.0,2.1988048553466797,3.997969313258789,0.0,0.2862420976161957,-1.5277326742755335,-0.0,-0.0013751196675002575,0.9956201910972595,0.0,-0.0179918073117733,0.971706748008728,0.0,0.008612306788563728
176.0,240.0,4.9041,-2.0369,7.8239,-0.036,0.0223,-0.1222,-1.7240797481932582,0.0,2.8374691009521484,-1.3638160228729248,-0.0,2.200930118560791,3.9980456072041015,0.0,0.28606095910072327,-1.5277693907367151,-0.0,-0.008284627459943295,0.9956601858139038,0.0,0.004232375882565975,0.97165846824646,0.0,0.035732172429561615
176.0,240.0,4.9041,-2.0369,7.8239,-0.036,0.0223,-0.1222,-1.724051137963766,0.0,2.8524913787841797,-1.3638445138931274,-0.0,2.1511383056640625,3.9980336862751464,0.0,0.29067620635032654,-1.5277488867389124,-0.0,-0.016725659370422363,0.9957001805305481,0.0,-0.004514817148447037,0.9717313051223755,0.0,-0.015074396505951881
176.0,240.0,4.9041,-2.0369,7.8239,-0.036,0.0223,-0.1222,-1.7240878544249476,0.0,2.844287872314453,-1.36381196975708,-0.0,2.1891727447509766,3.998029871577881,0.0,0.29087430238723755,-1.5277250448810022,-0.0,-0.002778582274913788,0.995664119720459,0.0,-0.00747631024569273,0.9716870784759521,0.0,0.002400250406935811
176.0,240.0,4.9041,-2.0369,7.8239,-0.036,0.0223,-0.1222,-1.724084039727682,0.0,2.8221917152404785,-1.36378812789917,-0.0,2.2129688262939453,3.998061342830322,0.0,0.2907574772834778,-1.527740780507223,-0.0,-0.014969775453209877,0.9956480860710144,0.0,0.00366475572809577,0.9716789722442627,0.0,-0.01451955921947956
176.0,240.0,4.9041,-2.0369,7.8239,-0.036,0.0223,-0.1222,-1.7240997753539027,0.0,2.8776302337646484,-1.3638882637023926,-0.0,2.206820249557495,3.9979726511188964,0.0,0.2785560190677643,-1.5277488867389124,-0.0,-0.030974991619586945,0.9956681728363037,0.0,-0.015070674940943718,0.9717273116111755,0.0,-0.03631226718425751
176.0,240.0,4.9041,-2.0369,7.8239,-0.036,0.0223,-0.1222,-1.7240554294981898,0.0,2.9140706062316895,-1.3638325929641724,-0.0,2.202981948852539,3.9980217653461914,0.0,0.2799661159515381,-1.5277612845050257,-0.0,-0.01184224896132946,0.9956204891204834,0.0,-0.005743634421378374,0.9716948866844177,0.0,0.002125905128195882
176.0,231.0,4.9872,-1.9143,7.5781,-0.038,0.026,-0.124,-1.7241040668883265,0.0,2.8159635066986084,-1.3638403415679932,-0.0,2.2115373611450195,3.9980055528828125,0.0,0.2781767249107361,-1.5277212301837366,-0.0,0.0031043384224176407,0.995664119720459,0.0,0.002992216031998396,0.971703052520752,0.0,0.010165169835090637
176.0,231.0,4.9872,-1.9143,7.5781,-0.038,0.026,-0.124,-1.7241317234435023,0.0,2.8289976119995117,-1.363828182220459,-0.0,2.222399950027466,3.997973604793213,0.0,0.2966933846473694,-1.5277364889727991,-0.0,0.0064415838569402695,0.9956921935081482,0.0,-0.017174717038869858,0.9717190861701965,0.0,0.0406222864985466
176.0,231.0,4.9872,-1.9143,7.5781,-0.038,0.026,-0.124,-1.724039217034811,0.0,2.8901853561401367,-1.3638122081756592,-0.0,2.1825850009918213,3.998041792506836,0.0,0.28403526544570923,-1.5277450720416468,-0.0,-0.023687049746513367,0.9956681728363037,0.0,0.0036737145856022835,0.971714973449707,0.0,-0.012750618159770966
176.0,231.0,4.9872,-1.9143,7.5781,-0.038,0.026,-0.124,-1.724084039727682,0.0,2.888984203338623,-1.36381196975708,-0.0,2.1947150230407715,3.9980012613483886,0.0,0.2954288721084595,-1.527768913899557,-0.0,-0.00947476178407669,0.9956722259521484,0.0,-0.009762637317180634,0.9716306328773499,0.0,0.021109290421009064
176.0,231.0,4.9872,-1.9143,7.5781,-0.038,0.026,-0.124,-1.7240673504271449,0.0,2.811002731323242,-1.3638200759887695,-0.0,2.2094995975494385,3.9980012613483886,0.0,0.2792188227176666,-1.5277612845050257,-0.0,-0.014736024662852287,0.9956409335136414,0.0,-0.0077983420342206955,0.9716949462890625,0.0,-0.016038842499256134
176.0,231.0,4.9872,-1.9143,7.5781,-0.038,0.026,-0.124,-1.7240716419615687,0.0,2.809971809387207,-1.3638523817062378,-0.0,2.2059733867645264,3.998054190272949,0.0,0.2790645956993103,-1.5277250448810022,-0.0,-0.004542262759059668,0.9956521987915039,0.0,-0.0072420816868543625,0.9717072248458862,0.0,-0.03265306353569031
176.0,231.0,4.9872,-1.9143,7.5781,-0.038,0.026,-0.124,-1.724063058892721,0.0,2.9002797603607178,-1.36381196975708,-0.0,2.195558547973633,3.998013659114502,0.0,0.29812538623809814,-1.527729336415426,-0.0,-0.009745730087161064,0.995600163936615,0.0,-0.0008641812019050121,0.9717513918876648,0.0,-0.03895796835422516
176.0,231.0,4.9872,-1.9143,7.5781,-0.038,0.026,-0.124,-1.7240592441954554,0.0,2.8588638305664062,-1.3638604879379272,-0.0,2.217918634414673,3.9980098444172363,0.0,0.2907060384750366,-1.5277088324176233,-0.0,-0.011765541508793831,0.995639979839325,0.0,0.000135025882627815,0.9716989994049072,0.0,-0.016211338341236115
176.0,231.0,4.9872,-1.9143,7.5781,-0.038,0.026,-0.124,-1.724051137963766,0.0,2.8375840187072754,-1.36378014087677,-0.0,2.140049695968628,3.997980757350586,0.0,0.2769830822944641,-1.5277531782733362,-0.0,0.004744283389300108,0.9956201910972595,0.0,-0.0011665470665320754,0.9716789126396179,0.0,0.031298257410526276
176.0,231.0,4.9872,-1.9143,7.5781,-0.038,0.026,-0.124,-1.724051137963766,0.0,2.8453946113586426,-1.3638445138931274,-0.0,2.1739330291748047,3.9980336862751464,0.0,0.2950018048286438,-1.527740780507223,-0.0,0.0018528541550040245,0.9956681728363037,0.0,-0.00455068051815033,0.9717190861701965,0.0,-0.04254390299320221
176.0,231.0,4.9872,-1.9143,7.5781,-0.038,0.026,-0.124,-1.7240473232665003,0.0,2.8433780670166016,-1.3638077974319458,-0.0,2.182264804840088,3.998037500972412,0.0,0.2867671549320221,-1.52775746980776,-0.0,0.003688700031489134,0.9956761598587036,0.0,0.002699753036722541,0.9717072248458862,0.0,-0.017211301252245903
172.0,231.0,4.9232,-1.9741,7.7019,-0.0444,0.0315,-0.1235,-1.7240311108031214,0.0,2.8321990966796875,-1.3638759851455688,-0.0,2.1877329349517822,3.9980098444172363,0.0,0.2891095280647278,-1.527740780507223,-0.0,-0.0076125916093587875,0.9956800937652588,0.0,-0.003213391173630953,0.9716949462890625,0.0,0.009341808035969734
172.0,231.0,4.9232,-1.9741,7.7019,-0.0444,0.0315,-0.1235,-1.7240473232665003,0.0,2.843172550201416,-1.3638445138931274,-0.0,2.1946592330932617,3.998041792506836,0.0,0.2830583155155182,-1.527729336415426,-0.0,-0.0075456080958247185,0.9957361817359924,0.0,-0.005593026988208294,0.9716387391090393,0.0,0.03107055462896824
172.0,231.0,4.9232,-1.9741,7.7019,-0.0444,0.0315,-0.1235,-1.7240716419615687,0.0,2.878537654876709,-1.363803744316101,-0.0,2.175410509109497,3.9980694490620117,0.0,0.2877846360206604,-1.5277212301837366,-0.0,-0.0005894406931474805,0.9956881999969482,0.0,0.002805530559271574,0.9716789126396179,0.0,0.013800392858684063
172.0,231.0,4.9232,-1.9741,7.7019,-0.0444,0.0315,-0.1235,-1.7240234814085902,0.0,2.849883794784546,-1.3638445138931274,-0.0,2.239891290664673,3.998025580043457,0.0,0.28104808926582336,-1.5277732054339808,-0.0,-0.011875029653310776,0.9956921339035034,0.0,0.0028803800232708454,0.971703052520752,0.0,0.002182798460125923
172.0,231.0,4.9232,-1.9741,7.7019,-0.0444,0.0315,-0.1235,-1.724095960656637,0.0,2.8456356525421143,-1.3637923002243042,-0.0,2.1708312034606934,3.997980757350586,0.0,0.2808871269226074,-1.5276926199542444,-0.0,-0.006685195956379175,0.9956760406494141,0.0,0.00010419078171253204,0.9716912508010864,0.0,-0.01143697276711464
172.0,231.0,4.9232,-1.9741,7.7019,-0.0444,0.0315,-0.1235,-1.7240592441954554,0.0,2.8760390281677246,-1.3637923002243042,-0.0,2.2228903770446777,3.9980055528828125,0.0,0.28195205330848694,-1.5277612845050257,-0.0,-0.007505122572183609,0.9956681728363037,0.0,-0.004767286125570536,0.9716907739639282,0.0,-0.01317371241748333
172.0,231.0,4.9232,-1.9741,7.7019,-0.0444,0.0315,-0.1235,-1.7240754566588343,0.0,2.862760543823242,-1.3637923002243042,-0.0,2.1821699142456055,3.9979888635822753,0.0,0.28910109400749207,-1.5277531782733362,-0.0,-0.01918645016849041,0.9957240223884583,0.0,-0.0074255866929888725,0.9717109203338623,0.0,-0.03144890442490578
172.0,231.0,4.9232,-1.9741,7.7019,-0.0444,0.0315,-0.1235,-1.7240272961058558,0.0,2.832470178604126,-1.3638285398483276,-0.0,2.198329448699951,3.998029871577881,0.0,0.28027722239494324,-1.5277488867389124,-0.0,-0.0002867337316274643,0.9956841468811035,0.0,-0.007092425599694252,0.9716543555259705,0.0,-0.001921350136399269
172.0,231.0,4.9232,-1.9741,7.7019,-0.0444,0.0315,-0.1235,-1.7240592441954554,0.0,2.8155527114868164,-1.3638161420822144,-0.0,2.187098503112793,3.998025580043457,0.0,0.28307944536209106,-1.527729336415426,-0.0,-0.010640778578817844,0.9956761002540588,0.0,-0.0006558021996170282,0.9717230796813965,0.0,-0.01733904331922531
172.0,231.0,4.9232,-1.9741,7.7019,-0.0444,0.0315,-0.1235,-1.724023004571432,0.0,2.8070242404937744,-1.3638522624969482,-0.0,2.2024831771850586,3.997997446651123,0.0,0.2830555737018585,-1.527740780507223,-0.0,-0.006980061996728182,0.9957001209259033,0.0,-0.003569005522876978,0.9717109203338623,0.0,0.018529003486037254
172.0,231.0,4.9232,-1.9741,7.7019,-0.0444,0.0315,-0.1235,-1.7240430317320765,0.0,2.895808219909668,-1.3638160228729248,-0.0,2.2348172664642334,3.9980336862751464,0.0,0.2872902750968933,-1.52775746980776,-0.0,-0.0003885009791702032,0.9956841468811035,0.0,-0.0003464808105491102,0.971714973449707,0.0,0.03857552260160446
178.0,221.0,4.8748,-2.0088,7.858,-0.0287,0.0067,-0.1141,-1.7240272961058558,0.0,2.800786018371582,-1.363803744316101,-0.0,2.184283494949341,3.9980174738117675,0.0,0.29810357093811035,-1.52775746980776,-0.0,-0.006455310620367527,0.9956519603729248,0.0,-0.009040075354278088,0.9716429114341736,0.0,0.009455705061554909
178.0,221.0,4.8748,-2.0088,7.858,-0.0287,0.0067,-0.1141,-1.724095960656637,0.0,2.8250722885131836,-1.3638718128204346,-0.0,2.223433256149292,3.997980757350586,0.0,0.2925149202346802,-1.5277450720416468,-0.0,-0.013312015682458878,0.9956521987915039,0.0,-0.01972683146595955,0.9716625809669495,0.0,-0.023308347910642624
178.0,221.0,4.8748,-2.0088,7.858,-0.0287,0.0067,-0.1141,-1.7240754566588343,0.0,2.849846839904785,-1.3638203144073486,-0.0,2.1664204597473145,3.997993155116699,0.0,0.28744199872016907,-1.5277531782733362,-0.0,-0.016690194606781006,0.9956681728363037,0.0,-0.02108795754611492,0.9716912508010864,0.0,-0.011863529682159424
178.0,221.0,4.8748,-2.0088,7.858,-0.0287,0.0067,-0.1141,-1.724084039727682,0.0,2.8359851837158203,-1.3637964725494385,-0.0,2.1888251304626465,3.998041792506836,0.0,0.28743380308151245,-1.5277250448810022,-0.0,-0.014756349846720695,0.9956800937652588,0.0,-0.0016570222796872258,0.9717109203338623,0.0,0.02310851588845253
178.0,221.0,4.8748,-2.0088,7.858,-0.0287,0.0067,-0.1141,-1.724084039727682,0.0,2.8764357566833496,-1.3637882471084595,-0.0,2.1704814434051514,3.998025580043457,0.0,0.29060330986976624,-1.5277732054339808,-0.0,-0.016636190935969353,0.9956920742988586,0.0,0.0005966626922599971,0.9716907739639282,0.0,0.027972077950835228
178.0,221.0,4.8748,-2.0088,7.858,-0.0287,0.0067,-0.1141,-1.724063058892721,0.0,2.8903636932373047,-1.3638362884521484,-0.0,2.228105068206787,3.9980460840412597,0.0,0.2864885926246643,-1.5277326742755335,-0.0,-0.009471597149968147,0.9957120418548584,0.0,-0.006906291004270315,0.9717072248458862,0.0,-0.05107416957616806
178.0,221.0,4.8748,-2.0088,7.858,-0.0287,0.0067,-0.1141,-1.724095960656637,0.0,2.8356399536132812,-1.3638362884521484,-0.0,2.210421323776245,3.9979850488850097,0.0,0.29543590545654297,-1.5277326742755335,-0.0,-0.006825187709182501,0.995664119720459,0.0,-0.011663520708680153,0.9716829657554626,0.0,0.010248307138681412
178.0,221.0,4.8748,-2.0088,7.858,-0.0287,0.0067,-0.1141,-1.7240997753539027,0.0,2.8204526901245117,-1.3638243675231934,-0.0,2.1568095684051514,3.997997446651123,0.0,0.27989134192466736,-1.5277488867389124,-0.0,-0.013992780819535255,0.9957201480865479,0.0,-0.008121876046061516,0.9716830253601074,0.0,0.009248966351151466
178.0,221.0,4.8748,-2.0088,7.858,-0.0287,0.0067,-0.1141,-1.7240716419615687,0.0,2.838107109069824,-1.363860845565796,-0.0,2.2076354026794434,3.9980098444172363,0.0,0.27909010648727417,-1.527740780507223,-0.0,-0.002091882983222604,0.9956368803977966,0.0,0.0025326483882963657,0.971703052520752,0.0,-0.027370797470211983
178.0,221.0,4.8748,-2.0088,7.858,-0.0287,0.0067,-0.1141,-1.724084039727682,0.0,2.8757081031799316,-1.3637921810150146,-0.0,2.1901369094848633,3.997993155116699,0.0,0.28655463457107544,-1.5277212301837366,-0.0,-0.026834756135940552,0.9956440925598145,0.0,-0.004509767517447472,0.971714973449707,0.0,-0.008421270176768303
178.0,221.0,4.8748,-2.0088,7.858,-0.0287,0.0067,-0.1141,-1.724039217034811,0.0,2.8508710861206055,-1.3638325929641724,-0.0,2.2552223205566406,3.9979850488850097,0.0,0.28533780574798584,-1.5277612845050257,-0.0,-0.008023574016988277,0.995664119720459,0.0,0.0077623045071959496,0.971674919128418,0.0,-0.022781819105148315
178.0,221.0,4.8748,-2.0088,7.858,-0.0287,0.0067,-0.1141,-1.7241236172118128,0.0,2.8184986114501953,-1.3637964725494385,-0.0,2.170142650604248,3.998029871577881,0.0,0.2858675718307495,-1.5277212301837366,-0.0,-0.024741047993302345,0.9956722259521484,0.0,-0.01440376602113247,0.9716989994049072,0.0,-0.01246201153844595
177.0,231.0,5.0016,-1.9962,7.4507,-0.0359,0.0261,-0.1203,-1.7240711651244105,0.0,2.8598248958587646,-1.363804578781128,-0.0,2.1984755992889404,3.9980293947407226,0.0,0.2817802131175995,-1.5277250448810022,-0.0,-0.010988958179950714,0.9956681728363037,0.0,-0.00035524507984519005,0.9716989994049072,0.0,0.013291077688336372
177.0,231.0,5.0016,-1.9962,7.4507,-0.0359,0.0261,-0.1203,-1.7240354023375453,0.0,2.8819658756256104,-1.363856315612793,-0.0,2.18638014793396,3.9980293947407226,0.0,0.28991132974624634,-1.527740780507223,-0.0,-0.010759161785244942,0.995664119720459,0.0,-0.010182756930589676,0.9717153906822205,0.0,0.01494152843952179
177.0,231.0,5.0016,-1.9962,7.4507,-0.0359,0.0261,-0.1203,-1.7241279087462367,0.0,2.8689637184143066,-1.3638485670089722,-0.0,2.2185773849487305,3.9980293947407226,0.0,0.2890498638153076,-1.5277450720416468,-0.0,-0.013545913621783257,0.9956881999969482,0.0,-0.001520937541499734,0.9717109203338623,0.0,-0.019191939383745193
177.0,231.0,5.0016,-1.9962,7.4507,-0.0359,0.0261,-0.1203,-1.7240878544249476,0.0,2.8307888507843018,-1.3638362884521484,-0.0,2.1826400756835938,3.9980217653461914,0.0,0.28108248114585876,-1.5277531782733362,-0.0,-0.006364061031490564,0.9956681728363037,0.0,-0.009835735894739628,0.9716870784759521,0.0,-0.0007297778502106667
177.0,231.0,5.0016,-1.9962,7.4507,-0.0359,0.0261,-0.1203,-1.7240716419615687,0.0,2.8374404907226562,-1.3637956380844116,-0.0,2.2065322399139404,3.9980055528828125,0.0,0.28004708886146545,-1.5277813116656702,-0.0,-0.0136026069521904,0.9956681728363037,0.0,-0.0185500867664814,0.9717190861701965,0.0,2.8777867555618286e-05
177.0,231.0,5.0016,-1.9962,7.4507,-0.0359,0.0261,-0.1203,-1.7240878544249476,0.0,2.865976333618164,-1.363848328590393,-0.0,2.194328784942627,3.998054190272949,0.0,0.28492313623428345,-1.5277088324176233,-0.0,-0.00968976505100727,0.9957320094108582,0.0,0.004803367890417576,0.9717109203338623,0.0,-0.001082414761185646
177.0,231.0,5.0016,-1.9962,7.4507,-0.0359,0.0261,-0.1203,-1.7240673504271449,0.0,2.7932443618774414,-1.3637758493423462,-0.0,2.1913037300109863,3.998025580043457,0.0,0.2955566942691803,-1.5277088324176233,-0.0,-0.014726951718330383,0.9957199096679688,0.0,-0.0026024135295301676,0.9716870784759521,0.0,0.019410287961363792
177.0,231.0,5.0016,-1.9962,7.4507,-0.0359,0.0261,-0.1203,-1.7240430317320765,0.0,2.883707046508789,-1.363803744316101,-0.0,2.208296775817871,3.9979774194904785,0.0,0.2770808935165405,-1.5277732054339808,-0.0,-0.016789522022008896,0.9957160353660583,0.0,-0.010065862908959389,0.9716830253601074,0.0,-0.0029194923117756844
177.0,231.0,5.0016,-1.9962,7.4507,-0.0359,0.0261,-0.1203,-1.7241236172118128,0.0,2.806453227996826,-1.3637644052505493,-0.0,2.1879475116729736,3.9980055528828125,0.0,0.2930598258972168,-1.5277531782733362,-0.0,-0.007865780964493752,0.9957122206687927,0.0,-0.008899289183318615,0.971714973449707,0.0,-0.020987506955862045
177.0,231.0,5.0016,-1.9962,7.4507,-0.0359,0.0261,-0.1203,-1.7240673504271449,0.0,2.8205361366271973,-1.3637758493423462,-0.0,2.1819581985473633,3.9980456072041015,0.0,0.2819869816303253,-1.5277212301837366,-0.0,-0.007829198613762856,0.9956203103065491,0.0,-0.004498719237744808,0.9716870784759521,0.0,-0.0043282415717840195
177.0,231.0,5.0016,-1.9962,7.4507,-0.0359,0.0261,-0.1203,-1.724095960656637,0.0,2.843980550765991,-1.3638285398483276,-0.0,2.224020481109619,3.9980456072041015,0.0,0.29174333810806274,-1.5277612845050257,-0.0,-0.016372861340641975,0.9956448078155518,0.0,-0.003420476336032152,0.9716625809669495,0.0,0.02832326665520668
175.0,232.0,5.1302,-1.8903,7.2401,-0.0363,0.0322,-0.1268,-1.724051137963766,0.0,2.8341455459594727,-1.3638445138931274,-0.0,2.231210947036743,3.99795310079541,0.0,0.28606098890304565,-1.5277364889727991,-0.0,-0.005158525425940752,0.9957239627838135,0.0,-0.006281922571361065,0.9717026948928833,0.0,-0.03945431858301163
175.0,232.0,5.1302,-1.8903,7.2401,-0.0363,0.0322,-0.1268,-1.7240354023375453,0.0,2.8416802883148193,-1.3637758493423462,-0.0,2.235729455947876,3.9980498987385253,0.0,0.2918584644794464,-1.5276921431170862,-0.0,-0.015207475051283836,0.9956841468811035,0.0,0.004133988171815872,0.971703052520752,0.0,0.006046154536306858
175.0,232.0,5.1302,-1.8903,7.2401,-0.0363,0.0322,-0.1268,-1.7240754566588343,0.0,2.875500202178955,-1.3638604879379272,-0.0,2.2156448364257812,3.997997446651123,0.0,0.2828523516654968,-1.527729336415426,-0.0,-0.006564304698258638,0.9956521987915039,0.0,-0.003809292335063219,0.9717072248458862,0.0,-0.025046590715646744
175.0,232.0,5.1302,-1.8903,7.2401,-0.0363,0.0322,-0.1268,-1.7240754566588343,0.0,2.886901378631592,-1.3637603521347046,-0.0,2.2143208980560303,3.9980174738117675,0.0,0.2932789921760559,-1.5277612845050257,-0.0,-0.024080410599708557,0.9957320690155029,0.0,0.005304274614900351,0.9716747403144836,0.0,0.015440599992871284
175.0,232.0,5.1302,-1.8903,7.2401,-0.0363,0.0322,-0.1268,-1.7240597210326136,0.0,2.870790719985962,-1.3637758493423462,-0.0,2.2335267066955566,3.997997446651123,0.0,0.28527456521987915,-1.5277693907367151,-0.0,-0.0010020827176049352,0.9957160353660583,0.0,-0.007917018607258797,0.9716707468032837,0.0,0.006884170696139336
175.0,232.0,5.1302,-1.8903,7.2401,-0.0363,0.0322,-0.1268,-1.724023004571432,0.0,2.8118605613708496,-1.3638485670089722,-0.0,2.1603310108184814,3.998021288509033,0.0,0.2861242890357971,-1.5277531782733362,-0.0,-0.017717450857162476,0.9956440925598145,0.0,0.0011556895915418863,0.9716870784759521,0.0,0.0009594392031431198
175.0,232.0,5.1302,-1.8903,7.2401,-0.0363,0.0322,-0.1268,-1.7240554294981898,0.0,2.896595001220703,-1.3638160228729248,-0.0,2.14990234375,3.9979769426533203,0.0,0.2884233593940735,-1.5277326742755335,-0.0,-0.007061914075165987,0.9956920146942139,0.0,-0.005437955725938082,0.9717072248458862,0.0,0.0008227024227380753
175.0,232.0,5.1302,-1.8903,7.2401,-0.0363,0.0322,-0.1268,-1.7241116962828578,0.0,2.826585292816162,-1.3638648986816406,-0.0,2.184171199798584,3.997993155116699,0.0,0.2891947627067566,-1.5277212301837366,-0.0,-0.009907238185405731,0.995660126209259,0.0,0.009249484166502953,0.9716747403144836,0.0,-0.0022762808948755264
175.0,232.0,5.1302,-1.8903,7.2401,-0.0363,0.0322,-0.1268,-1.7240592441954554,0.0,2.8740272521972656,-1.3637758493423462,-0.0,2.172917366027832,3.997993155116699,0.0,0.2807798385620117,-1.5277693907367151,-0.0,-0.011883934959769249,0.9956881403923035,0.0,-0.013846589252352715,0.9716830253601074,0.0,-0.007158282212913036
175.0,232.0,5.1302,-1.8903,7.2401,-0.0363,0.0322,-0.1268,-1.724095960656637,0.0,2.8444457054138184,-1.3637923002243042,-0.0,2.2131853103637695,3.9979888635822753,0.0,0.2868627607822418,-1.527740780507223,-0.0,-0.008930861949920654,0.9957119822502136,0.0,-0.0050228433683514595,0.971703052520752,0.0,0.00401031319051981
175.0,232.0,5.1302,-1.8903,7.2401,-0.0363,0.0322,-0.1268,-1.724095960656637,0.0,2.864971399307251,-1.3638005256652832,-0.0,2.2134146690368652,3.998013659114502,0.0,0.271117627620697,-1.5277045408831995,-0.0,-0.009549395181238651,0.9956361055374146,0.0,0.007812751457095146,0.9716912508010864,0.0,-0.029284361749887466
168.0,227.0,5.0309,-1.8036,7.5356,-0.0305,0.0156,-0.1179,-1.7240716419615687,0.0,2.830838203430176,-1.3637882471084595,-0.0,2.177755117416382,3.9980336862751464,0.0,0.27831006050109863,-1.5277283827411097,-0.0,-0.006700433790683746,0.9956920146942139,0.0,-0.004500539042055607,0.9716907739639282,0.0,-0.0001390920951962471
168.0,227.0,5.0309,-1.8036,7.5356,-0.0305,0.0156,-0.1179,-1.7240635357298792,0.0,2.8496623039245605,-1.36381196975708,-0.0,2.1843035221099854,3.9980293947407226,0.0,0.28246068954467773,-1.5277655760394495,-0.0,0.00020124693401157856,0.9956998825073242,0.0,-0.005647873971611261,0.9716789126396179,0.0,0.03430037200450897
168.0,227.0,5.0309,-1.8036,7.5356,-0.0305,0.0156,-0.1179,-1.724039217034811,0.0,2.8588571548461914,-1.3637717962265015,-0.0,2.234088659286499,3.9979850488850097,0.0,0.2811126410961151,-1.5277326742755335,-0.0,0.006552958395332098,0.9957239031791687,0.0,-0.00650029256939888,0.9716830253601074,0.0,-0.02471346966922283
168.0,227.0,5.0309,-1.8036,7.5356,-0.0305,0.0156,-0.1179,-1.7240473232665003,0.0,2.8737778663635254,-1.36381196975708,-0.0,2.2079572677612305,3.9980055528828125,0.0,0.2794497609138489,-1.527740780507223,-0.0,-0.003930422477424145,0.9957000613212585,0.0,-0.012421706691384315,0.971714973449707,0.0,-0.006813129410147667
168.0,227.0,5.0309,-1.8036,7.5356,-0.0305,0.0156,-0.1179,-1.7240797481932582,0.0,2.8210136890411377,-1.3638445138931274,-0.0,2.160029649734497,3.9980336862751464,0.0,0.2914537191390991,-1.5277450720416468,-0.0,-0.019499167799949646,0.9957159757614136,0.0,-0.00022779556456953287,0.9716830253601074,0.0,0.007378069218248129
168.0,227.0,5.0309,-1.8036,7.5356,-0.0305,0.0156,-0.1179,-1.7240797481932582,0.0,2.8740625381469727,-1.3638486862182617,-0.0,2.224428653717041,3.998037500972412,0.0,0.28917303681373596,-1.5277212301837366,-0.0,-0.0011465541319921613,0.9956840872764587,0.0,0.0021218694746494293,0.9717190861701965,0.0,0.05712749809026718
168.0,227.0,5.0309,-1.8036,7.5356,-0.0305,0.0156,-0.1179,-1.7240554294981898,0.0,2.848864793777466,-1.3638160228729248,-0.0,2.1768903732299805,3.998061342830322,0.0,0.2863532304763794,-1.527724568043844,-0.0,0.0003443686291575432,0.9957079887390137,0.0,-0.012185589410364628,0.9717072248458862,0.0,-0.03972049057483673
168.0,227.0,5.0309,-1.8036,7.5356,-0.0305,0.0156,-0.1179,-1.7240554294981898,0.0,2.8912439346313477,-1.3638449907302856,-0.0,2.175976514816284,3.998054190272949,0.0,0.2888564169406891,-1.5277770201312464,-0.0,-0.006769660394638777,0.9957160353660583,0.0,-0.005079616792500019,0.9717633128166199,0.0,0.014296365901827812
168.0,227.0,5.0309,-1.8036,7.5356,-0.0305,0.0156,-0.1179,-1.7240435085692347,0.0,2.8418078422546387,-1.3637923002243042,-0.0,2.207305908203125,3.998065634364746,0.0,0.2837071418762207,-1.5277531782733362,-0.0,-0.02056792378425598,0.9957320094108582,0.0,-0.006455272436141968,0.9717313051223755,0.0,0.012123907916247845
168.0,227.0,5.0309,-1.8036,7.5356,-0.0305,0.0156,-0.1179,-1.7240435085692347,0.0,2.8490374088287354,-1.3637478351593018,-0.0,2.1973607540130615,3.997993155116699,0.0,0.2858317494392395,-1.5277851263629358,-0.0,-0.019737696275115013,0.9957199096679688,0.0,-0.004760085139423609,0.971714973449707,0.0,0.04372808337211609
168.0,227.0,5.0309,-1.8036,7.5356,-0.0305,0.0156,-0.1179,-1.7240597210326136,0.0,2.852097988128662,-1.3637365102767944,-0.0,2.1898181438446045,3.9980293947407226,0.0,0.2829183340072632,-1.5277650992022913,-0.0,-0.011565924622118473,0.9956480860710144,0.0,0.0007091013249009848,0.971714973449707,2.515601282837565e-09,-0.0044774822890758514
168.0,227.0,5.0309,-1.8036,7.5356,-0.0305,0.0156,-0.1179,-1.7240754566588343,0.0,2.8597798347473145,-1.3637405633926392,6.465239585015659e-13,2.202288866043091,3.998054190272949,0.0,0.28470543026924133,-1.5278094450580042,-0.0,-1.906324177980423e-05,0.9956920146942139,0.0,0.0007650692714378238,0.9717313051223755,8.150228442586213e-17,0.02006055787205696
176.0,232.0,4.8706,-1.7569,7.675,-0.0144,0.025,-0.1232,-1.7240716419615687,0.0,2.8197832107543945,-1.3637199401855469,2.0946555711186805e-20,2.208810329437256,3.998061342830322,0.0,0.28399115800857544,-1.5277851263629358,-0.0,-0.00871176365762949,0.9957159757614136,0.0,-0.0021808110177516937,0.9717026948928833,2.64057027969485e-24,0.017341889441013336
176.0,232.0,4.8706,-1.7569,7.675,-0.0144,0.025,-0.1232,-1.724124094048971,0.0,2.8378217220306396,-1.3637923002243042,6.786418122854261e-28,2.2299652099609375,3.997969313258789,0.0,0.2854622006416321,-1.5277650992022913,-0.0,-0.013599418103694916,0.9956681728363037,0.0,0.0025364074390381575,0.9717267751693726,8.555110940192738e-32,-0.00832512229681015
176.0,232.0,4.8706,-1.7569,7.675,-0.0144,0.025,-0.1232,-1.7240878544249476,0.0,2.829660177230835,-1.3637964725494385,2.1987136825916803e-35,2.2179219722747803,3.9979654985615234,0.0,0.2837415337562561,-1.5277889410602015,-0.0,-0.003775249933823943,0.9956960082054138,0.0,-0.006057197228074074,0.9717989563941956,0.00017074288916774094,-0.02564636617898941
176.0,232.0,4.8706,-1.7569,7.675,-0.0144,0.025,-0.1232,-1.7240754566588343,0.0,2.8093695640563965,-1.363796353340149,7.118596198770071e-43,2.1862905025482178,3.9980456072041015,0.0,0.2872876226902008,-1.5278051535235804,-0.0,-0.0025066742673516273,0.9956840872764587,0.0,-0.004861585795879364,0.9717908501625061,0.0007845899672247469,0.020323418080806732
176.0,232.0,4.8706,-1.7569,7.675,-0.0144,0.025,-0.1232,-1.7240554294981898,0.0,2.8632144927978516,-1.3637800216674805,-0.0,2.1788809299468994,3.998061342830322,0.0,0.2931569814682007,-1.5277932325946253,-0.0,-0.018369950354099274,0.9956920146942139,0.0,-0.012730021961033344,0.9717588424682617,0.0016429219394922256,0.023269668221473694
176.0,232.0,4.8706,-1.7569,7.675,-0.0144,0.025,-0.1232,-1.7240430317320765,0.0,2.8530328273773193,-1.363804578781128,-0.0,2.1746482849121094,3.997993155116699,0.0,0.28582555055618286,-1.5277846495257776,-0.0,-0.014862638898193836,0.9956841468811035,0.0,0.0020759045146405697,0.9717587828636169,0.0020040329545736313,-0.003102608723565936
176.0,232.0,4.8706,-1.7569,7.675,-0.0144,0.025,-0.1232,-1.724051137963766,0.0,2.847090721130371,-1.3638283014297485,-0.0,2.150946855545044,3.9980131822773437,0.0,0.2932320535182953,-1.5277488867389124,-0.0,-0.009916001930832863,0.9956920146942139,0.0,0.0037186057306826115,0.971767008304596,0.0020204083994030952,-0.004359199199825525
176.0,232.0,4.8706,-1.7569,7.675,-0.0144,0.025,-0.1232,-1.7240387401976527,2.112677066179458e-05,2.842413902282715,-1.3637478351593018,-0.0,2.2142438888549805,3.9980498987385253,0.0,0.28392481803894043,-1.527752701436178,-0.0,-0.007676075678318739,0.9956641793251038,0.0,-0.0034202171955257654,0.9717863202095032,0.0018545107450336218,-0.008774183690547943
176.0,232.0,4.8706,-1.7569,7.675,-0.0144,0.025,-0.1232,-1.7240711651244105,2.9879640351282433e-05,2.858522415161133,-1.363796353340149,-0.0,2.1687850952148438,3.998054190272949,0.0,0.2815154194831848,-1.5277732054339808,-0.0,-0.010867967270314693,0.9956721663475037,0.0,0.0003501905594021082,0.9717826843261719,0.0013416835572570562,0.001678724423982203
176.0,232.0,4.8706,-1.7569,7.675,-0.0144,0.025,-0.1232,-1.7240997753539027,6.208616953884416e-10,2.8816890716552734,-1.3637365102767944,-0.0,2.1987664699554443,3.997997446651123,0.0,0.28322726488113403,-1.527820889149801,-0.0,-0.021573055535554886,0.9956920146942139,0.0,-0.008439293131232262,0.9718104600906372,0.0012973520206287503,0.017627213150262833
176.0,232.0,4.8706,-1.7569,7.675,-0.0144,0.025,-0.1232,-1.7240716419615687,2.0115131636241986e-17,2.85048770904541,-1.3637800216674805,-0.0,2.19510555267334,3.9980131822773437,0.0,0.2925269901752472,-1.5277608076678675,-0.0,-0.017654815688729286,0.9956761002540588,0.0,-0.00908476673066616,0.9717981219291687,0.0016049371333792806,-0.003460055449977517
173.0,231.0,4.9029,-1.7743,7.7587,-0.0223,0.0163,-0.1193,-1.724039217034811,6.517047164662422e-25,2.822740077972412,-1.3638241291046143,-0.0,2.2143001556396484,3.9979888635822753,0.0,0.29653263092041016,-1.5278289953814905,-0.0,-0.0190878976136446,0.9957079291343689,0.0,-0.01321486011147499,0.9718342423439026,0.0016023305943235755,-0.033555805683135986
173.0,231.0,4.9029,-1.7743,7.7587,-0.0223,0.0163,-0.1193,-1.7240473232665003,8.061017433647066e-05,2.86826491355896,-1.3637726306915283,-0.0,2.2305426597595215,3.9980174738117675,0.0,0.2981967628002167,-1.527780834828512,-3.4124461034679143e-09,-0.007824218831956387,0.995695948600769,0.0,-6.174272857606411e-05,0.9718867540359497,0.0012905016774311662,-0.01968805119395256
173.0,231.0,4.9029,-1.7743,7.7587,-0.0223,0.0163,-0.1193,-1.7240754566588343,7.015026494627818e-05,2.8476333618164062,-1.363784909248352,1.5213417100312654e-05,2.1969213485717773,3.9980293947407226,0.0,0.28169378638267517,-1.527752701436178,-6.20195287812618e-14,-0.006419939920306206,0.9957438111305237,0.0,-0.0046238889917731285,0.9719069004058838,0.0010206708684563637,0.053481269627809525
173.0,231.0,4.9029,-1.7743,7.7587,-0.0223,0.0163,-0.1193,-1.7240716419615687,3.036156704183668e-05,2.828655481338501,-1.363820195198059,1.4252224900701549e-05,2.183779716491699,3.997993155116699,0.0,0.2906099855899811,-1.5278289953814905,-1.1271744121027874e-18,-0.017455141991376877,0.9956880211830139,0.0,-0.004965525586158037,0.9718665480613708,0.001021140837110579,-0.027483774349093437
173.0,231.0,4.9029,-1.7743,7.7587,-0.0223,0.0163,-0.1193,-1.7240554294981898,2.673838935152162e-05,2.8419604301452637,-1.3638160228729248,4.617539532160431e-13,2.177405595779419,3.9980012613483886,0.0,0.2822372317314148,-1.5277932325946253,-2.048583733981945e-23,-0.01687997579574585,0.9956640601158142,0.0,-0.008828314021229744,0.9718744158744812,0.0013885427033528686,0.016681348904967308
173.0,231.0,4.9029,-1.7743,7.7587,-0.0223,0.0163,-0.1193,-1.724063058892721,2.389831752225291e-05,2.831228256225586,-1.3637479543685913,1.496023992461774e-20,2.1736319065093994,3.9980174738117675,0.0,0.26978743076324463,-1.5277608076678675,-3.7231998240283838e-28,-0.009660352021455765,0.9956521391868591,0.0,-0.0018193821888417006,0.9719104170799255,0.0022874251008033752,0.012919609434902668
173.0,231.0,4.9029,-1.7743,7.7587,-0.0223,0.0163,-0.1193,-1.7240234814085902,2.1603684217552654e-05,2.826286792755127,-1.3637726306915283,4.846927705728594e-28,2.202637195587158,3.997997446651123,0.0,0.28783494234085083,-1.5278127829181116,-6.76673102645659e-33,0.005201835185289383,0.9957683682441711,0.0,0.0016525937244296074,0.9719223380088806,0.0028772223740816116,-0.0020977752283215523
173.0,231.0,4.9029,-1.7743,7.7587,-0.0223,0.0163,-0.1193,-1.724095960656637,1.9711103959707543e-05,2.8786582946777344,-1.3637964725494385,1.5703429319620864e-35,2.2339272499084473,3.997997446651123,0.0,0.29025742411613464,-1.5278494993792933,-1.229819889687232e-37,-0.0038236055988818407,0.9956920146942139,0.0,-0.0038575835060328245,0.9719141721725464,0.002621239284053445,0.0230084341019392
173.0,231.0,4.9029,-1.7743,7.7587,-0.0223,0.0163,-0.1193,-1.724051137963766,1.8123426343663596e-05,2.857311487197876,-1.3637644052505493,5.086713425499086e-43,2.13088321685791,3.997980757350586,0.0,0.28813600540161133,-1.5277932325946253,-2.2350710505980832e-42,-0.005721470806747675,0.9956280589103699,0.0,-0.003703808644786477,0.9720385074615479,0.0027645707596093416,0.021184105426073074
173.0,231.0,4.9029,-1.7743,7.7587,-0.0223,0.0163,-0.1193,-1.7240311108031214,1.6772435628809035e-05,2.844423770904541,-1.3637685775756836,-0.0,2.1668529510498047,3.9980293947407226,0.0,0.27237921953201294,-1.5278051535235804,-0.0,-0.006113835144788027,0.995703935623169,0.0,0.0026877163909375668,0.972002387046814,0.0024582892656326294,0.057480815798044205
173.0,231.0,4.9029,-1.7743,7.7587,-0.0223,0.0163,-0.1193,-1.7240592441954554,1.5608902685926296e-05,2.8514227867126465,-1.3637406826019287,-0.0,2.1806511878967285,3.998054190272949,0.0,0.2905850410461426,-1.527768913899557,-0.0,-0.014036092907190323,0.9956960082054138,0.0,-0.014369597658514977,0.9720220565795898,0.0020976036321371794,-0.05068807303905487
173.0,231.0,4.9029,-1.7743,7.7587,-0.0223,0.0163,-0.1193,-1.724084039727682,1.459632858313853e-05,2.9037599563598633,-1.3638241291046143,-0.0,2.24942946434021,3.9979893404194335,0.0,0.280884325504303,-1.5278409163104456,-0.0,-0.01214792300015688,0.9956601858139038,0.0,-0.003670434933155775,0.9720420241355896,0.0018062921008095145,-0.04564182832837105
173.0,225.0,4.602,-2.1153,7.5841,-0.0406,0.0382,-0.1196,-1.7241078815855921,1.3707132893614471e-05,2.849307060241699,-1.3637406826019287,-0.0,2.2370829582214355,3.9979654985615234,0.0,0.2922491133213043,-1.527780834828512,-1.9433387933531776e-05,-0.00425905454903841,0.9957318305969238,0.0,-0.007269253022968769,0.9720461368560791,0.0013186114374548197,0.0357249453663826
173.0,225.0,4.602,-2.1153,7.5841,-0.0406,0.0382,-0.1196,-1.7240878544249476,1.292003616981674e-05,2.837766170501709,-1.3637324571609497,-0.0,2.171311378479004,3.997973604793213,7.170796845201721e-09,0.2762323021888733,-1.5278328100787562,-1.802748920454178e-05,-0.00963143166154623,0.995715856552124,0.0,-0.0031571700237691402,0.9720461368560791,0.0008032465120777488,0.013210438191890717
173.0,225.0,4.602,-2.1153,7.5841,-0.0406,0.0382,-0.1196,-1.724100252191061,3.075882951120157e-11,2.8639421463012695,-1.3637282848358154,-0.0,2.185929298400879,3.9980055528828125,1.3032569543946354e-13,0.2987436056137085,-1.5278084913836878,-1.6690199117874727e-05,-0.0014407027047127485,0.9956880211830139,0.0,-0.0040655070915818214,0.971997857093811,0.0005034685018472373,0.03889629989862442
173.0,225.0,4.602,-2.1153,7.5841,-0.0406,0.0382,-0.1196,-1.7240997753539027,9.965469803466024e-19,2.8589906692504883,-1.3637562990188599,-0.0,2.198521614074707,3.998013659114502,2.368605421061146e-18,0.2872046232223511,-1.5278409163104456,-2.7070389478467405e-05,-0.02101420797407627,0.9957238435745239,0.0,0.0021601696498692036,0.9720498919487,0.00042779097566381097,-0.011741985566914082
173.0,225.0,4.602,-2.1153,7.5841,-0.0406,0.0382,-0.1196,-1.7240549526610316,3.228685658148325e-26,2.8703396320343018,-1.363796353340149,-0.0,2.1904664039611816,3.9979569154926757,4.304823110577562e-23,0.2942574918270111,-1.5278776327716272,-2.9067830837448128e-05,0.011183027178049088,0.9957159161567688,0.0,-0.006379278376698494,0.972066342830658,0.00038445807876996696,0.001872633583843708
173.0,225.0,4.602,-2.1153,7.5841,-0.0406,0.0382,-0.1196,-1.7241279087462367,1.0460529536715682e-33,2.8711557388305664,-1.363736629486084,-0.0,2.1751296520233154,3.997997446651123,7.823803435511432e-28,0.2876599133014679,-1.527844254170553,-2.7304173272568733e-05,-0.009545921348035336,0.995703935623169,0.0,0.0019802162423729897,0.9719977974891663,0.0003312434128019959,0.00029337871819734573
173.0,225.0,4.602,-2.1153,7.5841,-0.0406,0.0382,-0.1196,-1.7241078815855921,3.38904033596957e-41,2.8728256225585938,-1.363776683807373,-0.0,2.215928077697754,3.998037500972412,1.4219374761561493e-32,0.2914894223213196,-1.5278690497027796,-2.574223981355317e-05,0.01426301896572113,0.9957682490348816,0.0,-0.007493521086871624,0.9720420241355896,0.0003133010759484023,0.026945259422063828
173.0,225.0,4.602,-2.1153,7.5841,-0.0406,0.0382,-0.1196,-1.724039217034811,0.0,2.911001443862915,-1.3637162446975708,0.00011591820657486096,2.219721555709839,3.9980460840412597,2.584301084422834e-37,0.2925344407558441,-1.5278247038470667,-3.6517030821414664e-05,-0.007517819292843342,0.995699942111969,0.0,0.009598484262824059,0.9720137715339661,0.00026685174088925123,0.012950931675732136
173.0,225.0,4.602,-2.1153,7.5841,-0.0406,0.0382,-0.1196,-1.7240754566588343,0.0,2.9321141242980957,-1.3637889623641968,0.0012037667911499739,2.2487053871154785,3.9980332094379882,4.697152452416787e-42,0.2844805121421814,-1.5278409163104456,-3.464916517259553e-05,-0.012846125289797783,0.995648205280304,0.0,-0.00998634472489357,0.9720298051834106,0.0002033486234722659,0.04909863695502281
173.0,225.0,4.602,-2.1153,7.5841,-0.0406,0.0382,-0.1196,-1.7240759334959925,0.0,2.9691927433013916,-1.3637206554412842,0.0011381210060790181,2.248819351196289,3.9980780321308593,0.0,0.28839796781539917,-1.5278204123126429,-3.295738497399725e-05,-0.005895648151636124,0.995680034160614,0.0,-6.13385927863419e-05,0.9720220565795898,0.00018009541963692755,0.03324958682060242
173.0,225.0,4.602,-2.1153,7.5841,-0.0406,0.0382,-0.1196,-1.7240797481932582,0.0,2.9744553565979004,-1.3637325763702393,0.0008720490732230246,2.243145227432251,3.998065634364746,4.7911973524605855e-05,0.29252782464027405,-1.5278084913836878,-3.142318018944934e-05,-0.021077707409858704,0.9957238435745239,0.0,0.0060874843038618565,0.9720220565795898,0.00016161517123691738,0.11036402732133865
170.0,231.0,5.0674,-2.0662,7.4536,-0.0244,0.007,-0.1264,-1.7240754566588343,0.00012755588977597654,3.012747287750244,-1.3637651205062866,0.0005676529253832996,2.26552414894104,3.9980131822773437,5.954775042482652e-05,0.29944831132888794,-1.5278084913836878,-3.87302425224334e-05,-0.009766054339706898,0.9956521987915039,0.0,-0.004896025639027357,0.9720261693000793,0.00014657455903943628,0.07471393793821335
170.0,231.0,5.0674,-2.0662,7.4536,-0.0244,0.007,-0.1264,-1.7240835628905238,5.920399871683912e-06,2.985592842102051,-1.3637404441833496,0.0004172342596575618,2.2576184272766113,3.9980780321308593,5.942852658336051e-05,0.30654823780059814,-1.5278289953814905,-2.8080220371151654e-09,-0.021631907671689987,0.9956840872764587,0.0,-0.010616423562169075,0.9720380902290344,0.0001340953604085371,0.05604823678731918
170.0,231.0,5.0674,-2.0662,7.4536,-0.0244,0.007,-0.1264,-1.7240873775877894,1.9181342983138477e-13,3.0088343620300293,-1.3637363910675049,0.00011665766942314804,2.251223564147949,3.998061342830322,5.461954424390569e-05,0.3074950873851776,-1.5278289953814905,-5.103441947469298e-14,-0.005495603661984205,0.9956680536270142,0.0,-0.0157929714769125,0.9720261096954346,0.00012357444211374968,0.019949382171034813
170.0,231.0,5.0674,-2.0662,7.4536,-0.0244,0.007,-0.1264,-1.7241236172118128,6.214511006882863e-21,2.951366424560547,-1.3637489080429077,9.263872925657779e-05,2.2651219367980957,3.9980737405964355,6.68050124659203e-05,0.3004704713821411,-1.5278008619891565,-9.27525272276376e-19,-0.02007278800010681,0.9957278370857239,0.0,-0.0010187897132709622,0.9720142483711243,2.558775304351002e-05,0.028362203389406204
170.0,231.0,5.0674,-2.0662,7.4536,-0.0244,0.007,-0.1264,-1.7241155109801234,2.013422413977696e-28,2.9408247470855713,-1.3636921644210815,7.682236901018769e-05,2.2283551692962646,3.998048945064209,6.268179276958108e-05,0.28903597593307495,-1.5278328100787562,-1.6857313834074362e-23,-0.016812708228826523,0.9956961274147034,0.0,-0.0023855390027165413,0.971994161605835,5.401696104301301e-11,0.05083984136581421
170.0,231.0,5.0674,-2.0662,7.4536,-0.0244,0.007,-0.1264,-1.7240792713561,6.523232416896324e-36,2.9232051372528076,-1.3637325763702393,6.561966438312083e-05,2.2510006427764893,3.99809376775708,7.324999751290306e-05,0.28902333974838257,-1.527792755757467,-3.063734688792216e-28,-0.021650856360793114,0.9957079291343689,0.0,-0.008140492253005505,0.9719982743263245,1.7500804976391603e-18,0.017016833648085594
170.0,231.0,5.0674,-2.0662,7.4536,-0.0244,0.007,-0.1264,-1.7240835628905238,2.1159606811304738e-43,2.90505313873291,-1.3637202978134155,5.7268272939836606e-05,2.2115652561187744,3.9980689722248535,0.00015082198660820723,0.29741981625556946,-1.5278127829181116,-5.5681863334406316e-33,-0.011223929934203625,0.9956562519073486,0.0,0.007451001554727554,0.9719581007957458,-0.000780388421844691,-0.0037228392902761698
170.0,231.0,5.0674,-2.0662,7.4536,-0.0244,0.007,-0.1264,-1.7240869007506312,0.0,2.887662410736084,-1.3637568950653076,5.0802918849512935e-05,2.2167556285858154,3.99809376775708,0.00018533099500928074,0.28485026955604553,-1.527797047291891,-2.2757281840313226e-05,-0.0033965492621064186,0.995644748210907,0.0,-0.007367041893303394,0.9719581007957458,-0.0006406158790923655,-0.009906493127346039
170.0,231.0,5.0674,-2.0662,7.4536,-0.0244,0.007,-0.1264,-1.7241398296751917,0.0,2.93513822555542,-1.3637486696243286,4.564931077766232e-05,2.175412178039551,3.9981252390095214,0.00018952853861264884,0.29542529582977295,-1.5278008619891565,-2.321727697562892e-05,-0.012530457228422165,0.9956204891204834,0.0,-0.010417548939585686,0.9719581007957458,-0.000493361265398562,0.040596187114715576
170.0,231.0,5.0674,-2.0662,7.4536,-0.0244,0.007,-0.1264,-1.724119325677389,-0.0001554057962493971,2.872955322265625,-1.3637446165084839,4.144504782743752e-05,2.178934097290039,3.9980971056171875,0.0001721371809253469,0.284359335899353,-1.5278571287738245,-2.2078209440223873e-05,-0.0027738804928958416,0.9956600666046143,0.0,-0.002482101321220398,0.9719581007957458,-0.00036129780346527696,-0.0152689628303051
170.0,231.0,5.0674,-2.0662,7.4536,-0.0244,0.007,-0.1264,-1.724091192285055,-0.00016723931184969842,2.8976476192474365,-1.3637243509292603,3.794987787841819e-05,2.2334556579589844,3.998077078456543,0.00024146719078999013,0.2908765375614166,-1.5278008619891565,-2.1045672838226892e-05,0.00516371289268136,0.995628297328949,0.0,-0.004836619831621647,0.9719622135162354,-0.0003325120487716049,0.029208699241280556
170.0,237.0,4.7946,-1.7557,7.733,-0.0313,0.0257,-0.1182,-1.7241560421385707,-0.00014911121979821473,2.921142578125,-1.363761067390442,3.4998385672224686e-05,2.2439005374908447,3.9981295305439453,0.00019894647994078696,0.28827133774757385,-1.5278127829181116,-2.0105382645851932e-05,-0.016328241676092148,0.9956681728363037,0.0,-0.012909957207739353,0.9719465374946594,-0.00011016459757229313,-0.0330769419670105
170.0,237.0,4.7946,-1.7557,7.733,-0.0313,0.0257,-0.1182,-1.7240749798216761,-0.00015665906539652497,2.9137845039367676,-1.3637804985046387,3.2472853490617126e-05,2.2319135665893555,3.9980575281330566,0.0001690464559942484,0.2946776747703552,-1.5277889410602015,-5.5345887872704225e-09,-0.008125416934490204,0.9956164956092834,0.0,0.00034681131364777684,0.9719547033309937,-8.798362978268415e-05,-0.05498223379254341
170.0,237.0,4.7946,-1.7557,7.733,-0.0313,0.0257,-0.1182,-1.7241231403746546,-0.00016202550614252687,2.855746269226074,-1.3636846542358398,3.0287288609542884e-05,2.214101791381836,3.9981576639362792,0.00014696037396788597,0.2810782492160797,-1.5277450720416468,-1.0058840154043847e-13,0.0013450556434690952,0.9956324100494385,0.0,-0.002766017336398363,0.972002387046814,-7.359342998825014e-05,0.049771878868341446
170.0,237.0,4.7946,-1.7557,7.733,-0.0313,0.0257,-0.1182,-1.724152227441305,-0.00014933221973478794,2.8247013092041016,-1.3637642860412598,2.8377384296618402e-05,2.206902265548706,3.9981414514729003,0.00012997924932278693,0.2829707860946655,-1.5277202765094202,-1.8281444271779335e-18,-0.009968996979296207,0.9956840872764587,0.0,0.012120150029659271,0.9719982147216797,-6.324920832412317e-05,0.010135975666344166
170.0,237.0,4.7946,-1.7557,7.733,-0.0313,0.0257,-0.1182,-1.7241598568358363,-0.0002165926998713985,2.861316204071045,-1.3637043237686157,2.669407876965124e-05,2.199326992034912,3.9980575281330566,0.00011651638487819582,0.29476073384284973,-1.5277727285968226,-3.322562225933308e-23,-0.008082250133156776,0.9956409931182861,0.0,-0.01201752107590437,0.9719741344451904,-5.5454718676628545e-05,0.058947719633579254
170.0,237.0,4.7946,-1.7557,7.733,-0.0313,0.0257,-0.1182,-1.724180360833639,-0.00018987059593200684,2.871943950653076,-1.3637568950653076,2.5199278752552345e-05,2.192255973815918,3.9981095033833007,8.447709842585027e-05,0.2893160283565521,-1.5277488867389124,-6.038592525475822e-28,-0.016194112598896027,0.995648980140686,0.0,-0.013111034408211708,0.9719581007957458,-7.4055562436115e-05,0.028218287974596024
170.0,237.0,4.7946,-1.7557,7.733,-0.0313,0.0257,-0.1182,-1.7241317234435023,-0.00019420147873461246,2.8341450691223145,-1.3637651205062866,2.3863025489845313e-05,2.1949408054351807,3.9980169969746093,7.721760630374774e-05,0.28059715032577515,-1.5277364889727991,-1.0974842845346988e-32,-0.023913400247693062,0.9957119226455688,0.0,0.0038328024093061686,0.972038745880127,-7.31047402950935e-05,0.026936862617731094
170.0,237.0,4.7946,-1.7557,7.733,-0.0313,0.0257,-0.1182,-1.7241317234435023,-0.00018911830557044595,2.872894048690796,-1.363761067390442,2.266134470119141e-05,2.1939785480499268,3.998065634364746,7.11158209014684e-05,0.296828031539917,-1.5277364889727991,-1.9946237044549908e-37,-0.026602592319250107,0.9956164956092834,0.0,-0.004040800034999847,0.9719063639640808,-9.188470721710473e-05,0.03949098661541939
170.0,237.0,4.7946,-1.7557,7.733,-0.0313,0.0257,-0.1182,-1.724135538140768,-0.00017803935043048114,2.8158679008483887,-1.3637888431549072,2.1574880520347506e-05,2.2034144401550293,3.9981295305439453,6.590790871996433e-05,0.28154265880584717,-1.5277531782733362,-3.625159127208302e-42,-0.008048906922340393,0.9956600666046143,0.0,-0.018894007429480553,0.9719547033309937,-0.00010481010394869372,0.0020011775195598602
170.0,237.0,4.7946,-1.7557,7.733,-0.0313,0.0257,-0.1182,-1.7241436443724574,-0.00016201412654481828,2.848682403564453,-1.3637404441833496,2.058784411929082e-05,2.1576197147369385,3.998077078456543,6.141067569842562e-05,0.2884167432785034,-1.5277169386493128,-0.0,-0.01823567971587181,0.9957039952278137,0.0,-0.005098537541925907,0.9719465374946594,-9.641616634326056e-05,-0.004299493506550789
170.0,237.0,4.7946,-1.7557,7.733,-0.0313,0.0257,-0.1182,-1.7241398296751917,-0.00014863583783153445,2.808513641357422,-1.3637243509292603,7.824742738193891e-07,2.1873435974121094,3.998061342830322,5.748798866989091e-05,0.28699854016304016,-1.52773362794985,-0.0,-0.017338063567876816,0.9956920146942139,0.0,-0.01708695851266384,0.9719505310058594,-0.00010875581210711971,-0.04082556813955307
170.0,237.0,4.7946,-1.7557,7.733,-0.0313,0.0257,-0.1182,-1.7241879902281703,-0.0001683408481767401,2.7758238315582275,-1.3637651205062866,2.5351176033091595e-14,2.1595921516418457,3.9981137949177246,5.403638715506531e-05,0.27992039918899536,-1.527740780507223,-0.0,-0.01059587299823761,0.9956960082054138,0.0,-0.01731635257601738,0.9719628691673279,-0.00026271867682226,0.00021902937442064285
173.0,226.0,5.0459,-1.8574,7.4985,-0.0348,0.0208,-0.1205,-1.724135538140768,-0.00017565950111020356,2.7449393272399902,-1.3637489080429077,8.213458691318765e-22,2.155153751373291,3.9981095033833007,5.0975791964447126e-05,0.27507513761520386,-1.5277169386493128,-0.0,5.5705662816762924e-05,0.9956251382827759,0.0,0.000672259833663702,0.9719548225402832,-0.0008533207001164556,-0.04328325390815735
173.0,226.0,5.0459,-1.8574,7.4985,-0.0348,0.0208,-0.1205,-1.7241150341429652,-0.00018062310118693858,2.7778477668762207,-1.3637363910675049,2.6610562004536285e-29,2.1286075115203857,3.9980971056171875,4.824331699637696e-05,0.268821120262146,-1.5277212301837366,-0.0,-0.007807545829564333,0.9957436323165894,0.0,-0.0009335733484476805,0.971914529800415,-0.001259181066416204,-0.013610501773655415
173.0,226.0,5.0459,-1.8574,7.4985,-0.0348,0.0208,-0.1205,-1.724147459069723,-0.00029696422279812396,2.7457430362701416,-1.3637404441833496,8.621484093395597e-37,2.1122231483459473,3.998093290919922,4.5788870920659974e-05,0.2657063603401184,-1.5277698675738733,-0.0,-0.004350084811449051,0.9956800937652588,0.0,-0.006730636581778526,0.9719264507293701,-0.001220139442011714,-0.03869820013642311
173.0,226.0,5.0459,-1.8574,7.4985,-0.0348,0.0208,-0.1205,-1.7241317234435023,-0.0002819271758198738,2.725893497467041,-1.3637243509292603,2.802596928649634e-44,2.1223104000091553,3.998105688686035,4.357211946626194e-05,0.2614486813545227,-1.52775746980776,-0.0,-0.002482485957443714,0.9956561326980591,0.0,-0.0022736007813364267,0.971922755241394,-0.0010526531841605902,-0.1083003580570221
173.0,226.0,5.0459,-1.8574,7.4985,-0.0348,0.0208,-0.1205,-1.7241441212096156,-0.000258715299423784,2.6932594776153564,-1.3637166023254395,-0.0,2.1542868614196777,3.998089476222656,4.15600516134873e-05,0.27388155460357666,-1.5277813116656702,-0.0,0.013226212933659554,0.9956641793251038,0.0,-0.01542048342525959,0.9718984961509705,-0.0010200809920206666,-0.1175113320350647
173.0,226.0,5.0459,-1.8574,7.4985,-0.0348,0.0208,-0.1205,-1.7241555653014125,-0.00022376574634108692,2.730116844177246,-1.3637125492095947,-0.0,2.141315460205078,3.9981013971516113,2.593799308669986e-06,0.27536141872406006,-1.5277693907367151,-0.0,0.012302632443606853,0.9956721663475037,0.0,-0.011186478659510612,0.9718744158744812,-0.0010428105015307665,-0.05331171303987503
173.0,226.0,5.0459,-1.8574,7.4985,-0.0348,0.0208,-0.1205,-1.7241674862303675,-0.00022353074746206403,2.6460013389587402,-1.3637125492095947,-0.0,2.1021311283111572,3.9980408388325195,4.7141009845708126e-11,0.27264857292175293,-1.5277326742755335,-0.0,0.0033134191762655973,0.9957236647605896,0.0,-0.004643972497433424,0.9719108939170837,-0.0008518786053173244,-0.09680094569921494
173.0,226.0,5.0459,-1.8574,7.4985,-0.0348,0.0208,-0.1205,-1.724159379998678,-0.00018958041619043797,2.6689248085021973,-1.363752841949463,-0.0,2.0974373817443848,3.9980780321308593,8.56764508785305e-16,0.2675975561141968,-1.52775746980776,-0.0,-0.006229582242667675,0.995731770992279,0.0,-0.004909039009362459,0.9718502759933472,-0.0006320984102785587,-0.09585735201835632
173.0,226.0,5.0459,-1.8574,7.4985,-0.0348,0.0208,-0.1205,-1.7241555653014125,-0.00019439052266534418,2.6586451530456543,-1.3637527227401733,-0.0,2.0907740592956543,3.99809376775708,1.5571272750114407e-20,0.2594800591468811,-1.5277250448810022,-0.0,-0.0028094039298594,0.9956800937652588,0.0,-0.005208044312894344,0.9718785285949707,-0.0005153471720404923,-0.07441901415586472
173.0,226.0,5.0459,-1.8574,7.4985,-0.0348,0.0208,-0.1205,-1.7241999111571253,-0.0004115964111406356,2.6617431640625,-1.3637325763702393,-0.0,2.0814952850341797,3.9980532365986328,2.8300015196254476e-25,0.2688071131706238,-1.5277612845050257,-0.0,0.0062309494242072105,0.9956960082054138,0.0,-0.015608451329171658,0.971910834312439,-0.00040069431997835636,-0.08159004151821136
173.0,226.0,5.0459,-1.8574,7.4985,-0.0348,0.0208,-0.1205,-1.7242032490172328,-0.0005554973613470793,2.6682167053222656,-1.3637651205062866,-0.0,2.0748794078826904,3.99806992589917,5.143386628689591e-30,0.2705611288547516,-1.5277045408831995,-0.0,-0.009347565472126007,0.9956880211830139,0.0,0.004036615137010813,0.9718862771987915,-0.0003277317446190864,-0.0613570362329483
170.0,234.0,4.6893,-1.7743,7.8156,-0.0402,0.031,-0.1208,-1.724191804925436,-0.0012447979534044862,2.6561379432678223,-1.363776445388794,-0.0,2.1012282371520996,3.9980975824543457,9.347850206087979e-35,0.27190911769866943,-1.5277364889727991,-0.0,0.003955593798309565,0.9957159161567688,0.0,-0.00900372862815857,0.9718702435493469,-0.0002772489096969366,-0.07311038672924042
170.0,234.0,4.6893,-1.7743,7.8156,-0.0402,0.031,-0.1208,-1.724215646783346,-0.0029316626023501158,2.6546072959899902,-1.3637202978134155,-0.0,2.0863969326019287,3.998072786922119,1.6989258503566223e-39,0.26577046513557434,-1.5277250448810022,-0.0,0.005328834988176823,0.9957038164138794,0.0,0.002598863560706377,0.9719186425209045,-0.00024024346203077585,-0.10319899022579193
170.0,234.0,4.6893,-1.7743,7.8156,-0.0402,0.031,-0.1208,-1.724255701104635,-0.007259146310389042,2.638638973236084,-1.3636558055877686,-0.0,2.0969512462615967,3.9980575281330566,3.0828566215145976e-44,0.26707544922828674,-1.5277450720416468,-0.0,-0.004466474521905184,0.9956641793251038,0.0,-0.0021457800175994635,0.9718822240829468,-0.00018545980856288224,-0.0926302820444107
170.0,234.0,4.6893,-1.7743,7.8156,-0.0402,0.031,-0.1208,-1.7243319950499476,-0.008045261725783348,2.6427836418151855,-1.363655924797058,-0.0,2.088609218597412,3.9980575281330566,0.0,0.26878678798675537,-1.5277488867389124,-0.0,0.006936982739716768,0.9957482814788818,0.0,-0.011965921148657799,0.9719185829162598,-2.6745057766675018e-05,-0.0651077851653099
170.0,234.0,4.6893,-1.7743,7.8156,-0.0402,0.031,-0.1208,-1.7243601284422816,-0.0031957468017935753,2.560642719268799,-1.3637125492095947,-0.0,2.0480027198791504,3.998061342830322,0.0,0.24993419647216797,-1.5277732054339808,-0.0,0.01053606066852808,0.995648205280304,0.0,-0.001552280504256487,0.9719301462173462,-8.665058687934435e-13,-0.10824115574359894
170.0,234.0,4.6893,-1.7743,7.8156,-0.0402,0.031,-0.1208,-1.7244039974608363,-0.0017950180917978287,2.6164278984069824,-1.3636882305145264,-0.0,2.079822063446045,3.998061342830322,6.465577939707146e-07,0.26917290687561035,-1.527797047291891,-0.0,0.003756691003218293,0.995715856552124,0.0,-0.004561075009405613,0.9719424843788147,0.000840424676425755,-0.08217378705739975
170.0,234.0,4.6893,-1.7743,7.8156,-0.0402,0.031,-0.1208,-1.7244721851744593,-0.004675272852182388,2.5807950496673584,-1.3637083768844604,-0.0,2.117100715637207,3.9980336862751464,1.1750869374771433e-11,0.25853049755096436,-1.5277531782733362,-0.0,0.008413959294557571,0.9957000017166138,0.0,-0.01047726534307003,0.9719587564468384,0.0010698676342144608,-0.13413739204406738
170.0,234.0,4.6893,-1.7743,7.8156,-0.0402,0.031,-0.1208,-1.724527975121969,-0.005939788650721312,2.551015615463257,-1.363761067390442,-0.0,2.0496482849121094,3.9980408388325195,2.13566255109269e-16,0.2533531188964844,-1.5277369658099573,-0.0,0.01836479641497135,0.9957119226455688,0.0,-0.01012497954070568,0.9719260931015015,0.000878313381690532,-0.1204582005739212
170.0,234.0,4.6893,-1.7743,7.8156,-0.0402,0.031,-0.1208,-1.7245241604247035,-0.0043699005618691444,2.5919365882873535,-1.3637285232543945,-0.0,2.0342659950256348,3.9980575281330566,3.88146101387412e-21,0.2583121061325073,-1.5277813116656702,-0.0,0.012268388643860817,0.9957119226455688,0.0,-0.008576376363635063,0.9720105528831482,0.00040820706635713577,-0.0831034705042839
170.0,234.0,4.6893,-1.7743,7.8156,-0.0402,0.031,-0.1208,-1.724560400048727,-0.0027037281543016434,2.5415964126586914,-1.3637243509292603,-0.0,2.0571341514587402,3.9980851846882324,7.054364609333192e-26,0.242168590426445,-1.5277569929706019,-0.0,0.014099981635808945,0.995680034160614,0.0,-0.004245862364768982,0.9719744920730591,0.00027873096405528486,-0.10436519235372543
170.0,234.0,4.6893,-1.7743,7.8156,-0.0402,0.031,-0.1208,-1.7245398960509242,-0.0018261896912008524,2.5378224849700928,-1.3637691736221313,-0.0,2.055966377258301,3.9981061655231933,1.2820957017186978e-30,0.24937084317207336,-1.5277650992022913,-0.0,-0.005443282425403595,0.9957561492919922,0.0,-0.008280402049422264,0.9719505310058594,0.0001596077054273337,-0.10905646532773972
177.0,231.0,5.0393,-1.7701,7.6092,-0.0334,0.0142,-0.1202,-1.7246161899962367,-0.0019982734229415655,2.528714656829834,-1.363728404045105,-0.0,2.072875499725342,3.998041792506836,2.3301456313407797e-35,0.2380671203136444,-1.5277608076678675,-0.0,0.006458359304815531,0.9957197904586792,0.0,0.008814088068902493,0.9719383716583252,0.00012908187636639923,-0.11520017683506012
177.0,231.0,5.0393,-1.7701,7.6092,-0.0334,0.0142,-0.1202,-1.7245799503722132,-0.002424849895760417,2.4974875450134277,-1.3636842966079712,-0.0,1.9889898300170898,3.9980813699909667,4.234920140974603e-40,0.24270132184028625,-1.5277813116656702,-0.0,0.019489038735628128,0.9957277774810791,0.0,-0.0012161687482148409,0.9719263911247253,-0.00013913614384364337,-0.13021521270275116
177.0,231.0,5.0393,-1.7701,7.6092,-0.0334,0.0142,-0.1202,-1.7246729336180628,-0.0028380367439240217,2.441805362701416,-1.3637325763702393,-0.0,2.030186176300049,3.9980813699909667,7.006492321624085e-45,0.2370130866765976,-1.5278056303607386,-0.0,0.020169058814644814,0.9957236647605896,0.0,-0.012545975856482983,0.9719628691673279,-0.00015554962737951428,-0.17334699630737305
177.0,231.0,5.0393,-1.7701,7.6092,-0.0334,0.0142,-0.1202,-1.724619527856344,-0.0029862411320209503,2.489426612854004,-1.3637202978134155,-0.0,2.0008349418640137,3.9980737405964355,0.0,0.24916797876358032,-1.5277488867389124,-0.0,0.010074294172227383,0.9957197308540344,0.0,0.0015366235747933388,0.9718981981277466,-0.00016580094234086573,-0.1391718089580536
177.0,231.0,5.0393,-1.7701,7.6092,-0.0334,0.0142,-0.1202,-1.7247048817076625,-0.002826600568369031,2.433858871459961,-1.3637125492095947,-0.0,2.0002598762512207,3.99806992589917,0.0,0.24375808238983154,-1.5277488867389124,-0.0,0.025307882577180862,0.9957119226455688,0.0,0.0032363440841436386,0.9719141721725464,-0.0003236609627492726,-0.08924362808465958
177.0,231.0,5.0393,-1.7701,7.6092,-0.0334,0.0142,-0.1202,-1.7246881924071253,-0.00313056749291718,2.4583072662353516,-1.3637009859085083,-0.0,1.983608603477478,3.998037500972412,0.0,0.24579516053199768,-1.5277488867389124,4.416555654529475e-08,0.01998508721590042,0.9956880807876587,0.0,-0.008429795503616333,0.9719424843788147,-0.00027379198581911623,-0.15286371111869812
177.0,231.0,5.0393,-1.7701,7.6092,-0.0334,0.0142,-0.1202,-1.7247244320311488,-0.0033243263605982065,2.411734104156494,-1.3636846542358398,-0.0,2.0574722290039062,3.9980813699909667,-9.223760571330786e-05,0.24931013584136963,-1.527724568043844,8.026871268357327e-13,0.019385069608688354,0.9957197904586792,0.0,0.0008418868528679013,0.9719341993331909,-0.00026556174270808697,-0.14120671153068542
177.0,231.0,5.0393,-1.7701,7.6092,-0.0334,0.0142,-0.1202,-1.7247158489623011,-0.003406026167795062,2.4064278602600098,-1.3637285232543945,-0.0,1.9925228357315063,3.9980336862751464,-8.525064185960218e-05,0.24817493557929993,-1.5277364889727991,1.458844348747714e-17,0.022077539935708046,0.9956642389297485,0.0,-0.00978535320609808,0.9719346165657043,-0.00022724358132109046,-0.1734112799167633
177.0,231.0,5.0393,-1.7701,7.6092,-0.0334,0.0142,-0.1202,-1.7247282467284144,-0.0031083417125046253,2.4443910121917725,-1.3637691736221313,-0.0,2.0175857543945312,3.9980575281330566,-7.924550300231203e-05,0.2534092962741852,-1.5277450720416468,2.6513779107546493e-22,0.010583464987576008,0.9956331253051758,0.0,0.004393444396555424,0.9719387888908386,-0.00022362047457136214,-0.14726978540420532
177.0,231.0,5.0393,-1.7701,7.6092,-0.0334,0.0142,-0.1202,-1.7247840366759242,-0.00251136627048254,2.3828465938568115,-1.3637166023254395,1.834446629800368e-05,1.9922354221343994,3.998072786922119,-7.403078052448109e-05,0.23892655968666077,-1.527740780507223,4.8187475950788176e-27,0.02633799985051155,0.9956642389297485,0.0,-0.013233637437224388,0.9719628691673279,-0.00020154657249804586,-0.1646726429462433
177.0,231.0,5.0393,-1.7701,7.6092,-0.0334,0.0142,-0.1202,-1.7247759304442347,-0.0023059374652802944,2.4062981605529785,-1.3636924028396606,1.6961737856036052e-05,2.1110520362854004,3.9979850488850097,-5.914520806982182e-05,0.2499980479478836,-1.527740780507223,8.757837283682725e-32,0.01723434217274189,0.9956562519073486,0.0,-0.014201424084603786,0.9719341993331909,-0.00017125689191743731,-0.1275882124900818
177.0,231.0,5.0393,-1.7701,7.6092,-0.0334,0.0142,-0.1202,-1.7248245678343714,-0.0025542930234223604,2.413637638092041,-1.3637046813964844,3.1330058845924214e-05,2.0752336978912354,3.9980689722248535,-5.233661431702785e-05,0.2562561631202698,-1.5277774969684046,1.5916935368751174e-36,0.0191335529088974,0.9957355260848999,0.0,-0.001059871632605791,0.971882164478302,-0.0001731745433062315,-0.14001859724521637
173.0,231.0,4.6002,-1.8365,7.5643,-0.0325,0.0609,-0.1268,-1.724856515923971,-0.0027709733694791794,2.438847303390503,-1.3636804819107056,2.9478989745257422e-05,2.0801048278808594,3.99806992589917,-4.946037370245904e-05,0.2541525661945343,-1.527729336415426,2.8928405497521524e-41,0.018824893981218338,0.9955926537513733,0.0,-0.011913320049643517,0.9718860983848572,-0.00019627886649686843,-0.17790871858596802
173.0,231.0,4.6002,-1.8365,7.5643,-0.0325,0.0609,-0.1268,-1.724828382531637,-0.0024969058576971292,2.4050464630126953,-1.3637288808822632,4.1499893995933235e-05,2.091315507888794,3.99809376775708,-3.516955621307716e-05,0.263464093208313,-1.5277212301837366,0.0,0.0396881103515625,0.9956165552139282,0.0,-0.022114349529147148,0.971914529800415,-0.0004375149146653712,-0.15901094675064087
173.0,231.0,4.6002,-1.8365,7.5643,-0.0325,0.0609,-0.1268,-1.7248927555479945,-0.0027917083352804184,2.4300949573516846,-1.3636761903762817,0.00022320213611237705,2.1084485054016113,3.9981180864521484,-3.342184209031984e-05,0.25915664434432983,-1.52773362794985,0.0,0.04548553377389908,0.9956402778625488,0.0,-0.051996901631355286,0.9719104170799255,-0.0004413356655277312,-0.20441508293151855
173.0,231.0,4.6002,-1.8365,7.5643,-0.0325,0.0609,-0.1268,-1.7249084911742152,-0.0034799687564373016,2.358700752258301,-1.3636529445648193,0.001086695003323257,2.102553367614746,3.998089476222656,4.501858347794041e-05,0.2625153064727783,-1.5277088324176233,0.0,0.0392591655254364,0.9956839680671692,0.0,-0.03337186574935913,0.9719305634498596,-0.00035444588866084814,-0.21100197732448578
173.0,231.0,4.6002,-1.8365,7.5643,-0.0325,0.0609,-0.1268,-1.7249161205687464,-0.004384676925837994,2.3803062438964844,-1.3636811971664429,0.004914300516247749,2.1069419384002686,3.998089476222656,4.120724042877555e-05,0.2607651650905609,-1.5277007261859339,0.0,0.04554257541894913,0.995580792427063,0.0,-0.021041207015514374,0.9719025492668152,-0.0002961287391372025,-0.1970159411430359
173.0,231.0,4.6002,-1.8365,7.5643,-0.0325,0.0609,-0.1268,-1.7250005207457484,-0.004430221393704414,2.3488547801971436,-1.363601565361023,0.013525696471333504,2.1431615352630615,3.9980451303669433,3.775028744712472e-05,0.26133495569229126,-1.5277569929706019,0.0,0.03653429448604584,0.9956244230270386,-0.00019215489737689495,-0.04881589114665985,0.9719144701957703,-0.000254292506724596,-0.21289461851119995
173.0,231.0,4.6002,-1.8365,7.5643,-0.0325,0.0609,-0.1268,-1.7249967060484828,-0.0075226761400699615,2.362118721008301,-1.3634296655654907,0.010834287852048874,2.16756010055542,3.998072786922119,3.4828488423954695e-05,0.2666846513748169,-1.5277374426471155,0.0,0.05254225432872772,0.9955966472625732,-0.00021671116701327264,-0.037515342235565186,0.9718981981277466,-0.00019496229651849717,-0.17299389839172363
173.0,231.0,4.6002,-1.8365,7.5643,-0.0325,0.0609,-0.1268,-1.725044389764303,-0.009567647241055965,2.34143328666687,-1.3633580207824707,0.010454676114022732,2.196780204772949,3.998072786922119,3.232645758544095e-05,0.26129114627838135,-1.5277813116656702,0.0,0.06074567139148712,0.9955768585205078,-0.0002199300070060417,-0.04454336315393448,0.9719424843788147,-6.860543362563476e-05,-0.1811564862728119
173.0,231.0,4.6002,-1.8365,7.5643,-0.0325,0.0609,-0.1268,-1.7250925503172816,-0.008380627259612083,2.3668394088745117,-1.3632503747940063,0.010042539797723293,2.1718621253967285,3.998105688686035,3.0159846573951654e-05,0.2596520483493805,-1.5276888052569788,9.171650162898004e-05,0.04701467603445053,0.995564877986908,-0.0002203668700531125,-0.043104466050863266,0.9719424247741699,-5.952924402663484e-05,-0.21367008984088898
173.0,231.0,4.6002,-1.8365,7.5643,-0.0325,0.0609,-0.1268,-1.7251807651915492,-0.004836801439523697,2.394223690032959,-1.363194465637207,0.00974213145673275,2.144730567932129,3.9981252390095214,4.239763075020164e-05,0.25881361961364746,-1.527729336415426,8.48068593768403e-05,0.04517609626054764,0.9955887198448181,-0.0002676426956895739,-0.05848844349384308,0.9719465374946594,-2.7346470233169384e-05,-0.23009225726127625
173.0,231.0,4.6002,-1.8365,7.5643,-0.0325,0.0609,-0.1268,-1.7252699337401332,-0.003923764452338219,2.3707542419433594,-1.3631031513214111,0.009061522781848907,2.145326614379883,3.998105688686035,3.989244578406215e-05,0.2715950906276703,-1.5277007261859339,7.886185630923137e-05,0.05978016555309296,0.9955452084541321,-0.00025871643447317183,-0.05381619557738304,0.9719182252883911,-1.1109506914408485e-07,-0.22704920172691345
176.0,231.0,4.0863,-1.7456,7.3155,-0.0432,-0.0206,-0.1257,-1.7252327404417933,-0.005872100125998259,2.365025520324707,-1.3631030321121216,0.007179275620728731,2.162907838821411,3.998133822078369,3.766639201785438e-05,0.2663721442222595,-1.5277608076678675,7.369576633209363e-05,0.06161155551671982,0.9956006407737732,-0.00021920375002082437,-0.05654403567314148,0.9719060659408569,-3.5993390308985875e-15,-0.2101990133523941
176.0,231.0,4.0863,-1.7456,7.3155,-0.0432,-0.0206,-0.1257,-1.725309511224264,-0.0077049462124705315,2.2853081226348877,-1.3630471229553223,0.004238395486027002,2.1183133125305176,3.998145266170166,3.567561725503765e-05,0.2688353955745697,-1.5277655760394495,6.916494021425024e-05,0.04294978082180023,0.995580792427063,-0.00021997070871293545,-0.06267935037612915,0.9719424843788147,-1.1661401333568197e-22,-0.24329231679439545
176.0,231.0,4.0863,-1.7456,7.3155,-0.0432,-0.0206,-0.1257,-1.725372930566305,-0.010757061652839184,2.3668723106384277,-1.3630800247192383,0.0022764145396649837,2.1968703269958496,3.9981328684040527,3.388472396181896e-05,0.26974862813949585,-1.5277612845050257,6.515895074699074e-05,0.05221208930015564,0.9955728650093079,-0.00019303943554405123,-0.06065303087234497,0.9719622135162354,-3.778145672469435e-30,-0.21425935626029968
176.0,231.0,4.0863,-1.7456,7.3155,-0.0432,-0.0206,-0.1257,-1.725469251672262,-0.012534410692751408,2.309098243713379,-1.3630757331848145,0.0011894870549440384,2.1079154014587402,3.998093290919922,3.226505214115605e-05,0.2697441577911377,-1.5277364889727991,6.159157783258706e-05,0.04437568038702011,0.9955450296401978,-0.00019652507035061717,-0.062283433973789215,0.9719182252883911,-1.2240710907633087e-37,-0.19097544252872467
176.0,231.0,4.0863,-1.7456,7.3155,-0.0432,-0.0206,-0.1257,-1.7255894146361292,-0.014506480656564236,2.297790050506592,-1.3630034923553467,0.0008085924200713634,2.0864100456237793,3.99805657445874,3.0793158657616004e-05,0.2599753737449646,-1.5277450720416468,4.671657006838359e-05,0.04061233624815941,0.995620846748352,-0.0001771807874320075,-0.0567532554268837,0.9719662070274353,0.0002644927008077502,-0.14570121467113495
176.0,231.0,4.0863,-1.7456,7.3155,-0.0432,-0.0206,-0.1257,-1.72569002727651,-0.018982162699103355,2.2637417316436768,-1.3629953861236572,0.0007047203253023326,2.113713264465332,3.9980851846882324,1.3110457075526938e-06,0.25368571281433105,-1.5277932325946253,4.441049532033503e-05,0.03878943622112274,0.9956085681915283,-0.00016130233416333795,-0.06901834905147552,0.9719424247741699,0.0002998461131937802,-0.20750990509986877
176.0,231.0,4.0863,-1.7456,7.3155,-0.0432,-0.0206,-0.1257,-1.7258616886534632,-0.02435455657541752,2.2603824138641357,-1.362971305847168,0.00124920008238405,2.095363140106201,3.9981295305439453,2.3827608289228586e-11,0.25018832087516785,-1.5277693907367151,4.2322149965912104e-05,0.03447677940130234,0.9955847263336182,-0.00013568757276516408,-0.05858843773603439,0.971990168094635,0.0005488747847266495,-0.2117958813905716
176.0,231.0,4.0863,-1.7456,7.3155,-0.0432,-0.0206,-0.1257,-1.726126333276266,-0.0341467447578907,2.215440273284912,-1.3629467487335205,0.0011428350117057562,2.1191132068634033,3.9980813699909667,4.3305496458574005e-16,0.25909850001335144,-1.5277894178973597,4.04213642468676e-05,0.03979141265153885,0.9955728054046631,-0.0001209349647979252,-0.06193650886416435,0.9720302820205688,0.001158097991719842,-0.13756036758422852
176.0,231.0,4.0863,-1.7456,7.3155,-0.0432,-0.0206,-0.1257,-1.726403375665182,-0.04136529192328453,2.177325963973999,-1.3630034923553467,0.0009232824668288231,2.148501396179199,3.9981090265461425,7.87055971275027e-21,0.24704709649085999,-1.5277364889727991,4.330336267344137e-08,0.02919655665755272,0.9956167340278625,-0.00010919578198809177,-0.06101270020008087,0.9720183610916138,0.0019985272083431482,-0.1326717734336853
176.0,231.0,4.0863,-1.7456,7.3155,-0.0432,-0.0206,-0.1257,-1.7267714939513148,-0.05033394694328308,2.189772844314575,-1.3629558086395264,0.0008637577411718667,2.0930404663085938,3.998105688686035,2.580682485131547e-05,0.2550351023674011,-1.5277774969684046,7.87017261257017e-13,0.03026450425386429,0.9955687522888184,-9.953433618647978e-05,-0.05317526310682297,0.9720101356506348,0.0017155093373730779,-0.1177816390991211
176.0,231.0,4.0863,-1.7456,7.3155,-0.0432,-0.0206,-0.1257,-1.7272449932494105,-0.05759763717651367,2.167207717895508,-1.3629876375198364,0.002443896373733878,2.127199649810791,3.998121424312256,2.4407443561358377e-05,0.2541905343532562,-1.5277488867389124,1.4303650165658807e-17,0.023681441321969032,0.9956048727035522,-9.144339128397405e-05,-0.06460510939359665,0.9720823168754578,0.0013927619438618422,-0.1325196921825409
174.0,226.0,4.7288,-1.8126,7.4465,-0.0826,-0.095,-0.1266,-1.7276526890196742,-0.06706396490335464,2.150395154953003,-1.3629000186920166,0.002583638532087207,2.047016143798828,3.998105688686035,2.3151733330450952e-05,0.2474711835384369,-1.5277450720416468,2.599617780646095e-22,0.029282979667186737,0.9955567717552185,-8.456916839350015e-05,-0.052362725138664246,0.9720901250839233,0.001048670499585569,-0.11741484701633453
174.0,226.0,4.7288,-1.8126,7.4465,-0.0826,-0.095,-0.1266,-1.7282735309996546,-0.07433187961578369,2.1128528118133545,-1.3628679513931274,0.002781318500638008,2.0943052768707275,3.998089476222656,2.2018904928700067e-05,0.2453441172838211,-1.5277488867389124,4.72467670250319e-27,0.018796365708112717,0.995560884475708,-7.865628867875785e-05,-0.06667204201221466,0.9720860123634338,0.0008315682061947882,-0.08849653601646423
174.0,226.0,4.7288,-1.8126,7.4465,-0.0826,-0.095,-0.1266,-1.7288176021971644,-0.07726287096738815,2.121978282928467,-1.3628439903259277,0.003247361397370696,2.075927734375,3.9980851846882324,2.0991785277146846e-05,0.2565724551677704,-1.5277608076678675,8.586866332333026e-32,0.026200460270047188,0.9956327676773071,-8.821889787213877e-05,-0.06536106020212173,0.9720540046691895,0.0005862989346496761,-0.06772118806838989
174.0,226.0,4.7288,-1.8126,7.4465,-0.0826,-0.095,-0.1266,-1.7294870815672816,-0.07757803797721863,2.154562473297119,-1.3628439903259277,0.0026268642395734787,2.036836624145508,3.9981376367756347,2.0056193534401245e-05,0.25342392921447754,-1.5277693907367151,1.560620673890895e-36,0.033127643167972565,0.9956048130989075,-9.659371426096186e-05,-0.06770708411931992,0.9720257520675659,0.000351232651155442,-0.10966500639915466
174.0,226.0,4.7288,-1.8126,7.4465,-0.0826,-0.095,-0.1266,-1.7300998173155726,-0.08221963047981262,2.1531496047973633,-1.362819790840149,0.001163750421255827,2.106731414794922,3.9981209474750976,2.7985733730417905e-09,0.24410071969032288,-1.527740780507223,2.836368221639862e-41,0.029585400596261024,0.9956491589546204,-9.102594049181789e-05,-0.07914557307958603,0.972082257270813,0.00026765232905745506,-0.12281716614961624
174.0,226.0,4.7288,-1.8126,7.4465,-0.0826,-0.095,-0.1266,-1.7308203182616175,-0.0899747908115387,2.1175551414489746,-1.3628439903259277,0.000624577805865556,2.1172800064086914,3.9980856615253906,5.086268523870306e-14,0.24678844213485718,-1.5277608076678675,0.0,0.023876450955867767,0.9955847263336182,-9.823942673392594e-05,-0.06906447559595108,0.9720900654792786,0.00017296895384788513,-0.10087188333272934
174.0,226.0,4.7288,-1.8126,7.4465,-0.0826,-0.095,-0.1266,-1.7315088711180628,-0.09797900915145874,2.1172659397125244,-1.362828016281128,0.0004269561031833291,2.0139782428741455,3.998105688686035,9.244041130300603e-19,0.2571922838687897,-1.5277488867389124,0.0,0.03061705455183983,0.9955241680145264,-9.32507828110829e-05,-0.0642143189907074,0.9719937443733215,0.00010931836004601792,-0.10726284980773926
174.0,226.0,4.7288,-1.8126,7.4465,-0.0826,-0.095,-0.1266,-1.7323504887022914,-0.10468974709510803,2.137686014175415,-1.36281156539917,0.0003783191496040672,2.0943942070007324,3.998145266170166,1.680058842410173e-23,0.26039087772369385,-1.5277650992022913,0.0,0.02170494571328163,0.9956205487251282,-8.865779818734154e-05,-0.060162000358104706,0.9720097184181213,9.370502812089399e-05,-0.1059616208076477
174.0,226.0,4.7288,-1.8126,7.4465,-0.0826,-0.095,-0.1266,-1.7331634960570277,-0.1113392561674118,2.1137185096740723,-1.3627721071243286,0.0017924451967701316,2.0335230827331543,3.998093290919922,3.0534237413524527e-28,0.24484074115753174,-1.5277894178973597,0.0,0.025071028620004654,0.9956207871437073,-8.449598681181669e-05,-0.05741804465651512,0.9720257520675659,-0.00010934608872048557,-0.13606981933116913
174.0,226.0,4.7288,-1.8126,7.4465,-0.0826,-0.095,-0.1266,-1.7340089283385218,-0.10952311009168625,2.144428253173828,-1.362788438796997,0.004589299205690622,2.0694739818573,3.9980851846882324,5.549446382094632e-33,0.25233107805252075,-1.5277450720416468,0.0,0.014281535521149635,0.9955119490623474,-7.894472946645692e-05,-0.06197535619139671,0.9720020294189453,-0.00016230647452175617,-0.12343119829893112
174.0,226.0,4.7288,-1.8126,7.4465,-0.0826,-0.095,-0.1266,-1.7349420986571253,-0.11054400354623795,2.1821348667144775,-1.3627402782440186,0.006113641429692507,2.042290449142456,3.998105688686035,1.00858445759391e-37,0.24288468062877655,-1.52775746980776,0.0,0.026494111865758896,0.9956167340278625,-7.328062929445878e-05,-0.06639572978019714,0.9719577431678772,-0.0005995756946504116,-0.1962820291519165
174.0,226.0,4.7288,-1.8126,7.4465,-0.0826,-0.095,-0.1266,-1.7358070812621058,-0.11579672247171402,2.1704611778259277,-1.3626803159713745,0.005723743699491024,2.0569441318511963,3.9980971056171875,1.8328983913368607e-42,0.2615545690059662,-1.5277169386493128,0.0,0.031215447932481766,0.9956007599830627,-8.93353353603743e-05,-0.06059446185827255,0.971973717212677,-0.0007964237011037767,-0.1982022225856781
160.0,236.0,6.0843,-2.2128,7.1964,-0.0623,-0.0753,-0.1312,-1.7367359600462855,-0.12350489944219589,2.094738483428955,-1.3626487255096436,0.005130409728735685,2.070730209350586,3.9981376367756347,0.0,0.2640071213245392,-1.5277364889727991,0.0,0.047756195068359375,0.995560884475708,-0.00010329859651392326,-0.07207277417182922,0.9719782471656799,-0.0010173547780141234,-0.20165714621543884
160.0,236.0,6.0843,-2.2128,7.1964,-0.0623,-0.0753,-0.1312,-1.737685342828268,-0.125512957572937,2.139390468597412,-1.3625569343566895,0.005888985004276037,2.073873519897461,3.9981538492390136,0.0,0.25852134823799133,-1.527785603200094,4.1689685037482604e-10,0.044143691658973694,0.9955205917358398,-0.0003260444209445268,-0.07875964790582657,0.9719182252883911,-0.0015354221686720848,-0.23761411011219025
160.0,236.0,6.0843,-2.2128,7.1964,-0.0623,-0.0753,-0.1312,-1.7386499843993128,-0.12096168845891953,2.1435415744781494,-1.362528920173645,0.008454529568552971,2.106916666030884,3.998156710261963,5.8878682466456667e-05,0.25701749324798584,-1.5277045408831995,7.57689351933927e-15,0.05221404507756233,0.9955774545669556,-0.00035123011912219226,-0.06467507779598236,0.9719703793525696,-0.00281676952727139,-0.25629594922065735
160.0,236.0,6.0843,-2.2128,7.1964,-0.0623,-0.0753,-0.1312,-1.7396437130370082,-0.11140543967485428,2.2139174938201904,-1.362493634223938,0.01219391729682684,2.1236705780029297,3.9982096391865234,0.0017009966541081667,0.27574416995048523,-1.5277088324176233,1.377062754173519e-19,0.03904471546411514,0.9954802393913269,-0.0005776899633929133,-0.07669617980718613,0.9718984961509705,-0.0040844520553946495,-0.2848604917526245
160.0,236.0,6.0843,-2.2128,7.1964,-0.0623,-0.0753,-0.1312,-1.7405930958189906,-0.11697275191545486,2.240896224975586,-1.3623974323272705,0.012357519008219242,2.1715011596679688,3.998209162349365,0.0023343884386122227,0.2663603723049164,-1.5277045408831995,2.5027434605630292e-24,0.03387649357318878,0.9955287575721741,-0.0007796434219926596,-0.06843572109937668,0.9718379378318787,-0.004015515558421612,-0.26491525769233704
160.0,236.0,6.0843,-2.2128,7.1964,-0.0623,-0.0753,-0.1312,-1.7415663204588832,-0.1274205446243286,2.2711892127990723,-1.3622492551803589,0.01204195898026228,2.213099718093872,3.9982611375996093,0.010750142857432365,0.27133962512016296,-1.5277050177203577,4.5486125925520563e-29,0.03711684048175812,0.9954847693443298,-0.0009210416465066373,-0.08503498882055283,0.9718421101570129,-0.0029167402535676956,-0.18595123291015625
160.0,236.0,6.0843,-2.2128,7.1964,-0.0623,-0.0753,-0.1312,-1.7424947224059046,-0.1270560324192047,2.313537359237671,-1.3621704578399658,0.014426583424210548,2.178071975708008,3.9984375673481445,0.027882233262062073,0.2922240197658539,-1.5277088324176233,8.266878917218747e-34,0.040950629860162735,0.9954926371574402,-0.0009047758067026734,-0.10077638924121857,0.9718384146690369,-0.0016213592607527971,-0.22311654686927795
160.0,236.0,6.0843,-2.2128,7.1964,-0.0623,-0.0753,-0.1312,-1.7434841595091761,-0.11783211678266525,2.3528707027435303,-1.3620027303695679,0.020005768164992332,2.2175331115722656,3.9986650186726074,0.028531553223729134,0.2922285795211792,-1.52775746980776,1.5024643661776686e-38,0.03461398929357529,0.9954967498779297,-0.001391528407111764,-0.09013588726520538,0.9718748927116394,-0.0009915695991367102,-0.237081378698349
160.0,236.0,6.0843,-2.2128,7.1964,-0.0623,-0.0753,-0.1312,-1.7444259128966273,-0.1053554117679596,2.3707361221313477,-1.3617955446243286,0.02900509722530842,2.2426578998565674,3.9988323885151367,0.0235148798674345,0.307626336812973,-1.5277650992022913,2.7325320054333933e-43,0.03629613295197487,0.9955488443374634,-0.0030414112843573093,-0.09354844689369202,0.9718023538589478,-0.000559727312065661,-0.2337544709444046
160.0,236.0,6.0843,-2.2128,7.1964,-0.0623,-0.0753,-0.1312,-1.7453509769835414,-0.1091732457280159,2.3696448802948,-1.3615405559539795,0.03195474296808243,2.2492165565490723,3.99897210180249,0.012208869680762291,0.3038952350616455,-1.5278094450580042,0.0,0.035287097096443176,0.995441198348999,-0.010219145566225052,-0.09744976460933685,0.9718748927116394,-1.5044960832710785e-08,-0.20128536224365234
160.0,236.0,6.0843,-2.2128,7.1964,-0.0623,-0.0753,-0.1312,-1.7462998829283656,-0.12196258455514908,2.4108943939208984,-1.3613133430480957,0.03496379777789116,2.2789056301116943,3.999044581050537,0.0007336790440604091,0.2945905029773712,-1.5277612845050257,0.0,0.02072032168507576,0.9953858256340027,-0.009638861753046513,-0.11343434453010559,0.9718822240829468,0.0013526573311537504,-0.16052961349487305
154.0,231.0,7.9017,-3.4935,6.344,-0.0956,-0.0843,-0.1008,-1.7472931347289027,-0.1323232352733612,2.411020278930664,-1.3609788417816162,0.04066808149218559,2.3036656379699707,3.999084158534668,1.881974398543207e-08,0.2923453748226166,-1.5277488867389124,0.0,0.005828493274748325,0.9953334331512451,-0.0024429254699498415,-0.08582428097724915,0.9718781113624573,0.0008553193765692413,-0.12712204456329346
154.0,231.0,7.9017,-3.4935,6.344,-0.0956,-0.0843,-0.1008,-1.7483264408507289,-0.12945783138275146,2.4344048500061035,-1.3605839014053345,0.05069626122713089,2.3116838932037354,3.9991041856953125,3.420395206215482e-13,0.303219735622406,-1.527768913899557,0.0,0.013032662682235241,0.9952700138092041,-0.0009038646821863949,-0.08853170275688171,0.9719149470329285,0.000502286187838763,-0.10329298675060272
154.0,231.0,7.9017,-3.4935,6.344,-0.0956,-0.0843,-0.1008,-1.7493192158141078,-0.11040753871202469,2.428392171859741,-1.3601776361465454,0.06333082914352417,2.379981517791748,3.999136133784912,0.006830332335084677,0.3197501301765442,-1.5277727285968226,0.0,-0.0005374342435970902,0.9953174591064453,-0.0005738525651395321,-0.09710437804460526,0.9719067811965942,0.000384973332984373,-0.16448430716991425
154.0,231.0,7.9017,-3.4935,6.344,-0.0956,-0.0843,-0.1008,-1.750268121758932,-0.09792129695415497,2.5303075313568115,-1.3596396446228027,0.06526674330234528,2.340228796005249,3.9992362695881347,0.011584820225834846,0.32284843921661377,-1.527780834828512,0.0,0.003431240562349558,0.9952936172485352,-0.00048050121404230595,-0.09778967499732971,0.9719383716583252,0.0008676784345880151,-0.10164979100227356
154.0,231.0,7.9017,-3.4935,6.344,-0.0956,-0.0843,-0.1008,-1.751193185845846,-0.11298002302646637,2.481419086456299,-1.3591455221176147,0.06427539139986038,2.3995635509490967,3.999243898982666,0.005182754714041948,0.3224387764930725,-1.527792755757467,0.0,-0.0069965785369277,0.9953656196594238,-0.0003792693023569882,-0.09935969114303589,0.9719942212104797,0.0031223574187606573,-0.10030534118413925
154.0,231.0,7.9017,-3.4935,6.344,-0.0956,-0.0843,-0.1008,-1.7522031269469203,-0.13654640316963196,2.4622244834899902,-1.3586149215698242,0.06558983027935028,2.3576722145080566,3.999211474055908,9.894275535771158e-06,0.31424951553344727,-1.527764622365133,0.0,-0.015754973515868187,0.9953014254570007,-0.00031324720475822687,-0.11135999113321304,0.971990168094635,0.006338491104543209,-0.04111553728580475
154.0,231.0,7.9017,-3.4935,6.344,-0.0956,-0.0843,-0.1008,-1.7532321415343226,-0.14298821985721588,2.3948919773101807,-1.3579857349395752,0.07731735706329346,2.3175978660583496,3.9992639261433105,1.798235033101392e-10,0.3050973117351532,-1.5278247038470667,0.0,-0.024295205250382423,0.99532151222229,-0.00026680660084821284,-0.09664054214954376,0.9720101356506348,0.007892686873674393,0.022488176822662354
154.0,231.0,7.9017,-3.4935,6.344,-0.0956,-0.0843,-0.1008,-1.754350324670309,-0.13097073137760162,2.392599582672119,-1.357183575630188,0.10168897360563278,2.3366472721099854,3.9992877680012207,3.2682029351143067e-15,0.30826741456985474,-1.5278051535235804,0.0,-0.010902650654315948,0.9953694939613342,-0.00023235981643665582,-0.09820064902305603,0.9720502495765686,0.00226087449118495,-0.05172937735915184
154.0,231.0,7.9017,-3.4935,6.344,-0.0956,-0.0843,-0.1008,-1.755435129205221,-0.11437296867370605,2.4484214782714844,-1.3564236164093018,0.12234888225793839,2.334284782409668,3.999272032375,5.939797216870614e-20,0.29828131198883057,-1.527797047291891,-0.00018882667063735425,-0.031387705355882645,0.99532151222229,-0.00020579705596901476,-0.10193662345409393,0.9720781445503235,0.0008454921771772206,0.01059550791978836
154.0,231.0,7.9017,-3.4935,6.344,-0.0956,-0.0843,-0.1008,-1.7564479313292445,-0.11569707095623016,2.4059371948242188,-1.3554233312606812,0.12504741549491882,2.381584644317627,3.999215765590332,-0.00017598000704310834,0.29429611563682556,-1.5277727285968226,-0.00016896425222512335,-0.03223930299282074,0.9953014850616455,-0.00011766360694309697,-0.09576202929019928,0.9721261262893677,0.0007994492771103978,0.0674586296081543
154.0,231.0,7.9017,-3.4935,6.344,-0.0956,-0.0843,-0.1008,-1.7574974499144496,-0.14022250473499298,2.3160603046417236,-1.3545149564743042,0.11279036104679108,2.360366106033325,3.999211474055908,-0.00028154367464594543,0.2835718095302582,-1.5277932325946253,-0.000150167805259116,-0.05454278737306595,0.9952823519706726,-0.00010652065247995779,-0.10198013484477997,0.9721581339836121,0.0037907217629253864,0.04505259171128273
154.0,231.0,7.9017,-3.4935,6.344,-0.0956,-0.0843,-0.1008,-1.7586027584471644,-0.1606345921754837,2.3622002601623535,-1.3534622192382812,0.11004381626844406,2.2797322273254395,3.9992238718220214,-0.00021521396411117166,0.2797912359237671,-1.527740780507223,-0.00013513492012862116,-0.03831417113542557,0.9953616857528687,-9.730664169183001e-05,-0.10289663076400757,0.9720617532730103,0.001959980232641101,0.023223772644996643
140.0,210.0,6.5611,-3.1196,6.7938,-0.0695,-0.0582,-0.069,-1.75964417080068,-0.15091925859451294,2.2731587886810303,-1.3525065183639526,0.1218879446387291,2.2789692878723145,3.9992877680012207,-9.189669799525291e-05,0.2714500427246094,-1.5277846495257776,-0.00012283831893000752,-0.02292586863040924,0.995297372341156,-0.000107163745269645,-0.09715327620506287,0.9720457792282104,7.389460279227933e-06,0.06403407454490662
140.0,210.0,6.5611,-3.1196,6.7938,-0.0695,-0.0582,-0.069,-1.760817667047018,-0.11841773241758347,2.321876287460327,-1.351505994796753,0.1461896300315857,2.278456449508667,3.99929587423291,-2.6653802365217416e-07,0.27216020226478577,-1.5278051535235804,-0.00011259286111453548,-0.01697041094303131,0.9953175783157349,-9.95468144537881e-05,-0.10083982348442078,0.9720982313156128,2.3940915981450483e-13,0.014952908270061016
140.0,210.0,6.5611,-3.1196,6.7938,-0.0695,-0.0582,-0.069,-1.7618142567076625,-0.10844619572162628,2.336254835128784,-1.3502787351608276,0.16240210831165314,2.3550286293029785,3.999227209682129,-4.844196658387867e-12,0.27553704380989075,-1.5278008619891565,-0.00010392512194812298,-0.031469229608774185,0.9952976703643799,-9.271041199099272e-05,-0.11231690645217896,0.9721019268035889,7.756551767679301e-21,0.020828453823924065
140.0,210.0,6.5611,-3.1196,6.7938,-0.0695,-0.0582,-0.069,-1.7628761730589808,-0.1288887858390808,2.3500969409942627,-1.3490592241287231,0.15260900557041168,2.3634066581726074,3.9992076593586425,-8.80408824702978e-17,0.2710970938205719,-1.527768913899557,-9.649647836340591e-05,-0.03636786714196205,0.9953016042709351,-8.675262506585568e-05,-0.11451351642608643,0.9721015691757202,0.002389080822467804,0.010020505636930466
140.0,210.0,6.5611,-3.1196,6.7938,-0.0695,-0.0582,-0.069,-1.7639252148070277,-0.15592949092388153,2.318319320678711,-1.34784996509552,0.14431580901145935,2.2468438148498535,3.999239607448242,-1.6000995097819622e-21,0.260424941778183,-1.5277770201312464,-9.005909669212997e-05,-0.03623680770397186,0.9953055381774902,-8.151436486514285e-05,-0.0885951966047287,0.9721453785896301,0.0016717122634872794,-0.0019518232438713312
