ramyac6/ROB537/final_project/csv/all/good_161.csv
tof_0,tof_1,accelx,accely,accelz,gyrox,gyroy,gyroz,shoulder_lift_joint_position,shoulder_lift_joint_velocity,shoulder_lift_joint_effort,elbow_joint_position,elbow_joint_velocity,elbow_joint_effort,wrist_1_joint_position,wrist_1_joint_velocity,wrist_1_joint_effort,wrist_2_joint_position,wrist_2_joint_velocity,wrist_2_joint_effort,wrist_3_joint_position,wrist_3_joint_velocity,wrist_3_joint_effort,shoulder_pan_joint_position,shoulder_pan_joint_velocity,shoulder_pan_joint_effort
928.0,876.0,2.8187,-0.1705,9.0425,-0.0357,0.0243,-0.1147,-1.6986595592894496,0.0,2.6403210163116455,-1.778588056564331,-0.0,2.122483015060425,4.655844374293945,-0.0,0.2954387664794922,-1.5833056608783167,0.0,-0.002846835181117058,0.8532796502113342,0.0,-0.002545134862884879,0.7787509560585022,0.0,0.033204615116119385
928.0,876.0,2.8187,-0.1705,9.0425,-0.0357,0.0243,-0.1147,-1.6986075840392054,0.0,2.6720056533813477,-1.7786152362823486,-0.0,2.0717620849609375,4.655852480525635,-0.0,0.2952222228050232,-1.583289925252096,0.0,-0.003039257600903511,0.8532549142837524,0.0,-0.0007909086998552084,0.7787306904792786,0.0,-0.010021083056926727
928.0,876.0,2.8187,-0.1705,9.0425,-0.0357,0.0243,-0.1147,-1.6986352405943812,0.0,2.661843776702881,-1.778607726097107,-0.0,2.157993793487549,4.655840082759521,-0.0,0.28881117701530457,-1.583278004323141,0.0,-0.010337602347135544,0.8531997203826904,0.0,0.001972722355276346,0.7787509560585022,0.0,-0.012814829126000404
928.0,876.0,2.8187,-0.1705,9.0425,-0.0357,0.0243,-0.1147,-1.6986595592894496,0.0,2.6306967735290527,-1.7786275148391724,-0.0,2.1038002967834473,4.655844374293945,-0.0,0.3047800064086914,-1.5833023230182093,0.0,0.00019404594786465168,0.8532354831695557,0.0,-0.009804113768041134,0.7787104249000549,0.0,-0.018769467249512672
928.0,876.0,2.8187,-0.1705,9.0425,-0.0357,0.0243,-0.1147,-1.6985708675780238,0.0,2.6485824584960938,-1.7785987854003906,-0.0,2.104710578918457,4.655844374293945,-0.0,0.3000834584236145,-1.5833099524127405,0.0,-0.017318159341812134,0.8532436490058899,0.0,-0.00908082164824009,0.7787227630615234,0.0,0.016783708706498146
928.0,876.0,2.8187,-0.1705,9.0425,-0.0357,0.0243,-0.1147,-1.6985908947386683,0.0,2.6467127799987793,-1.7785799503326416,-0.0,2.08225154876709,4.655819578761719,-0.0,0.29256391525268555,-1.5833261648761194,0.0,-0.022763803601264954,0.8532114028930664,0.0,-0.0027862186543643475,0.7787550687789917,0.0,0.013629582710564137
928.0,876.0,2.8187,-0.1705,9.0425,-0.0357,0.0243,-0.1147,-1.6986519298949183,0.0,2.6476540565490723,-1.7786234617233276,-0.0,2.1069321632385254,4.655880613917969,-0.0,0.2978150248527527,-1.5833342711078089,0.0,0.003675223561003804,0.8531875014305115,0.0,-0.002500127535313368,0.7787104845046997,0.0,-0.02274094894528389
928.0,876.0,2.8187,-0.1705,9.0425,-0.0357,0.0243,-0.1147,-1.6986271343626917,0.0,2.662623882293701,-1.778639793395996,-0.0,2.1299986839294434,4.655897303218506,-0.0,0.30750495195388794,-1.583329979573385,0.0,-0.008559465408325195,0.853203535079956,0.0,-0.016294842585921288,0.778742790222168,0.0,-0.028388941660523415
944.0,889.0,2.7894,-0.2351,9.0419,-0.0409,0.0243,-0.1161,-1.6985951862730921,0.0,2.6159582138061523,-1.7785840034484863,-0.0,2.146881103515625,4.6558567720600585,-0.0,0.2918846905231476,-1.5832980314837855,0.0,-0.0030128206126391888,0.85323166847229,0.0,-0.0031130039133131504,0.7787225246429443,0.0,0.03596993163228035
944.0,889.0,2.7894,-0.2351,9.0419,-0.0409,0.0243,-0.1161,-1.6986156902708949,0.0,2.599902629852295,-1.7785840034484863,-0.0,2.08890438079834,4.655861063594482,-0.0,0.28887248039245605,-1.583278004323141,0.0,-0.011113842017948627,0.8532426953315735,0.0,-0.0019377621356397867,0.7787266373634338,0.0,-0.03810745105147362
944.0,889.0,2.7894,-0.2351,9.0419,-0.0409,0.0243,-0.1161,-1.698583265344137,0.0,2.670071601867676,-1.7785913944244385,-0.0,2.103203773498535,4.655852480525635,-0.0,0.29876452684402466,-1.5833466688739222,0.0,-0.010153712704777718,0.8531994819641113,0.0,-0.011904111132025719,0.7787509560585022,0.0,-0.04000338166952133
944.0,889.0,2.7894,-0.2351,9.0419,-0.0409,0.0243,-0.1161,-1.6985908947386683,0.0,2.6731276512145996,-1.778588056564331,-0.0,2.080780029296875,4.655827684993408,-0.0,0.2949664890766144,-1.58331805864443,0.0,-0.01248987391591072,0.8532273769378662,0.0,-0.0063646892085671425,0.7787024974822998,0.0,-0.03253506124019623
944.0,889.0,2.7894,-0.2351,9.0419,-0.0409,0.0243,-0.1161,-1.6986271343626917,0.0,2.6391429901123047,-1.7785922288894653,-0.0,2.124764919281006,4.655897303218506,-0.0,0.29801705479621887,-1.5833142439471644,0.0,-0.004462213255465031,0.8531994819641113,0.0,0.006482352502644062,0.7786901593208313,0.0,0.03747435659170151
944.0,889.0,2.7894,-0.2351,9.0419,-0.0409,0.0243,-0.1161,-1.6986314258971156,0.0,2.606715202331543,-1.7785799503326416,-0.0,2.098076820373535,4.655808134669922,-0.0,0.29506370425224304,-1.5833099524127405,0.0,0.0018314244225621223,0.853203535079956,0.0,-0.0014441499952226877,0.7787145376205444,0.0,0.00397452712059021
944.0,889.0,2.7894,-0.2351,9.0419,-0.0409,0.0243,-0.1161,-1.6986032925047816,0.0,2.593001127243042,-1.7785189151763916,-0.0,2.108168601989746,4.655868216151855,-0.0,0.30067792534828186,-1.583278004323141,0.0,0.0051743038929998875,0.8531558513641357,0.0,-0.0033992405515164137,0.7787430286407471,0.0,-0.007672937586903572
944.0,889.0,2.7894,-0.2351,9.0419,-0.0409,0.0243,-0.1161,-1.6986595592894496,0.0,2.6413440704345703,-1.7785799503326416,-0.0,2.0854201316833496,4.655836268062256,-0.0,0.3053361773490906,-1.5833142439471644,0.0,-0.018656421452760696,0.8532305359840393,0.0,-0.0038328920491039753,0.7787348031997681,0.0,-0.035493362694978714
944.0,889.0,2.7894,-0.2351,9.0419,-0.0409,0.0243,-0.1161,-1.6986199818053187,0.0,2.647463321685791,-1.7786357402801514,-0.0,2.0834131240844727,4.655868216151855,-0.0,0.28979551792144775,-1.5832818190204065,0.0,-0.022509029135107994,0.8531954288482666,0.0,-0.005968195386230946,0.7787711024284363,0.0,0.004252250771969557
944.0,889.0,2.7894,-0.2351,9.0419,-0.0409,0.0243,-0.1161,-1.6986757717528285,0.0,2.655247688293457,-1.778639793395996,-0.0,2.082594871520996,4.655827684993408,-0.0,0.29152414202690125,-1.5832861105548304,0.0,-0.012817103415727615,0.853207528591156,0.0,-0.007362701930105686,0.7787348031997681,0.0,-0.017934679985046387
944.0,889.0,2.7894,-0.2351,9.0419,-0.0409,0.0243,-0.1161,-1.698639532128805,0.0,2.6512527465820312,-1.778599500656128,-0.0,2.090200901031494,4.655827684993408,-0.0,0.29594603180885315,-1.5832660833941858,0.0,-0.011652191169559956,0.8532633781433105,0.0,0.00797978788614273,0.7787186503410339,0.0,-0.014618068002164364
944.0,889.0,2.7894,-0.2351,9.0419,-0.0409,0.0243,-0.1161,-1.6986190281310023,0.0,2.6217408180236816,-1.7786191701889038,-0.0,2.0773932933807373,4.655880613917969,-0.0,0.29155433177948,-1.583289925252096,0.0,-0.01701820269227028,0.853207528591156,0.0,-0.0034445091150701046,0.7787468433380127,0.0,-0.012353845871984959
944.0,889.0,2.7894,-0.2351,9.0419,-0.0409,0.0243,-0.1161,-1.6985789738097132,0.0,2.625147819519043,-1.7785987854003906,-0.0,2.003807544708252,4.655800028438232,-0.0,0.29672521352767944,-1.5833466688739222,0.0,-0.012173431925475597,0.8532314300537109,0.0,0.002948267152532935,0.7787227630615234,0.0,0.0037671870086342096
944.0,889.0,2.7894,-0.2351,9.0419,-0.0409,0.0243,-0.1161,-1.69865145305776,0.0,2.675210952758789,-1.778571605682373,-0.0,2.057630777359009,4.655880613917969,-0.0,0.3102998733520508,-1.5832937399493616,0.0,-0.005698568187654018,0.853191614151001,0.0,-0.006867608055472374,0.7787752747535706,0.0,0.04558195173740387
944.0,889.0,2.7894,-0.2351,9.0419,-0.0409,0.0243,-0.1161,-1.6986075840392054,0.0,2.66658878326416,-1.7786109447479248,-0.0,2.09702205657959,4.655820532436035,-0.0,0.3029139041900635,-1.583273712788717,0.0,-0.01336614415049553,0.8532235622406006,0.0,-0.01447620801627636,0.7787309288978577,0.0,-0.013928892090916634
935.0,886.0,2.8247,-0.1962,8.8917,-0.0362,0.0208,-0.1177,-1.6985990009703578,0.0,2.6177401542663574,-1.7785552740097046,-0.0,2.1113340854644775,4.655872507686279,-0.0,0.29557371139526367,-1.5832980314837855,0.0,-0.0005814614705741405,0.8532195091247559,0.0,-0.006216265726834536,0.7787430286407471,0.0,-0.008623508736491203
935.0,886.0,2.8247,-0.1962,8.8917,-0.0362,0.0208,-0.1177,-1.6985990009703578,0.0,2.623136043548584,-1.7785314321517944,-0.0,2.117249011993408,4.655876322383545,-0.0,0.2942579984664917,-1.5832980314837855,0.0,-0.01658305898308754,0.8532154560089111,0.0,-0.006329310592263937,0.7787591814994812,0.0,-0.018290726467967033
935.0,886.0,2.8247,-0.1962,8.8917,-0.0362,0.0208,-0.1177,-1.698655744592184,0.0,2.666661024093628,-1.778588056564331,-0.0,2.0642149448394775,4.655861063594482,-0.0,0.2971678376197815,-1.5832818190204065,0.0,-0.00020532484631985426,0.8532235026359558,0.0,0.005702408961951733,0.7787348031997681,0.0,0.00871354341506958
935.0,886.0,2.8247,-0.1962,8.8917,-0.0362,0.0208,-0.1177,-1.698622842828268,0.0,2.6486568450927734,-1.778571605682373,-0.0,2.091750144958496,4.655880613917969,-0.0,0.29708239436149597,-1.5832698980914515,0.0,-0.00040349853225052357,0.8531715273857117,0.0,-0.004718549083918333,0.7787389159202576,0.0,0.0074036139994859695
935.0,886.0,2.8247,-0.1962,8.8917,-0.0362,0.0208,-0.1177,-1.6986271343626917,0.0,2.6430788040161133,-1.778571605682373,-0.0,2.0468997955322266,4.655827684993408,-0.0,0.29109516739845276,-1.5832818190204065,0.0,0.004902226384729147,0.8532673716545105,0.0,-0.001100395806133747,0.7788033485412598,0.0,-0.014805273152887821
935.0,886.0,2.8247,-0.1962,8.8917,-0.0362,0.0208,-0.1177,-1.6985665760436,0.0,2.626049518585205,-1.778579831123352,-0.0,2.093280076980591,4.655868216151855,-0.0,0.28943318128585815,-1.5832937399493616,0.0,-0.005991187412291765,0.8532154560089111,0.0,0.008392751216888428,0.7787710428237915,0.0,-0.014087168499827385
935.0,886.0,2.8247,-0.1962,8.8917,-0.0362,0.0208,-0.1177,-1.6986075840392054,0.0,2.616802930831909,-1.7786275148391724,-0.0,2.087599277496338,4.655880613917969,-0.0,0.2932692766189575,-1.5833056608783167,0.0,-0.004173966124653816,0.8532235026359558,0.0,0.010699231177568436,0.7787024974822998,0.0,-0.00914578977972269
935.0,886.0,2.8247,-0.1962,8.8917,-0.0362,0.0208,-0.1177,-1.6986314258971156,0.0,2.629727363586426,-1.7785550355911255,-0.0,2.115895986557007,4.655844374293945,-0.0,0.2960568368434906,-1.5833023230182093,0.0,-0.006491930689662695,0.8531356453895569,0.0,-0.004242327529937029,0.7787186503410339,0.0,0.0028422921895980835
935.0,886.0,2.8247,-0.1962,8.8917,-0.0362,0.0208,-0.1177,-1.6986271343626917,0.0,2.612401008605957,-1.7785509824752808,-0.0,2.0697834491729736,4.655868216151855,-0.0,0.2917783856391907,-1.5832861105548304,0.0,0.0002105636813212186,0.8531556725502014,0.0,-0.00850322563201189,0.778762936592102,0.0,0.03623024746775627
935.0,886.0,2.8247,-0.1962,8.8917,-0.0362,0.0208,-0.1177,-1.6986519298949183,0.0,2.7109415531158447,-1.778538703918457,-0.0,2.1005022525787354,4.655888720149658,-0.0,0.28671398758888245,-1.5833504835711878,0.0,-0.005754508543759584,0.8531954288482666,0.0,-0.009973015636205673,0.7787107229232788,0.0,0.024651309475302696
935.0,886.0,2.8247,-0.1962,8.8917,-0.0362,0.0208,-0.1177,-1.6986032925047816,0.0,2.6199121475219727,-1.7785758972167969,-0.0,2.075129747390747,4.655823393458984,-0.0,0.3021695017814636,-1.5833423773394983,0.0,-0.009925222024321556,0.8532154560089111,0.0,-0.017420750111341476,0.7787509560585022,0.0,-0.00189185980707407
935.0,886.0,2.8247,-0.1962,8.8917,-0.0362,0.0208,-0.1177,-1.6986314258971156,0.0,2.629216194152832,-1.7786191701889038,-0.0,2.0664637088775635,4.655876322383545,-0.0,0.3055979013442993,-1.5833466688739222,0.0,-0.003877188079059124,0.8532154560089111,0.0,-0.006180505268275738,0.7787306904792786,0.0,-0.023985156789422035
935.0,886.0,2.8247,-0.1962,8.8917,-0.0362,0.0208,-0.1177,-1.6985990009703578,0.0,2.6195778846740723,-1.7786078453063965,-0.0,2.1185336112976074,4.655852480525635,-0.0,0.29876434803009033,-1.58331805864443,0.0,0.00291331484913826,0.8531835079193115,0.0,0.0059739588759839535,0.7787628769874573,0.0,-0.0002465993748046458
935.0,886.0,2.8247,-0.1962,8.8917,-0.0362,0.0208,-0.1177,-1.6986314258971156,0.0,2.6312732696533203,-1.7785799503326416,-0.0,2.0796871185302734,4.655836268062256,-0.0,0.2956337630748749,-1.5832937399493616,0.0,-0.0031967968679964542,0.8531675934791565,0.0,-0.009097713977098465,0.7787389159202576,0.0,-0.0406569242477417
935.0,886.0,2.8247,-0.1962,8.8917,-0.0362,0.0208,-0.1177,-1.6985708675780238,0.0,2.6254727840423584,-1.7785913944244385,-0.0,2.103029489517212,4.655836268062256,-0.0,0.3013942539691925,-1.5833099524127405,0.0,-0.005661374889314175,0.8531795144081116,0.0,0.004901156760752201,0.7786984443664551,0.0,-0.0461951419711113
947.0,896.0,2.8146,-0.1926,8.9408,-0.0347,0.0279,-0.1229,-1.698679586450094,0.0,2.6622672080993652,-1.778588056564331,-0.0,2.1013758182525635,4.655844374293945,-0.0,0.2994804084300995,-1.5833023230182093,0.0,-0.01749037392437458,0.8531994819641113,0.0,-0.009657906368374825,0.7787509560585022,0.0,0.015892140567302704
947.0,896.0,2.8146,-0.1926,8.9408,-0.0347,0.0279,-0.1229,-1.6986519298949183,0.0,2.66499662399292,-1.7785675525665283,-0.0,2.0931944847106934,4.6558567720600585,-0.0,0.2963365912437439,-1.5832937399493616,0.0,-0.006839825306087732,0.8532394766807556,0.0,0.015310688875615597,0.778766930103302,0.0,0.02761008031666279
947.0,896.0,2.8146,-0.1926,8.9408,-0.0347,0.0279,-0.1229,-1.6986314258971156,0.0,2.651394844055176,-1.7785634994506836,-0.0,2.0814690589904785,4.655819578761719,-0.0,0.3041686713695526,-1.5833175818072718,0.0,-0.002612530253827572,0.8531835079193115,0.0,0.0019494295120239258,0.7787430286407471,0.0,0.04571705684065819
947.0,896.0,2.8146,-0.1926,8.9408,-0.0347,0.0279,-0.1229,-1.6986352405943812,0.0,2.625411033630371,-1.7785913944244385,-0.0,2.1063475608825684,4.655844374293945,-0.0,0.3109639883041382,-1.5833342711078089,0.0,0.002270782133564353,0.8532394766807556,0.0,-0.0021057184785604477,0.7787348031997681,0.0,0.01355647575110197
947.0,896.0,2.8146,-0.1926,8.9408,-0.0347,0.0279,-0.1229,-1.6986190281310023,0.0,2.6415514945983887,-1.7785395383834839,-0.0,2.07259464263916,4.655876322383545,-0.0,0.3049169182777405,-1.5833023230182093,0.0,0.0011144009185954928,0.853207528591156,0.0,0.00017530075274407864,0.7787227630615234,0.0,-0.007260149344801903
947.0,896.0,2.8146,-0.1926,8.9408,-0.0347,0.0279,-0.1229,-1.6985951862730921,0.0,2.6371564865112305,-1.778599500656128,-0.0,2.1041295528411865,4.655872507686279,-0.0,0.30399972200393677,-1.5833056608783167,0.0,-0.01696782186627388,0.8532114028930664,0.0,0.004019347485154867,0.7787509560585022,0.0,-0.019142597913742065
947.0,896.0,2.8146,-0.1926,8.9408,-0.0347,0.0279,-0.1229,-1.698611398736471,0.0,2.646371603012085,-1.778571605682373,-0.0,2.0880472660064697,4.655812426204346,-0.0,0.28542280197143555,-1.5832698980914515,0.0,-0.020433887839317322,0.8531874418258667,0.0,0.006955193355679512,0.7787024974822998,0.0,-0.021673686802387238
947.0,896.0,2.8146,-0.1926,8.9408,-0.0347,0.0279,-0.1229,-1.6986595592894496,0.0,2.63852858543396,-1.7785593271255493,-0.0,2.0694005489349365,4.655916853541992,-0.0,0.28588172793388367,-1.583289925252096,0.0,-0.007687203120440245,0.8532195091247559,0.0,-0.0004669728223234415,0.7787711024284363,0.0,-0.032489798963069916
947.0,896.0,2.8146,-0.1926,8.9408,-0.0347,0.0279,-0.1229,-1.6986352405943812,0.0,2.624596118927002,-1.7785272598266602,-0.0,2.1349709033966064,4.655840082759521,-0.0,0.28821778297424316,-1.5833380858050745,0.0,-0.007506117224693298,0.853191614151001,0.0,-0.011346670798957348,0.7786901593208313,0.0,0.030023036524653435
947.0,896.0,2.8146,-0.1926,8.9408,-0.0347,0.0279,-0.1229,-1.6985908947386683,0.0,2.64595890045166,-1.7785872220993042,-0.0,2.083266019821167,4.655912562007568,-0.0,0.29488927125930786,-1.5833023230182093,0.0,-0.008637506514787674,0.8531436920166016,0.0,-0.002450000960379839,0.7787024974822998,0.0,0.02138454094529152
947.0,896.0,2.8146,-0.1926,8.9408,-0.0347,0.0279,-0.1229,-1.698679586450094,0.0,2.6377720832824707,-1.7786357402801514,-0.0,2.1126654148101807,4.655852480525635,-0.0,0.2941245138645172,-1.5832937399493616,0.0,-0.011279832571744919,0.8532314300537109,0.0,0.01130651030689478,0.7787268757820129,0.0,0.0005733853904530406
947.0,896.0,2.8146,-0.1926,8.9408,-0.0347,0.0279,-0.1229,-1.6986271343626917,0.0,2.600633144378662,-1.7785872220993042,-0.0,2.1050162315368652,4.655869169826172,-0.0,0.2902253270149231,-1.5833342711078089,0.0,-0.008353526704013348,0.8531196117401123,0.0,-0.00944190938025713,0.7787348031997681,0.0,0.04055609554052353
947.0,896.0,2.8146,-0.1926,8.9408,-0.0347,0.0279,-0.1229,-1.6986075840392054,0.0,2.666443347930908,-1.778607726097107,-0.0,2.101757287979126,4.655848665828369,-0.0,0.2861635982990265,-1.583329979573385,0.0,-0.0016561108641326427,0.8532275557518005,0.0,-0.007106764242053032,0.7787509560585022,0.0,0.00026004575192928314
947.0,896.0,2.8146,-0.1926,8.9408,-0.0347,0.0279,-0.1229,-1.6986032925047816,0.0,2.6947813034057617,-1.7785550355911255,-0.0,2.090285301208496,4.655864878291748,-0.0,0.29478922486305237,-1.5833023230182093,0.0,-0.00526564521715045,0.853183388710022,0.0,-0.001577876741066575,0.778678297996521,0.0,-0.023312289267778397
947.0,896.0,2.8146,-0.1926,8.9408,-0.0347,0.0279,-0.1229,-1.698611398736471,0.0,2.701167106628418,-1.778599500656128,-0.0,2.0950112342834473,4.655868216151855,-0.0,0.2872738838195801,-1.5832818190204065,0.0,-0.004329327493906021,0.8531835675239563,0.0,-0.00017389730783179402,0.7787469029426575,0.0,0.011265556327998638
929.0,881.0,2.814,-0.2118,9.0467,-0.0318,0.025,-0.1115,-1.6986438236632289,0.0,2.615703821182251,-1.7786438465118408,-0.0,2.1292521953582764,4.655852480525635,-0.0,0.30419909954071045,-1.583289925252096,0.0,0.0023688976652920246,0.853203535079956,0.0,0.0026382626965641975,0.7787266373634338,0.0,0.03711904212832451
929.0,881.0,2.814,-0.2118,9.0467,-0.0318,0.025,-0.1115,-1.6985990009703578,0.0,2.664090156555176,-1.7786149978637695,-0.0,2.109257698059082,4.655836268062256,-0.0,0.30670759081840515,-1.5833023230182093,0.0,-0.016751013696193695,0.8532154560089111,0.0,0.004632511176168919,0.7787348031997681,0.0,-0.011118948459625244
929.0,881.0,2.814,-0.2118,9.0467,-0.0318,0.025,-0.1115,-1.698622842828268,0.0,2.655937433242798,-1.7785831689834595,-0.0,2.0652928352355957,4.655848665828369,-0.0,0.2953992486000061,-1.5833056608783167,0.0,-0.0074150776490569115,0.8532426953315735,0.0,0.002372069749981165,0.7787711024284363,0.0,0.01608050987124443
929.0,881.0,2.814,-0.2118,9.0467,-0.0318,0.025,-0.1115,-1.6986271343626917,0.0,2.6518688201904297,-1.7786439657211304,-0.0,2.0917928218841553,4.655924959773682,-0.0,0.30472642183303833,-1.583289925252096,0.0,0.0004398100427351892,0.8532633185386658,0.0,-0.004924445413053036,0.7787389159202576,0.0,0.021227991208434105
929.0,881.0,2.814,-0.2118,9.0467,-0.0318,0.025,-0.1115,-1.6986271343626917,0.0,2.6730127334594727,-1.7785758972167969,-0.0,2.1417629718780518,4.655815287227295,-0.0,0.3071032464504242,-1.5833056608783167,0.0,-0.00848139077425003,0.8531835675239563,0.0,0.0005545996828004718,0.7786823511123657,0.0,-0.00963215809315443
929.0,881.0,2.814,-0.2118,9.0467,-0.0318,0.025,-0.1115,-1.698655744592184,0.0,2.6740329265594482,-1.778546929359436,-0.0,2.1247425079345703,4.655836268062256,-0.0,0.29238128662109375,-1.5833218733416956,0.0,-0.004313495941460133,0.8532466888427734,0.0,0.012693504802882671,0.7787268757820129,0.0,-0.03445835039019585
929.0,881.0,2.814,-0.2118,9.0467,-0.0318,0.025,-0.1115,-1.698622842828268,0.0,2.6840953826904297,-1.7785757780075073,-0.0,2.123363494873047,4.655868216151855,-0.0,0.2941310405731201,-1.5833099524127405,0.0,-0.01112082228064537,0.8532075881958008,0.0,-0.0026959343813359737,0.7787389159202576,0.0,0.015211625955998898
929.0,881.0,2.814,-0.2118,9.0467,-0.0318,0.025,-0.1115,-1.6986352405943812,0.0,2.6523842811584473,-1.7786356210708618,-0.0,2.1122820377349854,4.655852480525635,-0.0,0.29587647318840027,-1.5833056608783167,0.0,-0.013019764795899391,0.8531956672668457,0.0,0.0029888530261814594,0.7787266373634338,0.0,0.013294953852891922
929.0,881.0,2.814,-0.2118,9.0467,-0.0318,0.025,-0.1115,-1.6985789738097132,0.0,2.6678943634033203,-1.7785674333572388,-0.0,2.1005804538726807,4.655869169826172,-0.0,0.2936633825302124,-1.5832980314837855,0.0,-0.009264153428375721,0.8532193303108215,0.0,-0.019324984401464462,0.7787066102027893,0.0,-0.008952146396040916
929.0,881.0,2.814,-0.2118,9.0467,-0.0318,0.025,-0.1115,-1.6986271343626917,0.0,2.634230136871338,-1.7785757780075073,-0.0,2.159228563308716,4.655852480525635,-0.0,0.28636878728866577,-1.5833142439471644,0.0,0.0030604612547904253,0.8531597256660461,0.0,-0.006044966634362936,0.7787468433380127,0.0,-0.01567099802196026
929.0,881.0,2.814,-0.2118,9.0467,-0.0318,0.025,-0.1115,-1.6985908947386683,0.0,2.6568257808685303,-1.7785954475402832,-0.0,2.092825412750244,4.655823393458984,-0.0,0.30443766713142395,-1.5832861105548304,0.0,-0.005095880012959242,0.853207528591156,0.0,-0.009194831363856792,0.7787024974822998,0.0,0.012945502996444702
929.0,881.0,2.814,-0.2118,9.0467,-0.0318,0.025,-0.1115,-1.6986075840392054,0.0,2.6304354667663574,-1.778599500656128,-0.0,2.128725051879883,4.655808134669922,-0.0,0.29390397667884827,-1.5832980314837855,0.0,-0.011235222220420837,0.8532033562660217,0.0,-0.007814040407538414,0.7787186503410339,0.0,-0.012469906359910965
929.0,881.0,2.814,-0.2118,9.0467,-0.0318,0.025,-0.1115,-1.698622842828268,0.0,2.652236223220825,-1.7785313129425049,-0.0,2.0641889572143555,4.655868216151855,-0.0,0.2933740019798279,-1.5832536856280726,0.0,-0.012730191461741924,0.8532235026359558,0.0,-0.006491071078926325,0.7787183523178101,0.0,-0.0357787162065506
929.0,881.0,2.814,-0.2118,9.0467,-0.0318,0.025,-0.1115,-1.6985908947386683,0.0,2.5980515480041504,-1.7786035537719727,-0.0,2.1039834022521973,4.655836268062256,-0.0,0.30651599168777466,-1.583329979573385,0.0,-0.007932037115097046,0.8531874418258667,0.0,-0.0029130387119948864,0.7787024974822998,0.0,-0.03646957501769066
929.0,881.0,2.814,-0.2118,9.0467,-0.0318,0.025,-0.1115,-1.6986352405943812,0.0,2.631669044494629,-1.7786149978637695,-0.0,2.111462116241455,4.655872507686279,-0.0,0.28877508640289307,-1.5833104292498987,0.0,-0.007074503693729639,0.8532075881958008,0.0,-0.0015485577750951052,0.7787066102027893,0.0,0.01674359105527401
935.0,871.0,2.8379,-0.2339,8.988,-0.0409,0.0162,-0.1155,-1.6986519298949183,0.0,2.603999614715576,-1.778607726097107,-0.0,2.089498519897461,4.655852480525635,-0.0,0.30092304944992065,-1.5833342711078089,0.0,-0.011915245093405247,0.8532235026359558,0.0,0.0038660136051476,0.7787268757820129,0.0,0.0013571204617619514
935.0,871.0,2.8379,-0.2339,8.988,-0.0409,0.0162,-0.1155,-1.698622842828268,0.0,2.614748954772949,-1.7785675525665283,-0.0,2.0941224098205566,4.655876322383545,-0.0,0.29590746760368347,-1.58331805864443,0.0,-0.017785392701625824,0.8532426953315735,0.0,-0.007623510435223579,0.7787145376205444,0.0,0.006258996203541756
935.0,871.0,2.8379,-0.2339,8.988,-0.0409,0.0162,-0.1155,-1.6986595592894496,0.0,2.6322460174560547,-1.778588056564331,-0.0,2.1001226902008057,4.655831976527832,-0.0,0.2970120906829834,-1.5832818190204065,0.0,-0.009551550261676311,0.8531597852706909,0.0,-0.0016443782951682806,0.7787306904792786,0.0,0.020511645823717117
935.0,871.0,2.8379,-0.2339,8.988,-0.0409,0.0162,-0.1155,-1.6986156902708949,0.0,2.651745319366455,-1.778639793395996,-0.0,2.0975630283355713,4.655812426204346,-0.0,0.3017444312572479,-1.583261791859762,0.0,-0.01198594830930233,0.8532154560089111,0.0,-0.01241820864379406,0.7787509560585022,0.0,0.03280459716916084
935.0,871.0,2.8379,-0.2339,8.988,-0.0409,0.0162,-0.1155,-1.6986352405943812,0.0,2.6319146156311035,-1.7785840034484863,-0.0,2.116638422012329,4.655803843135498,-0.0,0.28968822956085205,-1.58331805864443,0.0,-0.009009866043925285,0.8532354235649109,0.0,-0.003906664438545704,0.7787066102027893,0.0,0.022864164784550667
935.0,871.0,2.8379,-0.2339,8.988,-0.0409,0.0162,-0.1155,-1.6986271343626917,0.0,2.6660103797912598,-1.7786439657211304,-0.0,2.0725131034851074,4.655844374293945,-0.0,0.3121596574783325,-1.583301846181051,0.0,0.0029265207704156637,0.8532354235649109,0.0,-0.005449250340461731,0.7787430286407471,0.0,0.016414200887084007
935.0,871.0,2.8379,-0.2339,8.988,-0.0409,0.0162,-0.1155,-1.6986199818053187,0.0,2.650885581970215,-1.778571605682373,-0.0,2.0843234062194824,4.655836268062256,-0.0,0.2957080006599426,-1.5832980314837855,0.0,-0.017840689048171043,0.8532235026359558,0.0,-0.005914515350013971,0.7787227630615234,0.0,0.07397214323282242
935.0,871.0,2.8379,-0.2339,8.988,-0.0409,0.0162,-0.1155,-1.6986638508238734,0.0,2.6887094974517822,-1.77859628200531,-0.0,2.085625410079956,4.655800028438232,-0.0,0.29304713010787964,-1.583273712788717,0.0,-0.016009224578738213,0.8532354235649109,0.0,-0.005972912535071373,0.7787752151489258,0.0,-0.052267514169216156
935.0,871.0,2.8379,-0.2339,8.988,-0.0409,0.0162,-0.1155,-1.6986595592894496,0.0,2.6595330238342285,-1.7785872220993042,-0.0,2.0767757892608643,4.655852480525635,-0.0,0.2987315356731415,-1.5832861105548304,0.0,-0.015785129740834236,0.8532235026359558,0.0,-0.001721417997032404,0.778694748878479,0.0,-0.012088131159543991
935.0,871.0,2.8379,-0.2339,8.988,-0.0409,0.0162,-0.1155,-1.6986757717528285,0.0,2.6366634368896484,-1.778598666191101,-0.0,2.1070516109466553,4.655852480525635,-0.0,0.3033348023891449,-1.583289925252096,0.0,-0.0032890988513827324,0.8531835675239563,0.0,-0.003151325276121497,0.7787145376205444,0.0,-0.01050485298037529
935.0,871.0,2.8379,-0.2339,8.988,-0.0409,0.0162,-0.1155,-1.6985908947386683,0.0,2.6398887634277344,-1.7785954475402832,-0.0,2.0969884395599365,4.6558567720600585,-0.0,0.2882423400878906,-1.5832660833941858,0.0,-0.019984912127256393,0.8532154560089111,0.0,0.002983168698847294,0.7787269353866577,0.0,-0.01237146370112896
935.0,871.0,2.8379,-0.2339,8.988,-0.0409,0.0162,-0.1155,-1.6986438236632289,0.0,2.6502811908721924,-1.7785757780075073,-0.0,2.099602699279785,4.655872507686279,-0.0,0.2966746985912323,-1.5833023230182093,0.0,-0.011507119983434677,0.8532673120498657,0.0,-0.006201683543622494,0.7787066102027893,0.0,0.0565972737967968
935.0,871.0,2.8379,-0.2339,8.988,-0.0409,0.0162,-0.1155,-1.6986314258971156,0.0,2.6093087196350098,-1.778579831123352,-0.0,2.077366352081299,4.655897303218506,-0.0,0.29039981961250305,-1.5832861105548304,0.0,-0.01952703855931759,0.8532034754753113,0.0,0.0027596899308264256,0.7787145376205444,0.0,-0.017453370615839958
935.0,871.0,2.8379,-0.2339,8.988,-0.0409,0.0162,-0.1155,-1.6986352405943812,0.0,2.621829032897949,-1.7785509824752808,-0.0,2.0748820304870605,4.655852480525635,-0.0,0.2924582362174988,-1.5832937399493616,0.0,-0.007644982077181339,0.8531954884529114,0.0,-0.006841971073299646,0.7787468433380127,0.0,-0.0048903245478868484
935.0,871.0,2.8379,-0.2339,8.988,-0.0409,0.0162,-0.1155,-1.698639532128805,0.0,2.6466517448425293,-1.7785922288894653,-0.0,2.110077381134033,4.655844374293945,-0.0,0.290637344121933,-1.5833099524127405,0.0,-0.0011643737088888884,0.8531835675239563,0.0,-0.009960902854800224,0.7787266373634338,0.0,0.024657998234033585
929.0,877.0,2.5466,-0.2979,9.4648,-0.0371,0.0131,-0.1113,-1.6986438236632289,0.0,2.6320948600769043,-1.7786272764205933,-0.0,2.081601619720459,4.655861063594482,-0.0,0.29689112305641174,-1.5832741896258753,0.0,-0.0002905146684497595,0.8532115817070007,0.0,0.007025315426290035,0.7787024974822998,0.0,0.0145171033218503
929.0,877.0,2.5466,-0.2979,9.4648,-0.0371,0.0131,-0.1113,-1.6986075840392054,0.0,2.655853033065796,-1.7786149978637695,-0.0,2.1330862045288086,4.6558567720600585,-0.0,0.2970517575740814,-1.5833142439471644,0.0,0.0024418048560619354,0.8532394170761108,0.0,0.0006143010687083006,0.7787430882453918,0.0,0.02344181202352047
929.0,877.0,2.5466,-0.2979,9.4648,-0.0371,0.0131,-0.1113,-1.698679586450094,0.0,2.626286029815674,-1.77859628200531,-0.0,2.092910051345825,4.655848665828369,-0.0,0.2954171895980835,-1.5833142439471644,0.0,-0.0017601626459509134,0.8531757593154907,0.0,-0.010654423385858536,0.7787066102027893,0.0,-0.022566113620996475
929.0,877.0,2.5466,-0.2979,9.4648,-0.0371,0.0131,-0.1113,-1.6986476383604945,0.0,2.625253677368164,-1.7786602973937988,-0.0,2.0858154296875,4.655876322383545,-0.0,0.29576414823532104,-1.5833142439471644,0.0,-0.003477065823972225,0.8532154560089111,0.0,-0.018271267414093018,0.7787509560585022,0.0,0.006579206325113773
929.0,877.0,2.5466,-0.2979,9.4648,-0.0371,0.0131,-0.1113,-1.6985866032042445,0.0,2.628286123275757,-1.7785799503326416,-0.0,2.0862855911254883,4.655876322383545,-0.0,0.29824477434158325,-1.58331805864443,0.0,0.0027244281955063343,0.8532313704490662,0.0,-0.0051593538373708725,0.7787306904792786,0.0,0.012473249807953835
929.0,877.0,2.5466,-0.2979,9.4648,-0.0371,0.0131,-0.1113,-1.6985951862730921,0.0,2.588169574737549,-1.7785592079162598,-0.0,2.142740249633789,4.6558567720600585,-0.0,0.30089959502220154,-1.5833261648761194,0.0,-0.0149597292765975,0.8532193899154663,0.0,-0.011683793738484383,0.7787066102027893,0.0,-0.016726739704608917
929.0,877.0,2.5466,-0.2979,9.4648,-0.0371,0.0131,-0.1113,-1.6986438236632289,0.0,2.656566619873047,-1.778538703918457,-0.0,2.1106534004211426,4.655855818385742,-0.0,0.3021109104156494,-1.5833142439471644,0.0,-0.006954580545425415,0.8532313704490662,0.0,0.0014330616686493158,0.7787471413612366,0.0,0.039527587592601776
929.0,877.0,2.5466,-0.2979,9.4648,-0.0371,0.0131,-0.1113,-1.6985866032042445,0.0,2.6304335594177246,-1.778599500656128,-0.0,2.099053382873535,4.655831976527832,-0.0,0.3058617413043976,-1.5833056608783167,0.0,-0.006074361503124237,0.8531636595726013,0.0,-0.0014922984410077333,0.7787509560585022,0.0,-0.010108428075909615
929.0,877.0,2.5466,-0.2979,9.4648,-0.0371,0.0131,-0.1113,-1.6986199818053187,0.0,2.63932466506958,-1.7785954475402832,-0.0,2.0898027420043945,4.655831976527832,-0.0,0.3134978115558624,-1.5833099524127405,0.0,-0.01166001707315445,0.853223443031311,0.0,0.010136904194951057,0.7787468433380127,0.0,-0.009557042270898819
929.0,877.0,2.5466,-0.2979,9.4648,-0.0371,0.0131,-0.1113,-1.6986519298949183,0.0,2.6609249114990234,-1.7785513401031494,-0.0,2.094386577606201,4.655869169826172,-0.0,0.30716365575790405,-1.5833142439471644,0.0,-0.001024040044285357,0.853171706199646,0.0,-0.0024140486493706703,0.7787509560585022,0.0,-0.01652229018509388
929.0,877.0,2.5466,-0.2979,9.4648,-0.0371,0.0131,-0.1113,-1.6986638508238734,0.0,2.666520118713379,-1.7785675525665283,-0.0,2.134998083114624,4.655876322383545,-0.0,0.2985187768936157,-1.583306137715475,0.0,-0.001728004775941372,0.8532353639602661,0.0,-0.0012907932978123426,0.7787587642669678,0.0,-0.03109551966190338
929.0,877.0,2.5466,-0.2979,9.4648,-0.0371,0.0131,-0.1113,-1.6986681423582972,0.0,2.698969602584839,-1.7785799503326416,-0.0,2.0894227027893066,4.655861063594482,-0.0,0.2979293465614319,-1.5832937399493616,0.0,-0.0074761295691132545,0.8532153367996216,0.0,-0.015285035595297813,0.7787183523178101,0.0,-0.018585246056318283
929.0,877.0,2.5466,-0.2979,9.4648,-0.0371,0.0131,-0.1113,-1.698639532128805,0.0,2.6208324432373047,-1.778546929359436,-0.0,2.098764419555664,4.655852480525635,-0.0,0.2993820309638977,-1.5833466688739222,0.0,-0.013775015249848366,0.853207528591156,0.0,-0.01010322105139494,0.7787628769874573,0.0,0.007849106565117836
929.0,877.0,2.5466,-0.2979,9.4648,-0.0371,0.0131,-0.1113,-1.698611398736471,0.0,2.661759853363037,-1.7785717248916626,-0.0,2.0716958045959473,4.655844374293945,-0.0,0.2893649935722351,-1.5833423773394983,0.0,0.006115474738180637,0.853267252445221,0.0,-0.010716660879552364,0.7786823511123657,0.0,0.005153757520020008
929.0,877.0,2.5466,-0.2979,9.4648,-0.0371,0.0131,-0.1113,-1.6986352405943812,0.0,2.633699655532837,-1.7785314321517944,-0.0,2.074059009552002,4.655840082759521,-0.0,0.29543328285217285,-1.5833500067340296,0.0,-0.015592625364661217,0.8532235026359558,0.0,0.0016340777510777116,0.7787587642669678,0.00019177189096808434,-0.0012873243540525436
929.0,894.0,2.7021,-0.2752,9.1573,-0.0449,0.018,-0.1049,-1.6986032925047816,0.0,2.625277042388916,-1.7785428762435913,-0.0,2.059879779815674,4.655848665828369,-0.0,0.29376035928726196,-1.5833423773394983,0.0,0.0028058765456080437,0.8531796336174011,0.0,0.010116997174918652,0.7787224650382996,0.00023039153893478215,-0.027527911588549614
929.0,894.0,2.7021,-0.2752,9.1573,-0.0449,0.018,-0.1049,-1.698679586450094,0.0,2.6635680198669434,-1.778546929359436,-0.0,2.071871280670166,4.655888720149658,-0.0,0.2951715588569641,-1.5833099524127405,0.0,0.008977629244327545,0.8532354235649109,0.0,-0.006740291137248278,0.7787831425666809,0.0006102401530370116,-0.007034059148281813
929.0,894.0,2.7021,-0.2752,9.1573,-0.0449,0.018,-0.1049,-1.6986438236632289,0.0,2.6531639099121094,-1.7785428762435913,-0.0,2.070909023284912,4.6558238702961425,-0.0,0.29578861594200134,-1.5833218733416956,0.0,-0.007887955754995346,0.8532353639602661,0.0,0.0015187498647719622,0.7787587642669678,0.0006189969717524946,-0.016499686986207962
929.0,894.0,2.7021,-0.2752,9.1573,-0.0449,0.018,-0.1049,-1.6985951862730921,0.0,2.687931537628174,-1.7785758972167969,-0.0,2.114640235900879,4.655864878291748,-0.0,0.3016236126422882,-1.5833142439471644,0.0,-0.0010728221386671066,0.8532388210296631,0.0,0.0028577223420143127,0.7787587642669678,0.0008211019448935986,-0.012008802965283394
929.0,894.0,2.7021,-0.2752,9.1573,-0.0449,0.018,-0.1049,-1.6986075840392054,0.0,2.6351516246795654,-1.7785799503326416,-0.0,2.1055521965026855,4.655873461360596,-0.0,0.2913512885570526,-1.5833261648761194,0.0,-0.006290420889854431,0.853211522102356,0.0,0.0012080443557351828,0.778791069984436,0.0009082994074560702,0.04197969660162926
929.0,894.0,2.7021,-0.2752,9.1573,-0.0449,0.018,-0.1049,-1.6986476383604945,0.0,2.6293835639953613,-1.7786234617233276,-0.0,2.1145453453063965,4.655844374293945,-0.0,0.28418460488319397,-1.5833423773394983,0.0,-0.005382802337408066,0.8532466292381287,0.0,-0.00637438241392374,0.7787869572639465,0.0011504495050758123,-0.004822056740522385
929.0,894.0,2.7021,-0.2752,9.1573,-0.0449,0.018,-0.1049,-1.6986476383604945,0.0,2.627918243408203,-1.77859628200531,-0.0,2.095747232437134,4.655827684993408,-0.0,0.29864418506622314,-1.583358112965719,0.0,0.007101884577423334,0.8532114624977112,0.0,-0.011148231104016304,0.7787907719612122,0.001640685717575252,-0.0004108143621124327
929.0,894.0,2.7021,-0.2752,9.1573,-0.0449,0.018,-0.1049,-1.6986352405943812,0.0,2.6569697856903076,-1.778607726097107,-0.0,2.1374332904815674,4.655819578761719,-0.0,0.2969476878643036,-1.5833500067340296,0.0,-0.0024335640482604504,0.8532426357269287,0.0,-0.0038649020716547966,0.7788270711898804,0.0021754568442702293,0.053298961371183395
929.0,894.0,2.7021,-0.2752,9.1573,-0.0449,0.018,-0.1049,-1.6986352405943812,0.0,2.656604290008545,-1.7785758972167969,-0.0,2.1056172847747803,4.655844374293945,-0.0,0.2902734577655792,-1.5832856337176722,0.0,0.008124875836074352,0.8531758189201355,0.0,-0.004825141746550798,0.7788428068161011,0.002508238423615694,0.044244229793548584
929.0,894.0,2.7021,-0.2752,9.1573,-0.0449,0.018,-0.1049,-1.6986438236632289,0.0,2.656423330307007,-1.7785550355911255,-0.0,2.120220184326172,4.655876322383545,-0.0,0.2972239851951599,-1.583329979573385,0.0,-0.006654023192822933,0.8531836271286011,0.0,-0.013558020815253258,0.778830885887146,0.0014122154098004103,0.008669208735227585
929.0,894.0,2.7021,-0.2752,9.1573,-0.0449,0.018,-0.1049,-1.6986314258971156,0.0,2.626248359680176,-1.7785508632659912,-0.0,2.0694570541381836,4.655808134669922,-0.0,0.2960624396800995,-1.583358112965719,0.0,-0.0068017225712537766,0.8531995415687561,0.0,-0.006713243201375008,0.7788028120994568,0.0010382484178990126,0.0355226956307888
929.0,894.0,2.7021,-0.2752,9.1573,-0.0449,0.018,-0.1049,-1.6986147365965785,0.0,2.594003915786743,-1.7785634994506836,-0.0,2.099799633026123,4.655831976527832,-0.0,0.3026236891746521,-1.5833099524127405,0.0,-0.01841624453663826,0.8531637191772461,0.0,-0.0004983106628060341,0.7788591384887695,0.0005804992979392409,-0.005544186569750309
929.0,894.0,2.7021,-0.2752,9.1573,-0.0449,0.018,-0.1049,-1.6986638508238734,0.0,2.634758949279785,-1.778607726097107,-0.0,2.0555357933044434,4.6558567720600585,-0.0,0.30114325881004333,-1.5833056608783167,0.0,-0.004855946637690067,0.8533030152320862,0.0,-0.008976602926850319,0.7788304090499878,0.0005561978905461729,-0.03229542821645737
929.0,894.0,2.7021,-0.2752,9.1573,-0.0449,0.018,-0.1049,-1.6986438236632289,0.0,2.703089952468872,-1.7786438465118408,-0.0,2.088587522506714,4.655840082759521,-0.0,0.2998757064342499,-1.583301846181051,0.0,0.0004618745297193527,0.8532910346984863,0.0,-0.008095400407910347,0.7788186073303223,0.0005221546161919832,-0.028811177238821983
907.0,865.0,2.7266,-0.2776,9.0939,-0.0357,0.0289,-0.1084,-1.698639532128805,0.0,2.683039665222168,-1.7785552740097046,-0.0,2.0799484252929688,4.655836268062256,-0.0,0.3030102252960205,-1.5833385626422327,0.0,-0.018020592629909515,0.8532076478004456,0.0,0.0004466329701244831,0.7788345813751221,0.0004423759819474071,-0.010301703587174416
907.0,865.0,2.7266,-0.2776,9.0939,-0.0357,0.0289,-0.1084,-1.6986638508238734,0.0,2.6444716453552246,-1.7785946130752563,-0.0,2.1091084480285645,4.655868216151855,-0.0,0.28300145268440247,-1.5833099524127405,0.0,0.0017024946864694357,0.8532076478004456,0.0,-0.0012202890357002616,0.7788268327713013,0.0004099226789548993,0.045560985803604126
907.0,865.0,2.7266,-0.2776,9.0939,-0.0357,0.0289,-0.1084,-1.698655744592184,0.0,2.6056771278381348,-1.778599500656128,-0.0,2.0919485092163086,4.655852480525635,-0.0,0.2913209795951843,-1.5833094755755823,0.0,-0.009000430814921856,0.8532076478004456,0.0,-0.006520882248878479,0.7788185477256775,0.0004449225089047104,-0.012465067207813263
907.0,865.0,2.7266,-0.2776,9.0939,-0.0357,0.0289,-0.1084,-1.6986352405943812,0.0,2.6819725036621094,-1.778631567955017,-0.0,2.1109976768493652,4.655844374293945,-0.0,0.29231032729148865,-1.583301846181051,0.0,-0.015474218875169754,0.853203535079956,0.0,-0.0027221881318837404,0.7789031863212585,0.0005031768814660609,0.04521036520600319
907.0,865.0,2.7266,-0.2776,9.0939,-0.0357,0.0289,-0.1084,-1.6985827885069789,0.0,2.6414036750793457,-1.7785913944244385,-0.0,2.12111759185791,4.655864878291748,-0.0,0.281141072511673,-1.5833342711078089,0.0,0.004388201516121626,0.8531599640846252,0.0,-0.005866149440407753,0.7788912653923035,0.0005317575996741652,0.031002430245280266
907.0,865.0,2.7266,-0.2776,9.0939,-0.0357,0.0289,-0.1084,-1.6986757717528285,0.0,2.650789260864258,-1.7785634994506836,-0.0,2.104703664779663,4.655844374293945,-0.0,0.29478394985198975,-1.583329979573385,0.0,-0.005640305113047361,0.8532194495201111,0.0,-0.0027742357924580574,0.7788913249969482,0.0006590707344003022,0.005069727078080177
907.0,865.0,2.7266,-0.2776,9.0939,-0.0357,0.0289,-0.1084,-1.6986352405943812,0.0,2.6261990070343018,-1.7786110639572144,-0.0,2.12847900390625,4.655816240901611,-0.0,0.2966059148311615,-1.5833423773394983,0.0,-0.004145682789385319,0.8532273769378662,0.0,-0.01767420768737793,0.7788748145103455,0.0006338077364489436,-0.022341368719935417
907.0,865.0,2.7266,-0.2776,9.0939,-0.0357,0.0289,-0.1084,-1.6986595592894496,0.0,2.6442697048187256,-1.778546929359436,-0.0,2.1150431632995605,4.655848665828369,-0.0,0.28073593974113464,-1.5833342711078089,0.0,-0.008995449170470238,0.8532506227493286,0.0,0.005215887445956469,0.7788748145103455,0.0005318046314641833,0.028300480917096138
907.0,865.0,2.7266,-0.2776,9.0939,-0.0357,0.0289,-0.1084,-1.698655744592184,0.0,2.6313252449035645,-1.778588056564331,-0.0,2.1300976276397705,4.655819578761719,-0.0,0.2992154657840729,-1.5833342711078089,0.0,-0.0002897968515753746,0.8532466292381287,0.0,0.005643310956656933,0.7789153456687927,0.0004643741704057902,-0.008439476601779461
907.0,865.0,2.7266,-0.2776,9.0939,-0.0357,0.0289,-0.1084,-1.6986147365965785,0.0,2.7003700733184814,-1.7785838842391968,-0.0,2.066617727279663,4.655876322383545,-0.0,0.29850804805755615,-1.5833175818072718,0.0,-0.013774879276752472,0.8532154560089111,0.0,-0.0063692363910377026,0.778911292552948,0.0004160091048106551,0.058417752385139465
907.0,865.0,2.7266,-0.2776,9.0939,-0.0357,0.0289,-0.1084,-1.698639532128805,0.0,2.6665334701538086,-1.7785954475402832,-0.0,2.121177911758423,4.655897303218506,-0.0,0.3071039617061615,-1.5833538214312952,0.0,-0.0051279375329613686,0.8532034754753113,0.0,-0.001690385164692998,0.7789071798324585,0.00041317316936329007,-0.03945312276482582
907.0,865.0,2.7266,-0.2776,9.0939,-0.0357,0.0289,-0.1084,-1.698655744592184,0.0,2.62550687789917,-1.7785593271255493,-0.0,2.126438617706299,4.655868216151855,-0.0,0.28602543473243713,-1.5833500067340296,0.0,-0.005995242856442928,0.8532586693763733,0.0,-0.006412125658243895,0.7788785099983215,0.0003568358952179551,0.08280079066753387
907.0,865.0,2.7266,-0.2776,9.0939,-0.0357,0.0289,-0.1084,-1.6986314258971156,0.0,2.6445798873901367,-1.7785840034484863,-0.0,2.1110620498657227,4.655840082759521,-0.0,0.3062034249305725,-1.5833500067340296,0.0,-0.01672881655395031,0.8532313704490662,0.0,0.0024037242401391268,0.778806209564209,0.00034591308212839067,-0.009172488003969193
907.0,865.0,2.7266,-0.2776,9.0939,-0.0357,0.0289,-0.1084,-1.698639532128805,0.0,2.6303043365478516,-1.7786118984222412,-0.0,2.073577880859375,4.655868216151855,-0.0,0.3024198114871979,-1.583329979573385,0.0,-0.016697140410542488,0.8532235622406006,0.0,-0.00850144773721695,0.778887152671814,0.0002901538391597569,0.04675234854221344
907.0,865.0,2.7266,-0.2776,9.0939,-0.0357,0.0289,-0.1084,-1.6986438236632289,0.0,2.60787034034729,-1.7785757780075073,-0.0,2.080889940261841,4.6558849054523925,-0.0,0.28874891996383667,-1.5833218733416956,0.0,-0.00023431004956364632,0.8532631397247314,0.0,-0.006194529123604298,0.7789232134819031,0.0002498719550203532,-0.0029418310150504112
916.0,899.0,2.8636,-0.1663,9.1502,-0.0347,0.0353,-0.1197,-1.6986915073790492,0.0,2.625771999359131,-1.7785675525665283,-0.0,2.105640411376953,4.655852480525635,-0.0,0.2889837622642517,-1.5832932631122034,0.0,-0.010263179428875446,0.8532592058181763,0.0,0.011954803951084614,0.7788668870925903,0.00021941187151242048,0.00932336412370205
916.0,899.0,2.8636,-0.1663,9.1502,-0.0347,0.0353,-0.1197,-1.6986471615233363,0.0,2.661867618560791,-1.7785757780075073,-0.0,2.05043888092041,4.655840082759521,-0.0,0.3059946894645691,-1.5833261648761194,0.0,-0.016210287809371948,0.8532154560089111,0.0,-0.003045641351491213,0.7788990139961243,0.00019557120685931295,0.007688293233513832
916.0,899.0,2.8636,-0.1663,9.1502,-0.0347,0.0353,-0.1197,-1.6986352405943812,0.0,2.6334428787231445,-1.7785758972167969,-0.0,2.1124837398529053,4.655852480525635,-0.0,0.2797360122203827,-1.5833056608783167,0.0,-0.00960484053939581,0.853187620639801,0.0,-0.0005573236849159002,0.7788792252540588,0.0001764042244758457,0.02472962997853756
916.0,899.0,2.8636,-0.1663,9.1502,-0.0347,0.0353,-0.1197,-1.698639532128805,0.0,2.6200947761535645,-1.778571605682373,-0.0,2.0770440101623535,4.655816240901611,-0.0,0.2985322177410126,-1.5833056608783167,0.0,-0.0037188325077295303,0.8532553315162659,0.0,0.00590726500377059,0.7788870930671692,0.00016065880481619388,0.0043735504150390625
916.0,899.0,2.8636,-0.1663,9.1502,-0.0347,0.0353,-0.1197,-1.6986633739867152,0.0,2.640387535095215,-1.7785313129425049,-0.0,2.1123931407928467,4.655840082759521,-0.0,0.3028149902820587,-1.5833218733416956,0.0,-0.012067001312971115,0.8532347083091736,0.0,0.0006699603982269764,0.7789112329483032,0.00012291183520574123,0.014436930418014526
916.0,899.0,2.8636,-0.1663,9.1502,-0.0347,0.0353,-0.1197,-1.698667665521139,0.0,2.635310649871826,-1.7786272764205933,-0.0,2.081179141998291,4.655852480525635,-0.0,0.2948428988456726,-1.5833218733416956,0.0,-0.01128817442804575,0.8532750606536865,0.0,0.00662949588149786,0.7788428068161011,0.00011360302596585825,0.07819065451622009
916.0,899.0,2.8636,-0.1663,9.1502,-0.0347,0.0353,-0.1197,-1.698712011376852,0.0,2.6342215538024902,-1.7785518169403076,-0.0,2.122225522994995,4.655876322383545,-0.0,0.2951164245605469,-1.5833056608783167,0.0,-0.004089923109859228,0.8532235622406006,0.0,-0.001686834148131311,0.7788830399513245,8.448446897091344e-05,-0.02203977108001709
916.0,899.0,2.8636,-0.1663,9.1502,-0.0347,0.0353,-0.1197,-1.6986633739867152,0.0,2.6524338722229004,-1.778588056564331,-0.0,2.0728249549865723,4.655868216151855,-0.0,0.2806055545806885,-1.5833218733416956,0.0,0.0014579398557543755,0.8532388210296631,0.0,0.006055926904082298,0.7788428068161011,7.892728172009811e-05,-0.004567923955619335
916.0,899.0,2.8636,-0.1663,9.1502,-0.0347,0.0353,-0.1197,-1.6986710033812464,0.0,2.637357711791992,-1.7785799503326416,-0.0,2.1094729900360107,4.6558567720600585,-0.0,0.3044356107711792,-1.5832856337176722,0.0,-0.007752029225230217,0.8532869815826416,0.0,-0.0022105881944298744,0.7788627743721008,5.554350354941562e-05,-0.005175455007702112
916.0,899.0,2.8636,-0.1663,9.1502,-0.0347,0.0353,-0.1197,-1.6986471615233363,0.0,2.696645736694336,-1.7784827947616577,0.0001429468538844958,2.08276104927063,4.655872507686279,-0.0,0.28471094369888306,-1.5833385626422327,0.0,-0.001244660117663443,0.853203535079956,0.0,0.0031110700219869614,0.7788830399513245,5.231384056969546e-05,-0.01888594776391983
916.0,899.0,2.8636,-0.1663,9.1502,-0.0347,0.0353,-0.1197,-1.6986314258971156,0.0,2.632124423980713,-1.7785313129425049,0.000595036952290684,2.0556840896606445,4.655827684993408,-0.0,0.30309462547302246,-1.5833423773394983,0.0,-0.012423606589436531,0.8532512187957764,0.0,-0.005293752532452345,0.77889084815979,4.944010288454592e-05,0.024387644603848457
916.0,899.0,2.8636,-0.1663,9.1502,-0.0347,0.0353,-0.1197,-1.698655744592184,0.0,2.602466583251953,-1.7785674333572388,0.0005380657967180014,2.057164192199707,4.655823393458984,-0.0,0.286708265542984,-1.5833261648761194,0.0,-0.012835826724767685,0.8533031344413757,0.0,-0.0026582537684589624,0.778846800327301,4.686558531830087e-05,0.004051001742482185
916.0,899.0,2.8636,-0.1663,9.1502,-0.0347,0.0353,-0.1197,-1.6986314258971156,0.0,2.6595957279205322,-1.778547763824463,0.0003959563036914915,2.069843292236328,4.6558238702961425,-0.0,0.29763853549957275,-1.583261791859762,0.0,-0.011999820359051228,0.8532466292381287,0.0,-0.0067153507843613625,0.7788990139961243,5.939453330938704e-05,0.0010986572597175837
916.0,899.0,2.8636,-0.1663,9.1502,-0.0347,0.0353,-0.1197,-1.698639532128805,0.0,2.6777191162109375,-1.778547763824463,0.00031324432347901165,2.1004438400268555,4.6558238702961425,-0.0,0.2920546531677246,-1.5833218733416956,0.0,-0.02494625374674797,0.8532388210296631,0.0,0.0009169098921120167,0.7788751125335693,5.6593587942188606e-05,0.030232183635234833
916.0,899.0,2.8636,-0.1663,9.1502,-0.0347,0.0353,-0.1197,-1.6986314258971156,0.0,2.6244757175445557,-1.7785757780075073,0.00030881183920428157,2.09080171585083,4.655893011684082,-0.0,0.2891828417778015,-1.5832856337176722,0.0,-0.008712708950042725,0.8532388210296631,0.0,-0.0007973890751600266,0.7788830995559692,5.404481998994015e-05,0.01974852755665779
925.0,854.0,2.6722,-0.3793,9.0814,-0.0394,0.0308,-0.117,-1.698622842828268,0.0,2.655219554901123,-1.7785714864730835,0.0002651392132975161,2.079389810562134,4.655872507686279,-0.0,0.29408353567123413,-1.5833099524127405,0.0,-0.010124867781996727,0.8532553315162659,0.0,-0.0016127107664942741,0.778814435005188,5.171569137019105e-05,-0.006515549495816231
925.0,854.0,2.6722,-0.3793,9.0814,-0.0394,0.0308,-0.117,-1.6986271343626917,0.0,2.6328392028808594,-1.7785313129425049,0.0002563625166658312,2.0844314098358154,4.655855818385742,-0.0,0.3058954179286957,-1.5833142439471644,0.0,-0.008505801670253277,0.8532512187957764,0.0,0.00990347284823656,0.7789031267166138,4.9579062761040404e-05,-6.846943870186806e-05
925.0,854.0,2.6722,-0.3793,9.0814,-0.0394,0.0308,-0.117,-1.6986757717528285,0.0,2.640052318572998,-1.778511643409729,0.00026133982464671135,2.149505138397217,4.655900164241455,-0.0,0.31311824917793274,-1.5833099524127405,0.0,-0.014236170798540115,0.8532235026359558,0.0,0.006420302204787731,0.7788830399513245,1.3958916497358587e-05,-0.010833090171217918
925.0,854.0,2.6722,-0.3793,9.0814,-0.0394,0.0308,-0.117,-1.6986595592894496,0.0,2.6535048484802246,-1.7784991264343262,0.00021836895029991865,2.090489625930786,4.655920668239258,-0.0,0.3118118643760681,-1.5833175818072718,0.0,-0.005750222597271204,0.8532472252845764,0.0,0.007761936169117689,0.7788509130477905,1.3338075405044947e-05,-0.06078413873910904
925.0,854.0,2.6722,-0.3793,9.0814,-0.0394,0.0308,-0.117,-1.6986876926817835,0.0,2.618529796600342,-1.7784918546676636,0.0009299907833337784,2.125620126724243,4.655916376704834,-0.0,0.30368363857269287,-1.5833256880389612,0.0,-0.023439690470695496,0.8532631397247314,0.0,0.016930226236581802,0.7789231538772583,2.5539802663843147e-05,-0.0016713570803403854
925.0,854.0,2.6722,-0.3793,9.0814,-0.0394,0.0308,-0.117,-1.6986876926817835,0.0,2.6212174892425537,-1.7784878015518188,0.0017423747340217233,2.0573177337646484,4.655932589168213,0.0005226935027167201,0.30386000871658325,-1.5833099524127405,0.0,-0.007171797100454569,0.8531718254089355,0.0,0.0007236317032948136,0.7788949012756348,3.674446634249762e-05,0.006047283764928579
925.0,854.0,2.6722,-0.3793,9.0814,-0.0394,0.0308,-0.117,-1.698622842828268,-1.685012307461875e-07,2.6310997009277344,-1.778475284576416,0.0027542952448129654,2.134840965270996,4.6559201914021,0.0004956185002811253,0.31366509199142456,-1.583329979573385,0.0,-0.003942023031413555,0.8532591462135315,0.0,0.01072625070810318,0.7789190411567688,0.000422383367549628,-0.005228793248534203
925.0,854.0,2.6722,-0.3793,9.0814,-0.0394,0.0308,-0.117,-1.6987110577025355,-4.06910643417982e-13,2.698202133178711,-1.7784638404846191,0.002564941067248583,2.0731945037841797,4.655924006099365,0.0004109653818886727,0.3022086024284363,-1.583306137715475,0.0,-0.008137061260640621,0.8532512187957764,0.0,0.020561574026942253,0.7788825631141663,0.0028764265589416027,0.05602024495601654
925.0,854.0,2.6722,-0.3793,9.0814,-0.0394,0.0308,-0.117,-1.6987039051451625,-0.0018128994852304459,2.6533374786376953,-1.7784595489501953,0.002476257737725973,2.132216453552246,4.655928297633789,0.0003508642257656902,0.3119940459728241,-1.5833142439471644,0.0,-0.0024097650311887264,0.8532273769378662,0.0,0.018004674464464188,0.7789832949638367,0.004851092584431171,0.002358914352953434
925.0,854.0,2.6722,-0.3793,9.0814,-0.0394,0.0308,-0.117,-1.698702951470846,-0.002090911380946636,2.633261203765869,-1.77843177318573,0.0034429868683218956,2.0266618728637695,4.6559645372578125,0.00030610349494963884,0.3101993203163147,-1.5832698980914515,0.0,-0.01835554465651512,0.8532512187957764,0.0,0.027967751026153564,0.7790230512619019,0.007404896430671215,-0.013575347140431404
925.0,854.0,2.6722,-0.3793,9.0814,-0.0394,0.0308,-0.117,-1.6988078556456507,-0.00260668876580894,2.6317684650421143,-1.77843177318573,0.0039265272207558155,2.1218602657318115,4.655928297633789,0.0002714716247282922,0.29592347145080566,-1.583249870930807,0.0,-0.008373848162591457,0.8532553315162659,0.0,0.007459479384124279,0.7791197299957275,0.008257781155407429,0.033887121826410294
925.0,854.0,2.6722,-0.3793,9.0814,-0.0394,0.0308,-0.117,-1.6987587414183558,-0.0034489643294364214,2.656104564666748,-1.7783955335617065,0.0032683999743312597,2.0594944953918457,4.6559483247944335,0.00024388139718212187,0.3042260706424713,-1.5833023230182093,0.0,-0.023627396672964096,0.8532553315162659,0.0,0.03264062479138374,0.7790749073028564,0.008621645160019398,0.04076366499066353
925.0,854.0,2.6722,-0.3793,9.0814,-0.0394,0.0308,-0.117,-1.6987911663451136,-0.00352171971462667,2.684666633605957,-1.7783684730529785,0.003041567513719201,2.1122374534606934,4.655900164241455,0.00022138275380712003,0.3040230870246887,-1.58331805864443,0.0,-0.017749737948179245,0.8532505631446838,0.0,0.009170911274850368,0.779155433177948,0.007894022390246391,-0.014607044868171215
925.0,854.0,2.6722,-0.3793,9.0814,-0.0394,0.0308,-0.117,-1.6988235912718714,-0.0033225498627871275,2.65008807182312,-1.7783839702606201,0.0029670705553144217,2.1240906715393066,4.655940218562744,0.0002026852307608351,0.29464560747146606,-1.5832942167865198,0.0,-0.01157629769295454,0.8532227873802185,0.0,0.027362290769815445,0.7791749238967896,0.007047700230032206,0.028657175600528717
925.0,854.0,2.6722,-0.3793,9.0814,-0.0394,0.0308,-0.117,-1.6988355122008265,-0.002627807902172208,2.6531832218170166,-1.7783849239349365,0.0026576449163258076,2.138871908187866,4.655940218562744,0.00018690006982069463,0.30277955532073975,-1.5832784811602991,0.0,-0.01415090262889862,0.8532267808914185,0.0,0.01936151832342148,0.779191255569458,0.005668919999152422,0.014649060554802418
935.0,884.0,2.8863,-0.1286,9.207,-0.036,0.0263,-0.0999,-1.69887175182485,-0.002570678014308214,2.5961508750915527,-1.778324007987976,0.0019154185429215431,2.1262564659118652,4.655920668239258,0.0001733958924887702,0.30927661061286926,-1.5833099524127405,0.0,-0.013092851266264915,0.8532194495201111,0.0,0.017158817499876022,0.7792312502861023,0.003933357540518045,0.07977105677127838
935.0,884.0,2.8863,-0.1286,9.207,-0.036,0.0263,-0.0999,-1.69889559368276,-0.0029584765434265137,2.6650583744049072,-1.7783396244049072,0.0013647431042045355,2.1105854511260986,4.655872507686279,0.0001617123489268124,0.30644863843917847,-1.5832575003253382,0.0,-0.022239938378334045,0.8532592058181763,0.0,0.007630574982613325,0.7792391777038574,0.002372908405959606,0.016614869236946106
935.0,884.0,2.8863,-0.1286,9.207,-0.036,0.0263,-0.0999,-1.6988750896849574,-0.0036860420368611813,2.64628005027771,-1.7783643007278442,0.0007211285410448909,2.1053082942962646,4.655900164241455,0.00015150355466175824,0.31243467330932617,-1.5833023230182093,0.0,-0.020943667739629745,0.8532670736312866,0.0,0.02285517379641533,0.7792308926582336,0.001589927007444203,0.042140521109104156
935.0,884.0,2.8863,-0.1286,9.207,-0.036,0.0263,-0.0999,-1.6988989315428675,-0.0032623985316604376,2.5962023735046387,-1.7783042192459106,0.0006696587661281228,2.0508716106414795,4.655892058009766,0.00014250754611566663,0.3008914291858673,-1.5832331816302698,0.0,-0.005734161473810673,0.8533030152320862,0.0,0.03201542794704437,0.7792267799377441,0.0013475494924932718,0.011212198063731194
935.0,884.0,2.8863,-0.1286,9.207,-0.036,0.0263,-0.0999,-1.6989389858641566,-0.0026937569491565228,2.5857863426208496,-1.7782961130142212,0.0005444863927550614,2.127532482147217,4.655903978938721,0.00013451985432766378,0.30780649185180664,-1.5832861105548304,0.0,-0.012567464262247086,0.8532711863517761,0.0,0.028283709660172462,0.7792388796806335,0.0013107011327520013,-0.013484031893312931
935.0,884.0,2.8863,-0.1286,9.207,-0.036,0.0263,-0.0999,-1.6989671192564906,-0.002338187536224723,2.6145949363708496,-1.778332233428955,0.0006290691089816391,2.0900750160217285,4.655932589168213,0.0001273798698093742,0.3115482032299042,-1.5832698980914515,0.0,-0.021272197365760803,0.8532552123069763,0.0,0.013779239729046822,0.7793155908584595,0.0011088451137766242,-0.012208826839923859
935.0,884.0,2.8863,-0.1286,9.207,-0.036,0.0263,-0.0999,-1.698987146417135,-0.0023385717067867517,2.6093599796295166,-1.778332233428955,0.0007620632532052696,2.13828444480896,4.655920668239258,0.00012095997226424515,0.3150782585144043,-1.5832942167865198,0.0,-0.01644815318286419,0.8532829880714417,0.0,0.03694363683462143,0.7792913317680359,0.0008554526721127331,0.030020467936992645
935.0,884.0,2.8863,-0.1286,9.207,-0.036,0.0263,-0.0999,-1.6989504299559535,-0.002195743378251791,2.6045522689819336,-1.7782680988311768,0.0007204973371699452,2.0687813758850098,4.655892058009766,0.0001151560791186057,0.30558252334594727,-1.5832904020892542,0.0,-0.007330360356718302,0.8533029556274414,5.146895273355767e-05,0.035790570080280304,0.779267430305481,0.0008115358068607748,-0.050140418112277985
935.0,884.0,2.8863,-0.1286,9.207,-0.036,0.0263,-0.0999,-1.699015279809469,-0.002043923130258918,2.605255365371704,-1.7783124446868896,0.0006854287930764258,2.1119394302368164,4.655944510097168,0.00010988368012476712,0.3075544238090515,-1.583233658467428,0.0,-0.0058829523622989655,0.8532592058181763,5.002606485504657e-05,0.028100397437810898,0.7793036699295044,0.0013530355645343661,-0.015212560072541237
935.0,884.0,2.8863,-0.1286,9.207,-0.036,0.0263,-0.0999,-1.6989709339537562,-0.0017030752496793866,2.5704843997955322,-1.7783043384552002,0.0005821058293804526,2.047212839126587,4.6559483247944335,0.0001050729479175061,0.30353930592536926,-1.5832660833941858,0.0,-0.015194613486528397,0.8532553315162659,5.419431303721467e-08,0.02802227810025215,0.7793073058128357,0.0013237862149253488,-0.038011468946933746
935.0,884.0,2.8863,-0.1286,9.207,-0.036,0.0263,-0.0999,-1.6990310154356898,-0.0015726310666650534,2.6029248237609863,-1.778348684310913,0.0005208458169363439,2.130582571029663,4.6559483247944335,0.00010066575487144291,0.3027646243572235,-1.5832985083209437,0.0,-0.017175469547510147,0.8532472848892212,1.5085186572116882e-11,0.04393062740564346,0.7792748808860779,0.0010351998498663306,-0.026012027636170387
935.0,884.0,2.8863,-0.1286,9.207,-0.036,0.0263,-0.0999,-1.698998590508932,-0.0014932225458323956,2.564180374145508,-1.7782763242721558,0.0004159638483542949,2.064579486846924,4.655871554011963,9.66134830377996e-05,0.2874876856803894,-1.5832698980914515,0.0,-0.0014306686352938414,0.8532267808914185,4.199017181730951e-15,0.04232173413038254,0.7793195843696594,0.000999844865873456,-0.04803616553544998
935.0,884.0,2.8863,-0.1286,9.207,-0.036,0.0263,-0.0999,-1.6990353069701136,-0.0012572990963235497,2.556197166442871,-1.7783207893371582,0.00038481189403682947,2.079122304916382,4.655985041255615,9.287476859753951e-05,0.28455686569213867,-1.583249870930807,0.0,-0.006448796950280666,0.8532789945602417,1.1688118924041394e-18,0.040492717176675797,0.7793191075325012,0.0019781026057899,-0.02780112624168396
935.0,884.0,2.8863,-0.1286,9.207,-0.036,0.0263,-0.0999,-1.6990310154356898,-0.0012216178001835942,2.605935573577881,-1.778291940689087,0.0004249379562679678,2.0912697315216064,4.655924482936523,8.941466512624174e-05,0.2968384027481079,-1.5832822958575647,0.0,-0.0029836141038686037,0.8532671332359314,3.253430747603063e-22,0.033659130334854126,0.7793269753456116,0.0025146163534373045,-0.018983488902449608
935.0,884.0,2.8863,-0.1286,9.207,-0.036,0.0263,-0.0999,-1.6990872822203578,-0.0012041055597364902,2.5903186798095703,-1.778291940689087,0.0007653753273189068,2.0981342792510986,4.655932589168213,6.098675657995045e-05,0.29953688383102417,-1.5832541624652308,0.0,-0.000969382468611002,0.8532871007919312,9.05604615473944e-26,0.04494499787688255,0.779379665851593,0.002780640497803688,-0.023687031120061874
905.0,891.0,2.8893,-0.143,8.9474,-0.0344,0.0191,-0.11,-1.6990753612914027,-0.0011047902517020702,2.5305819511413574,-1.7782597541809082,0.0014742023777216673,2.136542558670044,4.6559483247944335,5.8552675909595564e-05,0.2970553934574127,-1.583310906087057,0.0,-0.0007815425633452833,0.8532592058181763,2.5207838012931685e-29,0.03800114244222641,0.7793591022491455,0.003093601204454899,-0.05472688376903534
905.0,891.0,2.8893,-0.143,8.9474,-0.0344,0.0191,-0.11,-1.6990791759886683,-0.0010709415655583143,2.5273261070251465,-1.7782597541809082,0.0018718180945143104,2.0508954524993896,4.655903978938721,5.635295019601472e-05,0.2954939603805542,-1.5832060019122522,0.0,-0.007681600749492645,0.8532553315162659,7.016694022687196e-33,0.0420256182551384,0.779427707195282,0.0037545226514339447,-0.014233231544494629
905.0,891.0,2.8893,-0.143,8.9474,-0.0344,0.0191,-0.11,-1.6990548572936,-0.0011865264968946576,2.539750576019287,-1.778184175491333,0.0023088031448423862,2.134171962738037,4.6559645372578125,5.431252793641761e-05,0.2977946102619171,-1.5832374731646937,0.0,0.003944397903978825,0.8533306121826172,1.953122535244691e-36,0.024361835792660713,0.7794194221496582,0.0038981600664556026,-0.008050646632909775
905.0,891.0,2.8893,-0.143,8.9474,-0.0344,0.0191,-0.11,-1.6990548572936,-0.0015413257060572505,2.582284927368164,-1.7782409191131592,0.0021305379923433065,2.0516695976257324,4.655989332790039,6.020321598043665e-05,0.2861185073852539,-1.5832822958575647,0.0,0.012194043956696987,0.8532671332359314,5.436589626071706e-40,0.028509320691227913,0.7794675827026367,0.003794310614466667,-0.045004911720752716
905.0,891.0,2.8893,-0.143,8.9474,-0.0344,0.0191,-0.11,-1.6991187534727992,-0.001852944027632475,2.5891880989074707,-1.7782450914382935,0.002395866671577096,2.0985445976257324,4.6559483247944335,6.077327998355031e-05,0.2851276993751526,-1.5832417646991175,0.0,0.0017352413851767778,0.8532869815826416,1.5134023414708024e-43,0.029003556817770004,0.779438853263855,0.003699100809171796,-0.03526594489812851
905.0,891.0,2.8893,-0.143,8.9474,-0.0344,0.0191,-0.11,-1.699163099328512,-0.0017874592449516058,2.549267053604126,-1.778200626373291,0.0025710887275636196,2.0726816654205322,4.6559082704731445,1.967066737051937e-06,0.2859034538269043,-1.583245579396383,0.0,-0.007664147764444351,0.8532110452651978,0.0,0.03140659257769585,0.779455304145813,0.003602822544053197,-0.012035829946398735
905.0,891.0,2.8893,-0.143,8.9474,-0.0344,0.0191,-0.11,-1.6991635761656703,-0.0018704235553741455,2.5281805992126465,-1.778184175491333,0.0034068438690155745,2.0766584873199463,4.655952139491699,5.475402908849958e-10,0.294092059135437,-1.5832541624652308,0.0,0.0013705401215702295,0.8532870411872864,0.0,0.035136543214321136,0.779495120048523,0.0035626196768134832,-0.06215517595410347
905.0,891.0,2.8893,-0.143,8.9474,-0.0344,0.0191,-0.11,-1.6991187534727992,-0.00208432599902153,2.5855541229248047,-1.778200626373291,0.0038010335993021727,2.113339424133301,4.6559645372578125,1.524098365958751e-13,0.2970921993255615,-1.5832374731646937,0.0,0.00943167693912983,0.8532790541648865,0.0,0.05089282616972923,0.7795477509498596,0.0034665935672819614,-0.06898520141839981
905.0,891.0,2.8893,-0.143,8.9474,-0.0344,0.0191,-0.11,-1.6991549930968226,-0.002267437055706978,2.6011245250701904,-1.7781529426574707,0.0035424951929599047,2.1191837787628174,4.655947847957275,4.2423837069133745e-17,0.29696229100227356,-1.583221737538473,0.0,-0.006757999770343304,0.853270947933197,2.6366335077909753e-05,0.03140818700194359,0.7795353531837463,0.0035561453551054,-0.024510856717824936
905.0,891.0,2.8893,-0.143,8.9474,-0.0344,0.0191,-0.11,-1.6991626224913539,-0.002857199404388666,2.592101812362671,-1.7781652212142944,0.0036830990575253963,2.117302179336548,4.655952139491699,1.180883123260059e-20,0.2930485010147095,-1.5832822958575647,0.0,0.0014237826690077782,0.8531957864761353,8.531808998668566e-05,0.036296598613262177,0.779547393321991,0.0035525260027498007,-0.02762233465909958
905.0,891.0,2.8893,-0.143,8.9474,-0.0344,0.0191,-0.11,-1.6992269955077113,-0.0034106022212654352,2.5231356620788574,-1.7781001329421997,0.003486923174932599,2.099771499633789,4.655952139491699,3.2870317335469275e-24,0.29335498809814453,-1.583249870930807,0.0,0.011379390023648739,0.8532552719116211,8.074242941802368e-05,0.052531443536281586,0.7796078324317932,0.0037600628565996885,-0.004229050595313311
905.0,891.0,2.8893,-0.143,8.9474,-0.0344,0.0191,-0.11,-1.6991950474181117,-0.003990852739661932,2.52718186378479,-1.778052568435669,0.0031900075264275074,2.115516424179077,4.655916376704834,9.149573164698773e-28,0.30424052476882935,-1.583249870930807,0.0,0.005047510378062725,0.8532631397247314,7.661818381166086e-05,0.036222904920578,0.7796271443367004,0.0032401548232883215,0.019709978252649307
905.0,891.0,2.8893,-0.143,8.9474,-0.0344,0.0191,-0.11,-1.6992508373656214,-0.005245930515229702,2.5252866744995117,-1.7780731916427612,0.002415161579847336,2.0912904739379883,4.655996485347412,2.546817361833372e-31,0.2882918119430542,-1.5832255522357386,0.0,0.0058807809837162495,0.8532592058181763,7.289475615834817e-05,0.03325912728905678,0.779607355594635,0.002823564689606428,-0.01729802042245865
905.0,891.0,2.8893,-0.143,8.9474,-0.0344,0.0191,-0.11,-1.6992951832213343,-0.0059990291483700275,2.5073773860931396,-1.7780730724334717,0.0019773761741816998,2.108690023422241,4.655867262477539,7.089159621913291e-35,0.3096931576728821,-1.5832698980914515,0.0,0.0001813606359064579,0.8533225655555725,6.951641262276098e-05,0.04287830367684364,0.7796276211738586,0.0024149869568645954,-0.024963214993476868
905.0,891.0,2.8893,-0.143,8.9474,-0.0344,0.0191,-0.11,-1.6993347607054652,-0.006771306972950697,2.5153660774230957,-1.778052568435669,0.0015132382977753878,2.0602424144744873,4.655972643489502,1.973293783828332e-38,0.3055947422981262,-1.5832822958575647,0.0,0.009466373361647129,0.8532631397247314,7.966656994540244e-05,0.044592276215553284,0.7796834707260132,0.002157475333660841,-0.04348476976156235
927.0,897.0,2.7835,-0.0939,8.8612,-0.0339,0.0203,-0.1058,-1.6994029484190882,-0.006962497718632221,2.4939277172088623,-1.7780410051345825,0.0012067381758242846,2.1084513664245605,4.655985041255615,5.493089980153283e-42,0.2841483950614929,-1.5832417646991175,0.0,-0.0009689334547147155,0.8532631397247314,7.634353823959827e-05,0.03044639527797699,0.7796839475631714,0.0017040112288668752,-0.04984763637185097
927.0,897.0,2.7835,-0.0939,8.8612,-0.0339,0.0203,-0.1058,-1.699418684045309,-0.007682677358388901,2.5156381130218506,-1.7780534029006958,0.0007225442677736282,2.0713863372802734,4.655996485347412,1.401298464324817e-45,0.29268044233322144,-1.583245579396383,0.0,0.00863810908049345,0.8533227443695068,7.323732279473916e-05,0.04355607181787491,0.7796875238418579,0.0014878864167258143,-0.08412225544452667
927.0,897.0,2.7835,-0.0939,8.8612,-0.0339,0.0203,-0.1058,-1.6994830570616664,-0.00858535896986723,2.4470255374908447,-1.7780327796936035,0.0006705404375679791,2.0907480716705322,4.655972643489502,0.0,0.28730615973472595,-1.583233658467428,0.0,0.011966906487941742,0.8532710671424866,7.037402247078717e-05,0.035799622535705566,0.7796595096588135,0.0012545848730951548,-0.04641213268041611
927.0,897.0,2.7835,-0.0939,8.8612,-0.0339,0.0203,-0.1058,-1.699515005151266,-0.009586594067513943,2.460773468017578,-1.7780369520187378,0.0005875293863937259,2.1135382652282715,4.65594403326001,0.0,0.2893630862236023,-1.5832541624652308,0.0,0.009597262367606163,0.8532989025115967,6.77260832162574e-05,0.050226885825395584,0.7796955108642578,0.0010057940380647779,-0.06061535328626633
927.0,897.0,2.7835,-0.0939,8.8612,-0.0339,0.0203,-0.1058,-1.69956698040151,-0.009670332074165344,2.536975383758545,-1.7780327796936035,0.00041797725134529173,2.0710811614990234,4.655976935023926,0.0,0.286368191242218,-1.5832298437701624,0.0,0.019505318254232407,0.8532909154891968,7.614251808263361e-05,0.04173988103866577,0.7797074913978577,0.0008230961975641549,-0.04056044667959213
927.0,897.0,2.7835,-0.0939,8.8612,-0.0339,0.0203,-0.1058,-1.69964661220693,-0.010221215896308422,2.481005907058716,-1.7780007123947144,0.0004543416725937277,2.066924810409546,4.655947847957275,0.0,0.30077633261680603,-1.583249870930807,0.0,0.0035666588228195906,0.8532947897911072,7.34840432414785e-05,0.03847631812095642,0.7797157764434814,0.0007261339342221618,-0.05070365220308304
927.0,897.0,2.7835,-0.0939,8.8612,-0.0339,0.0203,-0.1058,-1.6997143230833949,-0.010189509950578213,2.4561707973480225,-1.7780615091323853,0.000775406660977751,2.03963565826416,4.655940218562744,0.0,0.26982381939888,-1.5832374731646937,0.0,0.015619277954101562,0.853270947933197,7.099957292666659e-05,0.04192211478948593,0.7797480225563049,0.0005968660116195679,-0.060350202023983
927.0,897.0,2.7835,-0.0939,8.8612,-0.0339,0.0203,-0.1058,-1.6997462711729945,-0.010217083618044853,2.438551187515259,-1.7779520750045776,0.0013976696645841002,2.101945161819458,4.655892058009766,0.0,0.28121915459632874,-1.5832822958575647,0.0,0.020241547375917435,0.8532115817070007,2.2980227640800877e-06,0.03796631470322609,0.7796550989151001,0.0005138677079230547,-0.04167301207780838
927.0,897.0,2.7835,-0.0939,8.8612,-0.0339,0.0203,-0.1058,-1.6998268566527308,-0.011241172440350056,2.4407742023468018,-1.7780327796936035,0.0014783821534365416,2.0963668823242188,4.655940218562744,0.0,0.2934386730194092,-1.5832060019122522,0.0,0.014031564816832542,0.8532141447067261,6.396631557770149e-10,0.048688143491744995,0.7797195911407471,0.00041863101068884134,-0.11020344495773315
927.0,897.0,2.7835,-0.0939,8.8612,-0.0339,0.0203,-0.1058,-1.6998902759947718,-0.01121273823082447,2.46769118309021,-1.7779324054718018,0.0014421552186831832,2.1196441650390625,4.6559645372578125,0.0,0.2687566876411438,-1.5832656065570276,0.0,0.022806642577052116,0.8532711267471313,1.780526003329272e-13,0.04422004520893097,0.7796793580055237,0.00034903970663435757,-0.14544282853603363
927.0,897.0,2.7835,-0.0939,8.8612,-0.0339,0.0203,-0.1058,-1.699954172173971,-0.012484172359108925,2.409234046936035,-1.77799654006958,0.0017643211176618934,2.0551233291625977,4.655980272884033,0.0,0.27122989296913147,-1.583278004323141,0.0,0.01689850352704525,0.8533034920692444,4.956159180974362e-17,0.03512756526470184,0.7796633243560791,0.0003369702026247978,-0.08572632074356079
927.0,897.0,2.7835,-0.0939,8.8612,-0.0339,0.0203,-0.1058,-1.7000142536559046,-0.012495739385485649,2.4009182453155518,-1.7779643535614014,0.0021115902345627546,2.0681560039520264,4.655960245723389,0.0,0.2778019309043884,-1.5832017103778284,0.0,0.01483900286257267,0.8532668948173523,1.3795650401499772e-20,0.04870051145553589,0.7797116637229919,0.00024795765057206154,-0.052346691489219666
927.0,897.0,2.7835,-0.0939,8.8612,-0.0339,0.0203,-0.1058,-1.7000652752318324,-0.013254696503281593,2.4628705978393555,-1.7779735326766968,0.0025175309274345636,2.069895029067993,4.6559645372578125,0.0,0.2843647003173828,-1.5833023230182093,0.0,0.009660238400101662,0.8532828688621521,3.840069968115491e-24,0.030254051089286804,0.7797116637229919,0.00021226854005362839,-0.06741053611040115
927.0,897.0,2.7835,-0.0939,8.8612,-0.0339,0.0203,-0.1058,-1.7001615963377894,-0.013647922314703465,2.409336566925049,-1.7779085636138916,0.0034161617513746023,2.0642518997192383,4.6559645372578125,0.0,0.27940136194229126,-1.583245579396383,0.0,0.009382810443639755,0.8533070683479309,1.0688974747037324e-27,0.037990473210811615,0.7797438502311707,0.0001859522599261254,-0.07044219970703125
927.0,897.0,2.7835,-0.0939,8.8612,-0.0339,0.0203,-0.1058,-1.7002817593016566,-0.01335659809410572,2.395756244659424,-1.7779208421707153,0.003547286381945014,2.098268985748291,4.6559645372578125,0.0,0.27449530363082886,-1.5832822958575647,0.0,0.018280627205967903,0.8532627820968628,2.975315145363477e-31,0.04628664627671242,0.7797195911407471,0.00018716472550295293,-0.0664476603269577
926.0,858.0,2.8331,-0.3374,9.0802,-0.0434,0.0145,-0.1158,-1.7003094158568324,-0.014711146242916584,2.3991541862487793,-1.7779580354690552,0.004222797229886055,2.1052794456481934,4.655968828792236,0.0,0.2930455803871155,-1.5832865873919886,0.0,0.024747025221586227,0.8532951474189758,8.281898956998497e-35,0.03061988204717636,0.779687225818634,0.00017880770610645413,-0.11004519462585449
926.0,858.0,2.8331,-0.3374,9.0802,-0.0434,0.0145,-0.1158,-1.7004457912840785,-0.01638709008693695,2.4279861450195312,-1.7778691053390503,0.0042027756571769714,2.06105899810791,4.655975981349609,0.0,0.27327489852905273,-1.583310906087057,0.0,0.03230980783700943,0.8533391356468201,2.3052968428780286e-38,0.03577806428074837,0.7796751856803894,0.00013591675087809563,-0.10415545105934143
926.0,858.0,2.8331,-0.3374,9.0802,-0.0434,0.0145,-0.1158,-1.7005139789977015,-0.017356982454657555,2.431246757507324,-1.7778617143630981,0.00420512817800045,2.1132688522338867,4.655968828792236,0.0,0.26995259523391724,-1.5832017103778284,0.0,0.025539705529808998,0.8532668948173523,6.416545668143337e-42,0.02388175204396248,0.7797278165817261,0.0001243089500349015,-0.10953664034605026
926.0,858.0,2.8331,-0.3374,9.0802,-0.0434,0.0145,-0.1158,-1.7006298504271449,-0.01866851933300495,2.400097370147705,-1.777809977531433,0.005116008222103119,2.064662456512451,4.65594403326001,0.0,0.2735790014266968,-1.5831978956805628,0.0,0.01412366982549429,0.8533473014831543,1.401298464324817e-45,0.0444645881652832,0.7797116637229919,0.00011479540989967063,-0.05777939409017563
926.0,858.0,2.8331,-0.3374,9.0802,-0.0434,0.0145,-0.1158,-1.700757165948385,-0.01987825520336628,2.4254419803619385,-1.7777622938156128,0.00643005920574069,2.1513237953186035,4.655980272884033,0.0,0.2852150499820709,-1.5832379500018519,0.0,0.02793949469923973,0.8532910943031311,0.0,0.043047770857810974,0.7797559499740601,0.00012796152441296726,-0.1229284256696701
926.0,858.0,2.8331,-0.3374,9.0802,-0.0434,0.0145,-0.1158,-1.7008568249144496,-0.020115992054343224,2.430319309234619,-1.777721881866455,0.007161456625908613,2.0575695037841797,4.656000300044678,0.0,0.2818593382835388,-1.5832460562335413,0.0,0.025457575917243958,0.8532508611679077,0.0,0.03641898185014725,0.7797195911407471,0.00011946854647248983,-0.11852847784757614
926.0,858.0,2.8331,-0.3374,9.0802,-0.0434,0.0145,-0.1158,-1.7009889088072718,-0.019584892317652702,2.438112735748291,-1.7776970863342285,0.0077353729866445065,2.056321620941162,4.655975981349609,0.0,0.2870308756828308,-1.583294693623678,0.0,0.025378238409757614,0.8532628417015076,4.6662724344059825e-05,0.04047136381268501,0.7797237038612366,0.0001120328888646327,-0.09926210343837738
926.0,858.0,2.8331,-0.3374,9.0802,-0.0434,0.0145,-0.1158,-1.7011128864684046,-0.021278655156493187,2.391937255859375,-1.7776411771774292,0.008321021683514118,2.0914642810821533,4.655960245723389,0.0,0.28174665570259094,-1.5832541624652308,0.0,0.029524914920330048,0.8532754182815552,5.177425919100642e-05,0.021728424355387688,0.7797195911407471,0.00010546848352532834,-0.1007043868303299
926.0,858.0,2.8331,-0.3374,9.0802,-0.0434,0.0145,-0.1158,-1.7012530765929164,-0.023385347798466682,2.4013803005218506,-1.7776057720184326,0.008060104213654995,2.056918144226074,4.655960245723389,0.0,0.28541359305381775,-1.5832379500018519,0.0,0.030135460197925568,0.8532989025115967,5.004866761737503e-05,0.030692633241415024,0.7797356247901917,9.96308444882743e-05,-0.09599295258522034
926.0,858.0,2.8331,-0.3374,9.0802,-0.0434,0.0145,-0.1158,-1.7013970814146937,-0.025093985721468925,2.3860058784484863,-1.7775301933288574,0.008223513141274452,2.1085333824157715,4.655992670650146,0.0,0.2921312749385834,-1.5832379500018519,0.0,0.024754337966442108,0.8532907366752625,5.4218617151491344e-08,0.034138623625040054,0.7797075510025024,9.440549183636904e-05,-0.11785870790481567
926.0,858.0,2.8331,-0.3374,9.0802,-0.0434,0.0145,-0.1158,-1.701564451257223,-0.026706678792834282,2.3716158866882324,-1.7775177955627441,0.007634453475475311,2.0531883239746094,4.655996485347412,0.0,0.27330055832862854,-1.5831735769854944,0.0,0.028469562530517578,0.853267252445221,1.5091950258949716e-11,0.033484164625406265,0.7797034382820129,8.970098861027509e-05,-0.08780480176210403
926.0,858.0,2.8331,-0.3374,9.0802,-0.0434,0.0145,-0.1158,-1.7017446957030238,-0.028150446712970734,2.437459945678711,-1.7774627208709717,0.008802169002592564,2.100747585296631,4.65594403326001,0.0,0.2915153205394745,-1.5831978956805628,0.0,0.019769035279750824,0.8532631397247314,4.2008997124562235e-15,0.03935063257813454,0.779687225818634,8.54430763865821e-05,-0.13460682332515717
926.0,858.0,2.8331,-0.3374,9.0802,-0.0434,0.0145,-0.1158,-1.701888223687643,-0.028754381462931633,2.385603904724121,-1.7774150371551514,0.00924970768392086,2.0785205364227295,4.655952139491699,0.0,0.287541925907135,-1.583182160054342,0.0,0.028306256979703903,0.8532668948173523,1.1693359113221917e-18,0.03744618222117424,0.7796913981437683,8.157109550666064e-05,-0.12213128805160522
926.0,858.0,2.8331,-0.3374,9.0802,-0.0434,0.0145,-0.1158,-1.7020884952940882,-0.029377097263932228,2.3550233840942383,-1.7772859334945679,0.009570599533617496,2.053497791290283,4.6559645372578125,0.0,0.2800920903682709,-1.5832660833941858,0.0,0.0301433764398098,0.8533034324645996,3.25488982473336e-22,0.03750709444284439,0.7797113656997681,9.104052878683433e-05,-0.14356780052185059
926.0,858.0,2.8331,-0.3374,9.0802,-0.0434,0.0145,-0.1158,-1.7022277317442835,-0.030057253316044807,2.394563674926758,-1.7772908210754395,0.009966801851987839,2.1290817260742188,4.655984087581299,0.0,0.27401280403137207,-1.5832541624652308,0.0,0.027868153527379036,0.8532910943031311,9.060105706913417e-26,0.034904297441244125,0.7797517776489258,9.966534707928076e-05,-0.12541800737380981
922.0,866.0,2.726,-0.4253,8.8774,-0.0461,0.0005,-0.1182,-1.7023993931212367,-0.03159363940358162,2.358030319213867,-1.7772504091262817,0.010020298883318901,2.074702739715576,4.655972643489502,0.0,0.2749483585357666,-1.5831697622882288,0.0,0.03970828652381897,0.8532788157463074,2.5219134795761731e-29,0.04330833628773689,0.7797476649284363,7.831514813005924e-05,-0.14545589685440063
922.0,866.0,2.726,-0.4253,8.8774,-0.0461,0.0005,-0.1182,-1.7025710544981898,-0.03136579692363739,2.3679375648498535,-1.7771509885787964,0.009247001260519028,2.091179847717285,4.655992670650146,0.0,0.26443710923194885,-1.5832017103778284,0.0,0.035596948117017746,0.853267252445221,7.019839204759614e-33,0.055517397820949554,0.7797397375106812,8.846553100738674e-05,-0.09486609697341919
922.0,866.0,2.726,-0.4253,8.8774,-0.0461,0.0005,-0.1182,-1.7027307949461878,-0.032797716557979584,2.366349697113037,-1.7771590948104858,0.008833508938550949,2.0681920051574707,4.655996485347412,0.0,0.2683769464492798,-1.5832017103778284,3.446180869559612e-07,0.016901899129152298,0.8533108234405518,1.9539982010498537e-36,0.03439975529909134,0.7797517776489258,9.844518353929743e-05,-0.1355714648962021
922.0,866.0,2.726,-0.4253,8.8774,-0.0461,0.0005,-0.1182,-1.7029911480345667,-0.03161250427365303,2.3582277297973633,-1.777006983757019,0.008830830454826355,2.0302975177764893,4.6560045915791015,0.0,0.27666330337524414,-1.583254639302389,9.59257048793738e-11,0.040826693177223206,0.8532910943031311,5.4390278853996315e-40,0.047992460429668427,0.7797232866287231,0.0004155035421717912,-0.12806591391563416
922.0,866.0,2.726,-0.4253,8.8774,-0.0461,0.0005,-0.1182,-1.7031666241087855,-0.03218443691730499,2.381834030151367,-1.7769675254821777,0.008290501311421394,2.1330809593200684,4.655979796046875,0.0,0.28092676401138306,-1.5832622686969202,2.6701273706181486e-14,0.03643958270549774,0.8533149361610413,1.5134023414708024e-43,0.04062812030315399,0.7797315120697021,0.00048348167911171913,-0.10434995591640472
922.0,866.0,2.726,-0.4253,8.8774,-0.0461,0.0005,-0.1182,-1.7033583126463832,-0.03305093199014664,2.368481159210205,-1.7769469022750854,0.008259900845587254,2.0666606426239014,4.6559645372578125,0.0,0.2744722068309784,-1.5832460562335413,7.43239812916249e-18,0.028338242322206497,0.8532989621162415,0.0,0.03879426792263985,0.779775857925415,0.0006886872579343617,-0.15982142090797424
922.0,866.0,2.726,-0.4253,8.8774,-0.0461,0.0005,-0.1182,-1.7035256824889125,-0.034593984484672546,2.3759727478027344,-1.7769198417663574,0.008294574916362762,2.0761001110076904,4.6560045915791015,0.0,0.2701556980609894,-1.5832784811602991,2.0688352575448085e-21,0.04934922978281975,0.8532832264900208,0.0,0.03600431978702545,0.7797473669052124,0.00076557561988011,-0.1555628478527069
922.0,866.0,2.726,-0.4253,8.8774,-0.0461,0.0005,-0.1182,-1.7037660084166468,-0.03621073439717293,2.330244779586792,-1.7769042253494263,0.008525425568223,2.076078414916992,4.655947847957275,0.0,0.27095502614974976,-1.5831859747516077,5.758679184694663e-25,0.03393310308456421,0.8532910943031311,0.0,0.03725075721740723,0.7797597050666809,0.0010224675061181188,-0.1390978991985321
922.0,866.0,2.726,-0.4253,8.8774,-0.0461,0.0005,-0.1182,-1.7040301762022914,-0.03839442878961563,2.3059113025665283,-1.7767914533615112,0.009192585945129395,2.062051773071289,4.65596787511792,0.0,0.270009845495224,-1.5832141081439417,1.6029494464129305e-28,0.04249051958322525,0.8532989025115967,0.0,0.02202659472823143,0.7797514796257019,0.0011780756758525968,-0.13848154246807098
922.0,866.0,2.726,-0.4253,8.8774,-0.0461,0.0005,-0.1182,-1.7042094669737757,-0.04065229743719101,2.3859002590179443,-1.7767126560211182,0.009827745147049427,2.1236908435821533,4.656000300044678,0.0,0.2792494595050812,-1.5832460562335413,4.4618682823279e-32,0.04659029841423035,0.8533111810684204,0.0,0.03603837639093399,0.7797878980636597,0.001196129946038127,-0.12618964910507202
922.0,866.0,2.726,-0.4253,8.8774,-0.0461,0.0005,-0.1182,-1.70452942470693,-0.04270458221435547,2.3663554191589355,-1.7766680717468262,0.010910794138908386,2.0959744453430176,4.655952139491699,9.643008525017649e-07,0.2567644417285919,-1.5832017103778284,1.2419775103221633e-35,0.036283329129219055,0.8533030152320862,0.0,0.024981262162327766,0.7797874808311462,0.0011336785973981023,-0.13581863045692444
922.0,866.0,2.726,-0.4253,8.8774,-0.0461,0.0005,-0.1182,-1.7046810589232386,-0.04413701221346855,2.3497157096862793,-1.7765883207321167,0.012139875441789627,2.094348669052124,4.656008406276367,2.68416677773331e-10,0.27196985483169556,-1.5832141081439417,3.457090191994112e-39,0.048810943961143494,0.8532028198242188,0.0,0.0419003888964653,0.7797756195068359,0.0008788499981164932,-0.14992377161979675
922.0,866.0,2.726,-0.4253,8.8774,-0.0461,0.0005,-0.1182,-1.704996725121969,-0.047612667083740234,2.337376594543457,-1.7765498161315918,0.013702264986932278,2.1311635971069336,4.656000300044678,7.471477050328273e-14,0.26536595821380615,-1.5832622686969202,9.626920449911493e-43,0.03109930455684662,0.8532590270042419,0.0,0.035888783633708954,0.7797756195068359,0.0007746739429421723,-0.07089570164680481
922.0,866.0,2.726,-0.4253,8.8774,-0.0461,0.0005,-0.1182,-1.7052933178343714,-0.049015820026397705,2.3473591804504395,-1.7764452695846558,0.014106246642768383,2.074740409851074,4.6560045915791015,2.0797130470763382e-17,0.2782718241214752,-1.5831897894488733,0.0,0.024035342037677765,0.8532869815826416,0.0,0.05204518139362335,0.7797954082489014,0.0006496330606751144,-0.12425722926855087
922.0,866.0,2.726,-0.4253,8.8774,-0.0461,0.0005,-0.1182,-1.7055679760374964,-0.05214222893118858,2.3366289138793945,-1.7763447761535645,0.01590852625668049,2.098611831665039,4.6560045915791015,5.788957681776658e-21,0.2571824789047241,-1.5832503477679651,0.0,0.026611454784870148,0.8532668948173523,0.0,0.039470963180065155,0.7797957062721252,0.0006343998829834163,-0.10693296790122986
959.0,852.0,2.6094,-0.21,9.0969,-0.0284,-0.0057,-0.1126,-1.7059241733946742,-0.05416325479745865,2.3010172843933105,-1.776229739189148,0.016887705773115158,2.0623340606689453,4.655975981349609,1.6113775748871466e-24,0.281679630279541,-1.5832622686969202,0.0,0.02710227109491825,0.8532910346984863,0.0,0.03071654960513115,0.7798359394073486,0.0005570825887843966,-0.08369752764701843
959.0,852.0,2.6094,-0.21,9.0969,-0.0284,-0.0057,-0.1126,-1.7061916790404261,-0.05307285487651825,2.350271701812744,-1.7761540412902832,0.017036905512213707,2.1425747871398926,4.656012220973633,4.485329062362544e-28,0.26601481437683105,-1.583249870930807,0.0,0.018835781142115593,0.8532829284667969,0.0,0.05200696736574173,0.7798039317131042,0.00045001786202192307,-0.11009444296360016
959.0,852.0,2.6094,-0.21,9.0969,-0.0284,-0.0057,-0.1126,-1.7065187893309535,-0.05332307517528534,2.3470706939697266,-1.7760100364685059,0.018317392095923424,2.099069595336914,4.65596787511792,1.2485078314349123e-31,0.2786942422389984,-1.5832536856280726,0.0,0.03033268079161644,0.8532828688621521,0.0,0.03747560456395149,0.7797874808311462,0.00034613566822372377,-0.13261377811431885
959.0,852.0,2.6094,-0.21,9.0969,-0.0284,-0.0057,-0.1126,-1.7068349323668421,-0.05627649277448654,2.3448917865753174,-1.7758980989456177,0.019571775570511818,2.1224422454833984,4.655975981349609,3.4752678311891783e-35,0.27573463320732117,-1.5832222143756312,0.0,0.03864799067378044,0.8532988429069519,0.0,0.03593502566218376,0.7797998189926147,0.0003307450679130852,-0.10883675515651703
959.0,852.0,2.6094,-0.21,9.0969,-0.0284,-0.0057,-0.1126,-1.7071668110289515,-0.05661284551024437,2.347999095916748,-1.7757501602172852,0.020064424723386765,2.176480531692505,4.656019850368164,1.804199200705625e-05,0.2768554389476776,-1.5831978956805628,0.0,0.03402717784047127,0.853246808052063,0.0,0.056809861212968826,0.7798036336898804,0.00028418400324881077,-0.14740072190761566
959.0,852.0,2.6094,-0.21,9.0969,-0.0284,-0.0057,-0.1126,-1.7075101337828578,-0.05668477714061737,2.355116605758667,-1.775671124458313,0.020630400627851486,2.1362833976745605,4.656008406276367,0.00014621770242229104,0.27471721172332764,-1.5832060019122522,0.0,0.0361209437251091,0.8533148765563965,0.0,0.042252372950315475,0.7798036336898804,0.0002454310597386211,-0.1573445051908493
959.0,852.0,2.6094,-0.21,9.0969,-0.0284,-0.0057,-0.1126,-1.7078858814635218,-0.05535100772976875,2.3219919204711914,-1.7755519151687622,0.02169252559542656,2.152499198913574,4.656040354365967,0.00014634204853791744,0.2886015474796295,-1.583182160054342,0.0,0.03352421522140503,0.8532509207725525,0.0,0.03478679805994034,0.779751181602478,0.00021598019520752132,-0.1369841992855072
959.0,852.0,2.6094,-0.21,9.0969,-0.0284,-0.0057,-0.1126,-1.7081777058043421,-0.05307011678814888,2.3817481994628906,-1.7753676176071167,0.022318115457892418,2.161680221557617,4.655992193812988,0.00014686268696095794,0.29671546816825867,-1.583182160054342,0.0,0.03179561719298363,0.8532631993293762,0.0,0.03464404493570328,0.7797957062721252,0.00022497451573144644,-0.08551408350467682
959.0,852.0,2.6094,-0.21,9.0969,-0.0284,-0.0057,-0.1126,-1.7085052929320277,-0.05268688499927521,2.407456874847412,-1.7752360105514526,0.021645640954375267,2.161237955093384,4.656032248134277,0.0001357865403406322,0.2833252251148224,-1.5832584539996546,0.0,0.035347938537597656,0.8533029556274414,0.0,0.040429241955280304,0.7798318266868591,0.000203209143364802,-0.12239103764295578
959.0,852.0,2.6094,-0.21,9.0969,-0.0284,-0.0057,-0.1126,-1.708832403222555,-0.05552715063095093,2.3679137229919434,-1.7750879526138306,0.020781002938747406,2.1623411178588867,4.655955477351807,0.00012626120587810874,0.2888448238372803,-1.5831897894488733,0.0,0.035785600543022156,0.8533515334129333,0.0,0.04139517992734909,0.7798359394073486,0.00021174860012251884,-0.16383159160614014
959.0,852.0,2.6094,-0.21,9.0969,-0.0284,-0.0057,-0.1126,-1.7091685734190882,-0.06105794012546539,2.3388099670410156,-1.7750213146209717,0.02010098285973072,2.1904664039611816,4.656044169063232,0.0001369817618979141,0.28040868043899536,-1.583182160054342,0.0,0.03887923061847687,0.853270947933197,0.0,0.03524455428123474,0.7798359394073486,0.00015243380039464682,-0.12550167739391327
959.0,852.0,2.6094,-0.21,9.0969,-0.0284,-0.0057,-0.1126,-1.7095080814757289,-0.06308767199516296,2.394045829772949,-1.7748806476593018,0.020268980413675308,2.166978359222412,4.655996008510254,0.00012918113498017192,0.29820016026496887,-1.5831859747516077,0.0,0.04140699654817581,0.8532668948173523,0.0,0.045338306576013565,0.7798117995262146,0.00016602348478045315,-0.18640610575675964
959.0,852.0,2.6094,-0.21,9.0969,-0.0284,-0.0057,-0.1126,-1.7098800144591273,-0.06527911871671677,2.3620450496673584,-1.7747416496276855,0.022887391969561577,2.135004997253418,4.656019850368164,0.00013906987442169338,0.29462432861328125,-1.5831859747516077,0.0,0.04121736064553261,0.8532989025115967,0.0,0.038359448313713074,0.7798157334327698,0.0001520031364634633,-0.15576086938381195
959.0,852.0,2.6094,-0.21,9.0969,-0.0284,-0.0057,-0.1126,-1.7102753124632777,-0.06446368992328644,2.403918981552124,-1.7745697498321533,0.02316366322338581,2.1650495529174805,4.656036062831543,0.00018423140863887966,0.2909665107727051,-1.583226505910055,0.0,0.05044474080204964,0.8532627820968628,0.0,0.04202507808804512,0.779751181602478,0.00014016672503203154,-0.19022557139396667
959.0,852.0,2.6094,-0.21,9.0969,-0.0284,-0.0057,-0.1126,-1.710658689538473,-0.0656362771987915,2.3942770957946777,-1.7744619846343994,0.026390744373202324,2.2304322719573975,4.656044169063232,0.000181112700374797,0.2994944453239441,-1.583210293446676,0.0,0.02681780233979225,0.8532430529594421,0.0,0.054829783737659454,0.7797833681106567,0.00013004020729567856,-0.13478794693946838
940.0,874.0,2.9318,-0.2734,9.0628,-0.0403,-0.0214,-0.1135,-1.7110825977721156,-0.06642314791679382,2.426732301712036,-1.7742786407470703,0.03000638075172901,2.192796230316162,4.656016035670898,0.00016455772856716067,0.3082914650440216,-1.5831859747516077,0.0,0.039545461535453796,0.8533070683479309,0.0,0.051211826503276825,0.7797874808311462,0.00014148054469842464,-0.15327277779579163
940.0,874.0,2.9318,-0.2734,9.0628,-0.0403,-0.0214,-0.1135,-1.7114936314024867,-0.06922651827335358,2.4008331298828125,-1.7741148471832275,0.031621407717466354,2.1975786685943604,4.656007929439209,0.0001507728302385658,0.303425133228302,-1.5832021872149866,0.0,0.02893032319843769,0.8532668948173523,0.0,0.04842256382107735,0.7798277139663696,0.00015148683451116085,-0.14920878410339355
940.0,874.0,2.9318,-0.2734,9.0628,-0.0403,-0.0214,-0.1135,-1.7120100460448207,-0.073404461145401,2.3637118339538574,-1.7739075422286987,0.033944807946681976,2.201561689376831,4.656032248134277,0.00013911930727772415,0.29974520206451416,-1.5832622686969202,0.0,0.03491131216287613,0.8532951474189758,0.0,0.04390694200992584,0.7797954082489014,0.00023612502263858914,-0.13820257782936096
940.0,874.0,2.9318,-0.2734,9.0628,-0.0403,-0.0214,-0.1135,-1.7124306164183558,-0.07644592225551605,2.3908793926239014,-1.773647427558899,0.03714340552687645,2.207385778427124,4.656044169063232,0.0001291378284804523,0.28945663571357727,-1.5832622686969202,0.0,0.023440906777977943,0.8532828688621521,0.0,0.05570864677429199,0.7797954082489014,0.0002663872146513313,-0.11332033574581146
940.0,874.0,2.9318,-0.2734,9.0628,-0.0403,-0.0214,-0.1135,-1.7128588161864222,-0.07677008956670761,2.4120469093322754,-1.7734484672546387,0.041757870465517044,2.271080493927002,4.6559998232075195,0.00012049290671711788,0.29665490984916687,-1.5832784811602991,0.0,0.024128485471010208,0.8532829284667969,0.0,0.040745943784713745,0.7798277139663696,0.0005004261620342731,-0.10823916643857956
940.0,874.0,2.9318,-0.2734,9.0628,-0.0403,-0.0214,-0.1135,-1.7133270702757777,-0.07373704016208649,2.3622658252716064,-1.7731728553771973,0.04628901928663254,2.2513229846954346,4.656016035670898,0.00011293279385427013,0.288259357213974,-1.5831697622882288,0.0,0.03550563380122185,0.8532910943031311,0.0,0.04844789206981659,0.7798197269439697,0.00045810930896550417,-0.16179464757442474
940.0,874.0,2.9318,-0.2734,9.0628,-0.0403,-0.0214,-0.1135,-1.7137309513487757,-0.07121670246124268,2.4320592880249023,-1.7728899717330933,0.04939364269375801,2.2145395278930664,4.655955477351807,0.00010626567382132635,0.2982824146747589,-1.583226505910055,0.0,0.028682496398687363,0.8533111810684204,0.0,0.04629098251461983,0.7798598408699036,0.00042609675438143313,-0.15760254859924316
940.0,874.0,2.9318,-0.2734,9.0628,-0.0403,-0.0214,-0.1135,-1.7142406902708949,-0.07483945041894913,2.4000325202941895,-1.7725460529327393,0.0515269935131073,2.23289155960083,4.656072302455566,0.0001003417419269681,0.3019472658634186,-1.5832064787494105,0.0,0.027598898857831955,0.8532307744026184,0.0,0.048217035830020905,0.7798599004745483,0.0005207738722674549,-0.12336691468954086
940.0,874.0,2.9318,-0.2734,9.0628,-0.0403,-0.0214,-0.1135,-1.7146889171996058,-0.08030268549919128,2.451103687286377,-1.772223711013794,0.05534527450799942,2.24375581741333,4.656064196223877,9.504346235189587e-05,0.2989479601383209,-1.5831735769854944,0.0,0.026654019951820374,0.8532750606536865,0.0,0.04268756881356239,0.7798677086830139,0.000888614566065371,-0.12397512793540955
940.0,874.0,2.9318,-0.2734,9.0628,-0.0403,-0.0214,-0.1135,-1.7152344189085902,-0.084333136677742,2.375718355178833,-1.771911859512329,0.06048933416604996,2.2981255054473877,4.6560279565998535,9.02765677892603e-05,0.28237807750701904,-1.5832183996783655,0.0,0.04092159494757652,0.8533070683479309,0.0,0.03397999703884125,0.7798318266868591,0.0010054369922727346,-0.07322633266448975
940.0,874.0,2.9318,-0.2734,9.0628,-0.0403,-0.0214,-0.1135,-1.715665956536764,-0.09043493121862411,2.417313575744629,-1.771436333656311,0.06816651672124863,2.2914552688598633,4.656016035670898,0.00010028840915765613,0.2848740518093109,-1.583182160054342,0.0,0.031587209552526474,0.8532792329788208,0.0,0.04015560448169708,0.7798314690589905,0.0008664262713864446,-0.13880017399787903
940.0,874.0,2.9318,-0.2734,9.0628,-0.0403,-0.0214,-0.1135,-1.7161785564818324,-0.09552966058254242,2.379124402999878,-1.771038293838501,0.07721108943223953,2.273000478744507,4.656044169063232,0.00010893552826019004,0.2937820851802826,-1.583182160054342,0.0,0.0284587312489748,0.8532828688621521,0.0,0.03989157825708389,0.7798311710357666,0.0006822545547038317,-0.14832261204719543
940.0,874.0,2.9318,-0.2734,9.0628,-0.0403,-0.0214,-0.1135,-1.7168036899962367,-0.09840459376573563,2.421785831451416,-1.770579218864441,0.0867450088262558,2.3097684383392334,4.656055613155029,0.0001159385428763926,0.3058546781539917,-1.5832460562335413,0.0,0.025719881057739258,0.8533230423927307,0.0,0.04061532020568848,0.7798840999603271,0.0005883666453883052,-0.11023510247468948
940.0,874.0,2.9318,-0.2734,9.0628,-0.0403,-0.0214,-0.1135,-1.7174278698363246,-0.09811973571777344,2.439547538757324,-1.7699328660964966,0.09292838722467422,2.3504176139831543,4.656092806453369,0.00013116242189425975,0.3167199492454529,-1.5832060019122522,0.0,0.02684631384909153,0.8532869815826416,0.0,0.02953226864337921,0.7798959016799927,0.0003816325042862445,-0.10842876881361008
940.0,874.0,2.9318,-0.2734,9.0628,-0.0403,-0.0214,-0.1135,-1.7180973492064417,-0.09744927287101746,2.4165847301483154,-1.769410490989685,0.09771167486906052,2.294376850128174,4.656016035670898,0.00012456979311536998,0.3114563226699829,-1.5832017103778284,0.0,0.03260710835456848,0.8533557057380676,0.0,0.041488341987133026,0.7798880934715271,0.00036399709642864764,-0.11988283693790436
936.0,862.0,2.6961,-0.2034,9.1663,-0.0341,0.0075,-0.1069,-1.7187425098814906,-0.09467566758394241,2.4535467624664307,-1.7688114643096924,0.10022107511758804,2.282400608062744,4.656011744136475,0.00016465771477669477,0.30741530656814575,-1.5831978956805628,0.0,0.02139725163578987,0.8532590270042419,0.0,0.05352671444416046,0.779903769493103,0.0006115685682743788,-0.14434704184532166
936.0,862.0,2.6961,-0.2034,9.1663,-0.0341,0.0075,-0.1069,-1.71934237102651,-0.0994657650589943,2.45489501953125,-1.7681690454483032,0.10658016800880432,2.3645153045654297,4.656040831203125,6.952429976081476e-05,0.3104255795478821,-1.5832222143756312,0.0,0.03952514007687569,0.8532549738883972,0.0,0.04431849718093872,0.7799038290977478,0.0006291157915256917,-0.10357113182544708
936.0,862.0,2.6961,-0.2034,9.1663,-0.0341,0.0075,-0.1069,-1.7199512920775355,-0.10739896446466446,2.4449775218963623,-1.7675659656524658,0.10700999200344086,2.295572519302368,4.655984087581299,1.340351900580572e-07,0.304017573595047,-1.5832021872149866,0.0,0.023315487429499626,0.8532791137695312,0.0,0.044690895825624466,0.7798839807510376,0.0005540965939871967,-0.12089680135250092
936.0,862.0,2.6961,-0.2034,9.1663,-0.0341,0.0075,-0.1069,-1.720555921594137,-0.1171005442738533,2.402322769165039,-1.7668884992599487,0.11266079545021057,2.3475184440612793,4.656028433437012,3.7309186989853416e-11,0.3043941259384155,-1.583182160054342,0.0,0.02956000342965126,0.8533194661140442,0.0,0.03088095225393772,0.7798272967338562,0.00045015555224381387,-0.09905166923999786
936.0,862.0,2.6961,-0.2034,9.1663,-0.0341,0.0075,-0.1069,-1.7212935886778773,-0.12114787101745605,2.414414644241333,-1.7661786079406738,0.11964437365531921,2.300128936767578,4.656012220973633,1.0385148246732073e-14,0.2929530739784241,-1.5832021872149866,0.0,0.038679998368024826,0.8533312678337097,0.0,0.03084360808134079,0.7798314690589905,0.0003316954243928194,-0.06206095591187477
936.0,862.0,2.6961,-0.2034,9.1663,-0.0341,0.0075,-0.1069,-1.7219540081419886,-0.12273887544870377,2.4235410690307617,-1.765456199645996,0.13062702119350433,2.3275442123413086,4.656064196223877,2.8907443643763093e-18,0.3000372052192688,-1.5831902662860315,0.0,0.034392960369586945,0.8532788157463074,0.0,0.037491410970687866,0.7798434495925903,0.00028642627876251936,-0.14145441353321075
936.0,862.0,2.6961,-0.2034,9.1663,-0.0341,0.0075,-0.1069,-1.722722669641012,-0.12382151931524277,2.40313982963562,-1.7645742893218994,0.13747520744800568,2.3444676399230957,4.6560279565998535,8.046493314611734e-22,0.2925843298435211,-1.5832183996783655,0.0,0.03401627391576767,0.8532989025115967,0.0,0.045558810234069824,0.7798758745193481,0.0002520467678550631,-0.1424044370651245
936.0,862.0,2.6961,-0.2034,9.1663,-0.0341,0.0075,-0.1069,-1.7235719166197718,-0.12024573236703873,2.4006786346435547,-1.7637598514556885,0.13985948264598846,2.306098461151123,4.6560279565998535,2.239770859958429e-25,0.30182456970214844,-1.5832460562335413,0.0,0.032631032168865204,0.8533231019973755,0.0,0.038535285741090775,0.7798635959625244,0.0002571771910879761,-0.10794171690940857
936.0,862.0,2.6961,-0.2034,9.1663,-0.0341,0.0075,-0.1069,-1.7243129215636195,-0.11482737213373184,2.409531354904175,-1.7629351615905762,0.146652489900589,2.3645458221435547,4.656064196223877,6.234484397168038e-29,0.3051254153251648,-1.5832017103778284,0.0,0.04213980585336685,0.8532554507255554,0.0,0.028860341757535934,0.7798795104026794,0.00025665873545221984,-0.1555171012878418
936.0,862.0,2.6961,-0.2034,9.1663,-0.0341,0.0075,-0.1069,-1.7250338993468226,-0.11479636281728745,2.4693751335144043,-1.762088418006897,0.1512671411037445,2.3595566749572754,4.656040354365967,1.7353917140737496e-32,0.3029678165912628,-1.583182160054342,0.0,0.029513053596019745,0.8532750606536865,0.0,0.03262028098106384,0.7798634767532349,0.0012888368219137192,-0.11993911862373352
936.0,862.0,2.6961,-0.2034,9.1663,-0.0341,0.0075,-0.1069,-1.7258068523802699,-0.12341083586215973,2.4512131214141846,-1.7611747980117798,0.14975199103355408,2.3547253608703613,4.655992193812988,4.8305262914307394e-36,0.3198079466819763,-1.5832021872149866,0.0,0.016510680317878723,0.8532750606536865,0.0,0.033846333622932434,0.7798956036567688,0.002003986621275544,-0.09077458828687668
936.0,862.0,2.6961,-0.2034,9.1663,-0.0341,0.0075,-0.1069,-1.7264391384520472,-0.13633598387241364,2.4525279998779297,-1.7602615356445312,0.15087108314037323,2.3371236324310303,4.655992193812988,1.3445949219659133e-39,0.30076032876968384,-1.5831859747516077,0.0,0.027245711535215378,0.8532631397247314,0.0,0.03329945355653763,0.779923677444458,0.0019351571099832654,-0.0810755044221878
936.0,862.0,2.6961,-0.2034,9.1663,-0.0341,0.0075,-0.1069,-1.7272521458067835,-0.14510804414749146,2.3215489387512207,-1.7593395709991455,0.15220965445041656,2.3399126529693604,4.656024141902588,3.7414668997472616e-43,0.27369225025177,-1.583226505910055,0.0,0.03482222184538841,0.8532989025115967,0.0,0.03778903931379318,0.7799075245857239,0.0013940512435510755,-0.11320152878761292
936.0,862.0,2.6961,-0.2034,9.1663,-0.0341,0.0075,-0.1069,-1.7281142673888148,-0.1436278522014618,2.4125492572784424,-1.7584021091461182,0.15425251424312592,2.338563919067383,4.6560680109211425,0.0,0.30230939388275146,-1.5832622686969202,0.0,0.046023279428482056,0.8533030152320862,0.0,0.035512298345565796,0.7798190116882324,0.0007265894673764706,-0.10850824415683746
936.0,862.0,2.6961,-0.2034,9.1663,-0.0341,0.0075,-0.1069,-1.7289024792113246,-0.1301647126674652,2.4107980728149414,-1.7574607133865356,0.16711482405662537,2.348398208618164,4.656055613155029,0.00026332150446251035,0.2912403643131256,-1.5832622686969202,0.0,0.027874290943145752,0.8532750606536865,0.0,0.03433898836374283,0.7799116373062134,0.0004893293371424079,-0.0926220715045929
908.0,876.0,3.3212,0.3165,10.4483,-0.0328,-0.011,-0.1151,-1.7296797237791957,-0.11637239158153534,2.4425735473632812,-1.7565032243728638,0.1789926439523697,2.4069886207580566,4.6559998232075195,0.0002673827111721039,0.28959301114082336,-1.5831897894488733,0.0,0.03069416992366314,0.8533030152320862,0.0,0.02977667562663555,0.7799116373062134,0.0004337944264989346,-0.0786835104227066
