ramyac6/ROB537/final_project/csv/all/good_98.csv
tof_0,tof_1,accelx,accely,accelz,gyrox,gyroy,gyroz,shoulder_lift_joint_position,shoulder_lift_joint_velocity,shoulder_lift_joint_effort,elbow_joint_position,elbow_joint_velocity,elbow_joint_effort,wrist_1_joint_position,wrist_1_joint_velocity,wrist_1_joint_effort,wrist_2_joint_position,wrist_2_joint_velocity,wrist_2_joint_effort,wrist_3_joint_position,wrist_3_joint_velocity,wrist_3_joint_effort,shoulder_pan_joint_position,shoulder_pan_joint_velocity,shoulder_pan_joint_effort
214.0,226.0,-3.9374,-0.4774,8.9611,-0.0023,0.0224,-0.1223,-2.289290567437643,0.0,4.774089813232422,-1.3038763999938965,-0.0,1.952965259552002,5.360272812634268,0.0,0.2539026439189911,-1.31032640138735,0.0,-0.03007674217224121,1.5828850269317627,0.0,0.0036181025207042694,0.7413472533226013,0.0,0.02827528864145279
214.0,226.0,-3.9374,-0.4774,8.9611,-0.0023,0.0224,-0.1223,-2.2892948589720667,0.0,4.803521633148193,-1.3038520812988281,-0.0,1.960906982421875,5.360280740052023,0.0,0.25072675943374634,-1.3103187719928187,0.0,-0.03830251097679138,1.5828932523727417,0.0,0.0063897836953401566,0.741331160068512,0.0,0.02727322466671467
214.0,226.0,-3.9374,-0.4774,8.9611,-0.0023,0.0224,-0.1223,-2.2893268070616664,0.0,4.80727481842041,-1.3038640022277832,-0.0,1.9425084590911865,5.360268819123068,0.0,0.25697705149650574,-1.3103588263141077,0.0,-0.03737834841012955,1.5828649997711182,0.0,0.015862079337239265,0.7413998246192932,0.0,-0.013789260759949684
214.0,226.0,-3.9374,-0.4774,8.9611,-0.0023,0.0224,-0.1223,-2.2892586193480433,0.0,4.813319206237793,-1.3038681745529175,-0.0,1.972353458404541,5.360280740052023,0.0,0.2521185278892517,-1.310286823903219,0.0,-0.030133668333292007,1.5829129219055176,0.0,-0.0012715081684291363,0.7413674592971802,0.0,-0.008189607411623001
214.0,226.0,-3.9374,-0.4774,8.9611,-0.0023,0.0224,-0.1223,-2.2892948589720667,0.0,4.814492702484131,-1.3038561344146729,-0.0,1.9868710041046143,5.360276627331533,0.0,0.2572944462299347,-1.3103225866900843,0.0,-0.029020626097917557,1.5829451084136963,0.0,-0.00663986150175333,0.7413755655288696,0.0,0.008287948556244373
198.0,231.0,-3.9649,-0.4702,9.0281,-0.0264,0.0307,-0.1248,-2.289278646508688,0.0,4.830680847167969,-1.3038804531097412,-0.0,2.0079169273376465,5.360284733563223,0.0,0.26239436864852905,-1.31032640138735,0.0,-0.02741159498691559,1.5828443765640259,0.0,0.005985892843455076,0.7413232326507568,0.0,-0.024868778884410858
198.0,231.0,-3.9649,-0.4702,9.0281,-0.0264,0.0307,-0.1248,-2.2892824612059535,0.0,4.794235706329346,-1.3038804531097412,-0.0,1.9877549409866333,5.360284733563223,0.0,0.2559477388858795,-1.3103144804583948,0.0,-0.042143747210502625,1.5828285217285156,0.0,0.0005598687566816807,0.7413314580917358,0.0,-0.024364270269870758
198.0,231.0,-3.9649,-0.4702,9.0281,-0.0264,0.0307,-0.1248,-2.2892867527403773,0.0,4.76546049118042,-1.3038599491119385,-0.0,1.9474518299102783,5.360308813839712,0.0,0.24500659108161926,-1.3103068510638636,0.0,-0.03253558278083801,1.582872748374939,0.0,0.0019308289047330618,0.7413715720176697,0.0,-0.038541413843631744
198.0,231.0,-3.9649,-0.4702,9.0281,-0.0264,0.0307,-0.1248,-2.2892662487425746,0.0,4.874147415161133,-1.3038438558578491,-0.0,2.0045998096466064,5.360217022686758,0.0,0.25670668482780457,-1.3103464285479944,0.0,-0.016828617081046104,1.5828850269317627,0.0,-0.001990661257877946,0.7413633465766907,0.0,0.014074794948101044
198.0,231.0,-3.9649,-0.4702,9.0281,-0.0264,0.0307,-0.1248,-2.2892948589720667,0.0,4.819179058074951,-1.3038886785507202,-0.0,1.9950191974639893,5.360260712891378,0.0,0.25640052556991577,-1.3102906386004847,0.0,-0.027255911380052567,1.5828404426574707,0.0,-0.007447181269526482,0.7412990927696228,0.0,0.017902221530675888
198.0,231.0,-3.9649,-0.4702,9.0281,-0.0264,0.0307,-0.1248,-2.289234300652975,0.0,4.797778129577637,-1.3039569854736328,-0.0,1.9523929357528687,5.360264825611868,0.0,0.25733447074890137,-1.3103068510638636,0.0,-0.03559420257806778,1.5828932523727417,0.0,0.0014971548225730658,0.7413389682769775,0.0,-0.004729923792183399
198.0,231.0,-3.9649,-0.4702,9.0281,-0.0264,0.0307,-0.1248,-2.289250513116354,0.0,4.829424858093262,-1.3038846254348755,-0.0,1.9610000848770142,5.360244798451223,0.0,0.24368007481098175,-1.3103144804583948,0.0,-0.024078138172626495,1.5829092264175415,0.0,0.004999810829758644,0.7413550615310669,0.0,0.0159794669598341
198.0,231.0,-3.9649,-0.4702,9.0281,-0.0264,0.0307,-0.1248,-2.2892867527403773,0.0,4.824354648590088,-1.3038763999938965,-0.0,1.9753241539001465,5.360272812634268,0.0,0.2623285949230194,-1.3103225866900843,0.0,-0.03648319095373154,1.5828245878219604,0.0,0.006087384652346373,0.741306722164154,0.0,0.04137872904539108
198.0,231.0,-3.9649,-0.4702,9.0281,-0.0264,0.0307,-0.1248,-2.289274831811422,0.0,4.799859523773193,-1.303831934928894,-0.0,1.9575583934783936,5.360297012120046,0.0,0.2513539791107178,-1.3103626410113733,0.0,-0.04318423569202423,1.5828607082366943,0.0,0.02597782388329506,0.7413389086723328,0.0,0.005146177485585213
198.0,231.0,-3.9649,-0.4702,9.0281,-0.0264,0.0307,-0.1248,-2.289274831811422,0.0,4.800082683563232,-1.3038361072540283,-0.0,1.9373791217803955,5.360221016197958,0.0,0.24376234412193298,-1.3103187719928187,0.0,-0.03341413289308548,1.5828285217285156,0.0,0.0019580551888793707,0.7413553595542908,0.0,-0.03211585432291031
199.0,224.0,-3.9446,-0.4522,9.0197,-0.0391,0.0224,-0.122,-2.289290567437643,0.0,4.799056053161621,-1.3039487600326538,-0.0,1.9952621459960938,5.3602768061454675,0.0,0.247310072183609,-1.3102949301349085,0.0,-0.033772923052310944,1.5828651189804077,0.0,-0.010410032235085964,0.741351306438446,0.0,0.011466548778116703
199.0,224.0,-3.9446,-0.4522,9.0197,-0.0391,0.0224,-0.122,-2.289290567437643,0.0,4.809309005737305,-1.3038763999938965,-0.0,1.9057409763336182,5.360197174340048,0.0,0.27070602774620056,-1.3103588263141077,0.0,-0.05067579448223114,1.5828850269317627,0.0,-0.0038730548694729805,0.7413878440856934,0.0,0.009053608402609825
199.0,224.0,-3.9446,-0.4522,9.0197,-0.0391,0.0224,-0.122,-2.2892867527403773,0.0,4.847301959991455,-1.3037950992584229,-0.0,1.951092004776001,5.360308992653646,0.0,0.24819310009479523,-1.3103025595294397,0.0,-0.01844535581767559,1.5828932523727417,0.0,0.0064714085310697556,0.7413592338562012,0.0,-0.00907739344984293
199.0,224.0,-3.9446,-0.4522,9.0197,-0.0391,0.0224,-0.122,-2.2892705402769984,0.0,4.771568775177002,-1.3038722276687622,-0.0,1.9834647178649902,5.360276627331533,0.0,0.25315821170806885,-1.3103225866900843,0.0,-0.035354629158973694,1.5828447341918945,0.0,0.005095515865832567,0.7413592338562012,0.0,-0.021225305274128914
199.0,224.0,-3.9446,-0.4522,9.0197,-0.0391,0.0224,-0.122,-2.2892543278136195,0.0,4.778722286224365,-1.303891897201538,-0.0,1.9836031198501587,5.360276627331533,0.0,0.2563585937023163,-1.3103144804583948,0.0,-0.03837900608778,1.5828932523727417,0.0,0.003762696171179414,0.7413997650146484,0.0,0.038473598659038544
199.0,224.0,-3.9446,-0.4522,9.0197,-0.0391,0.0224,-0.122,-2.2892586193480433,0.0,4.82473087310791,-1.3038763999938965,-0.0,1.9856197834014893,5.360288727074423,0.0,0.24978384375572205,-1.3103225866900843,0.0,-0.021406669169664383,1.5828890800476074,0.0,0.00787721574306488,0.7413713932037354,0.0,-0.05425691977143288
199.0,224.0,-3.9446,-0.4522,9.0197,-0.0391,0.0224,-0.122,-2.2892705402769984,0.0,4.830743312835693,-1.3038763999938965,-0.0,1.977287769317627,5.3602608917053125,0.0,0.2509922981262207,-1.3102987448321741,0.0,-0.031495943665504456,1.582840919494629,0.0,0.004209396429359913,0.7413755655288696,0.0,-0.06530638784170151
199.0,224.0,-3.9446,-0.4522,9.0197,-0.0391,0.0224,-0.122,-2.289274831811422,0.0,4.835773468017578,-1.3038479089736938,-0.0,1.9543895721435547,5.360312926560201,0.0,0.24756571650505066,-1.3103225866900843,0.0,-0.04211907833814621,1.5829049348831177,0.0,-0.007495705038309097,0.7413389086723328,0.0,-0.028166718780994415
199.0,224.0,-3.9446,-0.4522,9.0197,-0.0391,0.0224,-0.122,-2.289250513116354,0.0,4.815548896789551,-1.3038960695266724,-0.0,1.9957560300827026,5.360264825611868,0.0,0.251295268535614,-1.3103302160846155,0.0,-0.04181654378771782,1.5827810764312744,0.0,0.004270047880709171,0.741343080997467,0.0,0.002964933402836323
199.0,224.0,-3.9446,-0.4522,9.0197,-0.0391,0.0224,-0.122,-2.289262434045309,0.0,4.826962471008301,-1.3038886785507202,-0.0,2.0015881061553955,5.360292899399557,0.0,0.2538468837738037,-1.310355011616842,0.0,-0.04278087243437767,1.582861065864563,0.0,0.015475321561098099,0.7412828207015991,0.0,-0.0028823809698224068
201.0,215.0,-3.9338,-0.4259,8.9456,-0.0388,0.0275,-0.1156,-2.289262434045309,0.0,4.778036117553711,-1.303883671760559,-0.0,2.003918170928955,5.360252904682913,0.0,0.26784902811050415,-1.3103306929217737,0.0,-0.042447205632925034,1.58285653591156,0.0,0.0038599115796387196,0.7413352727890015,0.0,-0.02590496465563774
201.0,215.0,-3.9338,-0.4259,8.9456,-0.0388,0.0275,-0.1156,-2.289250513116354,0.0,4.752801895141602,-1.3038959503173828,-0.0,2.038050651550293,5.360320913582601,0.0,0.2508854568004608,-1.3103225866900843,0.0,-0.025904584676027298,1.582869052886963,0.0,0.004020593594759703,0.741343080997467,0.0,0.0048910039477050304
201.0,215.0,-3.9338,-0.4259,8.9456,-0.0388,0.0275,-0.1156,-2.289274831811422,0.0,4.767798900604248,-1.3038804531097412,-0.0,1.9730459451675415,5.360252904682913,0.0,0.24531733989715576,-1.3103063742267054,0.0,-0.02907830849289894,1.5828405618667603,0.0,-0.007949522696435452,0.741334855556488,0.0,0.01304173469543457
201.0,215.0,-3.9338,-0.4259,8.9456,-0.0388,0.0275,-0.1156,-2.289274831811422,0.0,4.823819637298584,-1.3038970232009888,-0.0,1.9345166683197021,5.360276627331533,0.0,0.25176531076431274,-1.3103025595294397,0.0,-0.019701173529028893,1.582853078842163,0.0,0.006044098641723394,0.7413837313652039,0.0,0.024047639220952988
201.0,215.0,-3.9338,-0.4259,8.9456,-0.0388,0.0275,-0.1156,-2.289290567437643,0.0,4.788711071014404,-1.303900122642517,-0.0,1.975967288017273,5.360252904682913,0.0,0.25526630878448486,-1.3103345076190394,0.0,-0.0490499883890152,1.5829168558120728,0.0,0.0042374953627586365,0.7413512468338013,0.0,-0.012559550814330578
201.0,215.0,-3.9338,-0.4259,8.9456,-0.0388,0.0275,-0.1156,-2.289274831811422,0.0,4.802406311035156,-1.3038438558578491,-0.0,1.9717910289764404,5.360308992653646,0.0,0.2375849485397339,-1.310355011616842,0.0,-0.01989787258207798,1.582864761352539,0.0,-0.007649592123925686,0.7413150072097778,0.0,0.013655362650752068
201.0,215.0,-3.9338,-0.4259,8.9456,-0.0388,0.0275,-0.1156,-2.2892543278136195,0.0,4.772103786468506,-1.3038970232009888,-0.0,1.942481279373169,5.360297012120046,0.0,0.25431251525878906,-1.3103345076190394,0.0,-0.036859720945358276,1.5829049348831177,0.0,0.007080179173499346,0.7413471341133118,0.0,0.01515183039009571
201.0,215.0,-3.9338,-0.4259,8.9456,-0.0388,0.0275,-0.1156,-2.2892705402769984,0.0,4.768852233886719,-1.3038846254348755,-0.0,1.984760046005249,5.360252904682913,0.0,0.24514609575271606,-1.310355011616842,0.0,-0.02906879037618637,1.5828485488891602,0.0,-0.001770436530932784,0.7413312196731567,0.0,-0.04598786309361458
201.0,215.0,-3.9338,-0.4259,8.9456,-0.0388,0.0275,-0.1156,-2.289238592187399,0.0,4.789453506469727,-1.303831934928894,-0.0,2.000826358795166,5.3602768061454675,0.0,0.24891260266304016,-1.3103182951556605,0.0,-0.038875680416822433,1.582869052886963,0.0,-0.007052034139633179,0.7413352727890015,0.0,-0.027676897123456
201.0,215.0,-3.9338,-0.4259,8.9456,-0.0388,0.0275,-0.1156,-2.28924622158193,0.0,4.80858850479126,-1.3038601875305176,-0.0,1.9748634099960327,5.360272633820333,0.0,0.24861910939216614,-1.3103144804583948,0.0,-0.037577368319034576,1.5828447341918945,0.0,0.007209263741970062,0.741343080997467,0.0,-0.02906801737844944
198.0,220.0,-3.9147,-0.4708,8.918,-0.0363,0.0264,-0.1206,-2.2892662487425746,0.0,4.844624996185303,-1.3038846254348755,-0.0,1.9069280624389648,5.360301005631246,0.0,0.2507437765598297,-1.3103063742267054,0.0,-0.02753409370779991,1.5828651189804077,0.0,0.0034177140332758427,0.7413191199302673,0.0,-0.04059907793998718
198.0,220.0,-3.9147,-0.4708,8.918,-0.0363,0.0264,-0.1206,-2.289278646508688,0.0,4.805856704711914,-1.3038479089736938,-0.0,1.9887052774429321,5.360276627331533,0.0,0.2528621256351471,-1.310298267995016,0.0,-0.014140089973807335,1.5828651189804077,0.0,0.001694713719189167,0.741331160068512,0.0,0.030837779864668846
198.0,220.0,-3.9147,-0.4708,8.918,-0.0363,0.0264,-0.1206,-2.289290567437643,0.0,4.817291259765625,-1.3038681745529175,-0.0,1.9551682472229004,5.360228884011068,0.0,0.2532199025154114,-1.3103106657611292,0.0,-0.02364461123943329,1.582877278327942,0.0,-0.004482922609895468,0.7413188815116882,0.0,-0.018266286700963974
198.0,220.0,-3.9147,-0.4708,8.918,-0.0363,0.0264,-0.1206,-2.289302488366598,0.0,4.830227851867676,-1.3038640022277832,-0.0,1.9740269184112549,5.360288727074423,0.0,0.24950143694877625,-1.3103144804583948,0.0,-0.03169404715299606,1.58285653591156,0.0,0.002295978134498,0.7413796782493591,0.0,0.01929587498307228
198.0,220.0,-3.9147,-0.4708,8.918,-0.0363,0.0264,-0.1206,-2.2892986736693324,0.0,4.801772117614746,-1.3038681745529175,-0.0,1.9518568515777588,5.360301005631246,0.0,0.2415972352027893,-1.3102825323687952,0.0,-0.035543911159038544,1.5828049182891846,0.0,-0.00471308920532465,0.7413837909698486,0.0,0.022049451246857643
198.0,220.0,-3.9147,-0.4708,8.918,-0.0363,0.0264,-0.1206,-2.289250513116354,0.0,4.787389278411865,-1.3038763999938965,-0.0,1.9612767696380615,5.360264825611868,0.0,0.26920852065086365,-1.3103182951556605,0.0,-0.025356577709317207,1.582877278327942,0.0,-0.001875920221209526,0.7413389086723328,0.0,0.017908139154314995
198.0,220.0,-3.9147,-0.4708,8.918,-0.0363,0.0264,-0.1206,-2.289274831811422,0.0,4.768909931182861,-1.3038681745529175,-0.0,2.012728691101074,5.360260712891378,0.0,0.25668758153915405,-1.3102944532977503,0.0,-0.03125998377799988,1.5828971862792969,0.0,0.004493948072195053,0.7413471937179565,0.0,-0.034870654344558716
198.0,220.0,-3.9147,-0.4708,8.918,-0.0363,0.0264,-0.1206,-2.2892781696715296,0.0,4.8362555503845215,-1.3038159608840942,-0.0,1.959297776222229,5.360260712891378,0.0,0.24182763695716858,-1.310326878224508,0.0,-0.027086550369858742,1.5828444957733154,0.0,0.014347165822982788,0.741339385509491,0.0,0.002545524388551712
198.0,220.0,-3.9147,-0.4708,8.918,-0.0363,0.0264,-0.1206,-2.2893063030638636,0.0,4.854883193969727,-1.303831934928894,-0.0,1.9705697298049927,5.360272812634268,0.0,0.25356394052505493,-1.3103187719928187,0.0,-0.035118717700242996,1.582844853401184,0.0,-0.0005546826869249344,0.741306722164154,0.0,-0.006718960590660572
198.0,220.0,-3.9147,-0.4708,8.918,-0.0363,0.0264,-0.1206,-2.2892867527403773,0.0,4.811769008636475,-1.303891897201538,-0.0,2.0079660415649414,5.360288727074423,0.0,0.24853959679603577,-1.3103349844561976,0.0,-0.029128246009349823,1.582877278327942,0.0,0.00683760829269886,0.7413389086723328,0.0,-0.028954850509762764
202.0,232.0,-3.9212,-0.4367,8.8977,-0.0431,0.0199,-0.1145,-2.2892586193480433,0.0,4.788908958435059,-1.3038804531097412,-0.0,2.0054824352264404,5.360284733563223,0.0,0.2584574222564697,-1.3103063742267054,0.0,-0.04449473321437836,1.582932949066162,0.0,0.004877449944615364,0.7413713932037354,0.0,-0.0031670471653342247
202.0,232.0,-3.9212,-0.4367,8.8977,-0.0431,0.0199,-0.1145,-2.2892662487425746,0.0,4.766613006591797,-1.303840160369873,-0.0,2.008533477783203,5.360297012120046,0.0,0.2585054039955139,-1.3103063742267054,0.0,-0.03522118926048279,1.5828850269317627,0.0,0.002849168609827757,0.7413389682769775,0.0,0.00986387301236391
202.0,232.0,-3.9212,-0.4367,8.8977,-0.0431,0.0199,-0.1145,-2.289274831811422,0.0,4.82130765914917,-1.3038520812988281,-0.0,1.9322922229766846,5.360288727074423,0.0,0.2583857774734497,-1.3103387991534632,0.0,-0.033512599766254425,1.5828651189804077,0.0,0.0053089689463377,0.741343080997467,0.0,0.0057760486379265785
202.0,232.0,-3.9212,-0.4367,8.8977,-0.0431,0.0199,-0.1145,-2.2892705402769984,0.0,4.836113452911377,-1.3038520812988281,-0.0,2.0075411796569824,5.360316920071401,0.0,0.24544383585453033,-1.3103345076190394,0.0,-0.035515591502189636,1.582909107208252,0.0,0.003949975594878197,0.7413232326507568,0.0,-0.008011339232325554
202.0,232.0,-3.9212,-0.4367,8.8977,-0.0431,0.0199,-0.1145,-2.2892824612059535,0.0,4.841366767883301,-1.3038763999938965,-0.0,1.9538795948028564,5.360280740052023,0.0,0.2624855935573578,-1.310355011616842,0.0,-0.05134197324514389,1.582844853401184,0.0,-0.008405381813645363,0.7413471937179565,0.0,-0.00852995179593563
202.0,232.0,-3.9212,-0.4367,8.8977,-0.0431,0.0199,-0.1145,-2.2892586193480433,0.0,4.762943744659424,-1.3039166927337646,-0.0,1.941986083984375,5.360224771290579,0.0,0.24982741475105286,-1.3103025595294397,0.0,-0.031917452812194824,1.582864761352539,0.0,-0.004530754871666431,0.741339385509491,0.0,-0.0035584494471549988
202.0,232.0,-3.9212,-0.4367,8.8977,-0.0431,0.0199,-0.1145,-2.2892824612059535,0.0,4.746765613555908,-1.3038356304168701,-0.0,1.9647636413574219,5.360244798451223,0.0,0.2538045048713684,-1.310326878224508,0.0,-0.03393673524260521,1.582940936088562,0.0,0.007841541431844234,0.741306722164154,0.0,0.009590737521648407
202.0,232.0,-3.9212,-0.4367,8.8977,-0.0431,0.0199,-0.1145,-2.2892867527403773,0.0,4.831459045410156,-1.3037911653518677,-0.0,2.001697063446045,5.3603288410003564,0.0,0.2520627975463867,-1.3103345076190394,0.0,-0.040235698223114014,1.5828850269317627,0.0,0.0072228251956403255,0.7412911057472229,0.0,-0.008753351867198944
202.0,232.0,-3.9212,-0.4367,8.8977,-0.0431,0.0199,-0.1145,-2.2892705402769984,0.0,4.833923816680908,-1.3038723468780518,-0.0,1.9801876544952393,5.360268819123068,0.0,0.2511533200740814,-1.3103225866900843,0.0,-0.022005388513207436,1.5828607082366943,0.0,-0.0008672979311086237,0.741339385509491,0.0,-0.03693334013223648
206.0,229.0,-3.9075,-0.4379,9.0544,-0.0348,0.0302,-0.1202,-2.289302488366598,0.0,4.819425582885742,-1.3038479089736938,-0.0,1.9535293579101562,5.360308992653646,0.0,0.25562527775764465,-1.3103302160846155,0.0,-0.0265356358140707,1.5828850269317627,0.0,0.00932578556239605,0.7413796186447144,0.0,0.03207392990589142
206.0,229.0,-3.9075,-0.4379,9.0544,-0.0348,0.0302,-0.1202,-2.289290567437643,0.0,4.761374473571777,-1.3038601875305176,-0.0,1.9891533851623535,5.360288905888357,0.0,0.2705506384372711,-1.3103144804583948,0.0,-0.022981736809015274,1.5828526020050049,0.0,0.008765500038862228,0.7413434386253357,0.0,-0.010332115925848484
206.0,229.0,-3.9075,-0.4379,9.0544,-0.0348,0.0302,-0.1202,-2.2892543278136195,0.0,4.842817783355713,-1.3038561344146729,-0.0,1.9455052614212036,5.3602250693138025,0.0,0.24750429391860962,-1.3103106657611292,0.0,-0.023240674287080765,1.5828207731246948,0.0,0.004173483233898878,0.7413512468338013,0.0,0.008584188297390938
206.0,229.0,-3.9075,-0.4379,9.0544,-0.0348,0.0302,-0.1202,-2.289262434045309,0.0,4.827448844909668,-1.303891897201538,-0.0,1.9381103515625,5.360264825611868,0.0,0.23934945464134216,-1.3103063742267054,0.0,-0.0238582044839859,1.582844853401184,0.0,0.008496579714119434,0.741343080997467,0.0,0.052139706909656525
206.0,229.0,-3.9075,-0.4379,9.0544,-0.0348,0.0302,-0.1202,-2.2892424068846644,0.0,4.816032886505127,-1.3038034439086914,-0.0,2.004988670349121,5.3602807996566675,0.0,0.25946784019470215,-1.3102906386004847,0.0,-0.03089805319905281,1.5828931331634521,0.0,0.0006720584351569414,0.7413551211357117,0.0,-0.03653520345687866
206.0,229.0,-3.9075,-0.4379,9.0544,-0.0348,0.0302,-0.1202,-2.2892948589720667,0.0,4.830195903778076,-1.3038479089736938,-0.0,1.9916434288024902,5.360276627331533,0.0,0.2574407458305359,-1.3103306929217737,0.0,-0.02841709926724434,1.5828571319580078,0.0,0.0003125583752989769,0.7413796186447144,0.0,-0.05310239642858505
206.0,229.0,-3.9075,-0.4379,9.0544,-0.0348,0.0302,-0.1202,-2.28924622158193,0.0,4.822037220001221,-1.303929090499878,-0.0,1.981621265411377,5.360248911171713,0.0,0.25343984365463257,-1.3103063742267054,0.0,-0.02457638457417488,1.5828406810760498,0.0,0.005026726983487606,0.7413512468338013,0.0,0.0028096335008740425
206.0,229.0,-3.9075,-0.4379,9.0544,-0.0348,0.0302,-0.1202,-2.2892543278136195,0.0,4.817711353302002,-1.3038479089736938,-0.0,1.9474644660949707,5.360272812634268,0.0,0.25897759199142456,-1.3103025595294397,0.0,-0.03410552814602852,1.5828651189804077,0.0,-0.004508695565164089,0.7413389682769775,0.0,-0.007868125103414059
206.0,229.0,-3.9075,-0.4379,9.0544,-0.0348,0.0302,-0.1202,-2.2892781696715296,0.0,4.812979221343994,-1.3038959503173828,-0.0,2.0086097717285156,5.360301005631246,0.0,0.25628453493118286,-1.3103225866900843,0.0,-0.028541944921016693,1.5828889608383179,0.0,-0.009364940226078033,0.7413837313652039,0.0,0.01657172292470932
206.0,229.0,-3.9075,-0.4379,9.0544,-0.0348,0.0302,-0.1202,-2.2892543278136195,0.0,4.862070083618164,-1.3038561344146729,-0.0,1.9594409465789795,5.360244798451223,0.0,0.2597317695617676,-1.3103469053851526,0.0,-0.0353730171918869,1.582844614982605,0.0,-0.004458851180970669,0.7413110136985779,0.0,0.029750820249319077
209.0,219.0,-3.9081,-0.4487,9.009,-0.0397,0.0283,-0.1171,-2.2892705402769984,0.0,4.800960063934326,-1.303929090499878,-0.0,1.9549174308776855,5.360252904682913,0.0,0.2544916570186615,-1.3103025595294397,0.0,-0.02599807269871235,1.5828526020050049,0.0,-0.0010091436561197042,0.7413592338562012,0.0,0.010048849508166313
209.0,219.0,-3.9081,-0.4487,9.009,-0.0397,0.0283,-0.1171,-2.2892662487425746,0.0,4.8183393478393555,-1.3038599491119385,-0.0,1.959521770477295,5.3602768061454675,0.0,0.2540952265262604,-1.3102663199054163,0.0,-0.0294354110956192,1.5828810930252075,0.0,-0.008771218359470367,0.741343080997467,0.0,-0.012494499795138836
209.0,219.0,-3.9081,-0.4487,9.009,-0.0397,0.0283,-0.1171,-2.2892586193480433,0.0,4.810651779174805,-1.3038887977600098,-0.0,1.959547758102417,5.360221016197958,0.0,0.25901734828948975,-1.3103025595294397,0.0,-0.04216674715280533,1.5828850269317627,0.0,0.0013029405381530523,0.7413393259048462,0.0,-0.001174414879642427
209.0,219.0,-3.9081,-0.4487,9.009,-0.0397,0.0283,-0.1171,-2.289274831811422,0.0,4.803509712219238,-1.3038361072540283,-0.0,1.9496530294418335,5.360252904682913,0.0,0.2529985308647156,-1.310355011616842,0.0,-0.03053964301943779,1.5828810930252075,0.0,0.0036226699594408274,0.7413471341133118,0.0,0.025245491415262222
209.0,219.0,-3.9081,-0.4487,9.009,-0.0397,0.0283,-0.1171,-2.2892543278136195,0.0,4.812413215637207,-1.3038804531097412,-0.0,1.9876232147216797,5.360244798451223,0.0,0.2540591359138489,-1.3103144804583948,0.0,-0.02158535271883011,1.5828611850738525,0.0,0.0035293716937303543,0.7413674592971802,0.0,-0.026875687763094902
209.0,219.0,-3.9081,-0.4487,9.009,-0.0397,0.0283,-0.1171,-2.2892867527403773,0.0,4.807878017425537,-1.3038438558578491,-0.0,1.9991345405578613,5.360312926560201,0.0,0.26024097204208374,-1.31032640138735,0.0,-0.02751871570944786,1.5828526020050049,0.0,0.01058636512607336,0.7413352727890015,0.0,-0.0109894759953022
209.0,219.0,-3.9081,-0.4487,9.009,-0.0397,0.0283,-0.1171,-2.2892867527403773,0.0,4.7729644775390625,-1.3038928508758545,-0.0,1.9715244770050049,5.360304999142446,0.0,0.25971704721450806,-1.3103182951556605,0.0,-0.04645669087767601,1.582900881767273,0.0,0.0033503398299217224,0.7413352131843567,0.0,-0.03178102523088455
209.0,219.0,-3.9081,-0.4487,9.009,-0.0397,0.0283,-0.1171,-2.2892781696715296,0.0,4.776020050048828,-1.3038599491119385,-0.0,1.934687852859497,5.360268819123068,0.0,0.2599124312400818,-1.3102944532977503,0.0,-0.030729562044143677,1.5828646421432495,0.0,0.0018456560792401433,0.741343080997467,0.0,0.01745607703924179
209.0,219.0,-3.9081,-0.4487,9.009,-0.0397,0.0283,-0.1171,-2.289250513116354,0.0,4.82950496673584,-1.303920865058899,-0.0,2.018150806427002,5.360264825611868,0.0,0.25920724868774414,-1.310298267995016,0.0,-0.030416086316108704,1.5828851461410522,0.0,0.0021751089952886105,0.7413837313652039,0.0,0.03237538039684296
209.0,219.0,-3.9081,-0.4487,9.009,-0.0397,0.0283,-0.1171,-2.2892705402769984,0.0,4.836175918579102,-1.303823709487915,-0.0,1.9443788528442383,5.360305058747091,0.0,0.26167434453964233,-1.310326878224508,0.0,-0.03359068185091019,1.5829049348831177,0.0,0.005160139873623848,0.7413550615310669,0.0,0.0030131833627820015
193.0,215.0,-3.8752,-0.457,9.0514,-0.0383,0.0263,-0.1222,-2.2892662487425746,0.0,4.845412254333496,-1.3038119077682495,-0.0,1.9807231426239014,5.360332894116201,0.0,0.25383898615837097,-1.3103426138507288,0.0,-0.02923322655260563,1.5828810930252075,0.0,-0.00019736215472221375,0.741331160068512,0.0,0.011416278779506683
193.0,215.0,-3.8752,-0.457,9.0514,-0.0383,0.0263,-0.1222,-2.289234300652975,0.0,4.79147481918335,-1.3038201332092285,-0.0,2.012587785720825,5.360280740052023,0.0,0.2556654214859009,-1.310298267995016,0.0,-0.027150757610797882,1.5828486680984497,0.0,0.007273293100297451,0.7413796186447144,0.0,-0.018901707604527473
193.0,215.0,-3.8752,-0.457,9.0514,-0.0383,0.0263,-0.1222,-2.289274354974264,0.0,4.831757545471191,-1.3038442134857178,-0.0,1.94515061378479,5.360272812634268,0.0,0.27020499110221863,-1.3103144804583948,0.0,-0.03173362463712692,1.5828969478607178,0.0,0.009359883144497871,0.7413713932037354,0.0,-0.028680484741926193
193.0,215.0,-3.8752,-0.457,9.0514,-0.0383,0.0263,-0.1222,-2.289274831811422,0.0,4.84079647064209,-1.3038520812988281,-0.0,1.9580607414245605,5.360276865750112,0.0,0.2666187882423401,-1.310286823903219,0.0,-0.028867797926068306,1.5829088687896729,0.0,-0.00904348585754633,0.7413755059242249,0.0,-0.049535125494003296
193.0,215.0,-3.8752,-0.457,9.0514,-0.0383,0.0263,-0.1222,-2.289290567437643,0.0,4.798786640167236,-1.3038846254348755,-0.0,2.019383668899536,5.360276627331533,0.0,0.2564637064933777,-1.3103063742267054,0.0,-0.025499776005744934,1.5828810930252075,0.0,5.643008626066148e-05,0.7413673996925354,0.0,0.030623873695731163
193.0,215.0,-3.8752,-0.457,9.0514,-0.0383,0.0263,-0.1222,-2.2892781696715296,0.0,4.807732105255127,-1.3038398027420044,-0.0,1.9972660541534424,5.360228824406423,0.0,0.25313711166381836,-1.3103025595294397,0.0,-0.021694201976060867,1.5829169750213623,0.0,-0.009253636933863163,0.741343080997467,0.0,0.00452757254242897
193.0,215.0,-3.8752,-0.457,9.0514,-0.0383,0.0263,-0.1222,-2.289274831811422,0.0,4.830190658569336,-1.3038278818130493,-0.0,1.9957983493804932,5.360244798451223,0.0,0.2574652433395386,-1.3103345076190394,0.0,-0.021411722525954247,1.5828889608383179,0.0,-0.009521814063191414,0.7413512468338013,0.0,0.036135558038949966
193.0,215.0,-3.8752,-0.457,9.0514,-0.0383,0.0263,-0.1222,-2.2892948589720667,0.0,4.85520601272583,-1.303840160369873,-0.0,1.9253878593444824,5.360248851567068,0.0,0.25844693183898926,-1.3103349844561976,0.0,-0.04266040399670601,1.58283269405365,0.0,-0.010839643888175488,0.7412949204444885,0.0,-0.003400890389457345
193.0,215.0,-3.8752,-0.457,9.0514,-0.0383,0.0263,-0.1222,-2.2892543278136195,0.0,4.781704425811768,-1.3038278818130493,-0.0,1.945395588874817,5.360288727074423,0.0,0.26045018434524536,-1.310355011616842,0.0,-0.03341889753937721,1.5828931331634521,0.0,0.004089296329766512,0.7413592338562012,0.0,-0.0020413780584931374
193.0,215.0,-3.8752,-0.457,9.0514,-0.0383,0.0263,-0.1222,-2.289302488366598,0.0,4.764588356018066,-1.3038558959960938,-0.0,1.9255871772766113,5.360228824406423,0.0,0.24062389135360718,-1.3103225866900843,0.0,-0.028242675587534904,1.5828526020050049,0.0,0.008922058157622814,0.7413191199302673,0.0,-0.03446243330836296
210.0,226.0,-3.9494,-0.4433,8.9097,-0.0315,0.0304,-0.1176,-2.2893434963622035,0.0,4.873189926147461,-1.303840160369873,-0.0,1.95590341091156,5.360329019814291,0.0,0.24943771958351135,-1.3103025595294397,0.0,-0.028624676167964935,1.5828406810760498,0.0,5.044066347181797e-05,0.7413031458854675,0.0,-0.02357328310608864
210.0,226.0,-3.9494,-0.4433,8.9097,-0.0315,0.0304,-0.1176,-2.2892662487425746,0.0,4.854957580566406,-1.303937315940857,-0.0,2.036689281463623,5.3602568981941126,0.0,0.2643463909626007,-1.3103349844561976,0.0,-0.033971697092056274,1.5829167366027832,0.0,0.002550362842157483,0.7413674592971802,0.0,0.04624941945075989
210.0,226.0,-3.9494,-0.4433,8.9097,-0.0315,0.0304,-0.1176,-2.289290567437643,0.0,4.82238245010376,-1.3038278818130493,-0.0,1.971964955329895,5.360268819123068,0.0,0.23968970775604248,-1.3103063742267054,0.0,-0.03390339016914368,1.5828810930252075,0.0,0.008468172512948513,0.741306722164154,0.0,0.0395941324532032
210.0,226.0,-3.9494,-0.4433,8.9097,-0.0315,0.0304,-0.1176,-2.289278646508688,0.0,4.788174629211426,-1.3038681745529175,-0.0,1.9812244176864624,5.360280740052023,0.0,0.2593551278114319,-1.310359303151266,0.0,-0.02972559630870819,1.5829485654830933,0.0,-0.008704645559191704,0.7413554191589355,0.0,-0.01693623885512352
210.0,226.0,-3.9494,-0.4433,8.9097,-0.0315,0.0304,-0.1176,-2.289250513116354,0.0,4.798084735870361,-1.3038846254348755,-0.0,2.0051450729370117,5.360297012120046,0.0,0.2615504264831543,-1.310298267995016,0.0,-0.024637063965201378,1.5828533172607422,0.0,0.0043931263498961926,0.7414039373397827,0.0,-0.01032240130007267
210.0,226.0,-3.9494,-0.4433,8.9097,-0.0315,0.0304,-0.1176,-2.28924622158193,0.0,4.855601787567139,-1.3038479089736938,-0.0,1.9780349731445312,5.360264825611868,0.0,0.26982808113098145,-1.310310188923971,0.0,-0.03375059366226196,1.58285653591156,0.0,-0.011661108583211899,0.7413713932037354,0.0,0.012881237082183361
210.0,226.0,-3.9494,-0.4433,8.9097,-0.0315,0.0304,-0.1176,-2.289262910882467,0.0,4.856099605560303,-1.303823709487915,-0.0,1.9327595233917236,5.360340404301443,0.0,0.2552061080932617,-1.3103788534747522,0.0,-0.03543757274746895,1.5828851461410522,0.0,0.007427993230521679,0.741334855556488,0.0,-0.0501815490424633
210.0,226.0,-3.9494,-0.4433,8.9097,-0.0315,0.0304,-0.1176,-2.28924622158193,0.0,4.766628742218018,-1.3038158416748047,-0.0,1.9540557861328125,5.360272812634268,0.0,0.2647625207901001,-1.3103583494769495,0.0,-0.039181165397167206,1.582877278327942,0.0,0.017535500228405,0.7413953542709351,0.0009232464362867177,-0.03970298171043396
210.0,226.0,-3.9494,-0.4433,8.9097,-0.0315,0.0304,-0.1176,-2.2892867527403773,0.0,4.79530143737793,-1.3038640022277832,-0.0,1.9961376190185547,5.360312926560201,0.0,0.2408987283706665,-1.310322109852926,0.0,-0.03764732927083969,1.5828009843826294,0.0,0.011210005730390549,0.7414237260818481,0.0017370602581650019,0.020533502101898193
210.0,226.0,-3.9494,-0.4433,8.9097,-0.0315,0.0304,-0.1176,-2.2892586193480433,0.0,4.847116947174072,-1.3038804531097412,-0.0,1.9841687679290771,5.360264766007223,0.0,0.2491156905889511,-1.3103750387774866,0.0,-0.03326985612511635,1.582920789718628,0.0,0.011696837842464447,0.7414195537567139,0.0011576930992305279,0.05081527680158615
197.0,231.0,-4.1815,-0.6969,8.939,-0.0452,0.0316,-0.1118,-2.2892705402769984,0.0,4.788105010986328,-1.3038398027420044,-0.0,1.9446377754211426,5.360248851567068,0.0,0.24627231061458588,-1.3103302160846155,0.0,-0.037558916956186295,1.582940697669983,0.0,-0.005553866736590862,0.7414275407791138,0.0007205065339803696,0.0039103287272155285
197.0,231.0,-4.1815,-0.6969,8.939,-0.0452,0.0316,-0.1118,-2.289274831811422,0.0,4.792668342590332,-1.3038558959960938,-0.0,2.036106586456299,5.360284733563223,0.0,0.25643110275268555,-1.3103707472430628,0.0,-0.02420751377940178,1.5828447341918945,0.0,0.009620588272809982,0.7414476871490479,0.0006388318724930286,-0.009769107215106487
197.0,231.0,-4.1815,-0.6969,8.939,-0.0452,0.0316,-0.1118,-2.2892543278136195,0.0,4.760659694671631,-1.3038640022277832,-0.0,1.9969189167022705,5.360297012120046,0.0,0.24485725164413452,-1.31032640138735,0.0,-0.03430415317416191,1.5828969478607178,0.0,0.014613949693739414,0.7414072751998901,0.0005378854693844914,-0.023341022431850433
197.0,231.0,-4.1815,-0.6969,8.939,-0.0452,0.0316,-0.1118,-2.289290567437643,0.0,4.836332321166992,-1.303937315940857,-0.0,1.948226809501648,5.360297012120046,0.0,0.2706114649772644,-1.3103426138507288,0.0,-0.025825098156929016,1.5829287767410278,0.0,-0.010242773219943047,0.7413949370384216,0.0004163646954111755,0.02598409540951252
197.0,231.0,-4.1815,-0.6969,8.939,-0.0452,0.0316,-0.1118,-2.289274831811422,0.0,4.781792163848877,-1.3038599491119385,-0.0,1.9847393035888672,5.360288786679067,0.0,0.2643381357192993,-1.310366455708639,0.0,-0.043726325035095215,1.5828771591186523,0.0,0.0007663825526833534,0.7413953542709351,0.00031293986830860376,-0.0010257232934236526
197.0,231.0,-4.1815,-0.6969,8.939,-0.0452,0.0316,-0.1118,-2.289302488366598,0.0,4.814419746398926,-1.3038438558578491,-0.0,2.013925075531006,5.360284733563223,0.0,0.2497064769268036,-1.3103583494769495,0.0,-0.03396235778927803,1.5829049348831177,0.0,0.008427705615758896,0.7413792014122009,0.00010808136721607298,-0.05040600523352623
197.0,231.0,-4.1815,-0.6969,8.939,-0.0452,0.0316,-0.1118,-2.289290567437643,0.0,4.8015055656433105,-1.3038846254348755,-0.0,1.936936855316162,5.360260712891378,0.0,0.23480571806430817,-1.3103583494769495,0.0,-0.024337701499462128,1.5828566551208496,0.0,-0.005110334604978561,0.7414031624794006,8.269150566775352e-05,-0.002417930867522955
197.0,231.0,-4.1815,-0.6969,8.939,-0.0452,0.0316,-0.1118,-2.289250513116354,0.0,4.854248046875,-1.3038398027420044,-0.0,1.9607329368591309,5.360252904682913,0.0,0.2511076033115387,-1.3103511969195765,0.0,-0.03128747269511223,1.5828566551208496,0.0,-0.020953217521309853,0.7414113283157349,6.724467675667256e-05,0.006694782990962267
197.0,231.0,-4.1815,-0.6969,8.939,-0.0452,0.0316,-0.1118,-2.289234300652975,2.077685579138233e-08,4.798455715179443,-1.3038361072540283,-0.0,1.9956388473510742,5.360301005631246,0.0,0.25064343214035034,-1.3103707472430628,0.0,-0.02724536508321762,1.5828889608383179,0.0,0.006921130698174238,0.7414072751998901,8.773674926487729e-05,0.033865414559841156
204.0,223.0,-3.9876,-0.5013,8.9025,-0.0425,0.025,-0.1199,-2.2892543278136195,9.031081827237601e-18,4.835540771484375,-1.3038561344146729,-0.0,1.970517635345459,5.360244738846578,0.0,0.25151583552360535,-1.310355011616842,0.0,-0.030281031504273415,1.5828526020050049,0.0,-0.014036256819963455,0.7414316534996033,7.548602297902107e-05,-0.04898037388920784
204.0,223.0,-3.9876,-0.5013,8.9025,-0.0425,0.025,-0.1199,-2.2892662487425746,2.9259563414652356e-25,4.836093902587891,-1.3038438558578491,-0.0,1.991718053817749,5.360280740052023,0.0,0.256166934967041,-1.3103511969195765,0.0,-0.03825514018535614,1.5828850269317627,0.0,0.0038145333528518677,0.7414155006408691,-3.728103547473438e-05,0.013783624395728111
204.0,223.0,-3.9876,-0.5013,8.9025,-0.0425,0.025,-0.1199,-2.2892867527403773,1.2718262276665442e-34,4.843194961547852,-1.3038277626037598,-0.0,1.9721827507019043,5.360236930638113,0.0,0.24401770532131195,-1.3103144804583948,0.0,-0.03464830666780472,1.5828406810760498,0.0,0.013315114192664623,0.7413306832313538,-3.088881931034848e-05,-0.03254920616745949
204.0,223.0,-3.9876,-0.5013,8.9025,-0.0425,0.025,-0.1199,-2.289274831811422,5.465064010866787e-44,4.831691741943359,-1.3038886785507202,-0.0,1.9226654767990112,5.360297131329336,0.0,0.25441426038742065,-1.3103511969195765,0.0,-0.0181075781583786,1.5828731060028076,0.0,0.004277803935110569,0.7413709759712219,-2.6364457880845293e-05,0.04283285513520241
204.0,223.0,-3.9876,-0.5013,8.9025,-0.0425,0.025,-0.1199,-2.2892424068846644,0.0,4.774741172790527,-1.3038886785507202,-0.0,1.998956561088562,5.360292780190267,0.0,0.25029680132865906,-1.3103511969195765,0.0,-0.033919960260391235,1.5828566551208496,0.0,0.010976618155837059,0.7414394617080688,-2.3599186533829197e-05,0.0141957588493824
204.0,223.0,-3.9876,-0.5013,8.9025,-0.0425,0.025,-0.1199,-2.289250513116354,0.0,4.825908184051514,-1.3038561344146729,-0.0,2.011176586151123,5.360268819123068,0.0,0.25719475746154785,-1.3103469053851526,0.0,-0.032544780522584915,1.5828652381896973,0.0,0.0005887243896722794,0.7414155006408691,-2.086379572574515e-05,0.009527726098895073
204.0,223.0,-3.9876,-0.5013,8.9025,-0.0425,0.025,-0.1199,-2.2892781696715296,0.0,4.836113452911377,-1.3038479089736938,-0.0,1.9763247966766357,5.360284733563223,0.0,0.2541576325893402,-1.3103387991534632,0.0,-0.04732915759086609,1.5829010009765625,0.0,-0.0004944928805343807,0.7414237260818481,-1.9093296941719018e-05,-0.0627753734588623
204.0,223.0,-3.9876,-0.5013,8.9025,-0.0425,0.025,-0.1199,-2.289290567437643,0.0,4.785635948181152,-1.3038557767868042,-0.0,1.9447896480560303,5.360252904682913,0.0,0.256192147731781,-1.3103511969195765,0.0,-0.029399599879980087,1.5828607082366943,0.0,0.004840546287596226,0.7414113879203796,-9.4461682920155e-09,0.017585836350917816
204.0,223.0,-3.9876,-0.5013,8.9025,-0.0425,0.025,-0.1199,-2.289234300652975,0.0,4.835447311401367,-1.303840160369873,-0.0,2.0069239139556885,5.360328900605001,0.0,0.24151688814163208,-1.3103387991534632,0.0,-0.024752970784902573,1.5828566551208496,0.0,-0.005619698204100132,0.7414234280586243,-4.105968637167763e-18,-0.0011214569676667452
204.0,223.0,-3.9876,-0.5013,8.9025,-0.0425,0.025,-0.1199,-2.2892586193480433,0.0,4.815716743469238,-1.3038520812988281,-0.0,1.952978253364563,5.360264825611868,0.0,0.2528620660305023,-1.3103345076190394,0.0,-0.03441416472196579,1.5828810930252075,0.0,0.003087397664785385,0.7414152026176453,-1.3302816591940954e-25,-0.08359801769256592
211.0,232.0,-3.9446,-0.6036,8.9898,-0.0454,0.0313,-0.1261,-2.289278646508688,0.0,4.8448991775512695,-1.3038681745529175,-0.0,1.9950239658355713,5.360224830895223,0.0,0.2581537067890167,-1.3103302160846155,0.0,-0.047222331166267395,1.5828652381896973,0.0,0.007121589966118336,0.7414312362670898,0.0005777326878160238,-0.02164233848452568
211.0,232.0,-3.9446,-0.6036,8.9898,-0.0454,0.0313,-0.1261,-2.2892543278136195,0.0,4.801088809967041,-1.3038361072540283,-0.0,2.028810501098633,5.360264646797933,0.0,0.24550208449363708,-1.3103750387774866,0.0,-0.03536990284919739,1.5828691720962524,0.0,0.0057237339206039906,0.7414353489875793,0.0012131750117987394,0.0500124990940094
211.0,232.0,-3.9446,-0.6036,8.9898,-0.0454,0.0313,-0.1261,-2.2892662487425746,0.0,4.807849884033203,-1.3038681745529175,-0.0,1.975693702697754,5.360280740052023,0.0,0.2555481791496277,-1.3103387991534632,0.0,-0.022253425791859627,1.5828810930252075,0.0,0.006459275726228952,0.741447389125824,0.0008492300403304398,-0.007817523553967476
211.0,232.0,-3.9446,-0.6036,8.9898,-0.0454,0.0313,-0.1261,-2.2892705402769984,0.0,4.815036296844482,-1.3038804531097412,-0.0,1.9972878694534302,5.360288786679067,0.0,0.2655103802680969,-1.310310188923971,0.0,-0.027244146913290024,1.5828969478607178,0.0,-0.003713680198416114,0.7414836883544922,0.0005544963059946895,-0.03700752556324005
211.0,232.0,-3.9446,-0.6036,8.9898,-0.0454,0.0313,-0.1261,-2.2892867527403773,0.0,4.794863224029541,-1.3038479089736938,-0.0,1.9966087341308594,5.360260712891378,0.0,0.24784991145133972,-1.3103345076190394,0.0,-0.03549615293741226,1.5828889608383179,0.0,0.0035205609165132046,0.7414432764053345,0.00015280656225513667,-0.005434141028672457
211.0,232.0,-3.9446,-0.6036,8.9898,-0.0454,0.0313,-0.1261,-2.289306779901022,0.0,4.75862979888916,-1.3038361072540283,-0.0,1.9914517402648926,5.360272991448202,0.0,0.24203276634216309,-1.31032640138735,0.0,-0.031987808644771576,1.5828487873077393,0.0,0.01083210576325655,0.7413949370384216,5.363258605939336e-05,0.013600608333945274
211.0,232.0,-3.9446,-0.6036,8.9898,-0.0454,0.0313,-0.1261,-2.289278646508688,0.0,4.838071823120117,-1.303876280784607,-0.0,1.9640016555786133,5.360276865750112,0.0,0.2539031207561493,-1.310366455708639,0.0,-0.04516582936048508,1.5829286575317383,0.0,0.010318927466869354,0.7414353489875793,2.1037138253632293e-07,0.015624836087226868
211.0,232.0,-3.9446,-0.6036,8.9898,-0.0454,0.0313,-0.1261,-2.289274831811422,0.0,4.8513875007629395,-1.3038034439086914,-0.0,1.9665169715881348,5.360252904682913,0.0,0.2551057040691376,-1.3103225866900843,0.0,-0.04812691733241081,1.5828810930252075,0.0,0.003116354811936617,0.7414072751998901,9.144219620955664e-17,-0.009083503857254982
211.0,232.0,-3.9446,-0.6036,8.9898,-0.0454,0.0313,-0.1261,-2.289274831811422,0.0,4.815835952758789,-1.3039041757583618,-0.0,1.9566633701324463,5.360320973187246,0.0,0.25127899646759033,-1.310310188923971,0.0,-0.033827122300863266,1.5828889608383179,0.0,0.010147547349333763,0.7413867115974426,2.9626109113377496e-24,0.002467736601829529
211.0,232.0,-3.9446,-0.6036,8.9898,-0.0454,0.0313,-0.1261,-2.2892867527403773,1.4539928088197485e-06,4.776564121246338,-1.3038398027420044,-0.0,1.9201242923736572,5.360260712891378,0.0,0.244398295879364,-1.3103182951556605,0.0,-0.02605949342250824,1.5828685760498047,0.0,-0.0006375935627147555,0.7414353489875793,1.2877588367716162e-33,-0.0061499495059251785
208.0,229.0,-3.9715,-0.3858,8.9276,-0.0316,0.0278,-0.1177,-2.2892586193480433,6.32007333786251e-16,4.805160999298096,-1.303952693939209,-0.0,1.9848601818084717,5.360292780190267,0.0,0.26047152280807495,-1.3103306929217737,0.0,-0.03227108716964722,1.582844853401184,0.0,-0.00437108613550663,0.7414515018463135,5.59118087265602e-43,-0.0028292881324887276
208.0,229.0,-3.9715,-0.3858,8.9276,-0.0316,0.0278,-0.1177,-2.289238592187399,2.047623690260291e-23,4.83934211730957,-1.3038804531097412,-0.0,1.9622538089752197,5.360272812634268,0.0,0.25516706705093384,-1.3103707472430628,0.0,-0.02269318886101246,1.582912802696228,0.0,0.00845562107861042,0.7413908839225769,0.0,0.06819382309913635
208.0,229.0,-3.9715,-0.3858,8.9276,-0.0316,0.0278,-0.1177,-2.289230009118551,8.900412699620372e-33,4.795883655548096,-1.3038520812988281,-0.0,1.9696204662322998,5.360240745335378,0.0,0.2447475641965866,-1.3103511969195765,0.0,-0.030655637383461,1.582861304283142,0.0,0.001955158542841673,0.7414672374725342,0.0,0.03272695094347
208.0,229.0,-3.9715,-0.3858,8.9276,-0.0316,0.0278,-0.1177,-2.2892948589720667,2.883620005856895e-40,4.808427810668945,-1.3038640022277832,-0.0,1.9686574935913086,5.360248851567068,0.0,0.24291080236434937,-1.3103626410113733,0.0,-0.025816669687628746,1.582900881767273,0.0,-0.0015934677794575691,0.7414268255233765,0.0,0.03616248071193695
208.0,229.0,-3.9715,-0.3858,8.9276,-0.0316,0.0278,-0.1177,-2.2892824612059535,0.0,4.845466136932373,-1.3038561344146729,-0.0,2.002237558364868,5.360264825611868,0.0,0.26379185914993286,-1.310366455708639,0.0,-0.030837450176477432,1.5828131437301636,0.0,0.020095612853765488,0.741459310054779,0.0005343637312762439,0.009501241147518158
208.0,229.0,-3.9715,-0.3858,8.9276,-0.0316,0.0278,-0.1177,-2.28924622158193,0.0,4.821781158447266,-1.3038438558578491,-0.0,1.9729712009429932,5.360284733563223,0.0,0.2535826861858368,-1.3103511969195765,0.0,-0.025421088561415672,1.5828850269317627,0.0,0.006579997483640909,0.7414230108261108,0.0003591534332372248,0.031247686594724655
208.0,229.0,-3.9715,-0.3858,8.9276,-0.0316,0.0278,-0.1177,-2.289290567437643,0.0,4.783077239990234,-1.3038601875305176,-0.0,1.9574463367462158,5.360268819123068,0.0,0.25562232732772827,-1.3103144804583948,0.0,-0.03623839467763901,1.5828969478607178,0.0,-0.0002168365754187107,0.7414592504501343,0.00028367398772388697,0.03751782700419426
208.0,229.0,-3.9715,-0.3858,8.9276,-0.0316,0.0278,-0.1177,-2.289302488366598,0.0,4.765559196472168,-1.3038722276687622,-0.0,2.043457269668579,5.360280859261312,0.0,0.2623745799064636,-1.3103106657611292,0.0,-0.03782165050506592,1.5828607082366943,0.0,0.004246855154633522,0.7414432764053345,0.0001497942430432886,0.006606646813452244
208.0,229.0,-3.9715,-0.3858,8.9276,-0.0316,0.0278,-0.1177,-2.289274831811422,0.0,4.819575309753418,-1.3038763999938965,-0.0,1.9593006372451782,5.360276627331533,0.0,0.24926942586898804,-1.3102906386004847,0.0,-0.039321646094322205,1.5829048156738281,0.0,0.005239906720817089,0.741447389125824,9.63027632678859e-05,-0.030337855219841003
208.0,229.0,-3.9715,-0.3858,8.9276,-0.0316,0.0278,-0.1177,-2.289238592187399,0.0,4.8076300621032715,-1.3038241863250732,-0.0,1.995826005935669,5.3602568981941126,0.0,0.24658674001693726,-1.3103225866900843,0.0,-0.03087272122502327,1.5828404426574707,0.0,0.015689082443714142,0.74141526222229,-6.799974653404206e-05,0.005882659927010536
208.0,237.0,-3.9021,-0.4391,9.0126,-0.0432,0.027,-0.1239,-2.289302488366598,0.0,4.848105430603027,-1.3038438558578491,-0.0,2.006352186203003,5.360292899399557,0.0,0.25567811727523804,-1.3103426138507288,0.0,-0.03304162994027138,1.5828523635864258,0.0,-0.0003120971377938986,0.7414111495018005,-5.719579348806292e-05,0.009364446625113487
208.0,237.0,-3.9021,-0.4391,9.0126,-0.0432,0.027,-0.1239,-2.2892781696715296,0.0,4.797483444213867,-1.3038485050201416,8.310283572399157e-10,1.9536361694335938,5.360260712891378,0.0,0.25329387187957764,-1.310359303151266,0.0,-0.02937001734972,1.5829253196716309,0.0,-0.001884462428279221,0.7413908243179321,-3.4068605600623414e-05,-0.014510899782180786
208.0,237.0,-3.9021,-0.4391,9.0126,-0.0432,0.027,-0.1239,-2.2892824612059535,0.0,4.78507137298584,-1.3038846254348755,3.6122338870155404e-19,1.9545866250991821,5.360248851567068,0.0,0.2572149932384491,-1.3103106657611292,0.0,-0.0429316908121109,1.5828282833099365,0.0,-0.0014217114076018333,0.7414271235466003,-2.2238136807573028e-05,0.0034276137594133615
208.0,237.0,-3.9021,-0.4391,9.0126,-0.0432,0.027,-0.1239,-2.289241930047506,0.0,4.7957353591918945,-1.3038485050201416,1.1703179855773342e-26,2.041118621826172,5.360260712891378,0.0,0.26157015562057495,-1.3103426138507288,0.0,-0.024304592981934547,1.582869052886963,0.0,0.004429987631738186,0.7414152026176453,-2.0237890566932037e-05,-0.00910104438662529
208.0,237.0,-3.9021,-0.4391,9.0126,-0.0432,0.027,-0.1239,-2.2893110714354457,0.0,4.801306247711182,-1.3038520812988281,5.087026060791671e-36,1.951110601425171,5.360252904682913,0.0,0.2650647759437561,-1.3103144804583948,0.0,-0.035952094942331314,1.582892894744873,0.0,-0.007313932292163372,0.7413949370384216,-1.819247154344339e-05,-0.01513059064745903
208.0,237.0,-3.9021,-0.4391,9.0126,-0.0432,0.027,-0.1239,-2.2892705402769984,0.0,4.870906829833984,-1.303831934928894,2.802596928649634e-45,2.000250816345215,5.360268819123068,0.0,0.2508332133293152,-1.3103387991534632,0.0,-0.02989455685019493,1.5828282833099365,0.0,-0.0038048403803259134,0.7414152026176453,-1.6522557416465133e-05,0.07345432043075562
208.0,237.0,-3.9021,-0.4391,9.0126,-0.0432,0.027,-0.1239,-2.289238592187399,0.0,4.81498908996582,-1.3038846254348755,-0.0,1.9689204692840576,5.360301005631246,0.0,0.2671852707862854,-1.3103182951556605,0.0,-0.032445527613162994,1.5829253196716309,0.0,-0.0054426114074885845,0.7414312362670898,-1.539226468594279e-05,-0.029593773186206818
208.0,237.0,-3.9021,-0.4391,9.0126,-0.0432,0.027,-0.1239,-2.2892867527403773,0.0,4.762856483459473,-1.3038278818130493,-0.0,1.975531816482544,5.360280859261312,0.0,0.24745261669158936,-1.3103182951556605,0.0,-0.03273473680019379,1.5828564167022705,0.0,-0.0014404975809156895,0.7414795756340027,-2.2271597117651254e-05,-0.008216094225645065
208.0,237.0,-3.9021,-0.4391,9.0126,-0.0432,0.027,-0.1239,-2.289274831811422,0.0,4.7594170570373535,-1.3038278818130493,-0.0,2.0671751499176025,5.360276865750112,0.0,0.25768616795539856,-1.3103182951556605,0.0,-0.024820107966661453,1.5828850269317627,0.0,-0.00019061006605625153,0.7414674758911133,-2.026559377554804e-05,0.0073300800286233425
208.0,237.0,-3.9021,-0.4391,9.0126,-0.0432,0.027,-0.1239,-2.289274831811422,0.0,4.771216869354248,-1.3038278818130493,-0.0,1.9782538414001465,5.360216963082113,0.0,0.25771042704582214,-1.3103426138507288,0.0,-0.030134061351418495,1.5828773975372314,0.0,0.001491457223892212,0.7414674758911133,-1.821486875996925e-05,0.018599921837449074
210.0,228.0,-3.9631,-0.411,8.8397,-0.036,0.0266,-0.1287,-2.2892824612059535,0.0,4.80750036239624,-1.3038561344146729,-0.0,1.9620256423950195,5.360301005631246,0.0,0.25267350673675537,-1.3102863470660608,0.0,-0.03757547214627266,1.5828773975372314,0.0,0.019429944455623627,0.7414110898971558,-1.236089841594179e-10,-0.012082861736416817
210.0,228.0,-3.9631,-0.411,8.8397,-0.036,0.0266,-0.1287,-2.289286275903219,0.0,4.829863548278809,-1.30381178855896,-0.0,2.001831531524658,5.360268819123068,0.0,0.2505655884742737,-1.3103182951556605,0.0,-0.05014149844646454,1.5828933715820312,0.0,0.02166503667831421,0.7414392232894897,-4.00477425616017e-18,-0.00492204912006855
210.0,228.0,-3.9631,-0.411,8.8397,-0.036,0.0266,-0.1287,-2.2892986736693324,0.0,4.8139824867248535,-1.3039041757583618,-0.0,1.9956040382385254,5.360284733563223,0.0,0.2525649070739746,-1.310310188923971,0.0,-0.02008804678916931,1.5828607082366943,0.0,0.007527404464781284,0.7414551973342896,-1.7407564024662697e-27,0.058039192110300064
210.0,228.0,-3.9631,-0.411,8.8397,-0.036,0.0266,-0.1287,-2.2892900906004847,0.0,4.841996192932129,-1.303876280784607,-0.0,1.9411730766296387,5.360248911171713,0.0,0.24083882570266724,-1.3103387991534632,0.0,-0.03764888644218445,1.5828523635864258,0.0,0.0031208181753754616,0.7414754629135132,-5.639829040703404e-35,-0.00426063546910882
210.0,228.0,-3.9631,-0.411,8.8397,-0.036,0.0266,-0.1287,-2.289302488366598,0.0,4.769088268280029,-1.3038561344146729,-0.0,1.986048936843872,5.360280740052023,0.0,0.2388506829738617,-1.3103025595294397,0.0,-0.025871679186820984,1.582864761352539,0.0,0.008503600023686886,0.7415276765823364,0.0005203891196288168,-0.006204327568411827
210.0,228.0,-3.9631,-0.411,8.8397,-0.036,0.0266,-0.1287,-2.2892705402769984,0.0,4.8149566650390625,-1.3038074970245361,-0.0,1.9218688011169434,5.360276627331533,0.0,0.25618934631347656,-1.3102863470660608,0.0,-0.038477055728435516,1.5828523635864258,0.0,-8.282248927571345e-06,0.741422712802887,0.0010232041822746396,0.059085264801979065
210.0,228.0,-3.9631,-0.411,8.8397,-0.036,0.0266,-0.1287,-2.2893105945982875,0.0,4.8427534103393555,-1.3038438558578491,-0.0,1.9537144899368286,5.360297012120046,0.0,0.2609165608882904,-1.3103626410113733,0.0,-0.03594513237476349,1.5828204154968262,0.0,-0.01431664265692234,0.741499125957489,0.0012653913581743836,0.011296628974378109
210.0,228.0,-3.9631,-0.411,8.8397,-0.036,0.0266,-0.1287,-2.289298196832174,0.0,4.834053993225098,-1.3038485050201416,1.1439534318924416e-05,2.00251841545105,5.360272872238912,0.0,0.2628394365310669,-1.310326878224508,0.0,-0.033686161041259766,1.5828402042388916,0.0,-0.008206089027225971,0.7414751648902893,0.0012955726124346256,0.02081022411584854
210.0,228.0,-3.9631,-0.411,8.8397,-0.036,0.0266,-0.1287,-2.289302488366598,0.0,4.805820941925049,-1.303900122642517,1.1275878932792693e-05,1.9715192317962646,5.360301005631246,0.0,0.25493067502975464,-1.3103469053851526,0.0,-0.013827165588736534,1.5829010009765625,0.0,0.0026853715535253286,0.741462767124176,0.0010965123074129224,0.03115539439022541
206.0,213.0,-3.8889,-0.5605,9.1196,-0.0493,0.0316,-0.1197,-2.2892900906004847,0.0,4.84975528717041,-1.3038485050201416,4.246277967467904e-05,1.9746079444885254,5.360301005631246,0.0,0.2575171887874603,-1.3103387991534632,0.0,-0.03677055984735489,1.5828731060028076,0.0,-0.006232963874936104,0.7415030002593994,0.0008982369909062982,0.021909531205892563
206.0,213.0,-3.8889,-0.5605,9.1196,-0.0493,0.0316,-0.1197,-2.289314409295553,0.0,4.888090133666992,-1.303868055343628,0.0012349978787824512,1.9404337406158447,5.360332894116201,0.0,0.2539318799972534,-1.3103469053851526,0.0,-0.03243348002433777,1.5829010009765625,0.0,0.0031747552566230297,0.7415230870246887,0.0006645866087637842,-0.004709802567958832
206.0,213.0,-3.8889,-0.5605,9.1196,-0.0493,0.0316,-0.1197,-2.289302488366598,0.0,4.78859806060791,-1.3038039207458496,0.0007166630821302533,1.9421746730804443,5.360301363259115,0.0,0.24824634194374084,-1.3103626410113733,0.0,-0.034882016479969025,1.5828850269317627,0.0,0.007112595252692699,0.7415152788162231,0.0006657855119556189,0.0006786998710595071
206.0,213.0,-3.8889,-0.5605,9.1196,-0.0493,0.0316,-0.1197,-2.289262910882467,0.0,4.78303337097168,-1.3038240671157837,0.0005580352153629065,1.9828615188598633,5.360280740052023,0.0,0.24201682209968567,-1.3103144804583948,0.0,-0.027194825932383537,1.5828607082366943,0.0,-0.006867930293083191,0.74149090051651,0.0004656962410081178,0.01965407282114029
206.0,213.0,-3.8889,-0.5605,9.1196,-0.0493,0.0316,-0.1197,-2.2892948589720667,0.0,4.793419361114502,-1.3038198947906494,0.00047087465645745397,1.9366745948791504,5.360304820328512,0.0,0.26289236545562744,-1.310355011616842,0.0,-0.03390134125947952,1.5828933715820312,0.0,0.009063992649316788,0.7415593266487122,0.0003293218614999205,-0.032506827265024185
206.0,213.0,-3.8889,-0.5605,9.1196,-0.0493,0.0316,-0.1197,-2.289238592187399,0.0,4.766308784484863,-1.3037837743759155,0.00041685468750074506,1.9654743671417236,5.360284733563223,0.0,0.25707191228866577,-1.310326878224508,0.0,-0.034519344568252563,1.582869052886963,0.0,0.011715391650795937,0.741523027420044,0.00019287144823465496,-0.0007771868258714676
206.0,213.0,-3.8889,-0.5605,9.1196,-0.0493,0.0316,-0.1197,-2.2892424068846644,0.0,4.80388069152832,-1.3037594556808472,0.0010949958814308047,2.009960651397705,5.360228824406423,0.0,0.24627865850925446,-1.3103345076190394,0.0,-0.022140955552458763,1.5828404426574707,0.0,0.003431738121435046,0.741507351398468,-0.00015071433153934777,0.015748435631394386
206.0,213.0,-3.8889,-0.5605,9.1196,-0.0493,0.0316,-0.1197,-2.289218088189596,0.0006307583535090089,4.853401184082031,-1.3037480115890503,0.0026021634694188833,1.9735887050628662,5.360260653286733,0.0,0.24610310792922974,-1.3103025595294397,0.0,-0.03907831385731697,1.5828447341918945,0.0,-0.0003114868886768818,0.7414833903312683,-0.0006948968512006104,0.00923663005232811
206.0,213.0,-3.8889,-0.5605,9.1196,-0.0493,0.0316,-0.1197,-2.289218088189596,0.0010898855980485678,4.8181538581848145,-1.3037116527557373,0.0058402991853654385,1.989547610282898,5.360276627331533,0.0,0.24444344639778137,-1.310310188923971,0.0,-0.030813591554760933,1.5828814506530762,0.0,0.004178926348686218,0.7414875626564026,-0.0006589831900782883,0.020015589892864227
206.0,213.0,-3.8889,-0.5605,9.1196,-0.0493,0.0316,-0.1197,-2.289210458795065,0.0013378406874835491,4.784273624420166,-1.3036112785339355,0.006718606688082218,1.9718396663665771,5.360292839794912,0.0,0.2619640529155731,-1.3103025595294397,0.0,-0.03501911088824272,1.5828607082366943,0.0,0.018555380403995514,0.7414345741271973,-0.0004774242697749287,0.03293835371732712
208.0,231.0,-4.0505,-0.5503,9.1765,-0.0399,0.0344,-0.1243,-2.2891422710814417,0.004441381897777319,4.829191207885742,-1.3035998344421387,0.0072004846297204494,2.0088276863098145,5.360297012120046,0.0,0.25727686285972595,-1.310355011616842,0.0,-0.027873504906892776,1.5828850269317627,0.0,0.006532574072480202,0.7414589524269104,-0.00037429132498800755,0.011156370863318443
208.0,231.0,-4.0505,-0.5503,9.1765,-0.0399,0.0344,-0.1243,-2.289131303826803,0.00920289009809494,4.859236717224121,-1.3034870624542236,0.006151603069156408,2.010380268096924,5.360240685730734,0.0,0.25369250774383545,-1.3103626410113733,0.0,-0.046104952692985535,1.5828649997711182,0.0,-0.00946614146232605,0.7414634823799133,-0.00021220168855506927,-0.025141458958387375
208.0,231.0,-4.0505,-0.5503,9.1765,-0.0399,0.0344,-0.1243,-2.2890144787230433,0.01134888269007206,4.815528869628906,-1.3034719228744507,0.005839849356561899,1.9648065567016602,5.3602128503616235,0.0,0.24995675683021545,-1.31035024324526,0.0,-0.024837341159582138,1.582869052886963,0.0,0.0014706370420753956,0.7415032386779785,0.00020569167099893093,-0.013670092448592186
208.0,231.0,-4.0505,-0.5503,9.1765,-0.0399,0.0344,-0.1243,-2.288875242272848,0.013795341365039349,4.774274826049805,-1.3033192157745361,0.007739987690001726,1.9623833894729614,5.360288786679067,0.0,0.26216381788253784,-1.3104146162616175,-6.472410281344043e-12,-0.022916710004210472,1.5828969478607178,0.0,-0.006640096195042133,0.7415714263916016,0.004404917359352112,0.020533964037895203
208.0,231.0,-4.0505,-0.5503,9.1765,-0.0399,0.0344,-0.1243,-2.2887431583800257,0.01896986924111843,4.901495456695557,-1.303283929824829,0.010059715248644352,2.0064902305603027,5.360213088780203,0.0,0.24158591032028198,-1.3103702704059046,-1.1763286522024343e-16,-0.03860951215028763,1.5828933715820312,0.0,0.0028316345997154713,0.7416273951530457,0.009778526611626148,0.005316093564033508
208.0,231.0,-4.0505,-0.5503,9.1765,-0.0399,0.0344,-0.1243,-2.2884379825987757,0.02241538278758526,4.8515825271606445,-1.3031389713287354,0.013374772854149342,2.005272626876831,5.360233056336202,0.0,0.2584075927734375,-1.310406510029928,-0.0003458916617091745,-0.03248881548643112,1.582864761352539,0.0,-0.007968515157699585,0.7418073415756226,0.0193735770881176,0.04314383119344711
208.0,231.0,-4.0505,-0.5503,9.1765,-0.0399,0.0344,-0.1243,-2.2882825336852015,0.0218478012830019,4.885298728942871,-1.3030307292938232,0.01328461803495884,2.0101113319396973,5.360233056336202,-0.0001731801894493401,0.24790364503860474,-1.3104022184955042,-0.00026465460541658103,-0.023549046367406845,1.582880973815918,0.0,0.006382707506418228,0.7419955730438232,0.025081416592001915,0.10967843234539032
208.0,231.0,-4.0505,-0.5503,9.1765,-0.0399,0.0344,-0.1243,-2.2881065807738246,0.01742463931441307,4.859286785125732,-1.302910566329956,0.01267967838793993,2.065641164779663,5.360269236355581,-0.00019432655244600028,0.27435582876205444,-1.3103626410113733,-0.0002453978231642395,-0.03944043815135956,1.5828728675842285,0.0,0.007977450266480446,0.7422433495521545,0.028487203642725945,0.17886467278003693
208.0,231.0,-4.0505,-0.5503,9.1765,-0.0399,0.0344,-0.1243,-2.2879306278624476,0.013041633181273937,4.860720634460449,-1.3028632402420044,0.01271168701350689,2.0195493698120117,5.360213267594137,-0.00019217072986066341,0.25803327560424805,-1.3104265371905726,-0.0001666400203248486,-0.032210081815719604,1.5829010009765625,0.0,-0.004182623233646154,0.742487370967865,0.02585005573928356,0.13058263063430786
208.0,231.0,-4.0505,-0.5503,9.1765,-0.0399,0.0344,-0.1243,-2.287871023217672,0.01041534636169672,4.846770286560059,-1.3026779890060425,0.012679856270551682,1.9814581871032715,5.360165047436514,-0.00019571038137655705,0.252696692943573,-1.310406510029928,-0.00014513036876451224,-0.041673965752124786,1.582848310470581,0.0,-0.001863669021986425,0.7426267862319946,0.02262997440993786,0.0915311649441719
207.0,235.0,-3.728,-0.4576,8.8211,-0.0224,0.0156,-0.0903,-2.287746568719381,0.007324137259274721,4.825292110443115,-1.3025702238082886,0.01355651579797268,2.0409750938415527,5.360185134201803,-0.00022985387477092445,0.2515985071659088,-1.31035024324526,-0.00012497550051193684,-0.03363804146647453,1.5828731060028076,0.0,0.006453416310250759,0.7428753972053528,0.013495538383722305,0.12028208374977112
207.0,235.0,-3.728,-0.4576,8.8211,-0.0224,0.0156,-0.0903,-2.2877026997008265,0.0038321507163345814,4.791487693786621,-1.3024531602859497,0.014208859764039516,2.005805492401123,5.3601892469222925,-0.0001908502308651805,0.2517659068107605,-1.310378376637594,-9.580425830790773e-05,-0.02406669408082962,1.5828523635864258,0.0,0.00872068852186203,0.74285888671875,0.005180278792977333,0.06334218382835388
207.0,235.0,-3.728,-0.4576,8.8211,-0.0224,0.0156,-0.0903,-2.2877031765379847,0.0013143721735104918,4.8329315185546875,-1.3022687435150146,0.01603030227124691,2.0330305099487305,5.360201406269827,-0.00015745511336717755,0.2557966709136963,-1.3104308287249964,-7.998659566510469e-05,-0.029255464673042297,1.582897424697876,0.0,0.00642180722206831,0.7428668141365051,0.0005342932417988777,0.038430579006671906
207.0,235.0,-3.728,-0.4576,8.8211,-0.0224,0.0156,-0.0903,-2.287706514398092,0.0006914064870215952,4.823093891143799,-1.3021289110183716,0.0188390351831913,2.022007465362549,5.360193240433492,-0.0001340077433269471,0.26594582200050354,-1.3104141394244593,-7.19888266758062e-05,-0.04129265993833542,1.5828447341918945,0.0,0.011893033050000668,0.7428750395774841,-0.0008122508879750967,0.008602487854659557
207.0,235.0,-3.728,-0.4576,8.8211,-0.0224,0.0156,-0.0903,-2.2877189121642054,0.000480420800158754,4.847732067108154,-1.301964282989502,0.020095614716410637,1.9782845973968506,5.360213267594137,-0.00011974301742156968,0.2635228633880615,-1.3103826681720179,-6.665696855634451e-05,-0.03393886983394623,1.5829293727874756,0.0,0.002864859765395522,0.7428791522979736,-0.0012169524561613798,0.05422220379114151
207.0,235.0,-3.728,-0.4576,8.8211,-0.0224,0.0156,-0.0903,-2.2876864872374476,0.00011592316150199622,4.782673358917236,-1.3017446994781494,0.022036632522940636,1.9762897491455078,5.360253321915426,-0.0001268162450287491,0.25319066643714905,-1.3104265371905726,-6.1008755437796935e-05,-0.03607005625963211,1.582800269126892,0.0,-0.005394667387008667,0.742782473564148,-0.0011006694985553622,0.03153271973133087
207.0,235.0,-3.728,-0.4576,8.8211,-0.0224,0.0156,-0.0903,-2.287743230859274,9.003261220641434e-05,4.8305230140686035,-1.301584005355835,0.023389797657728195,1.9980671405792236,5.360189187317648,-0.00011592738155741245,0.25006160140037537,-1.3104026953326624,-5.713562495657243e-05,-0.03224213421344757,1.582864761352539,0.0,-0.006698448210954666,0.7428233027458191,-0.0008431923342868686,-0.023269742727279663
207.0,235.0,-3.728,-0.4576,8.8211,-0.0224,0.0156,-0.0903,-2.287722726861471,7.201988773886114e-05,4.869755744934082,-1.3013111352920532,0.023941075429320335,1.9841244220733643,5.360197293549337,-0.00010468971595400944,0.2536035478115082,-1.3103869597064417,-5.2934967243345454e-05,-0.0187059435993433,1.582836389541626,0.0,0.0113323163241148,0.7427865862846375,-0.0006544803036376834,0.031021032482385635
207.0,235.0,-3.728,-0.4576,8.8211,-0.0224,0.0156,-0.0903,-2.287727018395895,9.002011938719079e-05,4.852524757385254,-1.3010512590408325,0.02629794552922249,2.0117673873901367,5.360205459385671,-9.543824853608385e-05,0.2564601004123688,-1.3103745619403284,-4.930968498229049e-05,-0.042399853467941284,1.5828287601470947,0.0,-0.001616816851310432,0.7427909970283508,-0.0012431427603587508,0.03930000960826874
207.0,235.0,-3.728,-0.4576,8.8211,-0.0224,0.0156,-0.0903,-2.2877146206297816,0.00010590223973849788,4.783130645751953,-1.300847053527832,0.028367843478918076,1.9790966510772705,5.360193240433492,-8.913660713005811e-05,0.2629309594631195,-1.3103826681720179,-4.674842057283968e-05,-0.02845570631325245,1.582780361175537,0.0,0.007643991615623236,0.7427307367324829,-0.0017707598162814975,0.030813265591859818
193.0,234.0,-3.9523,-0.667,9.3296,-0.0302,0.0505,-0.1118,-2.2877470455565394,7.473638106603175e-05,4.808672904968262,-1.30052649974823,0.03255190700292587,2.0111310482025146,5.360173213272848,-9.427102486370131e-05,0.2533583641052246,-1.3104108015643519,-4.3898169678868726e-05,-0.0257220808416605,1.582836389541626,0.0,0.0032206212636083364,0.7427311539649963,-0.0033049259800463915,-0.012586003169417381
193.0,234.0,-3.9523,-0.667,9.3296,-0.0302,0.0505,-0.1118,-2.2877470455565394,9.613719885237515e-05,4.8477983474731445,-1.300257682800293,0.035853736102581024,2.0418059825897217,5.360169160157003,-9.054166730493307e-05,0.25872427225112915,-1.310394589100973,-4.1856586904032156e-05,-0.017428094521164894,1.5828689336776733,0.0,0.002332630567252636,0.7426946759223938,-0.004522544797509909,0.015534200705587864
193.0,234.0,-3.9523,-0.667,9.3296,-0.0302,0.0505,-0.1118,-2.28773893932485,9.948234946932644e-05,4.794476509094238,-1.2998936176300049,0.040617264807224274,2.037536859512329,5.360149073391714,-9.653905726736411e-05,0.24038797616958618,-1.3104146162616175,-1.0163630577153526e-05,-0.021299973130226135,1.582852840423584,0.0,0.014952108263969421,0.7426062822341919,-0.0033595836721360683,-0.011001111008226871
193.0,234.0,-3.9523,-0.667,9.3296,-0.0302,0.0505,-0.1118,-2.287686964074606,0.0002745018573477864,4.851400375366211,-1.299513339996338,0.04677850753068924,2.0447351932525635,5.360189187317648,-9.047366620507091e-05,0.25438252091407776,-1.3103745619403284,-1.2060828898097231e-11,-0.015915879979729652,1.5828447341918945,0.0,0.0015246471157297492,0.7426628470420837,-0.0011207610368728638,0.00042209262028336525
193.0,234.0,-3.9523,-0.667,9.3296,-0.0302,0.0505,-0.1118,-2.287711282769674,0.0014605674659833312,4.807888031005859,-1.2990633249282837,0.051349569112062454,2.0755395889282227,5.360181498318472,-8.615862316219136e-05,0.258691668510437,-1.310422722493307,-2.1919961977855113e-16,-0.021341383457183838,1.582864761352539,0.0,0.010302195325493813,0.7426710724830627,-0.0007480322383344173,-0.01733640395104885
193.0,234.0,-3.9523,-0.667,9.3296,-0.0302,0.0505,-0.1118,-2.2876950703062953,0.0030023232102394104,4.80402135848999,-1.2985583543777466,0.05501259118318558,2.1246073246002197,5.360189187317648,-6.160759221529588e-05,0.2588161826133728,-1.3104146162616175,-4.85219020518457e-09,-0.022424276918172836,1.5828814506530762,0.0,-0.0030370294116437435,0.7426628470420837,-0.0004307465860620141,0.02709411457180977
193.0,234.0,-3.9523,-0.667,9.3296,-0.0302,0.0505,-0.1118,-2.287643095056051,0.0032060877420008183,4.849566459655762,-1.2980737686157227,0.055630553513765335,2.087716579437256,5.360205399781027,-5.840897574671544e-05,0.24601997435092926,-1.3103902975665491,-8.818616545553173e-14,-0.02703184448182583,1.5828568935394287,0.0,0.01126328855752945,0.7426508069038391,-7.852065664337715e-07,0.0033364342525601387
193.0,234.0,-3.9523,-0.667,9.3296,-0.0302,0.0505,-0.1118,-2.2875787220396937,0.005690389312803745,4.844637393951416,-1.2975608110427856,0.05167016759514809,2.0676982402801514,5.360197174340048,-5.484932262334041e-05,0.25095561146736145,-1.3103745619403284,-1.0464747878643876e-19,-0.022961946204304695,1.5828607082366943,0.0,-0.01116707269102335,0.742691159248352,-3.4130604980504874e-16,0.07329505681991577
193.0,234.0,-3.9523,-0.667,9.3296,-0.0302,0.0505,-0.1118,-2.2874747715392054,0.009109589271247387,4.846108913421631,-1.2970397472381592,0.051382970064878464,2.0668559074401855,5.360137629299917,-6.203250086400658e-05,0.261636346578598,-1.310406510029928,-1.2418155925351837e-25,-0.027226418256759644,1.5828487873077393,0.0,-0.014468993060290813,0.7426710724830627,-1.4835559772238572e-25,0.10808873176574707
193.0,234.0,-3.9523,-0.667,9.3296,-0.0302,0.0505,-0.1118,-2.2874518833556117,0.00994926318526268,4.848212242126465,-1.2966276407241821,0.05414291471242905,2.084178924560547,5.360173213272848,-1.773639269231353e-05,0.25416722893714905,-1.310378376637594,-2.2569384330703125e-30,-0.021158065646886826,1.582872986793518,0.0,-0.008008557371795177,0.7426992654800415,-4.8065335850329616e-33,0.0806165486574173
204.0,217.0,-3.8812,-0.283,9.0712,0.0095,0.058,-0.1049,-2.2873107395567835,0.009465078823268414,4.8641357421875,-1.2960786819458008,0.0612793006002903,2.038707733154297,5.360153722554006,-0.00015352370974142104,0.25855809450149536,-1.3104351202594202,-2.6782310397383192e-36,-0.05524541437625885,1.5827970504760742,0.0,-0.016724029555916786,0.7426508069038391,-2.0893360103083023e-42,0.13707035779953003
204.0,217.0,-3.8812,-0.283,9.0712,0.0095,0.058,-0.1049,-2.287223001519674,0.00853543821722269,4.898630142211914,-1.2955172061920166,0.06806968152523041,2.1106555461883545,5.360153841763296,-0.00018387040472589433,0.2565102279186249,-1.3103821913348597,-4.867550345678685e-41,-0.03835116699337959,1.5827687978744507,0.0,-0.025316614657640457,0.7427112460136414,0.0,0.19400228559970856
204.0,217.0,-3.8812,-0.283,9.0712,0.0095,0.058,-0.1049,-2.2871104679503382,0.00914433877915144,4.862656593322754,-1.2948168516159058,0.08160439878702164,2.0979278087615967,5.360133337765493,-0.0001713386591291055,0.258537232875824,-1.3103984037982386,-0.0,-0.060442134737968445,1.5828049182891846,0.0,-0.0409754253923893,0.7426669597625732,0.0,0.2048593908548355
204.0,217.0,-3.8812,-0.283,9.0712,0.0095,0.058,-0.1049,-2.287103315392965,0.009240732528269291,4.955472946166992,-1.2938621044158936,0.09397806227207184,2.1198737621307373,5.360109555512228,-0.00017237380961887538,0.25636470317840576,-1.3104265371905726,-0.0,-0.05384885147213936,1.5828368663787842,0.0,-0.025599129498004913,0.7426429986953735,0.0,0.20165769755840302
204.0,217.0,-3.8812,-0.283,9.0712,0.0095,0.058,-0.1049,-2.286954542199606,0.009208865463733673,4.912003040313721,-1.2931327819824219,0.09831169992685318,2.0987818241119385,5.360109555512228,-0.0002343241503695026,0.2656261622905731,-1.310378376637594,-0.0,-0.06469779461622238,1.5828368663787842,0.0,-0.015249435789883137,0.7426347732543945,0.0,0.29997894167900085
204.0,217.0,-3.8812,-0.283,9.0712,0.0095,0.058,-0.1049,-2.286858697930807,0.010835560038685799,4.925408363342285,-1.292123794555664,0.09742558002471924,2.159518003463745,5.360097336560049,-0.00018781298422254622,0.256849080324173,-1.3104427496539515,-0.00010572109022177756,-0.07055459916591644,1.5828289985656738,0.0,-0.04081355035305023,0.7426508069038391,2.2233934942050837e-05,0.3332720100879669
204.0,217.0,-3.8812,-0.283,9.0712,0.0095,0.058,-0.1049,-2.2867709598936976,0.01489905547350645,4.959787845611572,-1.291285753250122,0.1022212877869606,2.1466493606567383,5.360145556717672,-0.00016094020975288004,0.2530243396759033,-1.3103988806353968,-0.0001021178177325055,-0.056292708963155746,1.5828449726104736,0.0,-0.0455595925450325,0.7426871061325073,4.0467137296218425e-05,0.2981123924255371
204.0,217.0,-3.8812,-0.283,9.0712,0.0095,0.058,-0.1049,-2.2865950069823207,0.01715576834976673,4.995795249938965,-1.290300726890564,0.10823033004999161,2.18641996383667,5.360085534840383,-0.00021122879115864635,0.2745249271392822,-1.3104022184955042,-0.00012425977911334485,-0.08450101315975189,1.582852840423584,0.0,-0.03616514801979065,0.7426347732543945,0.0005048726452514529,0.3729809820652008
204.0,217.0,-3.8812,-0.283,9.0712,0.0095,0.058,-0.1049,-2.2864910564818324,0.013533211313188076,4.962820053100586,-1.2891457080841064,0.12070806324481964,2.191408395767212,5.360121774464407,-0.00034959253389388323,0.2703368067741394,-1.3104141394244593,-0.00027898751432076097,-0.07331062108278275,1.5827770233154297,-0.0001271729706786573,-0.02978917770087719,0.7427029013633728,0.0010182622354477644,0.388980507850647
189.0,206.0,-4.0714,-0.5366,8.8146,0.0353,0.0956,-0.0904,-2.2864676914610804,0.00939871370792389,4.9564409255981445,-1.2881163358688354,0.12870387732982635,2.2466444969177246,5.360069858818807,-0.001094495179131627,0.2551228404045105,-1.310406510029928,-0.00027983172913081944,-0.09093360602855682,1.58278489112854,-0.00013665860751643777,-0.04539800435304642,0.7427030205726624,0.0011467956937849522,0.44226905703544617
189.0,206.0,-4.0714,-0.5366,8.8146,0.0353,0.0956,-0.0904,-2.286246439019674,0.006334887817502022,4.96812105178833,-1.286870002746582,0.12876150012016296,2.2043845653533936,5.3600860116775415,-0.0006332441698759794,0.2532367706298828,-1.3104427496539515,-0.00026281410828232765,-0.08430646359920502,1.5828371047973633,-0.00014259025920182467,-0.047766923904418945,0.7426987886428833,0.0023856847546994686,0.42608189582824707
189.0,206.0,-4.0714,-0.5366,8.8146,0.0353,0.0956,-0.0904,-2.2863031826415003,0.009362644515931606,4.978415012359619,-1.2858392000198364,0.13347980380058289,2.2325387001037598,5.360065924912252,-0.0004308599163778126,0.27556362748146057,-1.3104470411883753,-0.0003139814070891589,-0.09306386113166809,1.582801103591919,-0.00014913569611962885,-0.041158728301525116,0.7427229285240173,0.00628180056810379,0.452703058719635
189.0,206.0,-4.0714,-0.5366,8.8146,0.0353,0.0956,-0.0904,-2.286131044427389,0.010697448626160622,4.997786521911621,-1.2845706939697266,0.13993912935256958,2.251009941101074,5.360118138581075,-0.00041138895903714,0.2573745846748352,-1.3104103247271937,-0.0004074056341778487,-0.08769620954990387,1.5828372240066528,-0.0001815225841710344,-0.05724840238690376,0.7428230047225952,0.009068693965673447,0.5189021229743958
189.0,206.0,-4.0714,-0.5366,8.8146,0.0353,0.0956,-0.0904,-2.2861434421935023,0.006541314069181681,5.011813163757324,-1.2833658456802368,0.14794255793094635,2.2380564212799072,5.360053765564718,-0.000371950474800542,0.27960753440856934,-1.310434643422262,-0.0004849754914175719,-0.09275484085083008,1.5827809572219849,-0.00019139099458698183,-0.057235267013311386,0.742939293384552,0.011184503324329853,0.5398145318031311
189.0,206.0,-4.0714,-0.5366,8.8146,0.0353,0.0956,-0.0904,-2.286147256890768,0.00029272097162902355,4.995829105377197,-1.2818771600723267,0.1476583182811737,2.257535219192505,5.360034096031942,-0.0022225913126021624,0.25847458839416504,-1.3104589621173304,-0.0005912691703997552,-0.09257835149765015,1.5828368663787842,-0.00018725234258454293,-0.05001658946275711,0.7430347800254822,0.014294890686869621,0.6365029811859131
189.0,206.0,-4.0714,-0.5366,8.8146,0.0353,0.0956,-0.0904,-2.286107679406637,0.0003167825925629586,5.003156661987305,-1.2803409099578857,0.1483682245016098,2.291327953338623,5.359985816269674,-0.0018272746820002794,0.2670448422431946,-1.3104708830462855,-0.0004784652846865356,-0.10481245815753937,1.582817554473877,-0.00016112883167807013,-0.058946698904037476,0.7431870698928833,0.015184069983661175,0.6058241128921509
189.0,206.0,-4.0714,-0.5366,8.8146,0.0353,0.0956,-0.0904,-2.28606714824819,0.00017712188127916306,4.982224464416504,-1.2791162729263306,0.15027503669261932,2.2487406730651855,5.359969603806295,-0.00320099713280797,0.24951565265655518,-1.3104708830462855,-0.0003981813497375697,-0.09691520035266876,1.5827685594558716,-0.00014394699246622622,-0.05019509792327881,0.7433553338050842,0.014882243238389492,0.6421393752098083
189.0,206.0,-4.0714,-0.5366,8.8146,0.0353,0.0956,-0.0904,-2.2861033878722132,0.0002912638010457158,5.020349979400635,-1.2775800228118896,0.1564229130744934,2.245363473892212,5.359902131348409,-0.005429895594716072,0.25633835792541504,-1.3104427496539515,-0.0003029532090295106,-0.09930706769227982,1.5827643871307373,-0.00013742176815867424,-0.04392367601394653,0.7434790134429932,0.015696054324507713,0.6064473390579224
189.0,206.0,-4.0714,-0.5366,8.8146,0.0353,0.0956,-0.0904,-2.286074777642721,0.00023137869720812887,4.98179817199707,-1.276371955871582,0.15448258817195892,2.2505176067352295,5.359874474793234,-0.00567565718665719,0.25424692034721375,-1.3104427496539515,-0.0002884270215872675,-0.10970532894134521,1.582744836807251,-0.00013544209650717676,-0.05113513767719269,0.7436271905899048,0.018019597977399826,0.611451268196106
176.0,209.0,-4.3699,-0.213,8.8373,0.0588,0.1378,-0.0597,-2.286135335961813,0.00018405611626803875,5.033440113067627,-1.2747671604156494,0.1600314825773239,2.290510416030884,5.359874474793234,-0.0031413889955729246,0.2634057402610779,-1.310474697743551,-0.0002723009674809873,-0.10423023998737335,1.5827769041061401,-0.00012229563435539603,-0.045432209968566895,0.7437990307807922,0.020473333075642586,0.697912871837616
176.0,209.0,-4.3699,-0.213,8.8373,0.0588,0.1378,-0.0597,-2.286119600335592,0.00012224618694745004,4.961936950683594,-1.2732198238372803,0.15730789303779602,2.2453086376190186,5.359786855965414,-0.001981958979740739,0.2686673700809479,-1.3104546705829065,-0.00024290280998684466,-0.09758917987346649,1.5828254222869873,-0.00012740066449623555,-0.06868758797645569,0.7440351247787476,0.02141527086496353,0.6119252443313599
176.0,209.0,-4.3699,-0.213,8.8373,0.0588,0.1378,-0.0597,-2.286131521264547,0.00010762544116005301,4.97921085357666,-1.271918535232544,0.15537190437316895,2.2579801082611084,5.35977070310668,-0.0013747236225754023,0.2562691867351532,-1.3104708830462855,-0.00023437420895788819,-0.11208527535200119,1.5828052759170532,-0.00011897956574102864,-0.0587795116007328,0.7441464066505432,0.025153089314699173,0.6980101466178894
176.0,209.0,-4.3699,-0.213,8.8373,0.0588,0.1378,-0.0597,-2.2861153088011683,9.362951095681638e-05,5.009422302246094,-1.2703584432601929,0.15472353994846344,2.2685508728027344,5.359758782177725,-0.0006322829867713153,0.25017356872558594,-1.3104146162616175,-0.00019616396457422525,-0.0941142663359642,1.582852840423584,-0.00010989901784341782,-0.05107289180159569,0.7444629073143005,0.027510857209563255,0.6828235387802124
176.0,209.0,-4.3699,-0.213,8.8373,0.0588,0.1378,-0.0597,-2.286147256890768,8.480683027300984e-05,5.017963409423828,-1.2690980434417725,0.157488152384758,2.3153562545776367,5.359791028290548,-0.0005446301656775177,0.2723361849784851,-1.3104589621173304,-0.00017127343744505197,-0.11013934016227722,1.5827934741973877,-0.00010357508290326223,-0.052884168922901154,0.7446905374526978,0.0331035740673542,0.7258297204971313
176.0,209.0,-4.3699,-0.213,8.8373,0.0588,0.1378,-0.0597,-2.2861153088011683,7.587022264488041e-05,5.018678665161133,-1.2675424814224243,0.16131159663200378,2.312704086303711,5.35976259687499,-0.00044439834891818464,0.2663980722427368,-1.3104260603534144,-0.00014782768266741186,-0.09852078557014465,1.5828372240066528,-9.662509546615183e-05,-0.04398413375020027,0.7450225949287415,0.0420709066092968,0.6806193590164185
176.0,209.0,-4.3699,-0.213,8.8373,0.0588,0.1378,-0.0597,-2.286159654656881,4.2115359974559397e-05,5.031406402587891,-1.2659742832183838,0.1539662480354309,2.2656912803649902,5.359762775688925,-0.00043606909457594156,0.2790704071521759,-1.3104384581195276,-0.00013002865307498723,-0.09650050103664398,1.5827934741973877,-9.054921247297898e-05,-0.053922928869724274,0.7455106973648071,0.05032951384782791,0.6982301473617554
176.0,209.0,-4.3699,-0.213,8.8373,0.0588,0.1378,-0.0597,-2.2861272297301234,3.851111978292465e-05,4.993952751159668,-1.2647372484207153,0.15610384941101074,2.2898528575897217,5.359766948014059,-0.00088647281518206,0.2620508670806885,-1.3104828039752405,-9.950783714884892e-05,-0.09556427597999573,1.5827643871307373,-8.621227607363835e-05,-0.04120828956365585,0.7459231019020081,0.054603610187768936,0.6276410818099976
176.0,209.0,-4.3699,-0.213,8.8373,0.0588,0.1378,-0.0597,-2.286163946191305,3.478950748103671e-05,4.965666770935059,-1.2632097005844116,0.15653716027736664,2.2538001537323,5.3597309468086145,-0.001062724506482482,0.2635177969932556,-1.3104384581195276,-8.906668517738581e-05,-0.09287908673286438,1.5827970504760742,-8.134236122714356e-05,-0.05413838475942612,0.7465270757675171,0.056907784193754196,0.6554902195930481
176.0,209.0,-4.3699,-0.213,8.8373,0.0588,0.1378,-0.0597,-2.2861391506590785,1.6146832422236912e-05,4.984530448913574,-1.261928677558899,0.15204627811908722,2.316573143005371,5.359763431340017,-0.0013860546750947833,0.2608417868614197,-1.3104470411883753,-8.252379484474659e-05,-0.07760653644800186,1.5827324390411377,-3.391129439478391e-07,-0.06768205761909485,0.7469586133956909,0.05897996574640274,0.5398895144462585
162.0,210.0,-4.5033,-0.4403,8.5711,0.0525,0.1335,-0.0415,-2.2861391506590785,1.4817346709605772e-05,4.9402289390563965,-1.2603838443756104,0.14162993431091309,2.277184009552002,5.359751450806417,-0.0014135993551462889,0.25171923637390137,-1.3104103247271937,-6.0540605772985145e-05,-0.08578618615865707,1.5828372240066528,-4.0241361675200094e-13,-0.05298576503992081,0.7476107478141785,0.06259904056787491,0.5765300989151001
162.0,210.0,-4.5033,-0.4403,8.5711,0.0525,0.1335,-0.0415,-2.2861153088011683,2.7380794563214295e-05,4.982254981994629,-1.2590079307556152,0.14060676097869873,2.230888843536377,5.359738993435659,-0.0015163760399445891,0.2641925513744354,-1.3104708830462855,-1.4769026002170449e-09,-0.07626377791166306,1.5827929973602295,-4.775303336510972e-19,-0.0567881241440773,0.7482262253761292,0.06406126171350479,0.5440248250961304
162.0,210.0,-4.5033,-0.4403,8.5711,0.0525,0.1335,-0.0415,-2.2861434421935023,1.7312864656560123e-05,4.95648717880249,-1.257859706878662,0.14868928492069244,2.3205182552337646,5.3596792099769495,-0.0014345988165587187,0.24929845333099365,-1.3104546705829065,-2.6841972654984003e-14,-0.07608357071876526,1.5828051567077637,-8.678878863007855e-24,-0.054937414824962616,0.7487180829048157,0.062274422496557236,0.5440073013305664
162.0,210.0,-4.5033,-0.4403,8.5711,0.0525,0.1335,-0.0415,-2.2861629925169886,1.9096146885999588e-08,4.962368011474609,-1.256398320198059,0.14591112732887268,2.2899630069732666,5.359703528672018,-0.0023007330019026995,0.2637128233909607,-1.3104589621173304,-3.1852437718035504e-20,-0.07344673573970795,1.5827810764312744,-1.0298923919305665e-29,-0.05103236436843872,0.7493903040885925,0.0582871213555336,0.5462034344673157
162.0,210.0,-4.5033,-0.4403,8.5711,0.0525,0.1335,-0.0415,-2.2861515484251917,6.186909170642293e-16,4.953784942626953,-1.2553423643112183,0.13775289058685303,2.230414390563965,5.359688508301534,-0.004094382748007774,0.24739518761634827,-1.3104503790484827,-5.7890237054901205e-25,-0.08325270563364029,1.5828211307525635,-1.8717787996945657e-34,-0.047411177307367325,0.7498659491539001,0.061146508902311325,0.5406730771064758
162.0,210.0,-4.5033,-0.4403,8.5711,0.0525,0.1335,-0.0415,-2.2861629925169886,2.6892655293865917e-25,4.933908939361572,-1.2539255619049072,0.1336192935705185,2.2460837364196777,5.359632777958669,-0.0047338008880615234,0.2596645951271057,-1.3104708830462855,-6.8696336549907794e-31,-0.0766901820898056,1.5827767848968506,-3.835713869193569e-06,-0.038632653653621674,0.7505300045013428,0.06798186898231506,0.5665373802185059
162.0,210.0,-4.5033,-0.4403,8.5711,0.0525,0.1335,-0.0415,-2.286126752892965,1.1689438396757082e-34,4.953408241271973,-1.2525522708892822,0.13478019833564758,2.2298784255981445,5.359539973526754,-0.00511894142255187,0.24866501986980438,-1.310418430958883,-8.151957182667523e-37,-0.07867905497550964,1.5827648639678955,-4.5517088362312386e-12,-0.05835232883691788,0.751181960105896,0.07253900170326233,0.5967705845832825
162.0,210.0,-4.5033,-0.4403,8.5711,0.0525,0.1335,-0.0415,-2.286175390283102,3.7877097490699805e-42,4.964820384979248,-1.2514792680740356,0.13649798929691315,2.2652719020843506,5.359544861107626,-0.005306742619723082,0.25345247983932495,-1.3104303518878382,-1.481592866330629e-41,-0.07627523690462112,1.5827769041061401,-8.272506912945232e-17,-0.0478070005774498,0.7517334222793579,0.07349508255720139,0.5755919814109802
162.0,210.0,-4.5033,-0.4403,8.5711,0.0525,0.1335,-0.0415,-2.2861391506590785,0.0,4.99568510055542,-1.2501909732818604,0.12585529685020447,2.2804648876190186,5.359395968704977,-0.006639446131885052,0.24576005339622498,-1.3104427496539515,-0.0,-0.08052295446395874,1.5828372240066528,-9.816696176185726e-23,-0.06759705394506454,0.7524852156639099,0.07427748292684555,0.5680153965950012
162.0,210.0,-4.5033,-0.4403,8.5711,0.0525,0.1335,-0.0415,-2.286187311212057,0.0,4.945976257324219,-1.2492380142211914,0.11916959285736084,2.244774341583252,5.359332251339712,-0.007618111092597246,0.25593245029449463,-1.3104060331927698,-0.0,-0.08031823486089706,1.5827891826629639,-1.7841360485336478e-27,-0.05163048952817917,0.7530813813209534,0.0779862254858017,0.5468190312385559
155.0,216.0,-4.322,-0.0676,8.662,0.022,0.1141,-0.0255,-2.286147256890768,0.0,4.962149143218994,-1.2479925155639648,0.11088787019252777,2.194894313812256,5.359248566418447,-0.008615121245384216,0.25093644857406616,-1.3104351202594202,-0.0,-0.07248608767986298,1.5828135013580322,-2.11717240601946e-33,-0.055509597063064575,0.753853440284729,0.07433662563562393,0.5726787447929382
155.0,216.0,-4.322,-0.0676,8.662,0.022,0.1141,-0.0255,-2.2861997089781703,0.0,4.977504253387451,-1.2469230890274048,0.10843468457460403,2.229748487472534,5.359112667828359,-0.009728665463626385,0.24532800912857056,-1.3104708830462855,-0.0,-0.09176705777645111,1.5828135013580322,-0.00015275468467734754,-0.05470383167266846,0.7545366883277893,0.06254637241363525,0.5531764030456543
155.0,216.0,-4.322,-0.0676,8.662,0.022,0.1141,-0.0255,-2.286154886285299,0.0,4.971902370452881,-1.2461262941360474,0.10351526737213135,2.2367687225341797,5.359101462155142,-0.0101260831579566,0.22963383793830872,-1.3104351202594202,-0.0,-0.07534932345151901,1.582756519317627,-0.00016544382378924638,-0.06781324744224548,0.7550727725028992,0.05921388790011406,0.5567582845687866
155.0,216.0,-4.322,-0.0676,8.662,0.022,0.1141,-0.0255,-2.286187788049215,0.0,4.988276481628418,-1.2450761795043945,0.0934205874800682,2.2280757427215576,5.359026956349172,-0.010840943083167076,0.22640308737754822,-1.3104384581195276,-0.0,-0.08163902908563614,1.582732915878296,-0.00016588061407674104,-0.07323571294546127,0.7556962966918945,0.06730871647596359,0.5705689191818237
155.0,216.0,-4.322,-0.0676,8.662,0.022,0.1141,-0.0255,-2.2861391506590785,0.0,5.018579006195068,-1.2443821430206299,0.09031864255666733,2.1764142513275146,5.358899044781484,-0.011945167556405067,0.2281501591205597,-1.3104546705829065,-0.0,-0.09664314985275269,1.5827934741973877,-0.0001620143448235467,-0.0720260739326477,0.7562083601951599,0.06815888732671738,0.5731886029243469
155.0,216.0,-4.322,-0.0676,8.662,0.022,0.1141,-0.0255,-2.2861672840514125,0.0,4.951344013214111,-1.243524193763733,0.08334692567586899,2.247523546218872,5.358699011593618,-0.01416055765002966,0.22147449851036072,-1.3104427496539515,-0.0,-0.09577763080596924,1.5827608108520508,-0.00015445465396624058,-0.07602885365486145,0.7568277716636658,0.06484456360340118,0.5929443836212158
155.0,216.0,-4.322,-0.0676,8.662,0.022,0.1141,-0.0255,-2.286191602746481,0.0,5.017217636108398,-1.2427150011062622,0.08070006966590881,2.2504377365112305,5.3585519073303125,-0.018554626032710075,0.20451657474040985,-1.3104670683490198,-0.0,-0.09932207316160202,1.5827009677886963,-0.0001871259737526998,-0.06701914221048355,0.7575644850730896,0.06262091547250748,0.6400319933891296
155.0,216.0,-4.322,-0.0676,8.662,0.022,0.1141,-0.0255,-2.286147256890768,0.0,4.976819038391113,-1.2421002388000488,0.0782594308257103,2.190615653991699,5.358356404095449,-0.02749674580991268,0.21705003082752228,-1.3104670683490198,-0.0,-0.08691057562828064,1.5827730894088745,-0.0001922332012327388,-0.07270491123199463,0.7580115795135498,0.06471659988164902,0.6658462285995483
155.0,216.0,-4.322,-0.0676,8.662,0.022,0.1141,-0.0255,-2.286107202569479,0.0,4.954387664794922,-1.2413427829742432,0.07272175699472427,2.25655460357666,5.358006286412039,-0.04575466737151146,0.19935084879398346,-1.3104265371905726,-0.0,-0.10713391751050949,1.5827608108520508,-0.00018969034135807306,-0.07805298268795013,0.7586881518363953,0.0639076828956604,0.6768625974655151
155.0,216.0,-4.322,-0.0676,8.662,0.022,0.1141,-0.0255,-2.286131044427389,0.0,4.990708351135254,-1.2408002614974976,0.06310124695301056,2.2270870208740234,5.3574872491653345,-0.07607021927833557,0.1927524209022522,-1.3104427496539515,-0.0,-0.09526295214891434,1.5827168226242065,-0.00017004179244395345,-0.08555944263935089,0.7591598033905029,0.056427210569381714,0.6506390571594238
153.0,210.0,-4.2867,0.0251,8.9599,-0.004,0.0953,-0.0434,-2.2861272297301234,0.0,4.964260101318359,-1.2401936054229736,0.05787292867898941,2.1953840255737305,5.356463777809896,-0.12007973343133926,0.16733476519584656,-1.3104427496539515,-0.0,-0.10108523815870285,1.5827730894088745,-0.00017121843120548874,-0.07521063089370728,0.7597037553787231,0.04744214937090874,0.6674866676330566
153.0,210.0,-4.2867,0.0251,8.9599,-0.004,0.0953,-0.0434,-2.2861558399596156,0.0,4.974292278289795,-1.239674687385559,0.057982247322797775,2.1951324939727783,5.355447280197897,-0.1317739337682724,0.15765324234962463,-1.3103984037982386,-0.0,-0.1009635180234909,1.5827610492706299,-0.00015635132149327546,-0.08062830567359924,0.7600631713867188,0.04889124631881714,0.6252074241638184
153.0,210.0,-4.2867,0.0251,8.9599,-0.004,0.0953,-0.0434,-2.2861792049803675,0.0,5.015467643737793,-1.2391636371612549,0.0603497289121151,2.2218143939971924,5.354048895626821,-0.1545993536710739,0.15529344975948334,-1.3104308287249964,-0.0,-0.10474111139774323,1.5827767848968506,-0.00014229075168259442,-0.09912040829658508,0.760635256767273,0.05064331367611885,0.6184074878692627
153.0,210.0,-4.2867,0.0251,8.9599,-0.004,0.0953,-0.0434,-2.286215444604391,-1.8835773516912013e-05,4.962402820587158,-1.2385097742080688,0.05898210406303406,2.2152023315429688,5.352219748287954,-0.19495689868927002,0.11340499669313431,-1.3103941122638147,-0.0,-0.0965014323592186,1.5827412605285645,-0.00014743681822437793,-0.09196849167346954,0.7610991597175598,0.049465324729681015,0.6460675001144409
153.0,210.0,-4.2867,0.0251,8.9599,-0.004,0.0953,-0.0434,-2.286187311212057,-1.6263787191994616e-11,4.960022926330566,-1.2380911111831665,0.05672677233815193,2.2077009677886963,5.350617992668905,-0.21343477070331573,0.11469611525535583,-1.3104103247271937,-0.0,-0.09412720054388046,1.5827492475509644,-0.00015507094212807715,-0.08441796898841858,0.7614707350730896,0.04667910188436508,0.6061647534370422
153.0,210.0,-4.2867,0.0251,8.9599,-0.004,0.0953,-0.0434,-2.286163946191305,-7.069386821878645e-21,4.918656349182129,-1.2375202178955078,0.05539604276418686,2.1646127700805664,5.348251509457388,-0.2600609064102173,0.09329643845558167,-1.3104141394244593,-0.0,-0.08272667229175568,1.5826443433761597,-0.00015779772365931422,-0.08120080083608627,0.7619827389717102,0.044315069913864136,0.6039252877235413
153.0,210.0,-4.2867,0.0251,8.9599,-0.004,0.0953,-0.0434,-2.2861834965147914,-2.290391241874375e-28,4.973267078399658,-1.237109661102295,0.05655873194336891,2.234722137451172,5.346052217274465,-0.31214067339897156,0.07200953364372253,-1.3104103247271937,-0.0,-0.08934362232685089,1.582733154296875,-0.0001978280779439956,-0.09992584586143494,0.7623104453086853,0.040877655148506165,0.5806804895401001
153.0,210.0,-4.2867,0.0251,8.9599,-0.004,0.0953,-0.0434,-2.286102911035055,-8.188550418708473e-05,5.018699645996094,-1.2364628314971924,0.06054823473095894,2.212822198867798,5.342686402588644,-0.35466358065605164,0.05340904742479324,-1.310450855885641,-0.0,-0.11695602536201477,1.5826976299285889,-0.0001962604292202741,-0.10386915504932404,0.7627066373825073,0.03624381124973297,0.6236106157302856
153.0,210.0,-4.2867,0.0251,8.9599,-0.004,0.0953,-0.0434,-2.286102911035055,-3.3355980121996254e-05,4.962405204772949,-1.235896348953247,0.06160463020205498,2.2218642234802246,5.338861214905538,-0.40723761916160583,0.021783098578453064,-1.3104551474200647,-0.0,-0.11228924989700317,1.5827378034591675,-0.00022138131316751242,-0.111970454454422,0.7630307078361511,0.03167479857802391,0.6127921342849731
152.0,200.0,-5.3169,0.527,8.9198,-0.161,-0.0672,-0.1323,-2.286187788049215,-5.4678446758771315e-05,4.9798383712768555,-1.2354016304016113,0.06003297120332718,2.222066640853882,5.3354201195533655,-0.4520992636680603,0.014211674220860004,-1.3104141394244593,-0.0,-0.10451644659042358,1.5827410221099854,-0.00034136694739572704,-0.11810532212257385,0.7633354663848877,0.029915492981672287,0.6818963885307312
152.0,200.0,-5.3169,0.527,8.9198,-0.161,-0.0672,-0.1323,-2.2861958942809046,-5.0025046220980585e-05,4.963783264160156,-1.234758734703064,0.058143917471170425,2.200078010559082,5.330515789776602,-0.5011259317398071,-0.00021494321117643267,-1.3104708830462855,-0.0,-0.11172010004520416,1.5826809406280518,-0.00031305881566368043,-0.11738445609807968,0.7635951638221741,0.03217179328203201,0.6320496201515198
152.0,200.0,-5.3169,0.527,8.9198,-0.161,-0.0672,-0.1323,-2.2861834965147914,-6.722070247633383e-05,4.951056480407715,-1.2343608140945435,0.05995296314358711,2.2143619060516357,5.326249527722158,-0.5493918657302856,-0.022046126425266266,-1.3104427496539515,-0.0,-0.11296263337135315,1.5826566219329834,-0.00033549004001542926,-0.10496605187654495,0.7638754844665527,0.031941644847393036,0.644580602645874
152.0,200.0,-5.3169,0.527,8.9198,-0.161,-0.0672,-0.1323,-2.2861997089781703,-6.002399459248409e-05,5.000667572021484,-1.23374605178833,0.06402374804019928,2.2412564754486084,5.32042824009017,-0.5979345440864563,-0.0012570037506520748,-1.3104265371905726,-0.0,-0.10222788155078888,1.5826690196990967,-0.00036854189238511026,-0.12476293742656708,0.7641918063163757,0.031071435660123825,0.582371175289154
152.0,200.0,-5.3169,0.527,8.9198,-0.161,-0.0672,-0.1323,-2.2861749134459437,-7.202594133559614e-05,4.99829626083374,-1.233095407485962,0.0687059536576271,2.2233595848083496,5.314322519093313,-0.6428042054176331,-0.028342440724372864,-1.310462776814596,-0.0,-0.10444970428943634,1.5827052593231201,-0.0004418940516188741,-0.13278329372406006,0.76447594165802,0.028475578874349594,0.6158811450004578
152.0,200.0,-5.3169,0.527,8.9198,-0.161,-0.0672,-0.1323,-2.286171098748678,-6.916308484505862e-05,4.973304748535156,-1.2324769496917725,0.07626484334468842,2.2609782218933105,5.309044527798452,-0.6660307049751282,-0.0024991563986986876,-1.3103941122638147,-0.0,-0.11793415248394012,1.5827252864837646,-0.0003823234583251178,-0.12286591529846191,0.7646875977516174,0.026019185781478882,0.5841561555862427
152.0,200.0,-5.3169,0.527,8.9198,-0.161,-0.0672,-0.1323,-2.2862311802306117,-6.822058639954776e-05,4.971931457519531,-1.231727123260498,0.08141843229532242,2.235182285308838,5.3021854040916345,-0.699005126953125,-0.005634625442326069,-1.310406510029928,-0.0,-0.10636093467473984,1.5826685428619385,-0.0003294097841717303,-0.1346244513988495,0.7649282217025757,0.024980323389172554,0.5689976811408997
152.0,200.0,-5.3169,0.527,8.9198,-0.161,-0.0672,-0.1323,-2.2861949406065882,-8.261141192633659e-05,4.932716369628906,-1.2309962511062622,0.08204743266105652,2.2624459266662598,5.296512532025137,-0.7122119665145874,0.011865494772791862,-1.3104427496539515,-0.0,-0.09774919599294662,1.5827171802520752,-0.0003112862177658826,-0.12652988731861115,0.7651646137237549,0.022114655002951622,0.5456463098526001
152.0,200.0,-5.3169,0.527,8.9198,-0.161,-0.0672,-0.1323,-2.2861997089781703,-0.00010517814371269196,4.987114906311035,-1.2302427291870117,0.0747094601392746,2.2167210578918457,5.2894978998001,-0.7059701085090637,0.013283887878060341,-1.3104427496539515,-0.0,-0.10106253623962402,1.5826205015182495,-0.00025598015054129064,-0.11624471098184586,0.7653929591178894,0.022592851892113686,0.4915263056755066
152.0,200.0,-5.3169,0.527,8.9198,-0.161,-0.0672,-0.1323,-2.286147256890768,-8.054061417794856e-09,4.992910385131836,-1.2295328378677368,0.07291458547115326,2.2833352088928223,5.282621907978811,-0.6857073307037354,0.028120256960392,-1.3104265371905726,-0.0,-0.08973774313926697,1.5827096700668335,-0.00018567437655292451,-0.11852259933948517,0.7656455039978027,0.025541728362441063,0.5088354349136353
147.0,192.0,-4.081,-0.2124,8.9252,-0.4417,-0.4169,-0.272,-2.2861515484251917,-2.6094136371457364e-16,5.0015549659729,-1.2289060354232788,0.07480883598327637,2.1977005004882812,5.277261900692739,-0.6601779460906982,0.009643507190048695,-1.3104708830462855,-0.0,-0.10423910617828369,1.5826606750488281,-0.00015932113456074148,-0.11588075757026672,0.7658090591430664,0.03085656277835369,0.49754297733306885
147.0,192.0,-4.081,-0.2124,8.9252,-0.4417,-0.4169,-0.272,-2.28611483196401,-1.1342348098451847e-25,4.950371742248535,-1.228140115737915,0.07924942672252655,2.255283832550049,5.270894872933187,-0.6264880299568176,0.011241458356380463,-1.3104265371905726,-0.0,-0.1086641252040863,1.5826730728149414,-0.00013535705511458218,-0.11194315552711487,0.7661976218223572,0.03785787895321846,0.47107237577438354
147.0,192.0,-4.081,-0.2124,8.9252,-0.4417,-0.4169,-0.272,-2.2862235508360804,-3.674775705584925e-33,4.978143692016602,-1.227489709854126,0.08259589225053787,2.246507167816162,5.266058730870046,-0.5957810282707214,0.0028547407127916813,-1.3104308287249964,-0.0,-0.10078984498977661,1.5826892852783203,-0.00012081921158824116,-0.12549538910388947,0.7664612531661987,0.040512505918741226,0.5004362463951111
147.0,192.0,-4.081,-0.2124,8.9252,-0.4417,-0.4169,-0.272,-2.2861911259093226,-1.5974802493302915e-42,4.965543746948242,-1.2267361879348755,0.08663283288478851,2.1878490447998047,5.260424244194784,-0.5551607012748718,0.011387345381081104,-1.310462776814596,-9.696801583913839e-09,-0.09885595738887787,1.5828096866607666,-0.00012502125173341483,-0.11797665059566498,0.7668657302856445,0.03968087583780289,0.44389063119888306
147.0,192.0,-4.081,-0.2124,8.9252,-0.4417,-0.4169,-0.272,-2.2861911259093226,-0.0007257020333781838,4.972134590148926,-1.2258377075195312,0.08368952572345734,2.2080078125,5.255152928620138,-0.5099645256996155,0.020371142774820328,-1.3104427496539515,0.00012367035378701985,-0.08854544907808304,1.5827052593231201,-0.00012842427531722933,-0.10822923481464386,0.7672621011734009,0.03599957749247551,0.4325173497200012
147.0,192.0,-4.081,-0.2124,8.9252,-0.4417,-0.4169,-0.272,-2.286187311212057,-0.000295958569040522,4.9355621337890625,-1.2251757383346558,0.0772835835814476,2.19325590133667,5.2512961504753015,-0.4700959324836731,0.010794529691338539,-1.3104427496539515,8.230617076776525e-09,-0.08830879628658295,1.5826730728149414,-0.00014034449122846127,-0.12206112593412399,0.767558217048645,0.03205295652151108,0.41478919982910156
147.0,192.0,-4.081,-0.2124,8.9252,-0.4417,-0.4169,-0.272,-2.286171098748678,0.0004391796828713268,4.987823486328125,-1.2244263887405396,0.07297936826944351,2.171389102935791,5.246821868210592,-0.4231511354446411,0.06003187596797943,-1.310462776814596,9.766986989957673e-15,-0.09248808026313782,1.5826489925384521,-0.0005780996871180832,-0.12076424062252045,0.7679026126861572,0.029667150229215622,0.4407889246940613
147.0,192.0,-4.081,-0.2124,8.9252,-0.4417,-0.4169,-0.272,-2.286135335961813,0.0013341113226488233,5.014134883880615,-1.2238273620605469,0.07737760990858078,2.1844546794891357,5.243570494442739,-0.38469749689102173,0.05656922981142998,-1.3104870955096644,1.775101547946153e-19,-0.10907288640737534,1.5826730728149414,-0.002822029171511531,-0.1205485612154007,0.7681225538253784,0.029696227982640266,0.47378668189048767
147.0,192.0,-4.081,-0.2124,8.9252,-0.4417,-0.4169,-0.272,-2.2861391506590785,0.0007044248632155359,5.003607749938965,-1.223061442375183,0.08437016606330872,2.207033157348633,5.240004169731893,-0.32678869366645813,0.08256546407938004,-1.3104708830462855,2.106451641342848e-25,-0.10168617963790894,1.582561731338501,-0.01712479256093502,-0.1312440037727356,0.7684390544891357,0.030051525682210922,0.4339936375617981
147.0,192.0,-4.081,-0.2124,8.9252,-0.4417,-0.4169,-0.272,-2.286175390283102,1.2126713500038022e-06,4.992537975311279,-1.2221760749816895,0.09162140637636185,2.237077236175537,5.237049031048574,-0.2618362605571747,0.12519697844982147,-1.3104384581195276,2.4996532370941996e-31,-0.0959724634885788,1.5824224948883057,-0.01881922036409378,-0.13621243834495544,0.768815815448761,0.03395570442080498,0.4958818256855011
133.0,185.0,-2.9635,-0.7561,8.7996,-0.2665,-0.2735,-0.2053,-2.286243577996725,-0.001677239779382944,4.984273910522461,-1.22147798538208,0.09386599063873291,2.23553466796875,5.23503868558959,-0.2347937822341919,0.14899343252182007,-1.3104708830462855,4.542996527608206e-36,-0.10638225823640823,1.5822861194610596,-0.0076257516629993916,-0.13370415568351746,0.7690597176551819,0.03614199161529541,0.5058773756027222
133.0,185.0,-2.9635,-0.7561,8.7996,-0.2665,-0.2735,-0.2053,-2.2862636051573695,-0.0016490793786942959,5.008495330810547,-1.2205331325531006,0.08893388509750366,2.224468946456909,5.2330930707748315,-0.17975454032421112,0.1599370539188385,-1.3104427496539515,5.390795192257571e-42,-0.09749038517475128,1.5822861194610596,-0.0005523175932466984,-0.12931321561336517,0.7694162726402283,0.03590896725654602,0.5098866820335388
133.0,185.0,-2.9635,-0.7561,8.7996,-0.2665,-0.2735,-0.2053,-2.2862187824644984,-0.0009289217414334416,5.004550933837891,-1.2198350429534912,0.079280786216259,2.1992602348327637,5.231812882214346,-0.1428939551115036,0.1802927851676941,-1.3104427496539515,0.0,-0.10422997176647186,1.5822381973266602,-0.0004031328426208347,-0.12951529026031494,0.7696642279624939,0.033354006707668304,0.49872323870658875
133.0,185.0,-2.9635,-0.7561,8.7996,-0.2665,-0.2735,-0.2053,-2.2861749134459437,-3.0098339266260155e-05,4.987928867340088,-1.2191013097763062,0.073255755007267,2.191657781600952,5.230880665570059,-0.05586463212966919,0.22856739163398743,-1.310434643422262,0.0,-0.1075289398431778,1.5822901725769043,-0.00025832781102508307,-0.12194597721099854,0.7699926495552063,0.02913525514304638,0.45886749029159546
133.0,185.0,-2.9635,-0.7561,8.7996,-0.2665,-0.2735,-0.2053,-2.286171098748678,-1.3082851621981032e-14,5.0018310546875,-1.2182999849319458,0.07329188287258148,2.218763828277588,5.230689751892843,-0.002320638159289956,0.2543866038322449,-1.3104265371905726,0.0,-0.09704376012086868,1.5822741985321045,-0.00019009098468814045,-0.1369630992412567,0.7702159881591797,0.029559891670942307,0.461396187543869
133.0,185.0,-2.9635,-0.7561,8.7996,-0.2665,-0.2735,-0.2053,-2.286171098748678,-4.2386776285457595e-22,4.958604335784912,-1.21773362159729,0.0747784972190857,2.185382843017578,5.230790543347158,0.021200478076934814,0.26781463623046875,-1.310450855885641,0.0,-0.10922535508871078,1.5822582244873047,-0.00015693463501520455,-0.1302291452884674,0.7704604864120483,0.03041449561715126,0.4955630600452423
