ramyac6/ROB537/final_project/csv/all/good_177.csv
tof_0,tof_1,accelx,accely,accelz,gyrox,gyroy,gyroz,shoulder_lift_joint_position,shoulder_lift_joint_velocity,shoulder_lift_joint_effort,elbow_joint_position,elbow_joint_velocity,elbow_joint_effort,wrist_1_joint_position,wrist_1_joint_velocity,wrist_1_joint_effort,wrist_2_joint_position,wrist_2_joint_velocity,wrist_2_joint_effort,wrist_3_joint_position,wrist_3_joint_velocity,wrist_3_joint_effort,shoulder_pan_joint_position,shoulder_pan_joint_velocity,shoulder_pan_joint_effort
967.0,942.0,2.5831,0.6562,9.119,-0.0347,0.0241,-0.1235,-1.4170251053622742,0.0,1.5014612674713135,-1.9910857677459717,-0.0,2.1594901084899902,4.596323652858398,0.0,0.3057977855205536,-1.6523779074298304,0.0,-0.03615811839699745,0.7881200909614563,0.0,-0.007194081787019968,0.81043940782547,0.0,-0.002701651770621538
967.0,942.0,2.5831,0.6562,9.119,-0.0347,0.0241,-0.1235,-1.4170132291368027,0.0,1.4549484252929688,-1.9910175800323486,-0.0,2.181553602218628,4.5963355737873535,0.0,0.3038240373134613,-1.6523421446429651,0.0,-0.028735408559441566,0.7881119847297668,0.0,-0.01327382680028677,0.8103871941566467,0.0,0.004527726210653782
967.0,942.0,2.5831,0.6562,9.119,-0.0347,0.0241,-0.1235,-1.4170371902040024,0.0,1.4785773754119873,-1.9911054372787476,-0.0,2.179893732070923,4.5963074403950195,0.0,0.31770071387290955,-1.6523740927325647,0.0,-0.03145197778940201,0.7880599498748779,0.0,4.9480702728033066e-05,0.8104393482208252,0.0,-0.013108953833580017
967.0,942.0,2.5831,0.6562,9.119,-0.0347,0.0241,-0.1235,-1.4170132291368027,0.0,1.5167186260223389,-1.9910496473312378,-0.0,2.1548075675964355,4.596327467555664,0.0,0.31809601187705994,-1.6523140112506312,0.0,-0.028384849429130554,0.7880074977874756,0.0,-0.009502083994448185,0.8104393482208252,0.0,-0.0006876206025481224
967.0,942.0,2.5831,0.6562,9.119,-0.0347,0.0241,-0.1235,-1.4170292180827637,0.0,1.4636086225509644,-1.9910578727722168,-0.0,2.1583800315856934,4.596303148860596,0.0,0.31255877017974854,-1.6523378531085413,0.0,-0.022559095174074173,0.7881279587745667,0.0,-0.009503227658569813,0.8104233741760254,0.0,0.029751567170023918
967.0,942.0,2.5831,0.6562,9.119,-0.0347,0.0241,-0.1235,-1.4170332860997696,0.0,1.4913544654846191,-1.9910693168640137,-0.0,2.1176700592041016,4.5963355737873535,0.0,0.2972574830055237,-1.652369801198141,0.0,-0.016578666865825653,0.7881085872650146,0.0,-0.014692678116261959,0.8104715347290039,0.0,0.0032818224281072617
1007.0,8190.0,2.5059,0.652,9.1484,-0.0289,0.0202,-0.1156,-1.4170453709414979,0.0,1.4941538572311401,-1.9910413026809692,-0.0,2.138631820678711,4.59633128225293,0.0,0.310056209564209,-1.6522977987872522,0.0,-0.03389696031808853,0.7880680561065674,0.0,-0.009898914024233818,0.8104556202888489,0.0,-0.047118574380874634
1007.0,8190.0,2.5059,0.652,9.1484,-0.0289,0.0202,-0.1156,-1.4170412582210083,0.0,1.5230581760406494,-1.9910330772399902,-0.0,2.1894845962524414,4.596363230342529,0.0,0.3096504211425781,-1.6523335615741175,0.0,-0.030188269913196564,0.7880074977874756,0.0,-0.01083224918693304,0.8104274272918701,0.0,0.0046317437663674355
1007.0,8190.0,2.5059,0.652,9.1484,-0.0289,0.0202,-0.1156,-1.4170453709414979,0.0,1.4357051849365234,-1.991073489189148,-0.0,2.1282949447631836,4.596359892482422,0.0,0.3094990849494934,-1.652325455342428,0.0,-0.02294037863612175,0.7880640029907227,0.0,0.0015481881564483047,0.8104393482208252,0.0,-0.02027653157711029
1007.0,8190.0,2.5059,0.652,9.1484,-0.0289,0.0202,-0.1156,-1.4169889104417344,0.0,1.499663233757019,-1.9910496473312378,-0.0,2.111947774887085,4.596391840572021,0.0,0.3112727701663971,-1.6523335615741175,0.0,-0.024310700595378876,0.7880561351776123,0.0,-0.0007429476827383041,0.8104556202888489,0.0,-0.021824777126312256
1007.0,8190.0,2.5059,0.652,9.1484,-0.0289,0.0202,-0.1156,-1.4170371902040024,0.0,1.4607782363891602,-1.9910258054733276,-0.0,2.1516406536102295,4.596363230342529,0.0,0.3066725730895996,-1.6523502508746546,0.0,-0.04433339834213257,0.7880762815475464,0.0,-0.013207634910941124,0.8104434013366699,0.0,0.000756432767957449
1007.0,8190.0,2.5059,0.652,9.1484,-0.0289,0.0202,-0.1156,-1.4170050633004685,0.0,1.5205392837524414,-1.991053819656372,-0.0,2.163231611251831,4.5963474947163085,0.0,0.3045090138912201,-1.652369801198141,0.0,-0.01447539683431387,0.7880840301513672,0.0,-0.001827104715630412,0.8104274272918701,0.0,-0.015853777527809143
1007.0,8190.0,2.5059,0.652,9.1484,-0.0289,0.0202,-0.1156,-1.416989268069603,0.0,1.4644322395324707,-1.99100923538208,-0.0,2.1559090614318848,4.596319361323975,0.0,0.30540043115615845,-1.6523779074298304,0.0,-0.023603737354278564,0.788032054901123,0.0,0.0012602406786754727,0.8104152679443359,0.0,0.01254749484360218
1007.0,8190.0,2.5059,0.652,9.1484,-0.0289,0.0202,-0.1156,-1.4170292180827637,0.0,1.4874663352966309,-1.991081714630127,-0.0,2.111799716949463,4.596331759090088,0.0,0.29921308159828186,-1.652313534413473,0.0,-0.009711095131933689,0.7879915237426758,0.0,-0.01210198923945427,0.8104715347290039,0.0,0.006254710257053375
1007.0,8190.0,2.5059,0.652,9.1484,-0.0289,0.0202,-0.1156,-1.4170531791499634,0.0,1.5054126977920532,-1.991053819656372,-0.0,2.161595106124878,4.596315069789551,0.0,0.3094286322593689,-1.6523621718036097,0.0,-0.028696492314338684,0.7880238890647888,0.0,0.002934998134151101,0.810427188873291,0.0,-0.054593611508607864
1007.0,8190.0,2.5059,0.652,9.1484,-0.0289,0.0202,-0.1156,-1.4170251053622742,0.0,1.4649934768676758,-1.9910258054733276,-0.0,2.082719564437866,4.596343680019043,0.0,0.3128894567489624,-1.6523178259478968,0.0,-0.02027488872408867,0.7880279421806335,0.0,-0.020919300615787506,0.8104393482208252,0.0,0.02858145534992218
1007.0,8190.0,2.5059,0.652,9.1484,-0.0289,0.0202,-0.1156,-1.4170292180827637,0.0,1.452909231185913,-1.9910733699798584,-0.0,2.1490087509155273,4.5963074403950195,0.0,0.291177362203598,-1.6523259321795862,0.0,-0.02680816873908043,0.7880558371543884,0.0,0.00020237534772604704,0.8104555606842041,0.0,-0.002845540177077055
1007.0,8190.0,2.5059,0.652,9.1484,-0.0289,0.0202,-0.1156,-1.4169929784587403,0.0,1.4923017024993896,-1.991013526916504,-0.0,2.1696343421936035,4.596323652858398,0.0,0.30559852719306946,-1.6523378531085413,0.0,-0.04507514089345932,0.7880480289459229,0.0,-0.011215542443096638,0.8104515075683594,0.0,-0.022522777318954468
996.0,8190.0,2.601,0.6969,9.0281,-0.0307,0.0238,-0.1202,-1.4170531791499634,0.0,1.508173942565918,-1.991062045097351,-0.0,2.151461601257324,4.596339388484619,0.0,0.30346110463142395,-1.6523540655719202,0.0,-0.01696067303419113,0.7880599498748779,0.0,-0.010503769852221012,0.8103991746902466,0.0,-0.03449808433651924
996.0,8190.0,2.601,0.6969,9.0281,-0.0307,0.0238,-0.1202,-1.4170009207776566,0.0,1.4716602563858032,-1.991062045097351,-0.0,2.138378858566284,4.596351309413574,0.0,0.30197030305862427,-1.652341667805807,0.0,-0.03281201794743538,0.7880802750587463,0.0,0.0015711315209046006,0.8104434013366699,0.0,0.04945388436317444
996.0,8190.0,2.601,0.6969,9.0281,-0.0307,0.0238,-0.1202,-1.4170091313174744,0.0,1.5505859851837158,-1.9910898208618164,-0.0,2.109380006790161,4.5963355737873535,0.0,0.31028836965560913,-1.652313534413473,0.0,-0.03952566161751747,0.788031816482544,0.0,-0.005887417122721672,0.8104274272918701,0.0,0.028302935883402824
996.0,8190.0,2.601,0.6969,9.0281,-0.0307,0.0238,-0.1202,-1.4170292180827637,0.0,1.486363172531128,-1.99105703830719,-0.0,2.1462342739105225,4.59632317602124,0.0,0.3062528371810913,-1.6523216406451624,0.0,-0.032065168023109436,0.788007915019989,0.0,-0.010982897132635117,0.810387372970581,0.0,0.037496067583560944
996.0,8190.0,2.601,0.6969,9.0281,-0.0307,0.0238,-0.1202,-1.4170291882804413,0.0,1.4690327644348145,-1.9910495281219482,-0.0,2.139695405960083,4.5963756281086425,0.0,0.3215498626232147,-1.6523059050189417,0.0,-0.021459292620420456,0.7880840301513672,0.0,-0.009097153320908546,0.8104393482208252,0.0,0.001627061516046524
996.0,8190.0,2.601,0.6969,9.0281,-0.0307,0.0238,-0.1202,-1.4170292031816025,0.0,1.454624891281128,-1.991081714630127,-0.0,2.148775577545166,4.596315546626709,0.0,0.29433560371398926,-1.6523059050189417,0.0,-0.023002441972494125,0.7880520820617676,0.0,-0.006249472498893738,0.8104515075683594,0.0,0.03761226311326027
996.0,8190.0,2.601,0.6969,9.0281,-0.0307,0.0238,-0.1202,-1.4170613449862977,0.0,1.4733545780181885,-1.9910612106323242,-0.0,2.139653205871582,4.596339388484619,0.0,0.3059082329273224,-1.6523574034320276,0.0,-0.018976151943206787,0.7880280017852783,0.0,-0.007100497372448444,0.8104474544525146,0.0,0.03052596002817154
996.0,8190.0,2.601,0.6969,9.0281,-0.0307,0.0238,-0.1202,-1.4170414221337815,0.0,1.5051701068878174,-1.9910691976547241,-0.0,2.119004011154175,4.596335096950195,0.0,0.2983418107032776,-1.6523178259478968,0.0,-0.03860924765467644,0.7880680561065674,0.0,-0.007122609298676252,0.8104352355003357,0.0,-0.016484268009662628
996.0,8190.0,2.601,0.6969,9.0281,-0.0307,0.0238,-0.1202,-1.4170292180827637,0.0,1.4528260231018066,-1.9910693168640137,-0.0,2.121814727783203,4.5963355737873535,0.0,0.30950260162353516,-1.6523335615741175,0.0,-0.02039020135998726,0.7880840301513672,0.0,-0.0076791164465248585,0.8104113340377808,0.0,-0.0015439735725522041
996.0,8190.0,2.601,0.6969,9.0281,-0.0307,0.0238,-0.1202,-1.4170895379832764,0.0,1.5155938863754272,-1.9910693168640137,-0.0,2.122417449951172,4.596355600947998,0.0,0.3018592894077301,-1.6523140112506312,0.0,-0.021828416734933853,0.7880521416664124,0.0,-0.008252098225057125,0.8104715943336487,0.0,0.018861301243305206
996.0,8190.0,2.601,0.6969,9.0281,-0.0307,0.0238,-0.1202,-1.4170653384974976,0.0,1.5150279998779297,-1.9910496473312378,-0.0,2.149350643157959,4.596323652858398,0.0,0.3030621409416199,-1.6523540655719202,0.0,-0.018939893692731857,0.7880962491035461,0.0,-0.010553056374192238,0.8104352355003357,0.0,-0.027061743661761284
996.0,8190.0,2.601,0.6969,9.0281,-0.0307,0.0238,-0.1202,-1.4169970911792298,0.0,1.460531234741211,-1.9910413026809692,-0.0,2.1098291873931885,4.596351309413574,0.0,0.3128977417945862,-1.6523740927325647,0.0,-0.0288521908223629,0.7880199551582336,0.0,0.010031366720795631,0.810491681098938,0.0,0.03557850793004036
1018.0,987.0,2.6076,0.6909,8.9773,-0.0421,0.0234,-0.0788,-1.4170250755599518,0.0,1.4644508361816406,-1.990992784500122,-0.0,2.179032802581787,4.5963474947163085,0.0,0.3034517467021942,-1.6523016134845179,0.0,-0.021926062181591988,0.788023829460144,0.0,-0.005749450996518135,0.8104474544525146,0.0,0.046019405126571655
1018.0,987.0,2.6076,0.6909,8.9773,-0.0421,0.0234,-0.0788,-1.4170453709414979,0.0,1.514302134513855,-1.991062045097351,-0.0,2.1606361865997314,4.596327467555664,0.0,0.32345467805862427,-1.6523659865008753,0.0,-0.028427621349692345,0.7880640625953674,0.0,-0.0068215494975447655,0.810407280921936,0.0,-0.013070860877633095
1018.0,987.0,2.6076,0.6909,8.9773,-0.0421,0.0234,-0.0788,-1.4170214247754593,0.0,1.4862408638000488,-1.991089940071106,-0.0,2.131105899810791,4.596319361323975,0.0,0.308072566986084,-1.6523097197162073,0.0,-0.03905004262924194,0.7880280613899231,0.0,-0.0044493358582258224,0.8104274272918701,0.0,-0.011697234585881233
1018.0,987.0,2.6076,0.6909,8.9773,-0.0421,0.0234,-0.0788,-1.417005257015564,0.0,1.5100088119506836,-1.991081714630127,-0.0,2.0830185413360596,4.596396132106445,0.0,0.29635074734687805,-1.6523340384112757,0.0,-0.023473769426345825,0.7880880832672119,0.0,-0.0015824108850210905,0.8104233741760254,0.0,-0.022653792053461075
1018.0,987.0,2.6076,0.6909,8.9773,-0.0421,0.0234,-0.0788,-1.4170292180827637,0.0,1.4910757541656494,-1.9910776615142822,-0.0,2.155123710632324,4.5963355737873535,0.0,0.30391451716423035,-1.6523335615741175,0.0,-0.01963145099580288,0.7881003022193909,0.0,0.0009780903346836567,0.8104434013366699,0.0,0.04504208266735077
1018.0,987.0,2.6076,0.6909,8.9773,-0.0421,0.0234,-0.0788,-1.4170292031816025,0.0,1.463154673576355,-1.9910495281219482,-0.0,2.146547555923462,4.596359892482422,0.0,0.30982139706611633,-1.6523497740374964,0.0,-0.024514492601156235,0.7880398631095886,0.0,-0.012120324186980724,0.8104314804077148,0.0,0.025602329522371292
1018.0,987.0,2.6076,0.6909,8.9773,-0.0421,0.0234,-0.0788,-1.4170251053622742,0.0,1.4557695388793945,-1.9910857677459717,-0.0,2.136350631713867,4.596355600947998,0.0,0.31172430515289307,-1.6523383299456995,0.0,-0.017555154860019684,0.7880799770355225,0.0,-0.005129998084157705,0.8103872537612915,0.0,0.0003549897810444236
1018.0,987.0,2.6076,0.6909,8.9773,-0.0421,0.0234,-0.0788,-1.4170453411391755,0.0,1.4883683919906616,-1.9910733699798584,-0.0,2.0759644508361816,4.596319361323975,0.0,0.2981940805912018,-1.6523421446429651,0.0,-0.0369650162756443,0.7880280613899231,0.0,-0.00643592793494463,0.8104393482208252,0.0,0.031058374792337418
1018.0,987.0,2.6076,0.6909,8.9773,-0.0421,0.0234,-0.0788,-1.417009101515152,0.0,1.4196789264678955,-1.9910857677459717,-0.0,2.135908603668213,4.596383734340332,0.0,0.31752270460128784,-1.6523297468768519,0.0,-0.023723503574728966,0.7880718111991882,0.0,-0.01168789528310299,0.810407280921936,0.0,0.016404222697019577
1018.0,987.0,2.6076,0.6909,8.9773,-0.0421,0.0234,-0.0788,-1.4170654130033036,0.0,1.432326316833496,-1.991062045097351,-0.0,2.153097629547119,4.596287890071533,0.0,0.3027629852294922,-1.6522935072528284,0.0,-0.028116198256611824,0.7880359292030334,0.0,-0.0032253607641905546,0.8104637265205383,0.0,0.042452387511730194
1018.0,987.0,2.6076,0.6909,8.9773,-0.0421,0.0234,-0.0788,-1.4170494240573426,0.0,1.443089485168457,-1.9910258054733276,-0.0,2.150618553161621,4.596319361323975,0.0,0.3169863820075989,-1.6523779074298304,0.0,-0.029166320338845253,0.7880799770355225,0.0,0.003887113882228732,0.8104352355003357,0.0,0.07240374386310577
1018.0,987.0,2.6076,0.6909,8.9773,-0.0421,0.0234,-0.0788,-1.416993336086609,0.0,1.494114637374878,-1.9910939931869507,-0.0,2.166299819946289,4.596319361323975,0.0,0.3121477961540222,-1.6522858778582972,0.0,-0.018867632374167442,0.7880238890647888,0.0,-0.0031096527818590403,0.8104556202888489,0.0,-0.006201272830367088
984.0,8190.0,2.5316,0.6921,9.073,-0.0319,0.0264,-0.1132,-1.4170453709414979,0.0,1.457552194595337,-1.991089940071106,-0.0,2.0957188606262207,4.59633128225293,0.0,0.3007708787918091,-1.6523059050189417,0.0,-0.012079387903213501,0.7880120277404785,0.0,0.001774076372385025,0.8104393482208252,0.0,-0.01610688306391239
984.0,8190.0,2.5316,0.6921,9.073,-0.0319,0.0264,-0.1132,-1.4170091611197968,0.0,1.5040119886398315,-1.991053819656372,-0.0,2.159576416015625,4.596351309413574,0.0,0.3034982681274414,-1.652313534413473,0.0,-0.026517655700445175,0.7881240844726562,0.0,-0.012286408804357052,0.8104153871536255,0.0,0.019859755411744118
984.0,8190.0,2.5316,0.6921,9.073,-0.0319,0.0264,-0.1132,-1.4170292180827637,0.0,1.5130598545074463,-1.9911094903945923,-0.0,2.1405375003814697,4.596327467555664,0.0,0.2951974868774414,-1.6523540655719202,0.0,-0.03085233084857464,0.7880762219429016,0.0,-0.008639751933515072,0.8104192614555359,0.0,0.05324915423989296
984.0,8190.0,2.5316,0.6921,9.073,-0.0319,0.0264,-0.1132,-1.4170050633004685,0.0,1.5101745128631592,-1.9910537004470825,-0.0,2.1469388008117676,4.596351786250732,0.0,0.3038724958896637,-1.6523574034320276,0.0,-0.032094307243824005,0.7880720496177673,0.0,0.008430399931967258,0.8104192614555359,0.0,0.0521935373544693
984.0,8190.0,2.5316,0.6921,9.073,-0.0319,0.0264,-0.1132,-1.417021394973137,0.0,1.5041264295578003,-1.9910290241241455,-0.0,2.13459849357605,4.596315546626709,0.0,0.2990458011627197,-1.6523578802691858,0.0,-0.01836707815527916,0.7880640029907227,0.0,0.005519859492778778,0.810391366481781,0.0,0.026508944109082222
984.0,8190.0,2.5316,0.6921,9.073,-0.0319,0.0264,-0.1132,-1.4170050633004685,0.0,1.5269787311553955,-1.9910578727722168,-0.0,2.1739280223846436,4.5963355737873535,0.0,0.3081701397895813,-1.652381722127096,0.0,-0.014621680602431297,0.7881003022193909,0.0,-0.004540586844086647,0.8104192614555359,0.0,0.0012717293575406075
984.0,8190.0,2.5316,0.6921,9.073,-0.0319,0.0264,-0.1132,-1.4170531791499634,0.0,1.5088768005371094,-1.9910457134246826,-0.0,2.1062610149383545,4.596303148860596,0.0,0.30570074915885925,-1.6523340384112757,0.0,-0.024357106536626816,0.7880280613899231,0.0,-0.008365960791707039,0.8104634284973145,0.0,0.02120676450431347
984.0,8190.0,2.5316,0.6921,9.073,-0.0319,0.0264,-0.1132,-1.4170050633004685,0.0,1.4760489463806152,-1.9910495281219482,-0.0,2.1452250480651855,4.596331759090088,0.0,0.3097372055053711,-1.6523421446429651,0.0,-0.018296539783477783,0.7880361080169678,0.0,0.002882046392187476,0.8104715943336487,0.0,0.02556980587542057
984.0,8190.0,2.5316,0.6921,9.073,-0.0319,0.0264,-0.1132,-1.4170453560403367,0.0,1.5012000799179077,-1.9910413026809692,-0.0,2.1437370777130127,4.596319361323975,0.0,0.30541908740997314,-1.65233022371401,0.0,-0.00885901227593422,0.7880440354347229,0.0,-0.013806519098579884,0.8104192614555359,0.0,-0.010266721248626709
984.0,8190.0,2.5316,0.6921,9.073,-0.0319,0.0264,-0.1132,-1.417021394973137,0.0,1.4606449604034424,-1.9910612106323242,-0.0,2.151754856109619,4.5963474947163085,0.0,0.30807405710220337,-1.6523340384112757,0.0,-0.03142843768000603,0.7880881428718567,0.0,-0.0071279434487223625,0.8104233741760254,0.0,-0.02092670649290085
984.0,8190.0,2.5316,0.6921,9.073,-0.0319,0.0264,-0.1132,-1.417069451217987,0.0,1.5121333599090576,-1.9910693168640137,-0.0,2.135498285293579,4.596319361323975,0.0,0.30102628469467163,-1.6523216406451624,0.0,-0.020850665867328644,0.7880561351776123,0.0,-0.013697085902094841,0.8104274272918701,0.0,0.03490312024950981
984.0,8190.0,2.5316,0.6921,9.073,-0.0319,0.0264,-0.1132,-1.4170132291368027,0.0,1.5092415809631348,-1.9910972118377686,-0.0,2.1618125438690186,4.596303148860596,0.0,0.2991998493671417,-1.6523178259478968,0.0,-0.021398816257715225,0.7881358861923218,0.0,-0.00018517160788178444,0.8104556202888489,0.0,0.018713325262069702
958.0,965.0,2.5675,0.6837,9.0634,-0.0362,0.0281,-0.1156,-1.4170371902040024,0.0,1.4838876724243164,-1.9910216331481934,-0.0,2.1390838623046875,4.596283598537109,0.0,0.29833143949508667,-1.6523421446429651,0.0,-0.03131246566772461,0.7881002426147461,0.0,-0.010607843287289143,0.8104474544525146,0.0,0.036533985286951065
958.0,965.0,2.5675,0.6837,9.0634,-0.0362,0.0281,-0.1156,-1.4170210522464295,0.0,1.5050078630447388,-1.991062045097351,-0.0,2.138995409011841,4.596331759090088,0.0,0.310637503862381,-1.6523216406451624,0.0,-0.029104726389050484,0.788036048412323,0.0,-0.0035779247991740704,0.8104192614555359,0.0,0.003754887729883194
958.0,965.0,2.5675,0.6837,9.0634,-0.0362,0.0281,-0.1156,-1.4170453411391755,0.0,1.4954288005828857,-1.9910743236541748,-0.0,2.1484103202819824,4.596359415645264,0.0,0.30039599537849426,-1.6523421446429651,0.0,-0.02474328503012657,0.7880759239196777,0.0,-0.008017312735319138,0.8104515075683594,0.0,0.01152277085930109
958.0,965.0,2.5675,0.6837,9.0634,-0.0362,0.0281,-0.1156,-1.4170292180827637,0.0,1.5031585693359375,-1.9910216331481934,-0.0,2.1550559997558594,4.596298857326172,0.0,0.30887967348098755,-1.6523297468768519,0.0,-0.025362592190504074,0.7881084084510803,0.0,-0.0032098188530653715,0.8104715943336487,0.0,-0.009039460681378841
958.0,965.0,2.5675,0.6837,9.0634,-0.0362,0.0281,-0.1156,-1.4170052868178864,0.0,1.4753007888793945,-1.9910497665405273,-0.0,2.158731460571289,4.596295042628906,0.0,0.3017473816871643,-1.6523097197162073,0.0,-0.022460702806711197,0.7880880236625671,0.0,0.000927354209125042,0.8104474544525146,0.0,0.009198920801281929
958.0,965.0,2.5675,0.6837,9.0634,-0.0362,0.0281,-0.1156,-1.4170816403678437,0.0,1.4665887355804443,-1.99100923538208,-0.0,2.1514554023742676,4.596375151271484,0.0,0.31104230880737305,-1.6523616949664515,0.0,-0.0320088267326355,0.7880361676216125,0.0,0.0032842920627444983,0.8104474544525146,0.0,-0.009474682621657848
958.0,965.0,2.5675,0.6837,9.0634,-0.0362,0.0281,-0.1156,-1.4170172226480027,0.0,1.485778570175171,-1.9910662174224854,-0.0,2.1368510723114014,4.596359892482422,0.0,0.298000693321228,-1.6523216406451624,0.0,-0.029921427369117737,0.7880759239196777,0.0,-0.006738677620887756,0.8104473948478699,0.0,-0.022038204595446587
958.0,965.0,2.5675,0.6837,9.0634,-0.0362,0.0281,-0.1156,-1.417009101515152,0.0,1.4809260368347168,-1.9909887313842773,-0.0,2.1414053440093994,4.596303148860596,0.0,0.30504411458969116,-1.6523216406451624,0.0,-0.015151333063840866,0.7880799770355225,0.0,-0.006055011879652739,0.8104113340377808,0.0,0.04280171915888786
958.0,965.0,2.5675,0.6837,9.0634,-0.0362,0.0281,-0.1156,-1.4170412582210083,0.0,1.4664794206619263,-1.991062045097351,-0.0,2.1101956367492676,4.596306963557861,0.0,0.2977060079574585,-1.6522977987872522,0.0,-0.02999079041182995,0.7880076766014099,0.0,-0.005097341723740101,0.8104274272918701,0.0,0.03620900958776474
958.0,965.0,2.5675,0.6837,9.0634,-0.0362,0.0281,-0.1156,-1.4170209926417847,0.0,1.4923828840255737,-1.991062045097351,-0.0,2.160822868347168,4.5963355737873535,0.0,0.30181723833084106,-1.6523378531085413,0.0,-0.029251309111714363,0.7880761027336121,0.0,0.003385277697816491,0.8104192614555359,0.0,-0.02710360661149025
958.0,965.0,2.5675,0.6837,9.0634,-0.0362,0.0281,-0.1156,-1.4170009356788178,0.0,1.472244143486023,-1.99100923538208,-0.0,2.1618847846984863,4.5963074403950195,0.0,0.3023713231086731,-1.6523378531085413,0.0,-0.0203815046697855,0.7880520820617676,0.0,-0.003245383268222213,0.8104755282402039,0.0,-0.011905469000339508
958.0,965.0,2.5675,0.6837,9.0634,-0.0362,0.0281,-0.1156,-1.4170292031816025,0.0,1.4611966609954834,-1.9910372495651245,-0.0,2.130244255065918,4.596339388484619,0.0,0.29755672812461853,-1.6523178259478968,0.0,-0.019876791164278984,0.7880880832672119,0.0,-0.004617128521203995,0.8104593753814697,0.0,0.04132850840687752
986.0,8190.0,2.6034,0.7035,8.9779,-0.0403,0.0199,-0.1145,-1.4170453262380143,0.0,1.4591732025146484,-1.9910216331481934,-0.0,2.149803638458252,4.596315546626709,0.0,0.31103265285491943,-1.6523378531085413,0.0,-0.020293042063713074,0.7880158424377441,0.0,0.004559229593724012,0.8104393482208252,0.0,-0.05532152205705643
986.0,8190.0,2.6034,0.7035,8.9779,-0.0403,0.0199,-0.1145,-1.4170011442950745,0.0,1.4483232498168945,-1.9910258054733276,-0.0,2.1418230533599854,4.596367521876953,0.0,0.31320664286613464,-1.6523378531085413,0.0,-0.027646614238619804,0.7881078124046326,0.0,-0.0027176844887435436,0.8104596138000488,0.0,0.007440988905727863
986.0,8190.0,2.6034,0.7035,8.9779,-0.0403,0.0199,-0.1145,-1.4170373988202591,0.0,1.4071776866912842,-1.9910660982131958,-0.0,2.1543312072753906,4.596303148860596,0.0,0.2926882207393646,-1.6522977987872522,0.0,-0.025672949850559235,0.7880679965019226,0.0,-0.008393718861043453,0.8104634284973145,0.0,-0.019785841926932335
986.0,8190.0,2.6034,0.7035,8.9779,-0.0403,0.0199,-0.1145,-1.4170214098742981,0.0,1.4468178749084473,-1.991065263748169,-0.0,2.117893695831299,4.5963355737873535,0.0,0.3015470504760742,-1.6523378531085413,0.0,-0.01741570234298706,0.7880440354347229,0.0,-0.013846708461642265,0.8104555606842041,0.0,0.00903115700930357
986.0,8190.0,2.6034,0.7035,8.9779,-0.0403,0.0199,-0.1145,-1.4170091313174744,0.0,1.518884539604187,-1.991062045097351,-0.0,2.150717258453369,4.596339865321777,0.0,0.3013448715209961,-1.6523421446429651,0.0,-0.017643414437770844,0.7881198525428772,0.0,-0.007165873423218727,0.810407280921936,0.0,0.0033598009031265974
986.0,8190.0,2.6034,0.7035,8.9779,-0.0403,0.0199,-0.1145,-1.4170251351645966,0.0,1.4789284467697144,-1.9910372495651245,-0.0,2.1468565464019775,4.596319361323975,0.0,0.30152007937431335,-1.6523578802691858,0.0,-0.02720477804541588,0.7880600094795227,0.0,-0.007178996689617634,0.8104111552238464,0.0,-0.05137263983488083
986.0,8190.0,2.6034,0.7035,8.9779,-0.0403,0.0199,-0.1145,-1.417045385842659,0.0,1.5140300989151,-1.9910298585891724,-0.0,2.152090549468994,4.5963474947163085,0.0,0.31043684482574463,-1.6523216406451624,0.0,-0.02445192076265812,0.7880361676216125,0.0,-6.339792162179947e-05,0.8104596138000488,0.0,-0.012360365130007267
986.0,8190.0,2.6034,0.7035,8.9779,-0.0403,0.0199,-0.1145,-1.4170490515283127,0.0,1.4703075885772705,-1.9910496473312378,-0.0,2.1167683601379395,4.596343203181885,0.0,0.29540014266967773,-1.6523421446429651,0.0,-0.008310436271131039,0.7881002426147461,0.0,-0.019143491983413696,0.8104393482208252,0.0,0.03471202775835991
986.0,8190.0,2.6034,0.7035,8.9779,-0.0403,0.0199,-0.1145,-1.4170091164163132,0.0,1.482405185699463,-1.9910372495651245,-0.0,2.130054473876953,4.596319361323975,0.0,0.30175796151161194,-1.6523421446429651,0.0,-0.02326476015150547,0.7880799174308777,2.23241549690556e-08,-0.004214120097458363,0.8104352355003357,0.0,-0.027202187106013298
986.0,8190.0,2.6034,0.7035,8.9779,-0.0403,0.0199,-0.1145,-1.417005108003952,0.0,1.5039803981781006,-1.9910372495651245,-0.0,2.1277966499328613,4.596355600947998,0.0,0.3049531579017639,-1.6523378531085413,0.0,-0.022802647203207016,0.7880678772926331,6.214010642852097e-12,-0.0028737341053783894,0.8104274272918701,0.0,0.05341570824384689
986.0,8190.0,2.6034,0.7035,8.9779,-0.0403,0.0199,-0.1145,-1.4170012038997193,0.0,1.4970817565917969,-1.9910775423049927,-0.0,2.1734066009521484,4.596371813411377,0.0,0.2971579432487488,-1.6523578802691858,0.0,-0.02792585827410221,0.7880239486694336,1.1293654398375117e-16,0.001860257238149643,0.8104556202888489,0.0,0.03263479098677635
986.0,8190.0,2.6034,0.7035,8.9779,-0.0403,0.0199,-0.1145,-1.4169929784587403,0.0,1.494420051574707,-1.9910939931869507,-0.0,2.123220682144165,4.5963637071796875,0.0,0.3004457652568817,-1.652313534413473,0.0,-0.020320288836956024,0.7880759239196777,2.052565891209726e-21,0.0008821188239380717,0.8104352355003357,0.0,0.04694870486855507
1008.0,1005.0,2.5705,0.7208,9.0227,-0.033,0.017,-0.1182,-1.4170091313174744,0.0,1.5111286640167236,-1.9910733699798584,-0.0,2.145381450653076,4.596343680019043,0.0,0.30284714698791504,-1.6523216406451624,0.0,-0.033715128898620605,0.7880799770355225,3.730436630979865e-26,0.0006254208274185658,0.8104715347290039,0.0,0.029098156839609146
1008.0,1005.0,2.5705,0.7208,9.0227,-0.033,0.017,-0.1182,-1.4169970911792298,0.0,1.4613511562347412,-1.9910454750061035,-0.0,2.159423351287842,4.596355600947998,0.0,0.2987445294857025,-1.6523459593402308,0.0,-0.021793987601995468,0.7880998253822327,1.038380552002261e-29,-0.015792662277817726,0.8104555606842041,0.0,0.032735828310251236
1008.0,1005.0,2.5705,0.7208,9.0227,-0.033,0.017,-0.1182,-1.4170332711986084,0.0,1.4912805557250977,-1.991045594215393,-0.0,2.1165831089019775,4.596343680019043,0.0,0.3035471737384796,-1.6523140112506312,0.0,-0.012958496809005737,0.7880759239196777,1.887205900311036e-34,-0.00627793138846755,0.8104393482208252,0.0,0.025356266647577286
1008.0,1005.0,2.5705,0.7208,9.0227,-0.033,0.017,-0.1182,-1.4170051974109192,0.0,1.4719159603118896,-1.9910733699798584,-0.0,2.1064064502716064,4.596315546626709,0.0,0.3100539445877075,-1.6523497740374964,0.0,-0.03084775060415268,0.7880839109420776,3.429903600487746e-39,-0.0008277185261249542,0.8104596138000488,0.0,0.0077182818204164505
1008.0,1005.0,2.5705,0.7208,9.0227,-0.033,0.017,-0.1182,-1.4170213800719758,0.0,1.4852197170257568,-1.9910298585891724,-0.0,2.1420133113861084,4.5963637071796875,0.0,0.29682186245918274,-1.652313534413473,0.0,-0.028177466243505478,0.788051962852478,6.165713243029195e-44,-0.00596053060144186,0.810427188873291,0.0,0.013767769560217857
1008.0,1005.0,2.5705,0.7208,9.0227,-0.033,0.017,-0.1182,-1.416989268069603,0.0,1.4806241989135742,-1.991029977798462,-0.0,2.126957893371582,4.596355600947998,0.0,0.31471529603004456,-1.6523335615741175,0.0,-0.01395022589713335,0.788071870803833,0.0,0.000379783334210515,0.8104836344718933,0.0,0.02203238382935524
1008.0,1005.0,2.5705,0.7208,9.0227,-0.033,0.017,-0.1182,-1.4169892382672806,0.0,1.4760814905166626,-1.991062045097351,-0.0,2.1126503944396973,4.596295042628906,0.0,0.29380837082862854,-1.6523454825030726,0.0,-0.009824019856750965,0.7880921959877014,0.0,-0.00657720398157835,0.8104312419891357,0.0,0.04020857438445091
1008.0,1005.0,2.5705,0.7208,9.0227,-0.033,0.017,-0.1182,-1.4170616281083603,0.0,1.4961459636688232,-1.9910258054733276,7.669482271488448e-10,2.1803417205810547,4.596391840572021,0.0,0.29412969946861267,-1.6523378531085413,0.0,-0.020344527438282967,0.7880520224571228,0.0,-0.006626834161579609,0.8104433417320251,0.0,-0.02664615586400032
1008.0,1005.0,2.5705,0.7208,9.0227,-0.033,0.017,-0.1182,-1.4169690173915406,0.0,1.5002198219299316,-1.9910340309143066,2.4848148259068328e-17,2.0896248817443848,4.596323652858398,0.0,0.3084724247455597,-1.6523016134845179,0.0,-0.0231422558426857,0.7881001830101013,0.0,0.0009429203346371651,0.8104032278060913,0.0,0.014162471517920494
1008.0,1005.0,2.5705,0.7208,9.0227,-0.033,0.017,-0.1182,-1.4170254331878205,0.0,1.4836797714233398,-1.9910175800323486,6.000535477702217e-23,2.1993439197540283,4.596311255092285,0.0,0.31319066882133484,-1.6523335615741175,0.0,-0.00910264067351818,0.7880879640579224,0.0,-0.006284470669925213,0.8104393482208252,0.0,-0.004318268969655037
1008.0,1005.0,2.5705,0.7208,9.0227,-0.033,0.017,-0.1182,-1.4169970911792298,0.0,1.498467206954956,-1.9910011291503906,1.9440970685198722e-30,2.128295660018921,4.5963474947163085,0.0,0.3002820611000061,-1.6523540655719202,0.0,-0.013756824657320976,0.7879959940910339,0.0,0.0007361593306995928,0.8104113340377808,0.0,-0.005586893297731876
1008.0,1005.0,2.5705,0.7208,9.0227,-0.033,0.017,-0.1182,-1.4169812959483643,0.0,1.4863554239273071,-1.991053819656372,6.29862696288979e-38,2.1650800704956055,4.596339865321777,0.0,0.30507463216781616,-1.6523621718036097,0.0,-0.02088545449078083,0.7880238890647888,0.0,-0.005734344944357872,0.8104234337806702,3.539846909518529e-13,-0.02492692694067955
1012.0,986.0,2.6177,0.5288,9.1968,-0.0396,0.0267,-0.1132,-1.4170373988202591,0.0,1.4692199230194092,-1.991062045097351,1.401298464324817e-45,2.1069021224975586,4.596303148860596,0.0,0.30609047412872314,-1.6523097197162073,0.0,-0.024772878736257553,0.7880879640579224,0.0,-0.011476743966341019,0.8103954195976257,1.1468654821275291e-20,0.002237372100353241
1012.0,986.0,2.6177,0.5288,9.1968,-0.0396,0.0267,-0.1132,-1.4169970762780686,0.0,1.4850492477416992,-1.9910537004470825,-0.0,2.1295785903930664,4.596371813411377,0.0,0.3122907280921936,-1.652369801198141,0.0,-0.018350325524806976,0.7880480885505676,0.0,0.00479510985314846,0.8104634284973145,2.769544883852781e-26,-0.004195679910480976
1012.0,986.0,2.6177,0.5288,9.1968,-0.0396,0.0267,-0.1132,-1.4170373988202591,0.0,1.5250499248504639,-1.9910939931869507,-0.0,2.125883102416992,4.596343680019043,0.0,0.29647040367126465,-1.652353588734762,0.0,-0.02534017153084278,0.7880401611328125,0.0,-0.031536463648080826,0.8105078339576721,8.97297265981877e-34,0.013287177309393883
1012.0,986.0,2.6177,0.5288,9.1968,-0.0396,0.0267,-0.1132,-1.417053536777832,1.5788136806804687e-06,1.517709732055664,-1.9910577535629272,-0.0,2.1227612495422363,4.596323652858398,0.0,0.30522462725639343,-1.6524055639850062,0.0,-0.032212600111961365,0.7880399823188782,0.0,-0.011229103431105614,0.8104475140571594,9.313301416113973e-05,-0.01622082106769085
1012.0,986.0,2.6177,0.5288,9.1968,-0.0396,0.0267,-0.1132,-1.4169929933599015,5.1151540414375724e-14,1.4413411617279053,-1.991021752357483,-0.0,2.153169870376587,4.596383734340332,0.0,0.3041726052761078,-1.6523898283587855,0.0,-0.007799440063536167,0.788055956363678,0.0,-0.011486612260341644,0.8104515075683594,0.00011974832887062803,-0.020621951669454575
1012.0,986.0,2.6177,0.5288,9.1968,-0.0396,0.0267,-0.1132,-1.417013244037964,1.2352496174877208e-19,1.492204189300537,-1.9910815954208374,-0.0,2.1940410137176514,4.59633128225293,0.0,0.300903856754303,-1.6523454825030726,0.0,-0.0160239115357399,0.7880961894989014,0.0,-0.003814786672592163,0.8104838132858276,0.00017198285786435008,0.04786570370197296
1012.0,986.0,2.6177,0.5288,9.1968,-0.0396,0.0267,-0.1132,-1.4170091462186356,4.002052379929544e-27,1.5118536949157715,-1.991029977798462,-0.0,2.140824556350708,4.596351786250732,0.0,0.3017021417617798,-1.6523574034320276,0.0,-0.008080905303359032,0.7880638837814331,0.0,-0.003701071720570326,0.8104835152626038,0.00015229913697112352,-0.023629257455468178
1012.0,986.0,2.6177,0.5288,9.1968,-0.0396,0.0267,-0.1132,-1.4170372051051636,1.2966140056120284e-34,1.4982547760009766,-1.991038203239441,-0.0,2.1150951385498047,4.596311255092285,0.0,0.31779271364212036,-1.6523454825030726,0.0,-0.008767304942011833,0.7881357073783875,0.0,-0.010038320906460285,0.8104954361915588,0.0002870853350032121,-0.026531988754868507
1012.0,986.0,2.6177,0.5288,9.1968,-0.0396,0.0267,-0.1132,-1.417005257015564,4.2010927960458016e-42,1.481810450553894,-1.9910258054733276,-0.0,2.148463249206543,4.596359415645264,0.0,0.31085124611854553,-1.6523454825030726,0.0,-0.02620287612080574,0.7880640029907227,0.0,0.001901563722640276,0.8104876279830933,0.00022871282999403775,0.023579450324177742
1012.0,986.0,2.6177,0.5288,9.1968,-0.0396,0.0267,-0.1132,-1.4170414221337815,0.0,1.4219375848770142,-1.9910660982131958,-0.0,2.159575939178467,4.596339388484619,0.0,0.2887553870677948,-1.6523574034320276,0.0,-0.017753807827830315,0.7881036996841431,0.0,-0.01396755501627922,0.8105236291885376,0.00019845097267534584,-0.013334037736058235
1012.0,986.0,2.6177,0.5288,9.1968,-0.0396,0.0267,-0.1132,-1.4169851553491135,0.0,1.5255563259124756,-1.99107027053833,-0.0,2.152228355407715,4.596355600947998,0.0,0.2997254729270935,-1.652397934590475,0.0,-0.008165005594491959,0.788071870803833,0.0,-0.016259826719760895,0.8104515075683594,0.00016869184037204832,0.03974027559161186
1012.0,986.0,2.6177,0.5288,9.1968,-0.0396,0.0267,-0.1132,-1.4170373541167756,0.0,1.4966799020767212,-1.991021752357483,-0.0,2.144620656967163,4.596319361323975,0.0,0.30175742506980896,-1.6523779074298304,0.0,-0.017641251906752586,0.7880201935768127,0.0,-0.007435319945216179,0.8104072213172913,0.00011735573934856802,0.005688224453479052
984.0,984.0,2.9324,1.3478,8.9833,-0.0336,0.0105,-0.1162,-1.4170332711986084,0.0,1.488015055656433,-1.9910051822662354,-0.0,2.134676456451416,4.596355600947998,0.0,0.3059915602207184,-1.6523659865008753,0.0,-0.006983608938753605,0.7881001234054565,0.0,0.005778838414698839,0.8104433417320251,0.0001038181217154488,0.018964089453220367
984.0,984.0,2.9324,1.3478,8.9833,-0.0336,0.0105,-0.1162,-1.417045385842659,0.0,1.4753026962280273,-1.9910701513290405,-0.0,2.120481491088867,4.596298857326172,0.0,0.3026573956012726,-1.652313534413473,0.0,-0.008621273562312126,0.7879841327667236,0.0,-0.00560257351025939,0.8104475140571594,9.55513387452811e-05,-0.013775146566331387
984.0,984.0,2.9324,1.3478,8.9833,-0.0336,0.0105,-0.1162,-1.4170050633004685,0.0,1.4164519309997559,-1.991029977798462,-0.0,2.1276001930236816,4.596351786250732,0.0,0.29976269602775574,-1.652369801198141,0.0,-0.009127143770456314,0.7880239486694336,0.0,-0.009165058843791485,0.8104714751243591,8.638043800601736e-05,-0.007237840443849564
984.0,984.0,2.9324,1.3478,8.9833,-0.0336,0.0105,-0.1162,-1.416997106080391,0.0,1.492470622062683,-1.9910693168640137,-0.0,2.156942367553711,4.596291704768799,0.0,0.30847257375717163,-1.6523497740374964,0.0,-0.015358587726950645,0.7880601286888123,0.0,-0.01598607376217842,0.8104435205459595,6.58544959151186e-05,0.02131108194589615
984.0,984.0,2.9324,1.3478,8.9833,-0.0336,0.0105,-0.1162,-1.4170332711986084,0.0,1.465559720993042,-1.9910216331481934,-0.0,2.1325571537017822,4.596347971553467,0.0,0.3026726245880127,-1.652369801198141,0.0,-0.01791982352733612,0.788055956363678,0.0,-0.011983211152255535,0.8104352355003357,5.435215280158445e-05,-0.029387202113866806
984.0,984.0,2.9324,1.3478,8.9833,-0.0336,0.0105,-0.1162,-1.4170011591962357,0.0,1.4657466411590576,-1.9910497665405273,-0.0,2.1483826637268066,4.596327944392822,0.0,0.29945674538612366,-1.652369801198141,0.0,-0.007208223454654217,0.7880600094795227,0.0,-0.006994700990617275,0.8104312419891357,5.125673851580359e-05,0.014233880676329136
984.0,984.0,2.9324,1.3478,8.9833,-0.0336,0.0105,-0.1162,-1.4170295310071488,0.0,1.4699199199676514,-1.9909846782684326,-0.0,2.155761957168579,4.5963474947163085,0.0,0.30633774399757385,-1.6523178259478968,0.0,-0.012207508087158203,0.7880520820617676,0.0,-0.009796607308089733,0.8104556202888489,4.763925608131103e-05,0.007222851738333702
984.0,984.0,2.9324,1.3478,8.9833,-0.0336,0.0105,-0.1162,-1.4170292180827637,-1.4920431567588821e-05,1.4810960292816162,-1.991029977798462,-0.0,2.1838927268981934,4.5963074403950195,0.0,0.3077268600463867,-1.6523016134845179,0.0,-0.005766896530985832,0.788055956363678,0.0,-0.00834064744412899,0.8104352355003357,4.4498701754491776e-05,-0.046359919011592865
984.0,984.0,2.9324,1.3478,8.9833,-0.0336,0.0105,-0.1162,-1.4170895379832764,-1.4058763554203324e-05,1.5209896564483643,-1.9910660982131958,-0.0,2.1339080333709717,4.596351786250732,0.0,0.3062359690666199,-1.6523297468768519,0.0,-0.007966430857777596,0.7880600094795227,0.0,-0.004928227048367262,0.810507595539093,4.174663990852423e-05,0.03754018247127533
984.0,984.0,2.9324,1.3478,8.9833,-0.0336,0.0105,-0.1162,-1.4170132291368027,-1.3429437785816845e-05,1.4980260133743286,-1.9910454750061035,-0.0,2.163985252380371,4.596355600947998,0.0,0.29301607608795166,-1.652337376271383,0.0,-0.0131705142557621,0.7880520820617676,0.0,-0.014156882651150227,0.8104674220085144,3.989609831478447e-05,-0.018944570794701576
984.0,984.0,2.9324,1.3478,8.9833,-0.0336,0.0105,-0.1162,-1.4170210671475907,-1.2673045603150968e-05,1.465752363204956,-1.991029977798462,-0.0,2.1440672874450684,4.596351786250732,0.0,0.30346250534057617,-1.6523259321795862,0.0,-0.02453441545367241,0.7880839109420776,0.0,0.00297044450417161,0.8104271292686462,-3.031050437130034e-05,-0.004944291897118092
984.0,984.0,2.9324,1.3478,8.9833,-0.0336,0.0105,-0.1162,-1.4170654130033036,-1.1997310139122419e-05,1.5614542961120605,-1.991021752357483,-0.0,2.1625499725341797,4.596319361323975,0.0,0.2987470030784607,-1.6523016134845179,0.0,-0.0025122114457190037,0.7880361676216125,0.0,-0.007472468074411154,0.8104153871536255,-2.8397782443789765e-05,-0.035552043467760086
1004.0,8190.0,2.4993,0.8429,8.9121,-0.0365,0.0176,-0.1213,-1.4170412582210083,-1.1389990504540037e-05,1.4941729307174683,-1.991029977798462,-0.0,2.1422595977783203,4.596343680019043,0.0,0.29163363575935364,-1.6524022261248987,0.0,-0.00043877027928829193,0.7880719900131226,0.0,-0.008407851681113243,0.8104636669158936,-4.006787276011892e-05,-0.023803673684597015
1004.0,8190.0,2.4993,0.8429,8.9121,-0.0365,0.0176,-0.1213,-1.4170572471669693,-1.0973378266498912e-05,1.482404351234436,-1.9910216331481934,-0.0,2.159160852432251,4.596327944392822,0.0,0.30946433544158936,-1.6522977987872522,0.0,-0.015154740773141384,0.7880239486694336,0.0,-0.01830875873565674,0.8104636669158936,-3.836036194115877e-05,0.04303283616900444
1004.0,8190.0,2.4993,0.8429,8.9121,-0.0365,0.0176,-0.1213,-1.4171097886613389,-2.0926194338244386e-05,1.4691169261932373,-1.99100923538208,-0.0,2.173232078552246,4.596339865321777,0.0,0.29559987783432007,-1.6523540655719202,0.0,-0.0054079340770840645,0.7880282402038574,0.0,0.0021521057933568954,0.8104556202888489,-3.6297609767643735e-05,-0.0032664835453033447
1004.0,8190.0,2.4993,0.8429,8.9121,-0.0365,0.0176,-0.1213,-1.4170453709414979,-2.9992672352818772e-05,1.4615767002105713,-1.9910175800323486,-0.0,2.1130189895629883,4.596355600947998,0.0,0.30789342522621155,-1.65226918855776,0.0,-0.019753625616431236,0.7880282402038574,0.0,-0.011764470487833023,0.8104715943336487,-4.2006908188341185e-05,-0.006590389646589756
1004.0,8190.0,2.4993,0.8429,8.9121,-0.0365,0.0176,-0.1213,-1.4170531791499634,-2.4447719890186015e-11,1.4597034454345703,-1.9910413026809692,-0.0,2.1610124111175537,4.596323652858398,0.0,0.311720609664917,-1.6523059050189417,0.0,-0.02758745476603508,0.7880719900131226,0.0,-0.0044250572100281715,0.8103872537612915,-4.369734597275965e-05,-0.03180767968297005
1004.0,8190.0,2.4993,0.8429,8.9121,-0.0365,0.0176,-0.1213,-1.417085440163948,-5.903836847719214e-17,1.4689855575561523,-1.9910454750061035,-0.0,2.157221555709839,4.596339865321777,0.0,0.3065362572669983,-1.6523216406451624,0.0,-0.012613506056368351,0.7880321741104126,0.0,-0.004368445370346308,0.8104193806648254,-5.2559484174707904e-05,0.013863910920917988
1004.0,8190.0,2.4993,0.8429,8.9121,-0.0365,0.0176,-0.1213,-1.4170571875623246,-1.912768194614076e-24,1.4384071826934814,-1.9910743236541748,-0.0,2.114086866378784,4.596347971553467,0.0,0.3077308237552643,-1.6523216406451624,0.0,-0.024981163442134857,0.7880480885505676,0.0,0.009663785807788372,0.8104393482208252,-5.0344162445981055e-05,0.01976894587278366
1004.0,8190.0,2.4993,0.8429,8.9121,-0.0365,0.0176,-0.1213,-1.4170572471669693,-9.426512406207621e-05,1.4427409172058105,-1.991062045097351,-0.0,2.1174557209014893,4.596323652858398,0.0,0.31128430366516113,-1.6523059050189417,0.0,-0.01855500601232052,0.7880878448486328,0.0,-0.01350276730954647,0.8104433417320251,-3.522926117494052e-10,0.025193145498633385
1004.0,8190.0,2.4993,0.8429,8.9121,-0.0365,0.0176,-0.1213,-1.4170892995646973,-0.00010740036668721586,1.4950952529907227,-1.991045594215393,-0.0,2.1867756843566895,4.596311255092285,0.0,0.29806503653526306,-1.652318302785055,0.0,-0.02807970903813839,0.7880441546440125,0.0,-0.010248435661196709,0.810491681098938,-1.1413834311520089e-17,-0.03273865580558777
1004.0,8190.0,2.4993,0.8429,8.9121,-0.0365,0.0176,-0.1213,-1.4170892995646973,-0.0001182718260679394,1.5041918754577637,-1.9910693168640137,-0.0,2.132577657699585,4.596311255092285,0.0,0.3086647391319275,-1.6523421446429651,0.0,-0.03478475660085678,0.7880199551582336,0.0,-0.004034919664263725,0.8104596138000488,-2.7563065085686307e-23,-0.01748739928007126
1004.0,8190.0,2.4993,0.8429,8.9121,-0.0365,0.0176,-0.1213,-1.4170208734324952,-0.00038124583079479635,1.5329821109771729,-1.991062045097351,-0.0,2.154642343521118,4.5963355737873535,0.0,0.31136220693588257,-1.6523216406451624,0.0,-0.0197809599339962,0.7880401015281677,0.0,-0.0011066966690123081,0.8104715943336487,-8.930082000710974e-31,-0.029341397807002068
1004.0,8190.0,2.4993,0.8429,8.9121,-0.0365,0.0176,-0.1213,-1.4170772445252915,-0.0003986342344433069,1.4942725896835327,-1.9910496473312378,-0.0,2.179238796234131,4.5963355737873535,0.0,0.31926894187927246,-1.6523340384112757,0.0,-0.031949691474437714,0.7880520820617676,0.0,0.0007880341727286577,0.8104233741760254,-2.8932329133221633e-38,-0.04228343069553375
969.0,1003.0,2.8588,0.9799,8.7679,-0.0411,0.0226,-0.1335,-1.417097122674324,-0.00038291639066301286,1.47816002368927,-1.991053819656372,-0.0,2.151150703430176,4.596279783839844,0.0,0.31915122270584106,-1.6523340384112757,0.0,-0.03269549459218979,0.7880600690841675,0.0,-0.01309793721884489,0.8104475140571594,-7.006492321624085e-44,0.020312156528234482
969.0,1003.0,2.8588,0.9799,8.7679,-0.0411,0.0226,-0.1335,-1.4170770955136796,-0.0004137601354159415,1.4685765504837036,-1.991045594215393,-0.0,2.1199135780334473,4.596339865321777,0.0,0.31559547781944275,-1.6523621718036097,0.0,-0.04087470844388008,0.7880079746246338,0.0,-0.004747060127556324,0.8104352355003357,0.0,-0.0019834833219647408
969.0,1003.0,2.8588,0.9799,8.7679,-0.0411,0.0226,-0.1335,-1.4171372216990967,-0.000421582575654611,1.4774070978164673,-1.9910454750061035,-0.0,2.1757240295410156,4.596263571376465,0.0,0.32862526178359985,-1.6523383299456995,0.0,-0.02553420513868332,0.7880880832672119,0.0,-0.009629005566239357,0.8104835152626038,-2.829901859513484e-05,0.027974143624305725
969.0,1003.0,2.8588,0.9799,8.7679,-0.0411,0.0226,-0.1335,-1.4171170157245179,-0.00044815955334343016,1.4569501876831055,-1.9910857677459717,-0.0,2.147751569747925,4.596347971553467,0.0,0.32798171043395996,-1.6523097197162073,0.0,-0.03153293952345848,0.7880441546440125,0.0,0.002689794171601534,0.8104633092880249,-1.3312362170836423e-05,0.056484028697013855
969.0,1003.0,2.8588,0.9799,8.7679,-0.0411,0.0226,-0.1335,-1.4171244663051148,-0.00046517050941474736,1.5132372379302979,-1.9910413026809692,-0.0,2.1585803031921387,4.596319361323975,0.0,0.30875611305236816,-1.652318302785055,0.0,-0.030199972912669182,0.7880600094795227,0.0,0.004386352840811014,0.8104272484779358,-2.0238244857750942e-08,0.016598835587501526
969.0,1003.0,2.8588,0.9799,8.7679,-0.0411,0.0226,-0.1335,-1.4171329748681565,-0.0006307630683295429,1.5071775913238525,-1.9910733699798584,-0.0,2.164480447769165,4.596303148860596,0.0,0.31135112047195435,-1.6523540655719202,0.0,-0.029075495898723602,0.788107693195343,0.0,-0.0009583709761500359,0.8104913830757141,-6.556933925463558e-16,-0.014870328828692436
969.0,1003.0,2.8588,0.9799,8.7679,-0.0411,0.0226,-0.1335,-1.417141081099846,-0.001147354836575687,1.5386489629745483,-1.991021752357483,-0.0,2.0972700119018555,4.596304102534912,0.0,0.318372905254364,-1.6523059050189417,2.2984825420735433e-07,-0.0239900853484869,0.7880878448486328,0.0,-0.015037772245705128,0.8104914426803589,-2.1243631324871048e-23,0.05466654524207115
969.0,1003.0,2.8588,0.9799,8.7679,-0.0411,0.0226,-0.1335,-1.41719342887912,-0.00263178045861423,1.5004935264587402,-1.991065263748169,-0.0,2.1702394485473633,4.596311255092285,0.0,0.32717573642730713,-1.6523540655719202,4.177378061520631e-12,-0.030739396810531616,0.7880880832672119,0.0,-0.009774123318493366,0.8104714155197144,0.0007409611716866493,0.0027331430464982986
969.0,1003.0,2.8588,0.9799,8.7679,-0.0411,0.0226,-0.1335,-1.4172818225673218,-0.004455299582332373,1.47157883644104,-1.9910258054733276,-0.0,2.149186134338379,4.596311255092285,0.0,0.3238106966018677,-1.6522977987872522,1.1627886187823375e-15,-0.023306850343942642,0.7881715893745422,0.0,-0.007021765224635601,0.8104994297027588,0.0011396094923838973,0.013948580250144005
969.0,1003.0,2.8588,0.9799,8.7679,-0.0411,0.0226,-0.1335,-1.4172692906907578,-0.007143318187445402,1.4686423540115356,-1.9910578727722168,-0.0,2.149282932281494,4.596331759090088,0.0,0.3259224593639374,-1.6522939840899866,2.113310917312452e-20,-0.021133888512849808,0.788111686706543,0.0,-0.0073286364786326885,0.8105114698410034,0.001585594960488379,0.06106223538517952
969.0,1003.0,2.8588,0.9799,8.7679,-0.0411,0.0226,-0.1335,-1.417329267864563,-0.007798089645802975,1.426005482673645,-1.9910578727722168,-0.0,2.1549339294433594,4.596287890071533,0.0,0.3258899450302124,-1.6523502508746546,3.8408382693333698e-25,-0.02768883854150772,0.7880282402038574,0.0,-0.004114118404686451,0.810543417930603,0.002431427827104926,0.06941627711057663
978.0,1011.0,2.3982,0.6467,9.2865,-0.042,0.0371,-0.1257,-1.4173972022584458,-0.008513737469911575,1.4851999282836914,-1.991053819656372,-0.0,2.13584566116333,4.596319361323975,0.0,0.32714104652404785,-1.6523459593402308,6.980533835747921e-30,-0.025923170149326324,0.7881036400794983,0.0,0.0006144593935459852,0.8105674982070923,0.0030009651090949774,-0.019743654876947403
978.0,1011.0,2.3982,0.6467,9.2865,-0.042,0.0371,-0.1257,-1.4174773854068299,-0.009433653205633163,1.4646955728530884,-1.991053819656372,-0.0,2.198625087738037,4.596311255092285,0.0,0.32285115122795105,-1.6522734800921839,1.943057080749709e-33,-0.03579225391149521,0.7880799174308777,0.0,-0.01114946324378252,0.8105714321136475,0.0029061667155474424,0.029909033328294754
978.0,1011.0,2.3982,0.6467,9.2865,-0.042,0.0371,-0.1257,-1.4176102739623566,-0.011496352963149548,1.4836053848266602,-1.9910660982131958,-0.0,2.1334762573242188,4.596259279842041,0.0,0.3317796587944031,-1.6522577444659632,3.5314097376077357e-38,-0.02666906826198101,0.7880120277404785,0.0,0.0036538448184728622,0.8105955123901367,0.0023837750777602196,-0.011442925781011581
978.0,1011.0,2.3982,0.6467,9.2865,-0.042,0.0371,-0.1257,-1.4176933628371735,-0.012919201515614986,1.4573369026184082,-1.9910651445388794,-0.0,2.1437454223632812,4.596295996303223,0.0,0.31902962923049927,-1.6523340384112757,6.417946966607662e-43,-0.01996147260069847,0.7880957722663879,0.0,-0.00698729557916522,0.8105954527854919,0.0015276172198355198,-0.04068659245967865
978.0,1011.0,2.3982,0.6467,9.2865,-0.042,0.0371,-0.1257,-1.4177976858666916,-0.013763460330665112,1.4225776195526123,-1.991037368774414,-0.0,2.121274471282959,4.596311255092285,0.0,0.3242133855819702,-1.6523221174823206,0.0,-0.029218602925539017,0.7881235480308533,0.0,-0.010746901854872704,0.8106034994125366,0.000813942460808903,-0.050623416900634766
978.0,1011.0,2.3982,0.6467,9.2865,-0.042,0.0371,-0.1257,-1.4179307085326691,-0.015366021543741226,1.4646317958831787,-1.991025686264038,-0.0,2.182668447494507,4.596315069789551,5.245174250489981e-08,0.3293722867965698,-1.6522701422320765,0.0,-0.03633703291416168,0.7880961298942566,0.0,-0.011644170619547367,0.8106237053871155,0.0005604707985185087,0.04976045340299606
978.0,1011.0,2.3982,0.6467,9.2865,-0.042,0.0371,-0.1257,-1.417985276584961,-0.017518598586320877,1.4283413887023926,-1.991021752357483,-0.0,2.1555609703063965,4.596307917232178,9.532846517376625e-13,0.33290043473243713,-1.6522977987872522,0.0,-0.01565336436033249,0.7880957722663879,0.0,-0.004952829796820879,0.8106155395507812,0.0003960023750551045,-0.03777279704809189
978.0,1011.0,2.3982,0.6467,9.2865,-0.042,0.0371,-0.1257,-1.418229730134346,-0.01992230862379074,1.4077942371368408,-1.991098165512085,-0.0,2.105839252471924,4.596327467555664,1.73254782552967e-17,0.3246532380580902,-1.6523140112506312,0.0,-0.02808898687362671,0.7880838513374329,0.0,0.0017812205478549004,0.810619592666626,0.0003061749739572406,-0.007420471869409084
978.0,1011.0,2.3982,0.6467,9.2865,-0.042,0.0371,-0.1257,-1.4183578056148072,-0.02207174152135849,1.4605419635772705,-1.991021752357483,-0.0,2.1401891708374023,4.5963074403950195,3.148819966070577e-22,0.3166705369949341,-1.652318302785055,0.0,-0.023396439850330353,0.7880802154541016,0.0,-0.008909561671316624,0.8106275796890259,0.0002495674998499453,0.004049233160912991
978.0,1011.0,2.3982,0.6467,9.2865,-0.042,0.0371,-0.1257,-1.4184935849956055,-0.025810902938246727,1.3790621757507324,-1.9910497665405273,-0.0,2.151731014251709,4.596235914821289,8.764857256802152e-26,0.3111423850059509,-1.652318302785055,0.0,-0.02544192038476467,0.7880958318710327,0.0,-0.0026756729930639267,0.8106356263160706,0.00018264850950799882,-0.0736769586801529
978.0,1011.0,2.3982,0.6467,9.2865,-0.042,0.0371,-0.1257,-1.418701411490776,-0.028929682448506355,1.3868257999420166,-1.9911137819290161,-0.0,2.154397964477539,4.596263571376465,1.5929695708445058e-30,0.3224946856498718,-1.6522701422320765,0.0,-0.011742913164198399,0.7880482077598572,0.0,-7.98696419224143e-05,0.8105995059013367,0.0001257084950339049,-0.06443087756633759
978.0,1011.0,2.3982,0.6467,9.2865,-0.042,0.0371,-0.1257,-1.4189615559628983,-0.03448748216032982,1.3608338832855225,-1.9911012649536133,-0.0,2.1150922775268555,4.596304102534912,2.895143575930999e-35,0.32308268547058105,-1.6522896925555628,0.0,-0.027379894629120827,0.7880679368972778,0.0,-0.0016448642127215862,0.8106437921524048,0.00011030107998521999,-0.022449031472206116
1001.0,8190.0,2.4993,0.9835,8.881,-0.0273,-0.0095,-0.1529,-1.4192533206990738,-0.038091029971838,1.33927321434021,-1.991053819656372,-0.0,2.1965079307556152,4.596299811000488,5.261777642647185e-40,0.3258410394191742,-1.652285401021139,2.7686768589774147e-05,-0.015741530805826187,0.7881433963775635,0.0,-0.008403833955526352,0.8106397390365601,7.37077571102418e-05,-0.07651073485612869
1001.0,8190.0,2.4993,0.9835,8.881,-0.0273,-0.0095,-0.1529,-1.41949017465625,-0.040910810232162476,1.330223560333252,-1.9910775423049927,-0.0,2.156341314315796,4.596283598537109,1.471363387541058e-43,0.3092849850654602,-1.6523140112506312,2.666921318450477e-05,-0.021126778796315193,0.7881556153297424,0.0,-0.005784858018159866,0.8106356263160706,-4.972096212441102e-05,-0.0269174724817276
1001.0,8190.0,2.4993,0.9835,8.881,-0.0273,-0.0095,-0.1529,-1.4198458802751084,-0.04511498287320137,1.3351869583129883,-1.9910176992416382,-0.0,2.199129104614258,4.596255465144775,0.0,0.3035847544670105,-1.65233022371401,2.5177127099595964e-05,-0.007993467152118683,0.7881156206130981,0.0,0.0018538269214332104,0.8106197118759155,-4.4928776333108544e-05,-0.08504901826381683
1001.0,8190.0,2.4993,0.9835,8.881,-0.0273,-0.0095,-0.1529,-1.4202257108739396,-0.05310536548495293,1.3565951585769653,-1.9910454750061035,-0.0,2.1144344806671143,4.596299811000488,0.0,0.31466731429100037,-1.6523063818561,3.573821595637128e-05,-0.019580278545618057,0.7880958318710327,0.0,-0.012135649099946022,0.8105915188789368,-6.127535743871704e-05,-0.10864642262458801
1001.0,8190.0,2.4993,0.9835,8.881,-0.0273,-0.0095,-0.1529,-1.4206421685269852,-0.06098547577857971,1.3265407085418701,-1.9910372495651245,-0.0,2.1341359615325928,4.596283598537109,0.0,0.3144356608390808,-1.6522977987872522,3.396508691366762e-05,-0.00921977125108242,0.7880842089653015,0.0,-0.0018294327892363071,0.8105795979499817,-7.490107964258641e-05,-0.10882997512817383
1001.0,8190.0,2.4993,0.9835,8.881,-0.0273,-0.0095,-0.1529,-1.4209978145411988,-0.0673934668302536,1.328162670135498,-1.9910331964492798,-0.0,2.1233112812042236,4.596255465144775,0.0,0.31783103942871094,-1.6522977987872522,4.327424903749488e-05,-0.009103150106966496,0.7880640625953674,0.0,0.01453593373298645,0.8105714321136475,-8.606401388533413e-05,-0.08305249363183975
1001.0,8190.0,2.4993,0.9835,8.881,-0.0273,-0.0095,-0.1529,-1.4215577256730576,-0.0762706771492958,1.3038338422775269,-1.9910733699798584,-0.0,2.1723222732543945,4.596327944392822,0.0,0.3014821410179138,-1.6523221174823206,4.1621682612458244e-05,-0.0034953102003782988,0.7880600690841675,0.0,-0.0037597340997308493,0.8105995059013367,-8.172413799911737e-05,-0.06051906198263168
1001.0,8190.0,2.4993,0.9835,8.881,-0.0273,-0.0095,-0.1529,-1.4222028416446229,-0.08050777018070221,1.3109829425811768,-1.9910330772399902,-0.0,2.1372692584991455,4.596275969142578,0.0,0.30149510502815247,-1.652278248463766,3.9781942177796736e-05,-0.003769420552998781,0.7880880832672119,0.0,0.004142084624618292,0.8105995059013367,-7.618949166499078e-05,-0.08127561956644058
1001.0,8190.0,2.4993,0.9835,8.881,-0.0273,-0.0095,-0.1529,-1.422879160647728,-0.083697609603405,1.3381397724151611,-1.9910775423049927,-0.0,2.1024420261383057,4.596331759090088,0.0,0.30462321639060974,-1.652245823537008,7.230172016647884e-10,-0.00283251516520977,0.7880083918571472,0.0,-0.0033231391571462154,0.810575544834137,-7.135704072425142e-05,-0.1123138815164566
1001.0,8190.0,2.4993,0.9835,8.881,-0.0273,-0.0095,-0.1529,-1.4234480124763031,-0.09105876833200455,1.261643648147583,-1.9911054372787476,-0.0,2.1381659507751465,4.596291704768799,0.0,0.3093850314617157,-1.6522577444659632,2.0125451327158983e-13,-0.008753903210163116,0.7880880832672119,0.0,-0.009400074370205402,0.8105835914611816,-5.449333548313007e-05,-0.06621716916561127
1001.0,8190.0,2.4993,0.9835,8.881,-0.0273,-0.0095,-0.1529,-1.4242076140693207,-0.09983540326356888,1.314767837524414,-1.9910454750061035,-0.0,2.140606641769409,4.596311255092285,0.0,0.3109413981437683,-1.6523345152484339,3.657701265251801e-18,-0.015053465031087399,0.7881036400794983,0.0,-0.003845409955829382,0.8106397390365601,-5.138225606060587e-05,-0.10855317115783691
1001.0,8190.0,2.4993,0.9835,8.881,-0.0273,-0.0095,-0.1529,-1.4250159424594422,-0.10725809633731842,1.3112733364105225,-1.9910258054733276,-0.0,2.142420530319214,4.596306963557861,0.0,0.3067047595977783,-1.6522701422320765,0.00010250473860651255,-0.0027938561979681253,0.7880521416664124,0.0,-0.0040953559800982475,0.8106116056442261,-4.860727858613245e-05,-0.09520440548658371
1000.0,974.0,1.9992,0.5067,8.8899,-0.0318,-0.0341,-0.1141,-1.4258799266866227,-0.11236251145601273,1.2380938529968262,-1.9910175800323486,-0.0,2.098585844039917,4.596327944392822,0.0,0.30961477756500244,-1.652273956929342,0.00011545995221240446,-0.008843175135552883,0.7881116271018982,0.0,-0.001388399745337665,0.8106116056442261,-4.611666008713655e-05,-0.08838656544685364
1000.0,974.0,1.9992,0.5067,8.8899,-0.0318,-0.0341,-0.1141,-1.4265879106572648,-0.11412118375301361,1.2816071510314941,-1.9910340309143066,-0.0,2.144592761993408,4.596303148860596,0.0,0.30502650141716003,-1.6522539297686976,0.00012555066496133804,-0.011259682476520538,0.7880680561065674,0.0,0.004021445754915476,0.8106116652488708,-4.440999691723846e-05,-0.15927334129810333
1000.0,974.0,1.9992,0.5067,8.8899,-0.0318,-0.0341,-0.1141,-1.4275084745934983,-0.11850395053625107,1.2666847705841064,-1.9910660982131958,-0.0,2.1248116493225098,4.596323652858398,0.0,0.30698949098587036,-1.652262036000387,0.00011731553240679204,-0.006298961117863655,0.7880442142486572,0.0,-0.0009246983681805432,0.8106236457824707,-4.232167702866718e-05,-0.08765161782503128
1000.0,974.0,1.9992,0.5067,8.8899,-0.0318,-0.0341,-0.1141,-1.4285207700780411,-0.12379925698041916,1.2673885822296143,-1.991042137145996,-0.0,2.127192258834839,4.596327944392822,0.0,0.3001362085342407,-1.6522582213031214,0.00012477804557420313,-0.014558619819581509,0.7880920767784119,0.0,-0.0036265887320041656,0.8106076121330261,-4.042097498313524e-05,-0.1203114315867424
1000.0,974.0,1.9992,0.5067,8.8899,-0.0318,-0.0341,-0.1141,-1.4295605433038254,-0.13692884147167206,1.2524269819259644,-1.9910380840301514,-0.0,2.1859588623046875,4.596371813411377,0.0,0.3019772469997406,-1.652273956929342,0.00021992609254084527,0.001680650282651186,0.7880997657775879,0.0,0.0019103987142443657,0.8106397986412048,-8.287688313401986e-10,-0.0846630111336708
1000.0,974.0,1.9992,0.5067,8.8899,-0.0318,-0.0341,-0.1141,-1.4304656100324173,-0.14927932620048523,1.1833162307739258,-1.991001009941101,2.4119796648847114e-07,2.1559817790985107,4.59635512411084,0.0,0.305922269821167,-1.6522300879107874,0.00019478749891277403,-0.008931265212595463,0.7880561351776123,0.0,-0.00048395979683846235,0.8105955123901367,-2.0013787651348806e-15,-0.10310378670692444
1000.0,974.0,1.9992,0.5067,8.8899,-0.0318,-0.0341,-0.1141,-1.431608409886696,-0.15422482788562775,1.2316328287124634,-1.99100923538208,0.001294669578783214,2.0836901664733887,4.596391840572021,0.0,0.30025044083595276,-1.6522906462298792,0.00016603489348199219,-0.004656549077481031,0.7880802750587463,0.0,-0.013692675158381462,0.8106034994125366,-6.484212604419634e-23,-0.13405868411064148
1000.0,974.0,1.9992,0.5067,8.8899,-0.0318,-0.0341,-0.1141,-1.432867781524994,-0.15232205390930176,1.202267050743103,-1.9910142421722412,0.00505769532173872,2.1618471145629883,4.59635512411084,0.0,0.3014174997806549,-1.6522420088397425,0.0001736060658004135,-0.0010604638373479247,0.7880722880363464,0.0,-0.004217813257128,0.8105795979499817,-2.1008025025466356e-30,-0.13949371874332428
1000.0,974.0,1.9992,0.5067,8.8899,-0.0318,-0.0341,-0.1141,-1.434220851664879,-0.15944373607635498,1.2235556840896606,-1.9909056425094604,0.007357800845056772,2.1002955436706543,4.5963474947163085,0.0001483381784055382,0.2957828938961029,-1.6522701422320765,0.00015382988203782588,0.0027472754009068012,0.7880759239196777,0.0,-0.0019136241171509027,0.8105955123901367,-2.1977068172418512e-05,-0.10015091300010681
1000.0,974.0,1.9992,0.5067,8.8899,-0.0318,-0.0341,-0.1141,-1.43528504789386,-0.17324519157409668,1.2359392642974854,-1.9908735752105713,0.003412015037611127,2.164409637451172,4.5963637071796875,0.00013223789574112743,0.30121922492980957,-1.6522138754474085,0.0001417177263647318,-0.007887826301157475,0.7880880832672119,0.0,-0.010222434997558594,0.8106075525283813,-2.3525964934378862e-05,-0.0919329822063446
1000.0,974.0,1.9992,0.5067,8.8899,-0.0318,-0.0341,-0.1141,-1.4367614102414628,-0.1965862363576889,1.1723045110702515,-1.9908620119094849,0.0010297209955751896,2.1262118816375732,4.596363230342529,0.0001530458830529824,0.28981176018714905,-1.6522463003741663,0.000128253479488194,-0.001444655703380704,0.7881077527999878,0.0,-0.004450955428183079,0.810615599155426,-3.348388781887479e-05,-0.10946813225746155
1000.0,974.0,1.9992,0.5067,8.8899,-0.0318,-0.0341,-0.1141,-1.4383300107768555,-0.19485712051391602,1.157515048980713,-1.990817666053772,0.0030466760508716106,2.1257848739624023,4.596367045039795,0.00016658320964779705,0.29778456687927246,-1.652221981679098,0.00011712571722455323,-0.010799775831401348,0.7880842089653015,0.0,-0.009387325495481491,0.8105835914611816,-0.0002419623197056353,-0.10001187026500702
1008.0,8190.0,2.3061,0.6556,8.4748,-0.0313,-0.1185,-0.1229,-1.439889208679535,-0.18495412170886993,1.28219473361969,-1.9908454418182373,0.00411398708820343,2.1065521240234375,4.596379442805908,0.00011616100528044626,0.3089977502822876,-1.6522496382342737,0.00012573682761285454,-0.002938096644356847,0.7880997657775879,1.3931433784364344e-09,-0.009102381765842438,0.8105674982070923,-0.0002399800723651424,-0.09811966121196747
1008.0,8190.0,2.3061,0.6556,8.4748,-0.0313,-0.1185,-0.1229,-1.4411551815322419,-0.19714325666427612,1.2156552076339722,-1.9908020496368408,0.002459695329889655,2.1243462562561035,4.596363230342529,9.731210593599826e-05,0.28596624732017517,-1.6522377173053187,0.00011863403778988868,0.005801967345178127,0.7880759239196777,3.877866181379447e-13,0.00011869869194924831,0.8106236457824707,-0.00020035175839439034,-0.11110944300889969
1008.0,8190.0,2.3061,0.6556,8.4748,-0.0313,-0.1185,-0.1229,-1.4428309959224244,-0.2182263731956482,1.2126548290252686,-1.9907782077789307,0.0010243118740618229,2.0511386394500732,4.596388025874756,8.000568050192669e-05,0.30661165714263916,-1.6522377173053187,0.00011032397742383182,-0.006701352074742317,0.7881194949150085,7.047830281858012e-18,-0.004772087559103966,0.810619592666626,-6.930761446710676e-05,-0.11891365051269531
1008.0,8190.0,2.3061,0.6556,8.4748,-0.0313,-0.1185,-0.1229,-1.444494829779007,-0.22357073426246643,1.1854394674301147,-1.9907450675964355,0.0006204470992088318,2.1245779991149902,4.596383734340332,6.792643398512155e-05,0.29938143491744995,-1.652205769215719,0.00010310184734407812,0.0020154379308223724,0.7881156206130981,1.2809082879049314e-22,0.002036704681813717,0.8105714917182922,-0.00010596645734040067,-0.10914389044046402
1008.0,8190.0,2.3061,0.6556,8.4748,-0.0313,-0.1185,-0.1229,-1.4462632250836869,-0.22429998219013214,1.2415580749511719,-1.9908257722854614,0.0004450617707334459,2.058030843734741,4.596391840572021,8.826116390991956e-05,0.2994651198387146,-1.6522582213031214,0.00011058710515499115,-0.013666439801454544,0.7880443930625916,2.327987849949493e-27,0.0051297880709171295,0.8105835914611816,-0.00012865147436968982,-0.1225002259016037
1008.0,8190.0,2.3061,0.6556,8.4748,-0.0313,-0.1185,-0.1229,-1.4476433631828804,-0.22796547412872314,1.2520041465759277,-1.9907780885696411,0.00039436446968466043,2.0962138175964355,4.596423311824463,0.00012052328384015709,0.29668956995010376,-1.6522019545184534,0.00010571959865046665,0.004561544395983219,0.7881394028663635,6.480039092100008e-31,-0.0035812905989587307,0.810575544834137,-0.00011256006837356836,-0.10566028207540512
1008.0,8190.0,2.3061,0.6556,8.4748,-0.0313,-0.1185,-0.1229,-1.4494231802276154,-0.2292238026857376,1.2130241394042969,-1.9907336235046387,0.003124574664980173,2.1076128482818604,4.596395178432129,0.00017448577273171395,0.3092838525772095,-1.652233902608053,9.985485667129979e-05,-0.010870803147554398,0.7880560159683228,1.1777151196602393e-35,-0.0057271672412753105,0.8105514049530029,-9.647203842177987e-05,-0.1321406066417694
1008.0,8190.0,2.3061,0.6556,8.4748,-0.0313,-0.1185,-0.1229,-1.4512630638531228,-0.22926212847232819,1.2164196968078613,-1.9907574653625488,0.002092579146847129,2.188723564147949,4.596407576198242,0.00015125356731005013,0.29763877391815186,-1.6522343794452112,9.460664296057075e-05,-0.010738094337284565,0.788080096244812,2.1404413653022283e-40,-0.002880766289308667,0.8106236457824707,3.444227695581503e-05,-0.10948027670383453
1008.0,8190.0,2.3061,0.6556,8.4748,-0.0313,-0.1185,-0.1229,-1.4531351190856476,-0.24039790034294128,1.2599868774414062,-1.9906973838806152,0.0007409431273117661,2.107417345046997,4.596367521876953,0.0001333260879619047,0.30334803462028503,-1.6522138754474085,8.988241461338475e-05,-0.006787844002246857,0.7880719304084778,4.203895392974451e-45,-0.006406761705875397,0.8106316924095154,3.112217746092938e-05,-0.08142843842506409
1008.0,8190.0,2.3061,0.6556,8.4748,-0.0313,-0.1185,-0.1229,-1.4545190197280427,-0.2451663762331009,1.2502142190933228,-1.9907336235046387,0.0004957934143021703,2.1281301975250244,4.59635512411084,0.00012244221579749137,0.2998136878013611,-1.6522544066058558,8.663783228257671e-05,0.0007065855897963047,0.7881236672401428,0.0,0.0033697495236992836,0.810591459274292,5.639315349981189e-05,-0.07967118918895721
1008.0,8190.0,2.3061,0.6556,8.4748,-0.0313,-0.1185,-0.1229,-1.4564243269017716,-0.2475801408290863,1.2231764793395996,-1.9907212257385254,0.0004127835563849658,2.0889885425567627,4.596414728755615,0.00011042306141462177,0.3120129108428955,-1.6522582213031214,8.265921496786177e-05,0.0038059644866734743,0.7881476879119873,0.0,-0.002659425837919116,0.8106034994125366,5.0113532779505476e-05,-0.0697668120265007
1008.0,8190.0,2.3061,0.6556,8.4748,-0.0313,-0.1185,-0.1229,-1.4583758798292656,-0.24424664676189423,1.2278534173965454,-1.9907418489456177,0.0004760539159178734,2.0850882530212402,4.596419020290039,0.0001555107010062784,0.30711281299591064,-1.6522663275348108,2.0305573343648575e-05,-0.008130992762744427,0.7881036400794983,0.0,-0.002488169353455305,0.8105634450912476,3.1025717817101395e-07,-0.12888874113559723
1039.0,983.0,2.72,0.3332,8.0782,-0.0452,-0.2063,-0.1064,-1.4603006926229973,-0.23878580331802368,1.2708243131637573,-1.9906859397888184,0.005519935395568609,2.1278693675994873,4.596414728755615,0.00024748878786340356,0.3122645318508148,-1.652221981679098,3.69043767767252e-10,-0.013290954753756523,0.7880918979644775,0.0,-0.0035986644215881824,0.810591459274292,1.005193819077644e-14,-0.12106378376483917
1039.0,983.0,2.72,0.3332,8.0782,-0.0452,-0.2063,-0.1064,-1.4618090328625222,-0.24725207686424255,1.273805856704712,-1.990605354309082,0.005132476799190044,2.1133692264556885,4.596414728755615,0.00022530471323989332,0.2954912483692169,-1.6522343794452112,1.0272469317231317e-13,-0.0096018947660923,0.788111686706543,0.0,0.0116281034424901,0.81064373254776,2.4274245154350815e-20,-0.1537635326385498
1039.0,983.0,2.72,0.3332,8.0782,-0.0452,-0.2063,-0.1064,-1.4638554838350792,-0.25270769000053406,1.2962241172790527,-1.9906299114227295,0.0030359236989170313,2.107724666595459,4.5964390474506835,0.00019710643391590565,0.31490105390548706,-1.6522701422320765,3.4816792322089896e-05,-0.008432232774794102,0.7881314754486084,0.0,-0.002276345621794462,0.8105995059013367,7.864547446449916e-28,-0.07412987947463989
1039.0,983.0,2.72,0.3332,8.0782,-0.0452,-0.2063,-0.1064,-1.465901793246605,-0.24835503101348877,1.3034131526947021,-1.9906020164489746,0.0032085897400975227,2.0907931327819824,4.596467657680176,0.00037856391281820834,0.3092423677444458,-1.6522143522845667,5.1632505346788093e-05,-0.01201016828417778,0.7880680561065674,0.0,0.002954050898551941,0.810591459274292,2.548013436059706e-35,-0.06448602676391602
1039.0,983.0,2.72,0.3332,8.0782,-0.0452,-0.2063,-0.1064,-1.4673831921866913,-0.2576901316642761,1.2756649255752563,-1.9905781745910645,0.002870697993785143,2.118231773376465,4.596387072200439,0.00037217597127892077,0.2927544414997101,-1.6522257963763636,4.991474997950718e-05,-0.010377438738942146,0.7881274223327637,0.0,-0.009187387302517891,0.8105995059013367,6.153101556850272e-41,-0.07850640267133713
1039.0,983.0,2.72,0.3332,8.0782,-0.0452,-0.2063,-0.1064,-1.469562330549099,-0.2569654583930969,1.3157751560211182,-1.9904849529266357,0.0026785507798194885,2.151556968688965,4.596443338985107,0.0005704809445887804,0.30634990334510803,-1.6522539297686976,1.7896243376114285e-09,-0.00655978312715888,0.7881156802177429,0.0,-0.0036309086717665195,0.8105955123901367,0.0,-0.10949228703975677
1039.0,983.0,2.72,0.3332,8.0782,-0.0452,-0.2063,-0.1064,-1.4716529336622735,-0.25559180974960327,1.3274965286254883,-1.9905180931091309,0.0036247430834919214,2.107719898223877,4.5964953142353515,0.002691978355869651,0.31403571367263794,-1.6522138754474085,3.252553323787426e-14,-0.006462531164288521,0.7880921363830566,0.0,-0.00021518708672374487,0.8106035590171814,0.0,-0.11016179621219635
1039.0,983.0,2.72,0.3332,8.0782,-0.0452,-0.2063,-0.1064,-1.473746882086136,-0.267483651638031,1.3584709167480469,-1.9905180931091309,0.0024640762712806463,2.0966956615448,4.596515341395996,0.02123626135289669,0.31625306606292725,-1.6522544066058558,1.1403628263906285e-07,-0.016589468345046043,0.7881477475166321,0.0,-0.00948548037558794,0.810591459274292,0.0,-0.07123114168643951
1039.0,983.0,2.72,0.3332,8.0782,-0.0452,-0.2063,-0.1064,-1.4754141506603737,-0.2678474485874176,1.359743356704712,-1.9904983043670654,0.0013092620065435767,2.0788018703460693,4.596618815059326,0.024060994386672974,0.30671489238739014,-1.6522138754474085,3.1742414252633466e-11,-0.011116629466414452,0.7880362868309021,0.0,-0.009311424568295479,0.8106155395507812,0.0,-0.06510251760482788
1039.0,983.0,2.72,0.3332,8.0782,-0.0452,-0.2063,-0.1064,-1.4774786990932007,-0.2667181193828583,1.3316824436187744,-1.9904818534851074,0.0007145159179344773,2.071294069290161,4.596830530757568,0.014923740178346634,0.3203165829181671,-1.6522787253009241,5.769027583696752e-16,-0.015083526261150837,0.7881079316139221,0.0,0.005933790002018213,0.810591459274292,0.0,-0.06157764047384262
1039.0,983.0,2.72,0.3332,8.0782,-0.0452,-0.2063,-0.1064,-1.4796217170408745,-0.2728533148765564,1.338191032409668,-1.9904217720031738,0.0004171328037045896,2.1303820610046387,4.596850081081055,0.005249487701803446,0.3062171936035156,-1.6522100607501429,1.0484921392067367e-20,-0.014466085471212864,0.7880997657775879,0.0,-0.008099637925624847,0.8105674982070923,0.0,-0.06236422806978226
1039.0,983.0,2.72,0.3332,8.0782,-0.0452,-0.2063,-0.1064,-1.4817563605359574,-0.2646315395832062,1.3771708011627197,-1.9904134273529053,0.0026841042563319206,2.137519359588623,4.596873922938965,0.000979058793745935,0.31535300612449646,-1.6522343794452112,1.90558300297029e-25,-0.013528088107705116,0.7880640029907227,0.0,0.0010602562688291073,0.8105876445770264,0.0,-0.091154083609581
988.0,916.0,2.9151,0.7771,8.5262,-0.0371,-0.2472,-0.1061,-1.4833184716156502,-0.26273390650749207,1.3201351165771484,-1.990377426147461,0.0023782127536833286,2.066887378692627,4.596902533168457,0.0002712988934945315,0.3024415075778961,-1.6522019545184534,5.304261437735218e-29,-0.0021848315373063087,0.7880997657775879,0.0,-0.00827697105705738,0.810575544834137,0.0,-0.1128530204296112
988.0,916.0,2.9151,0.7771,8.5262,-0.0371,-0.2472,-0.1061,-1.4854401809028168,-0.26585566997528076,1.3372304439544678,-1.9904621839523315,0.0013349327491596341,2.0437076091766357,4.596902056331299,0.00016906025120988488,0.3018574118614197,-1.6522224585162562,9.640231926158465e-34,-0.009861983358860016,0.7880677580833435,0.0,-0.012758027762174606,0.8105515241622925,0.0,-0.10248179733753204
988.0,916.0,2.9151,0.7771,8.5262,-0.0371,-0.2472,-0.1061,-1.4875265967896958,-0.26757410168647766,1.3776156902313232,-1.9904465675354004,0.0008416100754402578,2.0914535522460938,4.596869631404541,0.0001228605688083917,0.30327528715133667,-1.6522100607501429,1.7520642091625908e-38,-0.006259487010538578,0.7880677580833435,0.0,-0.0008457941003143787,0.8105554580688477,0.0,-0.10224105417728424
988.0,916.0,2.9151,0.7771,8.5262,-0.0371,-0.2472,-0.1061,-1.489596077506878,-0.2658040523529053,1.3621315956115723,-1.9903618097305298,0.0006844839663244784,2.10676646232605,4.5969177919575195,9.650061110733077e-05,0.30388009548187256,-1.652182404194967,3.1809475140173348e-43,-0.006287564057856798,0.7881239056587219,0.0,-0.006285231560468674,0.810571551322937,0.0,-0.11897113919258118
988.0,916.0,2.9151,0.7771,8.5262,-0.0371,-0.2472,-0.1061,-1.4911387500217934,-0.25901371240615845,1.3895384073257446,-1.9903618097305298,0.0018851946806535125,2.0647313594818115,4.5968896585651855,0.00012459025310818106,0.2998092472553253,-1.6522343794452112,0.0,-0.01665356382727623,0.7880197763442993,0.0,-0.0015937751159071922,0.8105313181877136,0.0,-0.0975780338048935
988.0,916.0,2.9151,0.7771,8.5262,-0.0371,-0.2472,-0.1061,-1.4932576802423974,-0.25927969813346863,1.3962421417236328,-1.990349292755127,0.00576447369530797,2.110111713409424,4.596930189723633,8.349584095412865e-05,0.3044508099555969,-1.6521981398211878,0.00012171680282335728,-0.0017577126855030656,0.7880799770355225,0.0,0.0011312548303976655,0.8105595111846924,0.0,-0.1858845353126526
988.0,916.0,2.9151,0.7771,8.5262,-0.0371,-0.2472,-0.1061,-1.495345914070942,-0.2536633312702179,1.4186224937438965,-1.9903181791305542,0.008937891572713852,2.1080713272094727,4.596962137813232,0.0006850152858532965,0.31191322207450867,-1.6521900335894983,0.00013178944936953485,-0.009499924257397652,0.7880963087081909,0.0,0.001729761715978384,0.8105393648147583,0.0,-0.1108802855014801
988.0,916.0,2.9151,0.7771,8.5262,-0.0371,-0.2472,-0.1061,-1.497432531123497,-0.25283655524253845,1.4662069082260132,-1.990225911140442,0.010151563212275505,2.1403777599334717,4.596962137813232,0.0014171641087159514,0.31820812821388245,-1.6522186438189905,0.00012007846089545637,-0.005419399123638868,0.7880598902702332,0.0,-0.010085598565638065,0.8105876445770264,0.0,-0.16720351576805115
988.0,916.0,2.9151,0.7771,8.5262,-0.0371,-0.2472,-0.1061,-1.4990323421410103,-0.2625502645969391,1.4047915935516357,-1.9901659488677979,0.010637182742357254,2.1429684162139893,4.5969740587421875,0.0012404907029122114,0.30957531929016113,-1.652170483266012,0.00013007917732466012,-0.009004835039377213,0.7881079316139221,0.0,-0.0015736697241663933,0.8105634450912476,0.0,-0.10448695719242096
988.0,916.0,2.9151,0.7771,8.5262,-0.0371,-0.2472,-0.1061,-1.5011702266386528,-0.2559753358364105,1.4613227844238281,-1.9900665283203125,0.011819636449217796,2.1926307678222656,4.596937819118164,0.0019110786961391568,0.30835384130477905,-1.6521742979632776,0.0001212219794979319,-0.003778730984777212,0.7880881428718567,0.0,0.004962210077792406,0.8105716109275818,0.0,-0.05939606577157974
988.0,916.0,2.9151,0.7771,8.5262,-0.0371,-0.2472,-0.1061,-1.50319096565757,-0.2519364058971405,1.465031385421753,-1.989970088005066,0.014412962831556797,2.1365814208984375,4.596970244044922,0.003768975380808115,0.324832022190094,-1.6521781126605433,0.0001125585040426813,-0.012146702036261559,0.7880881428718567,0.0,0.00498991459608078,0.8105957508087158,0.0,-0.097060427069664
988.0,916.0,2.9151,0.7771,8.5262,-0.0371,-0.2472,-0.1061,-1.5052541655353089,-0.2570171654224396,1.4438867568969727,-1.9898426532745361,0.0166297759860754,2.178274631500244,4.597017927760742,0.004294666461646557,0.3085891306400299,-1.652182404194967,0.00011980129784205928,-0.001727480674162507,0.7880603075027466,0.0,-0.0056044370867311954,0.8105353116989136,0.0,-0.08359088003635406
971.0,876.0,3.3589,0.8124,8.5173,-0.0446,-0.2195,-0.1197,-1.5067278680256386,-0.24951300024986267,1.4591920375823975,-1.9897503852844238,0.017748313024640083,2.1369833946228027,4.597013636226318,0.0030331865418702364,0.3160044550895691,-1.6521781126605433,0.00011433836334617808,0.0015841240528970957,0.7880561351776123,0.0,-0.01038044411689043,0.810523271560669,0.0,-0.11550934612751007
971.0,876.0,3.3589,0.8124,8.5173,-0.0446,-0.2195,-0.1197,-1.5086617183736344,-0.2486109733581543,1.4491117000579834,-1.989626169204712,0.018507320433855057,2.1999449729919434,4.597029371852539,0.001391335274092853,0.32240888476371765,-1.652170483266012,0.00010750926594482735,-0.010545307770371437,0.7880398035049438,0.0,-0.00017602532170712948,0.810523271560669,0.0,-0.10974527895450592
971.0,876.0,3.3589,0.8124,8.5173,-0.0446,-0.2195,-0.1197,-1.5106203158250828,-0.2531001567840576,1.4874377250671387,-1.9894384145736694,0.020177941769361496,2.17769718170166,4.597057982082031,0.000671560235787183,0.32633763551712036,-1.6522224585162562,0.00011972268839599565,0.0007852271664887667,0.7880599498748779,0.0,-0.020229894667863846,0.8105595111846924,0.0,-0.09194549918174744
971.0,876.0,3.3589,0.8124,8.5173,-0.0446,-0.2195,-0.1197,-1.5125504483333607,-0.24170979857444763,1.4703989028930664,-1.9892138242721558,0.02545720525085926,2.200982093811035,4.597101851100586,0.000998982577584684,0.3127793073654175,-1.6521456877337855,0.00010820730676641688,-0.009537437930703163,0.7880717515945435,0.0,-0.002266658004373312,0.810595691204071,-9.660885552875698e-05,-0.08760417997837067
971.0,876.0,3.3589,0.8124,8.5173,-0.0446,-0.2195,-0.1197,-1.5139742878130455,-0.23736326396465302,1.5190497636795044,-1.9891514778137207,0.028604192659258842,2.167351722717285,4.59710614263501,0.0027067826595157385,0.3304100036621094,-1.6522186438189905,0.0001209344482049346,-0.0012561774346977472,0.7880480289459229,0.0,-0.0011081862030550838,0.8105635643005371,-9.159874025499448e-05,-0.059609029442071915
971.0,876.0,3.3589,0.8124,8.5173,-0.0446,-0.2195,-0.1197,-1.5158405651203175,-0.2344619482755661,1.5016711950302124,-1.9888304471969604,0.029847746714949608,2.1915695667266846,4.5970775324055175,0.0015712389722466469,0.3212323784828186,-1.6521900335894983,0.00011114060907857493,-0.0030430741608142853,0.7880237698554993,0.0,-0.020382525399327278,0.8105595111846924,-6.776182999601588e-05,-0.059299368411302567
971.0,876.0,3.3589,0.8124,8.5173,-0.0446,-0.2195,-0.1197,-1.5177176979235192,-0.23727895319461823,1.5318331718444824,-1.9885621070861816,0.03163391351699829,2.1776928901672363,4.597057505244873,0.0007327747298404574,0.3295995593070984,-1.6521661917315882,0.00010268659389112145,-0.010564684867858887,0.7880640029907227,0.0,-0.013665443286299706,0.8105876445770264,-4.7262943553505465e-05,-0.1019454225897789
971.0,876.0,3.3589,0.8124,8.5173,-0.0446,-0.2195,-0.1197,-1.519491435294487,-0.23489783704280853,1.5060497522354126,-1.9883309602737427,0.033344004303216934,2.2396178245544434,4.597065134639404,0.0006988522363826632,0.3310739994049072,-1.6521742979632776,9.542777115711942e-05,-0.0001426876988261938,0.7880759239196777,0.0,-0.0054802242666482925,0.810599684715271,-5.889087333343923e-05,-0.07280876487493515
971.0,876.0,3.3589,0.8124,8.5173,-0.0446,-0.2195,-0.1197,-1.5208720092526455,-0.22961954772472382,1.5583350658416748,-1.9881311655044556,0.035362061113119125,2.2216508388519287,4.597077055568359,0.0008751151617616415,0.3170510232448578,-1.6521943251239222,0.00010566051787463948,-0.017805716022849083,0.7880317568778992,0.0,-0.00026364170480519533,0.8105876445770264,-5.6138535001082346e-05,-0.13188350200653076
971.0,876.0,3.3589,0.8124,8.5173,-0.0446,-0.2195,-0.1197,-1.5227105666748066,-0.21953758597373962,1.5623791217803955,-1.9878315925598145,0.03880106285214424,2.2261929512023926,4.597198172206543,0.0020378921180963516,0.3204822540283203,-1.6522024313556116,9.907633648253977e-05,-0.009429415687918663,0.7881157398223877,0.0,0.0004704962484538555,0.8106316924095154,-5.284246799419634e-05,-0.060255810618400574
971.0,876.0,3.3589,0.8124,8.5173,-0.0446,-0.2195,-0.1197,-1.5244386729649086,-0.22170034050941467,1.5585265159606934,-1.9874554872512817,0.039998073130846024,2.2284810543060303,4.5971690851398925,0.0037456676363945007,0.33226290345191956,-1.652170483266012,9.321272955276072e-05,-0.012482752092182636,0.7880957722663879,0.0,-0.015344079583883286,0.8105676174163818,-4.9912003305507824e-05,-0.08138351887464523
971.0,876.0,3.3589,0.8124,8.5173,-0.0446,-0.2195,-0.1197,-1.5263064515641709,-0.21395060420036316,1.6104762554168701,-1.9871923923492432,0.04220789670944214,2.2470035552978516,4.59723345815625,0.0035822538193315268,0.34161385893821716,-1.6521943251239222,8.800436626188457e-05,-0.015272918157279491,0.7880963087081909,0.0,-0.0044486308470368385,0.810595691204071,-4.7289475332945585e-05,-0.10828574001789093
935.0,885.0,3.5958,0.5444,9.3888,-0.033,-0.1778,-0.1051,-1.527625185703375,-0.20734760165214539,1.6562055349349976,-1.9868754148483276,0.04510055109858513,2.277165651321411,4.59723345815625,0.0027893760707229376,0.3381550908088684,-1.6521661917315882,8.446472202194855e-05,-0.005669524427503347,0.7880279421806335,0.0,-0.004829041194170713,0.8105796575546265,-3.41751983796712e-05,-0.07091251015663147
935.0,885.0,3.5958,0.5444,9.3888,-0.033,-0.1778,-0.1051,-1.5293527518263836,-0.2154359519481659,1.6260427236557007,-1.9865232706069946,0.04818548634648323,2.2367591857910156,4.5972253519245605,0.0015919087454676628,0.34097909927368164,-1.652170483266012,8.016559149837121e-05,0.00631500780582428,0.7880759835243225,0.0,0.013591459952294827,0.810575544834137,-3.248051507398486e-05,-0.13906942307949066
935.0,885.0,3.5958,0.5444,9.3888,-0.033,-0.1778,-0.1051,-1.5310827580145379,-0.2198154479265213,1.6512508392333984,-1.9861326217651367,0.05539030581712723,2.2054824829101562,4.597237749690674,0.0008440954843536019,0.3534574508666992,-1.6521499792682093,7.628295134054497e-05,-0.014488407410681248,0.7880198359489441,0.0,-0.011798789724707603,0.8105474710464478,-4.0115734009305015e-05,-0.0122688552364707
935.0,885.0,3.5958,0.5444,9.3888,-0.033,-0.1778,-0.1051,-1.5328173276833077,-0.2054486721754074,1.6583894491195679,-1.985608458518982,0.06762983649969101,2.2842278480529785,4.59723345815625,0.0011435698252171278,0.34122419357299805,-1.652182404194967,8.246645302278921e-05,0.004848250187933445,0.7881201505661011,0.0,-0.0030603259801864624,0.8105515241622925,-4.601110504154349e-06,-0.025961358100175858
935.0,885.0,3.5958,0.5444,9.3888,-0.033,-0.1778,-0.1051,-1.53410633400593,-0.2060806304216385,1.6434298753738403,-1.9852043390274048,0.07516692578792572,2.3144896030426025,4.59723345815625,0.002080940641462803,0.342245489358902,-1.6521661917315882,8.036841609282419e-05,-0.006201271433383226,0.7880598902702332,0.0,-0.007979489862918854,0.8105835914611816,-1.111114065338592e-11,-0.0983833372592926
935.0,885.0,3.5958,0.5444,9.3888,-0.033,-0.1778,-0.1051,-1.5358688843301316,-0.21926023066043854,1.673499345779419,-1.9845411777496338,0.08283785730600357,2.312445640563965,4.597268744105957,0.004205271136015654,0.34973350167274475,-1.652186695729391,2.2123938236973117e-08,-0.015699438750743866,0.7880800366401672,0.0,-0.009001040831208229,0.8105919361114502,-1.8159427781938575e-05,-0.09356585144996643
935.0,885.0,3.5958,0.5444,9.3888,-0.033,-0.1778,-0.1051,-1.5375674825957795,-0.21550364792346954,1.6604251861572266,-1.9838699102401733,0.08882920444011688,2.313540458679199,4.597293062801025,0.008818214759230614,0.34511929750442505,-1.6521948019610804,4.020916900219357e-13,-0.015213527716696262,0.7881643772125244,0.0,-0.010246512480080128,0.810615599155426,1.5792860722285695e-05,-0.05862409621477127
935.0,885.0,3.5958,0.5444,9.3888,-0.033,-0.1778,-0.1051,-1.539275837396719,-0.20586374402046204,1.7210373878479004,-1.9831092357635498,0.09664502739906311,2.311481475830078,4.597308321590088,0.006202890537679195,0.3338237702846527,-1.6521456877337855,7.307818938647716e-18,-0.01770854741334915,0.7880599498748779,0.0,-0.0025241277180612087,0.8105595111846924,1.4749546608072706e-05,-0.07439576834440231
935.0,885.0,3.5958,0.5444,9.3888,-0.033,-0.1778,-0.1051,-1.5404727731696148,-0.20662632584571838,1.6659376621246338,-1.9825096130371094,0.10189878940582275,2.3128464221954346,4.5973846155354,0.004489114973694086,0.3522970676422119,-1.652186695729391,2.034158295302937e-21,-0.014157453551888466,0.7880397439002991,0.0,-0.006449616979807615,0.8105595111846924,5.607555522146868e-07,-0.11088297516107559
935.0,885.0,3.5958,0.5444,9.3888,-0.033,-0.1778,-0.1051,-1.5421070151827116,-0.20907112956047058,1.6978809833526611,-1.9817147254943848,0.10509815067052841,2.384082555770874,4.597432299251221,0.003929578233510256,0.35586827993392944,-1.6521385351764124,3.696982457473881e-26,-0.012630218639969826,0.7880480289459229,0.0,-0.0009788600727915764,0.8105474710464478,1.8167769128300468e-14,-0.08928161859512329
935.0,885.0,3.5958,0.5444,9.3888,-0.033,-0.1778,-0.1051,-1.5437340226820488,-0.1959657520055771,1.7188009023666382,-1.980750560760498,0.11320590227842331,2.3282508850097656,4.597476168269775,0.006793913431465626,0.339092493057251,-1.6521666685687464,6.719083391503566e-31,-0.014635232277214527,0.7880717515945435,0.0,-0.009836464188992977,0.8105514645576477,5.886126665073651e-22,-0.07556270062923431
935.0,885.0,3.5958,0.5444,9.3888,-0.033,-0.1778,-0.1051,-1.5453165185502549,-0.19235309958457947,1.7059879302978516,-1.9798911809921265,0.12627139687538147,2.3938050270080566,4.597484274501465,0.007514965254813433,0.3452586531639099,-1.6521781126605433,1.2211602687516624e-35,-0.012395818717777729,0.787987470626831,0.0,-0.006211800500750542,0.8105514645576477,1.907030402638444e-29,-0.11404372751712799
911.0,806.0,3.8656,0.7424,9.545,-0.0304,-0.1216,-0.1179,-1.5464876660010596,-0.19712074100971222,1.7879599332809448,-1.979136347770691,0.13367609679698944,2.404813766479492,4.597512407893799,0.0038063761312514544,0.3482404351234436,-1.652182404194967,3.3991450991958163e-39,-0.012309695594012737,0.788084089756012,0.0,-0.008854137733578682,0.8105916380882263,4.605253675862224e-35,-0.1278209239244461
911.0,806.0,3.8656,0.7424,9.545,-0.0304,-0.1216,-0.1179,-1.5480346393636246,-0.19712553918361664,1.755204677581787,-1.9779841899871826,0.14549967646598816,2.3699536323547363,4.597531958217285,0.0008016581414267421,0.34035271406173706,-1.6521466414081019,6.165713243029195e-44,-0.019593993201851845,0.788084089756012,0.0,-0.010727884247899055,0.8105675578117371,1.4923828645059302e-42,-0.102716363966465
911.0,806.0,3.8656,0.7424,9.545,-0.0304,-0.1216,-0.1179,-1.549565152531006,-0.19653576612472534,1.7159326076507568,-1.9768331050872803,0.15013842284679413,2.3872861862182617,4.59757582723584,0.00045460218098014593,0.33583563566207886,-1.6521661917315882,0.0,0.001600019633769989,0.7880963087081909,0.0,-0.020303990691900253,0.8105635046958923,0.0,-0.09106080234050751
911.0,806.0,3.8656,0.7424,9.545,-0.0304,-0.1216,-0.1179,-1.5510315497270604,-0.1883142739534378,1.7563533782958984,-1.9755619764328003,0.16042673587799072,2.3694982528686523,4.597640677089355,0.003091642167419195,0.33543044328689575,-1.6521385351764124,1.5188129864895927e-08,-0.012691850773990154,0.7880358695983887,0.0,-0.0042416066862642765,0.8105514645576477,0.0,-0.0983419120311737
911.0,806.0,3.8656,0.7424,9.545,-0.0304,-0.1216,-0.1179,-1.5521711756340046,-0.18189725279808044,1.7278847694396973,-1.9746501445770264,0.16643688082695007,2.40271258354187,4.597628279323242,0.0037214583717286587,0.34498679637908936,-1.6521747748004358,4.227671164536151e-12,-0.00395714957267046,0.7880319952964783,0.0,0.0019883415661752224,0.810571551322937,0.0,-0.07585069537162781
911.0,806.0,3.8656,0.7424,9.545,-0.0304,-0.1216,-0.1179,-1.5536253874054928,-0.1746331751346588,1.7644267082214355,-1.973254680633545,0.1780226081609726,2.469741106033325,4.597604437465332,0.002153573092073202,0.34362247586250305,-1.652142349873678,7.683582771820548e-17,-0.01505051925778389,0.7880517840385437,0.0,-0.008129427209496498,0.8105795979499817,0.0,-0.09591574966907501
911.0,806.0,3.8656,0.7424,9.545,-0.0304,-0.1216,-0.1179,-1.5550675273737689,-0.1832096427679062,1.7642364501953125,-1.9718319177627563,0.18137381970882416,2.411707639694214,4.597623987788818,0.0007509111310355365,0.3343329429626465,-1.6521418730365198,1.396453135967662e-21,-0.00021356414072215557,0.7880680561065674,0.0,-0.006116772070527077,0.8105554580688477,0.0,-0.057241857051849365
911.0,806.0,3.8656,0.7424,9.545,-0.0304,-0.1216,-0.1179,-1.5565219943276425,-0.18743835389614105,1.7304556369781494,-1.9702728986740112,0.18168160319328308,2.4176523685455322,4.597676439876221,0.0006154357106424868,0.3461233973503113,-1.6521785894977015,2.5379849340352596e-26,-0.018643051385879517,0.7880517840385437,0.0,-0.016615023836493492,0.8105474710464478,0.0,-0.11546969413757324
911.0,806.0,3.8656,0.7424,9.545,-0.0304,-0.1216,-0.1179,-1.5576250378838559,-0.17610357701778412,1.7558753490447998,-1.969214677810669,0.19021999835968018,2.4153051376342773,4.597700281734131,0.004565828945487738,0.3403041362762451,-1.652170483266012,7.06457509906335e-30,-0.0022790494840592146,0.7880561351776123,0.0,-0.013052079826593399,0.8104953169822693,0.0,-0.08227478712797165
911.0,806.0,3.8656,0.7424,9.545,-0.0304,-0.1216,-0.1179,-1.559012246584036,-0.1649189442396164,1.8067059516906738,-1.967592477798462,0.2011694759130478,2.437664747238159,4.597727938289307,0.005952985025942326,0.3429126739501953,-1.6521456877337855,1.2839517274017645e-34,-0.012576913461089134,0.7880599498748779,0.0,-0.0040069338865578175,0.8105876445770264,0.0,-0.06534025073051453
911.0,806.0,3.8656,0.7424,9.545,-0.0304,-0.1216,-0.1179,-1.560455811475851,-0.17227086424827576,1.7997567653656006,-1.965989351272583,0.20433799922466278,2.4641330242156982,4.597748442287109,0.0034101244527846575,0.3239983916282654,-1.6521580854998987,2.3335192742092233e-39,-0.009984837844967842,0.7880800366401672,0.0,-0.0012957656290382147,0.8105675578117371,0.0,-0.07138648629188538
911.0,806.0,3.8656,0.7424,9.545,-0.0304,-0.1216,-0.1179,-1.5618500041640182,-0.18153128027915955,1.7737321853637695,-1.9642882347106934,0.20862802863121033,2.4166717529296875,4.597754641170166,0.0030741915106773376,0.3381008505821228,-1.652170483266012,4.203895392974451e-44,-0.0019183747936040163,0.7881044745445251,0.0,-0.0051479823887348175,0.8105514645576477,0.0,-0.07764282077550888
881.0,806.0,4.0265,0.9129,9.673,-0.0232,0.0226,-0.1319,-1.5629291201806446,-0.1750938892364502,1.7636655569076538,-1.9629440307617188,0.21628203988075256,2.4846484661102295,4.597824259395264,0.00526023143902421,0.3394988477230072,-1.652153793965475,0.0,-0.0157482847571373,0.7880799770355225,0.0,-0.005130468867719173,0.8105554580688477,0.0,-0.09262555092573166
881.0,806.0,4.0265,0.9129,9.673,-0.0232,0.0226,-0.1319,-1.5643522448702534,-0.1611357182264328,1.8380467891693115,-1.9612387418746948,0.22577576339244843,2.4876699447631836,4.597863360042236,0.007996061816811562,0.3513287901878357,-1.6521785894977015,0.0,-0.008279225789010525,0.7880681157112122,0.0,0.0012941989116370678,0.8105795979499817,0.0,-0.09768705070018768
881.0,806.0,4.0265,0.9129,9.673,-0.0232,0.0226,-0.1319,-1.5656750977835436,-0.16756649315357208,1.8228012323379517,-1.959417700767517,0.22707495093345642,2.44612193107605,4.59792344152417,0.005981343798339367,0.33644697070121765,-1.6521499792682093,0.0,-0.005367802456021309,0.7880718111991882,0.0,-0.011925265192985535,0.8105233311653137,0.0,-0.059017837047576904
881.0,806.0,4.0265,0.9129,9.673,-0.0232,0.0226,-0.1319,-1.5670615292950352,-0.18136173486709595,1.7455496788024902,-1.9576196670532227,0.23551233112812042,2.4529776573181152,4.597939177150391,0.0056694610975682735,0.3411114513874054,-1.652153793965475,0.0,-0.00622876500710845,0.7880520820617676,0.0,-0.032463446259498596,0.8105635046958923,0.0,-0.04982169717550278
881.0,806.0,4.0265,0.9129,9.673,-0.0232,0.0226,-0.1319,-1.568108801763021,-0.17474666237831116,1.7881889343261719,-1.9562492370605469,0.23814788460731506,2.427628993988037,4.597999258632324,0.005721470341086388,0.34769129753112793,-1.652198616658346,0.0,-0.008156636729836464,0.7880599498748779,0.0,0.0010943860979750752,0.8105313777923584,0.0,-0.08426358550786972
881.0,806.0,4.0265,0.9129,9.673,-0.0232,0.0226,-0.1319,-1.569443059303314,-0.16252416372299194,1.8574148416519165,-1.9543228149414062,0.2460193783044815,2.4911513328552246,4.598003550166748,0.005811492446810007,0.322967529296875,-1.652142349873678,0.0,-0.01532742939889431,0.7880881428718567,0.0,-0.0107008907943964,0.8105273842811584,0.0,-0.09410466253757477
881.0,806.0,4.0265,0.9129,9.673,-0.0232,0.0226,-0.1319,-1.5707980595030726,-0.16588211059570312,1.8104209899902344,-1.952332854270935,0.25161102414131165,2.473416805267334,4.597986860866211,0.003493895521387458,0.3296858072280884,-1.652186695729391,0.0,-0.010550424456596375,0.7880998849868774,0.0,0.0009684618562459946,0.810619592666626,0.0,-0.09384371340274811
881.0,806.0,4.0265,0.9129,9.673,-0.0232,0.0226,-0.1319,-1.571801324883932,-0.1747148334980011,1.7911090850830078,-1.9508470296859741,0.24965588748455048,2.4850645065307617,4.598035498256348,0.001253609312698245,0.32519662380218506,-1.652182404194967,0.0,0.007082654163241386,0.7880278825759888,0.0,-0.006316639017313719,0.8105674982070923,0.0,-0.09540918469429016
881.0,806.0,4.0265,0.9129,9.673,-0.0232,0.0226,-0.1319,-1.5731398067870082,-0.17982539534568787,1.797551155090332,-1.9488409757614136,0.25270843505859375,2.440159559249878,4.598055048579834,0.0007602903642691672,0.31355342268943787,-1.6521781126605433,0.0,-0.009236752055585384,0.7880717515945435,0.0,-0.008573031052947044,0.8105995059013367,0.0,-0.08919962495565414
881.0,806.0,4.0265,0.9129,9.673,-0.0232,0.0226,-0.1319,-1.5744577846922816,-0.16959403455257416,1.7538518905639648,-1.9466984272003174,0.2697106599807739,2.460052967071533,4.598078890437744,0.0018346357392147183,0.3219125270843506,-1.6521580854998987,0.0,0.006885395385324955,0.7881280183792114,0.0,-0.013343887403607368,0.8105876445770264,0.0,-0.08032999187707901
881.0,806.0,4.0265,0.9129,9.673,-0.0232,0.0226,-0.1319,-1.5758935413756312,-0.16569991409778595,1.8178925514221191,-1.9445693492889404,0.2674773037433624,2.4787919521331787,4.598095102901123,0.0010047449031844735,0.30308741331100464,-1.6521580854998987,0.0,0.008978270925581455,0.7880518436431885,0.0,-0.006854871287941933,0.8105674982070923,0.0,-0.0653698667883873
891.0,853.0,3.8345,0.7962,8.6674,-0.0347,0.0886,-0.1329,-1.576855798760885,-0.1705213338136673,1.8210375308990479,-1.9429826736450195,0.26939326524734497,2.461353063583374,4.598019285792969,0.0006614195881411433,0.3067645728588104,-1.6521466414081019,0.0,0.003844530088827014,0.7880557775497437,0.0,0.0020831706933677197,0.8105955123901367,0.0,-0.11416233330965042
891.0,853.0,3.8345,0.7962,8.6674,-0.0347,0.0886,-0.1329,-1.578271051446432,-0.17915068566799164,1.7700830698013306,-1.9408131837844849,0.27394652366638184,2.409722089767456,4.5979949670979,0.00046567758545279503,0.3058859705924988,-1.6521580854998987,0.0,0.017189759761095047,0.7880156636238098,0.0,-0.007795564830303192,0.8105835914611816,0.0,-0.09406378865242004
891.0,853.0,3.8345,0.7962,8.6674,-0.0347,0.0886,-0.1329,-1.5796143017210902,-0.18096855282783508,1.7428597211837769,-1.938600778579712,0.26354628801345825,2.4192276000976562,4.598071261043213,0.00014297408051788807,0.30796700716018677,-1.6521747748004358,0.0,0.025746077299118042,0.7881202697753906,0.0,-0.013303263112902641,0.8105635046958923,0.0,-0.12260684370994568
891.0,853.0,3.8345,0.7962,8.6674,-0.0347,0.0886,-0.1329,-1.5809928379454554,-0.17768360674381256,1.7993414402008057,-1.9363664388656616,0.2708607614040375,2.4505159854888916,4.598063154811523,0.0001827795640565455,0.29886099696159363,-1.6522024313556116,1.935422005772125e-05,0.009485265240073204,0.7880839705467224,0.0,-0.003835902316495776,0.8105514645576477,0.0,-0.1660061925649643
891.0,853.0,3.8345,0.7962,8.6674,-0.0347,0.0886,-0.1329,-1.582019945184225,-0.1702972948551178,1.7534669637680054,-1.9347801208496094,0.27362963557243347,2.4434680938720703,4.598051233882568,0.00015893328236415982,0.302686870098114,-1.6522067228900355,3.2379252843384165e-06,0.012204845435917377,0.788047730922699,0.0,-0.006996470503509045,0.8105554580688477,0.0,-0.12665492296218872
891.0,853.0,3.8345,0.7962,8.6674,-0.0347,0.0886,-0.1329,-1.5834223232665003,-0.17037993669509888,1.7899619340896606,-1.932558298110962,0.2702940106391907,2.4281253814697266,4.598090811366699,0.00010359724547015503,0.28827229142189026,-1.6521785894977015,5.88476836704821e-11,0.018792029470205307,0.7880197167396545,0.0,0.0023177056573331356,0.8105514645576477,0.0,-0.1451696753501892
891.0,853.0,3.8345,0.7962,8.6674,-0.0347,0.0886,-0.1329,-1.5847522221007289,-0.17116326093673706,1.8123927116394043,-1.9303804636001587,0.27039849758148193,2.434720754623413,4.5979949670979,8.808463462628424e-05,0.3010024130344391,-1.6521499792682093,1.069527432553442e-15,0.01390383392572403,0.7881157994270325,0.0,-0.003308831946924329,0.810587465763092,0.0,-0.18531998991966248
891.0,853.0,3.8345,0.7962,8.6674,-0.0347,0.0886,-0.1329,-1.5861998997130335,-0.18157429993152618,1.7631595134735107,-1.9282444715499878,0.27101442217826843,2.4564173221588135,4.598006888026855,7.791597454342991e-05,0.29437023401260376,-1.6521661917315882,1.9438132087472405e-20,0.014512862078845501,0.7880881428718567,0.0,-0.011596991680562496,0.8105835914611816,0.0,-0.16768313944339752
891.0,853.0,3.8345,0.7962,8.6674,-0.0347,0.0886,-0.1329,-1.587297102014059,-0.1873931884765625,1.7356352806091309,-1.9266856908798218,0.2733097970485687,2.3731393814086914,4.598002596492432,7.170746539486572e-05,0.2877477705478668,-1.6521547476397913,5.410675464331516e-24,0.019044477492570877,0.7880599498748779,0.0,0.016321703791618347,0.8105554580688477,0.0,-0.2353285849094391
891.0,853.0,3.8345,0.7962,8.6674,-0.0347,0.0886,-0.1329,-1.5887819729247035,-0.17838717997074127,1.7836138010025024,-1.9244879484176636,0.2712211012840271,2.432986259460449,4.598063154811523,6.48209752398543e-05,0.2939451336860657,-1.6521747748004358,9.833635193849061e-29,0.014272421598434448,0.7880800366401672,0.0,-0.014654267579317093,0.8105876445770264,0.0,-0.19125093519687653
891.0,853.0,3.8345,0.7962,8.6674,-0.0347,0.0886,-0.1329,-1.5902773342528285,-0.1737847477197647,1.7916276454925537,-1.9223299026489258,0.27668094635009766,2.40083909034729,4.5980750757404785,5.914137000218034e-05,0.28343677520751953,-1.6521747748004358,1.7872144478215056e-33,0.026632122695446014,0.788084089756012,0.0,-0.015143850818276405,0.810571551322937,0.0,-0.20364531874656677
891.0,853.0,3.8345,0.7962,8.6674,-0.0347,0.0886,-0.1329,-1.5918170414366664,-0.19309687614440918,1.7615028619766235,-1.920091986656189,0.2735249698162079,2.398787498474121,4.5980588632771,-4.082795567228459e-05,0.2758696973323822,-1.6521828810321253,3.248174247323932e-38,0.011191001161932945,0.7881439924240112,0.0,0.001911364495754242,0.8105835914611816,0.0,-0.16814196109771729
905.0,838.0,3.1274,0.92,8.9043,-0.0478,0.1229,-0.1324,-1.5929566822447718,-0.20300859212875366,1.755119800567627,-1.9184789657592773,0.2672489583492279,2.3621726036071777,4.598099394435547,-4.417599848238751e-05,0.28929269313812256,-1.6521905104266565,9.04117769182372e-42,0.021523430943489075,0.7881119847297668,0.0,-0.00951155461370945,0.810519278049469,0.0,-0.1710716336965561
905.0,838.0,3.1274,0.92,8.9043,-0.0478,0.1229,-0.1324,-1.5946346722044886,-0.1951419711112976,1.7873902320861816,-1.9163130521774292,0.2789361774921417,2.3997366428375244,4.598034544582031,-6.859678478576825e-07,0.28451472520828247,-1.652153793965475,0.0,0.030918147414922714,0.7880520820617676,0.0,-0.009315285831689835,0.8105514645576477,0.0,-0.14968600869178772
905.0,838.0,3.1274,0.92,8.9043,-0.0478,0.1229,-0.1324,-1.5962087116637171,-0.19446603953838348,1.8188954591751099,-1.9141160249710083,0.2781415581703186,2.4363059997558594,4.598055048579834,-1.2467126289661401e-11,0.2901642322540283,-1.6521905104266565,2.7491030778037384e-05,0.006303996313363314,0.7880278825759888,0.0,-0.0034821657463908195,0.8105916380882263,0.0,-0.20626166462898254
905.0,838.0,3.1274,0.92,8.9043,-0.0478,0.1229,-0.1324,-1.5979157886900843,-0.20935164391994476,1.7678172588348389,-1.9118945598602295,0.276877224445343,2.398021697998047,4.5980588632771,-2.265838544893671e-16,0.28234589099884033,-1.6521466414081019,0.00010053787991637364,0.02381916344165802,0.7881119847297668,0.0,-0.01518781203776598,0.810615599155426,0.0,-0.18006838858127594
905.0,838.0,3.1274,0.92,8.9043,-0.0478,0.1229,-0.1324,-1.599198957482809,-0.21454834938049316,1.7915003299713135,-1.9102482795715332,0.2795643210411072,2.413792610168457,4.598023100490234,-6.307044083093991e-20,0.28017860651016235,-1.6521623770343226,9.422367293154821e-05,0.027009794488549232,0.7881078720092773,0.0,0.005136910360306501,0.8105995059013367,0.0,-0.1591103971004486
905.0,838.0,3.1274,0.92,8.9043,-0.0478,0.1229,-0.1324,-1.6008631191649378,-0.21137426793575287,1.8209019899368286,-1.907976746559143,0.2683011591434479,2.343949317932129,4.598019285792969,-1.1462740598540217e-24,0.27875399589538574,-1.652186695729391,8.694179996382445e-05,0.025574911385774612,0.7880916595458984,0.0,-0.011564832180738449,0.810615599155426,0.0,-0.18385165929794312
905.0,838.0,3.1274,0.92,8.9043,-0.0478,0.1229,-0.1324,-1.602555891076559,-0.21974696218967438,1.7879806756973267,-1.9058220386505127,0.26793915033340454,2.362074375152588,4.598023100490234,-0.0001030685962177813,0.2980870306491852,-1.6521623770343226,8.070469630183652e-05,0.020405719056725502,0.788084089756012,0.0,0.00572331203147769,0.8105916380882263,0.0,-0.1746824085712433
