ramyac6/ROB537/final_project/csv/all/good_29.csv
tof_0,tof_1,accelx,accely,accelz,gyrox,gyroy,gyroz,shoulder_lift_joint_position,shoulder_lift_joint_velocity,shoulder_lift_joint_effort,elbow_joint_position,elbow_joint_velocity,elbow_joint_effort,wrist_1_joint_position,wrist_1_joint_velocity,wrist_1_joint_effort,wrist_2_joint_position,wrist_2_joint_velocity,wrist_2_joint_effort,wrist_3_joint_position,wrist_3_joint_velocity,wrist_3_joint_effort,shoulder_pan_joint_position,shoulder_pan_joint_velocity,shoulder_pan_joint_effort
258.0,319.0,6.8782,-0.9236,6.0335,-0.0406,0.035,-0.1191,-1.5926562748351039,0.0,2.154114246368408,-1.3259261846542358,-0.0,2.097371816635132,3.6728474336811523,0.0,0.25331369042396545,-1.2579963842975062,0.0,-0.040938518941402435,0.6454960107803345,0.0,-0.01588856242597103,1.1872624158859253,0.0,0.03603595867753029
258.0,319.0,6.8782,-0.9236,6.0335,-0.0406,0.035,-0.1191,-1.5926081142821253,0.0,2.2667076587677,-1.3259339332580566,-0.0,2.1228866577148438,3.67287985860791,0.0,0.24439772963523865,-1.2579363028155726,0.0,-0.028400404378771782,0.6454595923423767,0.0,-0.005692583043128252,1.1872504949569702,0.0,-0.002421899000182748
258.0,319.0,6.8782,-0.9236,6.0335,-0.0406,0.035,-0.1191,-1.5926157436766566,0.0,2.166581630706787,-1.3259339332580566,-0.0,2.1106138229370117,3.6728717523762207,0.0,0.2476579248905182,-1.258024040852682,0.0,-0.04204855114221573,0.6454357504844666,0.0,-0.006509017199277878,1.1872584819793701,0.0,-0.032720357179641724
258.0,319.0,6.8782,-0.9236,6.0335,-0.0406,0.035,-0.1191,-1.5926162205138148,0.0,2.228384017944336,-1.3259177207946777,-0.0,2.1470417976379395,3.672867460841797,0.0,0.24490666389465332,-1.2579963842975062,0.0,-0.04712902754545212,0.6454837322235107,0.0,-0.010699884034693241,1.1872702836990356,0.0,0.021272722631692886
258.0,319.0,6.8782,-0.9236,6.0335,-0.0406,0.035,-0.1191,-1.5926162205138148,0.0,2.2423410415649414,-1.3258976936340332,-0.0,2.076922655105591,3.6728717523762207,0.0,0.24898308515548706,-1.2579920927630823,0.0,-0.05259861797094345,0.6454558372497559,0.0,-0.019905921071767807,1.1872345209121704,0.0,-0.027126867324113846
258.0,319.0,6.8782,-0.9236,6.0335,-0.0406,0.035,-0.1191,-1.5926324329771937,0.0,2.1938726902008057,-1.3258895874023438,-0.0,2.1265761852264404,3.6728593546101074,0.0,0.24206480383872986,-1.2579482237445276,0.0,-0.03993257135152817,0.6454878449440002,0.0,-0.009258017875254154,1.18726646900177,0.0,-0.020300045609474182
258.0,319.0,6.8782,-0.9236,6.0335,-0.0406,0.035,-0.1191,-1.5926157436766566,0.0,2.2222442626953125,-1.325929880142212,-0.0,2.121032953262329,3.672851248378418,0.0,0.2537612020969391,-1.2579644362079065,0.0,-0.02828458696603775,0.6454558372497559,0.0,-0.004421253688633442,1.1872624158859253,0.0,-0.004879274405539036
258.0,319.0,6.8782,-0.9236,6.0335,-0.0406,0.035,-0.1191,-1.5926243267455042,0.0,2.2152903079986572,-1.3259096145629883,-0.0,2.109846591949463,3.672835035915039,0.0,0.24656954407691956,-1.2579801718341272,0.0,-0.038684580475091934,0.6454517841339111,0.0,-0.0074567352421581745,1.1872583627700806,0.0,0.03203676640987396
264.0,316.0,6.8387,-0.9111,6.0724,-0.0428,0.0206,-0.1093,-1.5926200352110804,0.0,2.1797971725463867,-1.325889229774475,-0.0,2.0914766788482666,3.6728550630756835,0.0,0.24885374307632446,-1.2579682509051722,0.0,-0.048295073211193085,0.6454517841339111,0.0,-0.005506604909896851,1.1872345209121704,0.0,0.03539633750915527
264.0,316.0,6.8387,-0.9111,6.0724,-0.0428,0.0206,-0.1093,-1.5925876102843226,0.0,2.2050294876098633,-1.3258695602416992,-0.0,2.085155963897705,3.672919912929199,0.0,0.24353185296058655,-1.2579920927630823,0.0,-0.03729551285505295,0.6454193592071533,0.0,-0.005439212545752525,1.1872985363006592,0.0,0.0406884104013443
264.0,316.0,6.8387,-0.9111,6.0724,-0.0428,0.0206,-0.1093,-1.592555662194723,0.0,2.1863884925842285,-1.3259620666503906,-0.0,2.1252777576446533,3.672835512752197,0.0,0.2507299482822418,-1.2579682509051722,0.0,-0.05607900023460388,0.6454758644104004,0.0,-0.0009091128595173359,1.1872544288635254,0.0,-0.03476529195904732
264.0,316.0,6.8387,-0.9111,6.0724,-0.0428,0.0206,-0.1093,-1.59265198330068,0.0,2.230257987976074,-1.3259620666503906,-0.0,2.1441445350646973,3.6728994089313964,0.0,0.23717327415943146,-1.2579801718341272,0.0,-0.056661732494831085,0.6455321311950684,0.0,-0.005299779586493969,1.1872624158859253,0.0,-0.032524317502975464
264.0,316.0,6.8387,-0.9111,6.0724,-0.0428,0.0206,-0.1093,-1.5926200352110804,0.0,2.2148842811584473,-1.3259379863739014,-0.0,2.1800196170806885,3.6728474336811523,0.0,0.25466188788414,-1.2579882780658167,0.0,-0.04037517309188843,0.6454439163208008,0.0,0.005664876662194729,1.1872305870056152,0.0,-0.02105318382382393
264.0,316.0,6.8387,-0.9111,6.0724,-0.0428,0.0206,-0.1093,-1.5925914249815882,0.0,2.2144100666046143,-1.3259538412094116,-0.0,2.1025171279907227,3.672863169307373,0.0,0.2566496729850769,-1.2579439322101038,0.0,-0.04334915429353714,0.6455035209655762,0.0,-0.008052760735154152,1.1872822046279907,0.0,-0.020001066848635674
264.0,316.0,6.8387,-0.9111,6.0724,-0.0428,0.0206,-0.1093,-1.5926038227477015,0.0,2.1839661598205566,-1.325905442237854,-0.0,2.077082633972168,3.67287985860791,0.0,0.25998005270957947,-1.2579882780658167,0.0,-0.04342108219861984,0.6454636454582214,0.0,-0.004579176194965839,1.1872622966766357,0.0,0.004285821691155434
264.0,316.0,6.8387,-0.9111,6.0724,-0.0428,0.0206,-0.1093,-1.5926081142821253,0.0,2.2414512634277344,-1.3259538412094116,-0.0,2.1156373023986816,3.6729118066975097,0.0,0.23548275232315063,-1.2579882780658167,0.0,-0.05904776602983475,0.645479679107666,0.0,-0.019894380122423172,1.1872702836990356,0.0,-0.04839268699288368
264.0,316.0,6.8387,-0.9111,6.0724,-0.0428,0.0206,-0.1093,-1.5926162205138148,0.0,2.196723461151123,-1.325905442237854,-0.0,2.1351613998413086,3.6729561525532226,0.0,0.25286024808883667,-1.257928196583883,0.0,-0.04139018431305885,0.6454278826713562,0.0,-0.0035092695616185665,1.187238335609436,0.0,0.04099641740322113
264.0,316.0,6.8387,-0.9111,6.0724,-0.0428,0.0206,-0.1093,-1.5926281414427699,0.0,2.2182908058166504,-1.325905442237854,-0.0,2.1197011470794678,3.6729118066975097,0.0,0.2476806342601776,-1.2579644362079065,0.0,-0.04396548867225647,0.6454115509986877,0.0,-0.0027088902425020933,1.1872385740280151,0.0,0.00223833741620183
264.0,316.0,6.8387,-0.9111,6.0724,-0.0428,0.0206,-0.1093,-1.5926643810667933,0.0,2.1855757236480713,-1.3259538412094116,-0.0,2.1480560302734375,3.67287985860791,0.0,0.24537405371665955,-1.2579801718341272,0.0,-0.043733298778533936,0.6454797387123108,0.0,-0.01465259213000536,1.1872384548187256,0.0,0.020179886370897293
264.0,316.0,6.8387,-0.9111,6.0724,-0.0428,0.0206,-0.1093,-1.592611928979391,0.0,2.212618589401245,-1.325905442237854,-0.0,2.130706310272217,3.6728598314472656,0.0,0.24452418088912964,-1.2579839865313929,0.0,-0.05090458318591118,0.6454718708992004,0.0,-0.001277608796954155,1.1872782707214355,0.0,-0.004005841910839081
264.0,316.0,6.8387,-0.9111,6.0724,-0.0428,0.0206,-0.1093,-1.5926243267455042,0.0,2.219167709350586,-1.3259379863739014,-0.0,2.087139368057251,3.6729118066975097,0.0,0.24681654572486877,-1.2579682509051722,0.0,-0.037925466895103455,0.6454718708992004,0.0,-0.0013904117513448,1.1872425079345703,0.0,0.010265989229083061
264.0,316.0,6.8387,-0.9111,6.0724,-0.0428,0.0206,-0.1093,-1.5926038227477015,0.0,2.213710308074951,-1.3259179592132568,-0.0,2.1196820735931396,3.672884150142334,0.0,0.24137550592422485,-1.2579558531390589,0.0,-0.040650978684425354,0.6454837322235107,0.0,-0.0050447559915483,1.1872584819793701,0.0,-0.009267296642065048
264.0,316.0,6.8387,-0.9111,6.0724,-0.0428,0.0206,-0.1093,-1.592600008050436,0.0,2.1759581565856934,-1.325905442237854,-0.0,2.1266205310821533,3.6728994089313964,0.0,0.24831055104732513,-1.2579882780658167,0.0,-0.04599509388208389,0.645479679107666,0.0,-0.014430753886699677,1.1872544288635254,0.0,0.008919200859963894
255.0,326.0,6.8913,-0.9344,5.8959,-0.0368,0.0307,-0.1168,-1.5926157436766566,0.0,2.2504472732543945,-1.3259220123291016,-0.0,2.123692274093628,3.672907515163086,0.0,0.23902848362922668,-1.2579920927630823,0.0,-0.04147658869624138,0.6454274654388428,0.0,-0.008123697713017464,1.1872624158859253,0.0,-0.026973742991685867
255.0,326.0,6.8913,-0.9344,5.8959,-0.0368,0.0307,-0.1168,-1.592640062371725,0.0,2.200751543045044,-1.3259261846542358,-0.0,2.126084566116333,3.6729160982319335,0.0,0.25764572620391846,-1.2579758802997034,0.0,-0.03850684314966202,0.6455084085464478,0.0,0.001082749105989933,1.1872504949569702,0.0,0.00032692961394786835
255.0,326.0,6.8913,-0.9344,5.8959,-0.0368,0.0307,-0.1168,-1.5926243267455042,0.0,2.1834800243377686,-1.3259341716766357,-0.0,2.112389326095581,3.6729118066975097,3.0442510734474126e-08,0.2524159550666809,-1.2580164114581507,0.0,-0.038688868284225464,0.6454156637191772,0.0,-0.005528757814317942,1.1872663497924805,0.0,-0.004876074381172657
255.0,326.0,6.8913,-0.9344,5.8959,-0.0368,0.0307,-0.1168,-1.5926038227477015,0.0,2.2448935508728027,-1.3259261846542358,-0.0,2.098585844039917,3.6728879648395996,8.473785909068887e-12,0.24436137080192566,-1.2579601446734827,0.0,-0.03194494545459747,0.6454476714134216,0.0,-0.0008239581948146224,1.1872503757476807,0.0,0.005803033709526062
255.0,326.0,6.8913,-0.9344,5.8959,-0.0368,0.0307,-0.1168,-1.5925713978209437,0.0,2.2241973876953125,-1.3259421586990356,-0.0,2.102271795272827,3.6728717523762207,2.3587095665712375e-15,0.24346336722373962,-1.2579482237445276,0.0,-0.04927126318216324,0.645487904548645,0.0,-0.008643006905913353,1.1872584819793701,0.0,0.03621825575828552
255.0,326.0,6.8913,-0.9344,5.8959,-0.0368,0.0307,-0.1168,-1.5926243267455042,0.0,2.2042884826660156,-1.325905442237854,-0.0,2.119671106338501,3.672839327449463,6.565554309635121e-19,0.257437139749527,-1.2579520384417933,0.0,-0.03419221192598343,0.6454677581787109,0.0,-0.006212686188519001,1.1872624158859253,0.0,-0.04238983988761902
255.0,326.0,6.8913,-0.9344,5.8959,-0.0368,0.0307,-0.1168,-1.5926038227477015,0.0,2.2384371757507324,-1.3259013891220093,-0.0,2.1089868545532227,3.6729232507893066,1.8275461074075934e-22,0.25039011240005493,-1.258024040852682,0.0,-0.03162749111652374,0.6454637050628662,0.0,-0.00931392889469862,1.1872901916503906,0.0,0.003857328789308667
255.0,326.0,6.8913,-0.9344,5.8959,-0.0368,0.0307,-0.1168,-1.5926038227477015,0.0,2.1734542846679688,-1.3259339332580566,-0.0,2.1518445014953613,3.672895594234131,5.0870416541348125e-26,0.2574847638607025,-1.2579439322101038,0.0,-0.02988843247294426,0.6454558372497559,0.0,0.006745218299329281,1.1872423887252808,0.0,0.022041311487555504
255.0,326.0,6.8913,-0.9344,5.8959,-0.0368,0.0307,-0.1168,-1.592600008050436,0.0,2.230811357498169,-1.3259302377700806,-0.0,2.137929677963257,3.672863169307373,1.4159969591135203e-29,0.22672608494758606,-1.2580083052264612,0.0,-0.04529053717851639,0.6454837918281555,0.0,0.001332789659500122,1.1872782707214355,0.0,-0.024433348327875137
255.0,326.0,6.8913,-0.9344,5.8959,-0.0368,0.0307,-0.1168,-1.5926038227477015,0.0,2.1833789348602295,-1.3259096145629883,-0.0,2.1217267513275146,3.672907515163086,3.941479210739178e-33,0.23965728282928467,-1.2579520384417933,0.0,-0.03075353614985943,0.6454637050628662,0.0,0.0010854550637304783,1.1872026920318604,0.0,0.019012095406651497
255.0,326.0,6.8913,-0.9344,5.8959,-0.0368,0.0307,-0.1168,-1.5926038227477015,0.0,2.2472593784332275,-1.3259220123291016,-0.0,2.097306489944458,3.6728879648395996,1.097125400168784e-36,0.25206276774406433,-1.2579520384417933,0.0,-0.029945574700832367,0.6454956531524658,0.0,-0.006898035295307636,1.1872584819793701,0.0,0.005468066316097975
255.0,326.0,6.8913,-0.9344,5.8959,-0.0368,0.0307,-0.1168,-1.5925795040526332,0.0,2.2291007041931152,-1.3259499073028564,-0.0,2.1067721843719482,3.672863169307373,3.0538917822570036e-40,0.24558153748512268,-1.2579801718341272,0.0,-0.03876139596104622,0.6454960107803345,0.0,-0.008574309758841991,1.1872901916503906,0.0,0.019657745957374573
255.0,326.0,6.8913,-0.9344,5.8959,-0.0368,0.0307,-0.1168,-1.5925756893553675,0.0,2.1941347122192383,-1.3259179592132568,-0.0,2.1344118118286133,3.6728474336811523,8.547920632381384e-44,0.26072490215301514,-1.2580164114581507,0.0,-0.03791416808962822,0.6454275846481323,0.0,-0.02110373228788376,1.1872704029083252,0.0,0.004026161041110754
255.0,326.0,6.8913,-0.9344,5.8959,-0.0368,0.0307,-0.1168,-1.5926443539061488,0.0,2.1917099952697754,-1.3259302377700806,-0.0,2.0515546798706055,3.6728994089313964,0.0,0.2508697509765625,-1.2580164114581507,0.0,-0.038737088441848755,0.6454517841339111,0.0,-0.016867922618985176,1.1872704029083252,0.0,0.03817591071128845
259.0,305.0,6.8752,-0.9422,6.1783,-0.0388,0.0237,-0.1132,-1.592600008050436,0.0,2.2091708183288574,-1.3259013891220093,-0.0,2.0834462642669678,3.672851248378418,0.0,0.2505719065666199,-1.2579963842975062,0.0,-0.040739960968494415,0.6454636454582214,0.0,-0.012003941461443901,1.1872425079345703,0.0,-0.002400275319814682
259.0,305.0,6.8752,-0.9422,6.1783,-0.0388,0.0237,-0.1132,-1.5926805935301722,0.0,2.1674535274505615,-1.3258894681930542,-0.0,2.127418041229248,3.6728717523762207,0.0,0.24709376692771912,-1.2579882780658167,0.0,-0.0384846031665802,0.6454197764396667,0.0,0.0001567569561302662,1.1872702836990356,0.0,0.020309194922447205
259.0,305.0,6.8752,-0.9422,6.1783,-0.0388,0.0237,-0.1132,-1.5926038227477015,0.0,2.196866989135742,-1.3258575201034546,-0.0,2.088407278060913,3.6728431421467285,0.0,0.24208283424377441,-1.2579920927630823,0.0,-0.041232720017433167,0.6454916000366211,0.0,-0.009628589265048504,1.1872663497924805,0.0,0.00034169701393693686
259.0,305.0,6.8752,-0.9422,6.1783,-0.0388,0.0237,-0.1132,-1.5926319561400355,0.0,2.235177993774414,-1.3259259462356567,-0.0,2.107485294342041,3.6728755670734863,0.0,0.24967768788337708,-1.2579839865313929,0.0,-0.038094259798526764,0.6454319953918457,0.0,-0.005479008425027132,1.1872702836990356,0.0,0.029245970770716667
259.0,305.0,6.8752,-0.9422,6.1783,-0.0388,0.0237,-0.1132,-1.5926038227477015,0.0,2.1490063667297363,-1.3258776664733887,-0.0,2.1329843997955322,3.6728717523762207,0.0,0.2509118318557739,-1.2580001989947718,0.0,-0.04017072170972824,0.6454595923423767,0.0,-0.010986827313899994,1.1872544288635254,0.0,-0.043676771223545074
259.0,305.0,6.8752,-0.9422,6.1783,-0.0388,0.0237,-0.1132,-1.5926162205138148,0.0,2.2281312942504883,-1.3258410692214966,-0.0,2.120915412902832,3.6728755670734863,0.0,0.2490275800228119,-1.2579839865313929,0.0,-0.046014927327632904,0.6454718708992004,0.0,-0.000926334410905838,1.187214732170105,0.0,-0.020951401442289352
259.0,305.0,6.8752,-0.9422,6.1783,-0.0388,0.0237,-0.1132,-1.5926243267455042,0.0,2.1744892597198486,-1.3258973360061646,-0.0,2.075401782989502,3.6728922563740234,0.0,0.22633644938468933,-1.2579963842975062,0.0,-0.04826056957244873,0.6455117464065552,0.0,-0.012866776436567307,1.1872305870056152,0.0,0.019583214074373245
259.0,305.0,6.8752,-0.9422,6.1783,-0.0388,0.0237,-0.1132,-1.5926038227477015,0.0,2.2161529064178467,-1.3259096145629883,-0.0,2.1204099655151367,3.6728550630756835,0.0,0.2491525113582611,-1.2579320112811487,0.0,-0.042079053819179535,0.6454718112945557,0.0,-0.01610654965043068,1.1872663497924805,0.0,-0.0491579994559288
259.0,305.0,6.8752,-0.9422,6.1783,-0.0388,0.0237,-0.1132,-1.5926081142821253,0.0,2.2226600646972656,-1.3258973360061646,-0.0,2.0951876640319824,3.6728755670734863,0.0,0.2549145221710205,-1.2579839865313929,0.0,-0.032945416867733,0.6454598903656006,0.0,-0.01651769131422043,1.1872663497924805,0.0,-0.010749328881502151
259.0,305.0,6.8752,-0.9422,6.1783,-0.0388,0.0237,-0.1132,-1.5926081142821253,0.0,2.23980975151062,-1.3258647918701172,-0.0,2.143321990966797,3.6728030878254394,0.0,0.25019991397857666,-1.2580001989947718,0.0,-0.03744913637638092,0.6454595923423767,0.0,0.0015011208597570658,1.1872423887252808,0.0,-0.0023192106746137142
259.0,305.0,6.8752,-0.9422,6.1783,-0.0388,0.0237,-0.1132,-1.5926200352110804,0.0,2.2163915634155273,-1.3259220123291016,-0.0,2.138493776321411,3.672919912929199,0.0,0.24330197274684906,-1.2579639593707483,0.0,-0.045509904623031616,0.6454476714134216,0.0,-0.016053859144449234,1.1872544288635254,0.0,0.02493862807750702
259.0,305.0,6.8752,-0.9422,6.1783,-0.0388,0.0237,-0.1132,-1.5926281414427699,0.0,2.197364091873169,-1.3259620666503906,-0.0,2.1584036350250244,3.6728555399128417,0.0,0.25060343742370605,-1.2579882780658167,0.0,-0.04799647629261017,0.6453791260719299,0.0,-0.009515974670648575,1.1872464418411255,0.0,-0.03796546906232834
259.0,305.0,6.8752,-0.9422,6.1783,-0.0388,0.0237,-0.1132,-1.5926124058165492,0.0,2.260648488998413,-1.3259096145629883,-0.0,2.121227264404297,3.6728474336811523,0.0,0.25746965408325195,-1.2579682509051722,0.0,-0.03144189715385437,0.6455079317092896,0.0,-0.0079527348279953,1.1872503757476807,0.0,0.04092349857091904
259.0,305.0,6.8752,-0.9422,6.1783,-0.0388,0.0237,-0.1132,-1.5925795040526332,0.0,2.259404182434082,-1.325913906097412,-0.0,2.090853214263916,3.672895594234131,0.0,0.2586829960346222,-1.2579682509051722,0.0,-0.030022431164979935,0.645455539226532,0.0,-0.004519360605627298,1.1872901916503906,0.0,-0.012331697158515453
259.0,305.0,6.8752,-0.9422,6.1783,-0.0388,0.0237,-0.1132,-1.592600008050436,0.0,2.208751916885376,-1.3259379863739014,-0.0,2.0793304443359375,3.672867460841797,0.0,0.2510754466056824,-1.2579644362079065,0.0,-0.049130648374557495,0.645479679107666,0.0,0.0015068156644701958,1.1872345209121704,0.0,0.0017810310237109661
250.0,320.0,6.8459,-0.9787,6.1484,-0.0414,0.027,-0.12,-1.5925876102843226,0.0,2.222268581390381,-1.3259179592132568,-0.0,2.1054177284240723,3.672867460841797,0.0,0.24995139241218567,-1.2579482237445276,0.0,-0.03833881765604019,0.6454681754112244,0.0,-0.006434728857129812,1.1872663497924805,0.0,0.015700962394475937
250.0,320.0,6.8459,-0.9787,6.1484,-0.0414,0.027,-0.12,-1.5926200352110804,0.0,2.1995458602905273,-1.3259944915771484,-0.0,2.149888515472412,3.6729037004658203,0.0,0.24148330092430115,-1.2580121199237269,0.0,-0.03886048123240471,0.6454837322235107,0.0,0.009793023578822613,1.1872702836990356,0.0,-0.002338360296562314
250.0,320.0,6.8459,-0.9787,6.1484,-0.0414,0.027,-0.12,-1.5926443539061488,0.0,2.1739768981933594,-1.3259421586990356,-0.0,2.138914108276367,3.6729037004658203,0.0,0.2530013918876648,-1.257984463368551,0.0,-0.05742117762565613,0.6454517841339111,0.0,-0.0120703661814332,1.187258243560791,0.0,0.02110595628619194
250.0,320.0,6.8459,-0.9787,6.1484,-0.0414,0.027,-0.12,-1.592595716516012,0.0,2.2330374717712402,-1.325905442237854,-0.0,2.105064868927002,3.672895594234131,0.0,0.2582327723503113,-1.2579682509051722,0.0,-0.052387338131666183,0.6454439163208008,0.0,-0.01284804381430149,1.1872702836990356,0.0,-0.02223603054881096
250.0,320.0,6.8459,-0.9787,6.1484,-0.0414,0.027,-0.12,-1.5925713978209437,0.0,2.216766119003296,-1.3259179592132568,-0.0,2.1328327655792236,3.6728879648395996,0.0,0.23049017786979675,-1.2579520384417933,0.0,-0.036359723657369614,0.6454956531524658,0.0,-0.005490212235599756,1.187278389930725,0.0,-0.00378325954079628
250.0,320.0,6.8459,-0.9787,6.1484,-0.0414,0.027,-0.12,-1.5925833187498988,0.0,2.181933641433716,-1.325950264930725,-0.0,2.1290388107299805,3.6728550630756835,0.0,0.24608856439590454,-1.257972542439596,0.0,-0.04079563915729523,0.6454319953918457,0.0,-0.016027944162487984,1.18722665309906,0.0,0.024886755272746086
250.0,320.0,6.8459,-0.9787,6.1484,-0.0414,0.027,-0.12,-1.5926443539061488,0.0,2.210498809814453,-1.3259220123291016,-0.0,2.1438965797424316,3.672884150142334,0.0,0.24239985644817352,-1.2579758802997034,0.0,-0.03956988453865051,0.6454513669013977,0.0,-0.0014198783319443464,1.1872464418411255,0.0,0.023688074201345444
250.0,320.0,6.8459,-0.9787,6.1484,-0.0414,0.027,-0.12,-1.5926319561400355,0.0,2.208415985107422,-1.3259462118148804,-0.0,2.082780599594116,3.672863646144531,0.0,0.2509116530418396,-1.2580001989947718,0.0,-0.040557511150836945,0.6454357504844666,0.0,-0.021856779232621193,1.1873104572296143,0.0,-0.011083465069532394
250.0,320.0,6.8459,-0.9787,6.1484,-0.0414,0.027,-0.12,-1.5926200352110804,0.0,2.172607421875,-1.3259421586990356,-0.0,2.130345344543457,3.672895594234131,0.0,0.24662822484970093,-1.2579520384417933,0.0,-0.03260853886604309,0.6454521417617798,0.0,0.001491752453148365,1.1872584819793701,0.0,-8.019502274692059e-05
250.0,320.0,6.8459,-0.9787,6.1484,-0.0414,0.027,-0.12,-1.5925713978209437,0.0,2.2409744262695312,-1.325913906097412,-0.0,2.0894999504089355,3.6729160982319335,0.0,0.24673622846603394,-1.2579801718341272,0.0,-0.040180500596761703,0.6454034447669983,0.0,-0.010410950519144535,1.1872385740280151,0.0,0.012691358104348183
250.0,320.0,6.8459,-0.9787,6.1484,-0.0414,0.027,-0.12,-1.592611928979391,0.0,2.192444324493408,-1.3259297609329224,-0.0,2.129791259765625,3.6728755670734863,0.0,0.24351435899734497,-1.2579801718341272,0.0,-0.024352435022592545,0.6454878449440002,0.0,-0.004258835222572088,1.1872782707214355,0.0,0.011052276939153671
250.0,320.0,6.8459,-0.9787,6.1484,-0.0414,0.027,-0.12,-1.592600008050436,0.0,2.2102203369140625,-1.3259379863739014,-0.0,2.0868630409240723,3.672851248378418,0.0,0.25278693437576294,-1.2579882780658167,0.0,-0.05599314346909523,0.6454356908798218,0.0,-0.012600754387676716,1.1872782707214355,0.0,-0.0020062762778252363
250.0,320.0,6.8459,-0.9787,6.1484,-0.0414,0.027,-0.12,-1.592611928979391,0.0,2.190479040145874,-1.3258894681930542,-0.0,2.144685983657837,3.6729037004658203,0.0,0.2544488310813904,-1.2579758802997034,0.0,-0.04488310590386391,0.6454800367355347,0.0,-0.0037479782477021217,1.1872464418411255,0.0,-0.006885010749101639
250.0,320.0,6.8459,-0.9787,6.1484,-0.0414,0.027,-0.12,-1.592611928979391,0.0,2.195594072341919,-1.325929880142212,-0.0,2.1469781398773193,3.672887011165283,0.0,0.2382189929485321,-1.2579520384417933,0.0,-0.042151354253292084,0.6454278826713562,0.0,-0.013486262410879135,1.1872862577438354,0.0,-0.005739040672779083
250.0,320.0,6.8459,-0.9787,6.1484,-0.0414,0.027,-0.12,-1.5926200352110804,0.0,2.207597494125366,-1.3259379863739014,-0.0,2.1412785053253174,3.6728550630756835,0.0,0.2455100417137146,-1.2579720656024378,0.0,-0.04286738112568855,0.6453873515129089,0.0,-0.008730410598218441,1.1873184442520142,0.0,0.032122641801834106
258.0,315.0,6.8028,-0.9356,6.1537,-0.0351,0.0218,-0.1118,-1.5925914249815882,0.0,2.1941070556640625,-1.3259177207946777,-0.0,2.0999252796173096,3.672863169307373,0.0,0.24721670150756836,-1.2579644362079065,0.0,-0.036344319581985474,0.6454919576644897,0.0,-0.005115315318107605,1.1872702836990356,0.0,-0.02778884768486023
258.0,315.0,6.8028,-0.9356,6.1537,-0.0351,0.0218,-0.1118,-1.5926200352110804,0.0,2.2528674602508545,-1.325913667678833,-0.0,2.132838726043701,3.6729037004658203,0.0,0.26249462366104126,-1.2579758802997034,0.0,-0.0426696240901947,0.6455198526382446,0.0,-0.0025715630035847425,1.1872464418411255,0.0,0.030753280967473984
258.0,315.0,6.8028,-0.9356,6.1537,-0.0351,0.0218,-0.1118,-1.5926362476744593,0.0,2.194991111755371,-1.3258894681930542,-0.0,2.106544017791748,3.6728593546101074,0.0,0.25356823205947876,-1.2580083052264612,0.0,-0.03811129555106163,0.6454357504844666,0.0,-0.01582743227481842,1.1872544288635254,0.0,0.03724036365747452
258.0,315.0,6.8028,-0.9356,6.1537,-0.0351,0.0218,-0.1118,-1.5925713978209437,0.0,2.207458019256592,-1.3258936405181885,-0.0,2.111715793609619,3.6729160982319335,0.0,0.23860502243041992,-1.2579401175128382,0.0,-0.03730834275484085,0.6454075574874878,0.0,0.0012778128730133176,1.1872584819793701,0.0,-0.04403189569711685
258.0,315.0,6.8028,-0.9356,6.1537,-0.0351,0.0218,-0.1118,-1.5926243267455042,0.0,2.2026937007904053,-1.325893521308899,-0.0,2.1273386478424072,3.672884150142334,0.0,0.2385578602552414,-1.2579839865313929,0.0,-0.04192343354225159,0.6454676985740662,0.0,-0.00202793232165277,1.1872425079345703,0.0,-0.01393753569573164
258.0,315.0,6.8028,-0.9356,6.1537,-0.0351,0.0218,-0.1118,-1.5926243267455042,0.0,2.20467472076416,-1.3258973360061646,-0.0,2.128563404083252,3.672895594234131,0.0,0.24330952763557434,-1.2580083052264612,0.0,-0.04024060070514679,0.6454997658729553,0.0,0.004527701064944267,1.1872904300689697,0.0,0.007891989313066006
258.0,315.0,6.8028,-0.9356,6.1537,-0.0351,0.0218,-0.1118,-1.5925756893553675,0.0,2.2572550773620605,-1.3259421586990356,-0.0,2.1309750080108643,3.672887011165283,0.0,0.24579383432865143,-1.2580164114581507,0.0,-0.028635695576667786,0.6453993320465088,0.0,-0.0009143671486526728,1.1872985363006592,0.0,0.000990423490293324
258.0,315.0,6.8028,-0.9356,6.1537,-0.0351,0.0218,-0.1118,-1.5926443539061488,0.0,2.2081289291381836,-1.3259220123291016,-0.0,2.095315456390381,3.672919912929199,0.0,0.2292010486125946,-1.2579682509051722,0.0,-0.045004263520240784,0.6454479694366455,0.0,-0.011721286922693253,1.1872704029083252,0.0,0.03795946016907692
258.0,315.0,6.8028,-0.9356,6.1537,-0.0351,0.0218,-0.1118,-1.5926038227477015,0.0,2.1709437370300293,-1.32584547996521,-0.0,2.121889591217041,3.6728789049335937,0.0,0.2504259943962097,-1.2580121199237269,0.0,-0.03913667052984238,0.6454718112945557,0.0,-0.001177287194877863,1.1872345209121704,0.0,0.022814156487584114
258.0,315.0,6.8028,-0.9356,6.1537,-0.0351,0.0218,-0.1118,-1.5926038227477015,0.0,2.2058260440826416,-1.3258932828903198,-0.0,2.1548867225646973,3.6729160982319335,0.0,0.2529504895210266,-1.2580083052264612,0.0,-0.03426678478717804,0.6454640030860901,0.0,-0.009380060248076916,1.18722665309906,0.0,0.0365736186504364
258.0,315.0,6.8028,-0.9356,6.1537,-0.0351,0.0218,-0.1118,-1.5926243267455042,0.0,2.159787654876709,-1.3259539604187012,-0.0,2.117260456085205,3.6729118066975097,0.0,0.25122612714767456,-1.2580001989947718,0.0,-0.038181550800800323,0.6455320715904236,0.0,-0.003698294050991535,1.1872743368148804,0.0,0.01830293796956539
258.0,315.0,6.8028,-0.9356,6.1537,-0.0351,0.0218,-0.1118,-1.5925713978209437,0.0,2.2208971977233887,-1.3259013891220093,-0.0,2.1385090351104736,3.672863169307373,0.0,0.2390563189983368,-1.2579801718341272,0.0,-0.03357277065515518,0.6454637050628662,0.0,-0.01496051624417305,1.18722665309906,0.0,0.015006013214588165
258.0,315.0,6.8028,-0.9356,6.1537,-0.0351,0.0218,-0.1118,-1.5926200352110804,0.0,2.2194762229919434,-1.3259539604187012,-0.0,2.109989643096924,3.6728755670734863,0.0,0.25361424684524536,-1.2579601446734827,0.0,-0.04363540560007095,0.6454799771308899,0.0,-0.0026869713328778744,1.1872345209121704,0.0,0.003043992444872856
258.0,315.0,6.8028,-0.9356,6.1537,-0.0351,0.0218,-0.1118,-1.5926438770689906,0.0,2.196235418319702,-1.325913667678833,-0.0,2.121690511703491,3.672884150142334,0.0,0.25105297565460205,-1.2580283323871058,0.0,-0.031922757625579834,0.6454197764396667,0.0,-0.012124989181756973,1.1872026920318604,0.0,-0.009966308251023293
257.0,326.0,6.8148,-0.9302,6.2028,-0.0383,0.0243,-0.1254,-1.5925833187498988,0.0,2.2340335845947266,-1.325901746749878,-0.0,2.114224433898926,3.6728879648395996,0.0,0.2559487223625183,-1.2579925696002405,0.0,-0.0473661869764328,0.6454878449440002,0.0,-0.0015364974969998002,1.1872186660766602,0.0,0.001932777464389801
257.0,326.0,6.8148,-0.9302,6.2028,-0.0383,0.0243,-0.1254,-1.5926124058165492,0.0,2.2008907794952393,-1.3259462118148804,-0.0,2.146510124206543,3.672851725215576,0.0,0.2415795773267746,-1.2579682509051722,0.0,-0.04216873273253441,0.6455320715904236,0.0,0.006447532679885626,1.1872544288635254,0.0,-0.03102685511112213
257.0,326.0,6.8148,-0.9302,6.2028,-0.0383,0.0243,-0.1254,-1.5926362476744593,0.0,2.2108383178710938,-1.3259581327438354,-0.0,2.1328301429748535,3.6728717523762207,0.0,0.2463378757238388,-1.2579720656024378,0.0,-0.033244553953409195,0.6454517841339111,0.0,-0.004765661899000406,1.1872425079345703,0.0,-0.040932685136795044
257.0,326.0,6.8148,-0.9302,6.2028,-0.0383,0.0243,-0.1254,-1.5925833187498988,0.0,2.2116336822509766,-1.3259220123291016,-0.0,2.1185364723205566,3.6729160982319335,0.0,0.24458745121955872,-1.2579682509051722,0.0,-0.04086608067154884,0.6454357504844666,0.0,-0.005636321380734444,1.1872624158859253,0.0,0.01133555918931961
257.0,326.0,6.8148,-0.9302,6.2028,-0.0383,0.0243,-0.1254,-1.5926038227477015,0.0,2.229806423187256,-1.3258973360061646,-0.0,2.1269893646240234,3.672867460841797,0.0,0.2525671124458313,-1.2579720656024378,0.0,-0.03804290294647217,0.6454799771308899,0.0,-0.01849006488919258,1.1872663497924805,0.0,0.004521399736404419
257.0,326.0,6.8148,-0.9302,6.2028,-0.0383,0.0243,-0.1254,-1.592595716516012,0.0,2.2202086448669434,-1.3259623050689697,-0.0,2.113309621810913,3.672895594234131,0.0,0.24252039194107056,-1.2579720656024378,0.0,-0.04067111015319824,0.6454637050628662,0.0,-0.0004986294079571962,1.1872782707214355,0.0,0.031475089490413666
257.0,326.0,6.8148,-0.9302,6.2028,-0.0383,0.0243,-0.1254,-1.5926038227477015,0.0,2.1728296279907227,-1.3258932828903198,-0.0,2.1093709468841553,3.6728593546101074,0.0,0.2528880536556244,-1.2579682509051722,0.0,-0.03595590591430664,0.6454558372497559,0.0,-0.007194153964519501,1.1872822046279907,0.0,0.006812576204538345
257.0,326.0,6.8148,-0.9302,6.2028,-0.0383,0.0243,-0.1254,-1.5926124058165492,0.0,2.2576541900634766,-1.325893759727478,-0.0,2.1296184062957764,3.672867460841797,0.0,0.24625468254089355,-1.2579401175128382,0.0,-0.046260759234428406,0.645431637763977,0.0,-0.00882529653608799,1.1872862577438354,0.0,-0.010625869035720825
257.0,326.0,6.8148,-0.9302,6.2028,-0.0383,0.0243,-0.1254,-1.5925756893553675,0.0,2.1652231216430664,-1.3259462118148804,-0.0,2.140439033508301,3.672851248378418,0.0,0.2501433193683624,-1.2579644362079065,0.0,-0.035757921636104584,0.6454517841339111,0.0,-0.01162815559655428,1.1872704029083252,0.0,0.01855601742863655
257.0,326.0,6.8148,-0.9302,6.2028,-0.0383,0.0243,-0.1254,-1.5926281414427699,0.0,2.1904044151306152,-1.3259339332580566,-0.0,2.0977742671966553,3.6728994089313964,0.0,0.2611616849899292,-1.2579601446734827,0.0,-0.041902344673871994,0.6454837918281555,0.0,0.0010934020392596722,1.1872385740280151,0.0,0.005744981579482555
257.0,326.0,6.8148,-0.9302,6.2028,-0.0383,0.0243,-0.1254,-1.5926243267455042,0.0,2.269545316696167,-1.3259096145629883,-0.0,2.1013975143432617,3.6728879648395996,0.0,0.2435125708580017,-1.2579758802997034,0.0,-0.05051897466182709,0.6455001831054688,0.0,-0.014018147252500057,1.1872782707214355,0.0,-0.0158437117934227
257.0,326.0,6.8148,-0.9302,6.2028,-0.0383,0.0243,-0.1254,-1.5926362476744593,0.0,2.212507486343384,-1.3258936405181885,-0.0,2.1582136154174805,3.6728593546101074,0.0,0.2501564025878906,-1.2579763571368616,0.0,-0.032478027045726776,0.6454316973686218,0.0,-0.0027402203995734453,1.1872702836990356,0.0,0.026241758838295937
257.0,326.0,6.8148,-0.9302,6.2028,-0.0383,0.0243,-0.1254,-1.592600008050436,0.0,2.176771402359009,-1.3259379863739014,-0.0,2.1124770641326904,3.672907515163086,0.0,0.23782199621200562,-1.2580044905291956,0.0,-0.033015720546245575,0.6454956531524658,0.0,-0.013516802340745926,1.1872901916503906,0.0,-0.012433200143277645
257.0,326.0,6.8148,-0.9302,6.2028,-0.0383,0.0243,-0.1254,-1.5926200352110804,0.0,2.2425527572631836,-1.3259658813476562,-0.0,2.1233084201812744,3.672863169307373,0.0,0.2545340657234192,-1.2580001989947718,0.0,-0.0441364087164402,0.6455525159835815,0.0,-0.00022410659585148096,1.187178611755371,0.0,0.03373822569847107
257.0,326.0,6.8148,-0.9302,6.2028,-0.0383,0.0243,-0.1254,-1.592668195764059,0.0,2.192347288131714,-1.3259339332580566,-0.0,2.133194923400879,3.6728431421467285,0.0,0.25747427344322205,-1.2579801718341272,0.0,-0.03466615453362465,0.6454075574874878,0.0,-0.011321145109832287,1.1872583627700806,0.0,-0.027150753885507584
263.0,331.0,6.8752,-0.9296,6.1149,-0.0308,0.02,-0.1124,-1.5926124058165492,0.0,2.2031056880950928,-1.3258894681930542,-0.0,2.1370840072631836,3.6728474336811523,0.0,0.2532553970813751,-1.2579763571368616,0.0,-0.034157995134592056,0.6454956531524658,0.0,-0.0022186851128935814,1.1872185468673706,0.0,0.01126905158162117
263.0,331.0,6.8752,-0.9296,6.1149,-0.0308,0.02,-0.1124,-1.5926243267455042,0.0,2.194413185119629,-1.3259096145629883,-0.0,2.1269211769104004,3.6729037004658203,0.0,0.24898368120193481,-1.2580044905291956,0.0,-0.025997376069426537,0.6454637050628662,0.0,-0.001849067397415638,1.1872504949569702,0.0,-0.03380421921610832
263.0,331.0,6.8752,-0.9296,6.1149,-0.0308,0.02,-0.1124,-1.5926281414427699,0.0,2.193246841430664,-1.3259342908859253,-0.0,2.1377949714660645,3.67293564855542,0.0,0.24526873230934143,-1.2579601446734827,0.0,-0.030213508754968643,0.645455539226532,0.0,-0.004285048693418503,1.1872663497924805,0.0,0.04289425164461136
263.0,331.0,6.8752,-0.9296,6.1149,-0.0308,0.02,-0.1124,-1.5926243267455042,0.0,2.208796977996826,-1.325913667678833,-0.0,2.1416687965393066,3.6728717523762207,0.0,0.2481638789176941,-1.257972542439596,0.0,-0.03213689476251602,0.6454756259918213,0.0,0.0022987471893429756,1.187258243560791,1.3990882896663948e-09,0.014537787064909935
263.0,331.0,6.8752,-0.9296,6.1149,-0.0308,0.02,-0.1124,-1.5925914249815882,0.0,2.2249491214752197,-1.3259302377700806,-0.0,2.150313138961792,3.6728312212177734,0.0,0.25561803579330444,-1.2579882780658167,0.0,-0.03608909621834755,0.6454522013664246,0.0,-0.003963104914873838,1.1872904300689697,3.378633796821402e-15,-0.01430322416126728
263.0,331.0,6.8752,-0.9296,6.1149,-0.0308,0.02,-0.1124,-1.5926200352110804,0.0,2.258693218231201,-1.3259421586990356,-0.0,2.105677366256714,3.672919436092041,0.0,0.24929657578468323,-1.2579839865313929,0.0,-0.02663511037826538,0.6454718112945557,0.0,-0.013666350394487381,1.1873104572296143,8.15900421625476e-21,0.0014659524895250797
263.0,331.0,6.8752,-0.9296,6.1149,-0.0308,0.02,-0.1124,-1.5926243267455042,0.0,2.192750930786133,-1.3259053230285645,-0.0,2.1453518867492676,3.6729232507893066,0.0,0.2563597857952118,-1.2579882780658167,0.0,-0.03562444448471069,0.6454477310180664,0.0,-0.00041316007263958454,1.1873104572296143,1.970303678454709e-26,0.025982443243265152
263.0,331.0,6.8752,-0.9296,6.1149,-0.0308,0.02,-0.1124,-1.5926882229247035,0.0,2.2479045391082764,-1.3258734941482544,-0.0,2.1130943298339844,3.672863169307373,0.0,0.2422625720500946,-1.2579963842975062,0.0,-0.020206844434142113,0.6455035209655762,0.0,-0.01780403032898903,1.1872742176055908,4.7580523041800133e-32,0.008288202807307243
263.0,331.0,6.8752,-0.9296,6.1149,-0.0308,0.02,-0.1124,-1.5926200352110804,0.0,2.225360155105591,-1.3258731365203857,-0.0,2.136155605316162,3.672884150142334,0.0,0.24465900659561157,-1.257928196583883,0.0,-0.058095287531614304,0.6454960107803345,0.0,-0.0073057315312325954,1.187238335609436,1.1490136213783714e-37,0.006778523791581392
263.0,331.0,6.8752,-0.9296,6.1149,-0.0308,0.02,-0.1124,-1.592595716516012,0.0,2.231064796447754,-1.3259421586990356,-0.0,2.123591899871826,3.672907992000244,0.0,0.24802282452583313,-1.2579601446734827,0.0,-0.04540218412876129,0.6454319953918457,0.0,-0.008546162396669388,1.1872823238372803,9.094533743336797e-05,0.0022628195583820343
263.0,331.0,6.8752,-0.9296,6.1149,-0.0308,0.02,-0.1124,-1.5926038227477015,0.0,2.23628306388855,-1.3259297609329224,-0.0,2.0789599418640137,3.672839327449463,0.0,0.25051257014274597,-1.2579920927630823,0.0,-0.039134636521339417,0.6454319953918457,0.0,0.007068877574056387,1.1872942447662354,7.908667612355202e-05,-0.003518467303365469
263.0,331.0,6.8752,-0.9296,6.1149,-0.0308,0.02,-0.1124,-1.5926157436766566,0.0,2.2305309772491455,-1.325934648513794,-0.0,2.142242193222046,3.6729275423237304,0.0,0.245965838432312,-1.2579839865313929,0.0,-0.048086702823638916,0.6454476714134216,0.0,-0.006318321451544762,1.1872823238372803,6.726446736138314e-05,0.012714201584458351
263.0,331.0,6.8752,-0.9296,6.1149,-0.0308,0.02,-0.1124,-1.5926324329771937,0.0,2.2066805362701416,-1.3258976936340332,-0.0,2.103118419647217,3.672867460841797,0.0,0.25337809324264526,-1.2579963842975062,0.0,-0.04630011320114136,0.6454312801361084,0.0,-7.005257066339254e-05,1.1872464418411255,6.048345676390454e-05,-0.01943305693566799
263.0,331.0,6.8752,-0.9296,6.1149,-0.0308,0.02,-0.1124,-1.592595716516012,0.0,2.242933750152588,-1.3259263038635254,-0.0,2.1272222995758057,3.672863169307373,0.0,0.24347001314163208,-1.2579320112811487,0.0,-0.03751395642757416,0.6454595923423767,0.0,-0.010705205611884594,1.1872944831848145,5.49446303921286e-05,-0.01763046905398369
263.0,331.0,6.8752,-0.9296,6.1149,-0.0308,0.02,-0.1124,-1.5925713978209437,0.0,2.191683530807495,-1.3259421586990356,-0.0,2.1371121406555176,3.6728755670734863,0.0,0.24489447474479675,-1.2579482237445276,0.0,-0.036624252796173096,0.6454156041145325,0.0,-0.02132454141974449,1.1872222423553467,5.0335143896518275e-05,0.015454316511750221
263.0,319.0,6.8231,-0.3709,6.1107,-0.0102,0.0287,-0.1009,-1.5925795040526332,0.0,2.1927549839019775,-1.3258486986160278,6.829415505338332e-11,2.1269283294677734,3.672891302699707,0.0,0.24714922904968262,-1.2580044905291956,0.0,-0.03414297103881836,0.6454193592071533,0.0,-0.016509439796209335,1.1872464418411255,4.643922875402495e-05,-0.006776848807930946
263.0,319.0,6.8231,-0.3709,6.1107,-0.0102,0.0287,-0.1009,-1.5926243267455042,0.0,2.195892095565796,-1.3259103298187256,1.649223440885366e-16,2.129772901535034,3.6728717523762207,0.0,0.24860969185829163,-1.2579963842975062,0.0,-0.037292398512363434,0.6455198526382446,0.0,-0.007028915919363499,1.1872464418411255,4.3103122152388096e-05,0.025270501151680946
263.0,319.0,6.8231,-0.3709,6.1107,-0.0102,0.0287,-0.1009,-1.5925632915892542,0.0,2.1715426445007324,-1.325873851776123,3.982680021680292e-22,2.0939550399780273,3.6729232507893066,0.0,0.2539381682872772,-1.2579363028155726,0.0,-0.0397261306643486,0.6455280780792236,0.0,-0.0012546933721750975,1.1872503757476807,6.0321261116769165e-05,0.007163986563682556
263.0,319.0,6.8231,-0.3709,6.1107,-0.0102,0.0287,-0.1009,-1.5925713978209437,0.0,2.281883716583252,-1.3258781433105469,0.00046881355228833854,2.091190814971924,3.6728874880024414,2.2427748547215742e-09,0.2535010576248169,-1.2579243818866175,0.0,-0.03576409071683884,0.6455079913139343,0.0,-0.019411791115999222,1.1872503757476807,5.653229891322553e-05,-0.022080525755882263
263.0,319.0,6.8231,-0.3709,6.1107,-0.0102,0.0287,-0.1009,-1.592567583123678,0.0,2.232200860977173,-1.3258458375930786,0.000733101274818182,2.068392038345337,3.6729037004658203,6.242846409092173e-13,0.24880580604076385,-1.2579601446734827,0.0,-0.030521348118782043,0.6454275846481323,0.0,-0.0038283108733594418,1.187258243560791,5.31911791767925e-05,0.019629720598459244
263.0,319.0,6.8231,-0.3709,6.1107,-0.0102,0.0287,-0.1009,-1.592595716516012,0.0,2.2053608894348145,-1.3258817195892334,0.0005518710822798312,2.1124215126037598,3.6728474336811523,1.7377190609343311e-16,0.24036905169487,-1.2579763571368616,0.0,-0.037697046995162964,0.6454956531524658,0.0,0.006640208885073662,1.187258243560791,5.0223014113726094e-05,0.004908869042992592
263.0,319.0,6.8231,-0.3709,6.1107,-0.0102,0.0287,-0.1009,-1.592600008050436,0.0,2.233597755432129,-1.325873851776123,0.00040337693644687533,2.1127772331237793,3.6729160982319335,4.837004547858892e-20,0.2540540099143982,-1.2579520384417933,0.0,-0.03325715661048889,0.6454677581787109,0.0,-0.013584030792117119,1.1872104406356812,4.7568537411279976e-05,-0.022422779351472855
263.0,319.0,6.8231,-0.3709,6.1107,-0.0102,0.0287,-0.1009,-1.5926200352110804,0.0,2.1961669921875,-1.3258492946624756,0.0003178701736032963,2.1590094566345215,3.6728994089313964,1.3463979740890056e-23,0.24192877113819122,-1.2580321470843714,0.0,-0.04163765162229538,0.6454957723617554,0.0,0.0022337790578603745,1.1872541904449463,4.518058995017782e-05,0.01921713724732399
263.0,319.0,6.8231,-0.3709,6.1107,-0.0102,0.0287,-0.1009,-1.5926319561400355,-2.2886760542295548e-10,2.2294187545776367,-1.3258336782455444,0.0002622792962938547,2.134183883666992,3.672891302699707,3.747748738212764e-27,0.25754818320274353,-1.2579882780658167,0.0,-0.0267341248691082,0.6454759836196899,0.0,-0.006782891694456339,1.1872782707214355,4.3020962039008737e-05,0.027910485863685608
263.0,319.0,6.8231,-0.3709,6.1107,-0.0102,0.0287,-0.1009,-1.5925795040526332,-5.526883098691613e-16,2.206566333770752,-1.3258857727050781,0.00022324032033793628,2.106144428253174,3.672907992000244,1.043199514603344e-30,0.255359947681427,-1.2579839865313929,0.0,-0.03231684863567352,0.6454637050628662,0.0,-0.002025698544457555,1.187286376953125,5.47444105905015e-05,-0.004639030434191227
263.0,319.0,6.8231,-0.3709,6.1107,-0.0102,0.0287,-0.1009,-1.5926243267455042,-1.3346773248838342e-21,2.2457194328308105,-1.3258402347564697,0.0001943183015100658,2.081867218017578,3.6729318338581542,2.903783746395468e-34,0.24653004109859467,-1.2579920927630823,0.0,-0.03547164797782898,0.6454916000366211,0.0,-0.0038925912231206894,1.1872742176055908,5.235601929598488e-05,0.017484180629253387
263.0,319.0,6.8231,-0.3709,6.1107,-0.0102,0.0287,-0.1009,-1.592600008050436,-3.2230886360997434e-27,2.228036642074585,-1.325893521308899,0.00017203079187311232,2.1198770999908447,3.672879381770752,8.082790435714976e-38,0.2617204189300537,-1.2579920927630823,0.0,-0.034690339118242264,0.6454517245292664,0.0,0.005842830985784531,1.1872464418411255,5.0167222070740536e-05,0.007184713147580624
263.0,319.0,6.8231,-0.3709,6.1107,-0.0102,0.0287,-0.1009,-1.5926124058165492,-7.783379356284324e-33,2.1729140281677246,-1.3258614540100098,0.00015433055523317307,2.123821496963501,3.672980471248291,0.000115324801299721,0.24618756771087646,-1.2579601446734827,0.0,-0.03582683205604553,0.6454833745956421,0.0,0.0005765971727669239,1.1872823238372803,4.815414285985753e-05,0.006536953151226044
263.0,319.0,6.8231,-0.3709,6.1107,-0.0102,0.0287,-0.1009,-1.592567583123678,-1.8795944205829423e-38,2.2492403984069824,-1.3258864879608154,0.00013993291941005737,2.1113107204437256,3.67295949041333,0.00013776894775219262,0.24480804800987244,-1.2579920927630823,0.0,-0.02714780531823635,0.6454956531524658,0.0,-0.008768275380134583,1.1872985363006592,4.6296387154143304e-05,0.00309960450977087
263.0,305.0,6.7801,-0.9009,6.2919,-0.0286,0.0286,-0.1138,-1.592539449731344,-4.484155085839415e-44,2.1933770179748535,-1.3258781433105469,0.0001279924181289971,2.138638973236084,3.672919436092041,0.00012618742766790092,0.25015509128570557,-1.2579963842975062,0.0,-0.040959298610687256,0.6454997658729553,0.0,-0.0009642862714827061,1.1872985363006592,4.45766381744761e-05,-0.026993948966264725
263.0,305.0,6.7801,-0.9009,6.2919,-0.0286,0.0286,-0.1138,-1.5926081142821253,0.0,2.1920785903930664,-1.3258614540100098,0.0001179297614726238,2.110478162765503,3.672867937678955,0.00013946820399723947,0.2440619170665741,-1.2580001989947718,0.0,-0.026678264141082764,0.645479679107666,0.0,-0.014474086463451385,1.1872304677963257,3.223528619855642e-05,-0.030485648661851883
263.0,305.0,6.7801,-0.9009,6.2919,-0.0286,0.0286,-0.1138,-1.592583795587057,0.0,2.2170400619506836,-1.3258532285690308,0.00010933390149148181,2.139944076538086,3.672915144557617,0.00012961577158421278,0.25327563285827637,-1.2579639593707483,0.0,-0.04219108819961548,0.6454436182975769,0.0,-0.010181842371821404,1.1872823238372803,3.112046033493243e-05,0.011167974211275578
263.0,305.0,6.7801,-0.9009,6.2919,-0.0286,0.0286,-0.1138,-1.5925713978209437,0.0,2.2546329498291016,-1.3258402347564697,9.964939818019047e-05,2.116337776184082,3.672931357020996,0.00011826097033917904,0.2633371651172638,-1.2579639593707483,0.0,-0.02854405716061592,0.6455198526382446,0.0,-0.00037434528348967433,1.1872345209121704,2.9748925953754224e-05,0.023895148187875748
263.0,305.0,6.7801,-0.9009,6.2919,-0.0286,0.0286,-0.1138,-1.5925795040526332,0.0,2.2177295684814453,-1.3258774280548096,9.344179125037044e-05,2.169191360473633,3.672956629390381,0.00010187200678046793,0.2419191598892212,-1.2579839865313929,0.0,-0.04329536110162735,0.6453993916511536,0.0,-0.013055910356342793,1.1872504949569702,-1.190883995150216e-05,0.03987904638051987
263.0,305.0,6.7801,-0.9009,6.2919,-0.0286,0.0286,-0.1138,-1.592555662194723,0.0,2.1923012733459473,-1.3259137868881226,7.045212987577543e-05,2.0964369773864746,3.672907515163086,8.710742986295372e-05,0.25529634952545166,-1.2579963842975062,0.0,-0.04541195556521416,0.6454316973686218,0.0,0.0025050456169992685,1.1871986389160156,-1.1469672244857065e-05,-0.006983430590480566
263.0,305.0,6.7801,-0.9009,6.2919,-0.0286,0.0286,-0.1138,-1.5926200352110804,0.0,2.212296724319458,-1.325880765914917,6.6471824538894e-05,2.1123342514038086,3.6728831964680175,8.232428808696568e-05,0.25181347131729126,-1.2580001989947718,0.0,-0.04499196261167526,0.6454837918281555,0.0,0.002677132608368993,1.1872584819793701,-1.1047316547774244e-05,-0.025290194898843765
263.0,305.0,6.7801,-0.9009,6.2919,-0.0286,0.0286,-0.1138,-1.5925761661925257,0.0,2.208711624145508,-1.3259018659591675,6.298303924268112e-05,2.1749227046966553,3.6729189592548828,7.804107008269057e-05,0.24786704778671265,-1.2579801718341272,0.0,-0.03945957124233246,0.6454595923423767,0.0,-0.004648979753255844,1.1873105764389038,-1.0654960533429403e-05,-0.0187783632427454
263.0,305.0,6.7801,-0.9009,6.2919,-0.0286,0.0286,-0.1138,-1.592600008050436,0.0,2.272505044937134,-1.3258857727050781,5.984218660159968e-05,2.092562198638916,3.6728436189838867,7.418156019411981e-05,0.2503274381160736,-1.2579882780658167,0.0,-0.04150339588522911,0.6454476714134216,0.0,-0.01745939441025257,1.1872345209121704,-1.0289527381246444e-05,-0.019092552363872528
263.0,305.0,6.7801,-0.9009,6.2919,-0.0286,0.0286,-0.1138,-1.5926162205138148,0.0,2.223555326461792,-1.3259433507919312,5.6999731896212325e-05,2.110337734222412,3.6729189592548828,7.068578997859731e-05,0.2518119812011719,-1.2579758802997034,0.0,-0.03149077296257019,0.6454759240150452,0.0,-0.008484289981424809,1.1872663497924805,-9.948319529939909e-06,-0.039114467799663544
263.0,305.0,6.7801,-0.9009,6.2919,-0.0286,0.0286,-0.1138,-1.5925756893553675,0.0,2.234614133834839,-1.3258816003799438,5.44151225767564e-05,2.1397109031677246,3.672930880183838,6.750471948180348e-05,0.2507210373878479,-1.258007828389303,0.0,-0.035824235528707504,0.6454878449440002,0.0,-0.022553779184818268,1.187306523323059,-7.039421823229475e-11,-0.00548594631254673
263.0,305.0,6.7801,-0.9009,6.2919,-0.0286,0.0286,-0.1138,-1.5926162205138148,0.0,2.2546632289886475,-1.3258816003799438,5.205465276958421e-05,2.152738332748413,3.6728998857685546,6.459766154875979e-05,0.2537032961845398,-1.258007828389303,0.0,-0.03308510407805443,0.6454558372497559,0.0,-0.010241327807307243,1.187258243560791,-1.699937288670951e-16,-0.009994877502322197
263.0,305.0,6.7801,-0.9009,6.2919,-0.0286,0.0286,-0.1138,-1.5926243267455042,0.0,2.228261947631836,-1.325913667678833,1.3427559679257683e-05,2.1262598037719727,3.6728831964680175,7.112976891221479e-05,0.24310289323329926,-1.258007828389303,0.0,-0.03393964469432831,0.6454562544822693,0.0,0.00029962509870529175,1.1873104572296143,-4.1051485946230644e-22,0.010698233731091022
263.0,305.0,6.7801,-0.9009,6.2919,-0.0286,0.0286,-0.1138,-1.5925518474974574,0.0,2.2544631958007812,-1.3258614540100098,1.2834160770580638e-05,2.1254358291625977,3.6728831964680175,7.136920612538233e-05,0.25229373574256897,-1.2580202261554163,0.0,-0.03962712734937668,0.6454402208328247,0.0,-0.017429154366254807,1.1872624158859253,-9.913449943716221e-28,0.039933573454618454
263.0,305.0,6.7801,-0.9009,6.2919,-0.0286,0.0286,-0.1138,-1.5925880871214808,0.0,2.2161169052124023,-1.3258697986602783,2.444787423883099e-05,2.1228232383728027,3.6729037004658203,6.864816532470286e-05,0.23720687627792358,-1.258024040852682,0.0,-0.03930024057626724,0.6454636454582214,0.0,-0.0023107617162168026,1.1873184442520142,-2.3939813054999463e-33,0.010077772662043571
255.0,313.0,6.9422,-1.0708,6.1454,-0.0469,0.0168,-0.1126,-1.592555662194723,0.0,2.1888744831085205,-1.3257967233657837,3.544912760844454e-05,2.1354551315307617,3.672867937678955,6.612631113966927e-05,0.2655980587005615,-1.2580040136920374,0.0,-0.04135352373123169,0.6454640030860901,0.0,-0.007251586299389601,1.1872981786727905,0.001196432625874877,-0.003558710217475891
255.0,313.0,6.9422,-1.0708,6.1454,-0.0469,0.0168,-0.1126,-1.592567583123678,0.0005561988800764084,2.23586106300354,-1.3258857727050781,4.5497421524487436e-05,2.0884087085723877,3.672915144557617,6.378311809385195e-05,0.25202676653862,-1.2580116430865687,-3.474932341873682e-08,-0.03781210631132126,0.6454034447669983,0.0,-0.0087033212184906,1.1872742176055908,0.0019435634603723884,0.00896698422729969
255.0,313.0,6.9422,-1.0708,6.1454,-0.0469,0.0168,-0.1126,-1.5925280056395472,0.0004968062858097255,2.1967995166778564,-1.3258614540100098,4.3835549149662256e-05,2.1626393795013428,3.6728760439106445,6.160035263746977e-05,0.25225210189819336,-1.2580440680133265,-9.672600394250441e-12,-0.03394497185945511,0.6454718708992004,0.0,-0.009409992024302483,1.18734610080719,0.0024508251808583736,-0.01850292831659317
255.0,313.0,6.9422,-1.0708,6.1454,-0.0469,0.0168,-0.1126,-1.592567583123678,0.00040174362948164344,2.1796889305114746,-1.3258696794509888,4.2290714191040024e-05,2.1037349700927734,3.6729037004658203,3.019138239324093e-05,0.2549833059310913,-1.2580121199237269,-2.6924032783397526e-15,-0.03538208082318306,0.6455001831054688,0.0,-0.018694043159484863,1.1873701810836792,0.003423020476475358,0.028147242963314056
255.0,313.0,6.9422,-1.0708,6.1454,-0.0469,0.0168,-0.1126,-1.592600008050436,0.00016875490837264806,2.2000558376312256,-1.325820803642273,4.08510459237732e-05,2.094852924346924,3.672915144557617,8.403881146534786e-09,0.23775498569011688,-1.258019749318258,-7.494403174289159e-19,-0.04563843831419945,0.6454637050628662,0.0,-0.005880198907107115,1.1873981952667236,0.004427864216268063,0.05447084829211235
255.0,313.0,6.9422,-1.0708,6.1454,-0.0469,0.0168,-0.1126,-1.5925475559630335,6.851137732155621e-05,2.2226576805114746,-1.325873851776123,4.601194632414263e-06,2.155031442642212,3.6728436189838867,2.339251405428233e-12,0.25658267736434937,-1.2580559889422815,-2.086094953549418e-22,-0.025369614362716675,0.6454476714134216,0.0,-0.006169578991830349,1.1873821020126343,0.004901717882603407,0.07080358266830444
255.0,313.0,6.9422,-1.0708,6.1454,-0.0469,0.0168,-0.1126,-1.592595716516012,5.3941352234687656e-05,2.186220169067383,-1.3258780241012573,1.1111342748670872e-11,2.118422508239746,3.6729156213947753,6.511391610867655e-16,0.24430423974990845,-1.2580159346209925,-5.806722539455853e-26,-0.04802970960736275,0.6454837918281555,0.0,-0.002468937309458852,1.1873904466629028,0.0029893117025494576,-0.030947476625442505
255.0,313.0,6.9422,-1.0708,6.1454,-0.0469,0.0168,-0.1126,-1.5926248035826625,4.571956742438488e-05,2.2356348037719727,-1.3258697986602783,2.683258598144632e-17,2.1022233963012695,3.672867937678955,1.8124698198591482e-19,0.24664928019046783,-1.258052174245016,-1.6163225622789586e-29,-0.024026168510317802,0.6454595327377319,0.0,-0.004121217876672745,1.1874181032180786,0.0010771291563287377,0.020519690588116646
255.0,313.0,6.9422,-1.0708,6.1454,-0.0469,0.0168,-0.1126,-1.5925880871214808,3.96729119529482e-05,2.158637285232544,-1.3258696794509888,6.479753331494601e-23,2.09259033203125,3.6729599672504882,5.0450763000850276e-23,0.25604507327079773,-1.258024040852682,-4.499094057834931e-33,-0.03266875818371773,0.6454395651817322,0.0,-0.015168273821473122,1.1874101161956787,0.0005011229659430683,-0.0043106661178171635
255.0,313.0,6.9422,-1.0708,6.1454,-0.0469,0.0168,-0.1126,-1.5925795040526332,3.372594801476225e-05,2.223637104034424,-1.3258541822433472,0.00011533549695741385,2.1445603370666504,3.67293564855542,9.169178168567663e-28,0.2516617476940155,-1.258007828389303,-8.176880901361759e-38,-0.02960875816643238,0.6454513669013977,0.0,-0.006031625904142857,1.187454342842102,0.00010347685019951314,-0.038013994693756104
255.0,313.0,6.9422,-1.0708,6.1454,-0.0469,0.0168,-0.1126,-1.5926205120482386,3.031753294635564e-05,2.2437384128570557,-1.3258823156356812,0.0001643088908167556,2.102987766265869,3.6729037004658203,2.5522742417087593e-31,0.2567511200904846,-1.257979694996969,-2.2761290956028004e-41,-0.03160957992076874,0.6454755663871765,0.0,-0.009577875956892967,1.1874622106552124,0.0002955763484351337,-0.02645627036690712
255.0,313.0,6.9422,-1.0708,6.1454,-0.0469,0.0168,-0.1126,-1.592640062371725,4.4846970581602363e-08,2.2202253341674805,-1.3258341550827026,0.0027657144237309694,2.098848581314087,3.6729108530231933,7.104350360921525e-35,0.2425680160522461,-1.258007828389303,-7.006492321624085e-45,-0.04589911177754402,0.6454637050628662,1.3199664294916147e-07,0.0013488803524523973,1.1874619722366333,0.003436157712712884,-0.018005510792136192
255.0,313.0,6.9422,-1.0708,6.1454,-0.0469,0.0168,-0.1126,-1.592611928979391,-0.00017879185907077044,2.204332113265991,-1.325792908668518,0.007489270064979792,2.118137836456299,3.6729189592548828,1.9775219216847393e-38,0.2599683105945587,-1.2580121199237269,-0.0,-0.01711372099816799,0.6455399394035339,3.6741748532520546e-11,0.004794196225702763,1.1874932050704956,0.006286395248025656,0.053361907601356506
255.0,313.0,6.9422,-1.0708,6.1454,-0.0469,0.0168,-0.1126,-1.5926720104613246,-0.003243444487452507,2.2081844806671143,-1.3257200717926025,0.009231355972588062,2.1778814792633057,3.6728874880024414,3.3233761769224657e-06,0.2535591721534729,-1.2579839865313929,-0.0,-0.02245311066508293,0.6454476714134216,1.022720286009051e-14,-0.012709344737231731,1.1875860691070557,0.0074112070724368095,0.09418703615665436
255.0,313.0,6.9422,-1.0708,6.1454,-0.0469,0.0168,-0.1126,-1.5927039585509242,-0.004765132442116737,2.2105915546417236,-1.3257664442062378,0.007608609739691019,2.153909683227539,3.672863646144531,9.250739063659807e-10,0.2421155571937561,-1.257995907460348,-0.0,-0.03996700048446655,0.645479679107666,2.8467795080239628e-18,-0.007461449597030878,1.187597632408142,0.009052937850356102,0.025815408676862717
268.0,319.0,7.3113,-1.1228,5.9486,-0.0814,-0.0137,-0.1266,-1.592759748498434,-0.005930325947701931,2.228800058364868,-1.32566499710083,0.0060838013887405396,2.142983913421631,3.67293564855542,2.574977449147642e-13,0.25698643922805786,-1.2580278555499476,-0.0,-0.025719380006194115,0.6454837322235107,7.924114608703285e-22,0.012204840779304504,1.1877018213272095,0.010975765995681286,0.03701547160744667
268.0,319.0,7.3113,-1.1228,5.9486,-0.0814,-0.0137,-0.1266,-1.5927678547301234,-0.003871836233884096,2.192251682281494,-1.32557213306427,0.007364756893366575,2.115109920501709,3.672867460841797,7.167545154062606e-17,0.23558124899864197,-1.258064095173971,-0.0,-0.025315890088677406,0.6454878449440002,2.2057063669567884e-25,0.0036735055036842823,1.1877497434616089,0.011836727149784565,-0.007456740364432335
268.0,319.0,7.3113,-1.1228,5.9486,-0.0814,-0.0137,-0.1266,-1.5927392445006312,-0.001522077596746385,2.2315666675567627,-1.3255976438522339,0.007558461278676987,2.0936529636383057,3.672851725215576,1.99511278545102e-20,0.24598199129104614,-1.2580202261554163,-0.0,-0.02796132117509842,0.6454997658729553,6.13966424562167e-29,-0.022277873009443283,1.1878376007080078,0.012115727178752422,0.012995040975511074
268.0,319.0,7.3113,-1.1228,5.9486,-0.0814,-0.0137,-0.1266,-1.592771669427389,-0.000751478539314121,2.2492623329162598,-1.3255372047424316,0.0051454766653478146,2.11307954788208,3.672895594234131,5.553469148937834e-24,0.24302834272384644,-1.2580159346209925,-0.0,-0.025447584688663483,0.6454756259918213,1.7089983394147368e-32,-0.00455608032643795,1.1878646612167358,0.011675676330924034,0.01454042736440897
268.0,319.0,7.3113,-1.1228,5.9486,-0.0814,-0.0137,-0.1266,-1.5928198299803675,-0.0008004475967027247,2.2436256408691406,-1.325484037399292,0.0024486370384693146,2.099215030670166,3.6729037004658203,1.5458286031559654e-27,0.2375451624393463,-1.2580121199237269,-0.0,-0.011986793950200081,0.6455485820770264,4.757059688166381e-36,-0.018691932782530785,1.1879090070724487,0.01045001856982708,0.036699868738651276
268.0,319.0,7.3113,-1.1228,5.9486,-0.0814,-0.0137,-0.1266,-1.5928236446776332,-0.004265084397047758,2.250532627105713,-1.325541377067566,0.0011350905988365412,2.1611361503601074,3.6728760439106445,4.302870269913785e-31,0.2514042556285858,-1.2580040136920374,-0.0,-0.028336770832538605,0.6454878449440002,1.3241457734760213e-39,-0.018240394070744514,1.1880292892456055,0.00865311548113823,-0.021475061774253845
268.0,319.0,7.3113,-1.1228,5.9486,-0.0814,-0.0137,-0.1266,-1.592891355554098,-0.0087880939245224,2.2077815532684326,-1.325553297996521,2.5227424771401274e-07,2.119650363922119,3.6728998857685546,1.1977196888362234e-34,0.24416705965995789,-1.258007828389303,-0.0,-0.021470200270414352,0.6454558372497559,3.685414961174269e-43,-0.0034033784177154303,1.1880251169204712,0.005603871773928404,-0.0017806235700845718
268.0,319.0,7.3113,-1.1228,5.9486,-0.0814,-0.0137,-0.1266,-1.5929962597289027,-0.013081688433885574,2.1870508193969727,-1.3256375789642334,-0.0022900074254721403,2.1320061683654785,3.6728951173969726,3.3338969993208456e-38,0.2580341100692749,-1.2579882780658167,-0.0,-0.02422907017171383,0.6454878449440002,0.0,-0.006739901378750801,1.188032627105713,0.00240096403285861,0.020600436255335808
268.0,319.0,7.3113,-1.1228,5.9486,-0.0814,-0.0137,-0.1266,-1.5930797062315882,-0.016867928206920624,2.238084316253662,-1.32557213306427,-0.0016441209008917212,2.083324670791626,3.6729232507893066,9.279398430758939e-42,0.2640511393547058,-1.2580001989947718,1.944892392202746e-05,-0.023116959258913994,0.6454316973686218,0.0,0.0018379169050604105,1.1879688501358032,2.770769970084075e-05,0.0530814528465271
268.0,319.0,7.3113,-1.1228,5.9486,-0.0814,-0.0137,-0.1266,-1.5931998691954554,-0.017991645261645317,2.189629554748535,-1.325593113899231,-0.0008720536716282368,2.1230509281158447,3.6729394632526855,2.802596928649634e-45,0.24706512689590454,-1.257960621510641,2.53052912739804e-05,-0.007741323206573725,0.6455284357070923,0.0,-0.00047979981172829866,1.1880050897598267,6.691083104248818e-11,-0.014592869207262993
268.0,319.0,7.3113,-1.1228,5.9486,-0.0814,-0.0137,-0.1266,-1.593335290948385,-0.016388004645705223,2.215285062789917,-1.3255807161331177,-0.0002941031998489052,2.1382315158843994,3.6728951173969726,0.0,0.2632044553756714,-1.258024040852682,2.428299376333598e-05,-0.013757353648543358,0.6454997658729553,0.0,-0.011079894378781319,1.1879404783248901,-0.0027797939255833626,-0.0023565497249364853
268.0,319.0,7.3113,-1.1228,5.9486,-0.0814,-0.0137,-0.1266,-1.5933834515013636,-0.012576503679156303,2.2509572505950928,-1.3256096839904785,-0.00022869482927490026,2.124006748199463,3.6728998857685546,0.0,0.25493124127388,-1.2579801718341272,2.333844531676732e-05,-0.028276091441512108,0.645439863204956,0.0,0.003794038202613592,1.1879328489303589,-0.004065489862114191,-0.036309562623500824
268.0,319.0,7.3113,-1.1228,5.9486,-0.0814,-0.0137,-0.1266,-1.5934792957701625,-0.009197902865707874,2.248016119003296,-1.3256016969680786,-0.00024060496070887893,2.115121841430664,3.6729232507893066,0.0,0.24608223140239716,-1.2579882780658167,2.2464655557996593e-05,-0.03136809170246124,0.6454998254776001,0.0,-0.012851390987634659,1.187937617301941,-0.0035858922637999058,0.031207578256726265
268.0,319.0,7.3113,-1.1228,5.9486,-0.0814,-0.0137,-0.1266,-1.5935145817198695,-0.007148928940296173,2.223543405532837,-1.32560133934021,-0.00020216232223901898,2.0897412300109863,3.672948046321533,0.0,0.2585107982158661,-1.2579758802997034,2.1653895601048134e-05,-0.026250988245010376,0.6454878449440002,0.0,-0.006299525499343872,1.1878849267959595,-0.003711556550115347,0.0035220019053667784
268.0,319.0,7.3113,-1.1228,5.9486,-0.0814,-0.0137,-0.1266,-1.5935632191100062,-0.0057801068760454655,2.209404945373535,-1.32566237449646,-0.00017301211482845247,2.150749444961548,3.6729561525532226,0.0,0.2706620395183563,-1.2579806486712855,3.130385812255554e-05,-0.016750160604715347,0.6454755663871765,0.0,-0.012556259520351887,1.1878650188446045,-0.0030062433797866106,0.0006829332560300827
265.0,323.0,6.1747,-0.2907,6.9751,-0.0249,0.0757,-0.1028,-1.5936032734312953,-0.0059776087291538715,2.197624683380127,-1.3256292343139648,-9.93979410850443e-05,2.165238857269287,3.6729442316242675,2.3449823856935836e-05,0.25890663266181946,-1.2579639593707483,2.019905332417693e-05,-0.030509041622281075,0.6454439163208008,0.0,-0.014534691348671913,1.187861442565918,-0.002403962193056941,-0.037795860320329666
265.0,323.0,6.1747,-0.2907,6.9751,-0.0249,0.0757,-0.1028,-1.5936585865416468,-0.006925872527062893,2.2012686729431152,-1.3256211280822754,-8.139416604535654e-05,2.124842405319214,3.6729232507893066,7.981924863997847e-05,0.2623707056045532,-1.2579601446734827,2.163643841868179e-08,-0.03774108737707138,0.6454517245292664,0.0,-0.014879663474857807,1.1877611875534058,-0.0017298160819336772,-0.059294648468494415
265.0,323.0,6.1747,-0.2907,6.9751,-0.0249,0.0757,-0.1028,-1.593727251092428,-0.007563759572803974,2.207854986190796,-1.3255846500396729,-7.167088915593922e-05,2.143415689468384,3.672963781947754,0.0008199515286833048,0.27453726530075073,-1.2579801718341272,6.022581305192842e-12,-0.03784457966685295,0.6454358100891113,0.0,0.0007955551263876259,1.18780517578125,-0.0013749903300777078,-0.013897757045924664
265.0,323.0,6.1747,-0.2907,6.9751,-0.0249,0.0757,-0.1028,-1.5938192806639613,-0.008444308303296566,2.2316112518310547,-1.3256659507751465,-9.588135435478762e-05,2.12419056892395,3.6729275423237304,0.0007683723233640194,0.27140310406684875,-1.2580044905291956,1.6764075868989535e-15,-0.035959284752607346,0.6454673409461975,1.167271057056496e-05,0.005508441478013992,1.187817096710205,-0.0009089346276596189,0.02693251520395279
265.0,323.0,6.1747,-0.2907,6.9751,-0.0249,0.0757,-0.1028,-1.5938025913634242,-0.008253701962530613,2.2285547256469727,-1.325621247291565,-8.677486766828224e-05,2.166531562805176,3.6729318338581542,0.0007451819838024676,0.2842612564563751,-1.2579482237445276,4.666341936346659e-19,-0.03446212410926819,0.645439863204956,1.2733052244584542e-05,0.0048430259339511395,1.1878292560577393,-0.000752338906750083,0.02110120840370655
265.0,323.0,6.1747,-0.2907,6.9751,-0.0249,0.0757,-0.1028,-1.5939227543272914,-0.008637967519462109,2.2231826782226562,-1.325593113899231,-0.00010552493040449917,2.176670789718628,3.672987623805664,0.0008451109752058983,0.2727201282978058,-1.2579401175128382,1.2988935592375015e-22,-0.04374144598841667,0.6454636454582214,1.221503862325335e-05,-0.002405199222266674,1.1878092288970947,-0.0005750717828050256,0.021764619275927544
265.0,323.0,6.1747,-0.2907,6.9751,-0.0249,0.0757,-0.1028,-1.5939632854857386,-0.009624000638723373,2.2150564193725586,-1.3256250619888306,-0.00012120498286094517,2.132070541381836,3.6729838091083984,0.0013071513967588544,0.2944892644882202,-1.2579601446734827,3.6155171615702566e-26,-0.04736386239528656,0.6454673409461975,1.1737140084733255e-05,-0.0005723820067942142,1.1878011226654053,-0.0005081557319499552,-0.024936016649007797
265.0,323.0,6.1747,-0.2907,6.9751,-0.0249,0.0757,-0.1028,-1.594006677667135,-0.010172496549785137,2.222925901412964,-1.325677752494812,-0.00011217708379263058,2.1547539234161377,3.672975702876709,0.0029669753275811672,0.28524866700172424,-1.2579839865313929,1.0063925859536734e-29,-0.07036136090755463,0.6454997658729553,1.1295217518636491e-05,-0.004161677323281765,1.1877813339233398,-0.00042461257544346154,0.03867228329181671
265.0,323.0,6.1747,-0.2907,6.9751,-0.0249,0.0757,-0.1028,-1.594119211236471,-0.010734239593148232,2.2696821689605713,-1.325613021850586,-0.00010437175660626963,2.157701015472412,3.673011465663574,0.010105227120220661,0.2965410351753235,-1.2580402533160608,2.801330873020163e-33,-0.058934446424245834,0.6455358862876892,2.035189936577808e-05,-0.009198062121868134,1.187817096710205,-0.00029177041142247617,0.03602886199951172
265.0,323.0,6.1747,-0.2907,6.9751,-0.0249,0.0757,-0.1028,-1.5941468677916468,-0.011591234244406223,2.2168173789978027,-1.3256126642227173,-9.75818038568832e-05,2.157057523727417,3.673135920161865,0.024506889283657074,0.301907479763031,-1.2580001989947718,7.79760758898127e-37,-0.06357234716415405,0.6455157399177551,2.1008087060181424e-05,-0.01868947222828865,1.18777334690094,-0.00028517484315671027,0.04425512254238129
265.0,323.0,6.1747,-0.2907,6.9751,-0.0249,0.0757,-0.1028,-1.5942064724364222,-0.011210065335035324,2.201456069946289,-1.3256014585494995,-9.162153583019972e-05,2.175429105758667,3.6732756334492187,0.028954993933439255,0.3185567259788513,-1.2579839865313929,2.1704992173619957e-40,-0.06576383113861084,0.6454518437385559,2.0297764422139153e-05,-0.004653695970773697,1.1877892017364502,-0.0003283889964222908,0.006359631195664406
265.0,323.0,6.1747,-0.2907,6.9751,-0.0249,0.0757,-0.1028,-1.5943066082396449,-0.010570630431175232,2.2559022903442383,-1.3256536722183228,-6.908112845849246e-05,2.1709036827087402,3.6735288339802246,0.032993558794260025,0.31915146112442017,-1.258007828389303,6.025583396596713e-44,-0.08053845912218094,0.6454554796218872,6.569512720489001e-07,-0.00832248292863369,1.1878013610839844,-0.0005744443624280393,-0.019434133544564247
265.0,323.0,6.1747,-0.2907,6.9751,-0.0249,0.0757,-0.1028,-1.5943390331664027,-0.009677236899733543,2.262127637863159,-1.3256253004074097,-6.531789404107258e-05,2.1903879642486572,3.673712893123291,0.036156538873910904,0.3248808979988098,-1.2580202261554163,0.0,-0.08736874163150787,0.6455038189888,1.828647927526461e-10,-0.011910083703696728,1.1877771615982056,-0.0005554837407544255,0.047863807529211044
265.0,323.0,6.1747,-0.2907,6.9751,-0.0249,0.0757,-0.1028,-1.5944143734373988,-0.008898722939193249,2.238760232925415,-1.3256617784500122,-6.194615707499906e-05,2.1490066051483154,3.6739813524433593,0.0369110070168972,0.3253946304321289,-1.2579801718341272,0.0,-0.0804717168211937,0.6454837322235107,5.090108971253157e-14,0.005173968151211739,1.187765121459961,-0.000467547622974962,0.0035001393407583237
257.0,324.0,6.9386,-0.7854,6.1831,-0.0357,-0.0026,-0.1193,-1.594450136224264,-0.009437604807317257,2.2678816318511963,-1.3256819248199463,-5.89053743169643e-05,2.1732709407806396,3.6741935449787597,0.03388151153922081,0.32507991790771484,-1.2579882780658167,0.0,-0.07232603430747986,0.6454711556434631,1.4168505397179894e-17,0.017032388597726822,1.1878331899642944,-0.0003913045802619308,0.012068693526089191
257.0,324.0,6.9386,-0.7854,6.1831,-0.0357,-0.0026,-0.1193,-1.5945221386351527,-0.011067217215895653,2.246914863586426,-1.3256251811981201,-5.6149132433347404e-05,2.144879102706909,3.6742965418049316,0.025183580815792084,0.3284907042980194,-1.2579963842975062,-0.00024147257499862462,-0.07493405789136887,0.6455522179603577,3.943855392881837e-21,0.0060551343485713005,1.1878092288970947,-0.00029438885394483805,-0.0452660508453846
257.0,324.0,6.9386,-0.7854,6.1831,-0.0357,-0.0026,-0.1193,-1.5946065388121546,-0.013357819058001041,2.214326858520508,-1.3256251811981201,-5.3639385441783816e-05,2.177753448486328,3.6745540338703613,0.01476383674889803,0.3274390697479248,-1.2580235640155237,-0.0002932361967395991,-0.09196708351373672,0.6455276012420654,0.00011289944086456671,0.012043830938637257,1.1878011226654053,-0.00025819140137173235,-0.03560053929686546
257.0,324.0,6.9386,-0.7854,6.1831,-0.0357,-0.0026,-0.1193,-1.594694276849264,-0.01642463542521,2.2655673027038574,-1.3256211280822754,-5.134433013154194e-05,2.1505229473114014,3.6745778757282714,0.0071120369248092175,0.34162724018096924,-1.2580040136920374,-0.0007350984960794449,-0.0946262925863266,0.6454916000366211,0.00010537365596974269,-0.0016068702097982168,1.187853217124939,-0.00022992133744992316,0.01186327077448368
257.0,324.0,6.9386,-0.7854,6.1831,-0.0357,-0.0026,-0.1193,-1.5948182545103968,-0.01936027966439724,2.1907143592834473,-1.3256497383117676,-4.923766027786769e-05,2.1773648262023926,3.6745611864277343,0.0018461588770151138,0.32780921459198,-1.2580278555499476,-0.0009909789077937603,-0.09506426006555557,0.6455075740814209,9.845676686381921e-05,0.008672411553561687,1.1877449750900269,-0.00020723174384329468,0.015400685369968414
257.0,324.0,6.9386,-0.7854,6.1831,-0.0357,-0.0026,-0.1193,-1.5949269733824671,-0.019925354048609734,2.269151210784912,-1.3256335258483887,-4.72970241389703e-05,2.1579601764678955,3.67458884298291,0.0006574316066689789,0.3232883810997009,-1.2580798308001917,-0.0007421856862492859,-0.09178988635540009,0.6454916000366211,0.00010963868407998234,-0.006580560468137264,1.1877813339233398,-0.0001886180107248947,0.01592782512307167
257.0,324.0,6.9386,-0.7854,6.1831,-0.0357,-0.0026,-0.1193,-1.5950585804381312,-0.021442590281367302,2.234243631362915,-1.3256168365478516,-4.550356243271381e-05,2.2164347171783447,3.6745969492145996,0.0004239274130668491,0.34210896492004395,-1.2580235640155237,-0.0006126012885943055,-0.10075177252292633,0.6455321311950684,0.00010443718929309398,0.0077697052620351315,1.1878172159194946,-0.00017307285452261567,0.0009964072378352284
257.0,324.0,6.9386,-0.7854,6.1831,-0.0357,-0.0026,-0.1193,-1.5951935253539027,-0.02419898845255375,2.252413272857666,-1.3256819248199463,-4.384117710287683e-05,2.1884238719940186,3.6745850282856445,0.00031313393265008926,0.3373130261898041,-1.2580121199237269,-0.0005419495282694697,-0.09392967820167542,0.6455117464065552,9.87101811915636e-05,0.015940023586153984,1.1877772808074951,-0.00018272454326506704,0.04092972353100777
257.0,324.0,6.9386,-0.7854,6.1831,-0.0357,-0.0026,-0.1193,-1.5953856907286585,-0.029029566794633865,2.2509512901306152,-1.3256820440292358,-4.180480755167082e-05,2.2013437747955322,3.6745969492145996,0.00023226012126542628,0.3363431692123413,-1.2580278555499476,-0.00033135837293229997,-0.11864163726568222,0.6454472541809082,0.00010629661846905947,0.006456056609749794,1.1877610683441162,-0.00016589538427069783,0.016144193708896637
257.0,324.0,6.9386,-0.7854,6.1831,-0.0357,-0.0026,-0.1193,-1.5955778561034144,-0.03276413306593895,2.271639108657837,-1.3256250619888306,-4.039749182993546e-05,2.22758150100708,3.674576922053955,0.00019458087626844645,0.35507720708847046,-1.2580121199237269,-0.0002713698777370155,-0.10840658843517303,0.6455075740814209,0.00010209727770416066,0.013478056527674198,1.187752604484558,-0.00015516950224991888,0.008213410153985023
257.0,324.0,6.9386,-0.7854,6.1831,-0.0357,-0.0026,-0.1193,-1.5958134136595667,-0.03719637170433998,2.2404263019561768,-1.3256211280822754,-6.173810618292919e-08,2.222367525100708,3.674605532283447,0.0001674241357250139,0.3398052155971527,-1.2580559889422815,-0.00026368681574240327,-0.09718400239944458,0.6455320715904236,9.736379433888942e-05,0.017587464302778244,1.1877853870391846,-0.00014574648230336607,-0.0005498480750247836
257.0,324.0,6.9386,-0.7854,6.1831,-0.0357,-0.0026,-0.1193,-1.596025129357809,-0.04097634553909302,2.215819835662842,-1.3256251811981201,-2.2842554244562052e-05,2.2148373126983643,3.674581213588379,0.00014692095282953233,0.34946149587631226,-1.2580717245685022,-0.0002390978334005922,-0.10124470293521881,0.6455552577972412,9.304967534262687e-05,0.018173769116401672,1.187745451927185,-0.0001374025159748271,-0.0315534770488739
257.0,324.0,6.9386,-0.7854,6.1831,-0.0357,-0.0026,-0.1193,-1.5962773762144984,-0.04427278786897659,2.178248882293701,-1.3255974054336548,-2.1995814677211456e-05,2.2050278186798096,3.674520655269287,0.00013089244021102786,0.3403305411338806,-1.257979694996969,-0.00021105908672325313,-0.09443739056587219,0.6455239653587341,0.00010181612015003338,0.013552707619965076,1.18780517578125,-0.00012996201985515654,0.0052586887031793594
257.0,324.0,6.9386,-0.7854,6.1831,-0.0357,-0.0026,-0.1193,-1.5965615711607875,-0.04701821133494377,2.2276597023010254,-1.325559377670288,-2.1217976609477773e-05,2.1525187492370605,3.6745454508015136,0.00011801782238762826,0.32464760541915894,-1.2580440680133265,-0.00018890560022555292,-0.087122842669487,0.6455439925193787,9.76856317720376e-05,0.015412712469696999,1.1877332925796509,-8.683065243531018e-05,0.0001548193395137787
257.0,324.0,6.9386,-0.7854,6.1831,-0.0357,-0.0026,-0.1193,-1.596917291680807,-0.05147252604365349,2.246151924133301,-1.3256211280822754,-1.025217443384463e-05,2.140362501144409,3.674524946803711,0.00010744919563876465,0.34796732664108276,-1.2579715887652796,-0.00017096128431148827,-0.1065196692943573,0.6455116271972656,9.386510646436363e-05,0.01330007053911686,1.1877691745758057,-8.20772402221337e-05,0.05077296122908592
255.0,310.0,6.7986,-1.2508,5.9653,-0.0637,-0.0299,-0.1339,-1.5972334347166957,-0.05638039484620094,2.251682996749878,-1.3256778717041016,-3.3814121707109734e-06,2.1683690547943115,3.6745449739643554,9.861803118837997e-05,0.348136842250824,-1.258024040852682,-0.0001561304525239393,-0.09217171370983124,0.6454752683639526,0.00010618850501487032,0.016629144549369812,1.187817096710205,-6.225539254955947e-05,0.03677976131439209
255.0,310.0,6.7986,-1.2508,5.9653,-0.0637,-0.0299,-0.1339,-1.5975405178465785,-0.0620112381875515,2.14705491065979,-1.3256856203079224,-8.165712030161476e-12,2.174309253692627,3.674553080196045,9.112853149417788e-05,0.3434879183769226,-1.2579997221576136,-0.00014366804680321366,-0.10226070880889893,0.6455358266830444,0.00010021827620221302,0.015416648238897324,1.18777334690094,-5.918491297052242e-05,-0.005523270927369595
255.0,310.0,6.7986,-1.2508,5.9653,-0.0637,-0.0299,-0.1339,-1.597964426080221,-0.06592965871095657,2.1744134426116943,-1.3256655931472778,-1.9719234723267982e-17,2.169875383377075,3.6745893198200683,8.469635940855369e-05,0.3272649645805359,-1.2579758802997034,-0.00013304819003678858,-0.08363106846809387,0.6454592347145081,9.39418823691085e-05,0.026103932410478592,1.1878093481063843,-5.640308154397644e-05,0.009064285084605217
255.0,310.0,6.7986,-1.2508,5.9653,-0.0637,-0.0299,-0.1339,-1.5984240971007289,-0.06803996115922928,2.1748046875,-1.3256129026412964,-4.761962956443345e-23,2.121814250946045,3.674569292659424,7.91122583905235e-05,0.33612698316574097,-1.258076016102926,-0.00012389027688186616,-0.09495928883552551,0.6454395055770874,0.00010606578143779188,0.016267163679003716,1.187825083732605,-5.387108103604987e-05,-0.010531293228268623
255.0,310.0,6.7986,-1.2508,5.9653,-0.0637,-0.0299,-0.1339,-1.5987993679442347,-0.06676692515611649,2.166778087615967,-1.3256419897079468,-1.1499580845777926e-28,2.1019692420959473,3.6745731073566894,7.42191550671123e-05,0.33674174547195435,-1.258076016102926,-0.00011591192742343992,-0.10485288500785828,0.6455675363540649,0.00011673276458168402,0.022941330447793007,1.1877892017364502,-5.1556609832914546e-05,-0.017032647505402565
255.0,310.0,6.7986,-1.2508,5.9653,-0.0637,-0.0299,-0.1339,-1.5992232761778773,-0.06400972604751587,2.1581714153289795,-1.3256293535232544,-2.7770135683214962e-34,2.1416971683502197,3.6746131616779785,6.989601388340816e-05,0.334308385848999,-1.2580679098712366,-0.00010889917757594958,-0.062037624418735504,0.6455592513084412,0.00026161683490499854,0.014324167743325233,1.1878211498260498,-4.9432819650974125e-05,-0.013184558600187302
255.0,310.0,6.7986,-1.2508,5.9653,-0.0637,-0.0299,-0.1339,-1.599630971948141,-0.06268692761659622,2.1428563594818115,-1.325637698173523,-0.00011129691847600043,2.160686731338501,3.674560709590576,6.616716564167291e-05,0.346734881401062,-1.2580636183368128,-0.00011972506035817787,-0.0832592323422432,0.6455310583114624,0.00035616738023236394,0.027795102447271347,1.1878496408462524,-3.5662927984958515e-05,0.009892847388982773
255.0,310.0,6.7986,-1.2508,5.9653,-0.0637,-0.0299,-0.1339,-1.6000586948790492,-0.06629655510187149,2.163816452026367,-1.3256454467773438,-0.001351925078779459,2.1038880348205566,3.67458884298291,1.6001526091713458e-05,0.34599733352661133,-1.2580636183368128,-0.00012130476534366608,-0.09977276623249054,0.6455552577972412,0.0008212074171751738,0.03070652484893799,1.1878252029418945,6.0319660406094044e-05,-0.06347573548555374
255.0,310.0,6.7986,-1.2508,5.9653,-0.0637,-0.0299,-0.1339,-1.6004625759520472,-0.07457783073186874,2.151527166366577,-1.3256726264953613,-0.0035415610764175653,2.1251649856567383,3.674576922053955,1.517888540547574e-05,0.3431456387042999,-1.2580717245685022,-0.00012308696750551462,-0.07870371639728546,0.6455592513084412,0.000976247014477849,0.03264939785003662,1.1878211498260498,5.589865395450033e-05,-0.028850315138697624
255.0,310.0,6.7986,-1.2508,5.9653,-0.0637,-0.0299,-0.1339,-1.6009022198119105,-0.08142112195491791,2.1597392559051514,-1.3256884813308716,-0.004007443785667419,2.122671604156494,3.6745731073566894,1.4447867215494625e-05,0.3421846926212311,-1.2580955664264124,-0.00010476172610651702,-0.0801147073507309,0.64557945728302,0.0016240327386185527,0.03789675608277321,1.187825322151184,5.113464067107998e-05,0.01109930220991373
255.0,310.0,6.7986,-1.2508,5.9653,-0.0637,-0.0299,-0.1339,-1.601365705529684,-0.08607543259859085,2.092374801635742,-1.3256770372390747,-0.002091126050800085,2.1361284255981445,3.6746174532124023,2.6654061002773233e-05,0.36391735076904297,-1.258059326802389,-0.0009117493755184114,-0.09900224953889847,0.6455469727516174,0.0028615219052881002,0.045324720442295074,1.187817096710205,7.067826663842425e-05,-0.032457150518894196
255.0,310.0,6.7986,-1.2508,5.9653,-0.0637,-0.0299,-0.1339,-1.6018253765501917,-0.0861404612660408,2.1593189239501953,-1.3256769180297852,-2.8153881430625916e-05,2.152207851409912,3.674605532283447,0.0003114523715339601,0.3492586612701416,-1.2580755392657679,-0.0017732653068378568,-0.10236034542322159,0.645594596862793,0.01105653215199709,0.04962874948978424,1.1877490282058716,6.553203274961561e-05,0.018707919865846634
255.0,310.0,6.7986,-1.2508,5.9653,-0.0637,-0.0299,-0.1339,-1.6023937664427699,-0.08928501605987549,2.10084867477417,-1.3256454467773438,0.0015591945266351104,2.170546054840088,3.6746741968342285,0.0028578154742717743,0.3522261679172516,-1.2580798308001917,-0.001753031276166439,-0.10501757264137268,0.6456947326660156,0.022658932954072952,0.06187407672405243,1.18777334690094,4.072332740179263e-05,-0.023337122052907944
255.0,310.0,6.7986,-1.2508,5.9653,-0.0637,-0.0299,-0.1339,-1.6029044590392054,-0.09226302057504654,2.1591930389404297,-1.3257267475128174,0.0013314279494807124,2.153367519378662,3.674628897304199,0.005872415844351053,0.36457639932632446,-1.258099381123678,-0.0015112146502360702,-0.11076845228672028,0.6457821726799011,0.011932197958230972,0.05355631187558174,1.187833309173584,3.8134643546072766e-05,0.006461354438215494
255.0,310.0,6.7986,-1.2508,5.9653,-0.0637,-0.0299,-0.1339,-1.6037122211852015,-0.0980604961514473,2.127258062362671,-1.3256412744522095,0.0006304353591986,2.1381518840789795,3.6747094827839355,0.00975350383669138,0.3625407814979553,-1.258111302052633,-0.0018283494282513857,-0.10631021857261658,0.6458176374435425,0.0014164772583171725,0.03237827494740486,1.187817096710205,3.515545904519968e-05,0.0910748690366745
249.0,340.0,7.5984,-0.74,5.9719,-0.0121,-0.1003,-0.1376,-1.604340215722555,-0.101649209856987,2.143095016479492,-1.3256936073303223,0.0003550450492184609,2.14495849609375,3.6748015123554687,0.011577839963138103,0.3677109479904175,-1.2581070105182093,-0.0015717928763478994,-0.12330568581819534,0.6458335518836975,0.00044734362745657563,0.04561038315296173,1.1878011226654053,3.3209635148523375e-05,0.029628342017531395
249.0,340.0,7.5984,-0.74,5.9719,-0.0121,-0.1003,-0.1376,-1.604971548120016,-0.10180507600307465,2.1895711421966553,-1.3256855010986328,0.00020580463751684874,2.1661291122436523,3.674909754390381,0.013563457876443863,0.369620680809021,-1.2581194082843226,-0.0011160667054355145,-0.09897033125162125,0.6458540558815002,0.00029842110234312713,0.048455860465765,1.1877611875534058,3.1467905500903726e-05,0.015214988961815834
249.0,340.0,7.5984,-0.74,5.9719,-0.0121,-0.1003,-0.1376,-1.605518480340475,-0.10429856926202774,2.183152198791504,-1.3257255554199219,0.0001672662328928709,2.1866841316223145,3.674945517177246,0.017477599903941154,0.3691815733909607,-1.2581632773028772,-0.0006368427420966327,-0.11769779026508331,0.6458060145378113,0.00026016816264018416,0.045396819710731506,1.1877774000167847,2.989980384882074e-05,0.1022888571023941
249.0,340.0,7.5984,-0.74,5.9719,-0.0121,-0.1003,-0.1376,-1.6061870060362757,-0.1040625348687172,2.2193410396575928,-1.325689435005188,-0.00011437942157499492,2.1532673835754395,3.6751338678547363,0.025303179398179054,0.38350915908813477,-1.2581551710711878,-0.0008732146816328168,-0.12314660847187042,0.645794153213501,0.00023912682081572711,0.042869143187999725,1.1877692937850952,2.8480559194576927e-05,0.048220545053482056
249.0,340.0,7.5984,-0.74,5.9719,-0.0121,-0.1003,-0.1376,-1.6068264446654261,-0.10499648004770279,2.1970901489257812,-1.3257137537002563,-0.00014406972331926227,2.1577446460723877,3.675318403834961,0.03701166436076164,0.3998393416404724,-1.2581270376788538,-0.001587898237630725,-0.1390782594680786,0.6458742022514343,0.00019938457990065217,0.04693642258644104,1.1877970695495605,2.7189935281057842e-05,0.015431925654411316
249.0,340.0,7.5984,-0.74,5.9719,-0.0121,-0.1003,-0.1376,-1.607401510278219,-0.10688033699989319,2.1872105598449707,-1.3256936073303223,-0.00012420877465046942,2.2365970611572266,3.6756550508686523,0.059388499706983566,0.410540372133255,-1.2581432501422327,-0.001656313892453909,-0.11356721818447113,0.6458176374435425,0.00017096757073886693,0.04441891238093376,1.187785267829895,2.601122105261311e-05,0.10495990514755249
249.0,340.0,7.5984,-0.74,5.9719,-0.0121,-0.1003,-0.1376,-1.6080571613707484,-0.11069771647453308,2.1721110343933105,-1.3256813287734985,-0.00010914487938862294,2.2330784797668457,3.6760756212421875,0.09392251074314117,0.4158143997192383,-1.2581146399127405,-0.0020309672690927982,-0.12464544177055359,0.6459105610847473,0.00014964181173127145,0.06737662106752396,1.1878252029418945,2.4930446670623496e-05,0.058055330067873
249.0,340.0,7.5984,-0.74,5.9719,-0.0121,-0.1003,-0.1376,-1.6086484394469203,-0.11354783177375793,2.2412197589874268,-1.3256855010986328,-9.733969636727124e-05,2.24124813079834,3.676832838649414,0.13211651146411896,0.4641389846801758,-1.2581990400897425,-0.002683588769286871,-0.13375979661941528,0.645841658115387,3.763391214306466e-05,0.06804999709129333,1.1877774000167847,2.393591967120301e-05,0.07370047271251678
249.0,340.0,7.5984,-0.74,5.9719,-0.0121,-0.1003,-0.1376,-1.6093079052367152,-0.10891825705766678,2.2480967044830322,-1.32567298412323,-8.783917292021215e-05,2.219153881072998,3.6776367860981445,0.15354172885417938,0.4521673917770386,-1.2582147757159632,-0.0025315077509731054,-0.1547308713197708,0.6458417177200317,3.07012269331608e-05,0.06479497253894806,1.1877530813217163,2.3017690182314254e-05,0.06128127872943878
249.0,340.0,7.5984,-0.74,5.9719,-0.0121,-0.1003,-0.1376,-1.6099754772581996,-0.10446174442768097,2.2109644412994385,-1.3256853818893433,-2.704555299715139e-05,2.2141921520233154,3.678783579463623,0.1666496992111206,0.4704599976539612,-1.2582228819476526,-0.0021056937985122204,-0.13357214629650116,0.6458942294120789,2.7849879188579507e-05,0.054412394762039185,1.1877973079681396,2.2167296265251935e-05,0.09088282287120819
249.0,340.0,7.5984,-0.74,5.9719,-0.0121,-0.1003,-0.1376,-1.6105834446349085,-0.10264205187559128,2.2426397800445557,-1.3256648778915405,-2.449774729029741e-05,2.2044782638549805,3.6798688608356933,0.1971830576658249,0.4815055727958679,-1.2582305113421839,-0.002077599288895726,-0.14405512809753418,0.6459464430809021,2.5483932404313236e-05,0.06158531457185745,1.1878011226654053,2.137751471309457e-05,0.07133299112319946
249.0,340.0,7.5984,-0.74,5.9719,-0.0121,-0.1003,-0.1376,-1.611234804193014,-0.10676968097686768,2.231226921081543,-1.3257182836532593,-3.365599695825949e-05,2.2035839557647705,3.6811582285114746,0.22202272713184357,0.5129905343055725,-1.2581904570208948,-0.0025371089577674866,-0.14567987620830536,0.6458742022514343,2.34884846577188e-05,0.06033080816268921,1.1877692937850952,2.0642073650378734e-05,0.1141459047794342
249.0,340.0,7.5984,-0.74,5.9719,-0.0121,-0.1003,-0.1376,-1.6118103466429652,-0.10755076259374619,2.194714069366455,-1.32566499710083,-6.052367461961694e-05,2.2085468769073486,3.682572527522705,0.22376011312007904,0.5066300630569458,-1.2582863012896937,-0.001905309734866023,-0.16031654179096222,0.6459023356437683,2.1782901967526414e-05,0.07522007822990417,1.18780517578125,1.995554703171365e-05,0.11906957626342773
249.0,340.0,7.5984,-0.74,5.9719,-0.0121,-0.1003,-0.1376,-1.6124335728087367,-0.10819830745458603,2.2189273834228516,-1.3257179260253906,-9.432871593162417e-06,2.1854069232940674,3.684029741878174,0.26075929403305054,0.5180809497833252,-1.2582343260394495,-0.0009176259045489132,-0.14175072312355042,0.645882248878479,2.030824907706119e-05,0.06860344856977463,1.1877892017364502,4.137546694149563e-10,0.140583336353302
265.0,338.0,8.1996,-0.926,5.9001,-0.0382,0.0049,-0.1116,-1.6130854092040003,-0.10601780563592911,2.2913403511047363,-1.3256936073303223,-2.2779274994055854e-11,2.2394280433654785,3.6856838899799804,0.28353995084762573,0.5368631482124329,-1.2582462469684046,-0.0008746976964175701,-0.14951398968696594,0.6458618640899658,1.9020604668185115e-05,0.06017976999282837,1.187793254852295,9.991689584271189e-16,0.12840276956558228
265.0,338.0,8.1996,-0.926,5.9001,-0.0382,0.0049,-0.1116,-1.6136890850462855,-0.10200992226600647,2.230170965194702,-1.3257100582122803,-5.5009270975119853e-17,2.196241617202759,3.687525911922119,0.3206654489040375,0.5476983189582825,-1.258282486592428,-0.0008398111676797271,-0.1456061452627182,0.6458298563957214,1.78865302586928e-05,0.0560329407453537,1.1877813339233398,2.412875547449203e-21,0.08199508488178253
265.0,338.0,8.1996,-0.926,5.9001,-0.0382,0.0049,-0.1116,-1.6143247089781703,-0.1008531004190445,2.279287338256836,-1.3257256746292114,-1.3284092002140164e-22,2.234614133834839,3.6895152765461425,0.33457380533218384,0.556649386882782,-1.2582381407367151,-0.0008297405438497663,-0.1449185162782669,0.6458296179771423,1.6880065231816843e-05,0.06861643493175507,1.18780517578125,5.826810913222185e-27,0.1333366334438324
265.0,338.0,8.1996,-0.926,5.9001,-0.0382,0.0049,-0.1116,-1.6149035892882289,-0.09999129921197891,2.280285596847534,-1.3257019519805908,-3.2079519341465778e-28,2.214099645614624,3.6916424471088867,0.3703715205192566,0.5795180797576904,-1.2583101431476038,-0.0008424728293903172,-0.14886608719825745,0.6459177136421204,1.59808732860256e-05,0.05625857785344124,1.1878371238708496,1.4071062639318245e-32,0.13613739609718323
265.0,338.0,8.1996,-0.926,5.9001,-0.0382,0.0049,-0.1116,-1.6155158481993617,-0.10081512480974197,2.298713207244873,-1.3256688117980957,-7.746826441090543e-34,2.2217345237731934,3.693944140071533,0.4000933766365051,0.5947717428207397,-1.2582905928241175,-0.0009011300280690193,-0.14294978976249695,0.6458376049995422,1.5172620805969927e-05,0.05667386204004288,1.1878373622894287,3.39799603445507e-38,0.1475125253200531
265.0,338.0,8.1996,-0.926,5.9001,-0.0382,0.0049,-0.1116,-1.6161352596678675,-0.10590644180774689,2.236065149307251,-1.3256895542144775,-1.8707670810367746e-39,2.200474262237549,3.696446581477783,0.4241411089897156,0.5951796770095825,-1.2582743803607386,-0.0007420728215947747,-0.15309029817581177,0.6458581686019897,1.4442188330576755e-05,0.05085480213165283,1.187757134437561,8.267660939516421e-44,0.110130675137043
265.0,338.0,8.1996,-0.926,5.9001,-0.0382,0.0049,-0.1116,-1.6167828045287074,-0.11324699223041534,2.2573952674865723,-1.3257004022598267,-4.203895392974451e-45,2.2061030864715576,3.699059172267578,0.4553779363632202,0.6227524280548096,-1.2583063284503382,-0.0006262521492317319,-0.1692752242088318,0.6458500027656555,1.3778843822365161e-05,0.05415663868188858,1.1878092288970947,0.0,0.11619039624929428
265.0,338.0,8.1996,-0.926,5.9001,-0.0382,0.0049,-0.1116,-1.6176821194090785,-0.11755819618701935,2.2392702102661133,-1.3257055282592773,-5.422169851954095e-05,2.225250244140625,3.702835722560547,0.4872055947780609,0.6277405023574829,-1.2582619825946253,-0.0005146412295289338,-0.1522660255432129,0.6459259390830994,1.2983736269234214e-05,0.056874535977840424,1.187765121459961,0.0,0.09875796735286713
265.0,338.0,8.1996,-0.926,5.9001,-0.0382,0.0049,-0.1116,-1.6184145412840785,-0.11514852195978165,2.228929042816162,-1.3257019519805908,-3.694130001896667e-10,2.213883399963379,3.7058092790791015,0.516960084438324,0.6410139799118042,-1.2582820097552698,-0.00047244844608940184,-0.14962151646614075,0.6458742022514343,1.244511986442376e-05,0.05541074275970459,1.187745451927185,0.0,0.05742272362112999
265.0,338.0,8.1996,-0.926,5.9001,-0.0382,0.0049,-0.1116,-1.6190411053099574,-0.11222238838672638,2.2350168228149414,-1.325705885887146,-8.920889590593615e-16,2.183561086654663,3.708995981807373,0.5396203398704529,0.6567803621292114,-1.2582538763629358,-0.0003947234945371747,-0.14090630412101746,0.6458141803741455,1.194940796267474e-05,0.056012675166130066,1.1878176927566528,-0.0005943041760474443,0.10550557076931
265.0,338.0,8.1996,-0.926,5.9001,-0.0382,0.0049,-0.1116,-1.6197358570494593,-0.10438743233680725,2.2509565353393555,-1.325681209564209,-2.1542901234049253e-21,2.15744948387146,3.7123443323322753,0.5455000996589661,0.6358292102813721,-1.25822621980776,-0.00033895712113007903,-0.1455465704202652,0.6458742022514343,9.9128818931149e-08,0.05803009867668152,1.1877295970916748,-0.001013142173178494,0.08787904679775238
265.0,338.0,8.1996,-0.926,5.9001,-0.0382,0.0049,-0.1116,-1.6204201183714808,-0.1037265881896019,2.2458224296569824,-1.325745701789856,-5.202357402889778e-27,2.133709669113159,3.715627356166504,0.5555317401885986,0.6464145183563232,-1.258282486592428,-0.0002970012719742954,-0.14352841675281525,0.6458421349525452,2.7592868961923145e-11,0.03841610997915268,1.187753438949585,-0.001025367877446115,0.049472007900476456
265.0,338.0,8.1996,-0.926,5.9001,-0.0382,0.0049,-0.1116,-1.621103426019186,-0.11156231164932251,2.196676015853882,-1.3256851434707642,-0.00035161784035153687,2.136009454727173,3.7188913065144042,0.5555579662322998,0.6297374367713928,-1.2582619825946253,-0.0002481062547303736,-0.13741688430309296,0.6458176374435425,7.680576281313828e-15,0.053952109068632126,1.1877497434616089,-0.001610690844245255,0.1075848937034607
265.0,338.0,8.1996,-0.926,5.9001,-0.0382,0.0049,-0.1116,-1.6217791042723597,-0.12374839186668396,2.154693126678467,-1.3256884813308716,-0.0015241472283378243,2.137819290161133,3.7221953111835937,0.5480464696884155,0.6124348640441895,-1.258294407521383,-0.00020831494475714862,-0.14897683262825012,0.6457900404930115,2.1379163287486825e-18,0.026945382356643677,1.187705397605896,-0.0018452437361702323,0.09003406763076782
265.0,338.0,8.1996,-0.926,5.9001,-0.0382,0.0049,-0.1116,-1.6224824390807093,-0.13248562812805176,2.118687868118286,-1.3256688117980957,-0.0009164593066088855,2.1020333766937256,3.725355787868164,0.5336222052574158,0.6017792224884033,-1.2582224051104944,-8.175695256795734e-05,-0.1418381929397583,0.6458380222320557,5.950968759563411e-22,0.027716174721717834,1.1876616477966309,-0.00461121741682291,0.06631263345479965
249.0,304.0,7.1348,-0.95,6.0538,-0.0878,0.3499,0.0108,-1.6233025989928187,-0.1372813731431961,2.0631263256073,-1.3256607055664062,0.0002929530164692551,2.113992691040039,3.7284838396259765,0.5262923836708069,0.5981948375701904,-1.258254353200094,-5.893516572541557e-05,-0.12785327434539795,0.6457821726799011,-3.254608964198269e-05,0.03425399214029312,1.187617301940918,-0.00916224904358387,-0.008142543956637383
249.0,304.0,7.1348,-0.95,6.0538,-0.0878,0.3499,0.0108,-1.6240412197508753,-0.1289534866809845,2.1378910541534424,-1.3256412744522095,0.0023728820960968733,2.114530563354492,3.731565161342285,0.5095534324645996,0.5876287817955017,-1.2582743803607386,-2.6951396648655646e-05,-0.12795159220695496,0.6458063125610352,-0.0005591147928498685,0.01910446025431156,1.187577724456787,-0.012502304278314114,0.017064739018678665
249.0,304.0,7.1348,-0.95,6.0538,-0.0878,0.3499,0.0108,-1.6248532734312953,-0.11496145278215408,2.1460464000701904,-1.3256292343139648,0.0030611087568104267,2.0996909141540527,3.7345015245625,0.50118088722229,0.594987154006958,-1.2582300345050257,-3.672033562907018e-05,-0.12100675702095032,0.6458182334899902,-0.000520046625752002,0.018532611429691315,1.187457799911499,-0.014737901277840137,-0.040122248232364655
249.0,304.0,7.1348,-0.95,6.0538,-0.0878,0.3499,0.0108,-1.6255799732603968,-0.10457370430231094,2.162346363067627,-1.3256701231002808,0.0014838454080745578,2.0918521881103516,3.737482710475586,0.49151840806007385,0.5881351232528687,-1.2582901159869593,-2.4279768695123494e-05,-0.1193678006529808,0.6457658410072327,-0.0006081286701373756,0.01133419293910265,1.1874098777770996,-0.014085672795772552,-0.039467692375183105
249.0,304.0,7.1348,-0.95,6.0538,-0.0878,0.3499,0.0108,-1.6262675724425257,-0.10650040954351425,2.18096923828125,-1.325726866722107,-0.004048250149935484,2.069627046585083,3.740271731013916,0.47005099058151245,0.5703833103179932,-1.2582505385028284,-2.1154295609449036e-05,-0.10915961116552353,0.6458022594451904,-0.0006008899072185159,0.013541927561163902,1.1873904466629028,-0.011365235783159733,-0.010378262028098106
249.0,304.0,7.1348,-0.95,6.0538,-0.0878,0.3499,0.0108,-1.62701477626943,-0.12370972335338593,2.1455562114715576,-1.3257784843444824,-0.007428857497870922,2.079890012741089,3.7429229456135253,0.4377101957798004,0.5583900809288025,-1.2582786718951624,-4.479476700680607e-08,-0.11656326800584793,0.6458542943000793,-0.0005303835496306419,0.009111151099205017,1.1872698068618774,-0.008231845684349537,-0.04136141017079353
249.0,304.0,7.1348,-0.95,6.0538,-0.0878,0.3499,0.0108,-1.6277662716307582,-0.14197319746017456,2.0472352504730225,-1.3257412910461426,-0.007388337515294552,2.0146493911743164,3.745406313533447,0.3883254826068878,0.5336931347846985,-1.2582467238055628,-1.2468787287389649e-11,-0.10971058905124664,0.6457502841949463,-0.0005396341439336538,0.0021462636068463326,1.187226414680481,-0.008221008814871311,-0.03658045083284378
249.0,304.0,7.1348,-0.95,6.0538,-0.0878,0.3499,0.0108,-1.6285654507079066,-0.15132169425487518,2.0425949096679688,-1.325740933418274,-0.0027714979369193316,2.0483076572418213,3.747551127071045,0.34354594349861145,0.48520612716674805,-1.2582781950580042,-3.470732959725783e-15,-0.10285378992557526,0.6457863450050354,-0.0004940898506902158,-0.003038064343854785,1.1871345043182373,-0.01159993652254343,-0.04000350460410118
249.0,304.0,7.1348,-0.95,6.0538,-0.0878,0.3499,0.0108,-1.6294619045653285,-0.15081548690795898,2.035841464996338,-1.3257206678390503,0.0035906187258660793,2.0665574073791504,3.7495052057453613,0.3050524890422821,0.4712141752243042,-1.2582467238055628,-9.660912241681656e-19,-0.11049419641494751,0.6456822156906128,-0.0005186940543353558,-0.005735804792493582,1.187062382698059,-0.015332791022956371,-0.07981129735708237
249.0,304.0,7.1348,-0.95,6.0538,-0.0878,0.3499,0.0108,-1.6302882633604945,-0.13285700976848602,2.0651988983154297,-1.3256607055664062,0.004145747981965542,2.023407220840454,3.7510921198078613,0.2372441291809082,0.42483270168304443,-1.2582147757159632,-2.6891498330740797e-22,-0.10307370126247406,0.645742654800415,-0.0004771402745973319,0.0005141512956470251,1.186979055404663,-0.01789621077477932,-0.054907411336898804
249.0,304.0,7.1348,-0.95,6.0538,-0.0878,0.3499,0.0108,-1.631035944024557,-0.11591415852308273,2.0744173526763916,-1.32567298412323,0.0028960187919437885,2.043104648590088,3.7523109155842285,0.19803720712661743,0.41044652462005615,-1.2582505385028284,-7.48534705524663e-26,-0.10070551931858063,0.6457502245903015,-0.0004451968998182565,0.0017173001542687416,1.1868911981582642,-0.018080295994877815,-0.04276397079229355
249.0,304.0,7.1348,-0.95,6.0538,-0.0878,0.3499,0.0108,-1.6318351231017054,-0.11335676908493042,2.115574359893799,-1.3257216215133667,-0.0004083656531292945,2.0229744911193848,3.753311796779297,0.14585275948047638,0.3796795606613159,-1.2582624594317835,-2.083573930719515e-29,-0.09298565983772278,0.6456782817840576,-0.0004093293391633779,-0.0026955597568303347,1.1867669820785522,-0.01567276380956173,-0.02360175922513008
249.0,304.0,7.1348,-0.95,6.0538,-0.0878,0.3499,0.0108,-1.6326271496214808,-0.12526679039001465,2.0907442569732666,-1.325740933418274,-0.006504284683614969,2.092799663543701,3.7539188104816894,0.0798325389623642,0.3539135456085205,-1.2581942717181605,-5.799705088622866e-33,-0.10287439823150635,0.6457743644714355,-0.00038527254946529865,0.00045438995584845543,1.1867071390151978,-0.010064788162708282,-0.028304077684879303
249.0,304.0,7.1348,-0.95,6.0538,-0.0878,0.3499,0.0108,-1.633658071557516,-0.14848241209983826,2.0131845474243164,-1.325777530670166,-0.0035335770808160305,1.9861490726470947,3.7540857034870605,-0.0073754917830228806,0.29998892545700073,-1.25822621980776,-1.0540678031489649e-37,-0.09395688772201538,0.6457743644714355,-0.0003000712604261935,0.0063804397359490395,1.1865991353988647,-0.006072872783988714,-0.04598848521709442
249.0,304.0,7.1348,-0.95,6.0538,-0.0878,0.3499,0.0108,-1.634482046166891,-0.15631909668445587,2.0954015254974365,-1.3257818222045898,-0.00015854531375225633,2.0724425315856934,3.7539145189472656,-0.05313398316502571,0.29222992062568665,-1.2582586447345179,-2.934038724603302e-41,-0.10832637548446655,0.6457903385162354,-0.0002571822260506451,0.011615700088441372,1.1866039037704468,-0.006407845765352249,-0.008869262412190437
215.0,242.0,5.3779,-0.926,5.278,-0.1098,0.222,-0.0617,-1.6352888546385707,-0.147455096244812,2.06669282913208,-1.3257250785827637,0.003785036038607359,2.0551271438598633,3.7535673814960937,-0.0704839900135994,0.268807590007782,-1.2582863012896937,6.905455666128546e-05,-0.1034523993730545,0.6458066701889038,-0.00022502275533042848,-0.006245902739465237,1.1865559816360474,-0.007627370301634073,0.01820148155093193
215.0,242.0,5.3779,-0.926,5.278,-0.1098,0.222,-0.0617,-1.6361562214293421,-0.13236989080905914,2.1441612243652344,-1.3257293701171875,0.002348878886550665,2.0763137340545654,3.7532498079487304,-0.07375568896532059,0.27169233560562134,-1.2582781950580042,6.281145761022344e-05,-0.11328722536563873,0.6458187699317932,-0.00020001364464405924,-0.004878717474639416,1.1865036487579346,-0.007433200255036354,0.04780656844377518
215.0,242.0,5.3779,-0.926,5.278,-0.1098,0.222,-0.0617,-1.636991640130514,-0.12311101704835892,2.1149473190307617,-1.3257780075073242,0.0005531057831831276,2.0534281730651855,3.7527753549763183,-0.06451831758022308,0.2788028120994568,-1.2582619825946253,2.8446533178794198e-05,-0.12438992410898209,0.6457468271255493,-0.0001800090103643015,-0.014166045002639294,1.1864917278289795,-0.006618698127567768,0.0553569570183754
215.0,242.0,5.3779,-0.926,5.278,-0.1098,0.222,-0.0617,-1.6377870045103968,-0.12354674190282822,2.1718218326568604,-1.3258227109909058,5.007463332873385e-09,2.068784236907959,3.752486391658447,-0.04631708934903145,0.27967187762260437,-1.2582700888263147,2.5968265617848374e-05,-0.12828229367733002,0.6457386612892151,-0.00016364193288609385,-0.003274432383477688,1.1864962577819824,-0.0035128630697727203,0.06382504105567932
215.0,242.0,5.3779,-0.926,5.278,-0.1098,0.222,-0.0617,-1.6385508976378382,-0.13258695602416992,2.163384437561035,-1.325798511505127,-0.003155552549287677,2.0506458282470703,3.752199335689209,-0.027895333245396614,0.30075836181640625,-1.2582781950580042,2.3899381631053984e-05,-0.12420070171356201,0.6457863450050354,-0.00015000355779193342,-0.006687073037028313,1.1864519119262695,-0.0011822066735476255,0.0279991514980793
215.0,242.0,5.3779,-0.926,5.278,-0.1098,0.222,-0.0617,-1.6394182644286097,-0.14856988191604614,2.0712127685546875,-1.3258291482925415,-0.004054169170558453,2.018038034439087,3.7521120744892578,-0.008121442049741745,0.3024081289768219,-1.2582619825946253,2.213580592069775e-05,-0.12157636135816574,0.6457622051239014,-0.00016151410818565637,0.0024481795262545347,1.186460018157959,-0.0005284389480948448,0.06701941788196564
215.0,242.0,5.3779,-0.926,5.278,-0.1098,0.222,-0.0617,-1.640297075311178,-0.15805578231811523,2.1171419620513916,-1.3258624076843262,-0.0021816438529640436,2.097468137741089,3.752164049739502,0.007113829720765352,0.3096604347229004,-1.2582586447345179,3.9851081965025514e-05,-0.11405399441719055,0.645778477191925,-0.00015000136045273393,-0.018170179799199104,1.1864759922027588,-0.0003667428100015968,0.07629340887069702
215.0,242.0,5.3779,-0.926,5.278,-0.1098,0.222,-0.0617,-1.6411525211729945,-0.15326164662837982,2.1320438385009766,-1.3258219957351685,-1.50342270899273e-06,2.03646183013916,3.7522360521503906,0.01022725272923708,0.2990942597389221,-1.258254353200094,3.857792034978047e-05,-0.1286534070968628,0.6457420587539673,-0.00014000083319842815,-0.00522634107619524,1.1864162683486938,-0.0002162180608138442,0.08800052851438522
