ramyac6/ROB537/final_project/csv/all/good_79.csv
tof_0,tof_1,accelx,accely,accelz,gyrox,gyroy,gyroz,shoulder_lift_joint_position,shoulder_lift_joint_velocity,shoulder_lift_joint_effort,elbow_joint_position,elbow_joint_velocity,elbow_joint_effort,wrist_1_joint_position,wrist_1_joint_velocity,wrist_1_joint_effort,wrist_2_joint_position,wrist_2_joint_velocity,wrist_2_joint_effort,wrist_3_joint_position,wrist_3_joint_velocity,wrist_3_joint_effort,shoulder_pan_joint_position,shoulder_pan_joint_velocity,shoulder_pan_joint_effort
129.0,173.0,4.6917,-1.9735,7.7204,-0.0379,0.0299,-0.1159,-1.736230035821432,0.0,2.9193272590637207,-1.4192512035369873,-0.0,2.1983819007873535,4.105593844051025,0.0,0.29488223791122437,-1.472534481679098,0.0,-0.020093949511647224,0.9953055381774902,-0.0,0.006562274415045977,1.2311986684799194,0.0,0.01158868707716465
129.0,173.0,4.6917,-1.9735,7.7204,-0.0379,0.0299,-0.1159,-1.736161848107809,0.0,2.909663677215576,-1.419231653213501,-0.0,2.2032182216644287,4.105585260982178,0.0,0.29266679286956787,-1.4725187460528772,0.0,-0.015237548388540745,0.9953494071960449,-0.0,-0.009077062830328941,1.2311577796936035,0.0,0.03770321607589722
129.0,173.0,4.6917,-1.9735,7.7204,-0.0379,0.0299,-0.1159,-1.736246248284811,0.0,2.930800199508667,-1.4192512035369873,-0.0,2.1983046531677246,4.105633421535156,0.0,0.2917499542236328,-1.4724867979632776,0.0,-0.016019681468605995,0.9953494071960449,-0.0,-0.005570887587964535,1.2312142848968506,0.0,-0.009390361607074738
129.0,173.0,4.6917,-1.9735,7.7204,-0.0379,0.0299,-0.1159,-1.7362061939635218,0.0,2.885105609893799,-1.4191831350326538,-0.0,2.2363693714141846,4.105585737819336,0.0,0.29114627838134766,-1.4724867979632776,0.0,-0.01869175210595131,0.9953255653381348,-0.0,-0.009014389477670193,1.2312105894088745,0.0,0.031745269894599915
129.0,173.0,4.6917,-1.9735,7.7204,-0.0379,0.0299,-0.1159,-1.7362104854979457,0.0,2.9052352905273438,-1.4192357063293457,-0.0,2.2025833129882812,4.105597658748291,0.0,0.27794399857521057,-1.4725144545184534,0.0,-0.02887725457549095,0.9953374862670898,-0.0,-0.005568254739046097,1.2311701774597168,0.0,-0.013873115181922913
129.0,173.0,4.6917,-1.9735,7.7204,-0.0379,0.0299,-0.1159,-1.736218591729635,0.0,2.9046101570129395,-1.4191712141036987,-0.0,2.2191460132598877,4.105557604427002,0.0,0.2862788736820221,-1.4725144545184534,0.0,-0.028340592980384827,0.9953374862670898,-0.0,-0.0016146044945344329,1.231182336807251,0.0,0.0036509649362415075
129.0,173.0,4.6917,-1.9735,7.7204,-0.0379,0.0299,-0.1159,-1.7362061939635218,0.0,2.8719048500061035,-1.41923987865448,-0.0,2.211393356323242,4.105573816890381,0.0,0.2969805896282196,-1.4724906126605433,0.0,-0.017477909103035927,0.9953335523605347,-0.0,-0.012221915647387505,1.2311582565307617,0.0,-0.04107141122221947
129.0,173.0,4.6917,-1.9735,7.7204,-0.0379,0.0299,-0.1159,-1.7361942730345667,0.0,2.927609443664551,-1.4192357063293457,-0.0,2.1906630992889404,4.105581446284912,0.0,0.2978091239929199,-1.472494904194967,0.0,-0.012358840554952621,0.9952976703643799,-0.0,0.017722563818097115,1.2311947345733643,0.0,0.005177250597625971
130.0,167.0,4.8341,-1.9525,7.7175,-0.0386,0.022,-0.1142,-1.7362061939635218,0.0,2.917250871658325,-1.4191794395446777,-0.0,2.167234420776367,4.105601950282715,0.0,0.2886291444301605,-1.4725225607501429,0.0,-0.01488625630736351,0.9952854514122009,-0.0,0.002816589083522558,1.2311865091323853,0.0,0.006131500471383333
130.0,167.0,4.8341,-1.9525,7.7175,-0.0386,0.022,-0.1142,-1.7362667522826136,0.0,2.8946328163146973,-1.4192636013031006,-0.0,2.2178072929382324,4.105545683498047,0.0,0.28058600425720215,-1.4725106398211878,0.0,-0.018811244517564774,0.9952895641326904,-0.0,-0.0035176922101527452,1.231154203414917,0.0,-0.006903456058353186
130.0,167.0,4.8341,-1.9525,7.7175,-0.0386,0.022,-0.1142,-1.736173769036764,0.0,2.9114227294921875,-1.4192758798599243,-0.0,2.211987257003784,4.105569525355957,0.0,0.28202077746391296,-1.4725068251239222,0.0,-0.024440167471766472,0.9953255653381348,-0.0,-0.006378796882927418,1.231202483177185,0.0,0.012007800862193108
130.0,167.0,4.8341,-1.9525,7.7175,-0.0386,0.022,-0.1142,-1.736230035821432,0.0,2.900224208831787,-1.4192191362380981,-0.0,2.2332510948181152,4.105553789729736,0.0,0.2882947027683258,-1.4725263754474085,0.0,-0.008792031556367874,0.9953136444091797,-0.0,0.0028856643475592136,1.231142282485962,0.0,-0.04127862676978111
130.0,167.0,4.8341,-1.9525,7.7175,-0.0386,0.022,-0.1142,-1.7361980877318324,0.0,2.8823041915893555,-1.4192273616790771,-0.0,2.1729652881622314,4.105569525355957,0.0,0.2828828990459442,-1.472518269215719,0.0,-0.008726708590984344,0.9952936172485352,-0.0,-0.0058859288692474365,1.2311742305755615,0.0,0.031215054914355278
130.0,167.0,4.8341,-1.9525,7.7175,-0.0386,0.022,-0.1142,-1.7361980877318324,0.0,2.8948397636413574,-1.4192150831222534,-0.0,2.1999080181121826,4.105601950282715,0.0,0.2907407581806183,-1.4724987188922327,0.0,-0.01566215418279171,0.9952741861343384,-0.0,-0.01126962248235941,1.231145977973938,0.0,0.005953084211796522
130.0,167.0,4.8341,-1.9525,7.7175,-0.0386,0.022,-0.1142,-1.736218591729635,0.0,2.903454303741455,-1.41923987865448,-0.0,2.186521053314209,4.105573816890381,0.0,0.28717297315597534,-1.4724748770343226,0.0,-0.007754395715892315,0.9953334331512451,-0.0,0.0018759606173262,1.2312185764312744,0.0,0.008397902362048626
130.0,167.0,4.8341,-1.9525,7.7175,-0.0386,0.022,-0.1142,-1.7362104854979457,0.0,2.8986120223999023,-1.4192718267440796,-0.0,2.213167667388916,4.105533762569092,0.0,0.2957460284233093,-1.472534481679098,0.0,-0.013589546084403992,0.9952535629272461,-0.0,0.0006801605923101306,1.231134057044983,0.0,0.054682813584804535
130.0,167.0,4.8341,-1.9525,7.7175,-0.0386,0.022,-0.1142,-1.7362143001952113,0.0,2.8932244777679443,-1.4192073345184326,-0.0,2.20025634765625,4.105637236232422,0.0,0.27586600184440613,-1.4724867979632776,0.0,-0.01875261589884758,0.995337188243866,-0.0,0.004305162001401186,1.2311660051345825,0.0,0.017989829182624817
130.0,167.0,4.8341,-1.9525,7.7175,-0.0386,0.022,-0.1142,-1.7362023792662562,0.0,2.9157447814941406,-1.4192150831222534,-0.0,2.1927618980407715,4.105553789729736,0.0,0.2899167537689209,-1.4725068251239222,0.0,-0.011672072112560272,0.9953535199165344,-0.0,-0.007709589786827564,1.2311983108520508,0.0,-0.03877254202961922
130.0,167.0,4.8341,-1.9525,7.7175,-0.0386,0.022,-0.1142,-1.7362548313536585,0.0,2.9274179935455322,-1.4191991090774536,-0.0,2.184518814086914,4.105557604427002,0.0,0.28503164649009705,-1.4724591414081019,0.0,-0.021762805059552193,0.9953575730323792,-0.0,-0.009189296513795853,1.2310975790023804,0.0,0.014768864959478378
130.0,167.0,4.8341,-1.9525,7.7175,-0.0386,0.022,-0.1142,-1.736246248284811,0.0,2.9649150371551514,-1.41923987865448,-0.0,2.1808104515075684,4.105549975032471,0.0,0.298808217048645,-1.472482983266012,0.0,-0.014414667151868343,0.9953456521034241,-0.0,-0.00026398623595014215,1.2311782836914062,0.0,0.026286322623491287
130.0,167.0,4.8341,-1.9525,7.7175,-0.0386,0.022,-0.1142,-1.7362381420531214,0.0,2.8965933322906494,-1.4192233085632324,-0.0,2.1779439449310303,4.105557604427002,0.0,0.28870755434036255,-1.472534481679098,0.0,-0.01063588261604309,0.9953136444091797,-0.0,0.004061296582221985,1.2311660051345825,0.0,-0.003672519698739052
130.0,167.0,4.8341,-1.9525,7.7175,-0.0386,0.022,-0.1142,-1.7362343273558558,0.0,2.8862175941467285,-1.4192194938659668,-0.0,2.2060539722442627,4.10561387121167,0.0,0.2896643280982971,-1.4724906126605433,0.0,-0.01573113165795803,0.9953374862670898,-0.0,-0.0009809646289795637,1.2311701774597168,0.0,0.024460388347506523
127.0,169.0,4.8209,-1.9256,7.7175,-0.0295,0.0276,-0.121,-1.736178537408346,0.0,2.8682007789611816,-1.4191954135894775,-0.0,2.2025372982025146,4.105625315303467,0.0,0.29394418001174927,-1.4724906126605433,0.0,-0.02645750157535076,0.9953174591064453,-0.0,-0.004112900234758854,1.2311701774597168,0.0,0.0019813161343336105
127.0,169.0,4.8209,-1.9256,7.7175,-0.0295,0.0276,-0.121,-1.7361980877318324,0.0,2.948509693145752,-1.4192233085632324,-0.0,2.1872951984405518,4.105565710658691,0.0,0.28117257356643677,-1.4725263754474085,0.0,-0.022766701877117157,0.9953494071960449,-0.0,-0.015043895691633224,1.23119056224823,0.0,0.01130242832005024
127.0,169.0,4.8209,-1.9256,7.7175,-0.0295,0.0276,-0.121,-1.7362224064269007,0.0,2.901075601577759,-1.4192800521850586,-0.0,2.2335758209228516,4.105581446284912,0.0,0.28369009494781494,-1.472494904194967,0.0,-0.005746946670114994,0.9952700734138489,-0.0,-0.013606363907456398,1.2311660051345825,0.0,-0.012462325394153595
127.0,169.0,4.8209,-1.9256,7.7175,-0.0295,0.0276,-0.121,-1.7362266979613246,0.0,2.914027214050293,-1.419231653213501,-0.0,2.1977696418762207,4.105553789729736,0.0,0.29642146825790405,-1.4724906126605433,0.0,-0.022341392934322357,0.9953296780586243,-0.0,-0.002801372669637203,1.2311782836914062,0.0,0.039050228893756866
127.0,169.0,4.8209,-1.9256,7.7175,-0.0295,0.0276,-0.121,-1.736178537408346,0.0,2.919088363647461,-1.4192553758621216,-0.0,2.1907436847686768,4.105541868800781,0.0,0.28715309500694275,-1.4725144545184534,0.0,-0.023334255442023277,0.9952854514122009,-0.0,0.00417590606957674,1.231142282485962,0.0,-0.03527513146400452
127.0,169.0,4.8209,-1.9256,7.7175,-0.0295,0.0276,-0.121,-1.7361942730345667,0.0,2.9103283882141113,-1.4192718267440796,-0.0,2.1964428424835205,4.105601950282715,0.0,0.28992217779159546,-1.4724987188922327,0.0,-0.011443695053458214,0.995309591293335,-0.0,0.0012781454715877771,1.231118083000183,0.0,-0.009808692149817944
127.0,169.0,4.8209,-1.9256,7.7175,-0.0295,0.0276,-0.121,-1.7362343273558558,0.0,2.9059669971466064,-1.4192273616790771,-0.0,2.1930975914001465,4.1056176859089355,0.0,0.28496959805488586,-1.4725106398211878,0.0,-0.02268138900399208,0.9953296780586243,-0.0,0.0005251574330031872,1.231182336807251,0.0,-0.018410127609968185
127.0,169.0,4.8209,-1.9256,7.7175,-0.0295,0.0276,-0.121,-1.7362143001952113,0.0,2.9228663444519043,-1.4191912412643433,-0.0,2.212749719619751,4.105541868800781,0.0,0.29607826471328735,-1.4725106398211878,0.0,-0.01919625699520111,0.9953136444091797,-0.0,-0.0014538951218128204,1.2311619520187378,0.0,-0.03133552893996239
127.0,169.0,4.8209,-1.9256,7.7175,-0.0295,0.0276,-0.121,-1.7361742458739222,0.0,2.9274799823760986,-1.4192430973052979,-0.0,2.2137815952301025,4.105553789729736,0.0,0.2809293270111084,-1.4725068251239222,0.0,-0.010936576873064041,0.995297372341156,-0.0,-0.0031398276332765818,1.2311619520187378,0.0,-0.001417097169905901
127.0,169.0,4.8209,-1.9256,7.7175,-0.0295,0.0276,-0.121,-1.736230035821432,0.0,2.8724119663238525,-1.419187068939209,-0.0,2.200861930847168,4.105601473445557,0.0,0.2881200909614563,-1.4724987188922327,0.0,-0.014545317739248276,0.9953174591064453,-0.0,0.0051557584665715694,1.2311946153640747,0.0,-0.021200282499194145
127.0,169.0,4.8209,-1.9256,7.7175,-0.0295,0.0276,-0.121,-1.7362424335875453,0.0,2.906649112701416,-1.4192314147949219,-0.0,2.2199134826660156,4.105610056514404,0.0,0.2860272228717804,-1.472482983266012,0.0,-0.010987892746925354,0.9953456521034241,-0.0,0.009980970993638039,1.2311419248580933,0.0,0.02735292911529541
127.0,169.0,4.8209,-1.9256,7.7175,-0.0295,0.0276,-0.121,-1.7361823521056117,0.0,2.9191083908081055,-1.4192513227462769,-0.0,2.2008819580078125,4.105529947871826,0.0,0.28911903500556946,-1.4725106398211878,0.0,-0.03397065028548241,0.9953016042709351,-0.0,-0.0031982026994228363,1.2311619520187378,0.0,0.005264518316835165
127.0,169.0,4.8209,-1.9256,7.7175,-0.0295,0.0276,-0.121,-1.7362424335875453,0.0,2.911069869995117,-1.4192273616790771,-0.0,2.1952455043792725,4.105585737819336,0.0,0.28155070543289185,-1.4724987188922327,0.0,-0.004934882279485464,0.9952894449234009,-0.0,-6.175879389047623e-05,1.2311701774597168,0.0,0.0015001565916463733
127.0,169.0,4.8209,-1.9256,7.7175,-0.0295,0.0276,-0.121,-1.7362219295897425,0.0,2.8983078002929688,-1.4192676544189453,-0.0,2.199977397918701,4.105541868800781,0.0,0.2864547371864319,-1.4724867979632776,0.0,-0.013480208814144135,0.99532151222229,-0.0,-0.0027891553472727537,1.231142282485962,0.0,-0.014373647049069405
131.0,165.0,4.7874,-1.9627,7.7695,-0.0296,0.0228,-0.1136,-1.7361942730345667,0.0,2.882718563079834,-1.4192759990692139,-0.0,2.1833600997924805,4.105549975032471,0.0,0.2890978455543518,-1.4725187460528772,0.0,-0.023412970826029778,0.995389461517334,-0.0,0.00483614532276988,1.2311865091323853,0.0,0.006442933809012175
131.0,165.0,4.7874,-1.9627,7.7695,-0.0296,0.0228,-0.1136,-1.7362343273558558,0.0,2.9023666381835938,-1.4191950559616089,-0.0,2.214221715927124,4.105585737819336,0.0,0.28569477796554565,-1.4725306669818323,0.0,-0.006289802957326174,0.9953773021697998,-0.0,-0.0017737580928951502,1.2311782836914062,0.0,-0.02448267489671707
131.0,165.0,4.7874,-1.9627,7.7695,-0.0296,0.0228,-0.1136,-1.7362143001952113,0.0,2.9379029273986816,-1.4192113876342773,-0.0,2.182534694671631,4.105545683498047,0.0,0.29450833797454834,-1.472466770802633,0.0,-0.016755860298871994,0.9953174591064453,-0.0,0.0009602722129784524,1.231154203414917,0.0,-0.062367357313632965
131.0,165.0,4.7874,-1.9627,7.7695,-0.0296,0.0228,-0.1136,-1.7362143001952113,0.0,2.9112002849578857,-1.4192513227462769,-0.0,2.168966293334961,4.105601473445557,0.0,0.29272618889808655,-1.4725144545184534,0.0,-0.018506325781345367,0.995373547077179,-0.0,-0.0033807875588536263,1.2311742305755615,0.0,-0.03084547258913517
131.0,165.0,4.7874,-1.9627,7.7695,-0.0296,0.0228,-0.1136,-1.7362262211241664,0.0,2.8712422847747803,-1.4192314147949219,-0.0,2.196871519088745,4.105597658748291,0.0,0.2784854471683502,-1.4725187460528772,0.0,-0.0307808518409729,0.9952976703643799,-0.0,-0.0033845570869743824,1.231154203414917,0.0,-0.02646799199283123
131.0,165.0,4.7874,-1.9627,7.7695,-0.0296,0.0228,-0.1136,-1.7362667522826136,0.0,2.960905075073242,-1.4192512035369873,-0.0,2.187913179397583,4.105533762569092,0.0,0.29663339257240295,-1.4725263754474085,0.0,-0.02483334392309189,0.9952976703643799,-0.0,-0.003433242440223694,1.231125831604004,0.0,0.009431467391550541
131.0,165.0,4.7874,-1.9627,7.7695,-0.0296,0.0228,-0.1136,-1.736246248284811,0.0,2.8705525398254395,-1.4192314147949219,-0.0,2.2147796154022217,4.1056176859089355,0.0,0.28788045048713684,-1.472466770802633,0.0,-0.02386034093797207,0.9953252673149109,-0.0,-0.0018460140563547611,1.2312105894088745,0.0,-0.01981288567185402
131.0,165.0,4.7874,-1.9627,7.7695,-0.0296,0.0228,-0.1136,-1.736230035821432,0.0,2.8878817558288574,-1.4191910028457642,-0.0,2.176088571548462,4.105585737819336,0.0,0.28977257013320923,-1.472534481679098,0.0,-0.01919770985841751,0.9953335523605347,-0.0,0.003754005301743746,1.2311500310897827,0.0,-0.01124851405620575
131.0,165.0,4.7874,-1.9627,7.7695,-0.0296,0.0228,-0.1136,-1.7362061939635218,0.0,2.8913145065307617,-1.4192357063293457,-0.0,2.1692802906036377,4.105597658748291,0.0,0.28562599420547485,-1.4725187460528772,0.0,-0.004368606023490429,0.9953055381774902,-0.0,-0.007364251650869846,1.231202483177185,0.0,0.009571678936481476
131.0,165.0,4.7874,-1.9627,7.7695,-0.0296,0.0228,-0.1136,-1.7362548313536585,0.0,2.9043593406677246,-1.4192677736282349,-0.0,2.185330867767334,4.105593367213867,0.0,0.2744378447532654,-1.4725263754474085,0.0,-0.017582539469003677,0.9953055381774902,-0.0,-0.00959022343158722,1.231134057044983,0.0,0.03981497511267662
131.0,165.0,4.7874,-1.9627,7.7695,-0.0296,0.0228,-0.1136,-1.736262937585348,0.0,2.9323277473449707,-1.4192594289779663,-0.0,2.165896415710449,4.105553789729736,0.0,0.28391149640083313,-1.4725025335894983,0.0,-0.019323864951729774,0.9952700734138489,-0.0,-0.008155956864356995,1.2311582565307617,0.0,0.045818112790584564
131.0,165.0,4.7874,-1.9627,7.7695,-0.0296,0.0228,-0.1136,-1.736189981500143,0.0,2.9200544357299805,-1.4192718267440796,-0.0,2.1724414825439453,4.105569525355957,0.0,0.2807217538356781,-1.4724786917315882,0.0,-0.01059257797896862,0.9953855276107788,-0.0,-0.013883095234632492,1.231145977973938,0.0,-0.02614147588610649
131.0,165.0,4.7874,-1.9627,7.7695,-0.0296,0.0228,-0.1136,-1.7362262211241664,0.0,2.928943395614624,-1.4192150831222534,-0.0,2.1556739807128906,4.105549975032471,0.0,0.2908180058002472,-1.4725068251239222,0.0,-0.016216278076171875,0.9953175783157349,-0.0,-0.023877926170825958,1.2311742305755615,0.0,-0.002384406980127096
131.0,165.0,4.7874,-1.9627,7.7695,-0.0296,0.0228,-0.1136,-1.7362143001952113,0.0,2.8962950706481934,-1.4192150831222534,-0.0,2.165463447570801,4.105585737819336,0.0,0.28502926230430603,-1.4725144545184534,0.0,-0.015682855620980263,0.9953293800354004,-0.0,-0.004763767123222351,1.2311382293701172,0.0,-0.04563521221280098
129.0,166.0,4.8556,-1.9585,7.7533,-0.0322,0.0263,-0.1104,-1.736262937585348,0.0,2.8846566677093506,-1.4191867113113403,-0.0,2.175468683242798,4.105585737819336,0.0,0.2841143310070038,-1.4724906126605433,0.0,-0.008326089009642601,0.9953014254570007,-0.0,-0.0008352201548404992,1.2311946153640747,0.0,0.007245639339089394
129.0,166.0,4.8556,-1.9585,7.7533,-0.0322,0.0263,-0.1104,-1.7362104854979457,0.0,2.93485164642334,-1.4192357063293457,-0.0,2.199655771255493,4.105553789729736,0.0,0.29597610235214233,-1.4725263754474085,0.0,-0.011374322697520256,0.9953457117080688,-0.0,-0.007449356373399496,1.231126308441162,0.0,0.028261341154575348
129.0,166.0,4.8556,-1.9585,7.7533,-0.0322,0.0263,-0.1104,-1.7362505398192347,0.0,2.9503626823425293,-1.4192479848861694,-0.0,2.204777240753174,4.105561895961426,0.0,0.28006845712661743,-1.472482983266012,0.0,-0.02120911329984665,0.9953175783157349,-0.0,-0.014715775847434998,1.231154203414917,0.0,-0.020256228744983673
129.0,166.0,4.8556,-1.9585,7.7533,-0.0322,0.0263,-0.1104,-1.736246248284811,0.0,2.9355416297912598,-1.4192110300064087,-0.0,2.1604275703430176,4.105565710658691,0.0,0.28110241889953613,-1.4724867979632776,0.0,-0.02052934281527996,0.9953456521034241,-0.0,-0.0020755822770297527,1.231182336807251,0.0,-0.016118211671710014
129.0,166.0,4.8556,-1.9585,7.7533,-0.0322,0.0263,-0.1104,-1.7362219295897425,0.0,2.927323579788208,-1.4192191362380981,-0.0,2.2395942211151123,4.105549975032471,0.0,0.2827792465686798,-1.472562615071432,0.0,-0.01285078190267086,0.9953333735466003,-0.0,9.057368151843548e-05,1.2312142848968506,0.0,-0.03544849529862404
129.0,166.0,4.8556,-1.9585,7.7533,-0.0322,0.0263,-0.1104,-1.736246248284811,0.0,2.8792028427124023,-1.4192471504211426,-0.0,2.19579815864563,4.105561895961426,0.0,0.2854042053222656,-1.4724987188922327,0.0,-0.014389846473932266,0.995297372341156,-0.0,-0.00906311720609665,1.2311782836914062,0.0,0.0034031886607408524
129.0,166.0,4.8556,-1.9585,7.7533,-0.0322,0.0263,-0.1104,-1.736218591729635,0.0,2.9118072986602783,-1.4192073345184326,-0.0,2.178483247756958,4.105545683498047,0.0,0.29059213399887085,-1.4725306669818323,0.0,-0.011625012382864952,0.9953698515892029,-0.0,-0.003298813011497259,1.231182336807251,0.0,-0.011125605553388596
129.0,166.0,4.8556,-1.9585,7.7533,-0.0322,0.0263,-0.1104,-1.7361942730345667,0.0,2.917170524597168,-1.4192439317703247,-0.0,2.2159831523895264,4.105581446284912,0.0,0.2757710814476013,-1.4724867979632776,0.0,-0.01819533295929432,0.9952976703643799,-0.0,0.0012656827457249165,1.2311582565307617,0.0,0.0020716050639748573
129.0,166.0,4.8556,-1.9585,7.7533,-0.0322,0.0263,-0.1104,-1.7361942730345667,0.0,2.869265556335449,-1.4192479848861694,-0.0,2.181101083755493,4.105561895961426,0.0,0.28975433111190796,-1.4725468794452112,0.0,-0.008441277779638767,0.9953534603118896,-0.0,-0.0012194984592497349,1.231182336807251,0.0,0.013546498492360115
129.0,166.0,4.8556,-1.9585,7.7533,-0.0322,0.0263,-0.1104,-1.736201902429098,0.0,2.9127683639526367,-1.41923987865448,-0.0,2.2458271980285645,4.105553789729736,0.0,0.28345316648483276,-1.472494904194967,0.0,-0.01763906516134739,0.995309591293335,-0.0,-0.0007426608353853226,1.23119056224823,0.0,-0.029410583898425102
129.0,166.0,4.8556,-1.9585,7.7533,-0.0322,0.0263,-0.1104,-1.736218591729635,0.0,2.907236099243164,-1.419179081916809,-0.0,2.2130892276763916,4.105577631587646,0.0,0.30666622519493103,-1.4725225607501429,0.0,-0.0210186168551445,0.9953293800354004,-0.0,-0.004679993726313114,1.2311865091323853,0.0,-0.0152799803763628
129.0,166.0,4.8556,-1.9585,7.7533,-0.0322,0.0263,-0.1104,-1.736230035821432,0.0,2.8963515758514404,-1.4192233085632324,-0.0,2.179738759994507,4.105597658748291,0.0,0.2704581916332245,-1.4725306669818323,0.0,-0.020756017416715622,0.9953495860099792,-0.0,0.004574625752866268,1.231154203414917,0.0,0.04550044983625412
129.0,166.0,4.8556,-1.9585,7.7533,-0.0322,0.0263,-0.1104,-1.736230035821432,0.0,2.9029579162597656,-1.4192520380020142,-0.0,2.206195116043091,4.105557604427002,0.0,0.2798777222633362,-1.472471062337057,0.0,-0.022923478856682777,0.99532151222229,-0.0,0.0021766808349639177,1.2311463356018066,0.0,0.013775638304650784
129.0,166.0,4.8556,-1.9585,7.7533,-0.0322,0.0263,-0.1104,-1.7362061939635218,0.0,2.9260337352752686,-1.4192436933517456,-0.0,2.1625332832336426,4.105601950282715,0.0,0.29538676142692566,-1.4724629561053675,0.0,-0.015945903956890106,0.995273232460022,-0.0,-0.00277429586276412,1.2311865091323853,0.0,-0.015401823446154594
129.0,167.0,4.8168,-1.9801,7.7462,-0.0379,0.0228,-0.1185,-1.7361866436400355,0.0,2.8931949138641357,-1.4192073345184326,-0.0,2.2427620887756348,4.105585737819336,0.0,0.29078206419944763,-1.4725549856769007,0.0,-0.015198418870568275,0.9953255653381348,-0.0,-0.006511812098324299,1.2311782836914062,0.0,-0.03632795065641403
129.0,167.0,4.8168,-1.9801,7.7462,-0.0379,0.0228,-0.1185,-1.7361942730345667,0.0,2.9154040813446045,-1.4192031621932983,-0.0,2.1839494705200195,4.105541868800781,0.0,0.3012154996395111,-1.472494904194967,0.0,-0.022650137543678284,0.9952895045280457,-0.0,-0.010355742648243904,1.2312105894088745,0.0,-0.021698342636227608
129.0,167.0,4.8168,-1.9801,7.7462,-0.0379,0.0228,-0.1185,-1.7361942730345667,0.0,2.896263599395752,-1.4192594289779663,-0.0,2.2195754051208496,4.105581446284912,0.0,0.28083720803260803,-1.4725144545184534,0.0,-0.028816934674978256,0.995309591293335,-0.0,-0.0003501223400235176,1.231145977973938,0.0,-0.03914937749505043
129.0,167.0,4.8168,-1.9801,7.7462,-0.0379,0.0228,-0.1185,-1.736246248284811,0.0,2.915898561477661,-1.4191986322402954,-0.0,2.2295584678649902,4.105557604427002,0.0,0.2864014506340027,-1.4725502173053187,0.0,0.0027026794850826263,0.9953055381774902,-0.0,-0.005752454046159983,1.2311782836914062,0.0,-0.04096679762005806
129.0,167.0,4.8168,-1.9801,7.7462,-0.0379,0.0228,-0.1185,-1.7362343273558558,0.0,2.914447784423828,-1.4192031621932983,-0.0,2.1815764904022217,4.1055895525166015,0.0,0.2888328433036804,-1.4725025335894983,0.0,-0.014582831412553787,0.9953616857528687,-0.0,-0.003449074225500226,1.2311701774597168,0.0,0.03112531080842018
129.0,167.0,4.8168,-1.9801,7.7462,-0.0379,0.0228,-0.1185,-1.7361742458739222,0.0,2.9145495891571045,-1.4192357063293457,-0.0,2.1904382705688477,4.105593367213867,0.0,0.29404741525650024,-1.4724906126605433,0.0,-0.010534529574215412,0.9953055381774902,-0.0,0.0023921194951981306,1.2312147617340088,0.0,-0.02105831354856491
129.0,167.0,4.8168,-1.9801,7.7462,-0.0379,0.0228,-0.1185,-1.7362381420531214,0.0,2.9088635444641113,-1.4192357063293457,-0.0,2.169119358062744,4.1055895525166015,0.0,0.2855757474899292,-1.4724867979632776,0.0,-0.020196057856082916,0.9952772855758667,-0.0,-0.0023396634496748447,1.2311058044433594,0.0,0.012715326622128487
129.0,167.0,4.8168,-1.9801,7.7462,-0.0379,0.0228,-0.1185,-1.7362143001952113,0.0,2.915954828262329,-1.4192150831222534,-0.0,2.157410144805908,4.105565710658691,0.0,0.28601494431495667,-1.4725382963763636,0.0,-0.02088201604783535,0.9953494071960449,-0.0,0.00022465293295681477,1.2311500310897827,0.0,-0.028083864599466324
129.0,167.0,4.8168,-1.9801,7.7462,-0.0379,0.0228,-0.1185,-1.7362143001952113,0.0,2.8807148933410645,-1.4192512035369873,-0.0,2.1563143730163574,4.105565710658691,0.0,0.28854912519454956,-1.472471062337057,0.0,-0.025741927325725555,0.9953016042709351,-0.0,0.002998571377247572,1.2311742305755615,0.0,0.05938466638326645
129.0,167.0,4.8168,-1.9801,7.7462,-0.0379,0.0228,-0.1185,-1.7362061939635218,0.0,2.948564052581787,-1.4192150831222534,-0.0,2.193681001663208,4.105549975032471,0.0,0.281403511762619,-1.472534481679098,0.0,-0.004353368654847145,0.9953776597976685,-0.0,-0.004562209825962782,1.231182336807251,0.0,-0.03817981854081154
129.0,167.0,4.8168,-1.9801,7.7462,-0.0379,0.0228,-0.1185,-1.7361942730345667,0.0,2.8736414909362793,-1.4192553758621216,-0.0,2.1853199005126953,4.105561895961426,0.0,0.2961401045322418,-1.4725144545184534,0.0,-0.000138220377266407,0.9953653216362,-0.0,-0.029556576162576675,1.231202483177185,0.0,0.0037422406021505594
129.0,167.0,4.8168,-1.9801,7.7462,-0.0379,0.0228,-0.1185,-1.7362343273558558,0.0,2.925741672515869,-1.419231653213501,-0.0,2.2028825283050537,4.105593367213867,0.0,0.28520065546035767,-1.4725382963763636,0.0,-0.01540646143257618,0.995309591293335,-0.0,-0.002829445991665125,1.231194257736206,0.0,-0.008935021236538887
129.0,167.0,4.8168,-1.9801,7.7462,-0.0379,0.0228,-0.1185,-1.7361904583373011,0.0,2.934760570526123,-1.419231653213501,-0.0,2.211118459701538,4.105565710658691,0.0,0.2879357933998108,-1.472494904194967,0.0,-0.01700870506465435,0.9953656196594238,-0.0,0.008577201515436172,1.2311500310897827,0.0,-0.05503224581480026
129.0,167.0,4.8168,-1.9801,7.7462,-0.0379,0.0228,-0.1185,-1.7361823521056117,0.0,2.901179790496826,-1.4192594289779663,-0.0,2.180933952331543,4.105581446284912,0.0,0.29808664321899414,-1.4724748770343226,0.0,-0.026154762133955956,0.9953255653381348,-0.0,-0.007318269461393356,1.2311179637908936,0.0,-0.003795292694121599
128.0,168.0,4.7635,-1.7133,7.6606,-0.0432,0.0284,-0.1257,-1.7362543545165003,0.0,2.9219460487365723,-1.4192430973052979,-0.0,2.1649203300476074,4.10560576497998,0.0,0.27894920110702515,-1.472471062337057,0.0,-0.0029979771934449673,0.9952936172485352,-0.0,-0.0020614066161215305,1.2311623096466064,0.0,-0.002282671630382538
128.0,168.0,4.7635,-1.7133,7.6606,-0.0432,0.0284,-0.1257,-1.736246248284811,0.0,2.8868660926818848,-1.419231653213501,-0.0,2.1755218505859375,4.105597658748291,0.0,0.2848157286643982,-1.4725545088397425,0.0,-0.021726492792367935,0.9953055381774902,-0.0,0.0012298768851906061,1.231154203414917,0.0,0.03776305913925171
128.0,168.0,4.7635,-1.7133,7.6606,-0.0432,0.0284,-0.1257,-1.7361942730345667,0.0,2.875277519226074,-1.4192636013031006,-0.0,2.2291202545166016,4.105545683498047,0.0,0.29312288761138916,-1.4725106398211878,0.0,-0.014980871230363846,0.9953456521034241,-0.0,-0.002188706072047353,1.2311619520187378,0.0,-0.034759849309921265
128.0,168.0,4.7635,-1.7133,7.6606,-0.0432,0.0284,-0.1257,-1.7362104854979457,0.0,2.896177291870117,-1.419231653213501,-0.0,2.214695930480957,4.105598135585449,0.0,0.29460954666137695,-1.4725306669818323,0.0,-0.016642868518829346,0.9953174591064453,-0.0,0.004012513440102339,1.2311298847198486,0.0,-0.05400318652391434
128.0,168.0,4.7635,-1.7133,7.6606,-0.0432,0.0284,-0.1257,-1.7362343273558558,0.0,2.8764753341674805,-1.4192841053009033,-0.0,2.193754196166992,4.105529947871826,0.0,0.28797563910484314,-1.472482983266012,0.0,-0.009177282452583313,0.9952822923660278,-0.0,-0.012584468349814415,1.2312184572219849,0.0,0.0018956484273076057
128.0,168.0,4.7635,-1.7133,7.6606,-0.0432,0.0284,-0.1257,-1.736218591729635,0.0,2.8882594108581543,-1.4192553758621216,-0.0,2.206749200820923,4.105601473445557,0.0,0.2904115319252014,-1.4725225607501429,0.0,-0.031009895727038383,0.9953855276107788,-0.0,-0.010631769895553589,1.231154203414917,0.0,0.02011556178331375
128.0,168.0,4.7635,-1.7133,7.6606,-0.0432,0.0284,-0.1257,-1.7362586460509242,0.0,2.9466187953948975,-1.4192150831222534,-0.0,2.1686301231384277,4.105545683498047,0.0,0.2963087856769562,-1.4725030104266565,0.0,-0.031095128506422043,0.9953055381774902,-0.0,0.004883213900029659,1.2311458587646484,0.0,0.002828591037541628
128.0,168.0,4.7635,-1.7133,7.6606,-0.0432,0.0284,-0.1257,-1.7362219295897425,0.0,2.9119532108306885,-1.4192357063293457,-0.0,2.172020196914673,4.105549975032471,0.0,0.286403626203537,-1.472534481679098,0.0,-0.013773048296570778,0.9952700734138489,-0.0,0.0033453982323408127,1.2311742305755615,0.0,-0.03664223849773407
128.0,168.0,4.7635,-1.7133,7.6606,-0.0432,0.0284,-0.1257,-1.736246248284811,0.0,2.8890209197998047,-1.419263482093811,-0.0,2.220841646194458,4.105549975032471,0.0,0.2837536931037903,-1.4724987188922327,0.0,-0.017353791743516922,0.995297372341156,-0.0,0.003161332104355097,1.2311742305755615,0.0,0.03966473415493965
128.0,168.0,4.7635,-1.7133,7.6606,-0.0432,0.0284,-0.1257,-1.7362061939635218,0.0,2.8484690189361572,-1.4192512035369873,-0.0,2.228872537612915,4.105585737819336,0.0,0.28508034348487854,-1.472534481679098,0.0,-0.0027742485981434584,0.995297372341156,-0.0,-0.009489637799561024,1.2311458587646484,0.0,-0.022497816011309624
128.0,168.0,4.7635,-1.7133,7.6606,-0.0432,0.0284,-0.1257,-1.7362667522826136,0.0,2.9291911125183105,-1.4191991090774536,-0.0,2.201230525970459,4.105585737819336,0.0,0.28484684228897095,-1.4724434057818812,0.0,-0.006389709189534187,0.9953133463859558,-0.0,-0.0051157171837985516,1.2311742305755615,0.0,0.01581309176981449
128.0,168.0,4.7635,-1.7133,7.6606,-0.0432,0.0284,-0.1257,-1.736189981500143,0.0,2.9177632331848145,-1.4192191362380981,-0.0,2.1933491230010986,4.105577631587646,0.0,0.28876227140426636,-1.4725144545184534,0.0,-0.016573801636695862,0.9953014254570007,-0.0,-0.0037919129244983196,1.2311701774597168,0.0,-0.005186624359339476
128.0,168.0,4.7635,-1.7133,7.6606,-0.0432,0.0284,-0.1257,-1.7361980877318324,0.0,2.8922905921936035,-1.4192955493927002,-0.0,2.1694860458374023,4.105573816890381,0.0,0.28814637660980225,-1.4724944273578089,0.0,-0.010160768404603004,0.9953058362007141,-0.0,-0.007583401631563902,1.2311865091323853,0.0,-0.009410938248038292
128.0,168.0,4.7635,-1.7133,7.6606,-0.0432,0.0284,-0.1257,-1.736230035821432,0.0,2.8695194721221924,-1.4191831350326538,-0.0,2.200331211090088,4.105581446284912,0.0,0.2819984555244446,-1.4724987188922327,0.0,-0.018822815269231796,0.9952741861343384,-0.0,-0.014811850152909756,1.231182336807251,0.0,-0.012836989015340805
128.0,168.0,5.1045,-1.1145,7.6636,0.0128,0.0935,-0.111,-1.7362061939635218,0.0,2.925715684890747,-1.4192273616790771,-0.0,2.2383780479431152,4.105597658748291,0.0,0.29194051027297974,-1.4725144545184534,0.0,-0.01039195992052555,0.9952892065048218,-0.0,-0.020199310034513474,1.2312144041061401,0.0,-0.036745525896549225
128.0,168.0,5.1045,-1.1145,7.6636,0.0128,0.0935,-0.111,-1.7362667522826136,0.0,2.916372299194336,-1.4192150831222534,-0.0,2.2002029418945312,4.105541868800781,0.0,0.293573260307312,-1.4725187460528772,0.0,-0.01635158434510231,0.9953495860099792,-0.0,0.0012169366236776114,1.2311660051345825,0.0,0.011085757054388523
128.0,168.0,5.1045,-1.1145,7.6636,0.0128,0.0935,-0.111,-1.7361861668028773,0.0,2.8818421363830566,-1.4192439317703247,-0.0,2.225903034210205,4.105553789729736,0.0,0.2883208394050598,-1.472454849873678,0.0,-0.009040780365467072,0.9953296780586243,-0.0,-0.012144435197114944,1.23119056224823,0.0,0.004105621948838234
128.0,168.0,5.1045,-1.1145,7.6636,0.0128,0.0935,-0.111,-1.736218114892477,0.0,2.8925633430480957,-1.4192314147949219,-0.0,2.182793617248535,4.105593367213867,0.0,0.27707791328430176,-1.4724825064288538,0.0,-0.015392882749438286,0.9953255653381348,-0.0,-0.01303297933191061,1.2311865091323853,0.0,-0.029488559812307358
128.0,168.0,5.1045,-1.1145,7.6636,0.0128,0.0935,-0.111,-1.7362505398192347,0.0,2.910259246826172,-1.419231653213501,-0.0,2.22990083694458,4.105581446284912,0.0,0.2766548991203308,-1.4724825064288538,0.0,-0.00832823570817709,0.9953218102455139,-0.0,-0.005773094482719898,1.2312105894088745,0.0,-0.017646150663495064
128.0,168.0,5.1045,-1.1145,7.6636,0.0128,0.0935,-0.111,-1.736213823358053,0.0,2.9277281761169434,-1.4192191362380981,-0.0,2.2086522579193115,4.105545683498047,0.0,0.2854045629501343,-1.4725025335894983,0.0,-0.014654505997896194,0.9953694939613342,-0.0,-0.00029887142591178417,1.2311865091323853,0.0,0.000898916507139802
128.0,168.0,5.1045,-1.1145,7.6636,0.0128,0.0935,-0.111,-1.7362381420531214,0.0,2.930894613265991,-1.4192357063293457,-0.0,2.2220096588134766,4.1056176859089355,0.0,0.29602786898612976,-1.4724906126605433,0.0,-0.011813954450190067,0.9953456521034241,-0.0,0.0007610637694597244,1.2311582565307617,0.0,-0.0003305254504084587
128.0,168.0,5.1045,-1.1145,7.6636,0.0128,0.0935,-0.111,-1.7361942730345667,0.0,2.8909764289855957,-1.4192273616790771,-0.0,2.187288522720337,4.105569525355957,0.0,0.29059791564941406,-1.4724867979632776,0.0,-0.031122375279664993,0.9952822923660278,-0.0,0.0009134660940617323,1.2311701774597168,0.0,0.026586484163999557
128.0,168.0,5.1045,-1.1145,7.6636,0.0128,0.0935,-0.111,-1.7362061939635218,0.0,2.9236397743225098,-1.4192677736282349,-0.0,2.1980652809143066,4.105577631587646,0.0,0.29969823360443115,-1.4725187460528772,0.0,-0.028040356934070587,0.9953334927558899,-0.0,-0.015279319137334824,1.23119056224823,0.0,0.0033821240067481995
128.0,168.0,5.1045,-1.1145,7.6636,0.0128,0.0935,-0.111,-1.7362023792662562,0.0,2.9323697090148926,-1.4192233085632324,-0.0,2.2308876514434814,4.105581446284912,0.0,0.28158068656921387,-1.4724906126605433,0.0,-0.006709043402224779,0.9953134059906006,-0.0,-0.0013609834713861346,1.2312144041061401,0.0,0.021594028919935226
128.0,168.0,5.1045,-1.1145,7.6636,0.0128,0.0935,-0.111,-1.736218591729635,0.0,2.850925922393799,-1.4192553758621216,-0.0,2.2408978939056396,4.105649157161377,0.0,0.2899172902107239,-1.4724786917315882,0.0,-0.012728733941912651,0.9953134059906006,-0.0,-0.015103798359632492,1.2311345338821411,0.0,0.022396324202418327
128.0,168.0,5.1045,-1.1145,7.6636,0.0128,0.0935,-0.111,-1.7362505398192347,0.0,2.8942604064941406,-1.41923987865448,-0.0,2.2269394397735596,4.105581446284912,0.0,0.2931549549102783,-1.4724906126605433,0.0,-0.023939382284879684,0.9953776001930237,-0.0,-0.009478367865085602,1.2311782836914062,0.0,0.05917372927069664
128.0,168.0,5.1045,-1.1145,7.6636,0.0128,0.0935,-0.111,-1.7361980877318324,0.0,2.913224935531616,-1.4192439317703247,-0.0,2.2280874252319336,4.10560576497998,0.0,0.29257112741470337,-1.4725187460528772,0.0,-0.02253762073814869,0.9953054785728455,-0.0,-0.008757507428526878,1.2311742305755615,0.0,-0.012564590200781822
128.0,168.0,5.1045,-1.1145,7.6636,0.0128,0.0935,-0.111,-1.7362381420531214,0.0,2.8573312759399414,-1.4192031621932983,-0.0,2.187366485595703,4.105585737819336,0.0,0.28493377566337585,-1.4725502173053187,0.0,-0.01219107024371624,0.9952854514122009,-0.0,-0.005971887148916721,1.2311140298843384,0.0,0.005662030540406704
130.0,176.0,5.0363,-1.8802,7.413,-0.0357,0.002,-0.1313,-1.7362710438170375,0.0,2.9183270931243896,-1.419158935546875,-0.0,2.1969785690307617,4.105581446284912,0.0,0.2835793197154999,-1.4725106398211878,0.0,-0.024652935564517975,0.9952976703643799,-0.0,-0.005736028775572777,1.2311503887176514,0.0,0.009241798892617226
130.0,176.0,5.0363,-1.8802,7.413,-0.0357,0.002,-0.1313,-1.7361904583373011,0.0,2.958644390106201,-1.4192479848861694,-0.0,2.1773340702056885,4.105593844051025,0.0,0.2863003611564636,-1.4725263754474085,0.0,-0.01584572345018387,0.9953534603118896,-0.0,-0.002791894134134054,1.2311382293701172,0.0,0.027577262371778488
130.0,176.0,5.0363,-1.8802,7.413,-0.0357,0.002,-0.1313,-1.7361980877318324,0.0,2.9277262687683105,-1.4192110300064087,-0.0,2.1956841945648193,4.105577631587646,0.0,0.28676190972328186,-1.4725068251239222,0.0,-0.004472080618143082,0.9953334331512451,-0.0,-0.0032270296942442656,1.2311701774597168,0.0,-0.04660169780254364
130.0,176.0,5.0363,-1.8802,7.413,-0.0357,0.002,-0.1313,-1.7362424335875453,0.0,2.8967766761779785,-1.419203519821167,-0.0,2.184143543243408,4.105569525355957,0.0,0.30125144124031067,-1.4724906126605433,0.0,-0.026678625494241714,0.995309591293335,-0.0,-0.009699422866106033,1.231182336807251,0.0,0.04552169516682625
130.0,176.0,5.0363,-1.8802,7.413,-0.0357,0.002,-0.1313,-1.7361742458739222,0.0,2.9011363983154297,-1.4192273616790771,-0.0,2.2037124633789062,4.105581446284912,0.0,0.29265642166137695,-1.4725306669818323,0.0,-0.008914072066545486,0.9952895641326904,-0.0,-0.0031207134015858173,1.231170654296875,0.0,0.04181166738271713
130.0,176.0,5.0363,-1.8802,7.413,-0.0357,0.002,-0.1313,-1.736230035821432,0.0,2.95104718208313,-1.4192273616790771,-0.0,2.19384503364563,4.105549975032471,0.0,0.29664385318756104,-1.4725068251239222,0.0,-0.006610069889575243,0.9953495264053345,-0.0,-0.011630039662122726,1.2311179637908936,0.0,-0.0032913517206907272
130.0,176.0,5.0363,-1.8802,7.413,-0.0357,0.002,-0.1313,-1.736230035821432,0.0,2.9217257499694824,-1.4191871881484985,-0.0,2.175931930541992,4.105553789729736,0.0,0.2944747805595398,-1.4725025335894983,0.0,-0.022200901061296463,0.9953534603118896,-0.0,-0.026067543774843216,1.2311865091323853,0.0,-0.003915935754776001
130.0,176.0,5.0363,-1.8802,7.413,-0.0357,0.002,-0.1313,-1.7362224064269007,0.0,2.9014854431152344,-1.4193038940429688,-0.0,2.193258762359619,4.10560576497998,0.0,0.28718453645706177,-1.4725068251239222,0.0,-0.023879902437329292,0.9952936172485352,-0.0,-0.0029761854093521833,1.2311742305755615,0.0,0.050811767578125
130.0,176.0,5.0363,-1.8802,7.413,-0.0357,0.002,-0.1313,-1.7362219295897425,0.0,2.9418535232543945,-1.4192354679107666,-0.0,2.2315359115600586,4.105573816890381,0.0,0.29153019189834595,-1.4725025335894983,0.0,-0.03085855022072792,0.9953415393829346,-0.0,-0.015062980353832245,1.231174111366272,0.0,0.05409718304872513
130.0,176.0,5.0363,-1.8802,7.413,-0.0357,0.002,-0.1313,-1.7362586460509242,0.0,2.858781576156616,-1.419206976890564,-0.0,2.219693899154663,4.105637236232422,0.0,0.29221057891845703,-1.4724472204791468,0.0,-0.01001757476478815,0.9953415393829346,-0.0,-0.009396547451615334,1.2311782836914062,0.0,-0.022020168602466583
130.0,176.0,5.0363,-1.8802,7.413,-0.0357,0.002,-0.1313,-1.7362381420531214,0.0,2.902228593826294,-1.4191631078720093,-0.0,2.2118842601776123,4.105541868800781,0.0,0.2969619333744049,-1.472482983266012,0.0,-0.017019500955939293,0.9953055381774902,-0.0,0.0029453521128743887,1.231202483177185,0.0,0.008244442753493786
130.0,176.0,5.0363,-1.8802,7.413,-0.0357,0.002,-0.1313,-1.736201902429098,0.0,2.904097080230713,-1.4192758798599243,-0.0,2.172698497772217,4.105545683498047,0.0,0.2785751223564148,-1.4725187460528772,0.0,-0.018489254638552666,0.9953054785728455,-0.0,0.0011446347925812006,1.2311619520187378,0.0,-0.008037312887609005
130.0,176.0,5.0363,-1.8802,7.413,-0.0357,0.002,-0.1313,-1.7362143001952113,0.0,2.9171507358551025,-1.4192521572113037,-0.0,2.20859432220459,4.105581446284912,0.0,0.2850590944290161,-1.4725025335894983,0.0,0.003040554467588663,0.9952936172485352,-0.0,-0.006582287140190601,1.2311458587646484,0.0,-0.0050732968375086784
130.0,176.0,5.0363,-1.8802,7.413,-0.0357,0.002,-0.1313,-1.736230035821432,0.0,2.870295524597168,-1.41923987865448,-0.0,2.207432508468628,4.105561895961426,0.0,0.28486865758895874,-1.4725187460528772,0.0,-0.029163669794797897,0.9953096508979797,-0.0,-0.01690400019288063,1.2311458587646484,0.0,0.055691398680210114
131.0,171.0,4.9226,-1.8263,7.614,-0.0302,-0.0223,-0.1283,-1.736201902429098,0.0,2.9233107566833496,-1.41923987865448,-0.0,2.213629722595215,4.105585737819336,0.0,0.2825581729412079,-1.4724863211261194,0.0,-0.01770295947790146,0.9953494668006897,-0.0,-0.021051524206995964,1.2311865091323853,0.0,-0.020266536623239517
131.0,171.0,4.9226,-1.8263,7.614,-0.0302,-0.0223,-0.1283,-1.7362262211241664,0.0,2.9018237590789795,-1.4192594289779663,-0.0,2.1482229232788086,4.105545683498047,0.0,0.2754269242286682,-1.4725068251239222,0.0,-0.023868650197982788,0.9952822923660278,-0.0,0.008008105680346489,1.2312065362930298,0.0,-0.008739989250898361
131.0,171.0,4.9226,-1.8263,7.614,-0.0302,-0.0223,-0.1283,-1.736262937585348,0.0,2.8514347076416016,-1.4192233085632324,-0.0,2.189556360244751,4.1055895525166015,0.0,0.28667396306991577,-1.4724987188922327,0.0,-0.008248357102274895,0.9952782988548279,-0.0,0.000937893521040678,1.2311381101608276,0.0,0.04446672648191452
131.0,171.0,4.9226,-1.8263,7.614,-0.0302,-0.0223,-0.1283,-1.7362143001952113,0.0,2.9043784141540527,-1.419203519821167,-0.0,2.1563491821289062,4.105585737819336,0.0,0.28906986117362976,-1.4725430647479456,0.0,-0.015071640722453594,0.9953296184539795,-0.0,-0.004621540196239948,1.2311865091323853,0.0,0.005086340010166168
131.0,171.0,4.9226,-1.8263,7.614,-0.0302,-0.0223,-0.1283,-1.7362548313536585,0.0,2.899570941925049,-1.4192841053009033,-0.0,2.2147436141967773,4.105557604427002,0.0,0.28868579864501953,-1.472471062337057,0.0,-0.00395428529009223,0.9953737258911133,-0.0,-0.007219299674034119,1.231182336807251,0.0,0.027565784752368927
131.0,171.0,4.9226,-1.8263,7.614,-0.0302,-0.0223,-0.1283,-1.736189981500143,0.0,2.909130096435547,-1.4192873239517212,-0.0,2.1912474632263184,4.105549975032471,0.0,0.2806757390499115,-1.4725225607501429,0.0,-0.009941603988409042,0.9953577518463135,-0.0,0.0003378886030986905,1.2311660051345825,0.0,0.013289577327668667
131.0,171.0,4.9226,-1.8263,7.614,-0.0302,-0.0223,-0.1283,-1.7362381420531214,0.0,2.929413318634033,-1.4192512035369873,-0.0,2.1683480739593506,4.105610056514404,0.0,0.2873861789703369,-1.4725030104266565,0.0,-0.006808998063206673,0.9953732490539551,-0.0,-0.01032894104719162,1.2311222553253174,0.0,0.009550328366458416
131.0,171.0,4.9226,-1.8263,7.614,-0.0302,-0.0223,-0.1283,-1.7361699543394984,0.0,2.875629425048828,-1.4192314147949219,-0.0,2.189302444458008,4.105593844051025,0.0,0.28728973865509033,-1.4725149313556116,0.0,-0.02645532414317131,0.99532151222229,-0.0,-0.007410615682601929,1.231142282485962,0.0,0.001782177947461605
131.0,171.0,4.9226,-1.8263,7.614,-0.0302,-0.0223,-0.1283,-1.7362104854979457,0.0,2.938807487487793,-1.4192028045654297,-0.0,2.170243740081787,4.105597658748291,0.0,0.27350085973739624,-1.4724705854998987,0.0,-0.014324312098324299,0.995337724685669,-0.0,-0.006162108853459358,1.2311824560165405,0.0,-0.04858013615012169
131.0,171.0,4.9226,-1.8263,7.614,-0.0302,-0.0223,-0.1283,-1.7362219295897425,0.0,2.925842761993408,-1.41923987865448,4.773947903657927e-09,2.233884811401367,4.105561895961426,0.0,0.29106515645980835,-1.4725144545184534,0.0,-0.010752418078482151,0.9953057765960693,-0.0,-0.01254356000572443,1.231202483177185,0.0,-0.01909806951880455
131.0,171.0,4.9226,-1.8263,7.614,-0.0302,-0.0223,-0.1283,-1.7361985645689906,0.0,2.888251543045044,-1.4192110300064087,1.5466980435541134e-16,2.195258617401123,4.105585737819336,0.0,0.2760750949382782,-1.472506348286764,0.0,-0.016438018530607224,0.9952976703643799,-0.0,0.0013168943114578724,1.2311701774597168,0.0,-0.002489781938493252
131.0,171.0,4.9226,-1.8263,7.614,-0.0302,-0.0223,-0.1283,-1.7362104854979457,0.0,2.91316294670105,-1.4192233085632324,0.000355283118551597,2.20218825340271,4.105593367213867,0.0,0.2880411148071289,-1.4724987188922327,0.0,-0.002445678226649761,0.9952782988548279,-0.0,-0.004455653950572014,1.2311097383499146,0.0,-0.016869619488716125
131.0,171.0,4.9226,-1.8263,7.614,-0.0302,-0.0223,-0.1283,-1.736218591729635,1.203304549335371e-07,2.8958024978637695,-1.419223666191101,0.0006374734221026301,2.184983015060425,4.105529947871826,0.0,0.28691357374191284,-1.4724867979632776,0.0,-0.009508802555501461,0.9953296184539795,-0.0,0.002086682477965951,1.2311500310897827,0.0,0.02240724116563797
131.0,171.0,4.9226,-1.8263,7.614,-0.0302,-0.0223,-0.1283,-1.7362023792662562,2.905838276164724e-13,2.965834379196167,-1.4191917181015015,0.0014564294833689928,2.222416400909424,4.10560576497998,0.0,0.2803143858909607,-1.4724867979632776,0.0,-0.016888219863176346,0.9952895641326904,-0.0,0.0004535850021056831,1.231109857559204,0.0,-0.01865583285689354
123.0,165.0,4.8891,-2.0668,7.87,-0.035,0.0399,-0.1263,-1.7361780605711878,7.017256962635016e-19,2.8987884521484375,-1.419159173965454,0.0012864990858361125,2.1778724193573,4.105593844051025,0.0,0.27635952830314636,-1.4725144545184534,0.0,-0.02719533070921898,0.9952733516693115,-0.0,-0.008319959975779057,1.2311784029006958,0.0,-0.02030973508954048
123.0,165.0,4.8891,-2.0668,7.87,-0.035,0.0399,-0.1263,-1.7362061939635218,1.694584848232822e-24,2.897756814956665,-1.419135332107544,0.0006008049240335822,2.237356424331665,4.1055895525166015,0.0,0.28892940282821655,-1.4724744001971644,0.0,-0.013003317639231682,0.9952454566955566,-0.0,0.001845649559982121,1.2311781644821167,0.0,0.014082377776503563
123.0,165.0,4.8891,-2.0668,7.87,-0.035,0.0399,-0.1263,-1.7362143001952113,5.490240992810735e-32,2.919590711593628,-1.4192118644714355,0.000295942765660584,2.2018818855285645,4.105553789729736,0.0,0.30046191811561584,-1.4724825064288538,0.0,-0.012055404484272003,0.9953255653381348,-0.0,-0.012876695021986961,1.2311500310897827,0.0,0.03979965299367905
123.0,165.0,4.8891,-2.0668,7.87,-0.035,0.0399,-0.1263,-1.7362104854979457,1.3258285647758597e-37,2.92488956451416,-1.4191794395446777,0.00020477334328461438,2.200143814086914,4.105529947871826,0.0,0.277853786945343,-1.4725149313556116,0.0,-0.0038422374054789543,0.9953574538230896,-0.0,-0.005164830945432186,1.23119056224823,0.0,-0.014229010790586472
123.0,165.0,4.8891,-2.0668,7.87,-0.035,0.0399,-0.1263,-1.736262937585348,3.194960498660583e-43,2.8619799613952637,-1.4192194938659668,-0.00020441695232875645,2.1854724884033203,4.105601473445557,0.0,0.2812591791152954,-1.4725187460528772,0.0,-0.012069838121533394,0.9952782988548279,-0.0,-0.004536900203675032,1.231154203414917,0.0,0.009923669509589672
123.0,165.0,4.8891,-2.0668,7.87,-0.035,0.0399,-0.1263,-1.7362262211241664,0.0,2.941972255706787,-1.4191913604736328,-0.00022464728681370616,2.1745872497558594,4.105545683498047,0.0,0.28334325551986694,-1.4725268522845667,0.0,-0.0019250258337706327,0.9952936172485352,-0.0,-0.006499813869595528,1.2311339378356934,0.0,0.00381378922611475
123.0,165.0,4.8891,-2.0668,7.87,-0.035,0.0399,-0.1263,-1.7362219295897425,0.0,2.903745174407959,-1.4192273616790771,-0.0002365339023526758,2.1825177669525146,4.105581446284912,0.0,0.2867960035800934,-1.4724786917315882,0.0,-0.019800938665866852,0.9953057765960693,-0.0,0.0011340654455125332,1.2311742305755615,0.0,0.030315816402435303
123.0,165.0,4.8891,-2.0668,7.87,-0.035,0.0399,-0.1263,-1.7361942730345667,0.0,2.876570701599121,-1.4191957712173462,-0.00020431313896551728,2.1976280212402344,4.105549975032471,0.0,0.2968972623348236,-1.4724944273578089,0.0,-0.027203936129808426,0.995277464389801,-0.0,0.008078193292021751,1.231202483177185,0.0,0.007402440067380667
123.0,165.0,4.8891,-2.0668,7.87,-0.035,0.0399,-0.1263,-1.7361866436400355,0.0,2.8724288940429688,-1.4191913604736328,-0.00013832811964675784,2.2209525108337402,4.105553789729736,0.0,0.29468846321105957,-1.4725025335894983,0.0,-0.022854644805192947,0.995309591293335,-0.0,-0.002251905621960759,1.2312144041061401,0.0,-0.03237110376358032
123.0,165.0,4.8891,-2.0668,7.87,-0.035,0.0399,-0.1263,-1.7362061939635218,0.0,2.9064431190490723,-1.4191834926605225,-0.00010635255603119731,2.16257905960083,4.105625315303467,0.0,0.286283016204834,-1.4724744001971644,0.0,-0.008763670921325684,0.9953296184539795,-0.0,-0.02158091962337494,1.231194257736206,0.0,0.03742086514830589
123.0,165.0,4.8891,-2.0668,7.87,-0.035,0.0399,-0.1263,-1.7362143001952113,0.0,2.929438591003418,-1.4191796779632568,-4.189147875877097e-05,2.1514105796813965,4.105573816890381,0.0,0.2686777710914612,-1.472523037587301,0.0,-0.01772812008857727,0.9953413009643555,-0.0,-0.0028716647066175938,1.231198787689209,0.0,0.005095915403217077
123.0,165.0,4.8891,-2.0668,7.87,-0.035,0.0399,-0.1263,-1.7361699543394984,0.0,2.91477632522583,-1.419223666191101,-3.6739678762387484e-05,2.2215933799743652,4.105601950282715,0.0,0.2992830276489258,-1.4725225607501429,0.0,-0.0126944649964571,0.9952815175056458,-0.0,-0.009611625224351883,1.2311660051345825,0.0,-0.023120222613215446
123.0,165.0,4.8891,-2.0668,7.87,-0.035,0.0399,-0.1263,-1.7361866436400355,0.0,2.9323925971984863,-1.4191794395446777,-3.273109905421734e-05,2.186544418334961,4.105625315303467,0.0,0.27891266345977783,-1.4725106398211878,0.0,-0.006820675916969776,0.9953055381774902,-0.0,-0.008133932016789913,1.2311660051345825,0.0,0.01938023790717125
123.0,165.0,4.8891,-2.0668,7.87,-0.035,0.0399,-0.1263,-1.7361656628050746,0.0,2.8803887367248535,-1.419175624847412,-2.9511196771636605e-05,2.1648342609405518,4.105625315303467,0.0,0.28981173038482666,-1.472534481679098,0.0,-0.024493256583809853,0.9953174591064453,-0.0,-0.007790186908096075,1.2311500310897827,0.0,-0.006037971004843712
125.0,169.0,4.3603,-1.3388,7.8425,-0.0047,0.0599,-0.1232,-1.7362061939635218,0.0,2.906822443008423,-1.4191994667053223,-5.373107342165895e-05,2.1833372116088867,4.105545683498047,0.0,0.28544771671295166,-1.4725664297686976,0.0,-0.024421192705631256,0.9953134059906006,-0.0,0.008161688223481178,1.2311300039291382,0.0,0.02212359569966793
125.0,169.0,4.3603,-1.3388,7.8425,-0.0047,0.0599,-0.1232,-1.736218591729635,0.0,2.932445526123047,-1.4191917181015015,-4.800384340342134e-05,2.2260448932647705,4.105545683498047,0.0,0.29662951827049255,-1.472506348286764,0.0,-0.03735145926475525,0.9953334331512451,-0.0,-0.005505717825144529,1.2311419248580933,0.0,-0.016740018501877785
125.0,169.0,4.3603,-1.3388,7.8425,-0.0047,0.0599,-0.1232,-1.7361980877318324,0.0,2.901787042617798,-1.4191395044326782,-4.444770820555277e-05,2.207180976867676,4.105598135585449,0.0,0.27462342381477356,-1.4724987188922327,0.0,-0.011556662619113922,0.99532151222229,-0.0,0.0031724455766379833,1.2311865091323853,0.0,-0.014327346347272396
125.0,169.0,4.3603,-1.3388,7.8425,-0.0047,0.0599,-0.1232,-1.736222883264059,0.0,2.8866310119628906,-1.419167399406433,-4.1382194467587397e-05,2.19437575340271,4.105601950282715,0.0,0.28897303342819214,-1.4725425879107874,0.0,-0.0067625404335558414,0.9952495694160461,-0.0,-0.007072215434163809,1.2311500310897827,0.0,-0.030650794506072998
125.0,169.0,4.3603,-1.3388,7.8425,-0.0047,0.0599,-0.1232,-1.7361904583373011,0.0,2.901933193206787,-1.419211745262146,-1.9621475075837225e-05,2.199232578277588,4.105593367213867,0.0,0.30087903141975403,-1.4725149313556116,0.0,-0.009644564241170883,0.9953691959381104,-0.0,-0.011753726750612259,1.2311701774597168,0.0,-0.011325719766318798
125.0,169.0,4.3603,-1.3388,7.8425,-0.0047,0.0599,-0.1232,-1.7362061939635218,0.0,2.9175772666931152,-1.419223666191101,-2.1275966446410166e-06,2.2149226665496826,4.105581446284912,0.0,0.2885231375694275,-1.472506348286764,0.0,-0.018347803503274918,0.9953014850616455,-0.0,0.002516810316592455,1.2311660051345825,0.0,-0.012538495473563671
125.0,169.0,4.3603,-1.3388,7.8425,-0.0047,0.0599,-0.1232,-1.736218591729635,0.0,2.8872177600860596,-1.4191712141036987,-5.137896184892465e-12,2.173900604248047,4.105557604427002,0.0,0.29499369859695435,-1.4725225607501429,0.0,-0.01278936117887497,0.9952815771102905,-0.0,-0.016305187717080116,1.2311865091323853,0.0,-0.010672633536159992
125.0,169.0,4.3603,-1.3388,7.8425,-0.0047,0.0599,-0.1232,-1.7362104854979457,0.0,2.901224136352539,-1.4192076921463013,-1.664612836328943e-19,2.173034191131592,4.105601950282715,0.0,0.2803706228733063,-1.4724987188922327,0.0,-0.00494970940053463,0.9952702522277832,-0.0,-0.012153065763413906,1.2311865091323853,0.0,-0.023065339773893356
125.0,169.0,4.3603,-1.3388,7.8425,-0.0047,0.0599,-0.1232,-1.7361980877318324,3.7804980820510536e-05,2.9062771797180176,-1.4191714525222778,-4.01984387423676e-25,2.166595220565796,4.105609579677246,0.0,0.2762202322483063,-1.4724586645709437,0.0,-0.0071305809542536736,0.9952743053436279,-0.0,-0.00839746743440628,1.2311983108520508,0.0,-0.025645269080996513
125.0,169.0,4.3603,-1.3388,7.8425,-0.0047,0.0599,-0.1232,-1.736218591729635,3.610596104408614e-05,2.9058451652526855,-1.4191834926605225,-9.707449580446482e-31,2.212399482727051,4.105581446284912,0.0,0.28389972448349,-1.4725306669818323,0.0,-0.023224135860800743,0.9952734708786011,-0.0,-0.006713882088661194,1.2311865091323853,0.0,-0.034064847975969315
125.0,169.0,4.3603,-1.3388,7.8425,-0.0047,0.0599,-0.1232,-1.736218591729635,3.40565929946024e-05,2.9145584106445312,-1.4192076921463013,-2.344235205352894e-36,2.1759958267211914,4.105569525355957,0.0,0.29807502031326294,-1.4724624792682093,0.0,-0.02156958170235157,0.9953094124794006,-0.0,-0.01408066600561142,1.2311983108520508,0.0,-0.026884714141488075
125.0,169.0,4.3603,-1.3388,7.8425,-0.0047,0.0599,-0.1232,-1.7361866436400355,3.2227315386990085e-05,2.8806893825531006,-1.419167399406433,-5.661245795872261e-42,2.239412784576416,4.105573816890381,0.0,0.28613975644111633,-1.4725025335894983,0.0,-0.02099282667040825,0.9952896237373352,-0.0,0.0003037649439647794,1.2312147617340088,0.0,0.023229476064443588
125.0,169.0,4.3603,-1.3388,7.8425,-0.0047,0.0599,-0.1232,-1.7362424335875453,3.058457878069021e-05,2.9131667613983154,-1.4192196130752563,-0.0,2.21152925491333,4.10561387121167,0.0,0.2862480580806732,-1.4725068251239222,0.0,-0.009889738634228706,0.9953455328941345,-0.0,0.0029648111667484045,1.2311619520187378,0.0,-0.04660075530409813
125.0,169.0,4.3603,-1.3388,7.8425,-0.0047,0.0599,-0.1232,-1.7362143001952113,2.8638203730224632e-05,2.8798282146453857,-1.4192076921463013,-0.0,2.178463935852051,4.105569525355957,0.0,0.2912366986274719,-1.472567383443014,0.0,-0.012449939735233784,0.9953614473342896,-0.0,-0.00890918355435133,1.23119056224823,0.0,0.0019459058530628681
128.0,171.0,5.0889,-2.1876,7.5482,-0.0475,0.0014,-0.1199,-1.7362224064269007,2.733358633122407e-05,2.86515212059021,-1.4191917181015015,-0.0,2.235731601715088,4.105601473445557,0.0,0.28543922305107117,-1.4724863211261194,0.0,-0.03143320605158806,0.9953136444091797,-0.0,-0.010188370011746883,1.2311339378356934,0.0,0.022530315443873405
128.0,171.0,5.0889,-2.1876,7.5482,-0.0475,0.0014,-0.1199,-1.7362381420531214,2.6142648493987508e-05,2.908118724822998,-1.419203519821167,-0.0,2.2060956954956055,4.105593367213867,0.0,0.2938293218612671,-1.4725468794452112,0.0,-0.029884885996580124,0.9953255653381348,-0.0,-0.01275540329515934,1.2312265634536743,0.0,-0.027554228901863098
128.0,171.0,5.0889,-2.1876,7.5482,-0.0475,0.0014,-0.1199,-1.7361980877318324,2.5051163902389817e-05,2.885171413421631,-1.4191632270812988,-0.0,2.1896567344665527,4.105610056514404,0.0,0.2927330732345581,-1.4724906126605433,0.0,-0.0065644653514027596,0.9953334331512451,-0.0,-0.0010846280492842197,1.2311865091323853,0.0,0.0067204674705863
128.0,171.0,5.0889,-2.1876,7.5482,-0.0475,0.0014,-0.1199,-1.7362143001952113,2.4047169063123874e-05,2.921022653579712,-1.4192073345184326,-0.0,2.2356302738189697,4.105581446284912,0.0,0.2863742411136627,-1.4725468794452112,0.0,-0.010762596502900124,0.9953653216362,-0.0,0.0034191086888313293,1.231194257736206,-5.8874468322756e-07,-0.031027022749185562
128.0,171.0,5.0889,-2.1876,7.5482,-0.0475,0.0014,-0.1199,-1.7362219295897425,1.161391719506355e-05,2.8579235076904297,-1.4191712141036987,-0.0,2.20725417137146,4.105625315303467,0.0,0.28091204166412354,-1.4725225607501429,0.0,-0.02084049955010414,0.9952743053436279,-0.0,0.004695627838373184,1.2311782836914062,-1.4217490032497615e-12,0.004015698097646236
128.0,171.0,5.0889,-2.1876,7.5482,-0.0475,0.0014,-0.1199,-1.7362424335875453,1.099535347748315e-05,2.931946277618408,-1.4192273616790771,-0.0,2.211317777633667,4.105577631587646,0.0,0.3010803461074829,-1.472506348286764,0.0,-0.018543986603617668,0.9953136444091797,-0.0,-0.00402115099132061,1.2312061786651611,-4.6062864266768067e-20,0.0011099507100880146
128.0,171.0,5.0889,-2.1876,7.5482,-0.0475,0.0014,-0.1199,-1.7362543545165003,1.0606611795083154e-05,2.927410125732422,-1.4191871881484985,-0.0,2.215200901031494,4.105553789729736,0.0,0.29055970907211304,-1.472518269215719,0.0,-0.013757532462477684,0.99532151222229,-0.0,-0.010849714279174805,1.2311742305755615,-1.112363887766965e-25,-0.008530418388545513
128.0,171.0,5.0889,-2.1876,7.5482,-0.0475,0.0014,-0.1199,-1.736218591729635,1.0244432814943139e-05,2.9160327911376953,-1.41923987865448,-0.0,2.2358145713806152,4.105569525355957,0.0,0.28052979707717896,-1.4725387732135218,0.0,-0.014914380386471748,0.9952743053436279,-0.0,-0.007684811949729919,1.2312102317810059,-2.6862284057533235e-31,-0.0313185416162014
128.0,171.0,5.0889,-2.1876,7.5482,-0.0475,0.0014,-0.1199,-1.7362143001952113,1.8232090281955493e-09,2.9169294834136963,-1.4192273616790771,-0.0,2.218336343765259,4.105597658748291,0.0,0.28959453105926514,-1.4725025335894983,0.0,-0.012911524623632431,0.9952936172485352,-0.0,-0.006899363361299038,1.2312225103378296,-6.486925827462113e-37,0.006974541116505861
128.0,171.0,5.0889,-2.1876,7.5482,-0.0475,0.0014,-0.1199,-1.736274858514303,4.402835755213438e-15,2.912999153137207,-1.4192073345184326,-0.0,2.1795856952667236,4.105577631587646,0.0,0.29855936765670776,-1.4724744001971644,0.0,-0.021877115592360497,0.9953174591064453,-0.0,-0.0018568396335467696,1.2312102317810059,-1.5666516831151455e-42,0.015831338241696358
128.0,171.0,5.0889,-2.1876,7.5482,-0.0475,0.0014,-0.1199,-1.7362061939635218,1.0632330793337998e-20,2.9134509563446045,-1.4191714525222778,-0.0,2.181063175201416,4.105577631587646,0.0,0.29251334071159363,-1.4725225607501429,1.5596808289330966e-09,-0.011855998076498508,0.9952702522277832,-0.0,-0.001439386629499495,1.2312020063400269,0.0,0.009827302768826485
128.0,171.0,5.0889,-2.1876,7.5482,-0.0475,0.0014,-0.1199,-1.7362987003722132,3.4447397245016414e-28,2.910771369934082,-1.4192273616790771,-0.0,2.2192776203155518,4.105569525355957,0.0,0.2945440113544464,-1.4725592772113245,2.8346431918315623e-14,-0.02672553062438965,0.9952617287635803,-0.0,-0.012294095009565353,1.2311782836914062,0.0,-0.013445375487208366
128.0,171.0,5.0889,-2.1876,7.5482,-0.0475,0.0014,-0.1199,-1.736218114892477,8.318641076273237e-34,2.9295949935913086,-1.4192315340042114,-0.0,2.239333152770996,4.10560576497998,0.0,0.2895151376724243,-1.4725144545184534,7.89033276089736e-18,-0.013320999220013618,0.9953216910362244,-0.0,-0.0059656864032149315,1.231194257736206,0.0,-0.0011318186298012733
128.0,171.0,5.0889,-2.1876,7.5482,-0.0475,0.0014,-0.1199,-1.7362824879088343,2.0088538343082707e-39,2.894123077392578,-1.4192113876342773,-0.0,2.19301176071167,4.105569525355957,0.0,0.29025840759277344,-1.4725149313556116,2.1963034668218032e-21,-0.019798459485173225,0.9953294396400452,-0.0,0.0017310702241957188,1.2311700582504272,0.0,-0.013000141829252243
128.0,171.0,5.0889,-2.1876,7.5482,-0.0475,0.0014,-0.1199,-1.736230035821432,4.203895392974451e-45,2.8880701065063477,-1.4191954135894775,-0.0,2.2146668434143066,4.105573816890381,0.0,0.28686070442199707,-1.4725225607501429,6.113492056568838e-25,-0.017398927360773087,0.9953455328941345,-0.0,-0.0011280854232609272,1.2311742305755615,0.0,0.010239770635962486
131.0,169.0,4.9089,-1.2969,7.7551,0.0023,0.0254,-0.1174,-1.7362505398192347,0.0,2.9200658798217773,-1.4191592931747437,-0.0,2.1724693775177,4.105573340053223,0.0,0.30789175629615784,-1.4725387732135218,1.7017128191498093e-28,-0.013460079208016396,0.9952856302261353,-0.0,0.006011884659528732,1.2311660051345825,0.0,-0.026061484590172768
131.0,169.0,4.9089,-1.2969,7.7551,0.0023,0.0254,-0.1174,-1.7362266979613246,0.0,2.920681953430176,-1.4191352128982544,0.003207751316949725,2.1697263717651367,4.105637236232422,0.0,0.28527796268463135,-1.4725144545184534,4.736780558407533e-32,0.0002555842511355877,0.9953094720840454,-0.0,-0.008233211003243923,1.231202483177185,0.0,-0.029519718140363693
131.0,169.0,4.9089,-1.2969,7.7551,0.0023,0.0254,-0.1174,-1.7361780605711878,0.0,2.8659942150115967,-1.4191279411315918,0.008376327343285084,2.2392578125,4.105629130000732,0.0,0.29196447134017944,-1.472506348286764,1.3185001549606232e-35,-0.028182324022054672,0.9952936768531799,-0.0,-0.004839496687054634,1.231186032295227,5.3655461670132354e-05,-0.015858573839068413
131.0,169.0,4.9089,-1.2969,7.7551,0.0023,0.0254,-0.1174,-1.7361985645689906,0.0,2.9218976497650146,-1.4190151691436768,0.01137004978954792,2.2444798946380615,4.105633421535156,0.0,0.2955581247806549,-1.4725468794452112,2.3963044519032967e-40,-0.01965595781803131,0.995305597782135,-0.0,-0.007124429568648338,1.2312504053115845,0.0002411391178611666,0.008918020874261856
131.0,169.0,4.9089,-1.2969,7.7551,0.0023,0.0254,-0.1174,-1.7362543545165003,0.0,2.906733989715576,-1.4189599752426147,0.01148858293890953,2.2334094047546387,4.105637236232422,4.798397412741906e-08,0.2923668622970581,-1.472534481679098,6.726232628759122e-44,-0.014473805204033852,0.99532151222229,-0.0,0.005148408468812704,1.2312138080596924,0.0008933193748816848,-0.01973099634051323
131.0,169.0,4.9089,-1.2969,7.7551,0.0023,0.0254,-0.1174,-1.7362424335875453,0.0,2.932978868484497,-1.4188756942749023,0.01260912325233221,2.225778102874756,4.10566155492749,1.3356517281071234e-11,0.2723161578178406,-1.4725301901446741,0.0,-0.00977061316370964,0.9953978061676025,-0.0,-0.009462119080126286,1.231222152709961,0.0007588998996652663,0.030831128358840942
131.0,169.0,4.9089,-1.2969,7.7551,0.0023,0.0254,-0.1174,-1.7362343273558558,0.00014491307956632227,2.9087634086608887,-1.418778896331787,0.013544851914048195,2.17630672454834,4.105653448695801,3.717835975604149e-15,0.2895502746105194,-1.4725826422320765,0.0,-0.027310416102409363,0.9952936768531799,-0.0,-0.012896295636892319,1.231217861175537,0.0005038711242377758,0.054672643542289734
131.0,169.0,4.9089,-1.2969,7.7551,0.0023,0.0254,-0.1174,-1.7362023792662562,0.00011615587573032826,2.9417362213134766,-1.4187238216400146,0.01222938671708107,2.199817419052124,4.105621500606201,1.034873153258328e-18,0.2926529347896576,-1.4725387732135218,0.0,-0.012635873630642891,0.99532151222229,-0.0,-0.011137798428535461,1.2312541007995605,0.00037712810444645584,0.02809763513505459
131.0,169.0,4.9089,-1.2969,7.7551,0.0023,0.0254,-0.1174,-1.7361980877318324,4.865818846155889e-05,2.910494327545166,-1.4186679124832153,0.01110868901014328,2.221853494644165,4.105653448695801,2.8806075107309228e-22,0.28517094254493713,-1.4726226965533655,0.0,-0.0010056945029646158,0.9952815771102905,-0.0,-0.007348855026066303,1.2312060594558716,0.0003013436798937619,-0.014740106649696827
131.0,169.0,4.9089,-1.2969,7.7551,0.0023,0.0254,-0.1174,-1.7362061939635218,8.000984962563962e-05,2.892500400543213,-1.4185519218444824,0.011909340508282185,2.241223096847534,4.105625315303467,5.235362449532731e-27,0.28628313541412354,-1.472558323537008,0.0,-0.014847076497972012,0.9953295588493347,-0.0,-0.006098342128098011,1.2312179803848267,0.00023767165839672089,0.019951453432440758
131.0,169.0,4.9089,-1.2969,7.7551,0.0023,0.0254,-0.1174,-1.7362028561034144,0.00010583495895843953,2.917654037475586,-1.4184514284133911,0.012462914921343327,2.258453369140625,4.105645342464111,0.00021928762726020068,0.28678539395332336,-1.4725988546954554,0.0,-0.01575385592877865,0.9952856302261353,-0.0,-0.009682290256023407,1.2312302589416504,0.00020516123913694173,0.018485741689801216
131.0,169.0,4.9089,-1.2969,7.7551,0.0023,0.0254,-0.1174,-1.7361661396422328,0.00012627473915927112,2.8951549530029297,-1.418391466140747,0.01243117731064558,2.263164758682251,4.105649633998535,0.00019434724526945502,0.28889960050582886,-1.4726031462298792,0.0,-0.011933619156479836,0.99532550573349,-0.0,0.0017266636714339256,1.2312225103378296,0.0001804749044822529,0.017976896837353706
131.0,169.0,4.9089,-1.2969,7.7551,0.0023,0.0254,-0.1174,-1.7362028561034144,0.00011429421283537522,2.9114022254943848,-1.4183441400527954,0.01314491406083107,2.2189807891845703,4.105617209071777,0.00017205164476763457,0.2865908443927765,-1.472558323537008,0.0,-0.008999107405543327,0.9953572750091553,-0.0,-0.005950561258941889,1.2312421798706055,0.0001288799539906904,0.005818522069603205
131.0,169.0,4.9089,-1.2969,7.7551,0.0023,0.0254,-0.1174,-1.7362061939635218,0.00010435491276439279,2.8905696868896484,-1.4182597398757935,0.012514142319560051,2.212568998336792,4.105641527766846,0.00015434551460202783,0.29294291138648987,-1.4725869337665003,0.0,-0.02356462925672531,0.9953454732894897,-0.0,6.128940731287003e-05,1.2312544584274292,8.72871169121936e-05,0.014112703502178192
128.0,176.0,5.0632,-1.8879,7.2909,-0.0371,0.0478,-0.1426,-1.736178537408346,7.204321445897222e-05,2.9019713401794434,-1.418203353881836,0.009626423940062523,2.2005467414855957,4.105605288142822,0.00013994389155413955,0.2909594774246216,-1.4725826422320765,0.0,0.002849902957677841,0.9953773617744446,-0.0,0.011192725040018559,1.231186032295227,-6.0798240156145766e-05,-0.005497852340340614
128.0,176.0,5.0632,-1.8879,7.2909,-0.0371,0.0478,-0.1426,-1.7362143001952113,-5.968817640678026e-05,2.907708168029785,-1.4181314706802368,0.0033910793717950583,2.2453885078430176,4.105609579677246,9.95692826109007e-05,0.2777777314186096,-1.4725387732135218,0.0,-0.006812207866460085,0.9953573942184448,-0.0,-0.0104611124843359,1.231194257736206,-0.00010703794396249577,0.0029694796539843082
128.0,176.0,5.0632,-1.8879,7.2909,-0.0371,0.0478,-0.1426,-1.7362143001952113,-0.00010605007992126048,2.916208267211914,-1.4181593656539917,0.0006573512800969183,2.1912574768066406,4.105541868800781,6.900700100231916e-05,0.30499467253685,-1.4725750128375452,0.0,-0.016231466084718704,0.9952976703643799,-1.0676031791945206e-07,-0.004481480456888676,1.2312462329864502,-9.837918332777917e-05,0.04500921815633774
128.0,176.0,5.0632,-1.8879,7.2909,-0.0371,0.0478,-0.1426,-1.7362548313536585,-0.0005965033196844161,2.9037678241729736,-1.418171763420105,-0.002852387959137559,2.1922197341918945,4.105565233821533,-9.44744679145515e-05,0.29187077283859253,-1.4725826422320765,0.0,-0.0064545548520982265,0.9953493475914001,-2.9717128063877496e-11,0.0045018428936600685,1.2312265634536743,-9.092484106076881e-05,0.05790484696626663
128.0,176.0,5.0632,-1.8879,7.2909,-0.0371,0.0478,-0.1426,-1.736274858514303,-0.0006216030451469123,2.878798007965088,-1.41822350025177,-0.002162272809073329,2.2286970615386963,4.105533762569092,-0.00016142026288434863,0.2976522743701935,-1.4725664297686976,0.0,-0.01211764756590128,0.9953613877296448,-8.271872194100163e-15,-0.009482158347964287,1.2311902046203613,-0.00012064131442457438,0.051299456506967545
128.0,176.0,5.0632,-1.8879,7.2909,-0.0371,0.0478,-0.1426,-1.7362863026061,-0.0008907384471967816,2.9295201301574707,-1.418239951133728,-0.0011329066473990679,2.2005362510681152,4.105577631587646,-0.00015306368004530668,0.29521724581718445,-1.4725664297686976,0.0,-0.009075189009308815,0.9952936768531799,-2.302506038697493e-18,-0.02359481155872345,1.2312183380126953,-0.00010044316877610981,-0.03290875628590584
128.0,176.0,5.0632,-1.8879,7.2909,-0.0371,0.0478,-0.1426,-1.736298223535055,-0.0012909563956782222,2.884352207183838,-1.4181997776031494,-0.0006948905647732317,2.211538076400757,4.105565710658691,-0.00042372351163066924,0.2766643166542053,-1.4725592772113245,0.0,-0.015157708898186684,0.9952776432037354,-6.409110900540932e-22,0.0008640331216156483,1.2311897277832031,-8.6038293375168e-05,0.011582179926335812
128.0,176.0,5.0632,-1.8879,7.2909,-0.0371,0.0478,-0.1426,-1.7363792858519496,-0.00249311700463295,2.8657257556915283,-1.4182358980178833,-0.00038222200237214565,2.220123767852783,4.105585737819336,-0.0003078379377257079,0.2883778214454651,-1.4725540320025843,0.0,-0.019866859540343285,0.9952259659767151,-1.1648242318923707e-26,-0.0037938093300908804,1.2312061786651611,-7.222759450087324e-05,-0.01436538901180029
128.0,176.0,5.0632,-1.8879,7.2909,-0.0371,0.0478,-0.1426,-1.736370702783102,-0.003539689350873232,2.876434326171875,-1.418219804763794,-0.0003651998413261026,2.201568365097046,4.105533762569092,-0.0003046607307624072,0.28442370891571045,-1.4725263754474085,0.0,-0.012272861786186695,0.9952703714370728,-3.242331273240331e-30,-0.007167126517742872,1.2312302589416504,-6.446677434723824e-05,0.024044901132583618
128.0,176.0,5.0632,-1.8879,7.2909,-0.0371,0.0478,-0.1426,-1.7363583050169886,-0.0061711762100458145,2.923203229904175,-1.4182679653167725,-0.00027064597816206515,2.18839168548584,4.1055614191242675,-0.00026187190087512136,0.2942582070827484,-1.4725301901446741,0.0,-0.005273471120744944,0.9952377676963806,-9.025148078605972e-34,-0.015197995118796825,1.2312541007995605,-2.9153536161174998e-05,-0.03108394332230091
128.0,176.0,5.0632,-1.8879,7.2909,-0.0371,0.0478,-0.1426,-1.7364469967284144,-0.008595078252255917,2.8788070678710938,-1.418219804763794,-0.00017389620188623667,2.179774522781372,4.105541868800781,-0.00022860542230773717,0.3026818633079529,-1.4725425879107874,0.0,-0.02069970592856407,0.9953015446662903,-2.5121830908005417e-37,-0.010161732323467731,1.2312822341918945,-2.049787700686423e-10,-0.06359993666410446
128.0,176.0,5.0632,-1.8879,7.2909,-0.0371,0.0478,-0.1426,-1.736523290673727,-0.010772202163934708,2.92402720451355,-1.4181677103042603,-0.00011357155744917691,2.1514174938201904,4.105585737819336,-0.00016963026428129524,0.28360727429389954,-1.4725144545184534,-1.830819201131817e-05,-0.01045162882655859,0.9952260255813599,-6.992759596673702e-41,-0.022017881274223328,1.2313060760498047,0.0009389059850946069,-0.032542113214731216
128.0,176.0,5.0632,-1.8879,7.2909,-0.0371,0.0478,-0.1426,-1.736586710015768,-0.01209972519427538,2.926560163497925,-1.4181791543960571,7.291254587471485e-05,2.160933494567871,4.105597658748291,-0.00015191160491667688,0.29330208897590637,-1.4725831190692347,-2.654409036040306e-05,-0.010132767260074615,0.9952658414840698,-1.961817850054744e-44,-0.01047523319721222,1.2313101291656494,0.002288694027811289,-0.02575099468231201
128.0,176.0,5.0632,-1.8879,7.2909,-0.0371,0.0478,-0.1426,-1.7367354832091273,-0.015213925391435623,2.9120540618896484,-1.4181956052780151,3.1535240850644186e-05,2.1999802589416504,4.105561895961426,-0.00013383700570557266,0.2970733940601349,-1.472534481679098,-2.5067916794796474e-05,-0.007024632301181555,0.9952219724655151,-0.0,-0.014984119683504105,1.2313380241394043,0.0035853232257068157,-0.056390948593616486
126.0,171.0,4.1282,-2.269,7.6624,-0.0246,0.0341,-0.1184,-1.73683561901235,-0.018626241013407707,2.8518495559692383,-1.4182153940200806,1.1471987590994104e-06,2.194061040878296,4.105601950282715,-0.0001228728360729292,0.2830914855003357,-1.4725101629840296,-2.4062590455287136e-05,-0.019434526562690735,0.995286226272583,-0.0,-0.02086641825735569,1.231438159942627,0.004846752155572176,-0.025385620072484016
126.0,171.0,4.1282,-2.269,7.6624,-0.0246,0.0341,-0.1184,-1.7369591198363246,-0.022639231756329536,2.8687970638275146,-1.4182357788085938,2.770349921688009e-12,2.213576555252075,4.105625315303467,-0.0001135693455580622,0.28895723819732666,-1.4725831190692347,-2.313478762516752e-05,0.009997284971177578,0.9953097105026245,-0.0,-0.015590284019708633,1.2314139604568481,0.005017389543354511,-0.02709820680320263
126.0,171.0,4.1282,-2.269,7.6624,-0.0246,0.0341,-0.1184,-1.7371717892088832,-0.02653067745268345,2.8638644218444824,-1.4181957244873047,6.6900688766645396e-18,2.1790027618408203,4.105537577266357,-0.00010557545465417206,0.2976011037826538,-1.4725549856769007,-2.227588811365422e-05,-0.007600681856274605,0.9952976703643799,-0.0002161471638828516,-0.02426624484360218,1.23141348361969,0.004616059362888336,-0.04811714217066765
126.0,171.0,4.1282,-2.269,7.6624,-0.0246,0.0341,-0.1184,-1.7373725376524867,-0.030420485883951187,2.8550326824188232,-1.4182157516479492,1.6155727766241572e-23,2.1998887062072754,4.105553789729736,-9.863298328127712e-05,0.2889583110809326,-1.4725387732135218,-2.147846134903375e-05,-0.004839904606342316,0.9952936768531799,-0.00022740167332813144,-0.03503339737653732,1.23151433467865,0.004759097006171942,-0.036779530346393585
126.0,171.0,4.1282,-2.269,7.6624,-0.0246,0.0341,-0.1184,-1.7375570736327113,-0.03369887173175812,2.905318260192871,-1.4182153940200806,-0.0004547916178125888,2.207298755645752,4.105553789729736,-9.254731412511319e-05,0.30382490158081055,-1.472534481679098,-1.0715279131545685e-05,0.0031138372141867876,0.9952696561813354,-0.00022679845278616995,-0.03231668472290039,1.2315417528152466,0.005267022643238306,0.028789237141609192
126.0,171.0,4.1282,-2.269,7.6624,-0.0246,0.0341,-0.1184,-1.7378407917418421,-0.03802553936839104,2.849822521209717,-1.4182474613189697,-0.0004631232295650989,2.2173454761505127,4.105573340053223,-8.55124817462638e-05,0.30156999826431274,-1.472518269215719,-5.023959602112882e-06,-0.01009698398411274,0.9953056573867798,-0.00020491056784521788,-0.0328548364341259,1.2315572500228882,0.006491844542324543,-0.010069860145449638
126.0,171.0,4.1282,-2.269,7.6624,-0.0246,0.0341,-0.1184,-1.738032957116598,-0.04172645881772041,2.8196663856506348,-1.4183001518249512,-0.0003796534729190171,2.223421573638916,4.105553789729736,-8.090043411357328e-05,0.2867977023124695,-1.472534481679098,-1.398437587951662e-09,0.007080568931996822,0.9953015446662903,-0.00021333072800189257,-0.036103349179029465,1.2316133975982666,0.006768306717276573,-0.010654089972376823
126.0,171.0,4.1282,-2.269,7.6624,-0.0246,0.0341,-0.1184,-1.7383176289000453,-0.042953990399837494,2.8612611293792725,-1.4182555675506592,-0.00032151819323189557,2.189216375350952,4.105529947871826,-7.676043605897576e-05,0.29866620898246765,-1.4725468794452112,-3.892602928358413e-13,-0.006461199373006821,0.9952378273010254,-0.0002495690423529595,-0.03388488292694092,1.2316617965698242,0.007789386436343193,0.007381253410130739
126.0,171.0,4.1282,-2.269,7.6624,-0.0246,0.0341,-0.1184,-1.7385455570616664,-0.04544495418667793,2.829440116882324,-1.4181791543960571,-0.00027882587164640427,2.1874070167541504,4.105565710658691,-7.302351150428876e-05,0.2923153042793274,-1.4725068251239222,-1.0835204433118627e-16,0.0015789626631885767,0.9952142238616943,-0.00025850889505818486,-0.031711213290691376,1.231733798980713,0.008184102363884449,0.0023819589987397194
126.0,171.0,4.1282,-2.269,7.6624,-0.0246,0.0341,-0.1184,-1.738870760003561,-0.04440349340438843,2.8171749114990234,-1.4181994199752808,-0.0002461426774971187,2.2615199089050293,4.105585737819336,-6.963356281630695e-05,0.30224502086639404,-1.4725101629840296,-3.0160190974639666e-20,0.005135805811733007,0.9952300190925598,-0.00030026622698642313,-0.03694529086351395,1.2317609786987305,0.008413133211433887,0.023410173133015633
126.0,171.0,4.1282,-2.269,7.6624,-0.0246,0.0341,-0.1184,-1.7390786610045375,-0.04431498423218727,2.863769292831421,-1.4182194471359253,-0.0002517403627280146,2.193502426147461,4.105561895961426,-6.654445314779878e-05,0.3056561350822449,-1.4724944273578089,-8.395199748324947e-24,0.0013825264759361744,0.9952983260154724,-0.00044369351235218346,-0.040824852883815765,1.231781005859375,0.008949562907218933,-0.0007327469065785408
126.0,171.0,4.1282,-2.269,7.6624,-0.0246,0.0341,-0.1184,-1.739403863946432,-0.043563175946474075,2.8394877910614014,-1.4182721376419067,-0.00022492303105536848,2.2358460426330566,4.105577631587646,-6.37176854070276e-05,0.28975918889045715,-1.4725225607501429,-2.3368349943350246e-27,0.0035362413618713617,0.9952300190925598,-0.0004115714691579342,-0.03348428010940552,1.2318248748779297,0.009666536003351212,-0.036010924726724625
126.0,171.0,4.1282,-2.269,7.6624,-0.0246,0.0341,-0.1184,-1.7397190533080042,-0.04525661841034889,2.865326166152954,-1.4182597398757935,-0.000716970709618181,2.198381185531616,4.105569525355957,-6.030234362697229e-05,0.28500694036483765,-1.4725187460528772,-4.247081954545652e-32,-0.018883632495999336,0.9952221512794495,-0.0003679098444990814,-0.047489576041698456,1.2319371700286865,0.010359222069382668,-0.024599973112344742
126.0,171.0,4.1282,-2.269,7.6624,-0.0246,0.0341,-0.1184,-1.739983697930807,-0.04914858192205429,2.861689805984497,-1.4182597398757935,-0.0008223920594900846,2.172136068344116,4.105561895961426,-6.95404305588454e-05,0.2934180498123169,-1.4724863211261194,-1.1821908086612767e-35,-0.006116729229688644,0.9952300786972046,-0.0003577795869205147,-0.03798087686300278,1.2320008277893066,0.011295993812382221,0.0042496114037930965
126.0,167.0,4.8927,-2.4766,7.6361,-0.0823,-0.0455,-0.115,-1.740246912042135,-0.054634787142276764,2.8118960857391357,-1.4182360172271729,-0.00084648746997118,2.2242579460144043,4.105569525355957,-6.697759090457112e-05,0.2855202555656433,-1.4725349585162562,-3.2906719863708966e-39,-0.0021067725028842688,0.9951863884925842,-0.00030479065026156604,-0.037158623337745667,1.232105016708374,0.012587635777890682,-0.010564053431153297
126.0,167.0,4.8927,-2.4766,7.6361,-0.0823,-0.0455,-0.115,-1.7406207523741664,-0.059510570019483566,2.8213863372802734,-1.4182639122009277,-0.0004810937389265746,2.185042142868042,4.105565710658691,-5.521505227079615e-05,0.2895479202270508,-1.4724944273578089,-9.164491956684304e-43,-0.01934027299284935,0.9953059554100037,-0.0002971589856315404,-0.04447569698095322,1.2321887016296387,0.01345023512840271,-0.004441810306161642
126.0,167.0,4.8927,-2.4766,7.6361,-0.0823,-0.0455,-0.115,-1.7409364185728968,-0.062686488032341,2.8290820121765137,-1.4182075262069702,0.00018515541160013527,2.196713924407959,4.105597658748291,-5.1949107728432864e-05,0.28321462869644165,-1.472494904194967,-0.0,-0.004657924175262451,0.9952579736709595,-0.00026005483232438564,-0.056648559868335724,1.232208251953125,0.014168533496558666,-0.01766974851489067
126.0,167.0,4.8927,-2.4766,7.6361,-0.0823,-0.0455,-0.115,-1.7413250408568324,-0.0646132156252861,2.820664167404175,-1.4181952476501465,0.0009141789632849395,2.179455518722534,4.105573340053223,-5.0209840992465615e-05,0.29017090797424316,-1.4724944273578089,-0.0,-0.015993239358067513,0.9952539801597595,-0.00026250939117744565,-0.05376032739877701,1.232308268547058,0.015423213131725788,-0.003453528508543968
126.0,167.0,4.8927,-2.4766,7.6361,-0.0823,-0.0455,-0.115,-1.7418624363341273,-0.06385373324155807,2.8704111576080322,-1.4182034730911255,0.0007051856373436749,2.174940824508667,4.105601950282715,-1.3821876976294334e-08,0.2795008420944214,-1.4724825064288538,-0.0,-0.018273666501045227,0.9952062368392944,-0.00022689474280923605,-0.05550439655780792,1.2324962615966797,0.018462877720594406,-0.0061737969517707825
126.0,167.0,4.8927,-2.4766,7.6361,-0.0823,-0.0455,-0.115,-1.7422496281065882,-0.06280055642127991,2.872586965560913,-1.4182761907577515,0.000506589887663722,2.1838319301605225,4.105601950282715,-3.8473703389829694e-12,0.28128111362457275,-1.4724386374102991,-0.0,-0.016072683036327362,0.9952380657196045,-0.00023301377950701863,-0.06356792151927948,1.2325676679611206,0.02019725926220417,0.028976835310459137
126.0,167.0,4.8927,-2.4766,7.6361,-0.0823,-0.0455,-0.115,-1.7426392040648402,-0.0650535523891449,2.8105955123901367,-1.4182116985321045,0.0002714585280045867,2.169027328491211,4.105601950282715,-1.07092980147674e-15,0.2896132469177246,-1.4724744001971644,-0.0,-0.005110626574605703,0.9952622056007385,-0.0002132262452505529,-0.06752920895814896,1.2326953411102295,0.023456448689103127,0.03416579216718674
126.0,167.0,4.8927,-2.4766,7.6361,-0.0823,-0.0455,-0.115,-1.7430225811400355,-0.06675374507904053,2.8086705207824707,-1.4182116985321045,0.00016206504369620234,2.181211471557617,4.105625315303467,-2.980972553509346e-19,0.2847134470939636,-1.4724744001971644,-0.0,-0.0020506922155618668,0.9951943159103394,-0.00018836665549315512,-0.059044383466243744,1.232831358909607,0.025989865884184837,0.0036101797595620155
126.0,167.0,4.8927,-2.4766,7.6361,-0.0823,-0.0455,-0.115,-1.743507524529928,-0.06888874620199203,2.8313419818878174,-1.4182432889938354,-0.00011155975516885519,2.184583902359009,4.10560576497998,-8.29764668443042e-23,0.2840149402618408,-1.4725106398211878,-0.0,-0.012014899402856827,0.9952380657196045,-0.00016707753820810467,-0.06324645131826401,1.2330154180526733,0.02793349325656891,-0.0005084722070023417
126.0,167.0,4.8927,-2.4766,7.6361,-0.0823,-0.0455,-0.115,-1.7438842258849085,-0.06834545731544495,2.878793239593506,-1.4182474613189697,-9.406868048245087e-05,2.199185371398926,4.105593844051025,-1.826848894381783e-08,0.2811461389064789,-1.4725268522845667,-0.0,-0.03344479948282242,0.9952023029327393,-0.00015033045201562345,-0.057858482003211975,1.233198881149292,0.0283322986215353,-0.039130792021751404
126.0,167.0,4.8927,-2.4766,7.6361,-0.0823,-0.0455,-0.115,-1.7444573841490687,-0.06700651347637177,2.841451644897461,-1.4182840585708618,-7.780307350913063e-05,2.219186544418335,4.105577631587646,-3.320208149214243e-13,0.2757924199104309,-1.4725225607501429,-0.0,-0.010087460279464722,0.9951983094215393,-0.00015911432274151593,-0.06678490340709686,1.2334144115447998,0.027362948283553123,-0.05390171334147453
126.0,167.0,4.8927,-2.4766,7.6361,-0.0823,-0.0455,-0.115,-1.7448450527586878,-0.06630589812994003,2.8339273929595947,-1.4182761907577515,-3.443672540015541e-05,2.195636749267578,4.105573340053223,-9.241920239210017e-17,0.28601863980293274,-1.4724786917315882,-0.0,-0.004587935283780098,0.9952460527420044,-0.00014620390720665455,-0.0556805357336998,1.2335176467895508,0.025079477578401566,-0.03589361906051636
126.0,167.0,4.8927,-2.4766,7.6361,-0.0823,-0.0455,-0.115,-1.745270391503805,-0.06743225455284119,2.7816848754882812,-1.4181915521621704,-5.060836727466267e-08,2.2425589561462402,4.105557604427002,-2.572522496193253e-20,0.2725411653518677,-1.4725549856769007,-0.0,-0.011672813445329666,0.9952181577682495,-0.00015765553689561784,-0.07668407261371613,1.2336770296096802,0.02344263717532158,-0.02301604487001896
126.0,167.0,4.8927,-2.4766,7.6361,-0.0823,-0.0455,-0.115,-1.7456981144347132,-0.06867673248052597,2.8362746238708496,-1.4182357788085938,-1.2221327465658516e-13,2.174168586730957,4.105625315303467,-7.160710528883681e-24,0.2841385304927826,-1.4725707213031214,-0.0,-0.033510953187942505,0.9952221512794495,-0.00014673317491542548,-0.07601140439510345,1.2338453531265259,0.022391168400645256,-0.014209181070327759
123.0,171.0,5.2175,-1.992,7.5482,-0.0081,-0.0599,-0.1122,-1.746103426019186,-0.06914587318897247,2.7996997833251953,-1.4182276725769043,-2.951306496321956e-19,2.2093143463134766,4.105593844051025,-1.9932099958784707e-27,0.27469199895858765,-1.4725468794452112,-0.0,-0.019970374181866646,0.9952062368392944,-0.0001566552382428199,-0.0681578665971756,1.2340375185012817,0.021149104461073875,-0.05756567791104317
123.0,171.0,5.2175,-1.992,7.5482,-0.0081,-0.0599,-0.1122,-1.7464710674681605,-0.06993257254362106,2.858161687850952,-1.4182157516479492,0.0006030873046256602,2.191256523132324,4.105613394374512,-5.548173468649485e-31,0.27414628863334656,-1.4725468794452112,-0.0,-0.023639801889657974,0.9951460361480713,-0.00014713313430547714,-0.07812279462814331,1.2341207265853882,0.020370695739984512,-0.018203377723693848
123.0,171.0,5.2175,-1.992,7.5482,-0.0081,-0.0599,-0.1122,-1.7470795116820277,-0.07458659261465073,2.837552309036255,-1.418236255645752,0.000837072089780122,2.1908535957336426,4.105609579677246,-1.0083530303499298e-35,0.2886342406272888,-1.4725425879107874,-3.130723052890971e-05,-0.004216448403894901,0.9952462315559387,-0.00015098713629413396,-0.08973707258701324,1.2342886924743652,0.017803389579057693,-0.04449930042028427
123.0,171.0,5.2175,-1.992,7.5482,-0.0081,-0.0599,-0.1122,-1.7475530109801234,-0.0781213566660881,2.817317247390747,-1.4181832075119019,0.0008814495522528887,2.204669237136841,4.10569350301709,-2.8067882123564297e-39,0.28295373916625977,-1.4725540320025843,-4.318441278883256e-05,-0.018848616629838943,0.9951780438423157,-0.00013719727576244622,-0.0624554306268692,1.2343926429748535,0.015924474224448204,-0.03746619075536728
123.0,171.0,5.2175,-1.992,7.5482,-0.0081,-0.0599,-0.1122,-1.7480823002257289,-0.07850328087806702,2.8530795574188232,-1.4181758165359497,0.0009553044219501317,2.1770949363708496,4.105617209071777,-7.81924543093248e-43,0.29107236862182617,-1.472534481679098,-4.299563079257496e-05,-0.024567736312747,0.9951978921890259,-0.00012569928367156535,-0.08396399021148682,1.2344759702682495,0.0126206548884511,0.004882319830358028
123.0,171.0,5.2175,-1.992,7.5482,-0.0081,-0.0599,-0.1122,-1.7485066852965296,-0.07700368016958237,2.8353686332702637,-1.418171763420105,0.0009911747183650732,2.1889476776123047,4.105653448695801,-0.0,0.2837105989456177,-1.4725869337665003,-4.103571336599998e-05,-0.020529314875602722,0.9952182173728943,-0.00013912243593949825,-0.07145790755748749,1.2345237731933594,0.009584134444594383,-0.037821874022483826
123.0,171.0,5.2175,-1.992,7.5482,-0.0081,-0.0599,-0.1122,-1.7489830456175746,-0.07367943972349167,2.8374507427215576,-1.4182162284851074,0.000498059787787497,2.195930004119873,4.105629130000732,-0.0,0.2850315570831299,-1.472558323537008,-5.2313582273200154e-05,-0.01918303780257702,0.9952263236045837,-0.0001291863591177389,-0.06724850833415985,1.2345393896102905,0.005861498415470123,-0.0546426922082901
123.0,171.0,5.2175,-1.992,7.5482,-0.0081,-0.0599,-0.1122,-1.7493988476195277,-0.06743974983692169,2.900305986404419,-1.4182157516479492,2.1941791317203752e-07,2.177046060562134,4.105613394374512,-0.0,0.28760164976119995,-1.4725826422320765,-5.014182534068823e-05,-0.02297108806669712,0.9951817989349365,-0.00014057860244065523,-0.0761566162109375,1.2345913648605347,0.003494120202958584,-0.02770572155714035
123.0,171.0,5.2175,-1.992,7.5482,-0.0081,-0.0599,-0.1122,-1.7500201664366664,-0.06119108572602272,2.9196739196777344,-1.418183445930481,-0.0013537743361666799,2.219322681427002,4.105581446284912,-0.0,0.2846626043319702,-1.472562615071432,-4.749567960971035e-05,-0.03365326672792435,0.9952301383018494,-0.00017824374663177878,-0.08037985116243362,1.2346036434173584,0.0015827709576115012,-0.034990884363651276
123.0,171.0,5.2175,-1.992,7.5482,-0.0081,-0.0599,-0.1122,-1.7504121265807093,-0.06054099276661873,2.854590892791748,-1.4182523488998413,-0.0015869403723627329,2.1686477661132812,4.105601950282715,-0.0,0.2800711691379547,-1.4725869337665003,-4.568744043353945e-05,-0.018943946808576584,0.9952104091644287,-0.0002195527486037463,-0.0873250737786293,1.234663963317871,0.0009132815757766366,-0.06588573753833771
123.0,171.0,5.2175,-1.992,7.5482,-0.0081,-0.0599,-0.1122,-1.750744482079977,-0.06314345449209213,2.8627171516418457,-1.4182555675506592,-0.001062948489561677,2.233027696609497,4.105569525355957,-0.0,0.2683864235877991,-1.472534481679098,-4.401178011903539e-05,-0.02753181755542755,0.9952382445335388,-0.00022625848941970617,-0.07321620732545853,1.2346439361572266,0.0007066071848385036,-0.04071231186389923
123.0,171.0,5.2175,-1.992,7.5482,-0.0081,-0.0599,-0.1122,-1.7511335812010707,-0.06454318761825562,2.876710891723633,-1.41822350025177,-0.0003792245115619153,2.238276958465576,4.105585737819336,-0.0,0.2871919274330139,-1.4725826422320765,-5.29770040884614e-05,-0.027636677026748657,0.9952263236045837,-0.00020780808699782938,-0.08499741554260254,1.234595537185669,0.0005286420928314328,-0.04721242934465408
123.0,171.0,5.2175,-1.992,7.5482,-0.0081,-0.0599,-0.1122,-1.751505514184469,-0.062787726521492,2.855512857437134,-1.4182075262069702,0.001753603806719184,2.19214129447937,4.105629130000732,-0.0,0.27224671840667725,-1.4725707213031214,-5.1255006837891415e-05,-0.015037428587675095,0.9951817989349365,-0.00021598620514851063,-0.08390439301729202,1.234623670578003,0.0004223047289997339,-0.04204609990119934
123.0,171.0,5.2175,-1.992,7.5482,-0.0081,-0.0599,-0.1122,-1.7518016300597132,-0.055486444383859634,2.8516054153442383,-1.4182357788085938,0.002162560820579529,2.2436394691467285,4.105593844051025,-0.0,0.2683946192264557,-1.4725502173053187,-2.5122133592958562e-05,-0.02804071083664894,0.9951779842376709,-0.00019825511844828725,-0.08441530168056488,1.2345913648605347,0.00011776026076404378,-0.03710908442735672
118.0,173.0,5.7541,-2.3001,6.8453,-0.0554,-0.0693,-0.1225,-1.7522298298277796,-0.04682965949177742,2.838165283203125,-1.4182037115097046,0.0018454203382134438,2.230632781982422,4.105637236232422,-0.0,0.28502804040908813,-1.472558323537008,-0.0001072277154889889,-0.023829534649848938,0.9951938986778259,-0.00023454542679246515,-0.08845891803503036,1.2346076965332031,9.330228203907609e-05,-0.02577323280274868
118.0,173.0,5.7541,-2.3001,6.8453,-0.0554,-0.0693,-0.1225,-1.7525025806822718,-0.04406113177537918,2.9259984493255615,-1.4181995391845703,0.0006247667479328811,2.1714372634887695,4.105629130000732,-0.0,0.2950320541858673,-1.472590748463766,-0.00010531074804021046,-0.03617890924215317,0.9951658844947815,-0.0002028863673331216,-0.09313508868217468,1.2346320152282715,0.00011947075108764693,-0.06735976040363312
118.0,173.0,5.7541,-2.3001,6.8453,-0.0554,-0.0693,-0.1225,-1.7527991733946742,-0.04562560096383095,2.8777365684509277,-1.4181758165359497,1.0999930566413241e-07,2.20477294921875,4.105641527766846,-0.0,0.28292304277420044,-1.4725750128375452,-0.00013517435581889004,-0.018976200371980667,0.9951620697975159,-0.000214127212530002,-0.09768221527338028,1.2345831394195557,0.00010675070370780304,-0.010182742029428482
118.0,173.0,5.7541,-2.3001,6.8453,-0.0554,-0.0693,-0.1225,-1.753087659875387,-0.04930075258016586,2.855480194091797,-1.418228030204773,2.6563538695068e-13,2.1593494415283203,4.105633421535156,-0.0,0.29469937086105347,-1.4725826422320765,-0.0001292826927965507,-0.037408649921417236,0.9952144622802734,-0.0002072651986964047,-0.08858530223369598,1.2346076965332031,0.00012723931286018342,-0.025589914992451668
118.0,173.0,5.7541,-2.3001,6.8453,-0.0554,-0.0693,-0.1225,-1.753411432305807,-0.05176425725221634,2.863985061645508,-1.4182199239730835,6.41478203143355e-19,2.179978132247925,4.105621500606201,-0.0,0.28628334403038025,-1.472562615071432,-0.00013859507453162223,-0.04227638989686966,0.9951698780059814,-0.00020203868916723877,-0.08989579975605011,1.2346036434173584,9.9403943750076e-05,0.010498503223061562
118.0,173.0,5.7541,-2.3001,6.8453,-0.0554,-0.0693,-0.1225,-1.7537280521788539,-0.05296863242983818,2.8664588928222656,-1.418155312538147,1.5490943440143926e-24,2.185837984085083,4.105641527766846,-0.0,0.2976895868778229,-1.472630802785055,-0.00013155398482922465,-0.042205631732940674,0.9951461553573608,-0.00025266752345487475,-0.0903397873044014,1.2346516847610474,0.0001278405252378434,-0.023059561848640442
118.0,173.0,5.7541,-2.3001,6.8453,-0.0554,-0.0693,-0.1225,-1.7540399036803187,-0.050727542489767075,2.858826160430908,-1.4180954694747925,3.7408800565201186e-30,2.258328437805176,4.105653448695801,-0.0,0.27979984879493713,-1.4725826422320765,-0.00023612902441527694,-0.04103150963783264,0.995173990726471,-0.00030847202287986875,-0.10700331628322601,1.2346076965332031,0.00011199351138202474,-0.018309233710169792
118.0,173.0,5.7541,-2.3001,6.8453,-0.0554,-0.0693,-0.1225,-1.7543727360167445,-0.04281744733452797,2.834469795227051,-1.4182161092758179,1.2119978395063176e-37,2.164781093597412,4.105581446284912,-0.0,0.2750263810157776,-1.4725988546954554,-0.0002347450499655679,-0.05124136433005333,0.9951700568199158,-0.0009225454996339977,-0.0936322808265686,1.2346196174621582,0.00012805609731003642,-0.027187177911400795
118.0,173.0,5.7541,-2.3001,6.8453,-0.0554,-0.0693,-0.1225,-1.7546974621214808,-0.039353642612695694,2.8744044303894043,-1.4182285070419312,-0.00010589456360321492,2.1934866905212402,4.105672999019287,-0.0,0.29704782366752625,-1.4725902716266077,-0.0002079377882182598,-0.05976708233356476,0.9951581358909607,-0.0022576560731977224,-0.10978883504867554,1.2345831394195557,0.00039728041156195104,-0.034046467393636703
118.0,173.0,5.7541,-2.3001,6.8453,-0.0554,-0.0693,-0.1225,-1.754925390283102,-0.03487050533294678,2.851966619491577,-1.4182080030441284,-0.00012493917893152684,2.215439796447754,4.10561387121167,-0.0,0.27136558294296265,-1.4726226965533655,-0.00021718922653235495,-0.04149502515792847,0.9951303005218506,-0.005631187930703163,-0.10243676602840424,1.2346473932266235,0.0026292246766388416,-0.01685340143740177
118.0,173.0,5.7541,-2.3001,6.8453,-0.0554,-0.0693,-0.1225,-1.7550889454283656,-0.03329271450638771,2.8927109241485596,-1.4181872606277466,-0.0008897327934391797,2.157179117202759,4.105545683498047,-0.0,0.27694782614707947,-1.4725826422320765,-0.00019705882004927844,-0.052796341478824615,0.9951190948486328,-0.014154089614748955,-0.11659704148769379,1.234663486480713,0.00413707597181201,0.04795629531145096
118.0,173.0,5.7541,-2.3001,6.8453,-0.0554,-0.0693,-0.1225,-1.7553497753539027,-0.03098616749048233,2.8818697929382324,-1.4182357788085938,-0.0009909035870805383,2.1618714332580566,4.10560576497998,-0.0,0.27471020817756653,-1.4725783506976526,-0.00018015243404079229,-0.05470743030309677,0.9950146079063416,-0.012507673352956772,-0.1215609759092331,1.2346833944320679,0.004547031130641699,0.034626126289367676
118.0,173.0,5.7541,-2.3001,6.8453,-0.0554,-0.0693,-0.1225,-1.755505701104635,-0.02859889157116413,2.8775086402893066,-1.4181594848632812,-0.0006008429918438196,2.1701719760894775,4.105621500606201,-0.0,0.2865189015865326,-1.4725421110736292,-0.00016591775056440383,-0.04836752265691757,0.9949548244476318,-0.005671862978488207,-0.10520726442337036,1.234703540802002,0.0048767742700874805,-0.0051799858920276165
118.0,173.0,5.7541,-2.3001,6.8453,-0.0554,-0.0693,-0.1225,-1.7557383976378382,-0.0222848579287529,2.88381290435791,-1.4182157516479492,6.6461565438658e-05,2.1978626251220703,4.105625315303467,-0.0,0.2840123772621155,-1.4725988546954554,-0.0001501041406299919,-0.056227341294288635,0.9949430823326111,-0.0006858907290734351,-0.09680657088756561,1.2347593307495117,0.004489043727517128,0.031589969992637634
115.0,169.0,5.9402,-2.0297,7.3202,-0.037,-0.0768,-0.1286,-1.755850454370016,-0.016751891002058983,2.8828115463256836,-1.4182080030441284,0.00033119850559160113,2.1711225509643555,4.105609579677246,-0.0,0.27339404821395874,-1.4725707213031214,-0.000140090225613676,-0.03955462947487831,0.9949669241905212,-0.000377163989469409,-0.10638093948364258,1.2348151206970215,0.004593095742166042,0.03749777749180794
115.0,169.0,5.9402,-2.0297,7.3202,-0.037,-0.0768,-0.1286,-1.7559062443175257,-0.012630807235836983,2.8863115310668945,-1.4181995391845703,0.0002602991589810699,2.1851906776428223,4.105613394374512,-0.0,0.27468645572662354,-1.4725540320025843,-0.00013132909953128546,-0.04200964421033859,0.9949357509613037,-0.00026563159190118313,-0.097755566239357,1.2348188161849976,0.005208518821746111,0.03656904399394989
115.0,169.0,5.9402,-2.0297,7.3202,-0.037,-0.0768,-0.1286,-1.7559949360289515,-0.010417205281555653,2.908432960510254,-1.4181914329528809,0.00021389317407738417,2.157907247543335,4.1055943208881835,-0.0,0.28873884677886963,-1.472574536000387,-0.00012359919492155313,-0.04989547282457352,0.9949905872344971,-0.00020504761778283864,-0.107357457280159,1.2348346710205078,0.006013278383761644,0.004251743666827679
115.0,169.0,5.9402,-2.0297,7.3202,-0.037,-0.0768,-0.1286,-1.756054540673727,-0.009772786870598793,2.9580392837524414,-1.4181995391845703,0.00014635499974247068,2.2374517917633057,4.105613394374512,-0.0,0.2834717631340027,-1.472614590321676,-0.0001167289083241485,-0.0271622184664011,0.9949357509613037,-0.00016697905084583908,-0.11807096004486084,1.2349350452423096,0.007734367158263922,0.02166834846138954
115.0,169.0,5.9402,-2.0297,7.3202,-0.037,-0.0768,-0.1286,-1.7561303577818812,-0.009925122372806072,2.930263042449951,-1.4181872606277466,0.00011764939699787647,2.169072389602661,4.105629130000732,-0.0,0.27932611107826233,-1.4725902716266077,-0.00011058199743274599,-0.04847294092178345,0.9948952198028564,-0.00014083803398534656,-0.11356130242347717,1.2349913120269775,0.008827947080135345,0.040914542973041534
115.0,169.0,5.9402,-2.0297,7.3202,-0.037,-0.0768,-0.1286,-1.756202837029928,-0.008053668774664402,2.9618935585021973,-1.4181355237960815,0.00013923487858846784,2.1690547466278076,4.105653448695801,-0.0,0.278762549161911,-1.472586456929342,-0.00010332723468309268,-0.06008375436067581,0.9948953986167908,-0.00011651952081592754,-0.10787110030651093,1.2350465059280396,0.00999608263373375,0.06189436465501785
115.0,169.0,5.9402,-2.0297,7.3202,-0.037,-0.0768,-0.1286,-1.7562185726561488,-0.005674723535776138,2.97244930267334,-1.4182320833206177,0.00015978467126842588,2.1759448051452637,4.105653448695801,-0.0,0.27573227882385254,-1.4725945631610315,-9.848149056779221e-05,-0.03296544402837753,0.9949238896369934,-0.00010316097905160859,-0.11067861318588257,1.2351231575012207,0.009785665199160576,0.029016610234975815
115.0,169.0,5.9402,-2.0297,7.3202,-0.037,-0.0768,-0.1286,-1.7562505207457484,-0.003196227364242077,2.9719104766845703,-1.4181995391845703,0.00011579998681554571,2.144829034805298,4.1056458193012695,-0.0,0.27939572930336,-1.4725707213031214,-9.407001925865188e-05,-0.041852742433547974,0.9948834776878357,-9.255083568859845e-05,-0.10135869681835175,1.2351830005645752,0.009474515914916992,0.01853025332093239
115.0,169.0,5.9402,-2.0297,7.3202,-0.037,-0.0768,-0.1286,-1.7562867603697718,-0.0014377422630786896,3.000863790512085,-1.4181314706802368,0.00014379042841028422,2.191628932952881,4.105661078090332,-0.0,0.283792644739151,-1.4726069609271448,-9.003675950225443e-05,-0.03593411669135094,0.994951069355011,-8.392007293878123e-05,-0.09142589569091797,1.2352670431137085,0.007973888888955116,-0.025269361212849617
115.0,169.0,5.9402,-2.0297,7.3202,-0.037,-0.0768,-0.1286,-1.7562343082823695,-0.0008795827743597329,2.9220781326293945,-1.418155312538147,0.0001244876184500754,2.1858201026916504,4.105637236232422,-0.0,0.2820749878883362,-1.4725826422320765,-8.633521065348759e-05,-0.03738890588283539,0.9949236512184143,-7.676172390347347e-05,-0.0863482728600502,1.235226035118103,0.0070481253787875175,0.03195944428443909
115.0,169.0,5.9402,-2.0297,7.3202,-0.037,-0.0768,-0.1286,-1.7562467060484828,-0.0006891050143167377,2.919292449951172,-1.4181190729141235,0.00010935993486782536,2.16542911529541,4.105617209071777,-0.0,0.28506413102149963,-1.4725945631610315,-8.292595884995535e-05,-0.03466840460896492,0.9950106143951416,-7.0728718128521e-05,-0.09858192503452301,1.2353146076202393,0.00696569262072444,-0.01703103631734848
115.0,169.0,5.9402,-2.0297,7.3202,-0.037,-0.0768,-0.1286,-1.7562185726561488,-0.0005477810045704246,2.976954936981201,-1.418163537979126,9.411206701770425e-05,2.17390775680542,4.105672999019287,-0.0,0.2825894355773926,-1.4725945631610315,-7.87782046245411e-05,-0.050658535212278366,0.9949588179588318,-6.402013968909159e-05,-0.1017056256532669,1.2353222370147705,0.006563115399330854,-0.047521136701107025
115.0,169.0,5.9402,-2.0297,7.3202,-0.037,-0.0768,-0.1286,-1.756242414514059,-0.00033381854882463813,2.9834375381469727,-1.4181759357452393,0.00011346799146849662,2.2402946949005127,4.105657263393066,-0.0,0.2814874053001404,-1.4725821653949183,-7.59298782213591e-05,-0.025795821100473404,0.9949153065681458,-5.9768437495222315e-05,-0.11117378622293472,1.2353456020355225,0.0063921199180185795,-0.004023240879178047
115.0,169.0,5.9402,-2.0297,7.3202,-0.037,-0.0768,-0.1286,-1.7562867603697718,-0.000262473156908527,2.957674503326416,-1.41814386844635,0.00010377810394857079,2.1761443614959717,4.105633421535156,-0.0,0.2784448564052582,-1.4725702444659632,-7.328025094466284e-05,-0.0322214812040329,0.9948952794075012,-5.604627222055569e-05,-0.09936065971851349,1.2354058027267456,0.006119876634329557,0.0036273933947086334
110.0,167.0,4.9902,-1.8371,7.6313,-0.0235,0.0377,-0.1141,-1.7562629185118617,-0.0002233810373581946,2.9446282386779785,-1.4182243347167969,0.00011843642278108746,2.1773481369018555,4.1056529718586425,-0.0,0.2868190109729767,-1.4725702444659632,-7.080939394654706e-05,-0.027819067239761353,0.9948915243148804,-5.276064985082485e-05,-0.09806105494499207,1.235450029373169,0.005320822354406118,-0.00799423549324274
110.0,167.0,4.9902,-1.8371,7.6313,-0.0235,0.0377,-0.1141,-1.7562629185118617,-0.00015608516696374863,2.9246785640716553,-1.4181561470031738,0.00011059399548685178,2.2011022567749023,4.105657263393066,-0.0,0.27681824564933777,-1.472586456929342,-1.1617917152761947e-06,-0.04153391718864441,0.9949395656585693,-4.983887993148528e-05,-0.09767061471939087,1.235510230064392,0.004833905957639217,0.031726788729429245
110.0,167.0,4.9902,-1.8371,7.6313,-0.0235,0.0377,-0.1141,-1.7562304935851039,-0.0001376915752189234,2.990062713623047,-1.4181561470031738,0.0001029999039019458,2.1482973098754883,4.105653448695801,-0.0,0.2733834683895111,-1.4726064840899866,-3.2338903777073824e-10,-0.036426715552806854,0.9949628710746765,-4.722376252175309e-05,-0.08327347785234451,1.2355018854141235,0.004768234211951494,0.04526948183774948
