ramyac6/ROB537/final_project/csv/all/good_135.csv
tof_0,tof_1,accelx,accely,accelz,gyrox,gyroy,gyroz,shoulder_lift_joint_position,shoulder_lift_joint_velocity,shoulder_lift_joint_effort,elbow_joint_position,elbow_joint_velocity,elbow_joint_effort,wrist_1_joint_position,wrist_1_joint_velocity,wrist_1_joint_effort,wrist_2_joint_position,wrist_2_joint_velocity,wrist_2_joint_effort,wrist_3_joint_position,wrist_3_joint_velocity,wrist_3_joint_effort,shoulder_pan_joint_position,shoulder_pan_joint_velocity,shoulder_pan_joint_effort
760.0,970.0,1.8742,0.3864,9.2931,-0.0403,0.0243,-0.1191,-1.7134949169554652,0.0,2.684697151184082,-1.8386542797088623,-0.0,2.0322306156158447,4.835487435549059,-0.0,0.28781750798225403,-1.583130184804098,0.0,-0.005914079956710339,0.6570667624473572,0.0,-0.0017232943791896105,0.782569944858551,0.0,0.04909806326031685
760.0,970.0,1.8742,0.3864,9.2931,-0.0403,0.0243,-0.1191,-1.7134911022581996,0.0,2.6375021934509277,-1.8386255502700806,-0.0,2.0244414806365967,4.835503439396181,-0.0,0.283747136592865,-1.5831463972674769,0.0,-0.009161802008748055,0.6570462584495544,0.0,-0.011573455296456814,0.7825214862823486,0.0,-0.010722428560256958
760.0,970.0,1.8742,0.3864,9.2931,-0.0403,0.0243,-0.1191,-1.7134987316527308,0.0,2.6573543548583984,-1.8386863470077515,-0.0,2.0238115787506104,4.835503841727533,-0.0,0.29063013195991516,-1.5831063429461878,0.0,-0.006396015174686909,0.6570504307746887,0.0,-0.0023451182059943676,0.7825335264205933,0.0,0.008430608548223972
760.0,970.0,1.8742,0.3864,9.2931,-0.0403,0.0243,-0.1191,-1.7135025463499964,0.0,2.6439273357391357,-1.8386821746826172,-0.0,2.0607807636260986,4.835523593216696,-0.0,0.29250550270080566,-1.583158318196432,0.0,0.01071071345359087,0.6570224761962891,0.0,0.003204297972843051,0.7825496196746826,0.0,-0.024370327591896057
760.0,970.0,1.8742,0.3864,9.2931,-0.0403,0.0243,-0.1191,-1.713522573510641,0.0,2.6346659660339355,-1.8386378288269043,-0.0,1.9494080543518066,4.835507984250345,-0.0,0.29306742548942566,-1.583130184804098,0.0,-0.022018160670995712,0.6570307612419128,0.0,0.01168870460242033,0.7825255393981934,0.0,-0.00873836874961853
760.0,970.0,1.8742,0.3864,9.2931,-0.0403,0.0243,-0.1191,-1.7135306797423304,0.0,2.64839506149292,-1.8386945724487305,-0.0,2.0653648376464844,4.835552143841543,-0.0,0.2802879214286804,-1.5831096808062952,0.0,-0.014458022080361843,0.6570504307746887,0.0,-0.012234018184244633,0.7825496792793274,0.0,0.008274826221168041
770.0,974.0,1.9077,0.3643,9.3153,-0.0357,0.0254,-0.1203,-1.713550706902975,0.0,2.6544480323791504,-1.8386623859405518,-0.0,2.0451738834381104,4.835556301265516,-0.0,0.2962682247161865,-1.5831053892718714,0.0,-0.014983685687184334,0.6569260358810425,0.0,-0.0074143679812550545,0.7825376391410828,0.0,-0.0175960473716259
770.0,974.0,1.9077,0.3643,9.3153,-0.0357,0.0254,-0.1203,-1.7135101757445277,0.0,2.671419620513916,-1.8386296033859253,-0.0,1.9944372177124023,4.83547559657649,-0.0,0.30392342805862427,-1.5831382910357874,0.0,0.0043438635766506195,0.6569945812225342,0.0,-0.0019482190255075693,0.7825982570648193,0.0,0.016377616673707962
770.0,974.0,1.9077,0.3643,9.3153,-0.0357,0.0254,-0.1203,-1.71348299602651,0.0,2.6453969478607178,-1.8386616706848145,-0.0,2.1021838188171387,4.835495675891199,-0.0,0.3018660843372345,-1.5831177870379847,0.0,-0.002702075522392988,0.6570388674736023,0.0,0.0027842314448207617,0.7825335264205933,0.0,0.0471702441573143
770.0,974.0,1.9077,0.3643,9.3153,-0.0357,0.0254,-0.1203,-1.7134787044920863,0.0,2.7212021350860596,-1.8386378288269043,-0.0,2.0324387550354004,4.835539909988203,-0.0,0.30447259545326233,-1.583130184804098,0.0,-0.00694641936570406,0.6569782495498657,0.0,0.007012386806309223,0.7825050950050354,0.0,-0.008349291048943996
770.0,974.0,1.9077,0.3643,9.3153,-0.0357,0.0254,-0.1203,-1.713506361047262,0.0,2.682142734527588,-1.838618278503418,-0.0,2.0295701026916504,4.835531744151869,-0.0,0.2944867014884949,-1.5830982367144983,0.0,-0.004901386331766844,0.6570142507553101,0.0,0.004333228338509798,0.7825253009796143,0.0,-0.005483660846948624
770.0,974.0,1.9077,0.3643,9.3153,-0.0357,0.0254,-0.1203,-1.7134744129576625,0.0,2.612156867980957,-1.8386173248291016,-0.0,2.0331318378448486,4.835515747755327,-0.0,0.29360076785087585,-1.5831177870379847,0.0,-0.0019273057114332914,0.6570102572441101,0.0,-0.008335636928677559,0.782497227191925,0.0,-0.0283596683293581
770.0,974.0,1.9077,0.3643,9.3153,-0.0357,0.0254,-0.1203,-1.713494440118307,0.0,2.6467578411102295,-1.8386337757110596,-0.0,2.0404162406921387,4.835499751358785,-0.0,0.3010147213935852,-1.5831258932696741,0.0,-0.00794227048754692,0.6569945812225342,0.0,0.0014333768049255013,0.7825496792793274,0.0,0.03698236495256424
770.0,974.0,1.9077,0.3643,9.3153,-0.0357,0.0254,-0.1203,-1.7135025463499964,0.0,2.6784121990203857,-1.8387184143066406,-0.0,2.05179500579834,4.835539909988203,-0.0,0.2851729393005371,-1.5831621328936976,0.0,-0.016175705939531326,0.6570184230804443,0.0,-0.013137693516910076,0.7825458645820618,0.0,0.012929316610097885
770.0,974.0,1.9077,0.3643,9.3153,-0.0357,0.0254,-0.1203,-1.7134949169554652,0.0,2.613828182220459,-1.8386658430099487,-0.0,2.0490667819976807,4.835507596820154,-0.0,0.28569820523262024,-1.5831502119647425,0.0,-0.000990682514384389,0.6570224761962891,0.0,0.006483232602477074,0.7825658321380615,0.0,-0.022683750838041306
770.0,974.0,1.9077,0.3643,9.3153,-0.0357,0.0254,-0.1203,-1.7135468922057093,0.0,2.665409564971924,-1.8386698961257935,-0.0,2.045424461364746,4.835527668684282,-0.0,0.2871636748313904,-1.583142105733053,0.0,-0.01068192720413208,0.6570142507553101,0.0,0.00809747725725174,0.7825335264205933,0.0,-0.04204575717449188
770.0,974.0,1.9077,0.3643,9.3153,-0.0357,0.0254,-0.1203,-1.7134982548155726,0.0,2.6809616088867188,-1.8386781215667725,-0.0,2.0610220432281494,4.835515747755327,-0.0,0.28709840774536133,-1.5831015745746058,0.0,-0.0031466917134821415,0.6570382714271545,0.0,-0.005728955380618572,0.7825900912284851,0.0,-0.03264525532722473
776.0,978.0,1.879,0.39,9.2273,-0.0252,0.0238,-0.1243,-1.7135268650450648,0.0,2.6192338466644287,-1.8386616706848145,-0.0,2.0484025478363037,4.83549157062129,-0.0,0.28789350390434265,-1.5831745306598108,0.0,-0.005584185477346182,0.6570622324943542,0.0,0.005737990606576204,0.7824772596359253,0.0,0.027626797556877136
776.0,978.0,1.879,0.39,9.2273,-0.0252,0.0238,-0.1243,-1.7134386501707972,0.0,2.651383399963379,-1.8386019468307495,-0.0,2.0316529273986816,4.835507596820154,-0.0,0.2943565547466278,-1.5831134955035608,0.0,-0.008619910106062889,0.6570305824279785,0.0,-0.012289739213883877,0.7825741171836853,0.0,-0.001818596851080656
776.0,978.0,1.879,0.39,9.2273,-0.0252,0.0238,-0.1243,-1.7135101757445277,0.0,2.655167579650879,-1.8386058807373047,-0.0,2.021373748779297,4.83546748289422,-0.0,0.2935783863067627,-1.5830896536456507,0.0,0.0005550687201321125,0.6569659113883972,0.0,-0.016109518706798553,0.7825741171836853,0.0,0.01124325767159462
776.0,978.0,1.879,0.39,9.2273,-0.0252,0.0238,-0.1243,-1.7135020695128382,0.0,2.666170835494995,-1.8386863470077515,-0.0,2.0708234310150146,4.8355521885450266,-0.0,0.2934644818305969,-1.583142105733053,0.0,-0.013234722428023815,0.6570705771446228,0.0,-0.005989008117467165,0.7825376391410828,0.0,0.03152119368314743
776.0,978.0,1.879,0.39,9.2273,-0.0252,0.0238,-0.1243,-1.713454385797018,0.0,2.631916046142578,-1.8386698961257935,-0.0,1.9894245862960815,4.835499751358785,-0.0,0.29690349102020264,-1.583182160054342,0.0,-0.005273583345115185,0.6570544838905334,0.0,0.007366898935288191,0.7825255990028381,0.0,0.059813469648361206
776.0,978.0,1.879,0.39,9.2273,-0.0252,0.0238,-0.1243,-1.7134863338866175,0.0,2.6430423259735107,-1.8386822938919067,-0.0,1.9827680587768555,4.83547558912591,-0.0,0.3004318177700043,-1.5831783453570765,0.0,-0.018440019339323044,0.6570388078689575,0.0,0.005193762015551329,0.7825496792793274,0.0,0.01046781986951828
776.0,978.0,1.879,0.39,9.2273,-0.0252,0.0238,-0.1243,-1.7135025463499964,0.0,2.62845516204834,-1.8386542797088623,-0.0,2.060770034790039,4.835503439396181,-0.0,0.28161922097206116,-1.5831134955035608,0.0,-0.010615641251206398,0.6569942235946655,0.0,0.00936632975935936,0.7825740575790405,0.0,-0.03223596140742302
776.0,978.0,1.879,0.39,9.2273,-0.0252,0.0238,-0.1243,-1.7135268650450648,0.0,2.6423773765563965,-1.8386255502700806,-0.0,2.0352988243103027,4.835519391089239,-0.0,0.29350176453590393,-1.5831502119647425,0.0,-0.013877812772989273,0.6570422649383545,0.0,-0.004547227174043655,0.7824851274490356,0.0,-0.011293712072074413
776.0,978.0,1.879,0.39,9.2273,-0.0252,0.0238,-0.1243,-1.7135025463499964,0.0,2.6569390296936035,-1.838678002357483,-0.0,2.0561742782592773,4.835539909988203,-0.0,0.3000972270965576,-1.5831378141986292,0.0,-0.006068411748856306,0.6569982767105103,0.0,-0.004423589911311865,0.7825658321380615,0.0,0.034959059208631516
776.0,978.0,1.879,0.39,9.2273,-0.0252,0.0238,-0.1243,-1.7135306797423304,0.0,2.6581153869628906,-1.8386576175689697,-0.0,2.0260422229766846,4.835515703051843,-0.0,0.28777599334716797,-1.5831177870379847,0.0,-0.00865015760064125,0.6570462584495544,0.0,0.004062013700604439,0.7825376391410828,0.0,-0.04790085554122925
776.0,978.0,1.879,0.39,9.2273,-0.0252,0.0238,-0.1243,-1.7134868107237757,0.0,2.636448383331299,-1.8386337757110596,-0.0,1.9973111152648926,4.835507574468412,-0.0,0.2960302233695984,-1.583085838948385,0.0,-0.01277296245098114,0.6570340991020203,0.0,-0.011699877679347992,0.7825496792793274,0.0,-0.02128647454082966
754.0,984.0,1.8467,0.4211,9.207,-0.033,0.0224,-0.1211,-1.7134787044920863,0.0,2.6519367694854736,-1.8386337757110596,-0.0,2.042872428894043,4.835564452200689,-0.0,0.2907870411872864,-1.5831344763385218,0.0,-0.008500242605805397,0.6570142507553101,0.0,-0.01977725513279438,0.7825214266777039,0.0,0.03758779540657997
754.0,984.0,1.8467,0.4211,9.207,-0.033,0.0224,-0.1211,-1.713534494439596,0.0,2.6446285247802734,-1.8386576175689697,-0.0,2.0444319248199463,4.835515755205908,-0.0,0.2852810323238373,-1.5831344763385218,0.0,-0.016919158399105072,0.6570224761962891,0.0,0.004129910841584206,0.7824810147285461,0.0,-0.03290187194943428
754.0,984.0,1.8467,0.4211,9.207,-0.033,0.0224,-0.1211,-1.7135387859740199,0.0,2.602945327758789,-1.8386460542678833,-0.0,2.0906338691711426,4.835471536010065,-0.0,0.30054938793182373,-1.5831258932696741,0.0,-0.020853376016020775,0.6570422649383545,0.0,-0.0072921644896268845,0.7825496792793274,0.0,0.050506360828876495
754.0,984.0,1.8467,0.4211,9.207,-0.033,0.0224,-0.1211,-1.7134868107237757,0.0,2.6077346801757812,-1.8386263847351074,-0.0,2.0811514854431152,4.835507589369573,-0.0,0.2836095690727234,-1.5831344763385218,0.0,-0.00010742549784481525,0.6570504307746887,0.0,0.007210516836494207,0.7825537919998169,0.0,-0.017105381935834885
754.0,984.0,1.8467,0.4211,9.207,-0.033,0.0224,-0.1211,-1.7135187588133753,0.0,2.644681930541992,-1.8386502265930176,-0.0,2.0504589080810547,4.835499751358785,-0.0,0.2879534363746643,-1.583130184804098,0.0,-0.012932767160236835,0.6570664048194885,0.0,0.006991468369960785,0.782569944858551,0.0,-0.01615084707736969
754.0,984.0,1.8467,0.4211,9.207,-0.033,0.0224,-0.1211,-1.713522573510641,0.0,2.682168483734131,-1.8386698961257935,-0.0,2.024214029312134,4.835527668684282,-0.0,0.2895473837852478,-1.583130184804098,0.0,-0.014852152206003666,0.6570627689361572,0.0,0.00840025581419468,0.7825900912284851,0.0,0.0035145096480846405
754.0,984.0,1.8467,0.4211,9.207,-0.033,0.0224,-0.1211,-1.7135306797423304,0.0,2.647350311279297,-1.8386223316192627,-0.0,2.052496910095215,4.835475693434038,-0.0,0.2896287739276886,-1.5831134955035608,0.0,-0.002274408470839262,0.6570504307746887,0.0,-0.01033264771103859,0.7825782299041748,0.0,-0.03766951709985733
754.0,984.0,1.8467,0.4211,9.207,-0.033,0.0224,-0.1211,-1.7134505710997523,0.0,2.631517171859741,-1.8386058807373047,-0.0,2.0478904247283936,4.835487815528669,-0.0,0.2894802391529083,-1.5830939451800745,0.0,-0.011285039596259594,0.6570102572441101,0.0,0.005814217031002045,0.7825095057487488,0.0,-0.0021884371526539326
754.0,984.0,1.8467,0.4211,9.207,-0.033,0.0224,-0.1211,-1.7134911022581996,0.0,2.6333353519439697,-1.8386223316192627,-0.0,2.0383121967315674,4.835531684547224,-0.0,0.291431188583374,-1.5830815474139612,0.0,-0.0160964485257864,0.6570225358009338,0.0,0.0009875961113721132,0.78257817029953,0.0,0.013509615324437618
754.0,984.0,1.8467,0.4211,9.207,-0.033,0.0224,-0.1211,-1.7135101757445277,0.0,2.614323854446411,-1.8386502265930176,-0.0,2.0444424152374268,4.8355276984866045,-0.0,0.294906347990036,-1.5831053892718714,0.0,-0.007460311055183411,0.6569861173629761,0.0,-0.0031878731679171324,0.7825818061828613,0.0,-0.006740619894117117
754.0,984.0,1.8467,0.4211,9.207,-0.033,0.0224,-0.1211,-1.7134624920287074,0.0,2.6502199172973633,-1.838610053062439,-0.0,2.0480165481567383,4.835555884033003,-0.0,0.2937896251678467,-1.5831425825702112,0.0,-0.013995252549648285,0.6570388078689575,0.0,0.000958629185333848,0.7825658321380615,0.0,-0.025446437299251556
760.0,968.0,1.8401,0.3882,9.2237,-0.0339,0.0269,-0.1159,-1.713534494439596,0.0,2.6713242530822754,-1.8386296033859253,-0.0,2.0743556022644043,4.83546735623435,-0.0,0.2865598797798157,-1.583130184804098,0.0,-0.004310650750994682,0.6570422649383545,0.0,0.004061359446495771,0.7825620174407959,0.0,-0.02484789490699768
760.0,968.0,1.8401,0.3882,9.2237,-0.0339,0.0269,-0.1159,-1.7135387859740199,0.0,2.6490230560302734,-1.838618278503418,-0.0,2.080005407333374,4.835531773954191,-0.0,0.29111120104789734,-1.5830982367144983,0.0,-0.004283871967345476,0.657010555267334,0.0,-0.002445467049255967,0.7825658321380615,0.0,-0.003445906564593315
760.0,968.0,1.8401,0.3882,9.2237,-0.0339,0.0269,-0.1159,-1.7134548626341761,0.0,2.6779470443725586,-1.8386337757110596,-0.0,2.0585176944732666,4.835551696806707,-0.0,0.29441481828689575,-1.5831258932696741,0.0,0.0012259155046194792,0.6570188403129578,0.0,-0.004685224965214729,0.7825702428817749,0.0,-0.025126881897449493
760.0,968.0,1.8401,0.3882,9.2237,-0.0339,0.0269,-0.1159,-1.7134868107237757,0.0,2.61037540435791,-1.838618278503418,-0.0,2.005028486251831,4.835475626378813,-0.0,0.28495118021965027,-1.5830901304828089,0.0,-0.017524084076285362,0.656978189945221,0.0,-0.009621494449675083,0.7825942635536194,0.0,0.009556579403579235
760.0,968.0,1.8401,0.3882,9.2237,-0.0339,0.0269,-0.1159,-1.71348299602651,0.0,2.682501792907715,-1.8386576175689697,-0.0,2.0514557361602783,4.835475693434038,-0.0,0.28968876600265503,-1.5831378141986292,0.0,-0.00852883979678154,0.657042920589447,0.0,0.0023552970960736275,0.7825376391410828,0.0,-0.013007811270654202
760.0,968.0,1.8401,0.3882,9.2237,-0.0339,0.0269,-0.1159,-1.7134705982603968,0.0,2.6369733810424805,-1.8386304378509521,-0.0,2.0387654304504395,4.83552764633254,-0.0,0.29654568433761597,-1.5831220785724085,0.0,0.0024923081509768963,0.6570101976394653,0.0,0.0026761966291815042,0.7825900912284851,0.0,0.03559635579586029
760.0,968.0,1.8401,0.3882,9.2237,-0.0339,0.0269,-0.1159,-1.71348299602651,0.0,2.675748348236084,-1.8386460542678833,-0.0,2.029071569442749,4.835487502604284,-0.0,0.2960163950920105,-1.5831463972674769,0.0,-0.009741934947669506,0.6569942831993103,0.0,-0.006027230992913246,0.7825255990028381,0.0,0.0005555888637900352
760.0,968.0,1.8401,0.3882,9.2237,-0.0339,0.0269,-0.1159,-1.713466306725973,0.0,2.6648473739624023,-1.8386378288269043,-0.0,2.072442054748535,4.835507589369573,-0.0,0.2791779637336731,-1.583170239125387,0.0,-0.005846879910677671,0.6570265889167786,0.0,0.0013343148166313767,0.7825417518615723,0.0,0.017769943922758102
760.0,968.0,1.8401,0.3882,9.2237,-0.0339,0.0269,-0.1159,-1.7135101757445277,0.0,2.6494197845458984,-1.8386822938919067,-0.0,2.0105199813842773,4.835527691036024,-0.0,0.2994391620159149,-1.5831220785724085,0.0,-0.00924176350235939,0.6570340991020203,0.0,-0.01265693549066782,0.7825496792793274,0.0,0.002153005450963974
760.0,968.0,1.8401,0.3882,9.2237,-0.0339,0.0269,-0.1159,-1.7134863338866175,0.0,2.6805472373962402,-1.838626503944397,-0.0,2.0055525302886963,4.835463452130117,-0.0,0.3024680018424988,-1.5831096808062952,0.0,0.0015832887729629874,0.657034695148468,0.0,-0.010591749101877213,0.7825658321380615,0.0,0.00772510189563036
760.0,968.0,1.8401,0.3882,9.2237,-0.0339,0.0269,-0.1159,-1.7134467564024867,0.0,2.634019136428833,-1.8386337757110596,-0.0,2.047736167907715,4.83548745045022,-0.0,0.2878224849700928,-1.5831258932696741,0.0,-0.01670507900416851,0.6570462584495544,0.0,-0.021187949925661087,0.7825337648391724,0.0,-0.016399528831243515
742.0,959.0,1.815,0.3996,9.2824,-0.0293,0.0252,-0.1158,-1.7135101757445277,0.0,2.653088092803955,-1.8386542797088623,-0.0,2.053130865097046,4.83551166483716,-0.0,0.29656651616096497,-1.5831177870379847,0.0,-0.00474880076944828,0.6570305824279785,0.0,0.003195134922862053,0.7825214266777039,0.0,0.010416567325592041
742.0,959.0,1.815,0.3996,9.2824,-0.0293,0.0252,-0.1158,-1.7135025463499964,0.0,2.644681930541992,-1.8386141061782837,-0.0,2.057737350463867,4.83551166483716,-0.0,0.28090357780456543,-1.5831745306598108,0.0,-0.013547300361096859,0.6570422649383545,0.0,-0.005715588107705116,0.7825376391410828,0.0,-0.012420293875038624
742.0,959.0,1.815,0.3996,9.2824,-0.0293,0.0252,-0.1158,-1.7135187588133753,0.0,2.626359701156616,-1.8386296033859253,-0.0,2.01416277885437,4.8355038342769525,-0.0,0.3076978325843811,-1.5831053892718714,0.0,-0.008085074834525585,0.6570504307746887,0.0,-0.015822697430849075,0.7825620174407959,0.0,0.00820134673267603
742.0,959.0,1.815,0.3996,9.2824,-0.0293,0.0252,-0.1158,-1.7134744129576625,0.0,2.63362979888916,-1.8386658430099487,-0.0,2.07843279838562,4.835459391563692,-0.0,0.28084415197372437,-1.5831425825702112,0.0,-0.010614335536956787,0.657010555267334,0.0,-0.007695911452174187,0.7825294137001038,0.0,0.01323579903692007
742.0,959.0,1.815,0.3996,9.2824,-0.0293,0.0252,-0.1158,-1.7134911022581996,0.0,2.659297466278076,-1.8386502265930176,-0.0,2.0511703491210938,4.83551977851943,-0.0,0.29261666536331177,-1.5831134955035608,0.0,-0.00014108279719948769,0.656974196434021,0.0,-0.009726081974804401,0.7825297117233276,0.0,0.015318640507757664
742.0,959.0,1.815,0.3996,9.2824,-0.0293,0.0252,-0.1158,-1.7134705982603968,0.0,2.5985782146453857,-1.8386337757110596,-0.0,2.050321578979492,4.835507596820154,-0.0,0.29402661323547363,-1.583142105733053,0.0,-0.024704348295927048,0.656961977481842,0.0,0.009518749080598354,0.7825376391410828,0.0,3.3034935768228024e-05
742.0,959.0,1.815,0.3996,9.2824,-0.0293,0.0252,-0.1158,-1.7134987316527308,0.0,2.650735855102539,-1.8386337757110596,-0.0,2.0296378135681152,4.835527676134863,-0.0,0.28377947211265564,-1.5831134955035608,0.0,-0.0009025739273056388,0.6570102572441101,0.0,0.0021627715323120356,0.7825540900230408,0.0,0.011795547790825367
742.0,959.0,1.815,0.3996,9.2824,-0.0293,0.0252,-0.1158,-1.713466306725973,0.0,2.6517810821533203,-1.8386296033859253,-0.0,2.0805108547210693,4.8354956833417795,-0.0,0.2896745204925537,-1.5831134955035608,0.0,-0.005605633370578289,0.6570266485214233,0.0,-0.003080780617892742,0.7825859189033508,0.0,-0.028517592698335648
742.0,959.0,1.815,0.3996,9.2824,-0.0293,0.0252,-0.1158,-1.7135030231871546,0.0,2.6240620613098145,-1.8386214971542358,-0.0,2.03912615776062,4.835515382676878,-0.0,0.2981310486793518,-1.5831502119647425,0.0,-0.003438394982367754,0.6570864915847778,0.0,-0.009833557531237602,0.7825376391410828,0.0,0.01323104277253151
742.0,959.0,1.815,0.3996,9.2824,-0.0293,0.0252,-0.1158,-1.7135545216002406,0.0,2.6839094161987305,-1.8386379480361938,-0.0,1.987121820449829,4.835499758809366,-0.0,0.29824137687683105,-1.5831545034991663,0.0,-0.010279322043061256,0.6570788621902466,0.0,-0.0039503672160208225,0.782505452632904,0.0,0.008050665259361267
742.0,959.0,1.815,0.3996,9.2824,-0.0293,0.0252,-0.1158,-1.7134911022581996,0.0,2.644423484802246,-1.838610053062439,-0.0,2.0330121517181396,4.835515717953005,-0.0,0.298448771238327,-1.5831378141986292,0.0,-0.022521115839481354,0.6570224761962891,0.0,0.0010064707603305578,0.7825496792793274,0.0,0.03978483006358147
742.0,959.0,1.815,0.3996,9.2824,-0.0293,0.0252,-0.1158,-1.7134586773314417,0.0,2.6814329624176025,-1.8386502265930176,-0.0,1.9699138402938843,4.835519458144464,-0.0,0.2913459241390228,-1.5830815474139612,0.0,0.004764722194522619,0.6570545434951782,0.0,0.007783076725900173,0.782569944858551,0.0,0.014370548538863659
763.0,960.0,1.7934,0.3685,9.274,-0.0342,0.0189,-0.1176,-1.7135464153685511,0.0,2.6492841243743896,-1.8386378288269043,-0.0,2.0788042545318604,4.835543925851145,-0.0,0.285885214805603,-1.5831177870379847,0.0,-0.019863814115524292,0.6569864153862,0.0,-0.002468658611178398,0.7825417518615723,0.0,-0.0015945127233862877
763.0,960.0,1.7934,0.3685,9.274,-0.0342,0.0189,-0.1176,-1.7135101757445277,0.0,2.672203779220581,-1.8387142419815063,-0.0,2.0596165657043457,4.835551704257288,-0.0,0.29147881269454956,-1.5831621328936976,0.0,-0.024883968755602837,0.6569860577583313,0.0,-0.012093747965991497,0.7825499773025513,0.0,-0.053729940205812454
763.0,960.0,1.7934,0.3685,9.274,-0.0342,0.0189,-0.1176,-1.713534494439596,0.0,2.6399128437042236,-1.8386460542678833,-0.0,2.067124843597412,4.835523593216696,-0.0,0.2946806252002716,-1.5831177870379847,0.0,-0.017625344917178154,0.6570788621902466,0.0,-0.004733167123049498,0.7825458645820618,0.0,0.007884190417826176
763.0,960.0,1.7934,0.3685,9.274,-0.0342,0.0189,-0.1176,-1.7135268650450648,0.0,2.620361328125,-1.8386214971542358,-0.0,2.03570556640625,4.835515747755327,-0.0,0.28755295276641846,-1.5831220785724085,0.0,-0.013324670493602753,0.6570504307746887,0.0,-0.014154837466776371,0.782569944858551,0.0,-0.044741421937942505
763.0,960.0,1.7934,0.3685,9.274,-0.0342,0.0189,-0.1176,-1.713522573510641,0.0,2.6325900554656982,-1.8386542797088623,-0.0,2.072815418243408,4.835507604270735,-0.0,0.2791064977645874,-1.5831502119647425,0.0,-0.014132877811789513,0.6570504307746887,0.0,-0.016682906076312065,0.7825822830200195,0.0,-0.0028335321694612503
763.0,960.0,1.7934,0.3685,9.274,-0.0342,0.0189,-0.1176,-1.713506361047262,0.0,2.6263930797576904,-1.8386017084121704,-0.0,2.0158300399780273,4.835543910949983,-0.0,0.2794099748134613,-1.5831177870379847,0.0,-0.008474517613649368,0.6570462584495544,0.0,-0.013901043683290482,0.7825900912284851,0.0,0.005348114296793938
763.0,960.0,1.7934,0.3685,9.274,-0.0342,0.0189,-0.1176,-1.7135268650450648,0.0,2.604626178741455,-1.8386420011520386,-0.0,2.0303590297698975,4.8355034840996645,-0.0,0.3005456328392029,-1.5830696264850062,0.0,-0.006337812636047602,0.6570184230804443,0.0,-0.010936013422906399,0.7825700044631958,0.0,-0.009077690541744232
763.0,960.0,1.7934,0.3685,9.274,-0.0342,0.0189,-0.1176,-1.7134911022581996,0.0,2.658949375152588,-1.8386378288269043,-0.0,2.03374981880188,4.835555861681261,-0.0,0.2882375717163086,-1.583142105733053,0.0,-0.0031256272923201323,0.6570184230804443,0.0,-0.012200925499200821,0.7825782299041748,0.0,0.019883133471012115
763.0,960.0,1.7934,0.3685,9.274,-0.0342,0.0189,-0.1176,-1.7134949169554652,0.0,2.672211170196533,-1.8386378288269043,-0.0,2.012096405029297,4.8355034840996645,-0.0,0.3017849028110504,-1.5831621328936976,0.0,-0.005052870139479637,0.6569945812225342,0.0,0.006744622252881527,0.78257817029953,0.0,0.0035345004871487617
763.0,960.0,1.7934,0.3685,9.274,-0.0342,0.0189,-0.1176,-1.7134787044920863,0.0,2.6599507331848145,-1.838610053062439,-0.0,2.0225625038146973,4.83547970929698,-0.0,0.29758220911026,-1.5831220785724085,0.0,-0.028742782771587372,0.6570459604263306,0.0,-0.007946228608489037,0.7825782299041748,0.0,0.009078734554350376
763.0,960.0,1.7934,0.3685,9.274,-0.0342,0.0189,-0.1176,-1.7135025463499964,0.0,2.630770683288574,-1.8386666774749756,-0.0,2.1138157844543457,4.835491615324774,-0.0,0.29407158493995667,-1.5831177870379847,0.0,-0.012168736197054386,0.6570305824279785,0.0,0.00022239750251173973,0.7825658917427063,0.0,-0.03364718705415726
767.0,940.0,1.8646,0.3643,9.2172,-0.0429,0.0224,-0.1225,-1.7134744129576625,0.0,2.679783344268799,-1.8386698961257935,-0.0,2.0551156997680664,4.8354957205946825,-0.0,0.29340726137161255,-1.583130184804098,0.0,0.0016002582851797342,0.6569418907165527,0.0,0.0009449408389627934,0.7825376391410828,0.0,-0.006805038079619408
767.0,940.0,1.8646,0.3643,9.2172,-0.0429,0.0224,-0.1225,-1.713522573510641,0.0,2.6601779460906982,-1.8386739492416382,-0.0,2.028940200805664,4.835527743190088,-0.0,0.296784907579422,-1.5831258932696741,0.0,0.0011011532042175531,0.6570462584495544,0.0,0.005311666987836361,0.7825294137001038,0.0,-0.020573442801833153
767.0,940.0,1.8646,0.3643,9.2172,-0.0429,0.0224,-0.1225,-1.7135426006712855,0.0,2.6368703842163086,-1.8386740684509277,-0.0,2.091431140899658,4.8355198232229135,-0.0,0.29984861612319946,-1.5831258932696741,0.0,-0.014931230805814266,0.6570265889167786,0.0,0.0069983527064323425,0.7825782299041748,0.0,0.008595801889896393
767.0,940.0,1.8646,0.3643,9.2172,-0.0429,0.0224,-0.1225,-1.7134705982603968,0.0,2.638040542602539,-1.8386502265930176,-0.0,2.080003499984741,4.835523600667276,-0.0,0.28459256887435913,-1.5831134955035608,0.0,-0.016095077618956566,0.6570305824279785,0.0,-0.01491473987698555,0.7825900912284851,0.0,0.011336851865053177
767.0,940.0,1.8646,0.3643,9.2172,-0.0429,0.0224,-0.1225,-1.7134748897948207,0.0,2.6499404907226562,-1.8386263847351074,-0.0,2.0201337337493896,4.835535789817133,-0.0,0.29577067494392395,-1.5831177870379847,0.0,-0.006105526350438595,0.6571148633956909,0.0,-0.00022100633941590786,0.7825496792793274,0.0,-0.05358932167291641
767.0,940.0,1.8646,0.3643,9.2172,-0.0429,0.0224,-0.1225,-1.7135468922057093,0.0,2.628822088241577,-1.8386017084121704,-0.0,2.0795159339904785,4.835523570864954,-0.0,0.29144638776779175,-1.583102051411764,0.0,-0.010083042085170746,0.6569819450378418,0.0,-0.00645453343167901,0.7825658321380615,0.0,0.016627561300992966
767.0,940.0,1.8646,0.3643,9.2172,-0.0429,0.0224,-0.1225,-1.713522573510641,0.0,2.6592984199523926,-1.8386502265930176,-0.0,2.0128378868103027,4.835539902537622,-0.0,0.29630985856056213,-1.5831134955035608,0.0,-0.012124045751988888,0.6569822430610657,0.0,0.0007096278131939471,0.7825741171836853,0.0,-0.0009123394265770912
767.0,940.0,1.8646,0.3643,9.2172,-0.0429,0.0224,-0.1225,-1.713482519189352,0.0,2.668637752532959,-1.8386584520339966,-0.0,2.0106539726257324,4.835531714349546,-0.0,0.29397445917129517,-1.5831177870379847,0.0,-0.014815673232078552,0.6570225358009338,0.0,-0.00832123588770628,0.7825537919998169,0.0,0.031944990158081055
767.0,940.0,1.8646,0.3643,9.2172,-0.0429,0.0224,-0.1225,-1.7135101757445277,0.0,2.6573307514190674,-1.8386822938919067,-0.0,2.057814121246338,4.83551977851943,-0.0,0.29704609513282776,-1.583142105733053,0.0,-0.005221712402999401,0.6570388674736023,0.0,0.005961055867373943,0.7825414538383484,0.0,-0.022601280361413956
767.0,940.0,1.8646,0.3643,9.2172,-0.0429,0.0224,-0.1225,-1.713506361047262,0.0,2.6418700218200684,-1.8386904001235962,-0.0,1.993760585784912,4.83548345693902,-0.0,0.2857542037963867,-1.5831096808062952,0.0,-0.0012640986824408174,0.6569861173629761,0.0,-0.009249361231923103,0.7825376391410828,0.0,0.01220465824007988
767.0,940.0,1.8646,0.3643,9.2172,-0.0429,0.0224,-0.1225,-1.7134982548155726,0.0,2.6262354850769043,-1.838658332824707,-0.0,2.038391590118408,4.8355116722877405,-0.0,0.2974972426891327,-1.5831177870379847,0.0,-0.0023946412838995457,0.6570225358009338,0.0,0.002527890494093299,0.7825661301612854,0.0,0.010838230140507221
783.0,959.0,1.9214,0.3858,9.2668,-0.0391,0.0221,-0.1138,-1.7134949169554652,0.0,2.6632261276245117,-1.8386863470077515,-0.0,2.0566024780273438,4.835531691997804,-0.0,0.2952132225036621,-1.5831220785724085,0.0,-0.005788879003375769,0.6569782495498657,0.0,-0.00423424830660224,0.7825173139572144,0.0,-0.028285089880228043
783.0,959.0,1.9214,0.3858,9.2668,-0.0391,0.0221,-0.1138,-1.713522573510641,0.0,2.7041943073272705,-1.8386698961257935,-0.0,2.0117523670196533,4.835487472801962,-0.0,0.30287593603134155,-1.5831096808062952,0.0,-0.019951120018959045,0.6570142507553101,0.0,-0.00896758958697319,0.7825458645820618,0.0,-0.039429064840078354
783.0,959.0,1.9214,0.3858,9.2668,-0.0391,0.0221,-0.1138,-1.7135426006712855,0.0,2.6483283042907715,-1.838658332824707,-0.0,2.080575466156006,4.835543940752306,-0.0,0.2918599545955658,-1.583102051411764,0.0,0.00319294142536819,0.6570225358009338,0.0,-0.011336344294250011,0.7825053930282593,0.0,0.016668856143951416
783.0,959.0,1.9214,0.3858,9.2668,-0.0391,0.0221,-0.1138,-1.7134787044920863,0.0,2.6645143032073975,-1.8386337757110596,-0.0,2.033961296081543,4.835503439396181,-0.0,0.29643598198890686,-1.5831096808062952,0.0,-0.015740863978862762,0.6569942235946655,0.0,-0.008781621232628822,0.7825253009796143,0.0,0.02169894613325596
783.0,959.0,1.9214,0.3858,9.2668,-0.0391,0.0221,-0.1138,-1.7135349712767542,0.0,2.682199478149414,-1.8386460542678833,-0.0,2.0224170684814453,4.835535745113649,-0.0,0.2912622094154358,-1.5831463972674769,0.0,-0.007134495303034782,0.657070517539978,0.0,-0.0009759378153830767,0.7825579047203064,0.0,0.009192354045808315
783.0,959.0,1.9214,0.3858,9.2668,-0.0391,0.0221,-0.1138,-1.7135268650450648,0.0,2.674450397491455,-1.8386460542678833,-0.0,2.036773204803467,4.83551977851943,-0.0,0.29532018303871155,-1.5830982367144983,0.0,-0.007521534338593483,0.6570545434951782,0.0,-0.007284677587449551,0.7825458645820618,0.0,-0.0052759889513254166
783.0,959.0,1.9214,0.3858,9.2668,-0.0391,0.0221,-0.1138,-1.713510652581686,0.0,2.6794509887695312,-1.8386863470077515,-0.0,2.020766019821167,4.835491607874193,-0.0,0.29451048374176025,-1.5831344763385218,0.0,-0.01723266951739788,0.6570258736610413,0.0,-0.004156941082328558,0.7825335264205933,0.0,-0.010746516287326813
783.0,959.0,1.9214,0.3858,9.2668,-0.0391,0.0221,-0.1138,-1.7135101757445277,0.0,2.665741443634033,-1.8386658430099487,-0.0,2.0292587280273438,4.8355034840996645,-0.0,0.2977571487426758,-1.5831096808062952,0.0,-0.0036372283939272165,0.6570582389831543,0.0,-0.005745584610849619,0.7825782299041748,0.0,-0.0029191584326326847
783.0,959.0,1.9214,0.3858,9.2668,-0.0391,0.0221,-0.1138,-1.7134787044920863,0.0,2.664456844329834,-1.8386502265930176,-0.0,2.0507843494415283,4.835483449488439,-0.0,0.2869432866573334,-1.5831344763385218,0.0,-0.0034633788745850325,0.6570065021514893,0.0,-0.01049731858074665,0.7825658917427063,0.0,0.0430968701839447
783.0,959.0,1.9214,0.3858,9.2668,-0.0391,0.0221,-0.1138,-1.7134787044920863,0.0,2.6758477687835693,-1.8386658430099487,-0.0,1.996192216873169,4.835495377867975,-0.0,0.30141109228134155,-1.5831096808062952,0.0,-0.008306361734867096,0.6570462584495544,0.0,-0.006170842330902815,0.7825458645820618,0.0,0.0013846782967448235
783.0,959.0,1.9214,0.3858,9.2668,-0.0391,0.0221,-0.1138,-1.7134949169554652,0.0,2.602508544921875,-1.8386460542678833,-0.0,2.050325870513916,4.8355439631040475,-0.0,0.3015235364437103,-1.5831096808062952,0.0,-0.012267623096704483,0.6570664644241333,0.0,-0.005700015462934971,0.7825496196746826,0.0,-0.04022440314292908
752.0,985.0,1.8311,0.3643,9.3823,-0.0396,0.0232,-0.1272,-1.7134744129576625,0.0,2.6370692253112793,-1.8386420011520386,-0.0,2.046395778656006,4.8355480311210535,-0.0,0.29339852929115295,-1.5830982367144983,0.0,0.0026601410936564207,0.6570388078689575,0.0,-0.0043562473729252815,0.7825173139572144,0.0,-0.0005894280038774014
752.0,985.0,1.8311,0.3643,9.3823,-0.0396,0.0232,-0.1272,-1.7134787044920863,0.0,2.6503119468688965,-1.8386378288269043,-0.0,2.0515027046203613,4.835543948202886,-0.0,0.2908068001270294,-1.583130184804098,0.0,-0.0007601715624332428,0.6570224761962891,0.0,-0.010547102428972721,0.7825579047203064,0.0,-0.006105135194957256
752.0,985.0,1.8311,0.3643,9.3823,-0.0396,0.0232,-0.1272,-1.7135306797423304,0.0,2.6880123615264893,-1.8386378288269043,-0.0,2.047175407409668,4.835539939790525,-0.0,0.2925602197647095,-1.5831134955035608,0.0,-0.008667941205203533,0.6570545434951782,0.0,-0.014883087947964668,0.782569944858551,0.0,0.0009248580317944288
752.0,985.0,1.8311,0.3643,9.3823,-0.0396,0.0232,-0.1272,-1.7135144672789515,0.0,2.6173994541168213,-1.8386296033859253,-0.0,1.9913386106491089,4.8355276612337015,-0.0,0.2931908369064331,-1.583154026662008,0.0,-0.004835224244743586,0.6570463180541992,0.0,0.006266165990382433,0.7825455665588379,0.0,0.00745113380253315
752.0,985.0,1.8311,0.3643,9.3823,-0.0396,0.0232,-0.1272,-1.7135268650450648,0.0,2.6850099563598633,-1.8386822938919067,-0.0,2.0432991981506348,4.835519800871172,-0.0,0.3063117265701294,-1.5831382910357874,0.0,-0.007745613344013691,0.6570101976394653,0.0,-0.008251596242189407,0.7825983166694641,0.0,-0.003703267779201269
752.0,985.0,1.8311,0.3643,9.3823,-0.0396,0.0232,-0.1272,-1.7135464153685511,0.0,2.6377615928649902,-1.8386263847351074,-0.0,2.0464258193969727,4.8355480311210535,-0.0,0.2946670353412628,-1.5831263701068323,0.0,-0.0021234238520264626,0.6569942235946655,0.0,0.004119577817618847,0.7825417518615723,0.0,-0.013111170381307602
752.0,985.0,1.8311,0.3643,9.3823,-0.0396,0.0232,-0.1272,-1.7135149441161097,0.0,2.6325790882110596,-1.838641881942749,-0.0,2.0806519985198975,4.83548783042983,-0.0,0.2914937138557434,-1.5831339995013636,0.0,-0.0013479104964062572,0.6570305824279785,0.0,-0.0010641245171427727,0.7825818061828613,0.0,0.018848679959774017
752.0,985.0,1.8311,0.3643,9.3823,-0.0396,0.0232,-0.1272,-1.7135144672789515,0.0,2.681849479675293,-1.8386986255645752,-0.0,2.0048458576202393,4.835531721800127,-0.0,0.29739195108413696,-1.5831459204303187,0.0,-0.01442008838057518,0.6570347547531128,0.0,-0.0006018527783453465,0.7825214266777039,0.0,0.02653399296104908
752.0,985.0,1.8311,0.3643,9.3823,-0.0396,0.0232,-0.1272,-1.7135268650450648,0.0,2.651022434234619,-1.8386542797088623,-0.0,2.0202865600585938,4.835515747755327,-0.0,0.28329354524612427,-1.5831502119647425,0.0,-0.004256449639797211,0.6570143103599548,0.0,-0.014074403792619705,0.7825255990028381,0.0,0.002473724540323019
752.0,985.0,1.8311,0.3643,9.3823,-0.0396,0.0232,-0.1272,-1.7134705982603968,0.0,2.6713504791259766,-1.8386707305908203,-0.0,2.0687217712402344,4.835487472801962,-0.0,0.29642200469970703,-1.583142105733053,0.0,-0.015150608494877815,0.657010555267334,0.0,0.0014350491110235453,0.7825537919998169,0.0,0.011327137239277363
752.0,985.0,1.8311,0.3643,9.3823,-0.0396,0.0232,-0.1272,-1.7134911022581996,0.0,2.6339364051818848,-1.8386304378509521,-0.0,2.0439882278442383,4.8355439631040475,-0.0,0.285322904586792,-1.583142105733053,0.0,-0.014772565104067326,0.6569347381591797,0.0,0.004925423301756382,0.7825496792793274,0.0,0.06063864007592201
756.0,962.0,1.9651,0.4792,9.1071,-0.0249,0.024,-0.1232,-1.7135025463499964,0.0,2.6542415618896484,-1.8386058807373047,-0.0,2.069140672683716,4.835479701846399,-0.0,0.2966442108154297,-1.5831015745746058,0.0,-0.0038362033665180206,0.657058596611023,0.0,-0.003365220967680216,0.7825414538383484,0.0,-0.02235899120569229
756.0,962.0,1.9651,0.4792,9.1071,-0.0249,0.024,-0.1232,-1.713510652581686,0.0,2.590864658355713,-1.8386460542678833,-0.0,2.0156216621398926,4.8354956833417795,-0.0,0.2865466773509979,-1.5831053892718714,0.0,-0.004670681431889534,0.6570582985877991,0.0,-0.00684808474034071,0.782569944858551,0.0,-0.003877035342156887
756.0,962.0,1.9651,0.4792,9.1071,-0.0249,0.024,-0.1232,-1.713494440118307,0.0,2.6785240173339844,-1.8386739492416382,-0.0,2.0536208152770996,4.8354956833417795,-0.0,0.2956090271472931,-1.5831339995013636,0.0,0.008266495540738106,0.6570102572441101,0.0,0.002416938776150346,0.7825576066970825,0.0,0.00789529550820589
756.0,962.0,1.9651,0.4792,9.1071,-0.0249,0.024,-0.1232,-1.7135144672789515,0.0,2.6380271911621094,-1.8386223316192627,-0.0,2.0608348846435547,4.835491622775354,-0.0,0.29506155848503113,-1.583130184804098,0.0,-0.004912377335131168,0.657070517539978,0.0,-0.018380193039774895,0.7825335264205933,0.0,-0.007869168184697628
756.0,962.0,1.9651,0.4792,9.1071,-0.0249,0.024,-0.1232,-1.7134911022581996,0.0,2.6562838554382324,-1.8386296033859253,-0.0,2.0450985431671143,4.835539902537622,-0.0,0.29299911856651306,-1.5831940809832972,0.0,-0.01812838204205036,0.6570184230804443,0.0,-0.0005539726698771119,0.7826021313667297,0.0,-0.00040993886068463326
756.0,962.0,1.9651,0.4792,9.1071,-0.0249,0.024,-0.1232,-1.7134624920287074,0.0,2.6627538204193115,-1.8386139869689941,-0.0,2.0332260131835938,4.835551741510191,-0.0,0.3017307221889496,-1.583182160054342,0.0,-0.009851397015154362,0.657058596611023,0.0,-0.014731029979884624,0.7825496792793274,0.0,-0.030201489105820656
756.0,962.0,1.9651,0.4792,9.1071,-0.0249,0.024,-0.1232,-1.7134744129576625,0.0004336331912782043,2.649988889694214,-1.8386296033859253,4.207304371561804e-08,2.028350830078125,4.83555959442214,-0.0,0.29679521918296814,-1.5831177870379847,0.0,-0.007465471047908068,0.657038152217865,0.0,-0.005048292223364115,0.782569944858551,0.0,0.06459811329841614
756.0,962.0,1.9651,0.4792,9.1071,-0.0249,0.024,-0.1232,-1.7134586773314417,0.00044287933269515634,2.679185152053833,-1.838641881942749,1.363113075478282e-15,2.0730745792388916,4.835499118059435,-0.0,0.2936825454235077,-1.583154026662008,0.0,-0.0074415020644664764,0.656981885433197,0.0,-0.006614501588046551,0.7825741171836853,0.0,-0.054835908114910126
756.0,962.0,1.9651,0.4792,9.1071,-0.0249,0.024,-0.1232,-1.7134105167784632,0.0003456644481047988,2.6488146781921387,-1.8386502265930176,0.000691812951117754,2.0527801513671875,4.8355276239807985,-0.0,0.283214807510376,-1.5831378141986292,0.0,-0.007981528528034687,0.6570504307746887,0.0,-0.0019758606795221567,0.7825496792793274,0.0,-0.008581884205341339
756.0,962.0,1.9651,0.4792,9.1071,-0.0249,0.024,-0.1232,-1.7134787044920863,0.00028344994643703103,2.685518503189087,-1.8386139869689941,0.00048654069541953504,2.0019540786743164,4.835531684547224,-0.0,0.2900354266166687,-1.5831378141986292,0.0,-0.01289646327495575,0.6570106148719788,0.0,-0.008585973642766476,0.7825939059257507,0.0,0.02916484698653221
756.0,962.0,1.9651,0.4792,9.1071,-0.0249,0.024,-0.1232,-1.713494440118307,0.000240216453676112,2.6330416202545166,-1.838598370552063,0.00037169456481933594,2.0805864334106445,4.835487472801962,-0.0,0.2857373356819153,-1.5831859747516077,0.0,-0.004949378315359354,0.6570664644241333,0.0,0.0013075858587399125,0.7826381921768188,8.843789692036808e-05,-0.0437781922519207
797.0,968.0,1.4931,-0.1346,9.4499,-0.049,0.0331,-0.1199,-1.7134267292418421,0.00020842626690864563,2.6366467475891113,-1.8385860919952393,0.0003007182094734162,2.0406575202941895,4.8355755908186815,-0.0,0.2906828820705414,-1.5831134955035608,0.0,-0.004845959600061178,0.656965970993042,0.0,-0.005239580292254686,0.7825777530670166,6.568954995600507e-05,-0.024281419813632965
797.0,968.0,1.4931,-0.1346,9.4499,-0.049,0.0331,-0.1199,-1.7134467564024867,0.00018406751041766256,2.6272599697113037,-1.8386459350585938,0.0002525037562008947,2.069767951965332,4.835587854474344,-0.0,0.29900428652763367,-1.583142105733053,0.0,-0.009042097255587578,0.6570422649383545,0.0,0.007091552950441837,0.7825741171836853,5.114658415550366e-05,-0.0042996276170015335
797.0,968.0,1.4931,-0.1346,9.4499,-0.049,0.0331,-0.1199,-1.7134586773314417,0.00016480656631756574,2.6402578353881836,-1.8385862112045288,0.00021761418611276895,2.0506491661071777,4.835503454297342,-0.0,0.30074700713157654,-1.5831664244281214,0.0,-0.007156725041568279,0.656974196434021,0.0,-0.004004836082458496,0.7825658321380615,4.2991468944819644e-05,0.05128234624862671
797.0,968.0,1.4931,-0.1346,9.4499,-0.049,0.0331,-0.1199,-1.7134906254210414,0.00014919484965503216,2.6257152557373047,-1.8386296033859253,0.00019119617354590446,2.0813353061676025,4.835515390127458,-0.0,0.2960629463195801,-1.5831096808062952,0.0,-0.015142267569899559,0.6569782495498657,0.0,0.0035501616075634956,0.7825376391410828,-0.00010344361362513155,0.03422496095299721
797.0,968.0,1.4931,-0.1346,9.4499,-0.049,0.0331,-0.1199,-1.7134667835631312,0.00013628503074869514,2.647221088409424,-1.8386459350585938,0.00017049862071871758,2.002979040145874,4.835571865528383,-0.0,0.2859290838241577,-1.5830696264850062,0.0,-0.005369845312088728,0.6571265459060669,0.0,-0.016175268217921257,0.7825173139572144,-0.00012616139429155737,0.043597251176834106
797.0,968.0,1.4931,-0.1346,9.4499,-0.049,0.0331,-0.1199,-1.7134467564024867,4.385193096823059e-05,2.667786121368408,-1.8385943174362183,0.00014275203284341842,2.0498664379119873,4.835543583124437,-0.0,0.29093414545059204,-1.5831177870379847,0.0,-0.008272326551377773,0.6569945812225342,0.0,-0.006825650110840797,0.7825579047203064,-0.00014172439114190638,-0.02025129832327366
797.0,968.0,1.4931,-0.1346,9.4499,-0.049,0.0331,-0.1199,-1.7135187588133753,1.999263076868374e-05,2.6402225494384766,-1.838598370552063,0.0007500797510147095,2.028110980987549,4.835555526405134,-0.0,0.30239519476890564,-1.5830896536456507,0.0,-0.007299219723790884,0.657010555267334,0.0,-0.005948938429355621,0.7825496792793274,-0.00011598750279517844,-0.024996642023324966
797.0,968.0,1.4931,-0.1346,9.4499,-0.049,0.0331,-0.1199,-1.7135025463499964,1.890706992010993e-12,2.5889787673950195,-1.8386149406433105,0.0016036861343309283,2.079669952392578,4.835527631431379,-0.0,0.29885292053222656,-1.5831063429461878,0.0,-0.007781012915074825,0.656965970993042,0.0,-0.010422728955745697,0.7825658321380615,-6.530667633342091e-07,-0.015902768820524216
797.0,968.0,1.4931,-0.1346,9.4499,-0.049,0.0331,-0.1199,-1.713574548760885,-0.0010743371676653624,2.6507606506347656,-1.8385300636291504,0.003105293493717909,2.004518508911133,4.835555533855715,-0.0,0.2959774434566498,-1.5830939451800745,0.0,-0.013538792729377747,0.6569864153862,0.0,-0.0030891080386936665,0.7826625108718872,-2.1158534044838154e-14,-0.031023021787405014
797.0,968.0,1.4931,-0.1346,9.4499,-0.049,0.0331,-0.1199,-1.7135702572264613,-0.0010118877980858088,2.6424474716186523,-1.8385186195373535,0.0056323036551475525,2.053948163986206,4.835539544909754,-0.0,0.28986093401908875,-1.5831063429461878,0.0,-0.0055871931836009026,0.6569425463676453,0.0,-0.01289260946214199,0.7826257944107056,0.0022267396561801434,0.05844041705131531
797.0,968.0,1.4931,-0.1346,9.4499,-0.049,0.0331,-0.1199,-1.713602682153219,-0.0008243845659308136,2.649942398071289,-1.8384140729904175,0.008928067982196808,2.050286293029785,4.835551503091612,-0.0,0.2928819954395294,-1.5830896536456507,0.0,-0.007510407827794552,0.6569424867630005,0.0,-0.013790629804134369,0.7827103137969971,0.00405774125829339,-0.03864387422800064
768.0,974.0,1.7838,0.5934,9.0604,-0.0176,0.0377,-0.1159,-1.7135511837401332,-0.00039214943535625935,2.644287109375,-1.8383384943008423,0.011395294219255447,2.0286641120910645,4.835579658835687,-0.0,0.2811805307865143,-1.5831106344806116,0.0,-0.0025593216996639967,0.6569468975067139,0.0,-0.002246321178972721,0.7826858758926392,0.004053118638694286,0.018736720085144043
768.0,974.0,1.7838,0.5934,9.0604,-0.0176,0.0377,-0.1159,-1.7135549984373988,-0.00026741166948340833,2.648754596710205,-1.8382306098937988,0.013574741780757904,2.0676004886627197,4.835519413440981,-0.0,0.3127615749835968,-1.5830495993243616,0.0,-0.00968865305185318,0.6569864749908447,0.0,-0.020597022026777267,0.7827542424201965,0.0033205479849129915,-0.025476178154349327
768.0,974.0,1.7838,0.5934,9.0604,-0.0176,0.0377,-0.1159,-1.7135387859740199,-0.00019498146139085293,2.6744377613067627,-1.8380866050720215,0.014392271637916565,2.0761003494262695,4.835543605476179,-0.0,0.2895893156528473,-1.583130184804098,0.0,-0.00898396223783493,0.6569264531135559,0.0,-0.028508879244327545,0.7827459573745728,0.0032050281297415495,-0.05179383605718613
768.0,974.0,1.7838,0.5934,9.0604,-0.0176,0.0377,-0.1159,-1.7135268650450648,-0.00016025880177039653,2.653590440750122,-1.8379672765731812,0.014256765134632587,2.064227342605591,4.83556746223525,-0.0,0.2851044237613678,-1.5830815474139612,0.0,-0.0003571566194295883,0.6569225192070007,0.0,-0.02380366437137127,0.7827939987182617,0.003762960433959961,-0.011834749020636082
768.0,974.0,1.7838,0.5934,9.0604,-0.0176,0.0377,-0.1159,-1.7135702572264613,-0.0001360345195280388,2.6811399459838867,-1.8378390073776245,0.013321430422365665,2.066192626953125,4.83555148073987,-0.0,0.3028833270072937,-1.583130184804098,0.0,-0.007461851462721825,0.6569347381591797,0.0,-0.02890639379620552,0.7828945517539978,0.0056380764581263065,0.02677038125693798
768.0,974.0,1.7838,0.5934,9.0604,-0.0176,0.0377,-0.1159,-1.7135631046690882,-0.00011817221820820123,2.6707942485809326,-1.8377394676208496,0.01173713430762291,2.0300991535186768,4.835543605476179,-0.0,0.28502732515335083,-1.5831502119647425,0.0,-0.0004421176854521036,0.6570109128952026,-0.00020054170454386622,-0.0316314771771431,0.7829223275184631,0.00836801528930664,-0.03996647521853447
768.0,974.0,1.7838,0.5934,9.0604,-0.0176,0.0377,-0.1159,-1.7135869465269984,-0.00010445652878843248,2.6771867275238037,-1.8376919031143188,0.010101019404828548,2.092602252960205,4.835575583368101,-0.0,0.29855257272720337,-1.583130184804098,0.0,-0.008577672764658928,0.656967043876648,-0.00023386991233564913,-0.035896629095077515,0.7830021977424622,0.010805842466652393,-0.01910918578505516
768.0,974.0,1.7838,0.5934,9.0604,-0.0176,0.0377,-0.1159,-1.7135426006712855,-9.359369869343936e-05,2.6537880897521973,-1.8376202583312988,0.008197211660444736,2.057248592376709,4.83555959442214,-0.0,0.28464269638061523,-1.5831425825702112,0.0,-0.00830293819308281,0.6569786071777344,-0.00023659903672523797,-0.030220450833439827,0.7830982804298401,0.012798222713172436,-0.008887192234396935
768.0,974.0,1.7838,0.5934,9.0604,-0.0176,0.0377,-0.1159,-1.7135464153685511,-8.477735536871478e-05,2.643704891204834,-1.8375033140182495,0.006770699750632048,2.026036262512207,4.835531684547224,-0.0,0.2968129813671112,-1.5831344763385218,0.0,-0.008972590789198875,0.6569347381591797,-0.00036921686842106283,-0.033932968974113464,0.7831579446792603,0.014498043805360794,-0.00434276694431901
768.0,974.0,1.7838,0.5934,9.0604,-0.0176,0.0377,-0.1159,-1.7135268650450648,-7.747904601274058e-05,2.611459255218506,-1.8375115394592285,0.005695069208741188,2.027585506439209,4.835563669889726,-0.0,0.2906714677810669,-1.583130184804098,0.0,-0.019505105912685394,0.6569987535476685,-0.0003892640525009483,-0.032120946794748306,0.7833186984062195,0.015748897567391396,-0.051818132400512695
768.0,974.0,1.7838,0.5934,9.0604,-0.0176,0.0377,-0.1159,-1.713574548760885,-7.133778854040429e-05,2.6545939445495605,-1.8374762535095215,0.004921091720461845,2.055677890777588,4.835531654744901,-0.0,0.28597375750541687,-1.5831134955035608,0.0,-0.004147754982113838,0.6569429039955139,-0.0006364669534377754,-0.054974235594272614,0.7834345698356628,0.016703590750694275,-0.026534419506788254
783.0,991.0,2.0321,0.1484,9.2303,-0.0194,0.018,-0.0855,-1.7135702572264613,-6.609859701711684e-05,2.668475389480591,-1.837404727935791,0.004198702983558178,2.03712797164917,4.835519428342142,-0.0,0.2945939004421234,-1.5830777327166956,0.0,0.0010734496172517538,0.6569350957870483,-0.0007615434587933123,-0.06470973789691925,0.7835785746574402,0.018535859882831573,-0.0129306735470891
783.0,991.0,2.0321,0.1484,9.2303,-0.0194,0.018,-0.0855,-1.7135664425291957,-1.6533416783204302e-05,2.627124547958374,-1.8373839855194092,0.003990008495748043,2.0001630783081055,4.835564012616434,6.382117057057712e-11,0.2940666973590851,-1.583085838948385,0.0,-0.005037110298871994,0.6569632887840271,-0.0007208260358311236,-0.05964566022157669,0.7837591171264648,0.019322983920574188,-0.03488000109791756
783.0,991.0,2.0321,0.1484,9.2303,-0.0194,0.018,-0.0855,-1.7135869465269984,-3.059308073716238e-05,2.6458659172058105,-1.837300419807434,0.0034863497130572796,2.03910231590271,4.8355276612337015,1.1599184476405663e-15,0.2822948396205902,-1.5831063429461878,0.0,-0.012513577938079834,0.6569228172302246,-0.0007114446489140391,-0.06335022300481796,0.7838950753211975,0.02148606814444065,-0.006895830854773521
783.0,991.0,2.0321,0.1484,9.2303,-0.0194,0.018,-0.0855,-1.713578840295309,-5.759258783655241e-05,2.6336002349853516,-1.837324857711792,0.004491615574806929,2.075214147567749,4.835475633829393,2.1080945095745396e-20,0.29485058784484863,-1.5831344763385218,0.0,-0.011896487325429916,0.6568952202796936,-0.0007242204737849534,-0.08083139359951019,0.7840467691421509,0.02394278720021248,-0.07383307814598083
783.0,991.0,2.0321,0.1484,9.2303,-0.0194,0.018,-0.0855,-1.7135545216002406,-0.0010874434374272823,2.653815746307373,-1.8372886180877686,0.005800075363367796,2.0118408203125,4.835475671082296,3.8313573938477776e-25,0.29052111506462097,-1.5831545034991663,0.0,-0.017074305564165115,0.6569309830665588,-0.0008443245314992964,-0.06790073215961456,0.7842873334884644,0.02783944271504879,0.01854952611029148
783.0,991.0,2.0321,0.1484,9.2303,-0.0194,0.018,-0.0855,-1.7135869465269984,-0.001593408058397472,2.6345038414001465,-1.8372079133987427,0.007197131402790546,1.9807329177856445,4.835483762412824,6.963303533593116e-30,0.294920951128006,-1.5831425825702112,0.0,-0.006326448172330856,0.656947135925293,-0.0017166991019621491,-0.05853695422410965,0.784551739692688,0.03290480747818947,0.000960218720138073
783.0,991.0,2.0321,0.1484,9.2303,-0.0194,0.018,-0.0855,-1.7136146030821742,-0.00185517524369061,2.660447120666504,-1.837193250656128,0.008173955604434013,2.048220634460449,4.835500153690138,1.2655459424674097e-34,0.2964875102043152,-1.5831063429461878,0.0,-0.026138044893741608,0.6568348407745361,-0.003908029291778803,-0.07560045272111893,0.7848801016807556,0.03807138279080391,-0.01872163638472557
783.0,991.0,2.0321,0.1484,9.2303,-0.0194,0.018,-0.0855,-1.7136875591673792,-0.002353336662054062,2.650784730911255,-1.8370846509933472,0.009731965139508247,2.0535776615142822,4.835515740304746,-0.00028955191373825073,0.2917884886264801,-1.583102051411764,0.0,-0.010599151253700256,0.6568356156349182,-0.010653868317604065,-0.08035606145858765,0.7851439714431763,0.04091415926814079,-0.012862009927630424
783.0,991.0,2.0321,0.1484,9.2303,-0.0194,0.018,-0.0855,-1.7136713467040003,-0.0024247835390269756,2.6561999320983887,-1.8370047807693481,0.00952054187655449,2.043818950653076,4.8354555545146845,-0.0002952271024696529,0.2754930853843689,-1.5831220785724085,0.0,-0.0037640368100255728,0.656687319278717,-0.0058809919282794,-0.09354978054761887,0.7855283617973328,0.04189547151327133,-0.06241839379072189
783.0,991.0,2.0321,0.1484,9.2303,-0.0194,0.018,-0.0855,-1.7137109241881312,-0.002758936956524849,2.618504047393799,-1.8369290828704834,0.010110692121088505,2.049448251724243,4.835523973196306,-0.0002802068484015763,0.29322636127471924,-1.5830815474139612,0.0,-0.014612825587391853,0.656695544719696,-0.0005034057539887726,-0.08338622748851776,0.7858644723892212,0.04300282150506973,-0.009137953631579876
783.0,991.0,2.0321,0.1484,9.2303,-0.0194,0.018,-0.0855,-1.7137791119017542,-0.003149250987917185,2.7013673782348633,-1.8368172645568848,0.009749645367264748,2.022062063217163,4.83544776120738,-0.0002629351511131972,0.27936577796936035,-1.5831177870379847,0.0,-0.015080079436302185,0.6566675901412964,-0.00020533760834950954,-0.09185963869094849,0.7862968444824219,0.046517498791217804,0.004174301866441965
783.0,991.0,2.0321,0.1484,9.2303,-0.0194,0.018,-0.0855,-1.713787694970602,-0.002581068081781268,2.6414403915405273,-1.8367695808410645,0.010125110857188702,2.055166006088257,4.835475671082296,-0.00030631781555712223,0.27402934432029724,-1.5831144491778772,0.0,-0.017566977068781853,0.6567557454109192,-0.000140940144774504,-0.09545974433422089,0.7867295742034912,0.0509016253054142,-0.010278432630002499
858.0,956.0,1.7097,0.5354,9.588,0.0043,-0.005,-0.0609,-1.7137628994383753,-0.002441992051899433,2.649353504180908,-1.8366411924362183,0.010402587242424488,2.0077600479125977,4.835467825620928,-0.0006211875006556511,0.2828916311264038,-1.5831177870379847,0.0,-0.016297101974487305,0.656735897064209,-0.00015904988686088473,-0.08797519654035568,0.7871218919754028,0.05397863686084747,0.02729235216975212
858.0,956.0,1.7097,0.5354,9.588,0.0043,-0.005,-0.0609,-1.7137867412962855,-0.0030437798704952,2.608279228210449,-1.836593508720398,0.010043135844171047,2.0234532356262207,4.835444035917082,-0.0011214064434170723,0.27519091963768005,-1.5831063429461878,0.0,-0.003315528854727745,0.6566758155822754,-0.00012996088480576873,-0.10188355296850204,0.7875945568084717,0.05522847920656204,-0.017503516748547554
858.0,956.0,1.7097,0.5354,9.588,0.0043,-0.005,-0.0609,-1.7138391933836878,-0.0037841058801859617,2.6770119667053223,-1.8364609479904175,0.010589046403765678,2.0246644020080566,4.835391941457548,-0.003084012772887945,0.28005746006965637,-1.5830896536456507,0.0,-0.02130899764597416,0.6567118167877197,-0.00014496955554932356,-0.10783902555704117,0.7880468368530273,0.05484166368842125,0.03464868664741516
858.0,956.0,1.7097,0.5354,9.588,0.0043,-0.005,-0.0609,-1.7138992748656214,-0.004991338588297367,2.6103129386901855,-1.8364577293395996,0.009457161650061607,2.0669174194335938,4.835348005383768,-0.01434391364455223,0.25650525093078613,-1.5830896536456507,0.0,-0.020756475627422333,0.6566839814186096,-6.9141220592428e-05,-0.09420069307088852,0.7884907722473145,0.055645234882831573,-0.02578532136976719
858.0,956.0,1.7097,0.5354,9.588,0.0043,-0.005,-0.0609,-1.7139150104918421,-0.00538280326873064,2.5928964614868164,-1.836378812789917,0.00985958706587553,2.0376827716827393,4.835172201484003,-0.018520167097449303,0.2627675235271454,-1.5830896536456507,0.0,-0.018356425687670708,0.6566958427429199,-0.00014388702402357012,-0.10519187152385712,0.7889794707298279,0.05812367424368858,-0.004369368776679039
858.0,956.0,1.7097,0.5354,9.588,0.0043,-0.005,-0.0609,-1.7139588795103968,-0.005535589996725321,2.6429808139801025,-1.8362743854522705,0.011166087351739407,2.033778429031372,4.835120896786012,-0.005785136017948389,0.27338290214538574,-1.5831063429461878,0.0,-0.017582187429070473,0.6566479206085205,-0.0006583062931895256,-0.11884693801403046,0.7894477844238281,0.061957310885190964,-8.99971928447485e-05
858.0,956.0,1.7097,0.5354,9.588,0.0043,-0.005,-0.0609,-1.7140590153136195,-0.005987291224300861,2.6712522506713867,-1.8362183570861816,0.009641311131417751,2.0067553520202637,4.835108975857057,-5.245605279924348e-05,0.2764866054058075,-1.5830896536456507,0.0,-0.03285694867372513,0.6566236615180969,-0.0007443554932251573,-0.11445219069719315,0.7899439930915833,0.06576001644134521,-0.04125196859240532
858.0,956.0,1.7097,0.5354,9.588,0.0043,-0.005,-0.0609,-1.7140914402403773,-0.006612332537770271,2.661102771759033,-1.8360981941223145,0.009899080730974674,2.0000319480895996,4.835088948696413,-9.53362944144942e-10,0.26987653970718384,-1.5831425825702112,0.0,-0.021862778812646866,0.656667947769165,-0.0007259873673319817,-0.0946788340806961,0.7905488610267639,0.06711926311254501,-0.027679018676280975
858.0,956.0,1.7097,0.5354,9.588,0.0043,-0.005,-0.0609,-1.7141672573485316,-0.007413992192596197,2.641373872756958,-1.8360018730163574,0.010657371953129768,2.0645971298217773,4.835072974651613,-1.7326900886836284e-14,0.272213876247406,-1.583061997090475,0.0,-0.02634890004992485,0.6566797494888306,-0.0007521952502429485,-0.10475073754787445,0.7910687327384949,0.07005263864994049,-0.023206431418657303
858.0,956.0,1.7097,0.5354,9.588,0.0043,-0.005,-0.0609,-1.7141748867430628,-0.007429266814142466,2.6074790954589844,-1.8359706401824951,0.010801023803651333,2.046140670776367,4.835097077279844,-3.1490786599409077e-19,0.26778191328048706,-1.5830982367144983,0.0,-0.028887372463941574,0.6566600799560547,-0.0007772537064738572,-0.11019070446491241,0.7916737198829651,0.07409229129552841,0.00793540757149458
858.0,956.0,1.7097,0.5354,9.588,0.0043,-0.005,-0.0609,-1.7142554722227992,-0.00788506492972374,2.587336778640747,-1.8358309268951416,0.011693207547068596,2.013467311859131,4.835093061416902,-5.723294730183361e-24,0.26763415336608887,-1.5830777327166956,0.0,-0.021904539316892624,0.65665602684021,-0.0006933370605111122,-0.1073918268084526,0.7922579050064087,0.07877759635448456,0.017611566931009293
931.0,962.0,1.9334,0.8686,9.1992,-0.0316,0.0339,-0.0777,-1.7143236599364222,-0.007991637103259563,2.563276767730713,-1.8357468843460083,0.013496861793100834,2.0372657775878906,4.8350247023399255,-1.0401805592302062e-28,0.2630779445171356,-1.5831106344806116,0.0,-0.023700252175331116,0.6566439867019653,-0.0009619126212783158,-0.10381719470024109,0.7929309010505676,0.0778374895453453,0.02925480343401432
931.0,962.0,1.9334,0.8686,9.1992,-0.0316,0.0339,-0.0777,-1.714424272576803,-0.007453486323356628,2.617689847946167,-1.8356112241744995,0.015562904998660088,2.0228922367095947,4.835064779012956,-1.8904770347664357e-33,0.26194238662719727,-1.5830696264850062,0.0,-0.015394380316138268,0.6566361784934998,-0.0012454676907509565,-0.12046539783477783,0.7934904098510742,0.07264144718647003,-0.003442233894020319
931.0,962.0,1.9334,0.8686,9.1992,-0.0316,0.0339,-0.0777,-1.7144519291319789,-0.00790532398968935,2.651348352432251,-1.8354589939117432,0.01788976415991783,2.0262155532836914,4.835072900145807,-3.4358487493524905e-38,0.24972935020923615,-1.5830896536456507,0.0,-0.02140934020280838,0.6565885543823242,-0.0015773763880133629,-0.1117788702249527,0.7940994501113892,0.06609465926885605,-0.05233808234333992
931.0,962.0,1.9334,0.8686,9.1992,-0.0316,0.0339,-0.0777,-1.714532037774557,-0.00952216237783432,2.5648856163024902,-1.8353396654129028,0.020293885841965675,2.0304322242736816,4.835052917688646,-6.249791150888684e-43,0.24052953720092773,-1.5831106344806116,0.0,-0.013613083399832249,0.6566086411476135,-0.001999736065044999,-0.13124112784862518,0.7946197986602783,0.06185908243060112,-0.11010941863059998
931.0,962.0,1.9334,0.8686,9.1992,-0.0316,0.0339,-0.0777,-1.7145558796324671,-0.010981352999806404,2.5606234073638916,-1.8351553678512573,0.02307778224349022,2.0239222049713135,4.835064764111795,-0.0003558688622433692,0.24421849846839905,-1.5831344763385218,0.0,-0.020169077441096306,0.6566128134727478,-0.0028651580214500427,-0.13654825091362,0.7951162457466125,0.06104343757033348,-0.11037337779998779
931.0,962.0,1.9334,0.8686,9.1992,-0.0316,0.0339,-0.0777,-1.7147237263121546,-0.010180845856666565,2.5400032997131348,-1.8348840475082397,0.027041302993893623,2.048943519592285,4.835064756661215,-0.0002556638792157173,0.24759352207183838,-1.5830820242511194,0.0,-0.022654902189970016,0.6565651297569275,-0.00377432769164443,-0.11409985274076462,0.7957006692886353,0.055568989366292953,-0.07719811797142029
931.0,962.0,1.9334,0.8686,9.1992,-0.0316,0.0339,-0.0777,-1.7148243389525355,-0.01050716545432806,2.5859174728393555,-1.8346725702285767,0.030408548191189766,2.0239758491516113,4.83509303161458,-0.00020830823632422835,0.23667508363723755,-1.5831382910357874,0.0,-0.0038990583270788193,0.6564761400222778,-0.0036327249836176634,-0.11594818532466888,0.7960928082466125,0.05015069246292114,-0.11961576342582703
931.0,962.0,1.9334,0.8686,9.1992,-0.0316,0.0339,-0.0777,-1.714860578576559,-0.012378746643662453,2.5177786350250244,-1.834425926208496,0.03330472484230995,2.0505683422088623,4.835081095784464,-0.00021082547027617693,0.23767700791358948,-1.5830901304828089,0.0,-0.01256381906569004,0.6565089225769043,-0.0019360249862074852,-0.12893730401992798,0.7964568138122559,0.04632660374045372,-0.11888085305690765
931.0,962.0,1.9334,0.8686,9.1992,-0.0316,0.0339,-0.0777,-1.7149650059142054,-0.015047824010252953,2.5650830268859863,-1.8341624736785889,0.03862987086176872,2.058077573776245,4.835081088333883,-0.00021278997883200645,0.23246771097183228,-1.5831063429461878,3.503090706402645e-09,-0.001524987630546093,0.6564646363258362,-0.0007722243317402899,-0.1391228586435318,0.7968775629997253,0.047888319939374924,-0.1653144508600235
931.0,962.0,1.9334,0.8686,9.1992,-0.0316,0.0339,-0.0777,-1.7151247463622035,-0.016437258571386337,2.4971437454223633,-1.8337782621383667,0.042635805904865265,2.092341899871826,4.835056993156233,-0.0002147836348740384,0.24041986465454102,-1.5830701033221644,6.366695365356279e-14,-0.008429036475718021,0.6565208435058594,-0.00045681491610594094,-0.14049085974693298,0.7972216010093689,0.05382080376148224,-0.1323344111442566
931.0,962.0,1.9334,0.8686,9.1992,-0.0316,0.0339,-0.0777,-1.7152248821654261,-0.01858419179916382,2.518401861190796,-1.8334591388702393,0.04820200055837631,2.0513925552368164,4.835085245757856,-0.000201498725800775,0.24452976882457733,-1.5830376783954065,1.1571152483499099e-18,0.0001049084821715951,0.6565324664115906,-0.00032479080255143344,-0.13447852432727814,0.7977383136749268,0.05797938257455826,-0.10374012589454651
942.0,947.0,1.4943,0.8722,9.8907,-0.0325,0.0606,-0.0906,-1.7154256306090296,-0.021776171401143074,2.493864059448242,-1.8329991102218628,0.055175721645355225,2.1027348041534424,4.835089321225443,-0.00017544357979204506,0.23394513130187988,-1.5830538908587855,2.1029998325406335e-23,-0.01259868685156107,0.6565208435058594,-0.0002519979316275567,-0.11447054892778397,0.7981985211372375,0.05762958899140358,-0.05931166559457779
942.0,947.0,1.4943,0.8722,9.8907,-0.0325,0.0606,-0.0906,-1.7155972919859828,-0.02723161317408085,2.488409996032715,-1.8325722217559814,0.06048250198364258,2.1050732135772705,4.835052932589807,-0.0001811396941775456,0.2339147925376892,-1.5830701033221644,3.8220975303788836e-28,-0.008457743562757969,0.6565447449684143,-0.00016469578258693218,-0.11738359928131104,0.7986469864845276,0.05360356718301773,-0.07154358923435211
942.0,947.0,1.4943,0.8722,9.8907,-0.0325,0.0606,-0.0906,-1.7158814869322718,-0.03495316579937935,2.5018539428710938,-1.832085132598877,0.06471025198698044,2.086327075958252,4.835040601878919,-0.00016245558799710125,0.23409625887870789,-1.583033863698141,6.946474398272888e-33,0.0013793763937428594,0.6565727591514587,-0.00013921383651904762,-0.10422727465629578,0.7990713715553284,0.04802623763680458,-0.14783814549446106
942.0,947.0,1.4943,0.8722,9.8907,-0.0325,0.0606,-0.0906,-1.716170450250143,-0.04008088633418083,2.470111608505249,-1.8314708471298218,0.0684480220079422,2.081138849258423,4.835068914085188,-9.765520371729508e-05,0.2510966658592224,-1.5830901304828089,1.2624871836953264e-37,-0.007303302176296711,0.6565203070640564,-9.042240708367899e-05,-0.10839134454727173,0.799476146697998,0.04285058751702309,-0.17390385270118713
942.0,947.0,1.4943,0.8722,9.8907,-0.0325,0.0606,-0.0906,-1.7165066204466761,-0.041373591870069504,2.5017552375793457,-1.8308906555175781,0.07693774253129959,2.0903472900390625,4.835113081126966,-7.525400724261999e-05,0.24357613921165466,-1.583045784627096,2.2939255860997255e-42,0.004009024240076542,0.6565566062927246,5.929377584834583e-05,-0.10304227471351624,0.7997800707817078,0.03756924346089363,-0.09161176532506943
942.0,947.0,1.4943,0.8722,9.8907,-0.0325,0.0606,-0.0906,-1.7168790302672328,-0.0431620292365551,2.4897241592407227,-1.830308198928833,0.08785314857959747,2.1082770824432373,4.835077042668619,-6.447056512115523e-05,0.23948147892951965,-1.5830538908587855,0.0,0.005821302533149719,0.6565365791320801,7.958155765663832e-05,-0.08645124733448029,0.7999953627586365,0.033084746450185776,-0.1647569239139557
942.0,947.0,1.4943,0.8722,9.8907,-0.0325,0.0606,-0.0906,-1.717339654962057,-0.048485785722732544,2.513486385345459,-1.829469084739685,0.09796463698148727,2.1196231842041016,4.835113476007738,-8.452049223706126e-05,0.23871716856956482,-1.5830863157855433,0.0,0.002560203894972801,0.6565364599227905,9.520306048216298e-05,-0.08795958757400513,0.8002558350563049,0.02912074699997902,-0.12724682688713074
942.0,947.0,1.4943,0.8722,9.8907,-0.0325,0.0606,-0.0906,-1.717696329156393,-0.05377031862735748,2.4852612018585205,-1.828751802444458,0.10898797959089279,2.1919097900390625,4.835057008057394,-9.999879694078118e-05,0.23694872856140137,-1.5830381552325647,0.0,-0.005494866520166397,0.6565243601799011,0.00010780972661450505,-0.07323020696640015,0.8004961609840393,0.026010781526565552,-0.11912736296653748
942.0,947.0,1.4943,0.8722,9.8907,-0.0325,0.0606,-0.0906,-1.7181126079955042,-0.052921880036592484,2.467641830444336,-1.8277685642242432,0.11495668441057205,2.15378475189209,4.835009011417188,-0.00017057974764611572,0.23586902022361755,-1.5830462614642542,0.0,-0.0038447093684226274,0.6565284729003906,0.0002946212189272046,-0.07585331052541733,0.8006965517997742,0.022138429805636406,-0.11878374218940735
942.0,947.0,1.4943,0.8722,9.8907,-0.0325,0.0606,-0.0906,-1.718565126458639,-0.04842396825551987,2.5162487030029297,-1.8268259763717651,0.1182437464594841,2.136608123779297,4.8350692493613145,-0.0007507370901294053,0.25472012162208557,-1.5830500761615198,0.0,-0.006542553659528494,0.656564474105835,0.0002817701897583902,-0.0896148681640625,0.8008158802986145,0.019526006653904915,-0.1629975140094757
942.0,947.0,1.4943,0.8722,9.8907,-0.0325,0.0606,-0.0906,-1.718945165673727,-0.04595903679728508,2.4750072956085205,-1.8258686065673828,0.11704353988170624,2.1042070388793945,4.8350692493613145,-0.0005678016459569335,0.2482445240020752,-1.5830419699298304,7.23098564776592e-05,0.013305237516760826,0.6565604209899902,0.0002819254295900464,-0.0689692497253418,0.8009645342826843,0.01662432961165905,-0.19163402915000916
952.0,959.0,1.3507,0.3111,9.8596,-0.0501,0.1213,-0.1035,-1.7193504772581996,-0.048552218824625015,2.473093271255493,-1.8249222040176392,0.12469393759965897,2.181619644165039,4.835025037616052,-0.0004614587815012783,0.2499086558818817,-1.583062473927633,9.169719851342961e-05,0.012450182810425758,0.6565926671028137,0.00030333883478306234,-0.06846549361944199,0.8010600805282593,0.014318722300231457,-0.14075224101543427
952.0,959.0,1.3507,0.3111,9.8596,-0.0501,0.1213,-0.1035,-1.7197348080077113,-0.054014936089515686,2.444171667098999,-1.8238316774368286,0.13484764099121094,2.1752500534057617,4.835005248873987,-0.0004477240436244756,0.24443703889846802,-1.5830867926227015,8.676463039591908e-05,0.015636324882507324,0.6565284729003906,0.0002866630384232849,-0.05830471217632294,0.8011398315429688,0.012831375002861023,-0.1604677438735962
952.0,959.0,1.3507,0.3111,9.8596,-0.0501,0.1213,-0.1035,-1.7203036747374476,-0.061563752591609955,2.4722371101379395,-1.8224427700042725,0.15341494977474213,2.210880756378174,4.835013422160902,-0.00037758820690214634,0.243515282869339,-1.5830581823932093,9.369784675072879e-05,0.02353677898645401,0.6565403938293457,0.00026427998091094196,-0.06752632558345795,0.8013085126876831,0.011060472577810287,-0.19650578498840332
952.0,959.0,1.3507,0.3111,9.8596,-0.0501,0.1213,-0.1035,-1.7208405933775843,-0.06884250044822693,2.462704658508301,-1.8211561441421509,0.1588522046804428,2.199814796447754,4.835041309684076,-0.00031210138695314527,0.25231608748435974,-1.5830214659320276,8.843676914693788e-05,0.0025122594088315964,0.6565604209899902,0.0002586246409919113,-0.05268270894885063,0.8014244437217712,0.01056625321507454,-0.16406908631324768
952.0,959.0,1.3507,0.3111,9.8596,-0.0501,0.1213,-0.1035,-1.721457143823141,-0.07926692813634872,2.4395029544830322,-1.8198587894439697,0.16809630393981934,2.2185897827148438,4.835025320738115,-0.00023302760382648557,0.23297522962093353,-1.5830987135516565,9.569536632625386e-05,0.020597204566001892,0.6565804481506348,0.00022211403120309114,-0.055148281157016754,0.8015049695968628,0.012001320719718933,-0.18085965514183044
952.0,959.0,1.3507,0.3111,9.8596,-0.0501,0.1213,-0.1035,-1.722109933892721,-0.08542170375585556,2.452425718307495,-1.818397045135498,0.18546436727046967,2.246068000793457,4.835057246475973,-0.00023171173234004527,0.2550428509712219,-1.5830662886248987,9.086625505005941e-05,0.017675403505563736,0.656564474105835,0.0002225464122602716,-0.05162294581532478,0.8015810251235962,0.013067703694105148,-0.17475125193595886
952.0,959.0,1.3507,0.3111,9.8596,-0.0501,0.1213,-0.1035,-1.7228347263731898,-0.09545736014842987,2.4442005157470703,-1.8168551921844482,0.20014579594135284,2.242001533508301,4.835005248873987,-0.00024036435934249312,0.2358352690935135,-1.5830138365374964,8.64997273311019e-05,0.028966233134269714,0.6565563082695007,0.00022288906620815396,-0.050289686769247055,0.801745593547821,0.013654135167598724,-0.17708012461662292
952.0,959.0,1.3507,0.3111,9.8596,-0.0501,0.1213,-0.1035,-1.7236677608885707,-0.09751531481742859,2.4308037757873535,-1.815250039100647,0.20246174931526184,2.290808916091919,4.835033583431997,-0.0007401233306154609,0.2474391907453537,-1.5830381552325647,0.00013364161713980138,0.03353032469749451,0.6566002368927002,0.0002231785620097071,-0.05454794317483902,0.8017562627792358,0.01465202309191227,-0.20551720261573792
952.0,959.0,1.3507,0.3111,9.8596,-0.0501,0.1213,-0.1035,-1.724497457543844,-0.09332367032766342,2.4409961700439453,-1.8135498762130737,0.21426640450954437,2.2965617179870605,4.834945010929861,-0.00045042787678539753,0.25274622440338135,-1.583017651234762,0.00011983556032646447,0.029527317732572556,0.6565324068069458,0.00024846181622706354,-0.06616184860467911,0.8019086122512817,0.01838632859289646,-0.12457594275474548
952.0,959.0,1.3507,0.3111,9.8596,-0.0501,0.1213,-0.1035,-1.7252503834166468,-0.0917649120092392,2.457521915435791,-1.8118088245391846,0.2243426889181137,2.295248031616211,4.834937307029524,-0.0006342028500512242,0.23025842010974884,-1.583017651234762,0.00012986143701709807,0.045045483857393265,0.6566081047058105,0.0002641002065502107,-0.049131542444229126,0.8020887970924377,0.02163298986852169,-0.1977672129869461
952.0,959.0,1.3507,0.3111,9.8596,-0.0501,0.1213,-0.1035,-1.7259670696654261,-0.09767677634954453,2.428910255432129,-1.8100110292434692,0.21955646574497223,2.2942042350769043,4.834901164263048,-0.00410853885114193,0.24688410758972168,-1.5830019156085413,0.00013319903519004583,0.031364426016807556,0.6565324068069458,0.0002412689063930884,-0.0469827800989151,0.8023176789283752,0.026960542425513268,-0.1860937476158142
880.0,906.0,2.1398,0.3194,9.344,-0.0299,0.1399,-0.0794,-1.72670378307485,-0.10954634100198746,2.440054416656494,-1.8082072734832764,0.22890006005764008,2.3299927711486816,4.834933164506712,-0.002083803992718458,0.24487054347991943,-1.5830419699298304,0.0001271390210604295,0.03426423668861389,0.6566162109375,0.0002391009038547054,-0.03552034869790077,0.8025335073471069,0.03445546329021454,-0.2205284833908081
880.0,906.0,2.1398,0.3194,9.344,-0.0299,0.1399,-0.0794,-1.7275449238219203,-0.1079760417342186,2.3856921195983887,-1.8062540292739868,0.24403075873851776,2.3581318855285645,4.8349052769835374,-0.0009718453511595726,0.24542872607707977,-1.5830381552325647,0.00013444595970213413,0.04086606949567795,0.6566083431243896,0.0002383561513852328,-0.036767296493053436,0.8028339743614197,0.03729179501533508,-0.22836819291114807
880.0,906.0,2.1398,0.3194,9.344,-0.0299,0.1399,-0.0794,-1.7284542522826136,-0.10629970580339432,2.4263620376586914,-1.8042820692062378,0.25523653626441956,2.292485237121582,4.834941397398271,-0.0003744057030417025,0.23204997181892395,-1.583017651234762,0.00012510384840425104,0.048078153282403946,0.6566401720046997,0.00022575330513063818,-0.032328516244888306,0.8031301498413086,0.04200058802962303,-0.1709010899066925
880.0,906.0,2.1398,0.3194,9.344,-0.0299,0.1399,-0.0794,-1.7292987308897914,-0.10678279399871826,2.4485867023468018,-1.8021374940872192,0.27161073684692383,2.364766836166382,4.834981556027689,-0.00011740149057004601,0.23561982810497284,-1.5830300490008753,0.00014891877071931958,0.045765265822410583,0.6566002368927002,0.00020089880854357034,-0.03367916867136955,0.8035549521446228,0.0487687885761261,-0.18584303557872772
880.0,906.0,2.1398,0.3194,9.344,-0.0299,0.1399,-0.0794,-1.7302319012083949,-0.11213266849517822,2.4574062824249268,-1.7999688386917114,0.27804258465766907,2.354013681411743,4.834901127010145,-0.0002930444898083806,0.23612093925476074,-1.5829857031451624,0.0001334201224381104,0.03990323841571808,0.6565921902656555,0.00020350633712951094,-0.04002390429377556,0.8039108514785767,0.05361378565430641,-0.19852334260940552
880.0,906.0,2.1398,0.3194,9.344,-0.0299,0.1399,-0.0794,-1.731149812737936,-0.12429630011320114,2.3457586765289307,-1.797741174697876,0.28354620933532715,2.375929355621338,4.83485363700942,-0.007838192395865917,0.23586054146289825,-1.5830538908587855,0.00011927366722375154,0.0454484298825264,0.6565442681312561,0.00020553817739710212,-0.05027591437101364,0.8043307662010193,0.05557166412472725,-0.2133753001689911
880.0,906.0,2.1398,0.3194,9.344,-0.0299,0.1399,-0.0794,-1.7321306667723597,-0.12889990210533142,2.4089627265930176,-1.795441746711731,0.2924838066101074,2.3995654582977295,4.834781433432855,-0.013505215756595135,0.22801178693771362,-1.5830419699298304,0.0001078397617675364,0.04823288321495056,0.6566002368927002,0.00019616335339378566,-0.03381664305925369,0.8047754764556885,0.055044081062078476,-0.16569951176643372
880.0,906.0,2.1398,0.3194,9.344,-0.0299,0.1399,-0.0794,-1.7331201038756312,-0.13163091242313385,2.4434432983398438,-1.7930418252944946,0.3041993975639343,2.4371438026428223,4.834746095329084,-0.003953810781240463,0.2264748513698578,-1.5830462614642542,9.840629354584962e-05,0.060671694576740265,0.6566082835197449,0.000202025577891618,-0.03398670256137848,0.8052035570144653,0.052340924739837646,-0.18227063119411469
880.0,906.0,2.1398,0.3194,9.344,-0.0299,0.1399,-0.0794,-1.7341934643187464,-0.1274600625038147,2.460393190383911,-1.7905542850494385,0.3181418180465698,2.4063119888305664,4.834770265012541,-0.0001985547278309241,0.23720936477184296,-1.5830419699298304,9.049065556610003e-05,0.057351190596818924,0.6566081643104553,0.00022682554845232517,-0.024150598794221878,0.8056886196136475,0.04902617260813713,-0.19167596101760864
880.0,906.0,2.1398,0.3194,9.344,-0.0299,0.1399,-0.0794,-1.735495229760641,-0.13029199838638306,2.4496958255767822,-1.7873358726501465,0.3296334147453308,2.3956713676452637,4.83474204966382,-9.26098509808071e-05,0.23047202825546265,-1.5830662886248987,8.222326141549274e-05,0.059474311769008636,0.6565724611282349,0.0003758074017241597,-0.027975615113973618,0.8060999512672424,0.04357464611530304,-0.18651190400123596
880.0,906.0,2.1398,0.3194,9.344,-0.0299,0.1399,-0.0794,-1.7365685902037562,-0.14095653593540192,2.458305835723877,-1.7847851514816284,0.3364053964614868,2.491292715072632,4.834726425796308,-0.0002256352308904752,0.23412767052650452,-1.5830257574664515,7.662302232347429e-05,0.0474136620759964,0.6566240787506104,0.0004042969085276127,-0.018843768164515495,0.8064407706260681,0.03833392262458801,-0.2020174264907837
478.0,470.0,1.1581,-0.2931,9.4038,-0.0626,0.233,-0.0777,-1.7377377949156703,-0.1494302749633789,2.4584450721740723,-1.7819592952728271,0.33350372314453125,2.414957284927368,4.834726425796308,-0.0001201948689413257,0.24557499587535858,-1.5830419699298304,7.173696212703362e-05,0.04872828722000122,0.6566562652587891,0.0005956343957222998,-0.022037487477064133,0.8067449927330017,0.03428797423839569,-0.16927462816238403
478.0,470.0,1.1581,-0.2931,9.4038,-0.0626,0.233,-0.0777,-1.7388149700560511,-0.14797112345695496,2.466031789779663,-1.779262661933899,0.34480005502700806,2.407999277114868,4.834746132581987,-4.425222641657456e-07,0.24393296241760254,-1.583017651234762,6.743677658960223e-05,0.04313967376947403,0.6566521525382996,0.0007381144096143544,-0.015771888196468353,0.8069689273834229,0.03328417241573334,-0.1653444766998291
478.0,470.0,1.1581,-0.2931,9.4038,-0.0626,0.233,-0.0777,-1.7400080166258753,-0.1410282850265503,2.477989673614502,-1.7765052318572998,0.3514493405818939,2.4716477394104004,4.8347661448414705,-8.042624725923542e-12,0.24777261912822723,-1.5830825010882776,6.362295243889093e-05,0.03668254613876343,0.6566362380981445,0.0008482681587338448,-0.017263807356357574,0.8072816729545593,0.033437974750995636,-0.2126467078924179
478.0,470.0,1.1581,-0.2931,9.4038,-0.0626,0.233,-0.0777,-1.7412220440306605,-0.15058037638664246,2.459188461303711,-1.7735968828201294,0.3521140217781067,2.4169211387634277,4.834754238813677,-1.461707154673311e-16,0.24934536218643188,-1.583029572163717,6.021744411555119e-05,0.049672674387693405,0.6566760540008545,0.0013104237150400877,-0.002898399718105793,0.8075177669525146,0.03728180751204491,-0.14596718549728394
478.0,470.0,1.1581,-0.2931,9.4038,-0.0626,0.233,-0.0777,-1.7424632511534632,-0.1625622659921646,2.4694907665252686,-1.770695686340332,0.35629919171333313,2.4343721866607666,4.834754298418321,-2.656580606196763e-21,0.2500712275505066,-1.5830257574664515,5.71579766983632e-05,0.03733428567647934,0.6566201448440552,0.0018625053344294429,-0.006249886006116867,0.8078582286834717,0.04307892173528671,-0.14734238386154175
478.0,470.0,1.1581,-0.2931,9.4038,-0.0626,0.233,-0.0777,-1.743765493432516,-0.16376221179962158,2.4535179138183594,-1.7679557800292969,0.3650549054145813,2.467904567718506,4.834741997509756,-4.828203140733781e-26,0.25446534156799316,-1.583033863698141,5.4394393373513594e-05,0.04750116914510727,0.656711757183075,0.004271674435585737,-0.005770645570009947,0.8082022070884705,0.04799538478255272,-0.12796875834465027
478.0,470.0,1.1581,-0.2931,9.4038,-0.0626,0.233,-0.0777,-1.7451111278929652,-0.1601826250553131,2.513882875442505,-1.7650271654129028,0.3675210475921631,2.4701809883117676,4.834770265012541,-8.775021130300785e-31,0.24572168290615082,-1.5830543676959437,5.1885672291973606e-05,0.037027161568403244,0.6567760109901428,0.01140168122947216,-0.0019901692867279053,0.8085423707962036,0.049962278455495834,-0.12718898057937622
478.0,470.0,1.1581,-0.2931,9.4038,-0.0626,0.233,-0.0777,-1.7464848957457484,-0.16737191379070282,2.499764919281006,-1.7621299028396606,0.3628195822238922,2.483879804611206,4.834753955691614,-1.5948166612093028e-35,0.2519201636314392,-1.583050552998678,2.51403635047609e-05,0.026564916595816612,0.6568911075592041,0.004497796297073364,-4.4018030166625977e-05,0.8090152740478516,0.05231441929936409,-0.16583840548992157
478.0,470.0,1.1581,-0.2931,9.4038,-0.0626,0.233,-0.0777,-1.7479669056334437,-0.1891331821680069,2.509105920791626,-1.759243130683899,0.3693774342536926,2.4999663829803467,4.834718185454168,-2.8985017955480246e-40,0.2704891562461853,-1.583033863698141,4.5691367356326396e-10,0.030510112643241882,0.6568511724472046,0.0003781098348554224,-0.009941115975379944,0.8094637989997864,0.05570279434323311,-0.12861193716526031
478.0,470.0,1.1581,-0.2931,9.4038,-0.0626,0.233,-0.0777,-1.7494484386839808,-0.19003379344940186,2.484482765197754,-1.7563101053237915,0.3684152364730835,2.4950642585754395,4.834730136185446,-5.605193857299268e-45,0.25495216250419617,-1.583017651234762,8.304180571807283e-15,0.027629582211375237,0.6567953824996948,-0.00015368052117992193,-0.023731300607323647,0.8098596334457397,0.05724624544382095,-0.15707144141197205
478.0,470.0,1.1581,-0.2931,9.4038,-0.0626,0.233,-0.0777,-1.751066347161764,-0.1818985641002655,2.4853529930114746,-1.7533568143844604,0.3681085407733917,2.4608922004699707,4.834730084031381,-0.0,0.25105640292167664,-1.583029572163717,1.50924388961402e-19,0.04976857081055641,0.6568191051483154,-9.299156226916239e-05,-0.003276434727013111,0.8103275299072266,0.05679422244429588,-0.08499044179916382
317.0,305.0,1.1629,0.4056,8.9605,-0.0609,0.1571,-0.0903,-1.7526442013182582,-0.19509223103523254,2.5585250854492188,-1.7504205703735352,0.3618001639842987,2.4927263259887695,4.834722283273496,-0.0,0.24160075187683105,-1.583033863698141,2.7429764553213418e-24,0.022709878161549568,0.6568431258201599,-6.577649037353694e-05,0.0011454873019829392,0.8108161687850952,0.056120701134204865,-0.0973936915397644
317.0,305.0,1.1629,0.4056,8.9605,-0.0609,0.1571,-0.0903,-1.7543031177916468,-0.2173233926296234,2.525930404663086,-1.7474807500839233,0.3581017255783081,2.44156551361084,4.834754231363096,-0.0,0.2438637614250183,-1.5830581823932093,4.985225123916396e-29,0.0368233323097229,0.6568432450294495,-5.089063779450953e-05,0.0071862125769257545,0.8112845420837402,0.05390473082661629,-0.13058748841285706
317.0,305.0,1.1629,0.4056,8.9605,-0.0609,0.1571,-0.0903,-1.756028791467184,-0.2090335488319397,2.511514186859131,-1.7445759773254395,0.35638517141342163,2.5213449001312256,4.834726038366117,-0.0,0.2588210105895996,-1.583017651234762,9.060399133806217e-34,0.04834245145320892,0.6567953824996948,-4.150082168052904e-05,-0.004573142156004906,0.8116928935050964,0.04744942486286163,-0.13325347006320953
317.0,305.0,1.1629,0.4056,8.9605,-0.0609,0.1571,-0.0903,-1.7576505146422328,-0.20314793288707733,2.52527117729187,-1.7416632175445557,0.3553834557533264,2.476524829864502,4.834742034762659,-0.0,0.2589968144893646,-1.5830019156085413,1.6466826410096644e-38,0.02639036253094673,0.6568593382835388,-3.503693369566463e-05,-0.0017436050111427903,0.8120735287666321,0.041758738458156586,-0.07107782363891602
317.0,305.0,1.1629,0.4056,8.9605,-0.0609,0.1571,-0.0903,-1.7593370876707972,-0.21878716349601746,2.5754551887512207,-1.7389230728149414,0.35021859407424927,2.482067584991455,4.834758426039972,-0.0,0.2613958716392517,-1.583062473927633,2.9987787136551085e-43,0.02917848899960518,0.6568151116371155,-3.0315513868117705e-05,0.0012549892999231815,0.8123932480812073,0.04255376383662224,-0.13143706321716309
317.0,305.0,1.1629,0.4056,8.9605,-0.0609,0.1571,-0.0903,-1.761078496972555,-0.21892301738262177,2.607300043106079,-1.736124873161316,0.3452102243900299,2.4764394760131836,4.834714132338323,-0.0,0.2625354528427124,-1.5830581823932093,0.0,0.03703552857041359,0.6568471193313599,-2.671557740541175e-05,-0.006043202709406614,0.812705397605896,0.04495998099446297,-0.1072627454996109
317.0,305.0,1.1629,0.4056,8.9605,-0.0609,0.1571,-0.0903,-1.7631570301451625,-0.21427619457244873,2.5680549144744873,-1.7327231168746948,0.3431595265865326,2.482149124145508,4.834738294571199,-0.0,0.2689184248447418,-1.5830095450030726,0.0,0.034737106412649155,0.6568350791931152,-2.326264620933216e-05,-0.017882846295833588,0.8131781816482544,0.04734580218791962,-0.10828542709350586
317.0,305.0,1.1629,0.4056,8.9605,-0.0609,0.1571,-0.0903,-1.764895578423971,-0.21591787040233612,2.585737943649292,-1.7299906015396118,0.3429202735424042,2.476290225982666,4.834758433490553,-0.0,0.2651929557323456,-1.583029572163717,0.0,0.031680259853601456,0.6568151116371155,-2.771867229967029e-06,-0.007052069529891014,0.8135342001914978,0.04868122935295105,-0.0951559767127037
317.0,305.0,1.1629,0.4056,8.9605,-0.0609,0.1571,-0.0903,-1.766625543633932,-0.2177567034959793,2.561798095703125,-1.7272803783416748,0.3380306661128998,2.4243972301483154,4.834685872286119,-0.0,0.26750731468200684,-1.5830100218402308,0.0,0.03426801785826683,0.6567913293838501,-5.037731690138436e-11,0.008417211472988129,0.8139220476150513,0.050659939646720886,-0.10566437244415283
317.0,305.0,1.1629,0.4056,8.9605,-0.0609,0.1571,-0.0903,-1.7682849369444789,-0.2228161096572876,2.530949115753174,-1.7246159315109253,0.3380184471607208,2.5155811309814453,4.834758411138811,-0.0,0.2493973672389984,-1.583033863698141,0.0,0.02772963047027588,0.6568593978881836,-9.155827942799988e-16,0.005979687906801701,0.8143875002861023,0.05091824755072594,-0.1275855004787445
317.0,305.0,1.1629,0.4056,8.9605,-0.0609,0.1571,-0.0903,-1.77000155071401,-0.22591464221477509,2.5497212409973145,-1.721941590309143,0.3307473659515381,2.4632227420806885,4.834694112628259,-0.0,0.24868154525756836,-1.5830257574664515,0.0,0.042705386877059937,0.6568713188171387,-1.664026475134568e-20,-0.012059824541211128,0.8147634863853455,0.05154776945710182,-0.10172632336616516
272.0,270.0,0.984,0.8913,9.4361,-0.0292,0.1075,-0.0916,-1.7717634640135707,-0.22349317371845245,2.579989194869995,-1.7192575931549072,0.3282890021800995,2.470686435699463,4.834754246264257,-0.0,0.25332918763160706,-1.5830419699298304,0.0,0.044744446873664856,0.6568431258201599,-3.0242861276678045e-25,-0.004322547931224108,0.8151556849479675,0.05186164379119873,-0.1115439310669899
272.0,270.0,0.984,0.8913,9.4361,-0.0292,0.1075,-0.0916,-1.7736178837218226,-0.23074452579021454,2.5682995319366455,-1.7166175842285156,0.3279027044773102,2.450305223464966,4.834762106626787,-0.0,0.2600431740283966,-1.5829976240741175,0.0,0.04714980721473694,0.6568593382835388,-5.496491213823492e-30,-0.018225980922579765,0.8155598640441895,0.05301298573613167,-0.1640438735485077
272.0,270.0,0.984,0.8913,9.4361,-0.0292,0.1075,-0.0916,-1.775457044641012,-0.22601141035556793,2.580864906311035,-1.7139661312103271,0.32727310061454773,2.4241981506347656,4.83473418930129,-0.0,0.2534562051296234,-1.5830705801593226,0.0,0.04229450225830078,0.6568431258201599,-9.989602392958532e-35,0.0022134333848953247,0.8160285949707031,0.053757261484861374,-0.1387142539024353
272.0,270.0,0.984,0.8913,9.4361,-0.0292,0.1075,-0.0916,-1.7772509060301722,-0.2265041023492813,2.623931407928467,-1.7113525867462158,0.32498326897621155,2.4245314598083496,4.834710034518995,-0.0,0.25739264488220215,-1.5829933325396937,0.0,0.044601086527109146,0.6568350791931152,-1.815561526736234e-39,-0.007778671570122242,0.8164287209510803,0.04973684623837471,-0.11005277931690216
272.0,270.0,0.984,0.8913,9.4361,-0.0292,0.1075,-0.0916,-1.7791701755919398,-0.24029383063316345,2.5553832054138184,-1.708805799484253,0.3238442540168762,2.420171022415161,4.834730113833704,-0.0,0.24953782558441162,-1.5830543676959437,0.0,0.04206334799528122,0.6567993760108948,-3.363116314379561e-44,-0.016477148979902267,0.8167685866355896,0.04362976551055908,-0.09205037355422974
272.0,270.0,0.984,0.8913,9.4361,-0.0292,0.1075,-0.0916,-1.7811128101744593,-0.2395586520433426,2.644029140472412,-1.7062129974365234,0.3257499933242798,2.4310302734375,4.83477812537507,-0.0,0.2533873915672302,-1.5830743948565882,0.0,0.03651941940188408,0.6568113565444946,-0.0,0.001549901207908988,0.817101240158081,0.03766494616866112,-0.13388113677501678
272.0,270.0,0.984,0.8913,9.4361,-0.0292,0.1075,-0.0916,-1.7831078968443812,-0.23779085278511047,2.5948305130004883,-1.703661561012268,0.32859280705451965,2.4856412410736084,4.834730113833704,0.00010248991020489484,0.2589145600795746,-1.583033863698141,0.0,0.04013855755329132,0.6568511128425598,-0.0,-0.0006634981255047023,0.8173527121543884,0.031996529549360275,-0.13608317077159882
272.0,270.0,0.984,0.8913,9.4361,-0.0292,0.1075,-0.0916,-1.7850667438902796,-0.2506374716758728,2.6221885681152344,-1.7010304927825928,0.32279542088508606,2.407513380050659,4.834730113833704,8.395299664698541e-05,0.2467585802078247,-1.5830581823932093,0.0,0.040353380143642426,0.6568272113800049,-0.0,0.0009020534926094115,0.8176454305648804,0.02997630462050438,-0.14358073472976685
272.0,270.0,0.984,0.8913,9.4361,-0.0292,0.1075,-0.0916,-1.7870899639525355,-0.24798369407653809,2.5937085151672363,-1.6983613967895508,0.3311549723148346,2.4863336086273193,4.834730113833704,0.00010612024198053405,0.26184919476509094,-1.583033863698141,0.0,0.03159760311245918,0.6567953824996948,-0.0,-0.006844359450042248,0.8178611993789673,0.028883030638098717,-0.1199912279844284
272.0,270.0,0.984,0.8913,9.4361,-0.0292,0.1075,-0.0916,-1.7890521488585414,-0.2440873384475708,2.675896644592285,-1.6958374977111816,0.3279164433479309,2.4501471519470215,4.834750185697832,-6.5878193709068e-05,0.2528228163719177,-1.5830825010882776,0.0,0.0317789763212204,0.6568232178688049,-0.0,-0.006206941790878773,0.8180611729621887,0.028214391320943832,-0.1325860470533371
272.0,270.0,0.984,0.8913,9.4361,-0.0292,0.1075,-0.0916,-1.7910958729186,-0.255168616771698,2.616313934326172,-1.6932296752929688,0.3279435634613037,2.4914560317993164,4.83473418930129,-9.514332487015054e-05,0.2556872069835663,-1.5830219427691858,0.0,0.02961980178952217,0.6568790674209595,-0.0,0.0005752723664045334,0.8183945417404175,0.028133589774370193,-0.13816577196121216
246.0,246.0,1.1809,0.3434,8.8038,-0.0318,0.0874,-0.1058,-1.7930504284300746,-0.2509233355522156,2.6337993144989014,-1.6905813217163086,0.32143285870552063,2.4404077529907227,4.834746505111017,-0.0001662190625211224,0.25511908531188965,-1.583050552998678,0.0,0.028505723923444748,0.656815230846405,-0.0,-0.004874770529568195,0.8185741901397705,0.02794812060892582,-0.14466121792793274
246.0,246.0,1.1809,0.3434,8.8038,-0.0318,0.0874,-0.1058,-1.795053621331686,-0.25100401043891907,2.6606361865997314,-1.687966227531433,0.3248850703239441,2.442507743835449,4.8347502304013155,-0.00012138478632550687,0.2601657211780548,-1.5830419699298304,0.0,0.027718380093574524,0.6568191647529602,-0.0,0.002001310233026743,0.8187698721885681,0.026534095406532288,-0.15963716804981232
246.0,246.0,1.1809,0.3434,8.8038,-0.0318,0.0874,-0.1058,-1.797560831109518,-0.24847473204135895,2.6728999614715576,-1.684693455696106,0.31844568252563477,2.4516053199768066,4.834689955204286,-0.0001830952533055097,0.26002705097198486,-1.5830748716937464,0.0,0.03798484057188034,0.6568472385406494,-0.0,0.002736179856583476,0.8190181851387024,0.024505162611603737,-0.10330626368522644
246.0,246.0,1.1809,0.3434,8.8038,-0.0318,0.0874,-0.1058,-1.7995277843871058,-0.25066840648651123,2.6990156173706055,-1.6821411848068237,0.31967824697494507,2.4342517852783203,4.834758426039972,-0.00011415290646255016,0.26416024565696716,-1.5830705801593226,0.0,0.03811264410614967,0.656855046749115,-0.0,0.008766978979110718,0.8192427158355713,0.023462628945708275,-0.14396220445632935
246.0,246.0,1.1809,0.3434,8.8038,-0.0318,0.0874,-0.1058,-1.80151428798818,-0.2516648471355438,2.7272191047668457,-1.6795971393585205,0.3140903413295746,2.466367721557617,4.834718192904749,-0.00012949499068781734,0.25334611535072327,-1.5830419699298304,0.0,0.04777047783136368,0.656895101070404,-0.0,0.004309048876166344,0.8194105625152588,0.021227387711405754,-0.1503961682319641
246.0,246.0,1.1809,0.3434,8.8038,-0.0318,0.0874,-0.1058,-1.8034893474974574,-0.2545236349105835,2.674067974090576,-1.67708158493042,0.3139322102069855,2.449920415878296,4.834722268372335,-5.031992986914702e-05,0.24472445249557495,-1.5830257574664515,0.0,0.02909710630774498,0.6568112969398499,-0.0,-0.005320951342582703,0.81959468126297,0.021400172263383865,-0.1528884470462799
246.0,246.0,1.1809,0.3434,8.8038,-0.0318,0.0874,-0.1058,-1.8055483303465785,-0.25945961475372314,2.6797404289245605,-1.6745812892913818,0.31283044815063477,2.4511890411376953,4.8347141844923875,-4.11146720580291e-05,0.23695887625217438,-1.583017651234762,0.0,0.039761703461408615,0.6568351984024048,-0.0,-0.0056465864181518555,0.8197948932647705,0.021783730015158653,-0.1265723705291748
246.0,246.0,1.1809,0.3434,8.8038,-0.0318,0.0874,-0.1058,-1.8076073131956996,-0.25006094574928284,2.6997220516204834,-1.672045111656189,0.31733453273773193,2.4089033603668213,4.83474242219285,-3.476137135294266e-05,0.2505176067352295,-1.5830662886248987,0.0,0.027404112741351128,0.6568390727043152,-0.0,-0.004187311977148056,0.8199470043182373,0.022026222199201584,-0.1614665985107422
246.0,246.0,1.1809,0.3434,8.8038,-0.0318,0.0874,-0.1058,-1.8096462688841761,-0.2578950822353363,2.6855785846710205,-1.669533371925354,0.3136838376522064,2.436798334121704,4.834754261165418,-6.317706913172572e-10,0.2502620816230774,-1.5830219427691858,0.0,0.03926409035921097,0.6567834615707397,-0.0,-0.00040194953908212483,0.8201310038566589,0.022907601669430733,-0.18053245544433594
246.0,246.0,1.1809,0.3434,8.8038,-0.0318,0.0874,-0.1058,-1.81182922939443,-0.2661801874637604,2.6398415565490723,-1.6669366359710693,0.3200197219848633,2.5188071727752686,4.834718192904749,-1.148212113496333e-14,0.25649023056030273,-1.5830381552325647,0.0,0.040460072457790375,0.656863272190094,-0.0,-0.008302045054733753,0.8203234076499939,0.023473413661122322,-0.1688188910484314
246.0,246.0,1.1809,0.3434,8.8038,-0.0318,0.0874,-0.1058,-1.8140331707396449,-0.264367938041687,2.7274117469787598,-1.6643925905227661,0.3177250921726227,2.405142068862915,4.834770265012541,-2.0868187456730795e-19,0.25106188654899597,-1.583033863698141,0.0,0.04044976457953453,0.6568431258201599,-0.0,0.002723083598539233,0.8204832673072815,0.02241681143641472,-0.1648271530866623
246.0,246.0,1.1809,0.3434,8.8038,-0.0318,0.0874,-0.1058,-1.8161798916258753,-0.2764343321323395,2.6887073516845703,-1.6619608402252197,0.3245338499546051,2.4676079750061035,4.834686267166891,-3.792690193287012e-24,0.2531604468822479,-1.5830543676959437,0.0,0.044692620635032654,0.6568472981452942,-0.0,-0.004255789332091808,0.820639431476593,0.021590156480669975,-0.11563721299171448
224.0,224.0,0.7591,0.1765,9.0849,-0.049,0.0767,-0.1165,-1.8183876476683558,-0.269021600484848,2.721508502960205,-1.6593494415283203,0.3184070289134979,2.4119956493377686,4.834705951600828,-6.893027854555195e-29,0.2534043788909912,-1.5830586592303675,0.0,0.04211879521608353,0.6567834615707397,-0.0,0.002104163868352771,0.8207835555076599,0.019436776638031006,-0.12549063563346863
224.0,224.0,0.7591,0.1765,9.0849,-0.049,0.0767,-0.1165,-1.8205539188780726,-0.2664775252342224,2.753209114074707,-1.6567820310592651,0.31977617740631104,2.4540939331054688,4.83473418185071,-1.2527735534972525e-33,0.2500271797180176,-1.5830381552325647,0.0,0.047485582530498505,0.6568471193313599,-0.0,-0.007695370353758335,0.8209964036941528,0.01710614562034607,-0.16186803579330444
224.0,224.0,0.7591,0.1765,9.0849,-0.049,0.0767,-0.1165,-1.8226968250670375,-0.2770979106426239,2.739394187927246,-1.6542704105377197,0.31165528297424316,2.4759361743927,4.834678116231718,-2.2768538471685492e-38,0.24521920084953308,-1.5829857031451624,0.0,0.0397447906434536,0.6568111777305603,-0.0,0.011568586342036724,0.8210998773574829,0.016406672075390816,-0.1775580644607544
224.0,224.0,0.7591,0.1765,9.0849,-0.049,0.0767,-0.1165,-1.824876447717184,-0.2723914682865143,2.6880576610565186,-1.651699185371399,0.3080231845378876,2.3685920238494873,4.8347059590514085,-0.0001537266216473654,0.25233155488967896,-1.5830095450030726,0.0,0.042722638696432114,0.6568672060966492,-0.0,-0.004217946901917458,0.8211758136749268,0.013733811676502228,-0.17013268172740936
224.0,224.0,0.7591,0.1765,9.0849,-0.049,0.0767,-0.1165,-1.8269874058165492,-0.2692238390445709,2.726959228515625,-1.649199366569519,0.304129421710968,2.424558162689209,4.834689955204286,-0.0002628370129968971,0.25706911087036133,-1.5830138365374964,0.0,0.04488588869571686,0.656867265701294,-0.0,-0.005059752147644758,0.8212437033653259,0.008776124566793442,-0.22530539333820343
224.0,224.0,0.7591,0.1765,9.0849,-0.049,0.0767,-0.1165,-1.8290869198241175,-0.25949743390083313,2.8071911334991455,-1.6466953754425049,0.3030891716480255,2.3927550315856934,4.834750185697832,0.00010608416778268293,0.25443360209465027,-1.5830300490008753,0.0,0.028473518788814545,0.6568310856819153,-0.0,0.0007741411682218313,0.8213600516319275,0.006442236248403788,-0.22506605088710785
224.0,224.0,0.7591,0.1765,9.0849,-0.049,0.0767,-0.1165,-1.831158300439352,-0.25981971621513367,2.7789487838745117,-1.6443041563034058,0.2996433675289154,2.449202060699463,4.834698173194685,1.979358756898364e-07,0.23863177001476288,-1.583017651234762,0.0,0.05337752401828766,0.656843364238739,-0.0,0.0026187945622950792,0.8214163184165955,0.00507989339530468,-0.2015760838985443
224.0,224.0,0.7591,0.1765,9.0849,-0.049,0.0767,-0.1165,-1.8331805668272914,-0.2609250545501709,2.798213481903076,-1.641997218132019,0.29785972833633423,2.4531991481781006,4.8347345916326425,3.597386928275159e-12,0.23725202679634094,-1.5830462614642542,0.0,0.05119214951992035,0.6568593382835388,-0.0,-0.00273119006305933,0.8214482665061951,0.004066525027155876,-0.237062007188797
224.0,224.0,0.7591,0.1765,9.0849,-0.049,0.0767,-0.1165,-1.835304399529928,-0.26797088980674744,2.786787986755371,-1.639641523361206,0.2921748459339142,2.4369606971740723,4.834673951357164,6.538073281055063e-17,0.2415028214454651,-1.583033863698141,0.0,0.06897345185279846,0.6567635536193848,-0.0,-0.008298706263303757,0.8214759826660156,0.003637330373749137,-0.20607848465442657
224.0,224.0,0.7591,0.1765,9.0849,-0.049,0.0767,-0.1165,-1.8379456005492152,-0.26593509316444397,2.772517204284668,-1.6366780996322632,0.2955736517906189,2.417541980743408,4.834657634585657,7.758505063011275e-23,0.24575643241405487,-1.5830543676959437,0.0,0.06367893517017365,0.6568672060966492,-0.0,-0.0026344710495322943,0.8215162754058838,0.003091980703175068,-0.21508873999118805
224.0,224.0,0.7591,0.1765,9.0849,-0.049,0.0767,-0.1165,-1.8399912319579066,-0.260733425617218,2.7980053424835205,-1.6343183517456055,0.2945408821105957,2.357123851776123,4.83473418930129,1.410070186562098e-27,0.2383563369512558,-1.5830705801593226,0.0,0.051295965909957886,0.6568430662155151,-0.0,-0.0024620001204311848,0.821544349193573,0.0022710480261594057,-0.24139979481697083
211.0,207.0,1.0887,0.4726,9.6999,-0.0302,0.0235,-0.1202,-1.842222353021139,-0.2735259234905243,2.7713141441345215,-1.631982684135437,0.298189252614975,2.430108070373535,4.834689955204286,2.5627328500468953e-32,0.24332039058208466,-1.5830019156085413,0.0,0.04340507090091705,0.656843364238739,-0.0,-0.0012135710567235947,0.8215520977973938,0.003345598466694355,-0.2495919018983841
211.0,207.0,1.0887,0.4726,9.6999,-0.0302,0.0235,-0.1202,-1.8444935284056605,-0.26755860447883606,2.8348257541656494,-1.6295956373214722,0.30443957448005676,2.4377477169036865,4.834682169347563,4.65764121670893e-37,0.24351122975349426,-1.583033863698141,0.0,0.049464695155620575,0.6568474173545837,-0.0,0.004528332501649857,0.8215758800506592,0.004385830834507942,-0.2960766553878784
211.0,207.0,1.0887,0.4726,9.6999,-0.0302,0.0235,-0.1202,-1.846731802026266,-0.2844662368297577,2.8056416511535645,-1.627184271812439,0.29584866762161255,2.3856728076934814,4.834710109024801,8.46524402298622e-42,0.24707862734794617,-1.5830262343036097,0.0,0.04881395399570465,0.6568431258201599,-0.0,-0.005432428326457739,0.8216198086738586,0.004232367035001516,-0.2501280903816223
211.0,207.0,1.0887,0.4726,9.6999,-0.0302,0.0235,-0.1202,-1.849086423913473,-0.28802213072776794,2.7815306186676025,-1.6247329711914062,0.2993597686290741,2.4380836486816406,4.834726425796308,0.0,0.23707914352416992,-1.5830019156085413,0.0,0.04851151257753372,0.6568311452865601,-0.0,-0.009335816837847233,0.8217124342918396,0.0048059867694973946,-0.2011256217956543
211.0,207.0,1.0887,0.4726,9.6999,-0.0302,0.0235,-0.1202,-1.8513685665526332,-0.2782823145389557,2.821157932281494,-1.6223403215408325,0.2942110598087311,2.3780159950256348,4.834689955204286,0.0,0.24509412050247192,-1.583017651234762,0.0,0.04587133973836899,0.6568870544433594,-0.0,-0.00017495686188340187,0.8217445611953735,0.004866877570748329,-0.2709888815879822
211.0,207.0,1.0887,0.4726,9.6999,-0.0302,0.0235,-0.1202,-1.8535839519896449,-0.2842690348625183,2.8212692737579346,-1.619997262954712,0.2926092743873596,2.430079936981201,4.834746512561598,0.0,0.2321282923221588,-1.5830262343036097,0.0,0.05133214220404625,0.6568830609321594,-0.0,-0.005723531357944012,0.8217521905899048,0.005243296734988689,-0.2211761176586151
211.0,207.0,1.0887,0.4726,9.6999,-0.0302,0.0235,-0.1202,-1.855814119378561,-0.28038543462753296,2.8724496364593506,-1.6176785230636597,0.28361865878105164,2.3613181114196777,4.8347665173705,0.0,0.24394549429416656,-1.5830543676959437,0.0,0.04012872651219368,0.6568232774734497,-0.0,-0.0005309977568686008,0.8217398524284363,0.005871286615729332,-0.2829625606536865
211.0,207.0,1.0887,0.4726,9.6999,-0.0302,0.0235,-0.1202,-1.8580810032286585,-0.28376075625419617,2.8299269676208496,-1.6154061555862427,0.2819634675979614,2.388561964035034,4.834689955204286,0.0,0.2541113495826721,-1.5830019156085413,0.0,0.046182967722415924,0.65683513879776,-0.0,-0.0004122762766201049,0.8217958211898804,0.005912882275879383,-0.21899452805519104
211.0,207.0,1.0887,0.4726,9.6999,-0.0302,0.0235,-0.1202,-1.8602434597411097,-0.27682024240493774,2.9490089416503906,-1.6132112741470337,0.27617451548576355,2.3446216583251953,4.834718192904749,0.0,0.23757825791835785,-1.5830662886248987,0.0,0.04818321764469147,0.6568512916564941,-0.0,0.0032869945280253887,0.8218523859977722,0.004883187357336283,-0.21284446120262146
211.0,207.0,1.0887,0.4726,9.6999,-0.0302,0.0235,-0.1202,-1.8623901806273402,-0.26954537630081177,2.8651487827301025,-1.611039400100708,0.2778077721595764,2.375217914581299,4.83474242219285,0.0,0.24175655841827393,-1.5830462614642542,0.0,0.055852070450782776,0.6569029688835144,-0.0,-0.016199586912989616,0.821884274482727,0.003741634078323841,-0.22199785709381104
211.0,207.0,1.0887,0.4726,9.6999,-0.0302,0.0235,-0.1202,-1.8645364246764125,-0.26758676767349243,2.8991894721984863,-1.6088789701461792,0.274495393037796,2.411820411682129,4.834694112628259,0.0,0.23425766825675964,-1.582989517842428,0.0,0.04751121997833252,0.6568871140480042,-0.0,0.004720614291727543,0.8219121694564819,0.0033337397035211325,-0.2252655327320099
