ramyac6/ROB537/final_project/csv/all/good_41.csv
tof_0,tof_1,accelx,accely,accelz,gyrox,gyroy,gyroz,shoulder_lift_joint_position,shoulder_lift_joint_velocity,shoulder_lift_joint_effort,elbow_joint_position,elbow_joint_velocity,elbow_joint_effort,wrist_1_joint_position,wrist_1_joint_velocity,wrist_1_joint_effort,wrist_2_joint_position,wrist_2_joint_velocity,wrist_2_joint_effort,wrist_3_joint_position,wrist_3_joint_velocity,wrist_3_joint_effort,shoulder_pan_joint_position,shoulder_pan_joint_velocity,shoulder_pan_joint_effort
269.0,293.0,1.5775,-0.2644,9.3517,-0.0272,0.0171,-0.1103,-1.752385755578512,0.0,2.9043169021606445,-1.7434470653533936,-0.0,2.0786614418029785,4.8206695196922205,0.0,0.292331725358963,-1.531837288533346,0.0,-0.016779419034719467,0.7811920642852783,0.0,0.004577294923365116,0.9431267380714417,0.0,0.0310205165296793
269.0,293.0,1.5775,-0.2644,9.3517,-0.0272,0.0171,-0.1103,-1.7524415455260218,0.0,2.8951210975646973,-1.743386149406433,-0.0,2.0502798557281494,4.820665347367086,0.0,0.2990138530731201,-1.5318449179278772,0.0,-0.01866871304810047,0.781207799911499,0.0,0.002183500910177827,0.9431390166282654,0.0,0.021227974444627762
269.0,293.0,1.5775,-0.2644,9.3517,-0.0272,0.0171,-0.1103,-1.7523895702757777,0.0,2.8928112983703613,-1.7433819770812988,-0.0,2.059677839279175,4.820649015694418,0.0,0.2877022624015808,-1.5318449179278772,0.0,0.004136341158300638,0.7812442779541016,0.0,0.00987367331981659,0.9430906772613525,0.0,-0.02681352011859417
269.0,293.0,1.5775,-0.2644,9.3517,-0.0272,0.0171,-0.1103,-1.7524501285948695,0.0,2.869684934616089,-1.743394374847412,-0.0,2.121154308319092,4.820641267090597,0.0,0.2823757827281952,-1.5318449179278772,0.0,-0.016994331032037735,0.7811999917030334,0.0,0.006464669946581125,0.9431549906730652,0.0,0.03316091373562813
269.0,293.0,1.5775,-0.2644,9.3517,-0.0272,0.0171,-0.1103,-1.7524095974364222,0.0,2.816486358642578,-1.7433819770812988,-0.0,2.0892438888549805,4.820677663176813,0.0,0.2820775806903839,-1.5318568388568323,0.0,-0.017074789851903915,0.7811558246612549,0.0,0.0032653817906975746,0.9431590437889099,0.0,-0.05159284174442291
269.0,293.0,1.5775,-0.2644,9.3517,-0.0272,0.0171,-0.1103,-1.7524501285948695,0.0,2.828866481781006,-1.7433695793151855,-0.0,2.056610584259033,4.820645357459345,0.0,0.2893364131450653,-1.5318449179278772,0.0,-0.005881401710212231,0.7812037467956543,0.0,-0.005283889826387167,0.9430943727493286,0.0,-0.018616391345858574
269.0,293.0,1.5775,-0.2644,9.3517,-0.0272,0.0171,-0.1103,-1.7524382076659144,0.0,2.885442018508911,-1.743370532989502,-0.0,2.0352888107299805,4.820673610060968,0.0,0.29100561141967773,-1.5318291823016565,0.0,-0.0060521503910422325,0.781211793422699,0.0,-0.0012916182167828083,0.9431066513061523,0.0,0.004747566767036915
269.0,293.0,1.5775,-0.2644,9.3517,-0.0272,0.0171,-0.1103,-1.7524744472899378,0.0,2.854607582092285,-1.7433984279632568,-0.0,2.09224796295166,4.820625270694055,0.0,0.29158836603164673,-1.5318611303912562,0.0,-0.001787316519767046,0.7812361717224121,0.0,-0.0207800455391407,0.9431185126304626,0.0,0.024555012583732605
264.0,292.0,1.5308,-0.3254,9.3787,-0.0237,0.0231,-0.1092,-1.7524095974364222,0.0,2.831961154937744,-1.7433737516403198,-0.0,2.1123971939086914,4.8206572783883,0.0,0.2934842109680176,-1.5318811575519007,0.0,-0.016541238874197006,0.7812198996543884,0.0,-0.010858823545277119,0.9430661201477051,0.0,-0.00484292721375823
264.0,292.0,1.5308,-0.3254,9.3787,-0.0237,0.0231,-0.1092,-1.7524744472899378,0.0,2.880596399307251,-1.7434027194976807,-0.0,2.0393893718719482,4.820645350008764,0.0,0.2917046546936035,-1.5318291823016565,0.0,-0.01837788335978985,0.7812280654907227,0.0,0.0048484960570931435,0.9431149363517761,0.0,0.02229464426636696
264.0,292.0,1.5308,-0.3254,9.3787,-0.0237,0.0231,-0.1092,-1.7524458370604457,0.0,2.8770854473114014,-1.7434182167053223,-0.0,2.0764987468719482,4.820609244495191,0.0,0.2944585084915161,-1.5318415800677698,0.0,-0.003278504591435194,0.7811239957809448,0.0,-0.0028788510244339705,0.9431143999099731,0.0,0.03417890518903732
264.0,292.0,1.5308,-0.3254,9.3787,-0.0237,0.0231,-0.1092,-1.7524100742735804,0.0,2.8458476066589355,-1.7434027194976807,-0.0,2.0816171169281006,4.820617045253076,0.0,0.3023705780506134,-1.5318449179278772,0.0,-0.01114885788410902,0.7811799049377441,0.0,0.0018893750384449959,0.9431267380714417,0.0,0.006987596862018108
264.0,292.0,1.5308,-0.3254,9.3787,-0.0237,0.0231,-0.1092,-1.752413888970846,0.0,2.8200325965881348,-1.743394374847412,-0.0,2.0772323608398438,4.820629398315706,0.0,0.29393813014030457,-1.53186542192568,0.0,-0.019789155572652817,0.7812442779541016,0.0,0.0037989546544849873,0.9431066513061523,0.0,0.004243033938109875
264.0,292.0,1.5308,-0.3254,9.3787,-0.0237,0.0231,-0.1092,-1.7524382076659144,0.0,2.8438315391540527,-1.7433664798736572,-0.0,2.0666635036468506,4.820673580258646,0.0,0.2953440546989441,-1.5318329969989222,0.0,-0.006828587967902422,0.7812639474868774,0.0,-0.00815963838249445,0.9431430101394653,0.0,0.026852192357182503
264.0,292.0,1.5308,-0.3254,9.3787,-0.0237,0.0231,-0.1092,-1.7524663410582484,0.0,2.853285789489746,-1.743386149406433,-0.0,2.092118501663208,4.820637199073591,0.0,0.3011610209941864,-1.531877342854635,0.0,-0.01820395141839981,0.7812238931655884,0.0,0.00853373296558857,0.9431267380714417,0.0,0.03118308261036873
264.0,292.0,1.5308,-0.3254,9.3787,-0.0237,0.0231,-0.1092,-1.7524663410582484,0.0,2.7913193702697754,-1.7433655261993408,-0.0,2.1101341247558594,4.82063719162301,0.0,0.2939435541629791,-1.53186542192568,0.0,-0.0090941758826375,0.7811920046806335,0.0,-0.0030481794383376837,0.9430943131446838,0.0,-0.025961894541978836
264.0,292.0,1.5308,-0.3254,9.3787,-0.0237,0.0231,-0.1092,-1.7524339161314906,0.0,2.921121835708618,-1.7433346509933472,-0.0,2.070589542388916,4.820612954884329,0.0,0.28870147466659546,-1.5318248907672327,0.0,-0.016139358282089233,0.7811757922172546,0.0,0.0061676353216171265,0.9430906772613525,0.0,0.007560560945421457
264.0,292.0,1.5308,-0.3254,9.3787,-0.0237,0.0231,-0.1092,-1.7524501285948695,0.0,2.857527732849121,-1.743377923965454,-0.0,2.0974106788635254,4.820629346161642,0.0,0.3060792088508606,-1.5318172613727015,0.0,-0.013839507475495338,0.7812678813934326,0.0,-0.002907141577452421,0.9430947303771973,0.0,0.02397129498422146
264.0,292.0,1.5308,-0.3254,9.3787,-0.0237,0.0231,-0.1092,-1.7523938618102015,0.0,2.882463216781616,-1.7433902025222778,-0.0,2.0711922645568848,4.820645357459345,0.0,0.2987740635871887,-1.5318568388568323,0.0,-0.010648409835994244,0.7812159061431885,0.0,-0.0013170251622796059,0.9431226253509521,0.0,-0.018526827916502953
264.0,292.0,1.5308,-0.3254,9.3787,-0.0237,0.0231,-0.1092,-1.752413888970846,0.0,2.902052879333496,-1.743377923965454,-0.0,2.1308646202087402,4.820609274297514,0.0,0.30080559849739075,-1.53186542192568,0.0,-0.018004465848207474,0.7811596989631653,0.0,-0.013842787593603134,0.9431226253509521,0.0,-0.006311798933893442
264.0,292.0,1.5308,-0.3254,9.3787,-0.0237,0.0231,-0.1092,-1.7524262867369593,0.0,2.8266043663024902,-1.743394374847412,-0.0,2.058891773223877,4.820657703071394,0.0,0.2983604669570923,-1.5318811575519007,0.0,-0.004072811454534531,0.7812361717224121,0.0,-0.004385011270642281,0.9430947303771973,0.0,0.0037669679149985313
264.0,292.0,1.5308,-0.3254,9.3787,-0.0237,0.0231,-0.1092,-1.7524625263609828,0.0,2.87697172164917,-1.7433744668960571,-0.0,2.088427782058716,4.820645335107603,0.0,0.2812458872795105,-1.5318568388568323,0.0,-0.020182576030492783,0.7812319993972778,0.0,-0.007642080076038837,0.9431473016738892,0.0,-0.013454200699925423
262.0,285.0,1.4483,-0.4032,9.6867,-0.0312,0.0111,-0.1093,-1.7524177036681117,0.0,2.9008078575134277,-1.7433631420135498,-0.0,2.0926308631896973,4.820653612702646,0.0,0.3006870746612549,-1.531853500996725,0.0,-0.011987267062067986,0.7812401652336121,0.0,-0.006392443552613258,0.9431066513061523,0.0,0.029440801590681076
262.0,285.0,1.4483,-0.4032,9.6867,-0.0312,0.0111,-0.1093,-1.7524501285948695,0.0,2.840179443359375,-1.743377923965454,-0.0,2.103694438934326,4.820617000549593,0.0,0.29801827669143677,-1.531853500996725,0.0,-0.021039795130491257,0.7812240719795227,0.0,-0.007407726254314184,0.9431309103965759,0.0,-0.006517490372061729
262.0,285.0,1.4483,-0.4032,9.6867,-0.0312,0.0111,-0.1093,-1.7524219952025355,0.0,2.8732118606567383,-1.7434461116790771,-0.0,2.074397325515747,4.820625255792894,0.0,0.29717326164245605,-1.5318568388568323,0.0,-0.010324280709028244,0.7812160849571228,0.0,-0.009996823966503143,0.9431226253509521,0.0,-0.008244635537266731
262.0,285.0,1.4483,-0.4032,9.6867,-0.0312,0.0111,-0.1093,-1.752401968041891,0.0,2.871798276901245,-1.7434749603271484,-0.0,2.085258722305298,4.820621225028791,0.0,0.3000345230102539,-1.5318291823016565,0.0,-0.013830422423779964,0.7811840772628784,0.0,-0.006298673339188099,0.9431430101394653,0.0,-0.014490560628473759
262.0,285.0,1.4483,-0.4032,9.6867,-0.0312,0.0111,-0.1093,-1.7524177036681117,0.0,2.8403639793395996,-1.7434067726135254,-0.0,2.0834803581237793,4.820641267090597,0.0,0.30257076025009155,-1.5318129698382776,0.0,-0.008791417814791203,0.7812198996543884,0.0,-0.008175968192517757,0.9431149363517761,0.0,-0.0004602009430527687
262.0,285.0,1.4483,-0.4032,9.6867,-0.0312,0.0111,-0.1093,-1.7524296245970667,0.0,2.843135356903076,-1.7434109449386597,-0.0,2.0643489360809326,4.820628921478548,0.0,0.30067017674446106,-1.531853500996725,0.0,-0.01615523174405098,0.781207799911499,0.0,0.00010884192306548357,0.9431307315826416,0.0,0.016601063311100006
262.0,285.0,1.4483,-0.4032,9.6867,-0.0312,0.0111,-0.1093,-1.7524057827391566,0.0,2.8691437244415283,-1.743394374847412,-0.0,2.108142375946045,4.820633034199037,0.0,0.29127126932144165,-1.5318854490863245,0.0,-0.015635434538125992,0.7812198996543884,0.0,0.0029555882792919874,0.9430906176567078,0.0,0.044494371861219406
262.0,285.0,1.4483,-0.4032,9.6867,-0.0312,0.0111,-0.1093,-1.7524177036681117,0.0,2.8842005729675293,-1.7433624267578125,-0.0,2.0808351039886475,4.820661368757047,0.0,0.2957417368888855,-1.53186542192568,0.0,-0.003155797254294157,0.7812079787254333,0.0,-0.006309599615633488,0.943045973777771,0.0,0.014726316556334496
262.0,285.0,1.4483,-0.4032,9.6867,-0.0312,0.0111,-0.1093,-1.7524100742735804,0.0,2.8534138202667236,-1.7434264421463013,-0.0,2.0452327728271484,4.8206572783883,0.0,0.28710123896598816,-1.5318415800677698,0.0,-0.017712634056806564,0.7811518907546997,0.0,-0.003638837020844221,0.9431307315826416,0.0,-0.05808570235967636
262.0,285.0,1.4483,-0.4032,9.6867,-0.0312,0.0111,-0.1093,-1.7524296245970667,0.0,2.881328821182251,-1.7433737516403198,-0.0,2.070399522781372,4.820653188019552,0.0,0.2874681055545807,-1.5318449179278772,0.0,0.0015633199363946915,0.7811679840087891,0.0,-0.00931227020919323,0.9430661201477051,0.0,0.02140977419912815
262.0,285.0,1.4483,-0.4032,9.6867,-0.0312,0.0111,-0.1093,-1.7525068722166957,0.0,2.8787693977355957,-1.7433903217315674,-0.0,2.062122344970703,4.820641267090597,0.0,0.30280667543411255,-1.531849209462301,0.0,-0.014731533825397491,0.7812239527702332,0.0,-0.0028654765337705612,0.9430906772613525,0.0,-0.0003467518836259842
262.0,285.0,1.4483,-0.4032,9.6867,-0.0312,0.0111,-0.1093,-1.7524944744505824,0.0,2.8678340911865234,-1.7434067726135254,-0.0,2.089175224304199,4.820633004396715,0.0,0.28199541568756104,-1.5318730513202112,0.0,-0.019582711160182953,0.7811840772628784,0.0,-0.010279852896928787,0.9431267380714417,0.0,0.0029809530824422836
262.0,285.0,1.4483,-0.4032,9.6867,-0.0312,0.0111,-0.1093,-1.7523976765074671,0.0,2.902318000793457,-1.7433737516403198,-0.0,2.096468687057495,4.8206695196922205,0.0,0.2877447009086609,-1.5318172613727015,0.0,-0.007264563348144293,0.7812361717224121,0.0,0.0003483408363536,0.9431107640266418,0.0,-0.031601618975400925
262.0,285.0,1.4483,-0.4032,9.6867,-0.0312,0.0111,-0.1093,-1.7523976765074671,0.0,2.8319101333618164,-1.743386149406433,-0.0,2.0784475803375244,4.820673610060968,0.0,0.30219078063964844,-1.531877342854635,0.0,-0.020066076889634132,0.781220018863678,0.0,0.004938058089464903,0.9431226253509521,0.0,-0.008198730647563934
262.0,285.0,1.4483,-0.4032,9.6867,-0.0312,0.0111,-0.1093,-1.7524744472899378,0.0,2.85740065574646,-1.7434109449386597,-0.0,2.0922346115112305,4.820617000549593,0.0,0.2957575023174286,-1.53186542192568,0.0,-0.017394600436091423,0.7812280058860779,0.0,-0.002566708717495203,0.9430947303771973,0.0,-0.0031462369952350855
265.0,291.0,1.5571,-0.3416,9.3434,-0.0357,0.0228,-0.1162,-1.7523933849730433,0.0,2.8485231399536133,-1.7434109449386597,-0.0,2.1132378578186035,4.820625255792894,0.0,0.3020687401294708,-1.5318530241595667,0.0,-0.014358501881361008,0.7812760472297668,0.0,-0.0058985548093914986,0.9431025981903076,0.0,0.02188168093562126
265.0,291.0,1.5571,-0.3416,9.3434,-0.0357,0.0228,-0.1162,-1.7524262867369593,0.0,2.8590314388275146,-1.7434067726135254,-0.0,2.102001667022705,4.820673610060968,0.0,0.2933036684989929,-1.5318735281573694,0.0,-0.016176125034689903,0.7811519503593445,0.0,-0.009958311915397644,0.9430661201477051,0.0,-0.03127506375312805
265.0,291.0,1.5571,-0.3416,9.3434,-0.0357,0.0228,-0.1162,-1.7524057827391566,0.0,2.890516757965088,-1.7434067726135254,-0.0,2.035625457763672,4.820681783347883,0.0,0.28472843766212463,-1.531877342854635,0.0,-0.035686153918504715,0.781216025352478,0.0,0.012924186885356903,0.9431307315826416,0.0,-0.0038758525624871254
265.0,291.0,1.5571,-0.3416,9.3434,-0.0357,0.0228,-0.1162,-1.75244202236318,0.0,2.8261938095092773,-1.7434428930282593,-0.0,2.0802154541015625,4.820633004396715,0.0,0.30517005920410156,-1.531853500996725,0.0,-0.020869629457592964,0.7812279462814331,0.0,0.001880365889519453,0.9431066513061523,0.0,-0.043786026537418365
265.0,291.0,1.5571,-0.3416,9.3434,-0.0357,0.0228,-0.1162,-1.7524219952025355,0.0,2.8139657974243164,-1.743398666381836,-0.0,2.083909511566162,4.820681783347883,0.0,0.2935407757759094,-1.5318611303912562,0.0,0.0008409670554101467,0.7811758518218994,0.0,0.0010862717172130942,0.9431107044219971,0.0,0.026008404791355133
265.0,291.0,1.5571,-0.3416,9.3434,-0.0357,0.0228,-0.1162,-1.7524501285948695,0.0,2.858579158782959,-1.743377923965454,-0.0,2.0554821491241455,4.820629346161642,0.0,0.2876970171928406,-1.5318892637835901,0.0,-0.015963459387421608,0.7812038660049438,0.0,-0.007659007329493761,0.9431549906730652,0.0,0.004270242527127266
265.0,291.0,1.5571,-0.3416,9.3434,-0.0357,0.0228,-0.1162,-1.7524458370604457,0.0,2.865659713745117,-1.7434109449386597,-0.0,2.0264687538146973,4.820645342558183,0.0,0.29166582226753235,-1.531849209462301,0.0,-0.01892920210957527,0.7812361121177673,0.0,0.006103269290179014,0.9431226253509521,0.0,-0.004759841598570347
265.0,291.0,1.5571,-0.3416,9.3434,-0.0357,0.0228,-0.1162,-1.7524258098998011,0.0,2.903985023498535,-1.743394374847412,-0.0,2.0738914012908936,4.820645364909925,0.0,0.28509336709976196,-1.5318692366229456,0.0,-0.0011624405160546303,0.7811599373817444,0.0,-0.0046180253848433495,0.9431144595146179,0.0,0.015169704332947731
265.0,291.0,1.5571,-0.3416,9.3434,-0.0357,0.0228,-0.1162,-1.752474924127096,0.0,2.8212926387786865,-1.7434190511703491,-0.0,2.0756239891052246,4.820649447828092,0.0,0.28735217452049255,-1.5318611303912562,0.0,-0.019487852230668068,0.7812321186065674,0.0,-0.003692066064104438,0.9430823922157288,0.0,-0.00467501487582922
265.0,291.0,1.5571,-0.3416,9.3434,-0.0357,0.0228,-0.1162,-1.7524262867369593,0.0,2.8934426307678223,-1.7434109449386597,-0.0,2.0786218643188477,4.820625270694055,0.0,0.2892352342605591,-1.5318167845355433,0.0,-0.02360956184566021,0.7811799049377441,0.0,-0.008993561379611492,0.9430824518203735,0.0,0.012853755615651608
265.0,291.0,1.5571,-0.3416,9.3434,-0.0357,0.0228,-0.1162,-1.752390047112936,0.0,2.847853183746338,-1.7434428930282593,-0.0,2.094357967376709,4.820649455278673,0.0,0.29189053177833557,-1.5318854490863245,0.0,-0.02404896914958954,0.7811920642852783,0.0,0.012983370572328568,0.9431143999099731,0.0,0.009082545526325703
265.0,291.0,1.5571,-0.3416,9.3434,-0.0357,0.0228,-0.1162,-1.7524501285948695,0.0,2.849876880645752,-1.7434024810791016,-0.0,2.1094303131103516,4.820625307946958,0.0,0.30339398980140686,-1.5318973700152796,0.0,-0.012391885742545128,0.7812279462814331,0.0,-0.0028368993662297726,0.9431143999099731,0.0,0.02174372598528862
265.0,291.0,1.5571,-0.3416,9.3434,-0.0357,0.0228,-0.1162,-1.7524296245970667,0.0,2.7895917892456055,-1.7434109449386597,-0.0,2.0432443618774414,4.820621195226469,0.0,0.29968520998954773,-1.531837288533346,0.0,-0.013834785670042038,0.7811636924743652,0.0,0.004203678108751774,0.9431267380714417,0.0,0.001821720041334629
265.0,291.0,1.5571,-0.3416,9.3434,-0.0357,0.0228,-0.1162,-1.752413888970846,0.0,2.8317317962646484,-1.7434624433517456,-0.0,2.106086254119873,4.82063306400136,0.0,0.2841440737247467,-1.5318692366229456,0.0,-0.008076073601841927,0.7811999917030334,0.0,-0.01252644881606102,0.9431185722351074,0.0,-0.006343506742268801
266.0,302.0,1.584,-0.3571,9.4074,-0.0348,0.0287,-0.1071,-1.7523933849730433,0.0,2.885593891143799,-1.7433427572250366,-0.0,2.0734221935272217,4.820653188019552,0.0,0.2939111590385437,-1.5318530241595667,0.0,-0.0021607335656881332,0.7811999917030334,0.0,-0.0030768769793212414,0.943162739276886,0.0,-0.03675421327352524
266.0,302.0,1.584,-0.3571,9.4074,-0.0348,0.0287,-0.1071,-1.7524057827391566,0.0,2.8609323501586914,-1.7433656454086304,-0.0,2.0738165378570557,4.820677663176813,0.0,0.2952370345592499,-1.5318611303912562,0.0,-0.01242317445576191,0.7812361717224121,0.0,0.002655450254678726,0.9431025385856628,0.0,0.03970831632614136
266.0,302.0,1.584,-0.3571,9.4074,-0.0348,0.0287,-0.1071,-1.752458234826559,0.0,2.8356943130493164,-1.7434585094451904,-0.0,2.089083671569824,4.820637608855524,0.0,0.2975326180458069,-1.5318811575519007,0.0,-0.012879339046776295,0.7811959385871887,0.0,-0.005005459301173687,0.9430906772613525,0.0,-0.014722932130098343
266.0,302.0,1.584,-0.3571,9.4074,-0.0348,0.0287,-0.1071,-1.7524262867369593,0.0,2.8763365745544434,-1.7434264421463013,-0.0,2.046901226043701,4.820645357459345,0.0,0.2902297079563141,-1.5318415800677698,0.0,-0.02203804813325405,0.7812361717224121,0.0,0.00741523178294301,0.9431225657463074,0.0,-0.002984181512147188
266.0,302.0,1.584,-0.3571,9.4074,-0.0348,0.0287,-0.1071,-1.7524339161314906,0.0,2.847099781036377,-1.7434709072113037,-0.0,2.081639289855957,4.820625255792894,0.0,0.2991524338722229,-1.531821076069967,0.0,-0.0029623203445225954,0.7811917662620544,0.0,0.0011478741653263569,0.9431143999099731,0.0,-0.016352051869034767
266.0,302.0,1.584,-0.3571,9.4074,-0.0348,0.0287,-0.1071,-1.7524219952025355,0.0,2.8761298656463623,-1.7434065341949463,-0.0,2.0384953022003174,4.820649455278673,0.0,0.2976762354373932,-1.53186542192568,0.0,-0.015708226710557938,0.7811919450759888,0.0,-0.012248016893863678,0.9431349039077759,0.0,0.004957684315741062
266.0,302.0,1.584,-0.3571,9.4074,-0.0348,0.0287,-0.1071,-1.752385755578512,0.0,2.8479599952697754,-1.7434109449386597,-0.0,2.093169689178467,4.820669497340479,0.0,0.2773786187171936,-1.5318449179278772,0.0,-0.0038203962612897158,0.7811678647994995,0.0,0.0015099229058250785,0.9431025981903076,0.0,-0.0402456559240818
266.0,302.0,1.584,-0.3571,9.4074,-0.0348,0.0287,-0.1071,-1.7524501285948695,0.0,2.8467681407928467,-1.7434067726135254,-0.0,2.0464727878570557,4.820645364909925,0.0,0.2859646677970886,-1.531853500996725,0.0,-0.007068652659654617,0.7812118530273438,0.0,0.010959002189338207,0.9431066513061523,0.0,0.04771992936730385
266.0,302.0,1.584,-0.3571,9.4074,-0.0348,0.0287,-0.1071,-1.7524177036681117,0.0,2.8638243675231934,-1.743369698524475,-0.0,2.073063611984253,4.8206170601542375,0.0,0.2968219816684723,-1.5318449179278772,0.0,-0.0014137186808511615,0.7812399864196777,0.0,-0.013490811921656132,0.9431143999099731,0.0,0.025933265686035156
266.0,302.0,1.584,-0.3571,9.4074,-0.0348,0.0287,-0.1071,-1.752413888970846,0.0,2.845674991607666,-1.7434345483779907,-0.0,2.062832832336426,4.8206572783883,0.0,0.28977054357528687,-1.5318329969989222,0.0,-0.028541337698698044,0.7811880707740784,0.0,0.00464867427945137,0.9430742859840393,0.0,-0.0156424418091774
266.0,302.0,1.584,-0.3571,9.4074,-0.0348,0.0287,-0.1071,-1.7524262867369593,0.0,2.848318099975586,-1.7433899641036987,-0.0,2.089479923248291,4.820689643710413,0.0,0.28363335132598877,-1.531853500996725,0.0,-0.0012152125127613544,0.7812079787254333,0.0,-0.0037168352864682674,0.9431185722351074,0.0,0.018684830516576767
266.0,302.0,1.584,-0.3571,9.4074,-0.0348,0.0287,-0.1071,-1.75244202236318,0.0,2.8784255981445312,-1.7433985471725464,-0.0,2.0788025856018066,4.820649015694418,0.0,0.2979654371738434,-1.531877342854635,0.0,-0.014845013618469238,0.7812321186065674,0.0,-0.0085111940279603,0.9431390166282654,0.0,0.0514424629509449
266.0,302.0,1.584,-0.3571,9.4074,-0.0348,0.0287,-0.1071,-1.75244202236318,0.0,2.871457099914551,-1.7434109449386597,-0.0,2.0671517848968506,4.820621165424146,0.0,0.2888926863670349,-1.531837288533346,0.0,-0.010865142568945885,0.7812120318412781,0.0,-0.009594283998012543,0.9431349039077759,0.0,0.012164801359176636
266.0,302.0,1.584,-0.3571,9.4074,-0.0348,0.0287,-0.1071,-1.7524219952025355,0.0,2.892543077468872,-1.7434109449386597,-0.0,2.0987114906311035,4.820625255792894,0.0,0.29368939995765686,-1.5318129698382776,0.0,-0.015196389518678188,0.7812120318412781,0.0,0.010798610746860504,0.9430983662605286,0.0,-0.012209635227918625
266.0,302.0,1.584,-0.3571,9.4074,-0.0348,0.0287,-0.1071,-1.7524296245970667,0.0,2.87119197845459,-1.7433624267578125,-0.0,2.1033027172088623,4.8206654516752145,0.0,0.30249616503715515,-1.53186542192568,0.0,-0.015366786159574986,0.781260073184967,0.0,-0.003300389274954796,0.943086564540863,0.0,-0.008580189198255539
269.0,290.0,1.605,-0.344,9.3069,-0.0415,0.0206,-0.109,-1.7524258098998011,0.0,2.843778133392334,-1.7434427738189697,-0.0,2.0845751762390137,4.820597003191271,0.0,0.28599199652671814,-1.5318449179278772,0.0,-0.02260725200176239,0.7811920642852783,0.0,-0.004317374434322119,0.9430742263793945,0.0,0.02181393839418888
269.0,290.0,1.605,-0.344,9.3069,-0.0415,0.0206,-0.109,-1.7523895702757777,0.0,2.863776206970215,-1.7433385848999023,-0.0,2.0505130290985107,4.820645357459345,0.0,0.2882360517978668,-1.5318172613727015,0.0,-0.01946023665368557,0.7811800241470337,0.0,0.009889504872262478,0.9431102871894836,0.0,-0.0062988512217998505
269.0,290.0,1.605,-0.344,9.3069,-0.0415,0.0206,-0.109,-1.7524177036681117,0.0,2.8986291885375977,-1.7433902025222778,-0.0,2.0630507469177246,4.82064941802577,0.0,0.30059292912483215,-1.53186542192568,0.0,-0.015119249932467937,0.7812000513076782,0.0,0.007918871939182281,0.9431390166282654,0.0,0.043491050601005554
269.0,290.0,1.605,-0.344,9.3069,-0.0415,0.0206,-0.109,-1.7523895702757777,0.0,2.8465628623962402,-1.7434109449386597,-0.0,2.0799810886383057,4.820605161577024,0.0,0.2991692125797272,-1.5318487326251429,0.0,-0.02209249511361122,0.7811840772628784,0.0,-0.012326671741902828,0.943162739276886,0.0,-0.0009427189361304045
269.0,290.0,1.605,-0.344,9.3069,-0.0415,0.0206,-0.109,-1.752369066277975,0.0,2.850508689880371,-1.7433860301971436,-0.0,2.114372968673706,4.820644970029154,0.0,0.29321128129959106,-1.5318611303912562,0.0,-0.00767970085144043,0.7811558842658997,0.0,-0.003693707287311554,0.9430906176567078,0.0,-0.017626209184527397
269.0,290.0,1.605,-0.344,9.3069,-0.0415,0.0206,-0.109,-1.7524382076659144,0.0,2.8679628372192383,-1.7433737516403198,-0.0,2.0734317302703857,4.820633421629228,0.0,0.2944290041923523,-1.5318692366229456,0.0,-0.013299262151122093,0.7811920642852783,0.0,-0.011365489102900028,0.9431066513061523,0.0,-0.0231875479221344
269.0,290.0,1.605,-0.344,9.3069,-0.0415,0.0206,-0.109,-1.752413888970846,0.0,2.832077980041504,-1.7433942556381226,7.59204385758494e-06,2.0611255168914795,4.8206572634871385,0.0,0.30843716859817505,-1.5318573156939905,0.0,-0.012976910918951035,0.7811718583106995,0.0,-0.004790842067450285,0.9431344866752625,-2.1411714623553735e-09,-0.06147795543074608
269.0,290.0,1.605,-0.344,9.3069,-0.0415,0.0206,-0.109,-1.7524177036681117,0.0,2.8363375663757324,-1.7433425188064575,0.0028416269924491644,2.1102004051208496,4.820621165424146,3.4408108717798314e-07,0.2920795679092407,-1.5318530241595667,0.0,-0.014092450961470604,0.7811919450759888,0.0,-0.002663377672433853,0.9431623220443726,0.0028201304376125336,-0.007590205408632755
269.0,290.0,1.605,-0.344,9.3069,-0.0415,0.0206,-0.109,-1.7524825535216273,-2.242722008105602e-09,2.858571767807007,-1.7433942556381226,7.625235593877733e-05,2.0689826011657715,4.8206572783883,6.253503791187054e-12,0.28883910179138184,-1.5318291823016565,0.0,-0.020502347499132156,0.7812120318412781,0.0,-0.004562975373119116,0.9432148337364197,0.0013005391228944063,0.009101057425141335
269.0,290.0,1.605,-0.344,9.3069,-0.0415,0.0206,-0.109,-1.7524625263609828,-5.4159091829862095e-15,2.833063840866089,-1.7433509826660156,1.8414045288572822e-10,2.084068536758423,4.820669691055574,1.7406857408925301e-15,0.2889213562011719,-1.53186542192568,0.0,-0.012885144911706448,0.7811880707740784,0.0,0.00024060577561613172,0.9431422352790833,-0.0003678021894302219,0.024338265880942345
269.0,290.0,1.605,-0.344,9.3069,-0.0415,0.0206,-0.109,-1.7524744472899378,-1.3078783694036067e-20,2.848771810531616,-1.7433786392211914,4.446775801110491e-16,2.066530227661133,4.820645357459345,4.84526317079341e-19,0.29535067081451416,-1.5319092909442347,0.0,-0.013606400229036808,0.7811679244041443,0.0,-0.009439547546207905,0.9431586861610413,-0.0003493188414722681,0.0025723734870553017
269.0,290.0,1.605,-0.344,9.3069,-0.0415,0.0206,-0.109,-1.7524415455260218,-3.1583728832922624e-26,2.8233633041381836,-1.7433466911315918,1.0738440132911366e-21,2.097377300262451,4.820673535555162,1.3486965569946386e-22,0.28674522042274475,-1.531849209462301,0.0,-0.008459333330392838,0.7811920642852783,0.0,0.0015024049207568169,0.9431225657463074,-0.0003252796013839543,-0.02955435775220394
269.0,290.0,1.605,-0.344,9.3069,-0.0415,0.0206,-0.109,-1.7524057827391566,-7.627100468015171e-32,2.8256173133850098,-1.7433983087539673,2.593206699626087e-27,2.07926082611084,4.820637169271269,3.754146831562414e-26,0.298122763633728,-1.5318449179278772,0.0,-0.011501031927764416,0.7812198996543884,0.0,-0.0009192015859298408,0.943166971206665,-0.0003275836643297225,-0.025629466399550438
269.0,290.0,1.605,-0.344,9.3069,-0.0415,0.0206,-0.109,-1.7524296245970667,-0.0002632754622027278,2.885183572769165,-1.7433828115463257,6.262288931636314e-33,2.0584001541137695,4.820669549494543,1.044980473180433e-29,0.3146553933620453,-1.531905476246969,0.0,-0.01107509434223175,0.7812159061431885,0.0,-0.005406466778367758,0.9431021213531494,-0.00034828128991648555,-0.0336131826043129
262.0,302.0,1.5697,-0.2524,9.4128,-0.0261,0.0194,-0.1139,-1.7524782619872035,-0.0003119265893474221,2.866650104522705,-1.7433384656906128,1.5122689712728565e-38,2.0847549438476562,4.820613312512197,2.908741852997542e-33,0.29984357953071594,-1.5318449179278772,0.0,-0.013938605785369873,0.7811880707740784,0.0,-0.006834674626588821,0.9431664943695068,-0.00023287301883101463,-0.00999930314719677
262.0,302.0,1.5697,-0.2524,9.4128,-0.0261,0.0194,-0.1139,-1.752470155755514,-0.0002756596077233553,2.85837459564209,-1.743370532989502,3.6433760072445244e-44,2.038290023803711,4.820645350008764,8.096590422991647e-37,0.302823930978775,-1.5318611303912562,0.0,-0.0066938078962266445,0.7812078595161438,0.0,0.006192911881953478,0.9431504607200623,-0.0001433675060980022,-0.06801265478134155
262.0,302.0,1.5697,-0.2524,9.4128,-0.0261,0.0194,-0.1139,-1.7524258098998011,-0.00024367193691432476,2.860368251800537,-1.7433786392211914,-0.0,2.060025691986084,4.820625300496378,2.2537223331582465e-40,0.29845088720321655,-1.5318329969989222,0.0,-0.013591393828392029,0.7811721563339233,0.0,-0.009119688533246517,0.9431385397911072,-0.0001640204864088446,0.026006357744336128
262.0,302.0,1.5697,-0.2524,9.4128,-0.0261,0.0194,-0.1139,-1.7524663410582484,-0.00021833671780768782,2.889796257019043,-1.743346929550171,-0.0,2.102090358734131,4.820641267090597,6.305843089461677e-44,0.30405348539352417,-1.5318129698382776,0.0,-0.022263681516051292,0.7812198996543884,0.0,-0.013982515782117844,0.9431426525115967,-0.00012344229617156088,-0.0037415758706629276
262.0,302.0,1.5697,-0.2524,9.4128,-0.0261,0.0194,-0.1139,-1.7524296245970667,-0.00019777346460614353,2.8332552909851074,-1.7434024810791016,-0.0,2.0873048305511475,4.820637176721849,0.0,0.29468387365341187,-1.5318329969989222,0.0,-0.023455128073692322,0.7812198996543884,0.0,-0.002057183999568224,0.9431348443031311,-0.0012410359922796488,-0.044872675091028214
262.0,302.0,1.5697,-0.2524,9.4128,-0.0261,0.0194,-0.1139,-1.7524258098998011,-0.00018075060506816953,2.8438100814819336,-1.7433819770812988,-0.0,2.115267038345337,4.820629346161642,0.0,0.29418647289276123,-1.5318611303912562,0.0,-0.013431471772491932,0.7812519669532776,0.0,0.0037794001400470734,0.9430782794952393,-0.0010235662339255214,0.010034875944256783
262.0,302.0,1.5697,-0.2524,9.4128,-0.0261,0.0194,-0.1139,-1.7524625263609828,-0.00016642568516544998,2.838481903076172,-1.7433260679244995,-0.0,2.0755600929260254,4.820605221181669,0.0,0.28306055068969727,-1.5318568388568323,0.0,-0.013488397933542728,0.7811640501022339,0.0,0.00012456142576411366,0.9431266188621521,-0.00037044796044938266,-0.054524172097444534
262.0,302.0,1.5697,-0.2524,9.4128,-0.0261,0.0194,-0.1139,-1.7524382076659144,-0.00015420526324305683,2.8419389724731445,-1.7432990074157715,0.0031649412121623755,2.085303544998169,4.820633406728067,0.0,0.2877940535545349,-1.5318811575519007,0.0,-0.01683690957725048,0.7812519669532776,0.0,-0.004464805591851473,0.9431705474853516,0.00035724369809031487,-0.019966449588537216
262.0,302.0,1.5697,-0.2524,9.4128,-0.0261,0.0194,-0.1139,-1.752401968041891,-6.737896910635754e-05,2.856001377105713,-1.743315577507019,0.0031463163904845715,2.0833663940429688,4.820617052703657,0.0,0.27933192253112793,-1.5318048636065882,0.0,-0.008781002834439278,0.781196117401123,0.0,0.001499550649896264,0.9431706070899963,0.00035152092459611595,0.004938398487865925
262.0,302.0,1.5697,-0.2524,9.4128,-0.0261,0.0194,-0.1139,-1.7524262867369593,-5.619434523396194e-05,2.8542635440826416,-1.7433713674545288,0.0011288152309134603,2.071735382080078,4.820661376207628,0.0,0.2981497049331665,-1.531849209462301,0.0,-0.02127419225871563,0.7811721563339233,0.0,0.0037782713770866394,0.9431869387626648,0.0003159908519592136,0.045237112790346146
262.0,302.0,1.5697,-0.2524,9.4128,-0.0261,0.0194,-0.1139,-1.752413888970846,-5.138199412613176e-05,2.8514456748962402,-1.7433260679244995,0.00064349320018664,2.0561881065368652,4.820677663176813,1.4788480257266201e-05,0.292377769947052,-1.5318611303912562,0.0,-0.02182270586490631,0.7812320590019226,0.0,-0.0021355722565203905,0.9431509375572205,0.0002609984658192843,0.014253763481974602
262.0,302.0,1.5697,-0.2524,9.4128,-0.0261,0.0194,-0.1139,-1.752458234826559,-4.732884917757474e-05,2.8327136039733887,-1.7433547973632812,0.0005402449751272798,2.099116802215576,4.820645335107603,1.5929947039694525e-05,0.2896091043949127,-1.531837288533346,0.0,-0.009215538389980793,0.7812321782112122,0.0,-0.004711255431175232,0.9431266188621521,0.0001778525474946946,-0.004845044109970331
262.0,302.0,1.5697,-0.2524,9.4128,-0.0261,0.0194,-0.1139,-1.75244202236318,-4.386849468573928e-05,2.856299638748169,-1.74330735206604,0.00034725351724773645,2.0579569339752197,4.8206252483423135,1.5127237020351458e-05,0.2970522940158844,-1.5318573156939905,0.0,-0.007463977672159672,0.7811841368675232,0.0,-0.010187581181526184,0.9431266188621521,5.652039180858992e-05,0.010771779343485832
262.0,302.0,1.5697,-0.2524,9.4128,-0.0261,0.0194,-0.1139,-1.7524625263609828,-6.130812835181132e-05,2.8724617958068848,-1.7433228492736816,0.00022507311950903386,2.078444480895996,4.8206252483423135,1.4401070984604303e-05,0.2987512946128845,-1.5318735281573694,0.0,-0.019615868106484413,0.7812198996543884,0.0,-0.021906521171331406,0.9431266784667969,2.4971917866878357e-08,0.016105182468891144
262.0,302.0,1.5697,-0.2524,9.4128,-0.0261,0.0194,-0.1139,-1.7524415455260218,-5.740801498177461e-05,2.850996255874634,-1.7432670593261719,0.00018949745572172105,2.096327304840088,4.820669579296865,1.3741434486291837e-05,0.2885434031486511,-1.531837288533346,0.0,-0.011165762320160866,0.781271755695343,0.0,-0.004053911194205284,0.9431586861610413,6.030424640549037e-14,-0.026727670803666115
269.0,296.0,1.5356,0.0927,9.5773,0.0031,0.0298,-0.1303,-1.7524382076659144,-7.195425860118121e-05,2.8373303413391113,-1.7433228492736816,0.000163652264745906,2.074592351913452,4.820625240891733,1.3139569091435988e-05,0.29532405734062195,-1.5318487326251429,0.0,-0.0024550354573875666,0.7811999917030334,0.0,0.008239652030169964,0.9431349039077759,1.4562765423119232e-19,-0.036300018429756165
269.0,296.0,1.5356,0.0927,9.5773,0.0031,0.0298,-0.1303,-1.7524944744505824,-7.011998968664557e-05,2.824481964111328,-1.743315577507019,0.00014401075895875692,2.0991883277893066,4.820653188019552,1.2588237950694747e-05,0.2896997928619385,-1.5318611303912562,0.0,-0.017492517828941345,0.7812278866767883,0.0,-0.012860111892223358,0.9431623220443726,3.5167359990184815e-25,-0.02811187133193016
269.0,296.0,1.5356,0.0927,9.5773,0.0031,0.0298,-0.1303,-1.7524014912047328,-3.5091903555439785e-05,2.841190814971924,-1.7433631420135498,0.00012857955880463123,2.0958454608917236,4.820637154370107,1.2081284694431815e-05,0.2983199954032898,-1.5318892637835901,0.0,-0.012836480513215065,0.7811560034751892,0.0,0.0022738769184798002,0.9431144595146179,8.492502818024157e-31,0.014189643785357475
269.0,296.0,1.5356,0.0927,9.5773,0.0031,0.0298,-0.1303,-1.7524057827391566,-2.8417787689249963e-05,2.8333706855773926,-1.7433310747146606,3.484155240585096e-05,2.0853543281555176,4.820665362268247,1.1613608876359649e-05,0.29396969079971313,-1.5318692366229456,0.0,-0.011541811749339104,0.7812119126319885,0.0,-0.0037411917001008987,0.9431390166282654,2.050839449213269e-36,0.06062840670347214
269.0,296.0,1.5356,0.0927,9.5773,0.0031,0.0298,-0.1303,-1.752458234826559,-2.5958772312151268e-05,2.890010118484497,-1.7432751655578613,2.842809226422105e-05,2.0902609825134277,4.8206612569983385,1.1180781257280614e-05,0.29515397548675537,-1.531877342854635,0.0,-0.02189839445054531,0.7812079191207886,0.0,0.0031795273534953594,0.9431226253509521,4.9521887729239035e-42,-0.000983766745775938
269.0,296.0,1.5356,0.0927,9.5773,0.0031,0.0298,-0.1303,-1.7524706325926722,-2.3891427190392278e-05,2.851085901260376,-1.743315577507019,2.5967377951019444e-05,2.062739849090576,4.820649023144998,1.0779059266496915e-05,0.286709725856781,-1.53186542192568,0.0,-0.016205646097660065,0.7811758518218994,0.0,0.002418915508314967,0.9431184530258179,0.0,-0.07881347835063934
269.0,296.0,1.5356,0.0927,9.5773,0.0031,0.0298,-0.1303,-1.7524134121336878,-2.212908657384105e-05,2.848259210586548,-1.7432825565338135,2.389874316577334e-05,2.0867373943328857,4.820661391108789,1.0405196917417925e-05,0.301608681678772,-1.5318005720721644,0.0,-0.02045426517724991,0.7812159061431885,0.0,0.0008437861688435078,0.9431390166282654,0.0,-0.027127865701913834
269.0,296.0,1.5356,0.0927,9.5773,0.0031,0.0298,-0.1303,-1.7524501285948695,-2.0608924387488514e-05,2.881375789642334,-1.7433114051818848,2.213538027717732e-05,2.08512806892395,4.820665347367086,1.0056415703729726e-05,0.30136874318122864,-1.5318611303912562,0.0,-0.009577183984220028,0.7811799049377441,0.0,0.004659336991608143,0.9431467056274414,3.872188608511351e-05,-0.015492528676986694
269.0,296.0,1.5356,0.0927,9.5773,0.0031,0.0298,-0.1303,-1.7524415455260218,-3.698737782542594e-05,2.8238399028778076,-1.743342399597168,2.0152743672952056e-05,2.1083967685699463,4.820625255792894,2.768307805212089e-09,0.29472965002059937,-1.5318129698382776,0.0,-0.010903054848313332,0.781140148639679,0.0,-0.0018904053140431643,0.9431545734405518,6.613046571146697e-05,0.023892521858215332
269.0,296.0,1.5356,0.0927,9.5773,0.0031,0.0298,-0.1303,-1.7524382076659144,-3.292749170213938e-05,2.8314313888549805,-1.7433547973632812,1.8884195014834404e-05,2.0628249645233154,4.820649015694418,7.705686132578049e-13,0.29435089230537415,-1.53186542192568,0.0,-0.004615921061486006,0.7812118530273438,0.0,0.001047888770699501,0.9431541562080383,5.9580303059192374e-05,-0.05199198052287102
269.0,296.0,1.5356,0.0927,9.5773,0.0031,0.0298,-0.1303,-1.7524296245970667,-1.4128526970580424e-07,2.856984853744507,-1.7433031797409058,1.776589488144964e-05,2.0773820877075195,4.820621165424146,2.1449059304785005e-16,0.30405640602111816,-1.5318892637835901,0.0,-0.00907683465629816,0.7812000513076782,0.0,0.0009255451150238514,0.9431185722351074,5.419823355623521e-05,-0.01202469039708376
269.0,296.0,1.5356,0.0927,9.5773,0.0031,0.0298,-0.1303,-1.752453943292135,-3.4118731060892027e-13,2.825843334197998,-1.7432948350906372,1.6772639355622232e-05,2.049753189086914,4.820661368757047,5.970424225285243e-20,0.2989068031311035,-1.5318811575519007,0.0,-0.01685183495283127,0.7811799049377441,0.0,-0.0006539516616612673,0.9431586861610413,4.9707967264112085e-05,-0.0008859853842295706
269.0,296.0,1.5356,0.0927,9.5773,0.0031,0.0298,-0.1303,-1.752458234826559,-8.239271044087035e-19,2.881521701812744,-1.7433236837387085,1.5884568711044267e-05,2.109248161315918,4.820665347367086,1.6618894824967605e-23,0.29045936465263367,-1.531877342854635,0.0,-0.02410215325653553,0.7811679244041443,0.0,0.0015132983680814505,0.9431706070899963,4.5904904254712164e-05,0.029938451945781708
269.0,296.0,1.5356,0.0927,9.5773,0.0031,0.0298,-0.1303,-1.7524339161314906,-1.989686866038556e-24,2.8708620071411133,-1.7432990074157715,1.5085807717696298e-05,2.0991673469543457,4.820640842407503,4.6259300372085784e-27,0.29816290736198425,-1.5318329969989222,0.0,-0.003969943150877953,0.7812079191207886,0.0,-0.00679043959826231,0.9431185722351074,4.264241943019442e-05,-0.0281214602291584
262.0,289.0,1.6786,0.4277,8.8893,-0.0015,-0.0593,-0.1752,-1.75244202236318,-4.804859678138655e-30,2.846667766571045,-1.7432825565338135,2.8727004973916337e-05,2.0933523178100586,4.8206731779272936,1.2876445052523193e-30,0.29161667823791504,-1.53186542192568,0.0,-0.015414970926940441,0.7812439799308777,0.0,-0.01441918034106493,0.9431307315826416,3.981285044574179e-05,-0.009391628205776215
262.0,289.0,1.6786,0.4277,8.8893,-0.0015,-0.0593,-0.1752,-1.7524177036681117,-1.1603170284060706e-35,2.8431475162506104,-1.74333918094635,2.741454773058649e-05,2.075423240661621,4.82064492532567,3.5842053352220063e-34,0.30080026388168335,-1.5318449179278772,0.0,-0.010221726261079311,0.7812079191207886,0.0,-0.002960001351311803,0.9431385397911072,3.7335481465561315e-05,0.0019661681726574898
262.0,289.0,1.6786,0.4277,8.8893,-0.0015,-0.0593,-0.1752,-1.7524219952025355,-2.802036409263904e-41,2.833672285079956,-1.7432422637939453,1.3169294106774032e-05,2.087228775024414,4.820697369962492,9.976767503476056e-38,0.2837757468223572,-1.5318530241595667,0.0,-0.020940307527780533,0.7812159061431885,0.0,-0.0006387836765497923,0.9431504607200623,3.5148394090356305e-05,-0.015530558302998543
262.0,289.0,1.6786,0.4277,8.8893,-0.0015,-0.0593,-0.1752,-1.7524339161314906,-0.0,2.8395698070526123,-1.743315577507019,1.2559569768200163e-05,2.080253839492798,4.820621165424146,2.7770932965989225e-41,0.297789990901947,-1.5318568388568323,0.0,-0.002629373222589493,0.7812716960906982,0.0,-0.003187974449247122,0.9431829452514648,3.3203330531250685e-05,-0.022450797259807587
262.0,289.0,1.6786,0.4277,8.8893,-0.0015,-0.0593,-0.1752,-1.752413888970846,0.0,2.8854002952575684,-1.7432825565338135,1.2054896615154576e-05,2.0751445293426514,4.8206572783883,8.407790785948902e-45,0.3080258369445801,-1.53186542192568,0.0,-0.026799596846103668,0.7812079191207886,0.0,0.0003048633225262165,0.9431787729263306,3.14622484438587e-05,-0.009836887009441853
262.0,289.0,1.6786,0.4277,8.8893,-0.0015,-0.0593,-0.1752,-1.7524177036681117,0.0,2.874803066253662,-1.7433671951293945,1.1589219866436906e-05,2.095125198364258,4.8205928830202005,0.0,0.2830273509025574,-1.5318611303912562,0.0,-0.013624406419694424,0.7811801433563232,0.0,-0.004140716511756182,0.9431066513061523,2.9894703402533196e-05,-0.023976365104317665
262.0,289.0,1.6786,0.4277,8.8893,-0.0015,-0.0593,-0.1752,-1.7524339161314906,0.0,2.8501782417297363,-1.7433196306228638,1.1158181223436259e-05,2.076834201812744,4.820649015694418,0.0,0.28765326738357544,-1.5318687597857874,0.0,-0.0064319525845348835,0.7812836170196533,0.0,-0.007789300754666328,0.9431390166282654,2.8475911676650867e-05,-0.0010014106519520283
262.0,289.0,1.6786,0.4277,8.8893,-0.0015,-0.0593,-0.1752,-1.7524339161314906,0.0,2.8217387199401855,-1.7432670593261719,1.0758052667370066e-05,2.076688289642334,4.820685530989923,0.0,0.2969093918800354,-1.5318811575519007,0.0,-0.013998481445014477,0.7811762094497681,0.0,0.007090835366398096,0.943162739276886,2.7185704311705194e-05,0.013898070901632309
262.0,289.0,1.6786,0.4277,8.8893,-0.0015,-0.0593,-0.1752,-1.75244202236318,0.0,2.9067959785461426,-1.7433030605316162,2.0765664885402657e-05,2.0486459732055664,4.820636752038755,0.0,0.30118629336357117,-1.5318449179278772,0.0,-0.003513337578624487,0.7812159061431885,0.0,-0.003074828302487731,0.9431021213531494,2.6007352062151767e-05,0.03358197584748268
262.0,289.0,1.6786,0.4277,8.8893,-0.0015,-0.0593,-0.1752,-1.75244202236318,0.0,2.8761043548583984,-1.7432546615600586,1.985483686439693e-05,2.088912010192871,4.820653188019552,5.197452264837921e-05,0.29565849900245667,-1.5318449179278772,0.0,-0.013895954936742783,0.781184196472168,0.0,-0.001949011581018567,0.9431102871894836,2.458642666169908e-05,-0.00022133253514766693
262.0,289.0,1.6786,0.4277,8.8893,-0.0015,-0.0593,-0.1752,-1.7524100742735804,0.0,2.8743176460266113,-1.743342399597168,4.7947094211631125e-11,2.0436978340148926,4.820681358664789,5.0254850066266954e-05,0.2968556582927704,-1.5318287054644983,0.0,-0.026952099055051804,0.7811799049377441,0.0,0.0031174239702522755,0.9431307315826416,2.3618613340659067e-05,0.005131356418132782
262.0,289.0,1.6786,0.4277,8.8893,-0.0015,-0.0593,-0.1752,-1.7524382076659144,0.0,2.879887104034424,-1.7432990074157715,1.1578659809302508e-16,2.112525463104248,4.820693287044325,2.1187820209433994e-07,0.28628361225128174,-1.5318849722491663,0.0,-0.013639278709888458,0.7812280654907227,0.0,-0.00144842523150146,0.9431225657463074,1.1516440281411633e-05,0.014518054202198982
262.0,289.0,1.6786,0.4277,8.8893,-0.0015,-0.0593,-0.1752,-1.752474924127096,0.0,2.82881498336792,-1.7433147430419922,2.7961097792734414e-22,2.106107473373413,4.820697355061331,5.897708016400216e-11,0.2909759283065796,-1.5318611303912562,0.0,-0.00906754843890667,0.7812159061431885,0.0,0.004214110784232616,0.9431266188621521,1.094744584406726e-05,-0.03753954917192459
262.0,289.0,1.6786,0.4277,8.8893,-0.0015,-0.0593,-0.1752,-1.7524415455260218,0.0,2.855846405029297,-1.7432507276535034,6.752275236800164e-28,2.0834646224975586,4.820641267090597,1.6416487852270734e-14,0.2876722812652588,-1.53186542192568,0.0,-0.014727512374520302,0.7812237739562988,0.0,-0.011089219711720943,0.9431467652320862,7.744244134855194e-11,0.0025638174265623093
262.0,289.0,1.6786,0.4277,8.8893,-0.0015,-0.0593,-0.1752,-1.752458234826559,0.0,2.84672212600708,-1.74330735206604,1.6305947029248134e-33,2.0718252658843994,4.820653188019552,4.569590135613934e-18,0.28765031695365906,-1.53186542192568,0.0,-0.017839645966887474,0.7812159061431885,0.0,-0.003566920990124345,0.9431226849555969,1.8701439272102724e-16,-0.02055123820900917
262.0,291.0,1.6385,-0.3063,9.3996,-0.0354,0.0224,-0.1353,-1.7524339161314906,0.0,2.8526675701141357,-1.743331789970398,3.937694927602059e-39,2.08254075050354,4.8206855458910844,1.2719623528042355e-21,0.2807626724243164,-1.5318129698382776,0.0,-0.015213092789053917,0.7812198400497437,0.0,0.0037825528997927904,0.9430943131446838,4.516177942856869e-22,-0.03330966830253601
262.0,291.0,1.6385,-0.3063,9.3996,-0.0354,0.0224,-0.1353,-1.7524339161314906,0.0,2.8469595909118652,-1.7433547973632812,9.80908925027372e-45,2.0976452827453613,4.8206572634871385,3.5405539284183998e-25,0.2887665033340454,-1.531849209462301,0.0,-0.014845766127109528,0.7812039852142334,0.0,0.005488724447786808,0.9431103467941284,1.0906038607349432e-27,0.012345312163233757
262.0,291.0,1.6385,-0.3063,9.3996,-0.0354,0.0224,-0.1353,-1.7524782619872035,0.0,2.834111452102661,-1.7432990074157715,-0.0,2.0409164428710938,4.820588829904356,9.855262785271422e-29,0.29690825939178467,-1.531849209462301,0.0,-0.0022190315648913383,0.7812360525131226,0.0,-0.006729342974722385,0.9431185722351074,2.6336796646539806e-33,-0.0066396258771419525
262.0,291.0,1.6385,-0.3063,9.3996,-0.0354,0.0224,-0.1353,-1.7524339161314906,0.0,2.8504457473754883,-1.7432783842086792,-0.0,2.06314754486084,4.820633056550779,2.7432488155252707e-32,0.29270270466804504,-1.531853500996725,0.0,-0.013711312785744667,0.7811999917030334,0.0,-0.017300529405474663,0.9431185722351074,6.36002569588326e-39,-0.02767971158027649
262.0,291.0,1.6385,-0.3063,9.3996,-0.0354,0.0224,-0.1353,-1.752458234826559,0.0,2.8614635467529297,-1.743315577507019,-0.0,2.0572099685668945,4.820673580258646,7.635934247220585e-36,0.29507574439048767,-1.5318449179278772,0.0,-0.01950872503221035,0.7812399864196777,0.0,-0.008246621116995811,0.9431226253509521,1.5414283107572988e-44,0.00797524955123663
262.0,291.0,1.6385,-0.3063,9.3996,-0.0354,0.0224,-0.1353,-1.7524501285948695,0.0,2.8701984882354736,-1.743307113647461,-0.0,2.0703535079956055,4.820637176721849,2.1254895106878825e-39,0.290966272354126,-1.5318611303912562,0.0,-0.008600512519478798,0.7811762690544128,0.0,-0.003968818578869104,0.9430861473083496,0.0,0.008493495173752308
262.0,291.0,1.6385,-0.3063,9.3996,-0.0354,0.0224,-0.1353,-1.7524415455260218,0.0,2.8759050369262695,-1.7432588338851929,-0.0,2.078582286834717,4.820721658855238,5.913479519450728e-43,0.29538679122924805,-1.5318449179278772,0.0,-0.02425300143659115,0.7812321186065674,0.0,-0.018605902791023254,0.9431103467941284,0.0,-0.03501955047249794
262.0,291.0,1.6385,-0.3063,9.3996,-0.0354,0.0224,-0.1353,-1.7523933849730433,0.0,2.8543357849121094,-1.7433269023895264,-0.0,2.101752519607544,4.820633004396715,0.0,0.29918140172958374,-1.5318530241595667,0.0,-0.007436817977577448,0.7811881303787231,0.0,-0.010161886923015118,0.9431266784667969,0.0,0.0361991785466671
262.0,291.0,1.6385,-0.3063,9.3996,-0.0354,0.0224,-0.1353,-1.7524501285948695,0.0,2.835967779159546,-1.7433114051818848,-0.0,2.068182945251465,4.820693301945486,1.974725273612421e-05,0.282978355884552,-1.5318849722491663,0.0,-0.01930229365825653,0.7812638282775879,0.0,9.267611312679946e-05,0.9431545734405518,0.0,-0.06189810484647751
262.0,291.0,1.6385,-0.3063,9.3996,-0.0354,0.0224,-0.1353,-1.7524177036681117,0.0,2.8737659454345703,-1.7432585954666138,-0.0,2.11110520362854,4.820693287044325,1.8523342077969573e-05,0.2996025085449219,-1.5318687597857874,0.0,-0.01384703814983368,0.7812321186065674,0.0,-0.00035826521343551576,0.9431586265563965,0.0,-0.05004115775227547
262.0,291.0,1.6385,-0.3063,9.3996,-0.0354,0.0224,-0.1353,-1.7524057827391566,0.0,2.8502511978149414,-1.7433236837387085,7.83771127998989e-08,2.115607976913452,4.820664915233412,5.117157706990838e-05,0.2949080169200897,-1.5319049994098108,0.0,-0.013330260291695595,0.7812598347663879,0.0,-0.005059713497757912,0.9431421756744385,0.0,-0.04462503269314766
262.0,291.0,1.6385,-0.3063,9.3996,-0.0354,0.0224,-0.1353,-1.7523981533446253,0.0,2.843174934387207,-1.7432833909988403,0.0027550682425498962,2.0858659744262695,4.820632579713621,6.591535202460364e-05,0.2983197569847107,-1.5318806807147425,0.0,-0.01674981787800789,0.7812320590019226,0.0,-0.007805259898304939,0.943178653717041,0.00022968140547163785,-0.047489117830991745
262.0,291.0,1.6385,-0.3063,9.3996,-0.0354,0.0224,-0.1353,-1.7523814640440882,0.0,2.8362035751342773,-1.7431623935699463,0.004664761479943991,2.084460496902466,4.820717456727781,0.0003887746133841574,0.28294628858566284,-1.5318968931781214,0.0,-0.003223216626793146,0.7811322212219238,0.0,-0.006445208564400673,0.9431623220443726,0.0006109333480708301,-0.026523299515247345
262.0,291.0,1.6385,-0.3063,9.3996,-0.0354,0.0224,-0.1353,-1.752385755578512,0.00046969467075541615,2.916379928588867,-1.7431912422180176,0.007550507318228483,2.0718913078308105,4.820721532195368,0.00042550908983685076,0.29481586813926697,-1.5318849722491663,0.0,-0.016939150169491768,0.7812360525131226,0.0,0.005514089949429035,0.9432148337364197,0.0007317399140447378,0.009296970441937447
277.0,287.0,1.6014,-0.2327,9.3236,-0.0139,0.015,-0.1019,-1.7523657284178675,0.0003578194882720709,2.862734317779541,-1.743147611618042,0.00853667687624693,2.124439001083374,4.820676925569334,0.0005096337990835309,0.29353949427604675,-1.531945530568258,0.0,-0.01864166185259819,0.781239926815033,0.0,-0.0012240877840667963,0.9432024955749512,0.0006202172953635454,0.010784249752759933
277.0,287.0,1.6014,-0.2327,9.3236,-0.0139,0.015,-0.1019,-1.7523776493468226,0.00023111578775569797,2.839326858520508,-1.7430596351623535,0.008640187792479992,2.0857009887695312,4.820721532195368,0.00045760211651213467,0.2999023199081421,-1.5319164435016077,0.0,-0.018374070525169373,0.781239926815033,0.0,-0.00129967019893229,0.9432225823402405,0.0005771194701083004,0.018952731043100357
277.0,287.0,1.6014,-0.2327,9.3236,-0.0139,0.015,-0.1019,-1.7523776493468226,0.00019378420256543905,2.868366241455078,-1.7429955005645752,0.009402344934642315,2.0763683319091797,4.8207092610891245,0.0003648232959676534,0.2901515066623688,-1.531888786946432,0.0,-0.010982191190123558,0.7812040448188782,0.0,-0.0041405027732253075,0.9431983828544617,0.001028959988616407,-0.008033137768507004
277.0,287.0,1.6014,-0.2327,9.3236,-0.0139,0.015,-0.1019,-1.7524339161314906,0.0001668391196290031,2.8482296466827393,-1.742964267730713,0.00882205180823803,2.098331928253174,4.820696937828817,0.0003033163957297802,0.286736398935318,-1.5319135824786585,0.0,-0.011527220718562603,0.7812119126319885,0.0,-0.003610920859500766,0.9432710409164429,0.0017944563878700137,-0.02485993504524231
277.0,287.0,1.6014,-0.2327,9.3236,-0.0139,0.015,-0.1019,-1.7524706325926722,0.00012244339450262487,2.878927707672119,-1.7428638935089111,0.007974703796207905,2.0639657974243164,4.820701110153951,0.00025956344325095415,0.2891958951950073,-1.531928841267721,0.0,-0.013146965764462948,0.7812238335609436,0.0,-0.010546202771365643,0.9432463645935059,0.0037177803460508585,0.008765638805925846
277.0,287.0,1.6014,-0.2327,9.3236,-0.0139,0.015,-0.1019,-1.7523938618102015,9.79039105004631e-05,2.8472037315368652,-1.7428596019744873,0.008172706700861454,2.1068692207336426,4.820692929416456,0.00022684333089273423,0.2999710142612457,-1.5319135824786585,0.0,-0.012724015861749649,0.7812119722366333,0.0,0.006029563024640083,0.94329833984375,0.005645164288580418,-0.06221815198659897
277.0,287.0,1.6014,-0.2327,9.3236,-0.0139,0.015,-0.1019,-1.752413888970846,8.82985841599293e-05,2.8610892295837402,-1.7428117990493774,0.007865066640079021,2.129667282104492,4.820733132749357,0.0002014514902839437,0.2952622175216675,-1.5318806807147425,0.0,-0.00868730153888464,0.7812399864196777,0.0,-0.0011905463179573417,0.9433024525642395,0.006209234241396189,-0.0179664958268404
277.0,287.0,1.6014,-0.2327,9.3236,-0.0139,0.015,-0.1019,-1.7524382076659144,-0.0001037303009070456,2.860506296157837,-1.7427477836608887,0.007046048995107412,2.131772756576538,4.820701110153951,0.00018117218860425055,0.28751397132873535,-1.5318892637835901,0.0,-0.01100580021739006,0.7812079191207886,0.0,-0.0017412040615454316,0.943322479724884,0.004833966959267855,0.04665976017713547
277.0,287.0,1.6014,-0.2327,9.3236,-0.0139,0.015,-0.1019,-1.752514501611227,-0.00015564622299280018,2.8574559688568115,-1.742732286453247,0.005471184849739075,2.054028034210205,4.820709290891447,0.00016460276674479246,0.27863961458206177,-1.5318768660174769,0.0,-0.006619803607463837,0.7812280654907227,0.0,-0.005746826995164156,0.9433584213256836,0.003279771190136671,0.08865715563297272
277.0,287.0,1.6014,-0.2327,9.3236,-0.0139,0.015,-0.1019,-1.7524939976134242,-0.0008005975396372378,2.873739242553711,-1.7427363395690918,0.0032089524902403355,2.0923643112182617,4.820729705482282,0.0001257048425031826,0.2924904227256775,-1.5318768660174769,0.0,-0.004282607696950436,0.7812198996543884,0.0,0.0012611564015969634,0.9433380365371704,0.0019461545161902905,0.06019001826643944
277.0,287.0,1.6014,-0.2327,9.3236,-0.0139,0.015,-0.1019,-1.7525502643980921,-0.0026887927670031786,2.8719992637634277,-1.742700219154358,0.0010277550900354981,2.0948777198791504,4.82064492532567,0.00011304610234219581,0.2940736711025238,-1.5318568388568323,0.0,-0.010621799156069756,0.7812280654907227,0.0,-0.001061784802004695,0.9433502554893494,0.0009476537816226482,-0.03722555190324783
277.0,287.0,1.6014,-0.2327,9.3236,-0.0139,0.015,-0.1019,-1.752538343469137,-0.003995285835117102,2.837080240249634,-1.742751955986023,0.0006156130693852901,2.0944840908050537,4.820701549738207,8.686265209689736e-05,0.29640576243400574,-1.5318930784808558,0.0,-0.016449980437755585,0.7811560034751892,0.0,0.001827414147555828,0.943378210067749,0.0005324927042238414,0.00880335457623005
277.0,287.0,1.6014,-0.2327,9.3236,-0.0139,0.015,-0.1019,-1.7525583706297816,-0.005194876343011856,2.849133014678955,-1.7427445650100708,0.0004795832501258701,2.0716331005096436,4.820677268296041,7.859137986088172e-05,0.2891077399253845,-1.5318649450885218,0.0,-0.008192865177989006,0.781239926815033,0.0,-0.005624767392873764,0.9433822631835938,0.0003859315183945,-0.02003983035683632
277.0,287.0,1.6014,-0.2327,9.3236,-0.0139,0.015,-0.1019,-1.752594610253805,-0.005917646456509829,2.8267507553100586,-1.7427568435668945,0.00037866318598389626,2.0509445667266846,4.820705625205793,7.375978748314083e-05,0.2876741290092468,-1.5318730513202112,0.0,-0.004303994122892618,0.7812320590019226,0.0,-0.005951683968305588,0.9433786273002625,0.0002054192591458559,0.04044540971517563
277.0,287.0,1.6014,-0.2327,9.3236,-0.0139,0.015,-0.1019,-1.7526141605772914,-0.0051954383961856365,2.8468434810638428,-1.7427083253860474,0.000364978943252936,2.1040596961975098,4.82064492532567,6.948845839360729e-05,0.3001614809036255,-1.5319049994098108,0.0,-0.011028319597244263,0.7812277674674988,0.0,-0.004508630838245153,0.9433342814445496,-0.00012050113582517952,0.03343493491411209
264.0,279.0,1.392,-0.5659,8.9791,-0.0464,0.0286,-0.0904,-1.7527152500548304,-0.005082724150270224,2.8485217094421387,-1.7427321672439575,0.0003553500573616475,2.0789847373962402,4.820653188019552,6.568482058355585e-05,0.290351927280426,-1.5318530241595667,0.0,-0.0048346612602472305,0.7812482118606567,0.0,-0.01030145213007927,0.9433425068855286,-0.0002456459333188832,-0.00489044701680541
264.0,279.0,1.392,-0.5659,8.9791,-0.0464,0.0286,-0.0904,-1.7527185879149378,-0.005867662839591503,2.8531336784362793,-1.7426878213882446,0.00020751515694428235,2.05835223197937,4.820721636503496,4.697364056482911e-05,0.2923519015312195,-1.5318329969989222,0.0,-0.026525961235165596,0.7811601161956787,0.0,-0.014717573300004005,0.9433302283287048,-0.0009287642897106707,0.0086280582472682
264.0,279.0,1.392,-0.5659,8.9791,-0.0464,0.0286,-0.0904,-1.7527710400023402,-0.007197015453130007,2.823394775390625,-1.7427403926849365,0.00018116043065674603,2.0631022453308105,4.8206572783883,4.440267730387859e-05,0.2842756509780884,-1.5318968931781214,0.0,-0.016412070021033287,0.7812280654907227,0.0,-0.013983531855046749,0.9433343410491943,-0.0013171413447707891,0.028969986364245415
264.0,279.0,1.392,-0.5659,8.9791,-0.0464,0.0286,-0.0904,-1.7527462444701136,-0.007536514196544886,2.836729049682617,-1.7427083253860474,0.00019394724222365767,2.1107234954833984,4.820648985892095,4.23149649577681e-05,0.29353067278862,-1.5319173971759241,0.0,-0.0033166795037686825,0.7812198996543884,0.0,0.011404941789805889,0.9432823061943054,-0.001416000653989613,-0.02057787962257862
264.0,279.0,1.392,-0.5659,8.9791,-0.0464,0.0286,-0.0904,-1.7528954945006312,-0.0061825476586818695,2.8608970642089844,-1.7426762580871582,0.0004954411997459829,2.0669047832489014,4.820640894561567,4.0414812247036025e-05,0.29163601994514465,-1.531877342854635,0.0,-0.00591650977730751,0.7812482118606567,0.0,0.006651326082646847,0.9432864189147949,-0.0017028753645718098,0.0078103551641106606
264.0,279.0,1.392,-0.5659,8.9791,-0.0464,0.0286,-0.0904,-1.7528745136656703,-0.004267731681466103,2.8464293479919434,-1.7426846027374268,0.0014508559834212065,2.1250271797180176,4.820673580258646,3.8677975680911914e-05,0.30228087306022644,-1.531877342854635,0.0,-0.017376145347952843,0.78120356798172,0.0,0.008592275902628899,0.9432663321495056,-0.0016744816675782204,-0.008479010313749313
264.0,279.0,1.392,-0.5659,8.9791,-0.0464,0.0286,-0.0904,-1.752906938592428,-0.002805157098919153,2.833047866821289,-1.742720603942871,0.0012657417682930827,2.088563919067383,4.820677268296041,3.708425356307998e-05,0.28630539774894714,-1.5318811575519007,0.0,-0.017696291208267212,0.7812560200691223,0.0,3.550597466528416e-05,0.9432421326637268,-0.0015940767480060458,0.010703087784349918
264.0,279.0,1.392,-0.5659,8.9791,-0.0464,0.0286,-0.0904,-1.7528907261290492,-0.002045211847871542,2.8619513511657715,-1.7426483631134033,0.001003177254460752,2.016078472137451,4.820661420911112,3.561668563634157e-05,0.2886528968811035,-1.5318129698382776,0.0,-0.0044593196362257,0.7812117338180542,0.0,-0.0050659929402172565,0.9432746171951294,-0.0013531801523640752,0.011476801708340645
264.0,279.0,1.392,-0.5659,8.9791,-0.0464,0.0286,-0.0904,-1.7529188595213832,-0.0015415186062455177,2.834974765777588,-1.7426607608795166,0.0007513713790103793,2.0906434059143066,4.820697369962492,3.426086186664179e-05,0.30435293912887573,-1.5318611303912562,0.0,-0.005742378532886505,0.7812641859054565,0.0,-0.0022343872115015984,0.9432184100151062,-0.0009330036118626595,0.04208984971046448
264.0,279.0,1.392,-0.5659,8.9791,-0.0464,0.0286,-0.0904,-1.7529221973814906,-0.0010754186660051346,2.8840279579162598,-1.7426483631134033,0.0006554686115123332,2.1038169860839844,4.820665347367086,3.260591620346531e-05,0.2804536521434784,-1.5318449179278772,0.0,-0.00785763282328844,0.7812240123748779,0.0,-0.003923713229596615,0.943234384059906,-0.0005518062971532345,0.019694751128554344
264.0,279.0,1.392,-0.5659,8.9791,-0.0464,0.0286,-0.0904,-1.752951284448141,-0.000767528370488435,2.8328957557678223,-1.7426844835281372,0.00131403305567801,2.1139039993286133,4.82068961390809,-1.930231519509107e-05,0.28415539860725403,-1.5318730513202112,0.0,-0.013567517511546612,0.781248152256012,0.0,-0.010168386623263359,0.9432463049888611,-0.00036039386759512126,-0.022419048473238945
264.0,279.0,1.392,-0.5659,8.9791,-0.0464,0.0286,-0.0904,-1.752890249291891,-0.0005407555145211518,2.882840156555176,-1.7426648139953613,0.002029577735811472,2.0844545364379883,4.820697399764814,-2.2053971406421624e-05,0.29349467158317566,-1.531900707875387,0.0,-0.02392437495291233,0.781227707862854,0.0,-0.009852968156337738,0.9432827830314636,-0.0002850275195669383,-0.009542898274958134
264.0,279.0,1.392,-0.5659,8.9791,-0.0464,0.0286,-0.0904,-1.7529221973814906,-0.0004840864858124405,2.8356497287750244,-1.7426326274871826,0.003947658929973841,2.1171469688415527,4.820593397110262,-2.1273021047818474e-05,0.29312610626220703,-1.5318973700152796,0.0,-0.011263745836913586,0.7812076807022095,7.774071519861536e-08,0.007768725976347923,0.9432021379470825,-0.00019228587916586548,0.012071765027940273
264.0,279.0,1.392,-0.5659,8.9791,-0.0464,0.0286,-0.0904,-1.7528983555235804,-0.00045006375876255333,2.8696796894073486,-1.7426284551620483,0.005251968279480934,2.085230827331543,4.820625389903345,-2.0544621293083765e-05,0.29502180218696594,-1.5319173971759241,0.0,-0.00721477996557951,0.7812399864196777,2.1639412484120157e-11,0.0009633363224565983,0.9433069229125977,-0.00013813712575938553,0.05245178937911987
259.0,297.0,1.8323,-0.5468,9.3601,-0.0586,0.013,-0.1185,-1.7529221973814906,-0.0003621612850110978,2.8939499855041504,-1.7425644397735596,0.006220268551260233,2.107814311981201,4.820661242097177,-2.7244643206358887e-05,0.306610107421875,-1.531877342854635,0.0,-0.00726701132953167,0.781235933303833,6.023409259569993e-15,0.013182755559682846,0.9432786703109741,8.191741653718054e-05,-0.03562267869710922
259.0,297.0,1.8323,-0.5468,9.3601,-0.0586,0.013,-0.1185,-1.7529508076109828,-0.0010354910045862198,2.882662296295166,-1.7424887418746948,0.00767103536054492,2.073559284210205,4.820661078184404,-7.583646599584881e-09,0.300714910030365,-1.5318730513202112,0.0,-0.012701748870313168,0.7812399864196777,1.6766379227851444e-18,0.018572108820080757,0.9433265328407288,0.0001112472964450717,0.031249424442648888
259.0,297.0,1.8323,-0.5468,9.3601,-0.0586,0.013,-0.1185,-1.7529870472350062,-0.001755523611791432,2.833721399307251,-1.742448329925537,0.008587270975112915,2.0673747062683105,4.820645208447733,-2.1109357751375457e-12,0.29996317625045776,-1.5318611303912562,0.0,-0.007234879769384861,0.7812923789024353,4.666983914128118e-22,0.014971865341067314,0.9433023929595947,0.0001636836095713079,0.02896251156926155
259.0,297.0,1.8323,-0.5468,9.3601,-0.0586,0.013,-0.1185,-1.7529989681639613,-0.002446115715429187,2.8931281566619873,-1.7424614429473877,0.010539748705923557,2.082221031188965,4.820637333184042,-5.875867025707489e-16,0.2947208285331726,-1.5318530241595667,0.0,-0.0002081533893942833,0.781235933303833,0.0002813717583194375,0.009449167177081108,0.943330705165863,0.0006334144272841513,0.05233778432011604
259.0,297.0,1.8323,-0.5468,9.3601,-0.0586,0.013,-0.1185,-1.7530189953246058,-0.002824079943820834,2.77640438079834,-1.7423168420791626,0.010901165194809437,2.1046676635742188,4.820633294969358,-1.6355689740585577e-19,0.30208927392959595,-1.531877342854635,0.0,-0.0024317337665706873,0.7812638282775879,0.0003195689059793949,0.004689323715865612,0.9433384537696838,0.0013004151405766606,0.0032895058393478394
259.0,297.0,1.8323,-0.5468,9.3601,-0.0586,0.013,-0.1185,-1.7530590496458949,-0.003739182371646166,2.864363193511963,-1.7422535419464111,0.012001223862171173,2.0878212451934814,4.8206253973539255,-4.552666483146813e-23,0.29945749044418335,-1.5318649450885218,0.0,-0.011536918580532074,0.7812440395355225,0.00032621034188196063,0.006354167591780424,0.9433626532554626,0.002283480716869235,0.061207450926303864
259.0,297.0,1.8323,-0.5468,9.3601,-0.0586,0.013,-0.1185,-1.7530590496458949,-0.004206583369523287,2.839977264404297,-1.74223792552948,0.012620207853615284,2.113201856613159,4.820641267090597,-1.267251349310706e-26,0.29684245586395264,-1.5319135824786585,0.0,-0.028163056820631027,0.7813076376914978,0.0003957170119974762,0.017023654654622078,0.9433544278144836,0.0027871904894709587,0.0872805118560791
259.0,297.0,1.8323,-0.5468,9.3601,-0.0586,0.013,-0.1185,-1.7530509434142054,-0.0049598198384046555,2.7943732738494873,-1.7421300411224365,0.013747043907642365,2.149050235748291,4.820617432683267,-3.5274407512243645e-30,0.29811179637908936,-1.5318687597857874,0.0,-0.021038860082626343,0.7812158465385437,0.000434040353866294,0.02642415091395378,0.9433863759040833,0.0031316897366195917,0.05765856057405472
259.0,297.0,1.8323,-0.5468,9.3601,-0.0586,0.013,-0.1185,-1.7530867062010707,-0.0063290903344750404,2.784383773803711,-1.7420380115509033,0.014747893437743187,2.125467538833618,4.820673319488325,-9.818761967399523e-34,0.2964429259300232,-1.5318849722491663,0.0,-0.01332116685807705,0.7812596559524536,0.00041355518624186516,0.02893197536468506,0.9433699250221252,0.0030168513767421246,0.06205973029136658
259.0,297.0,1.8323,-0.5468,9.3601,-0.0586,0.013,-0.1185,-1.7531472645201625,-0.0076789287850260735,2.8397226333618164,-1.7419302463531494,0.015487071126699448,2.1199045181274414,4.820657136827268,-2.733088489079546e-37,0.28278470039367676,-1.5319011847125452,0.0,-0.02706112340092659,0.7813040018081665,0.00039599460433237255,0.021014904603362083,0.943389892578125,0.003608574392274022,0.15136265754699707
259.0,297.0,1.8323,-0.5468,9.3601,-0.0586,0.013,-0.1185,-1.7532435856261195,-0.010302530601620674,2.8193063735961914,-1.7418626546859741,0.01589897833764553,2.0768206119537354,4.820689643710413,-0.00010261627176078036,0.29136598110198975,-1.5319135824786585,0.0,-0.030687257647514343,0.7812116146087646,0.00038028191193006933,0.017122233286499977,0.9434584379196167,0.003346701618283987,0.15830126404762268
259.0,297.0,1.8323,-0.5468,9.3601,-0.0586,0.013,-0.1185,-1.753286977807516,-0.012470539659261703,2.7718019485473633,-1.741682529449463,0.01453273557126522,2.1476383209228516,4.820629346161642,-9.605124068912119e-05,0.2884637713432312,-1.531884495412008,0.0,-0.03361818939447403,0.7812719345092773,0.0003672502643894404,0.02764027751982212,0.9434781074523926,0.0032736281864345074,0.11307922750711441
259.0,297.0,1.8323,-0.5468,9.3601,-0.0586,0.013,-0.1185,-1.7533756695189417,-0.013870022259652615,2.741579294204712,-1.7415986061096191,0.014307062141597271,2.0780982971191406,4.820653188019552,-9.027071064338088e-05,0.2933093011379242,-1.5318806807147425,0.0,-0.049550846219062805,0.7813076972961426,0.00033723312662914395,0.040189944207668304,0.9434542655944824,0.0032957440707832575,0.15459398925304413
259.0,297.0,1.8323,-0.5468,9.3601,-0.0586,0.013,-0.1185,-1.7534834347166957,-0.016066787764430046,2.7438697814941406,-1.7415591478347778,0.013322551734745502,2.1027348041534424,4.820637169271269,-8.514645014656708e-05,0.2960837781429291,-1.5319092909442347,0.0,-0.03259171172976494,0.7812516689300537,0.0003086588403675705,0.04462292045354843,0.9435026049613953,0.003641576739028096,0.1966952085494995
259.0,297.0,1.8323,-0.5468,9.3601,-0.0586,0.013,-0.1185,-1.7535954914488734,-0.017984777688980103,2.750049591064453,-1.7414400577545166,0.013274417258799076,2.0751829147338867,4.8206373108323,-8.057268860284239e-05,0.2914576530456543,-1.5318649450885218,0.0,-0.04454593360424042,0.7813036441802979,0.00028101089992560446,0.037611592561006546,0.9435099363327026,0.003199680708348751,0.2292327582836151
265.0,294.0,1.6038,-0.5264,9.2788,-0.0345,0.0308,-0.0999,-1.7536756000914515,-0.02004414051771164,2.7207844257354736,-1.7413675785064697,0.012840935960412025,2.0787267684936523,4.820645223348894,-7.646531594218686e-05,0.2899932265281677,-1.5319092909442347,0.0,-0.043771274387836456,0.7812156081199646,0.00030032574431970716,0.02627738006412983,0.9435544610023499,0.003121629124507308,0.17472702264785767
265.0,294.0,1.6038,-0.5264,9.2788,-0.0345,0.0308,-0.0999,-1.7538963756956996,-0.021443136036396027,2.7203707695007324,-1.7413033246994019,0.011705055832862854,2.126408100128174,4.820661093085565,-7.275644020410255e-05,0.29577139019966125,-1.5318806807147425,0.0,-0.06614319980144501,0.7812795042991638,0.0002672214468475431,0.025589890778064728,0.9435544610023499,0.0031697223894298077,0.19250059127807617
265.0,294.0,1.6038,-0.5264,9.2788,-0.0345,0.0308,-0.0999,-1.753984113732809,-0.021623073145747185,2.710486650466919,-1.7412326335906982,0.011579647660255432,2.118983507156372,4.820669430285253,-6.939061131561175e-05,0.2997415363788605,-1.5319412390338343,0.0,-0.03887976333498955,0.7812955379486084,0.00027087595663033426,0.03721104934811592,0.94357830286026,0.003286546329036355,0.22524964809417725
265.0,294.0,1.6038,-0.5264,9.2788,-0.0345,0.0308,-0.0999,-1.754120489160055,-0.020945614203810692,2.72235107421875,-1.7411839962005615,0.011092816479504108,2.124023914337158,4.820617387979784,-6.632255099248141e-05,0.2842707633972168,-1.5318730513202112,0.0,-0.059120871126651764,0.7812995910644531,0.00024343318364117295,0.03066178783774376,0.9435700178146362,0.002843812806531787,0.21191994845867157
265.0,294.0,1.6038,-0.5264,9.2788,-0.0345,0.0308,-0.0999,-1.7541958294310511,-0.020125288516283035,2.6855554580688477,-1.7411043643951416,0.010684583336114883,2.0771734714508057,4.820677692979135,-6.35142350802198e-05,0.2817535698413849,-1.5318926016436976,0.0,-0.058312706649303436,0.7813115119934082,0.00022526907559949905,0.03104342520236969,0.9435700178146362,0.0024305558763444424,0.22769677639007568
265.0,294.0,1.6038,-0.5264,9.2788,-0.0345,0.0308,-0.0999,-1.7543240986266078,-0.019065789878368378,2.7004647254943848,-1.7409883737564087,0.010305335745215416,2.074075698852539,4.820637288480558,-6.09340968367178e-05,0.28706181049346924,-1.5318968931781214,0.0,-0.054310739040374756,0.7813156247138977,0.00019589612202253193,0.03514115884900093,0.9435822367668152,0.002157642040401697,0.11985710263252258
265.0,294.0,1.6038,-0.5264,9.2788,-0.0345,0.0308,-0.0999,-1.7544199428954066,-0.017818443477153778,2.7035164833068848,-1.7410088777542114,0.009563221596181393,2.067714214324951,4.820617395430364,-7.026315870461985e-05,0.2823776602745056,-1.5319011847125452,0.0,-0.040363509207963943,0.7812637686729431,0.00020787477842532098,0.023520249873399734,0.943654477596283,0.0016640092944726348,0.16588068008422852
265.0,294.0,1.6038,-0.5264,9.2788,-0.0345,0.0308,-0.0999,-1.754613538781637,-0.017419971525669098,2.7279582023620605,-1.740952968597412,0.009263490326702595,2.0784912109375,4.820697213500299,-6.762664997950196e-05,0.27734360098838806,-1.5318768660174769,0.0,-0.03706766292452812,0.7813073396682739,0.00018638413166627288,0.04340745136141777,0.9436221122741699,0.0010637128725647926,0.14030568301677704
265.0,294.0,1.6038,-0.5264,9.2788,-0.0345,0.0308,-0.0999,-1.7546688518919886,-0.015684805810451508,2.683201789855957,-1.7408888339996338,0.008002080023288727,2.1114134788513184,4.820653225272455,-7.58562600822188e-05,0.27348124980926514,-1.531921688710348,0.0,-0.037934232503175735,0.7813279032707214,0.00019700867414940149,0.04586410894989967,0.9436019659042358,0.000780985108576715,0.14497148990631104
265.0,294.0,1.6038,-0.5264,9.2788,-0.0345,0.0308,-0.0999,-1.7547604046263636,-0.013016026467084885,2.7220139503479004,-1.7408978939056396,0.006966550834476948,2.091818332672119,4.820609512716093,-7.338363502640277e-05,0.27732449769973755,-1.5318730513202112,0.0,-0.0466674380004406,0.7813118100166321,0.00018013826047535986,0.0367402657866478,0.9436585307121277,0.0006504966295324266,0.12637290358543396
265.0,294.0,1.6038,-0.5264,9.2788,-0.0345,0.0308,-0.0999,-1.7548366985716761,-0.010275166481733322,2.654892921447754,-1.740797519683838,0.006155792623758316,2.1199398040771484,4.8206494999821565,-7.011676643742248e-05,0.2899029850959778,-1.5318368116961878,0.0,-0.03644023463129997,0.7812795639038086,0.00018471460498403758,0.05124857649207115,0.9436019659042358,0.00037163009983487427,0.10306908190250397
265.0,294.0,1.6038,-0.5264,9.2788,-0.0345,0.0308,-0.0999,-1.7549010715880335,-0.008230140432715416,2.7062697410583496,-1.7407417297363281,0.005826722364872694,2.11409330368042,4.820665004640379,-1.65757114700682e-07,0.2774960696697235,-1.5318411032306116,0.0,-0.037323959171772,0.7813236713409424,0.0001715361577225849,0.04640701040625572,0.9436179399490356,0.00029782424098812044,0.11762450635433197
265.0,294.0,1.6038,-0.5264,9.2788,-0.0345,0.0308,-0.0999,-1.7549816570677699,-0.006637497805058956,2.7162675857543945,-1.7406734228134155,0.0054693687707185745,2.0198307037353516,4.820653255074777,-4.613910295492296e-11,0.28688937425613403,-1.5318849722491663,0.0,-0.038353919982910156,0.7812913656234741,0.00016806964413262904,0.055307939648628235,0.9436221122741699,0.0002484808792360127,0.12507641315460205
265.0,294.0,1.6038,-0.5264,9.2788,-0.0345,0.0308,-0.0999,-1.7550374470152796,-0.005028938874602318,2.6787261962890625,-1.7407218217849731,0.005688064731657505,2.139960527420044,4.820625367551603,-1.284298883197756e-14,0.28198471665382385,-1.5318692366229456,0.0,-0.026197290048003197,0.7812713384628296,0.00015122303739190102,0.04971332103013992,0.9436342716217041,0.00021316524362191558,0.06563134491443634
265.0,280.0,1.7402,-0.3117,9.3757,-0.0367,0.0027,-0.1156,-1.755045553246969,-0.00463459175080061,2.717710494995117,-1.740613341331482,0.006058999337255955,2.0567421913146973,4.820589433401384,-3.57489304130973e-18,0.29190367460250854,-1.5318530241595667,0.0,-0.02761148475110531,0.7812913656234741,0.0001373721461277455,0.04304037243127823,0.9436420798301697,0.0002237879962194711,0.07321947067975998
265.0,280.0,1.7402,-0.3117,9.3757,-0.0367,0.0027,-0.1156,-1.7550412617125453,-0.0032152244821190834,2.7394320964813232,-1.740669846534729,0.006234489846974611,2.100276470184326,4.820629346161642,-9.950845444106542e-22,0.2885032594203949,-1.5318568388568323,0.0,-0.022842256352305412,0.7813196778297424,0.00015098521544132382,0.05150090157985687,0.9436261057853699,0.00019918297766707838,0.03960845619440079
265.0,280.0,1.7402,-0.3117,9.3757,-0.0367,0.0027,-0.1156,-1.7551218471922816,-0.002127937274053693,2.7132768630981445,-1.7406015396118164,0.007151085417717695,2.1100809574127197,4.820641259640016,-2.7698545733878387e-25,0.28051039576530457,-1.531832520161764,0.0,-0.028870169073343277,0.781351625919342,0.00013932501315139234,0.05860907584428787,0.9436421394348145,0.00020920987299177796,0.09784303605556488
265.0,280.0,1.7402,-0.3117,9.3757,-0.0367,0.0027,-0.1156,-1.755101820031637,-0.0014366332907229662,2.7197184562683105,-1.7405177354812622,0.00842388067394495,2.10205078125,4.820653173118391,-7.709991688783462e-29,0.29776597023010254,-1.5318687597857874,0.0,-0.035694800317287445,0.7813277840614319,0.00015081836318131536,0.04688440263271332,0.9436342716217041,0.00018248481501359493,0.055396758019924164
265.0,280.0,1.7402,-0.3117,9.3757,-0.0367,0.0027,-0.1156,-1.7550770244994105,-0.0011760182678699493,2.707747459411621,-1.7404453754425049,0.01030683796852827,2.109337568283081,4.82063344398097,-2.146104444400066e-32,0.2904983162879944,-1.5319173971759241,0.0,-0.020964521914720535,0.7813597917556763,0.00014075497165322304,0.06490039825439453,0.943710446357727,0.0002150686486857012,0.06399259716272354
265.0,280.0,1.7402,-0.3117,9.3757,-0.0367,0.0027,-0.1156,-1.7550727329649867,-0.0010909251868724823,2.7037978172302246,-1.7404462099075317,0.011206211522221565,2.136739730834961,4.820580962091245,-5.9737609131006845e-36,0.2866624593734741,-1.5318287054644983,0.0,-0.031432051211595535,0.7813196778297424,0.000150673819007352,0.05249106138944626,0.9436461925506592,0.0002329406124772504,0.08046762645244598
265.0,280.0,1.7402,-0.3117,9.3757,-0.0367,0.0027,-0.1156,-1.7551056347289027,-0.0011903820559382439,2.639646530151367,-1.740362286567688,0.012752621434628963,2.0886735916137695,4.820625367551603,-1.6628185928263647e-39,0.296955943107605,-1.5318449179278772,0.0,-0.022485196590423584,0.7812913656234741,0.00014184718020260334,0.06320398300886154,0.943678081035614,0.000459301401861012,0.04831169173121452
265.0,280.0,1.7402,-0.3117,9.3757,-0.0367,0.0027,-0.1156,-1.755113264123434,-0.0013637630036100745,2.680844306945801,-1.7402865886688232,0.014050333760678768,2.100877285003662,4.820661137789049,-4.624284932271896e-43,0.28476911783218384,-1.5318530241595667,0.0,-0.03198601305484772,0.7813115119934082,0.00015399458061438054,0.05952589213848114,0.9436740875244141,0.00042289961129426956,0.02395961433649063
265.0,280.0,1.7402,-0.3117,9.3757,-0.0367,0.0027,-0.1156,-1.755125185052389,-0.0018834052607417107,2.661374092102051,-1.7402069568634033,0.01576675847172737,2.0788092613220215,4.820629346161642,-0.0,0.2835361361503601,-1.5318487326251429,0.0,-0.027362331748008728,0.7813156247138977,0.00014237946015782654,0.05081920325756073,0.9436700344085693,0.00039950478821992874,0.04934626445174217
265.0,280.0,1.7402,-0.3117,9.3757,-0.0367,0.0027,-0.1156,-1.755113264123434,-0.002097145188599825,2.679769992828369,-1.7400307655334473,0.01723167672753334,2.118577003479004,4.820657144277849,-0.0,0.2874913215637207,-1.5318973700152796,0.0,-0.03057938627898693,0.7812913656234741,0.00014930010365787894,0.054447904229164124,0.9436941146850586,0.00038625395973213017,0.022979941219091415
265.0,280.0,1.7402,-0.3117,9.3757,-0.0367,0.0027,-0.1156,-1.7551452122130335,-0.002431656466796994,2.665708065032959,-1.739894986152649,0.019041314721107483,2.0811028480529785,4.820649209409513,-0.0,0.2891784906387329,-1.5319049994098108,0.0,-0.029287263751029968,0.7812597155570984,0.00013987421698402613,0.05215614289045334,0.9436941146850586,0.00043685277341865003,0.03337184712290764
265.0,280.0,1.7402,-0.3117,9.3757,-0.0367,0.0027,-0.1156,-1.755181451837057,-0.0027149696834385395,2.6927757263183594,-1.7398077249526978,0.021104170009493828,2.11335825920105,4.82065715172843,-0.0,0.27349892258644104,-1.5318849722491663,0.0,-0.014063331298530102,0.7813639044761658,0.00015068349603097886,0.04827546700835228,0.9436821937561035,0.0005575251416303217,0.04130134731531143
265.0,280.0,1.7402,-0.3117,9.3757,-0.0367,0.0027,-0.1156,-1.7551733456053675,-0.0026732429396361113,2.6773271560668945,-1.7396599054336548,0.022933077067136765,2.0928399562835693,4.820677335351267,-0.0,0.28161656856536865,-1.5318892637835901,0.0,-0.0182238407433033,0.7813396453857422,0.00014123512664809823,0.052569903433322906,0.9437183737754822,0.0005947445752099156,0.006499111652374268
265.0,280.0,1.7402,-0.3117,9.3757,-0.0367,0.0027,-0.1156,-1.7551566563048304,-0.003111464437097311,2.6514503955841064,-1.7395168542861938,0.02429920993745327,2.1587471961975098,4.820645364909925,-0.0,0.2923172116279602,-1.531844441090719,0.0,-0.03100653551518917,0.7813032269477844,0.0001510741567471996,0.043015606701374054,0.9437183141708374,0.0005481971311382949,0.04255138337612152
265.0,280.0,1.7402,-0.3117,9.3757,-0.0367,0.0027,-0.1156,-1.7552415333189906,-0.00333978864364326,2.6188125610351562,-1.7393852472305298,0.02526543103158474,2.1369950771331787,4.820625389903345,-0.0,0.28186362981796265,-1.5318811575519007,0.0,-0.026087287813425064,0.7813355922698975,0.0001425937662133947,0.0592840276658535,0.9436941742897034,0.0004901152569800615,0.05061158537864685
264.0,279.0,1.5775,-0.2698,9.5988,-0.0255,0.0371,-0.1081,-1.7552291355528773,-0.003665442578494549,2.618253707885742,-1.7392617464065552,0.025199031457304955,2.1708574295043945,4.820621433645048,-0.0,0.29546618461608887,-1.5318768660174769,0.0,-0.02713754028081894,0.7813355922698975,0.00017642953025642782,0.04654499143362045,0.9437183737754822,0.0003693821490742266,-0.018962284550070763
264.0,279.0,1.5775,-0.2698,9.5988,-0.0255,0.0371,-0.1081,-1.755204816857809,-0.003712151199579239,2.6244359016418457,-1.7390576601028442,0.026413369923830032,2.10310435295105,4.820625389903345,-0.0,0.2956010699272156,-1.5318849722491663,0.0,-0.04820801317691803,0.7813515663146973,0.00018730951705947518,0.06904822587966919,0.9436781406402588,0.0002963794395327568,-0.03107341192662716
264.0,279.0,1.5775,-0.2698,9.5988,-0.0255,0.0371,-0.1081,-1.7553378544249476,-0.003841394791379571,2.671830654144287,-1.738921880722046,0.02525697648525238,2.1464476585388184,4.820589291840353,-0.0,0.29113587737083435,-1.5319011847125452,0.0,-0.03315359354019165,0.7813073396682739,0.00017140356067102402,0.07077911496162415,0.9436658620834351,0.00024747391580604017,-0.01656532660126686
264.0,279.0,1.5775,-0.2698,9.5988,-0.0255,0.0371,-0.1081,-1.7553540668883265,-0.004073177929967642,2.6669349670410156,-1.7387467622756958,0.023577025160193443,2.1142728328704834,4.820681254356661,-0.0,0.29134273529052734,-1.5318487326251429,0.0,-0.03906258940696716,0.781347930431366,0.0001821281766751781,0.07057032734155655,0.9437142014503479,0.0002549081400502473,-0.02898348495364189
264.0,279.0,1.5775,-0.2698,9.5988,-0.0255,0.0371,-0.1081,-1.7553535900511683,-0.004788094665855169,2.6570000648498535,-1.7385988235473633,0.023266013711690903,2.1238434314727783,4.820685255318441,-0.0,0.2882688045501709,-1.531877342854635,0.0,-0.02735982835292816,0.7813073396682739,0.00019155685731675476,0.06412484496831894,0.9437223672866821,0.0002232856204500422,-0.01612144149839878
264.0,279.0,1.5775,-0.2698,9.5988,-0.0255,0.0371,-0.1081,-1.755385538140768,-0.005059295333921909,2.606626510620117,-1.7384991645812988,0.02132902294397354,2.0812900066375732,4.820685337274828,-0.0,0.28418073058128357,-1.5319092909442347,0.0,-0.030458834022283554,0.7813355922698975,0.0002306792448507622,0.05441613867878914,0.9437342286109924,0.00026095021166838706,0.01592000015079975
264.0,279.0,1.5775,-0.2698,9.5988,-0.0255,0.0371,-0.1081,-1.7554017506041468,-0.006029181182384491,2.5950093269348145,-1.7383025884628296,0.0206542257219553,2.1360080242156982,4.82059724906043,-0.0,0.2963753044605255,-1.5319011847125452,0.0,-0.03920789062976837,0.7813355922698975,0.0002545672468841076,0.06796658784151077,0.943742036819458,0.000231354555580765,-0.07373402267694473
264.0,279.0,1.5775,-0.2698,9.5988,-0.0255,0.0371,-0.1081,-1.7554217777647914,-0.005567614454776049,2.5960474014282227,-1.738179087638855,0.02009897120296955,2.1226415634155273,4.820629361062803,-0.0,0.2871292531490326,-1.5318449179278772,0.0,-0.04311051964759827,0.7813194990158081,0.0002602654858492315,0.06970418989658356,0.9437219500541687,0.00027799131930805743,0.005451580975204706
264.0,279.0,1.5775,-0.2698,9.5988,-0.0255,0.0371,-0.1081,-1.7554699383177699,-0.006334800738841295,2.5715718269348145,-1.7381446361541748,0.02017766237258911,2.1346495151519775,4.820601287275114,-0.0,0.2749825119972229,-1.5318449179278772,0.0,-0.033770203590393066,0.7813798785209656,0.0002582649467512965,0.07100091874599457,0.9438064098358154,0.0016694716177880764,-0.006086742505431175
264.0,279.0,1.5775,-0.2698,9.5988,-0.0255,0.0371,-0.1081,-1.7555300197997035,-0.007806546986103058,2.626434326171875,-1.7380163669586182,0.02112225815653801,2.1178455352783203,4.820677335351267,-0.0,0.2792128026485443,-1.5319135824786585,0.0,-0.04331819340586662,0.7813355922698975,0.0002402269747108221,0.08194530755281448,0.9437539577484131,0.0024752237368375063,-0.007443088106811047
264.0,279.0,1.5775,-0.2698,9.5988,-0.0255,0.0371,-0.1081,-1.7556101284422816,-0.010158685967326164,2.586571216583252,-1.7377842664718628,0.02251409739255905,2.1800339221954346,4.820653188019552,-0.0,0.28471699357032776,-1.5318892637835901,0.0,-0.04240800440311432,0.7813876271247864,0.0003152290009893477,0.062057770788669586,0.9437940120697021,0.0036888178437948227,-0.04194554686546326
264.0,279.0,1.5775,-0.2698,9.5988,-0.0255,0.0371,-0.1081,-1.7556539974608363,-0.01225236989557743,2.5648908615112305,-1.7376930713653564,0.02385135367512703,2.119988441467285,4.820601518243112,-0.0,0.28921452164649963,-1.5319011847125452,0.0,-0.03471226617693901,0.7813115119934082,0.0002786718832794577,0.05717536807060242,0.9438502192497253,0.004399192053824663,0.02216457761824131
264.0,279.0,1.5775,-0.2698,9.5988,-0.0255,0.0371,-0.1081,-1.7557217083373011,-0.014769400469958782,2.5770392417907715,-1.7375138998031616,0.02638588845729828,2.173440933227539,4.820685337274828,-0.0,0.2975170612335205,-1.5319173971759241,0.0,-0.03813036531209946,0.7813474535942078,0.000281474000075832,0.059546202421188354,0.9438539147377014,0.005416995845735073,0.04065535217523575
264.0,279.0,1.5775,-0.2698,9.5988,-0.0255,0.0371,-0.1081,-1.7558299503722132,-0.016301987692713737,2.6040639877319336,-1.7373460531234741,0.02819090336561203,2.1144962310791016,4.8206094829137704,-0.0,0.2868700623512268,-1.5318768660174769,0.0,-0.04204776510596275,0.7813839316368103,0.00027897945255972445,0.06990598887205124,0.9439021348953247,0.006714740768074989,-0.01575089991092682
257.0,268.0,1.4088,-0.6849,9.2136,-0.0454,0.0408,-0.1034,-1.7559987507262171,-0.018184397369623184,2.5814101696014404,-1.7372019290924072,0.03239365294575691,2.1119470596313477,4.820649470179834,-0.0,0.29795822501182556,-1.5318926016436976,0.0,-0.03389915078878403,0.7813032269477844,0.00025370329967699945,0.05791117995977402,0.9439619183540344,0.007736634463071823,0.07413451373577118
257.0,268.0,1.4088,-0.6849,9.2136,-0.0454,0.0408,-0.1034,-1.7561031780638636,-0.0204366073012352,2.555816650390625,-1.73697829246521,0.03382032364606857,2.141709566116333,4.820645379811086,-1.5617170845416695e-07,0.28848975896835327,-1.5319011847125452,0.0,-0.05872936546802521,0.7813556790351868,0.0002409567532595247,0.05542059987783432,0.943953275680542,0.009614197537302971,0.04295947030186653
257.0,268.0,1.4088,-0.6849,9.2136,-0.0454,0.0408,-0.1034,-1.7562915287413539,-0.02261205203831196,2.518439769744873,-1.7367914915084839,0.036943450570106506,2.1425421237945557,4.820617425232687,-4.3470976818227314e-11,0.29233330488204956,-1.5318530241595667,0.0,-0.04600780829787254,0.781387984752655,0.00020774136646650732,0.07093339413404465,0.9440940022468567,0.011349311098456383,0.016628094017505646
257.0,268.0,1.4088,-0.6849,9.2136,-0.0454,0.0408,-0.1034,-1.7563916645445765,-0.025871044024825096,2.5436155796051025,-1.7365398406982422,0.03954770788550377,2.175776481628418,4.820669176965513,-1.2100305261627305e-14,0.28320610523223877,-1.5319011847125452,0.0,-0.04279608279466629,0.7813392281532288,0.0002176877751480788,0.04330050200223923,0.9440816640853882,0.0134169552475214,0.021716587245464325
257.0,268.0,1.4088,-0.6849,9.2136,-0.0454,0.0408,-0.1034,-1.7565833530821742,-0.031207190826535225,2.538853645324707,-1.7363241910934448,0.04235449060797691,2.1459574699401855,4.820609393506803,-3.3681640626204775e-18,0.2838659882545471,-1.5318649450885218,0.0,-0.0395122766494751,0.7814199328422546,0.0001952045422513038,0.07408580929040909,0.9442743062973022,0.015602870844304562,0.04744140803813934
257.0,268.0,1.4088,-0.6849,9.2136,-0.0454,0.0408,-0.1034,-1.7567478619017542,-0.034747276455163956,2.512561559677124,-1.736021637916565,0.04608062282204628,2.181319236755371,4.82065329232768,-9.37540864798254e-22,0.2830347418785095,-1.5319049994098108,0.0,-0.04380885511636734,0.7813114523887634,0.0001760974555509165,0.058872289955616,0.9443175792694092,0.01804015226662159,0.07699839770793915
257.0,268.0,1.4088,-0.6849,9.2136,-0.0454,0.0408,-0.1034,-1.756956239739889,-0.03990519791841507,2.5258491039276123,-1.7357378005981445,0.05000230669975281,2.2077653408050537,4.820657174080171,-2.6096795713301397e-25,0.27397310733795166,-1.531877342854635,0.0,-0.040287114679813385,0.7813594341278076,0.00018689699936658144,0.06700645387172699,0.9444617629051208,0.020178867504000664,0.06486986577510834
257.0,268.0,1.4088,-0.6849,9.2136,-0.0454,0.0408,-0.1034,-1.757188459435934,-0.04526284709572792,2.463496685028076,-1.7353990077972412,0.05389946326613426,2.1391749382019043,4.820637325733461,-7.264139508510924e-29,0.25937893986701965,-1.5318806807147425,0.0,-0.044363316148519516,0.7813798189163208,0.00017182175361085683,0.07268515974283218,0.944593608379364,0.022706711664795876,0.06482181698083878
257.0,268.0,1.4088,-0.6849,9.2136,-0.0454,0.0408,-0.1034,-1.7574802837767542,-0.05380948632955551,2.486356019973755,-1.7351313829421997,0.05770685523748398,2.1621179580688477,4.820605265885153,-2.0219998650704766e-32,0.2714974284172058,-1.5319245497332972,0.0,-0.04294233396649361,0.781387984752655,0.00015882603474892676,0.05406612902879715,0.944725751876831,0.02540440298616886,0.04270779713988304
257.0,268.0,1.4088,-0.6849,9.2136,-0.0454,0.0408,-0.1034,-1.7578898868956507,-0.06299690902233124,2.478452205657959,-1.7347285747528076,0.06189563870429993,2.149494171142578,4.820649231761255,-5.6283105735977876e-36,0.27084431052207947,-1.5319049994098108,0.0,-0.032371439039707184,0.7813434600830078,0.00014765781816095114,0.06951534748077393,0.944873571395874,0.027587583288550377,0.0913240984082222
257.0,268.0,1.4088,-0.6849,9.2136,-0.0454,0.0408,-0.1034,-1.7582341633238734,-0.0702432170510292,2.4542322158813477,-1.7343337535858154,0.06695690006017685,2.173146963119507,4.820613454073229,-1.5666614922043958e-39,0.27260151505470276,-1.5318611303912562,0.0,-0.03159697353839874,0.7813475131988525,0.00013795713311992586,0.0483422726392746,0.9449968338012695,0.029243167489767075,0.04574913904070854
257.0,268.0,1.4088,-0.6849,9.2136,-0.0454,0.0408,-0.1034,-1.758822580377096,-0.07781951129436493,2.4084043502807617,-1.7338144779205322,0.0700245276093483,2.231722831726074,4.8206214038427255,-2.802596928649634e-44,0.2812562584877014,-1.5318849722491663,0.0,-0.04941827058792114,0.7813635468482971,0.00014496655785478652,0.06451542675495148,0.945301353931427,0.030055619776248932,0.024708092212677002
257.0,268.0,1.4088,-0.6849,9.2136,-0.0454,0.0408,-0.1034,-1.759310861627096,-0.08280240744352341,2.4621944427490234,-1.733351469039917,0.07190927863121033,2.2401044368743896,4.8205813867743394,-0.0,0.27151069045066833,-1.5318687597857874,0.0,-0.02293594926595688,0.7813958525657654,0.00013670902990270406,0.05970153212547302,0.9454931020736694,0.030327802523970604,-0.046913985162973404
257.0,268.0,1.4088,-0.6849,9.2136,-0.0454,0.0408,-0.1034,-1.7598034344115199,-0.0868380144238472,2.459636688232422,-1.7328964471817017,0.07169412821531296,2.2281923294067383,4.820564876287737,-0.00010371936514275149,0.27505069971084595,-1.5318368116961878,0.0,-0.017820846289396286,0.7813594341278076,0.00012934129335917532,0.06500983238220215,0.9456002712249756,0.030111039057374,0.04940880089998245
257.0,268.0,1.4088,-0.6849,9.2136,-0.0454,0.0408,-0.1034,-1.7603522739806117,-0.08781508356332779,2.427579641342163,-1.732554316520691,0.0704241618514061,2.2051353454589844,4.820605265885153,-0.0001188806418213062,0.27667269110679626,-1.5318611303912562,0.0,-0.0174261461943388,0.7813512682914734,0.00012272715684957802,0.06288973987102509,0.9458568692207336,0.0293565783649683,-0.017539672553539276
256.0,258.0,1.3621,-0.521,9.2746,-0.033,0.0281,-0.0965,-1.7609216175475062,-0.08885465562343597,2.441690444946289,-1.7321274280548096,0.07227478176355362,2.188307762145996,4.82064592370347,-0.00015870168863330036,0.27186906337738037,-1.5318411032306116,0.0,-0.03456946462392807,0.781395435333252,0.00011675662972265854,0.07313249260187149,0.9459924101829529,0.02782285027205944,-0.05726965516805649
256.0,258.0,1.3621,-0.521,9.2746,-0.033,0.0281,-0.0965,-1.7614294491209925,-0.09410137683153152,2.4516661167144775,-1.731720209121704,0.07493060827255249,2.1948509216308594,4.820553454547682,-0.00075691775418818,0.27420440316200256,-1.531900707875387,0.0,-0.011494379490613937,0.7813032269477844,0.00011133999942103401,0.06318821012973785,0.9462246894836426,0.02791471965610981,-0.026087235659360886
256.0,258.0,1.3621,-0.521,9.2746,-0.033,0.0281,-0.0965,-1.76200594524526,-0.10044609010219574,2.430219888687134,-1.731192946434021,0.07812262326478958,2.2150027751922607,4.820569503098287,-0.0010826813522726297,0.2734479308128357,-1.53186542192568,0.0,-0.008396145887672901,0.7813233137130737,0.00010640360414981842,0.059515900909900665,0.9463521838188171,0.025012407451868057,-0.06967576593160629
256.0,258.0,1.3621,-0.521,9.2746,-0.033,0.0281,-0.0965,-1.7626596889891566,-0.10518438369035721,2.4731602668762207,-1.7307027578353882,0.08164197951555252,2.1955370903015137,4.8206015703971765,-0.0007239357219077647,0.28529471158981323,-1.5318568388568323,0.0,-0.022212769836187363,0.7813512086868286,0.0001018865586956963,0.05995709449052811,0.9464840292930603,0.024532347917556763,-0.03462184593081474
256.0,258.0,1.3621,-0.521,9.2746,-0.033,0.0281,-0.0965,-1.7632562122740687,-0.11290888488292694,2.403256893157959,-1.7301640510559082,0.09018471837043762,2.213156223297119,4.820569398790159,-0.00020305562065914273,0.2782852053642273,-1.531849209462301,0.0,-0.01987707056105137,0.7813475728034973,9.7737240139395e-05,0.06166709214448929,0.9466195106506348,0.02370074763894081,-0.06599283963441849
256.0,258.0,1.3621,-0.521,9.2746,-0.033,0.0281,-0.0965,-1.7639290295042933,-0.115684375166893,2.414989471435547,-1.7296301126480103,0.09873403608798981,2.2297346591949463,4.8205493343766115,-0.0001507259439677,0.26916006207466125,-1.531853500996725,0.0,-0.012578297406435013,0.7813237309455872,9.391276398673654e-05,0.05486734211444855,0.946763277053833,0.021177712827920914,-0.05760137736797333
256.0,258.0,1.3621,-0.521,9.2746,-0.033,0.0281,-0.0965,-1.7646218738951625,-0.11758960783481598,2.4342360496520996,-1.7289422750473022,0.1045115739107132,2.1976587772369385,4.8206171719129465,-0.0001204447980853729,0.2565591037273407,-1.53186542192568,0.0,-0.01749994233250618,0.781379759311676,9.037629934027791e-05,0.06359953433275223,0.9468994736671448,0.020143916830420494,-0.0561438724398613
256.0,258.0,1.3621,-0.521,9.2746,-0.033,0.0281,-0.0965,-1.7653309307494105,-0.11750474572181702,2.4648141860961914,-1.7282967567443848,0.10701315104961395,2.217442512512207,4.820565531938829,-6.33320669294335e-05,0.2828335165977478,-1.5319092909442347,0.0,-0.01216890662908554,0.7813512086868286,8.70964940986596e-05,0.05419665575027466,0.9470031261444092,0.01919720508158207,-0.1134459376335144
256.0,258.0,1.3621,-0.521,9.2746,-0.033,0.0281,-0.0965,-1.766060014764303,-0.12102992087602615,2.4487571716308594,-1.7276896238327026,0.1063922569155693,2.1882681846618652,4.820601197868147,-4.296889892430045e-05,0.2755042314529419,-1.5318611303912562,0.0,-0.012307662516832352,0.7813917398452759,8.404644904658198e-05,0.05448922514915466,0.9471514225006104,0.018748678267002106,-0.10941056907176971
256.0,258.0,1.3621,-0.521,9.2746,-0.033,0.0281,-0.0965,-1.7667724094786585,-0.12451335042715073,2.5096230506896973,-1.7270355224609375,0.10793139785528183,2.204026699066162,4.820601190417566,-3.758157981792465e-05,0.27270999550819397,-1.5319049994098108,0.0,-0.004198958165943623,0.781295120716095,8.120277198031545e-05,0.05011820048093796,0.9472672343254089,0.018911458551883698,-0.07844190299510956
256.0,258.0,1.3621,-0.521,9.2746,-0.033,0.0281,-0.0965,-1.7674933872618617,-0.12711217999458313,2.4990744590759277,-1.7263890504837036,0.11340660601854324,2.232130527496338,4.820605288236894,-3.339707836857997e-05,0.27230972051620483,-1.5318811575519007,0.0,-0.017689727246761322,0.7812991738319397,2.6281743430445204e-06,0.052825648337602615,0.9473994970321655,0.01905393786728382,-0.09974271059036255
256.0,258.0,1.3621,-0.521,9.2746,-0.033,0.0281,-0.0965,-1.768482347527975,-0.13118737936019897,2.5253212451934814,-1.7254440784454346,0.11738625168800354,2.2056503295898438,4.820577333658495,-2.9080089007038623e-05,0.28565219044685364,-1.5318730513202112,0.0,-0.007916110567748547,0.7813794612884521,4.776577744447508e-11,0.04252658039331436,0.9474627375602722,0.0167163647711277,-0.08470229804515839
256.0,258.0,1.3621,-0.521,9.2746,-0.033,0.0281,-0.0965,-1.7693077526488246,-0.1343325972557068,2.49593448638916,-1.7247650623321533,0.123400017619133,2.249236583709717,4.82058139422492,-2.6510102543397807e-05,0.2956661880016327,-1.5318530241595667,0.0,-0.01545821875333786,0.7813073396682739,1.3295778764261818e-14,0.037360355257987976,0.9476394653320312,0.015507698059082031,-0.1477343589067459
256.0,258.0,1.3621,-0.521,9.2746,-0.033,0.0281,-0.0965,-1.7701007328429164,-0.13472411036491394,2.4344518184661865,-1.7239757776260376,0.1317770630121231,2.2199268341064453,4.8205855814512155,-2.4357537768082693e-05,0.29027530550956726,-1.531877342854635,0.0,0.003326915903016925,0.7813155055046082,3.700928483292904e-18,0.047724463045597076,0.9476625919342041,0.01293063536286354,-0.16638799011707306
250.0,261.0,1.401,-0.0796,9.1705,-0.0293,0.0307,-0.0863,-1.770853658715719,-0.13188199698925018,2.5696773529052734,-1.7231777906417847,0.13237205147743225,2.2893221378326416,4.820589433401384,-2.252831109217368e-05,0.2806423008441925,-1.53186542192568,0.0,-0.0050241719000041485,0.7813155055046082,1.0301671199973286e-21,0.05161012336611748,0.9477224349975586,0.010970569215714931,-0.1957499384880066
250.0,261.0,1.401,-0.0796,9.1705,-0.0293,0.0307,-0.0863,-1.771646638909811,-0.1352912038564682,2.5327446460723877,-1.7224068641662598,0.12671366333961487,2.236067771911621,4.820593367307939,-2.095465242746286e-05,0.27934736013412476,-1.53186542192568,0.0,-0.009330416098237038,0.7813717126846313,2.867507418326115e-25,0.04737941920757294,0.947802722454071,0.008372527547180653,-0.13114754855632782
250.0,261.0,1.401,-0.0796,9.1705,-0.0293,0.0307,-0.0863,-1.7724839649596156,-0.14279966056346893,2.553910970687866,-1.7216194868087769,0.12790796160697937,2.240719795227051,4.820589358895578,-2.5718773031258024e-06,0.2825527787208557,-1.531849209462301,0.0,-0.013118733651936054,0.7813355922698975,7.981814431868738e-29,0.03866898640990257,0.9478022456169128,0.005570495966821909,-0.11425836384296417
250.0,261.0,1.401,-0.0796,9.1705,-0.0293,0.0307,-0.0863,-1.773268838922018,-0.14451010525226593,2.563018798828125,-1.7207916975021362,0.13265271484851837,2.251070737838745,4.8205933449561975,-7.158913462035343e-10,0.2873881161212921,-1.5318167845355433,0.0,-0.0038198765832930803,0.7813475131988525,2.221767489279444e-32,0.025904379785060883,0.9478182792663574,0.0035082190297544003,-0.11370085179805756
250.0,261.0,1.401,-0.0796,9.1705,-0.0293,0.0307,-0.0863,-1.7741581402220667,-0.14144763350486755,2.515753746032715,-1.7200279235839844,0.13810715079307556,2.2505269050598145,4.8205893886979005,-1.9927100605460907e-13,0.29477158188819885,-1.5318611303912562,0.0,-0.0033971061930060387,0.7813155055046082,6.18437163297517e-36,0.04855170100927353,0.9478263258934021,0.001829994493164122,-0.13158777356147766
250.0,261.0,1.401,-0.0796,9.1705,-0.0293,0.0307,-0.0863,-1.7749706707396449,-0.13361020386219025,2.610413074493408,-1.7191920280456543,0.14582228660583496,2.2802088260650635,4.820577497571268,-5.54678102758825e-17,0.3025340437889099,-1.5318487326251429,0.0,-0.017051421105861664,0.7812872529029846,1.7214419140813934e-39,0.03417259454727173,0.9478341937065125,0.000827107229270041,-0.14774982631206512
250.0,261.0,1.401,-0.0796,9.1705,-0.0293,0.0307,-0.0863,-1.775856157342428,-0.12994399666786194,2.577425956726074,-1.718235969543457,0.1511213481426239,2.262498617172241,4.820545661240377,-1.5439668637774647e-20,0.28216564655303955,-1.531832520161764,0.0,-0.018902920186519623,0.781351625919342,4.792440747990874e-43,0.04088158532977104,0.9478341937065125,0.0005328886327333748,-0.16039907932281494
250.0,261.0,1.401,-0.0796,9.1705,-0.0293,0.0307,-0.0863,-1.7766972980894984,-0.13719461858272552,2.560539722442627,-1.717360258102417,0.15017034113407135,2.252387762069702,4.820609214692869,-4.2976881792342e-24,0.28907084465026855,-1.5318806807147425,0.0,-0.01298568770289421,0.7813958525657654,0.0,0.022076990455389023,0.9478542804718018,0.0005229676607996225,-0.2020295411348343
250.0,261.0,1.401,-0.0796,9.1705,-0.0293,0.0307,-0.0863,-1.7775865993895472,-0.14926856756210327,2.5974314212799072,-1.7164803743362427,0.14754055440425873,2.3243398666381836,4.820597323566236,-1.1962773256675375e-27,0.29954031109809875,-1.531809155141012,0.0,-0.004290180280804634,0.7813277840614319,0.0,0.04369211196899414,0.9478703141212463,0.0005034296191297472,-0.15789270401000977
250.0,261.0,1.401,-0.0796,9.1705,-0.0293,0.0307,-0.0863,-1.7784482441344203,-0.1638178527355194,2.5776970386505127,-1.7155721187591553,0.14947156608104706,2.234832286834717,4.820629331260481,-3.329881622291835e-31,0.2937544882297516,-1.531849209462301,0.0,-0.022112222388386726,0.7814160585403442,0.0,0.041566211730241776,0.947830080986023,0.00031168514396995306,-0.1576308310031891
250.0,261.0,1.401,-0.0796,9.1705,-0.0293,0.0307,-0.0863,-1.7794014416136683,-0.16847237944602966,2.532571315765381,-1.7145745754241943,0.15619951486587524,2.3241689205169678,4.8206494999821565,2.826383752108086e-05,0.29794928431510925,-1.5318611303912562,0.0,-0.012981461361050606,0.7813798189163208,0.0,0.04027780890464783,0.9478140473365784,0.00020645400218199939,-0.17299461364746094
250.0,261.0,1.401,-0.0796,9.1705,-0.0293,0.0307,-0.0863,-1.7807156048216761,-0.14670702815055847,2.6363792419433594,-1.7133194208145142,0.1687925010919571,2.291100025177002,4.820633339672842,0.00025078884209506214,0.2955571413040161,-1.5318930784808558,0.0,-0.01419445313513279,0.7813639044761658,3.7835118860130024e-07,0.022625941783189774,0.9478906989097595,0.00012601105845533311,-0.14452597498893738
250.0,261.0,1.401,-0.0796,9.1705,-0.0293,0.0307,-0.0863,-1.7816368542113246,-0.13432084023952484,2.6306023597717285,-1.712274193763733,0.17011472582817078,2.3464548587799072,4.820645402162828,0.0002470637846272439,0.295672744512558,-1.5318649450885218,0.0,-0.024463128298521042,0.7813438177108765,1.0531545080461058e-10,0.04622665420174599,0.94788658618927,0.00014679030573461205,-0.14539054036140442
250.0,261.0,1.401,-0.0796,9.1705,-0.0293,0.0307,-0.0863,-1.782619138757223,-0.14424534142017365,2.65769624710083,-1.711307168006897,0.17092964053153992,2.313791275024414,4.820605265885153,0.000183709358680062,0.29732486605644226,-1.5318611303912562,0.0,-0.01158878393471241,0.7813315391540527,2.9314942942733346e-14,0.031736377626657486,0.9478743076324463,0.00016543683886993676,-0.10633335262537003
