ramyac6/ROB537/final_project/csv/all/good_5.csv
tof_0,tof_1,accelx,accely,accelz,gyrox,gyroy,gyroz,shoulder_lift_joint_position,shoulder_lift_joint_velocity,shoulder_lift_joint_effort,elbow_joint_position,elbow_joint_velocity,elbow_joint_effort,wrist_1_joint_position,wrist_1_joint_velocity,wrist_1_joint_effort,wrist_2_joint_position,wrist_2_joint_velocity,wrist_2_joint_effort,wrist_3_joint_position,wrist_3_joint_velocity,wrist_3_joint_effort,shoulder_pan_joint_position,shoulder_pan_joint_velocity,shoulder_pan_joint_effort
826.0,863.0,-5.4066,-0.4343,8.3043,-0.0351,0.0313,-0.1174,-2.3295446834959925,0.0,4.586856842041016,-1.5114455223083496,-0.0,1.6764088869094849,-0.4105500739863892,-0.0,0.20004522800445557,-1.5972979704486292,-0.0,-0.005951744969934225,0.5560706853866577,0.0,0.005372202955186367,1.167346715927124,-0.00038645867607556283,0.03922643885016441
826.0,863.0,-5.4066,-0.4343,8.3043,-0.0351,0.0313,-0.1174,-2.329552789727682,0.0,4.605783462524414,-1.5113929510116577,-0.0,1.6149746179580688,-0.410574273472168,-0.0,0.18778660893440247,-1.5972655455218714,-0.0,0.0018873494118452072,0.5560625791549683,0.0,0.0047727832570672035,1.1673589944839478,-0.0003442212182562798,0.03150438517332077
826.0,863.0,-5.4066,-0.4343,8.3043,-0.0351,0.0313,-0.1174,-2.329496522943014,0.0,4.631320953369141,-1.5114414691925049,-0.0,1.6468514204025269,-0.41056616724047856,-0.0,0.19428780674934387,-1.5972979704486292,-0.0,-0.0037790359929203987,0.5561350584030151,0.0,0.007882230915129185,1.1672700643539429,-0.0002957406104542315,-0.0053525930270552635
826.0,863.0,-5.4066,-0.4343,8.3043,-0.0351,0.0313,-0.1174,-2.3294884167113246,0.0,4.619243621826172,-1.5114738941192627,-0.0,1.639049768447876,-0.41052623212847905,-0.0,0.19462212920188904,-1.5972541014300745,-0.0,0.009082216769456863,0.5560829639434814,0.0,-0.0003861670265905559,1.1673548221588135,-0.00025923034991137683,-0.01543902512639761
826.0,863.0,-5.4066,-0.4343,8.3043,-0.0351,0.0313,-0.1174,-2.32949223140859,0.0,4.653758525848389,-1.5114693641662598,-0.0,1.677267074584961,-0.410614089374878,-2.1974921082801302e-07,0.18874457478523254,-1.5973218123065394,-0.0,-0.028119342401623726,0.5560585260391235,0.0,0.0020932024344801903,1.1673630475997925,-0.0002395180199528113,-0.024227404966950417
826.0,863.0,-5.4066,-0.4343,8.3043,-0.0351,0.0313,-0.1174,-2.3295327625670375,0.0,4.595657825469971,-1.5114331245422363,-0.0,1.6703475713729858,-0.41051407278094487,-6.116799428079744e-11,0.20994126796722412,-1.5972617308246058,-0.0,-0.005687197670340538,0.556090772151947,0.0,0.007269442081451416,1.1672946214675903,-0.00021499581634998322,0.001965973526239395
826.0,863.0,-5.4066,-0.4343,8.3043,-0.0351,0.0313,-0.1174,-2.3294602833189906,0.0,4.680652141571045,-1.511489748954773,-0.0,1.6387779712677002,-0.410566048031189,-1.7026338021766674e-14,0.18988604843616486,-1.5972698370562952,-0.0,-0.001922213239595294,0.5561108589172363,0.0,0.00494346721097827,1.167338490486145,-0.00022287393221631646,1.2870877981185913e-06
826.0,863.0,-5.4066,-0.4343,8.3043,-0.0351,0.0313,-0.1174,-2.329508443871969,0.0,4.598974227905273,-1.5114455223083496,-0.0,1.6086127758026123,-0.41057832658801274,-4.73934372733176e-18,0.19771592319011688,-1.5973017851458948,-0.0,-0.0022906491067260504,0.5561067461967468,0.0,0.0055160499177873135,1.1673709154129028,-0.00020394865714479238,0.007843993604183197
826.0,863.0,-5.4066,-0.4343,8.3043,-0.0351,0.0313,-0.1174,-2.329496522943014,0.0,4.6236066818237305,-1.5114656686782837,-0.0,1.6565678119659424,-0.41061444700274663,-2.0204569854965338e-20,0.21093419194221497,-1.597274128590719,-0.0,-0.011768784373998642,0.556066632270813,0.0,0.002535835839807987,1.167338490486145,-0.00019301378051750362,-0.004183528013527393
817.0,869.0,-5.3689,-0.4816,8.2971,-0.0353,0.0299,-0.1199,-2.329500814477438,0.0,4.622354030609131,-1.5114578008651733,-0.0,1.7040305137634277,-0.41059430063281255,-5.624016585261297e-24,0.1927756369113922,-1.5973017851458948,-0.0,-0.002532043494284153,0.5561350584030151,0.0,0.005367020145058632,1.1673426628112793,-0.0001786462962627411,-0.03903722018003464
817.0,869.0,-5.3689,-0.4816,8.2971,-0.0353,0.0299,-0.1199,-2.329512735406393,0.0,4.692935943603516,-1.5114656686782837,-0.0,1.688274621963501,-0.4105702203563233,-1.5654657700549266e-27,0.19603221118450165,-1.5972250143634241,-0.0,-0.008083115331828594,0.5561555027961731,0.0,0.008529650047421455,1.1673388481140137,-0.0001662700524320826,-0.04227294400334358
817.0,869.0,-5.3689,-0.4816,8.2971,-0.0353,0.0299,-0.1199,-2.3295284710326136,0.0,4.639178276062012,-1.5114374160766602,-0.0,1.6683461666107178,-0.4105619949153443,-4.357532638017982e-31,0.21265941858291626,-1.597245995198385,-0.0,-0.013945028185844421,0.5561309456825256,0.0,0.0015435448149219155,1.1673548221588135,-0.00015549725503660738,0.05181603133678436
817.0,869.0,-5.3689,-0.4816,8.2971,-0.0353,0.0299,-0.1199,-2.3295284710326136,0.0,4.60699462890625,-1.5114537477493286,-0.0,1.6896682977676392,-0.41055782259021,-1.85768441579834e-33,0.19480541348457336,-1.597274128590719,-0.0,-0.016994725912809372,0.5561350584030151,0.0,0.0054169995710253716,1.1673471927642822,-0.00010278704576194286,-0.0053687673062086105
817.0,869.0,-5.3689,-0.4816,8.2971,-0.0353,0.0299,-0.1199,-2.329480310479635,0.0,4.615824222564697,-1.511405348777771,-0.0,1.6590181589126587,-0.4105861944011231,-5.170933481074796e-37,0.18397009372711182,-1.5972378889666956,-0.0,-0.0005903427954763174,0.5560747981071472,0.0,-0.00020147547184024006,1.167354941368103,-0.00011310509580653161,0.006353897042572498
817.0,869.0,-5.3689,-0.4816,8.2971,-0.0353,0.0299,-0.1199,-2.3295003376402796,0.0,4.614194393157959,-1.5114976167678833,-0.0,1.6553552150726318,-0.4105981153300782,-0.0001533555332571268,0.1877114474773407,-1.597285572682516,-0.0,-0.010758265852928162,0.5561108589172363,0.0,0.003468353534117341,1.1673105955123901,-0.00010840861068572849,-0.019695164635777473
817.0,869.0,-5.3689,-0.4816,8.2971,-0.0353,0.0299,-0.1199,-2.329500814477438,0.0,4.6498122215271,-1.5114614963531494,-0.0,1.6456668376922607,-0.4105582994273682,-0.00013919368211645633,0.19375821948051453,-1.597274128590719,-0.0,-0.005284294486045837,0.5561231970787048,0.0,0.007004644721746445,1.1673147678375244,-0.00011929216998396441,-0.029288962483406067
817.0,869.0,-5.3689,-0.4816,8.2971,-0.0353,0.0299,-0.1199,-2.329524656335348,0.0,4.650063991546631,-1.5114856958389282,-0.0,1.6323323249816895,-0.410574273472168,-0.0001310834486503154,0.1879459023475647,-1.5973060766803187,-0.0,-0.01732289046049118,0.5561227798461914,0.0,0.010923698544502258,1.167334794998169,-0.00011493937199702486,0.05041557550430298
817.0,869.0,-5.3689,-0.4816,8.2971,-0.0353,0.0299,-0.1199,-2.329536577264303,0.0,4.625704765319824,-1.5114374160766602,-0.0,1.6687188148498535,-0.4105902475169678,-0.00012054812395945191,0.18544498085975647,-1.5972617308246058,-0.0,-0.02569209225475788,0.5561314225196838,0.0,0.009655243717133999,1.1672987937927246,-0.000124517988297157,0.0064711421728134155
817.0,869.0,-5.3689,-0.4816,8.2971,-0.0353,0.0299,-0.1199,-2.329484602014059,0.0,4.622540473937988,-1.5114052295684814,-0.0,1.653433084487915,-0.410622314815857,-0.00011158030974911526,0.1947203129529953,-1.5972421805011194,-0.0,-0.009754888713359833,0.556058406829834,0.0,0.01523924246430397,1.1673310995101929,-0.00011839883518405259,-0.0013128533028066158
817.0,869.0,-5.3689,-0.4816,8.2971,-0.0353,0.0299,-0.1199,-2.3295003376402796,0.0,4.631621837615967,-1.5114208459854126,-0.0,1.700438380241394,-0.41056616724047856,-0.0001063081290340051,0.1837642788887024,-1.5972898642169397,-0.0,-0.0002948914188891649,0.5561509728431702,0.0,0.00961597915738821,1.167306900024414,-0.0001146288777817972,0.027514398097991943
817.0,869.0,-5.3689,-0.4816,8.2971,-0.0353,0.0299,-0.1199,-2.3294884167113246,0.0,4.664451599121094,-1.5114094018936157,-0.0,1.6597137451171875,-0.410574273472168,-9.927235078066587e-05,0.19282561540603638,-1.5972779432879847,-0.0,-0.01718023791909218,0.5561026334762573,0.0,0.007155952043831348,1.1673589944839478,-0.00010962939995806664,-0.004964740015566349
817.0,869.0,-5.3689,-0.4816,8.2971,-0.0353,0.0299,-0.1199,-2.329496522943014,0.0,4.6179680824279785,-1.5114134550094604,-0.0,1.6047236919403076,-0.4105861944011231,-9.311002213507891e-05,0.18343693017959595,-1.5973098913775843,-0.0,-0.016683127731084824,0.5561026334762573,0.0,0.01392403244972229,1.1672905683517456,-0.00016961191431619227,0.020711220800876617
817.0,869.0,-5.3689,-0.4816,8.2971,-0.0353,0.0299,-0.1199,-2.329536577264303,0.0,4.663735866546631,-1.5114777088165283,-0.0,1.7131285667419434,-0.41061826170001225,-8.766797691350803e-05,0.18833047151565552,-1.5972779432879847,-0.0,0.004842392168939114,0.5561145544052124,0.0,0.012113939970731735,1.167306900024414,-0.00015238088963087648,0.007433529943227768
817.0,869.0,-5.3689,-0.4816,8.2971,-0.0353,0.0299,-0.1199,-2.3295089207091273,0.0,4.627161026000977,-1.5114092826843262,-0.0,1.6855219602584839,-0.4105981153300782,-9.904523176373914e-05,0.19995605945587158,-1.5973299185382288,-0.0,-0.0062364237383008,0.5561472773551941,0.0,0.00307806977070868,1.1673028469085693,-0.00014271533291321248,-0.0179046131670475
817.0,869.0,-5.3689,-0.4816,8.2971,-0.0353,0.0299,-0.1199,-2.3295046291747035,0.0,4.639899253845215,-1.5113849639892578,-0.0,1.6638519763946533,-0.41059406221423345,-9.586283704265952e-05,0.1839299499988556,-1.597257439290182,-0.0,-0.00398620031774044,0.5561670064926147,0.0,-0.001410397351719439,1.1673147678375244,-0.00013031615526415408,0.028328267857432365
817.0,869.0,-5.3689,-0.4816,8.2971,-0.0353,0.0299,-0.1199,-2.3295041523375453,0.0,4.631706237792969,-1.5114578008651733,-0.0,1.6308773756027222,-0.4105737966350098,-9.101612522499636e-05,0.18310843408107758,-1.5973299185382288,-0.0,-0.0055665005929768085,0.5560625195503235,0.0,0.0011374364839866757,1.1672905683517456,-0.00011989966878900304,0.014737721532583237
785.0,860.0,-5.3916,-0.3799,8.3504,-0.0318,0.0266,-0.1248,-2.329496522943014,0.0,4.6277265548706055,-1.5114331245422363,-0.0,1.6517086029052734,-0.41053815305743413,-8.663540938869119e-05,0.19250096380710602,-1.597274128590719,-0.0,0.0003728372394107282,0.556058406829834,0.0,-0.005826463457196951,1.1673426628112793,-0.00011102494318038225,0.015665201470255852
785.0,860.0,-5.3916,-0.3799,8.3504,-0.0318,0.0266,-0.1248,-2.3295403919615687,0.0,4.652797222137451,-1.5114496946334839,-0.0,1.6468147039413452,-0.4105981153300782,-8.394189353566617e-05,0.198623389005661,-1.5972502867328089,-0.0,-0.016854679211974144,0.5560625195503235,0.0,0.0049049281515181065,1.167334794998169,-0.00010580408707028255,0.018613314256072044
785.0,860.0,-5.3916,-0.3799,8.3504,-0.0318,0.0266,-0.1248,-2.3294722042479457,0.0,4.6362457275390625,-1.5114331245422363,-0.0,1.6708624362945557,-0.4106181424907227,-8.020177483558655e-05,0.1884421408176422,-1.5972979704486292,-0.0,-0.015102338045835495,0.556090772151947,0.0,0.010294584557414055,1.1672987937927246,-9.883282473310828e-05,0.0027107559144496918
785.0,860.0,-5.3916,-0.3799,8.3504,-0.0318,0.0266,-0.1248,-2.3294884167113246,0.0,4.674009323120117,-1.5114331245422363,-0.0,1.6727938652038574,-0.4106746476939698,-7.678072870476171e-05,0.18574731051921844,-1.597269360219137,-0.0,-0.007418297231197357,0.5561268925666809,0.0,0.001806235988624394,1.1673188209533691,-0.00011052560876123607,-0.026329100131988525
785.0,860.0,-5.3916,-0.3799,8.3504,-0.0318,0.0266,-0.1248,-2.329500814477438,0.0,4.6060099601745605,-1.5114774703979492,-0.0,1.6785588264465332,-0.4105702203563233,-8.589895878685638e-05,0.1980626881122589,-1.59731370607485,-0.0,0.0012809531763195992,0.5561268329620361,0.0,0.0005374758038669825,1.1673426628112793,-0.00010479051707079634,-0.017916478216648102
785.0,860.0,-5.3916,-0.3799,8.3504,-0.0318,0.0266,-0.1248,-2.3295327625670375,0.0,4.643368721008301,-1.5114094018936157,-0.0,1.6658036708831787,-0.410614089374878,-8.363182860193774e-05,0.2014593780040741,-1.5972617308246058,-0.0,-0.00851481594145298,0.5560584664344788,0.0,0.007077646441757679,1.1672987937927246,-0.00010087538248626515,-0.007341716438531876
785.0,860.0,-5.3916,-0.3799,8.3504,-0.0318,0.0266,-0.1248,-2.329480310479635,0.0,4.650548458099365,-1.5114414691925049,-0.0,1.702440619468689,-0.41061826170001225,-8.042877743719146e-05,0.20098836719989777,-1.5972660223590296,-0.0,-0.008108261041343212,0.5560829639434814,0.0,-0.0019178930670022964,1.1672905683517456,-9.552227129461244e-05,-0.02646705135703087
785.0,860.0,-5.3916,-0.3799,8.3504,-0.0318,0.0266,-0.1248,-2.3294884167113246,0.0,4.576006889343262,-1.5114496946334839,-0.0,1.6538115739822388,-0.41063018262896733,-8.852186147123575e-05,0.18651562929153442,-1.5972898642169397,-0.0,-0.0026979083195328712,0.556090772151947,0.0,0.004007621668279171,1.1673147678375244,-9.070857049664482e-05,0.001666381023824215
785.0,860.0,-5.3916,-0.3799,8.3504,-0.0318,0.0266,-0.1248,-2.3295046291747035,0.0,4.655758380889893,-1.511437177658081,-0.0,1.6928174495697021,-0.410614089374878,-8.537882240489125e-05,0.19958889484405518,-1.59731370607485,-0.0,0.0005369246355257928,0.5561231374740601,0.0,0.00045432685874402523,1.1673508882522583,-8.635684207547456e-05,-0.02346991002559662
785.0,860.0,-5.3916,-0.3799,8.3504,-0.0318,0.0266,-0.1248,-2.329484602014059,0.0,4.644454002380371,-1.5114374160766602,-0.0,1.6325809955596924,-0.4105376762202759,-8.340084605151787e-05,0.19647042453289032,-1.5972617308246058,-0.0,-0.006714628078043461,0.556090772151947,0.0,-0.00458493921905756,1.1673188209533691,-8.368040289497003e-05,-0.029172705486416817
785.0,860.0,-5.3916,-0.3799,8.3504,-0.0318,0.0266,-0.1248,-2.329496522943014,0.0,4.681388854980469,-1.5114134550094604,-0.0,1.6751383543014526,-0.41062243402514653,-8.060004620347172e-05,0.20113691687583923,-1.5972617308246058,-0.0,-0.03377785533666611,0.5561711192131042,0.0,0.002675259718671441,1.1673107147216797,-7.996305066626519e-05,0.031348682940006256
785.0,860.0,-5.3916,-0.3799,8.3504,-0.0318,0.0266,-0.1248,-2.3294884167113246,0.0,4.6203203201293945,-1.5114574432373047,-0.0,1.6334033012390137,-0.41059406221423345,-6.862081500003114e-05,0.1959751695394516,-1.5973060766803187,-0.0,-0.012645665556192398,0.5560948252677917,0.0,-0.0011871438473463058,1.1673307418823242,-6.380241393344477e-05,-0.042650021612644196
785.0,860.0,-5.3916,-0.3799,8.3504,-0.0318,0.0266,-0.1248,-2.329512735406393,0.0,4.632695198059082,-1.5114656686782837,-0.0,1.6657752990722656,-0.4106467527202149,-6.651803414570168e-05,0.20121929049491882,-1.5972655455218714,-0.0,-0.015651151537895203,0.5560706853866577,0.0,-0.002361304359510541,1.1672782897949219,-6.204236706253141e-05,-0.039591189473867416
785.0,860.0,-5.3916,-0.3799,8.3504,-0.0318,0.0266,-0.1248,-2.3295003376402796,0.0,4.624389171600342,-1.5114414691925049,-0.0,1.6918110847473145,-0.41061003625903325,-6.369322363752872e-05,0.19332033395767212,-1.5973337332354944,-0.0,-0.012548919767141342,0.5561067461967468,0.0,0.007840685546398163,1.1673107147216797,-5.957813482382335e-05,0.007935945875942707
785.0,860.0,-5.3916,-0.3799,8.3504,-0.0318,0.0266,-0.1248,-2.329512735406393,0.0,4.619358062744141,-1.5114094018936157,-0.0,1.6838011741638184,-0.41062243402514653,-6.109884270699695e-05,0.1977073848247528,-1.5972941557513636,-0.0,-0.016229085624217987,0.5561432242393494,0.0,-0.0018171375850215554,1.1673225164413452,-5.730225529987365e-05,-0.002428067848086357
785.0,860.0,-5.3916,-0.3799,8.3504,-0.0318,0.0266,-0.1248,-2.329524656335348,0.0,4.595030307769775,-1.5114614963531494,-0.0,1.6276195049285889,-0.41062672555957036,-6.449430657085031e-05,0.19194373488426208,-1.5972502867328089,-0.0,-0.006047353148460388,0.5561145544052124,0.0,-0.007157434709370136,1.1673548221588135,-5.5193781008711085e-05,-0.016991885378956795
791.0,889.0,-5.3677,-0.46,8.3725,-0.036,0.0334,-0.12,-2.329500814477438,0.0,4.647039413452148,-1.51141357421875,-0.0,1.6619045734405518,-0.4105779689601441,-6.863226008135825e-05,0.19231419265270233,-1.597274128590719,-0.0,0.0016121682710945606,0.5561834573745728,0.0,0.00821929331868887,1.1673142910003662,-5.387229612097144e-05,-0.009246599860489368
791.0,889.0,-5.3677,-0.46,8.3725,-0.036,0.0334,-0.12,-2.329496522943014,0.0,4.62484073638916,-1.5114697217941284,-0.0,1.6586048603057861,-0.41057832658801274,-6.613507866859436e-05,0.1937756985425949,-1.597274128590719,-0.0,-0.005009622313082218,0.5560747981071472,0.0,-0.003387324744835496,1.1673507690429688,-5.200460145715624e-05,0.004021637141704559
791.0,889.0,-5.3677,-0.46,8.3725,-0.036,0.0334,-0.12,-2.329456468621725,0.0,4.641146659851074,-1.511461615562439,-0.0,1.6465184688568115,-0.41059406221423345,-6.379128899425268e-05,0.20013341307640076,-1.597274128590719,-0.0,-0.007016058079898357,0.5561071038246155,0.0,0.005567584652453661,1.1673065423965454,-4.020968117401935e-05,-0.019901836290955544
791.0,889.0,-5.3677,-0.46,8.3725,-0.036,0.0334,-0.12,-2.329480310479635,0.0,4.6141357421875,-1.5114248991012573,-0.0,1.6745796203613281,-0.4105782073787232,-6.160797784104943e-05,0.19391018152236938,-1.5972698370562952,-0.0,-0.02367457188665867,0.5560948848724365,0.0,0.003991641104221344,1.1673589944839478,-1.789913000038723e-07,-0.003627984318882227
791.0,889.0,-5.3677,-0.46,8.3725,-0.036,0.0334,-0.12,-2.3294764957823695,0.0,4.659390926361084,-1.5114816427230835,-0.0,1.6692736148834229,-0.41059406221423345,-6.0233596741454676e-05,0.20599240064620972,-1.5972860495196741,-0.0,-0.006746130995452404,0.5560665726661682,0.0,-0.004504726268351078,1.1673307418823242,-3.221779787399015e-11,0.011235221289098263
791.0,889.0,-5.3677,-0.46,8.3725,-0.036,0.0334,-0.12,-2.329480310479635,0.0,4.638216972351074,-1.5113929510116577,-0.0,1.6812117099761963,-0.4106145662120362,-1.287261710558596e-07,0.18427419662475586,-1.5972612539874476,-0.0,-0.01637515053153038,0.556090772151947,0.0,0.0030984189361333847,1.1673790216445923,-7.780220628423893e-17,-0.04088229686021805
791.0,889.0,-5.3677,-0.46,8.3725,-0.036,0.0334,-0.12,-2.329512735406393,0.0,4.585093021392822,-1.5114331245422363,-0.0,1.6696672439575195,-0.4106139701655884,-3.583140034679744e-11,0.1884671449661255,-1.5972502867328089,-0.0,-0.002042942913249135,0.5560788512229919,0.0,0.02109012007713318,1.1673147678375244,-1.8788315325778218e-22,-0.021090231835842133
791.0,889.0,-5.3677,-0.46,8.3725,-0.036,0.0334,-0.12,-2.329480310479635,0.0,4.634562969207764,-1.5114816427230835,-0.0,1.6656521558761597,-0.41062243402514653,-9.973801942491072e-15,0.20162612199783325,-1.5972936789142054,-0.0,-0.007080282084643841,0.5560989379882812,0.0,0.001646807650104165,1.1673266887664795,-4.53715631864849e-28,0.015360049903392792
791.0,889.0,-5.3677,-0.46,8.3725,-0.036,0.0334,-0.12,-2.3295327625670375,0.0,4.610864162445068,-1.5114574432373047,-0.0,1.6919307708740234,-0.41061003625903325,-4.25198892818634e-17,0.18825800716876984,-1.5972617308246058,-0.0,-0.00336410291492939,0.5561509132385254,0.0,0.007543057203292847,1.1673266887664795,-8.166720553714949e-32,-0.00036291242577135563
791.0,889.0,-5.3677,-0.46,8.3725,-0.036,0.0334,-0.12,-2.3295446834959925,0.0,4.633573532104492,-1.5114094018936157,-0.0,1.6288925409317017,-0.41058214128527837,-1.1835568391872946e-20,0.18598642945289612,-1.5972860495196741,-0.0,-0.026852283626794815,0.5561345219612122,0.0,0.0016322907758876681,1.1673188209533691,-1.9721666073695984e-37,0.0007557072676718235
791.0,889.0,-5.3677,-0.46,8.3725,-0.036,0.0334,-0.12,-2.329508443871969,0.0,4.632888317108154,-1.5114496946334839,-0.0,1.6681618690490723,-0.410630540256836,-3.2944740445420088e-24,0.17966195940971375,-1.5972936789142054,-0.0,-0.005586591549217701,0.5561513304710388,0.0,0.0025969133712351322,1.1673266887664795,-4.764414778704378e-43,-0.005785553250461817
791.0,889.0,-5.3677,-0.46,8.3725,-0.036,0.0334,-0.12,-2.3295165501036585,0.0,4.606745719909668,-1.5114578008651733,-0.0,1.6850965023040771,-0.4105624717525025,-9.170289430145574e-28,0.18576227128505707,-1.5972860495196741,-0.0,0.0026949369348585606,0.5560665726661682,0.0,0.009987442754209042,1.167343020439148,0.0,0.014111913740634918
791.0,889.0,-5.3677,-0.46,8.3725,-0.036,0.0334,-0.12,-2.3294764957823695,0.0,4.629306316375732,-1.5114697217941284,-0.0,1.6771190166473389,-0.41060204923663335,-3.909438423264189e-30,0.1973646581172943,-1.5972536245929163,-0.0,0.009294981136918068,0.5561268329620361,0.0,0.020570356398820877,1.1673107147216797,0.0,0.012395698577165604
791.0,889.0,-5.3677,-0.46,8.3725,-0.036,0.0334,-0.12,-2.329480310479635,0.0,4.666759490966797,-1.5114697217941284,-0.0,1.6953566074371338,-0.4106059831431885,-1.08820654843404e-33,0.20132030546665192,-1.5972779432879847,-0.0,-0.006134938448667526,0.556066632270813,0.0,0.005484572611749172,1.1673307418823242,0.0,0.004631515126675367
791.0,889.0,-5.3677,-0.46,8.3725,-0.036,0.0334,-0.12,-2.3294927082457484,0.0,4.623932361602783,-1.5114574432373047,-0.0,1.6334898471832275,-0.4106583160213013,-3.029063127650588e-37,0.18628878891468048,-1.5972936789142054,-0.0,-0.0011036230716854334,0.5560665726661682,0.0,-0.00534258084371686,1.1673270463943481,0.0,-0.002181544667109847
791.0,889.0,-5.3677,-0.46,8.3725,-0.036,0.0334,-0.12,-2.32944454769277,0.0,4.60963249206543,-1.5114856958389282,-0.0,1.666399359703064,-0.4106019300273438,-1.2913371725307844e-39,0.19866269826889038,-1.5972378889666956,-0.0,-0.015058941207826138,0.5560705661773682,0.0,-0.0017097750678658485,1.1672905683517456,-0.0001754726399667561,0.03343229740858078
791.0,889.0,-5.3677,-0.46,8.3725,-0.036,0.0334,-0.12,-2.329440256158346,0.0,4.648946285247803,-1.51149320602417,-0.0,1.6484711170196533,-0.41061003625903325,-3.60133705331478e-43,0.1947498321533203,-1.5972779432879847,-0.0,0.001336358254775405,0.5560625195503235,0.0,0.011463825590908527,1.1673270463943481,-0.00018851747154258192,-0.0037244800478219986
820.0,863.0,-5.3396,-0.5647,8.2923,-0.0368,0.0318,-0.1213,-2.3294888935484828,0.0,4.608099937438965,-1.5114134550094604,-0.0,1.6812349557876587,-0.4106059831431885,-0.0,0.19962099194526672,-1.5972779432879847,-0.0,0.004068955313414335,0.5561227798461914,0.0,0.023034483194351196,1.167306900024414,-0.00019922353385481983,-0.042278021574020386
820.0,863.0,-5.3396,-0.5647,8.2923,-0.0368,0.0318,-0.1213,-2.3294807873167933,0.0,4.651056289672852,-1.5114134550094604,-0.0,1.673498511314392,-0.41062243402514653,-0.0,0.19472767412662506,-1.5972493330584925,-0.0,-0.0028338637202978134,0.5561433434486389,0.0,0.0045885671861469746,1.1672664880752563,-0.00020691264944616705,-0.07585637271404266
820.0,863.0,-5.3396,-0.5647,8.2923,-0.0368,0.0318,-0.1213,-2.3295165501036585,0.0,4.606764316558838,-1.5114734172821045,-0.0,1.6924588680267334,-0.41062648714099126,-0.0,0.18967346847057343,-1.597274128590719,-0.0,-0.012799500487744808,0.5561231970787048,0.0,0.00034340331330895424,1.1673270463943481,-0.00019660293764900416,0.01706734299659729
820.0,863.0,-5.3396,-0.5647,8.2923,-0.0368,0.0318,-0.1213,-2.329456468621725,0.0,4.627694129943848,-1.5114697217941284,-0.0,1.6432368755340576,-0.41058607519183354,-0.0,0.19203689694404602,-1.597257439290182,-0.0,0.0026914109475910664,0.5561472773551941,0.0,0.009970002807676792,1.1673028469085693,-0.0002887232694774866,0.0102646853774786
820.0,863.0,-5.3396,-0.5647,8.2923,-0.0368,0.0318,-0.1213,-2.329496522943014,0.0,4.6406121253967285,-1.5114614963531494,-0.0,1.6514936685562134,-0.4106382888606568,-0.0,0.190628319978714,-1.597269360219137,-0.0,0.00975634902715683,0.5561067461967468,0.0,-0.0027096718549728394,1.167306900024414,-0.0003333906934130937,-0.004506224300712347
820.0,863.0,-5.3396,-0.5647,8.2923,-0.0368,0.0318,-0.1213,-2.329540868798727,0.0,4.6248064041137695,-1.5114893913269043,-0.0,1.669996976852417,-0.4105582994273682,-0.0,0.1970159262418747,-1.5972536245929163,-0.0,0.00020141387358307838,0.556090772151947,0.0,0.017649289220571518,1.1673552989959717,-0.0005913960631005466,-0.02666330337524414
820.0,863.0,-5.3396,-0.5647,8.2923,-0.0368,0.0318,-0.1213,-2.329500814477438,0.0,4.590472221374512,-1.5114816427230835,-0.0,1.6209990978240967,-0.41061003625903325,-0.0,0.20147371292114258,-1.5973098913775843,-0.0,0.008252080529928207,0.5561431646347046,0.0,0.0010413037380203605,1.1673029661178589,-0.0006652625161223114,0.01930549554526806
820.0,863.0,-5.3396,-0.5647,8.2923,-0.0368,0.0318,-0.1213,-2.3294202289977015,0.0,4.649502277374268,-1.511461615562439,-0.0,1.7131468057632446,-0.410610632305481,-0.0,0.18924590945243835,-1.5972779432879847,-0.0,-0.01786866784095764,0.5560829043388367,0.0,0.017673611640930176,1.167311191558838,-0.0010475731687620282,-0.020541878417134285
820.0,863.0,-5.3396,-0.5647,8.2923,-0.0368,0.0318,-0.1213,-2.329472681085104,0.0,4.659136772155762,-1.5114134550094604,-0.0,1.6597365140914917,-0.41061420858416753,-2.407408828730695e-05,0.18484990298748016,-1.5972779432879847,-0.0,-0.005227339919656515,0.5560145378112793,0.0,-0.0028555607423186302,1.1672828197479248,-0.0010817368747666478,-0.00304805813357234
820.0,863.0,-5.3396,-0.5647,8.2923,-0.0368,0.0318,-0.1213,-2.3294769726195277,0.0,4.60215950012207,-1.5113970041275024,-0.0,1.6506786346435547,-0.4105822604945679,-5.198547660256736e-05,0.19859740138053894,-1.5972378889666956,-0.0,-0.004247739445418119,0.556098997592926,0.0,0.0028308790642768145,1.1671582460403442,-0.0012239331845194101,-0.005502120591700077
820.0,863.0,-5.3396,-0.5647,8.2923,-0.0368,0.0318,-0.1213,-2.329460760156149,0.0,4.608664512634277,-1.5114134550094604,-0.0,1.6440129280090332,-0.41065414369616704,-5.0819406169466674e-05,0.18810179829597473,-1.5972817579852503,-0.0,-0.03021235205233097,0.556114912033081,0.0,0.0019237909000366926,1.167266845703125,-0.0011593314120545983,0.012373304925858974
820.0,863.0,-5.3396,-0.5647,8.2923,-0.0368,0.0318,-0.1213,-2.3294927082457484,0.0,4.628030300140381,-1.5114331245422363,-0.0,1.6689332723617554,-0.4105861944011231,-3.244856998207979e-06,0.20029094815254211,-1.5972421805011194,-0.0,-0.007284962106496096,0.5560747981071472,0.0,0.00038920529186725616,1.1672950983047485,-0.0010750460205599666,-0.002318862359970808
820.0,863.0,-5.3396,-0.5647,8.2923,-0.0368,0.0318,-0.1213,-2.3294650516905726,0.00022733626246917993,4.644735813140869,-1.51145339012146,-0.0,1.6988704204559326,-0.41065020978961186,-9.032177783474538e-10,0.1942334771156311,-1.5972979704486292,-0.0,-0.003550406079739332,0.5561472773551941,0.0,0.008605548180639744,1.1672909259796143,-0.0010205639991909266,0.015051554888486862
820.0,863.0,-5.3396,-0.5647,8.2923,-0.0368,0.0318,-0.1213,-2.329416414300436,0.00028396924608387053,4.600273132324219,-1.5114893913269043,-0.0,1.627562403678894,-0.41063042104754643,-3.850559194412684e-12,0.197405144572258,-1.5972655455218714,-0.0,-0.019083905965089798,0.5560788512229919,0.0,0.011631744913756847,1.167263150215149,-0.0009975803550332785,-0.030868398025631905
820.0,863.0,-5.3396,-0.5647,8.2923,-0.0368,0.0318,-0.1213,-2.3294807873167933,0.000755593238864094,4.576889991760254,-1.5114734172821045,-0.0,1.6717544794082642,-0.41064639509234624,-1.0718171743681073e-15,0.18990620970726013,-1.5972378889666956,-0.0,-0.016324684023857117,0.5560948848724365,0.0,-0.007473270408809185,1.1672389507293701,-0.00170845165848732,0.020826131105422974
820.0,863.0,-5.3396,-0.5647,8.2923,-0.0368,0.0318,-0.1213,-2.3294483623900355,0.0008153815288096666,4.630207061767578,-1.511428952217102,-0.0,1.6613695621490479,-0.4106145662120362,-2.9834416876378167e-19,0.18018083274364471,-1.5972541014300745,-0.0,-0.007820364087820053,0.5561431646347046,0.0,0.0017735979054123163,1.1671866178512573,-0.002022351371124387,-0.02533334121108055
820.0,863.0,-5.3396,-0.5647,8.2923,-0.0368,0.0318,-0.1213,-2.3294321499266566,0.0007850976544432342,4.590384006500244,-1.5114052295684814,-0.0,1.6241843700408936,-0.41068585336718755,-8.30451987172543e-23,0.18316256999969482,-1.5973098913775843,-0.0,-0.012503104284405708,0.556082546710968,0.0,0.012627895921468735,1.167198896408081,-0.0026493645273149014,0.03610057011246681
779.0,887.0,-5.3611,-0.3153,8.1882,-0.0293,0.027,-0.1208,-2.3294440708556117,0.0007166948635131121,4.646299362182617,-1.5114092826843262,-0.0,1.6701334714889526,-0.4106343549541016,-3.5403468524307792e-25,0.18234097957611084,-1.5972860495196741,-0.0,-0.01329820603132248,0.5561068654060364,0.0,0.0020368481054902077,1.1671710014343262,-0.0034387996420264244,0.02744290977716446
779.0,887.0,-5.3611,-0.3153,8.1882,-0.0293,0.027,-0.1208,-2.3294526539244593,0.0006260941154323518,4.631381034851074,-1.5114134550094604,-0.0,1.6381524801254272,-0.4106225532344361,-0.0001589373277965933,0.2120436728000641,-1.5972655455218714,-0.0,-0.01130142156034708,0.556058406829834,0.0,-0.0003257141215726733,1.1671552658081055,-0.003925606608390808,0.06639814376831055
779.0,887.0,-5.3611,-0.3153,8.1882,-0.0293,0.027,-0.1208,-2.3294083080687464,0.0005354430759325624,4.67371940612793,-1.5114134550094604,-0.0,1.6433210372924805,-0.41065020978961186,-0.00018123821064364165,0.18635833263397217,-1.5972817579852503,-0.0,-0.00199618237093091,0.5560785531997681,0.0,-0.002034831326454878,1.1671028137207031,-0.004735201131552458,0.009196068160235882
779.0,887.0,-5.3611,-0.3153,8.1882,-0.0293,0.027,-0.1208,-2.329456468621725,0.0005273238639347255,4.598726749420166,-1.5114820003509521,-0.0,1.6398694515228271,-0.41066213071856694,-0.0001648828765610233,0.1907203495502472,-1.5972817579852503,-0.0,-0.012025329284369946,0.5561673641204834,0.0,0.007644210942089558,1.1671032905578613,-0.005122910253703594,-0.011626170948147774
779.0,887.0,-5.3611,-0.3153,8.1882,-0.0293,0.027,-0.1208,-2.329400678674215,0.0005256704753264785,4.593809127807617,-1.511470079421997,-0.0,1.6851773262023926,-0.41065020978961186,-0.0001810613612178713,0.201339453458786,-1.597269360219137,-0.0,-0.008571021258831024,0.5561513900756836,0.0,0.013260734267532825,1.1670794486999512,-0.005307731218636036,0.012259421870112419
779.0,887.0,-5.3611,-0.3153,8.1882,-0.0293,0.027,-0.1208,-2.329428812066549,0.0005629622610285878,4.6261396408081055,-1.5114248991012573,0.0003595640300773084,1.6815108060836792,-0.41069384038958745,-0.0001899100752780214,0.1924401819705963,-1.597274128590719,-0.0,-0.005650551524013281,0.5561026334762573,0.0,0.00945274718105793,1.167067289352417,-0.004943912383168936,0.008177805691957474
779.0,887.0,-5.3611,-0.3153,8.1882,-0.0293,0.027,-0.1208,-2.3293639622130335,0.0007216045632958412,4.636638164520264,-1.511437177658081,0.00045896312803961337,1.677626609802246,-0.410674051647522,-0.00017668218060862273,0.1866513192653656,-1.5972898642169397,-0.0,0.003092183033004403,0.5560985803604126,0.0,0.0016174005577340722,1.1670594215393066,-0.0040662470273673534,-0.055663567036390305
779.0,887.0,-5.3611,-0.3153,8.1882,-0.0293,0.027,-0.1208,-2.3294207058348597,0.0006844162126071751,4.607944011688232,-1.5114412307739258,0.0006567164673469961,1.6609699726104736,-0.4106542629054566,-0.0002440321259200573,0.19426295161247253,-1.5972541014300745,-0.0,-0.015931222587823868,0.5561631917953491,0.0,0.00661380123347044,1.1669992208480835,-0.0036290984135121107,0.01173118781298399
779.0,887.0,-5.3611,-0.3153,8.1882,-0.0293,0.027,-0.1208,-2.3294083080687464,0.0006492174579761922,4.629646301269531,-1.5113812685012817,0.0006109287496656179,1.6556265354156494,-0.4106660646251221,-0.00022521924984175712,0.1843031644821167,-1.597269360219137,-0.0,-0.008092869073152542,0.5561550855636597,0.0,0.008868287317454815,1.16697096824646,-0.0031975279562175274,-0.012580666691064835
779.0,887.0,-5.3611,-0.3153,8.1882,-0.0293,0.027,-0.1208,-2.3293682537474574,0.0006074753473512828,4.609365463256836,-1.511337161064148,0.00053219503024593,1.6788854598999023,-0.4106542629054566,-0.00022976791660767049,0.19013766944408417,-1.597245995198385,-0.0,-0.021934527903795242,0.556082546710968,0.0,-0.00644637132063508,1.1670317649841309,-0.002923602471128106,0.008921494707465172
779.0,887.0,-5.3611,-0.3153,8.1882,-0.0293,0.027,-0.1208,-2.3294249973692835,0.0005964908050373197,4.611705780029297,-1.511438012123108,0.0004852193524129689,1.6521179676055908,-0.41067810476336675,-0.00020785424567293376,0.2010328471660614,-1.5972736517535608,-0.0,-0.0029227708000689745,0.5561308860778809,0.0,0.0016376737039536238,1.1669673919677734,-0.002351184841245413,-0.004735351540148258
779.0,887.0,-5.3611,-0.3153,8.1882,-0.0293,0.027,-0.1208,-2.3294087849059046,0.0005622993339784443,4.618313789367676,-1.5113812685012817,0.00043434041435830295,1.6689434051513672,-0.41071780145678716,-0.0002152909873984754,0.19120292365550995,-1.5972736517535608,-0.0,-0.014390888623893261,0.5561227798461914,0.0,-0.0039779930375516415,1.1669434309005737,-0.002122204750776291,0.003807283006608486
779.0,887.0,-5.3611,-0.3153,8.1882,-0.0293,0.027,-0.1208,-2.329376836816305,0.0005670539685525,4.59896993637085,-1.5113978385925293,0.00043657596688717604,1.645935297012329,-0.4107019466212769,-0.00020334644068498164,0.1996174156665802,-1.5972502867328089,-0.0,0.00822068378329277,0.5561308860778809,0.0,0.012357891537249088,1.1669714450836182,-0.0019963891245424747,0.010169001296162605
779.0,887.0,-5.3611,-0.3153,8.1882,-0.0293,0.027,-0.1208,-2.329372545281881,0.0006925345514900982,4.634672164916992,-1.5114175081253052,0.0005710192490369081,1.6612491607666016,-0.4106779855540772,-0.0002114233502652496,0.19530412554740906,-1.5972736517535608,-0.0,-0.0068632327020168304,0.5560743808746338,0.0,0.014297179877758026,1.1669517755508423,-0.0017107445746660233,0.03735459968447685
779.0,887.0,-5.3611,-0.3153,8.1882,-0.0293,0.027,-0.1208,-2.329432626763815,0.000763695512432605,4.649321556091309,-1.5113976001739502,0.000679606688208878,1.683091163635254,-0.410693959598877,-0.0001946958072949201,0.1874510943889618,-1.5972898642169397,-0.0,-0.017697233706712723,0.5561468601226807,0.0,0.012666260823607445,1.1669394969940186,-0.00161168968770653,-0.020640995353460312
779.0,887.0,-5.3611,-0.3153,8.1882,-0.0293,0.027,-0.1208,-2.32938875774526,0.0010287920013070107,4.633518695831299,-1.5113496780395508,0.001105411909520626,1.6590161323547363,-0.41066618383441167,-0.00020467374997679144,0.19449245929718018,-1.597269360219137,-0.0,-0.006562046241015196,0.5560985803604126,0.0,0.0033302060328423977,1.1669235229492188,-0.0015338233206421137,0.03240049630403519
786.0,839.0,-5.4054,-0.3888,8.4096,-0.0325,0.0292,-0.1147,-2.329348226586813,0.001279979944229126,4.610327243804932,-1.5113335847854614,0.0014613779494538903,1.686158537864685,-0.4106699985316773,-0.00019793053797911853,0.19417360424995422,-1.597269360219137,-0.0,-0.004366185516119003,0.5560985207557678,0.0,0.009085461497306824,1.1668919324874878,-0.0017354273004457355,0.031244661659002304
786.0,839.0,-5.4054,-0.3888,8.4096,-0.0325,0.0292,-0.1147,-2.329344411889547,0.0013813878176733851,4.652321815490723,-1.5113779306411743,0.0022680198308080435,1.6901543140411377,-0.4106978935054322,-0.00019312111544422805,0.1922363042831421,-1.5972297827350062,-0.0,-0.0202169232070446,0.5561550855636597,0.0,0.004854543134570122,1.1668835878372192,-0.002036742167547345,-0.016574237495660782
786.0,839.0,-5.4054,-0.3888,8.4096,-0.0325,0.0292,-0.1147,-2.329348226586813,0.001486229244619608,4.626898288726807,-1.511350154876709,0.0028991918079555035,1.6541104316711426,-0.41067417085681157,-0.00020296979346312582,0.19789430499076843,-1.5972655455218714,-0.0,-0.0037395444232970476,0.5561068058013916,0.0,-0.0006610815180465579,1.1668717861175537,-0.0025593137834221125,0.004552640952169895
786.0,839.0,-5.4054,-0.3888,8.4096,-0.0325,0.0292,-0.1147,-2.3293405971922816,0.0016060780035331845,4.626288414001465,-1.5113056898117065,0.0035601204726845026,1.6689939498901367,-0.4106820386699219,-0.00019112959853373468,0.1973508596420288,-1.597302261983053,-0.0,-7.584254490211606e-05,0.5561145544052124,0.0,0.0007574885385110974,1.1668717861175537,-0.002899548504501581,-0.019784068688750267
786.0,839.0,-5.4054,-0.3888,8.4096,-0.0325,0.0292,-0.1147,-2.3293448887267054,0.0016903749201446772,4.633363723754883,-1.5112736225128174,0.003573155263438821,1.675238847732544,-0.4106820386699219,-0.00017518589447718114,0.19860851764678955,-1.5972541014300745,-0.0,0.004101294558495283,0.556199312210083,0.0,0.00969518069177866,1.1668074131011963,-0.003065112978219986,-0.05433404818177223
786.0,839.0,-5.4054,-0.3888,8.4096,-0.0325,0.0292,-0.1147,-2.3293329677977503,0.0020805655512958765,4.631208419799805,-1.5112533569335938,0.0034575858153402805,1.66340172290802,-0.41067417085681157,-0.00018324743723496795,0.19731703400611877,-1.5972502867328089,-0.0,-0.001886796671897173,0.5561268329620361,0.0,0.0029526862781494856,1.1668119430541992,-0.0036833800841122866,-0.02141324058175087
786.0,839.0,-5.4054,-0.3888,8.4096,-0.0325,0.0292,-0.1147,-2.329292436639303,0.002557602245360613,4.644591331481934,-1.5111855268478394,0.002564735244959593,1.613255262374878,-0.41070981443438725,-0.00017158270929940045,0.19257855415344238,-1.5972250143634241,-0.0,-0.0142294280230999,0.556143045425415,0.0,0.004828216042369604,1.166815996170044,-0.004576398991048336,-0.036561135202646255
786.0,839.0,-5.4054,-0.3888,8.4096,-0.0325,0.0292,-0.1147,-2.329336782495016,0.002699222881346941,4.64154052734375,-1.5112134218215942,0.002078335965052247,1.6679751873016357,-0.41072626531634526,-0.0001901828800328076,0.19055849313735962,-1.5972779432879847,-0.0,0.007251265458762646,0.5561587810516357,0.0,0.005985562223941088,1.166759967803955,-0.004823868628591299,-0.009966935962438583
786.0,839.0,-5.4054,-0.3888,8.4096,-0.0325,0.0292,-0.1147,-2.329296728173727,0.0038252186495810747,4.650609016418457,-1.5111773014068604,0.0013372632674872875,1.6823253631591797,-0.4106900256923218,-0.00023290286480914801,0.19162148237228394,-1.5972817579852503,-0.0,-0.005244165193289518,0.5561227202415466,0.0,0.017667019739747047,1.1667280197143555,-0.0052777985110878944,-0.02570914477109909
786.0,839.0,-5.4054,-0.3888,8.4096,-0.0325,0.0292,-0.1147,-2.3291760883727015,0.004384581930935383,4.634830951690674,-1.5112414360046387,0.0008191904635168612,1.6997674703598022,-0.41072626531634526,-0.0004229796468280256,0.18445724248886108,-1.5972254912005823,-0.0,0.005656955298036337,0.5562030673027039,0.0,0.02056809328496456,1.1667280197143555,-0.005845746025443077,-0.01146654412150383
786.0,839.0,-5.4054,-0.3888,8.4096,-0.0325,0.0292,-0.1147,-2.3292247257628382,0.006064882501959801,4.688494682312012,-1.5112011432647705,0.0006249814759939909,1.7589538097381592,-0.410710410480835,-0.0006798310205340385,0.1768927276134491,-1.5972979704486292,-0.0,-0.006121954880654812,0.5561625361442566,0.0,0.00011709053069353104,1.166680097579956,-0.005406152456998825,-0.011364215984940529
786.0,839.0,-5.4054,-0.3888,8.4096,-0.0325,0.0292,-0.1147,-2.329172750512594,0.005994752049446106,4.608676910400391,-1.5112172365188599,0.0005441319663077593,1.7336220741271973,-0.41074998796496587,-0.001295461319386959,0.17124930024147034,-1.5972502867328089,-0.0,-0.01381814293563366,0.5561547875404358,0.0,0.0046532233245670795,1.1666641235351562,-0.0054655252024531364,-0.010476023890078068
786.0,839.0,-5.4054,-0.3888,8.4096,-0.0325,0.0292,-0.1147,-2.3291408024229945,0.005959760397672653,4.689227104187012,-1.5111855268478394,0.00044068435090593994,1.7023425102233887,-0.4107460540584107,-0.0029553978238254786,0.17012524604797363,-1.5972216765033167,-0.0,-0.004164939746260643,0.556178867816925,0.0,-0.007915941067039967,1.1666364669799805,-0.005647692363709211,-0.0037212814204394817
786.0,839.0,-5.4054,-0.3888,8.4096,-0.0325,0.0292,-0.1147,-2.3291408024229945,0.005484897177666426,4.665259838104248,-1.5111732482910156,0.0004935167962685227,1.6999571323394775,-0.4107942146113892,-0.015778345987200737,0.17978942394256592,-1.5972822348224085,-0.0,-0.012508582323789597,0.556182861328125,0.0,0.026761535555124283,1.1665880680084229,-0.005516462028026581,-0.07837049663066864
786.0,839.0,-5.4054,-0.3888,8.4096,-0.0325,0.0292,-0.1147,-2.3290683231749476,0.0058460538275539875,4.651292324066162,-1.5112417936325073,0.0011553755030035973,1.7720282077789307,-0.41098983705554204,-0.0326557382941246,0.15423712134361267,-1.5973060766803187,-0.0,-0.02111973986029625,0.5562148094177246,0.0,0.0031587048433721066,1.1665443181991577,-0.005259345285594463,-0.09171780198812485
786.0,839.0,-5.4054,-0.3888,8.4096,-0.0325,0.0292,-0.1147,-2.3290845356383265,0.006957859266549349,4.6948747634887695,-1.5111292600631714,0.002003291854634881,1.7117280960083008,-0.41105838239703374,-0.029937097802758217,0.1579810529947281,-1.5972617308246058,-0.0,-0.006537686567753553,0.5561947822570801,0.0,0.02117929980158806,1.166520118713379,-0.0052373455837368965,-0.05756232887506485
786.0,839.0,-5.4054,-0.3888,8.4096,-0.0325,0.0292,-0.1147,-2.3289600811400355,0.008121902123093605,4.6815900802612305,-1.511181354522705,0.0032233649399131536,1.7819466590881348,-0.4112619918635865,-0.02136797085404396,0.15053972601890564,-1.5972502867328089,-0.0,-0.014561163261532784,0.556154727935791,0.0,0.017923012375831604,1.1665325164794922,-0.004881927743554115,-0.063545361161232
821.0,883.0,-5.8481,-0.6957,8.4,-0.0475,0.0377,-0.1239,-2.32895626644277,0.0085113774985075,4.670027732849121,-1.5111415386199951,0.0041977763175964355,1.740193247795105,-0.41137929380450444,-0.01115002017468214,0.17078226804733276,-1.5972135702716272,-0.0,-0.02256355807185173,0.5561428070068359,0.0,0.021621331572532654,1.1664845943450928,-0.0038435598835349083,-0.04244241118431091
821.0,883.0,-5.8481,-0.6957,8.4,-0.0475,0.0377,-0.1239,-2.328899999658102,0.00823394488543272,4.65983772277832,-1.5110933780670166,0.00460346695035696,1.7596900463104248,-0.41137929380450444,-0.004834402352571487,0.17109575867652893,-1.5972655455218714,-0.0,-0.0042394306510686874,0.5561625361442566,0.0,0.023012351244688034,1.1665128469467163,-0.003399118548259139,-0.07469624280929565
821.0,883.0,-5.8481,-0.6957,8.4,-0.0475,0.0377,-0.1239,-2.32885279277944,0.00846284069120884,4.677521705627441,-1.511137843132019,0.00507309939712286,1.7701542377471924,-0.4113667768291016,-0.0003115061845164746,0.1768556833267212,-1.5972736517535608,-0.0,-0.010130430571734905,0.5561907291412354,0.0,0.02182142436504364,1.1664763689041138,-0.0026638219133019447,-0.0780087560415268
821.0,883.0,-5.8481,-0.6957,8.4,-0.0475,0.0377,-0.1239,-2.328820367852682,0.008959772996604443,4.695956230163574,-1.511069416999817,0.005827044136822224,1.7571296691894531,-0.41140253961596684,-8.670888007600297e-08,0.16924163699150085,-1.5972941557513636,-0.0,-0.004689871799200773,0.5561625361442566,0.0,0.015696227550506592,1.1664726734161377,-0.002216519322246313,-0.08051975816488266
821.0,883.0,-5.8481,-0.6957,8.4,-0.0475,0.0377,-0.1239,-2.3287083111205042,0.008901872672140598,4.70653772354126,-1.5110419988632202,0.006148472893983126,1.8496211767196655,-0.4114024204066773,-2.4135731607755062e-11,0.1569593846797943,-1.5972417036639612,-0.0,-0.005991704761981964,0.5561951398849487,0.0,0.03763184696435928,1.1664284467697144,-0.002172477077692747,-0.08728981763124466
821.0,883.0,-5.8481,-0.6957,8.4,-0.0475,0.0377,-0.1239,-2.3287364445128382,0.010075397789478302,4.702466011047363,-1.5109938383102417,0.006381199695169926,1.7725322246551514,-0.411406473522522,-1.0289442502241578e-13,0.14863644540309906,-1.5972541014300745,-0.0,-0.005283690057694912,0.5562233924865723,0.0,0.04587876796722412,1.166468620300293,-0.002324305009096861,-0.06372664123773575
821.0,883.0,-5.8481,-0.6957,8.4,-0.0475,0.0377,-0.1239,-2.3286525211729945,0.01123188715428114,4.710982799530029,-1.5109938383102417,0.00722720380872488,1.834723949432373,-0.4114223283580323,-2.864104599158733e-17,0.15351714193820953,-1.5973060766803187,-0.0,-0.0047981468960642815,0.5561947822570801,0.0,0.024409789592027664,1.1664084196090698,-0.0023372138384729624,-0.13060295581817627
821.0,883.0,-5.8481,-0.6957,8.4,-0.0475,0.0377,-0.1239,-2.3285886249937953,0.012631578370928764,4.729543209075928,-1.510909914970398,0.006744314916431904,1.832114577293396,-0.411406473522522,-7.972340894391938e-21,0.1517069935798645,-1.5972417036639612,-0.0,-0.013930175453424454,0.5562070608139038,0.0,0.028615811839699745,1.1664206981658936,-0.002041223458945751,-0.06892071664333344
821.0,883.0,-5.8481,-0.6957,8.4,-0.0475,0.0377,-0.1239,-2.3284927807249964,0.012729557231068611,4.752777099609375,-1.5108654499053955,0.006704031955450773,1.8070709705352783,-0.4113827508739014,-2.2191298213352554e-24,0.14953789114952087,-1.597217861806051,-0.0,0.005367923527956009,0.5561988353729248,0.0,0.025519629940390587,1.1664366722106934,-0.0017238862346857786,-0.0873597115278244
821.0,883.0,-5.8481,-0.6957,8.4,-0.0475,0.0377,-0.1239,-2.3284689388670863,0.013150997459888458,4.712937831878662,-1.5108580589294434,0.006407193839550018,1.8084405660629272,-0.41139860570941167,-9.460500687524493e-27,0.15280279517173767,-1.5972216765033167,-0.0,0.013745706528425217,0.556182861328125,0.0,0.02835625410079956,1.1664570569992065,-0.001452509663067758,-0.1476268321275711
821.0,883.0,-5.8481,-0.6957,8.4,-0.0475,0.0377,-0.1239,-2.328360696832174,0.014634846709668636,4.728824615478516,-1.5107731819152832,0.006108014844357967,1.8429763317108154,-0.4114547532847901,-2.633364449966336e-30,0.16576696932315826,-1.597269360219137,-0.0,-0.022250987589359283,0.5561624765396118,0.0,0.03434128314256668,1.1663883924484253,-0.0012665343238040805,-0.09396468847990036
821.0,883.0,-5.8481,-0.6957,8.4,-0.0475,0.0377,-0.1239,-2.328252454797262,0.015016485936939716,4.72300386428833,-1.5107733011245728,0.005637840833514929,1.8405280113220215,-0.41136689603839116,-7.330066857621001e-34,0.13538779318332672,-1.5972979704486292,-0.0,-0.0002023889683187008,0.556182861328125,0.0,0.021222351118922234,1.1664087772369385,-0.0011961042182520032,-0.0847989022731781
821.0,883.0,-5.8481,-0.6957,8.4,-0.0475,0.0377,-0.1239,-2.3281928501524867,0.015604493208229542,4.733184337615967,-1.510786533355713,0.006054151337593794,1.887883186340332,-0.41143424928698735,-2.0403511001505925e-37,0.13452845811843872,-1.597269360219137,-0.0,0.004339543636888266,0.5562067031860352,0.0,0.027085233479738235,1.1664129495620728,-0.0010819315211847425,-0.1175210028886795
821.0,883.0,-5.8481,-0.6957,8.4,-0.0475,0.0377,-0.1239,-2.3281122646727503,0.015487246215343475,4.747347354888916,-1.5107301473617554,0.005774897523224354,1.8256696462631226,-0.41141052663836675,-0.0008014592458494008,0.14452187716960907,-1.5972817579852503,-0.0,-0.005674746818840504,0.5561707019805908,0.0,0.03161577135324478,1.1663883924484253,-0.0010428921086713672,-0.10078734904527664
821.0,883.0,-5.8481,-0.6957,8.4,-0.0475,0.0377,-0.1239,-2.327992101708883,0.01579185016453266,4.751096725463867,-1.5106658935546875,0.00650163646787405,1.7926260232925415,-0.4114915889552613,-0.0012399660190567374,0.13739848136901855,-1.5972898642169397,-0.0,-0.006572670303285122,0.5561625361442566,0.0,0.0400657132267952,1.1663366556167603,-0.0008916635997593403,-0.05334499850869179
821.0,883.0,-5.8481,-0.6957,8.4,-0.0475,0.0377,-0.1239,-2.3279205761351527,0.01624130643904209,4.698660373687744,-1.5106053352355957,0.006959749851375818,1.825108289718628,-0.4114303153804322,-0.0013235987862572074,0.14885801076889038,-1.5972617308246058,-0.0,-9.461119771003723e-05,0.5561788082122803,0.0,0.04829287528991699,1.1664170026779175,-0.0007106070988811553,-0.08125148713588715
821.0,883.0,-5.8481,-0.6957,8.4,-0.0475,0.0377,-0.1239,-2.327872415582174,0.016518384218215942,4.755444049835205,-1.5106220245361328,0.006831173785030842,1.8455991744995117,-0.4114665550044556,-0.0012184435036033392,0.14252671599388123,-1.597262207661764,-0.0,-0.005668673198670149,0.5562271475791931,0.0,0.03270028159022331,1.1663649082183838,-0.0005380797665566206,-0.11053149402141571
782.0,847.0,-5.1912,-0.4798,8.1703,-0.0272,0.056,-0.1202,-2.3277169666686,0.017455801367759705,4.739613056182861,-1.5105819702148438,0.007117405533790588,1.842167615890503,-0.41145868719134526,-0.0015288310823962092,0.14458321034908295,-1.5972817579852503,-0.0,-0.0037923131603747606,0.5561625361442566,0.0,0.03742147237062454,1.1663569211959839,-0.0003959631430916488,-0.04643099755048752
782.0,847.0,-5.1912,-0.4798,8.1703,-0.0272,0.056,-0.1202,-2.3275958500304164,0.01820245571434498,4.760828018188477,-1.5105218887329102,0.007367331068962812,1.851226568222046,-0.41149039686236577,-0.00235680490732193,0.1396413892507553,-1.5972421805011194,-0.0,-0.012956444174051285,0.5561829209327698,0.0,0.02569788694381714,1.1664170026779175,-0.00037589584826491773,-0.08984892815351486
782.0,847.0,-5.1912,-0.4798,8.1703,-0.0272,0.056,-0.1202,-2.3275772533812464,0.01884925551712513,4.7023162841796875,-1.5105342864990234,0.008135247975587845,1.8868684768676758,-0.4114983838847657,-0.004070207476615906,0.12915979325771332,-1.5972297827350062,-0.0,-0.0005231115501374006,0.5561625361442566,0.0,0.029179129749536514,1.1664047241210938,-0.00031095012673176825,-0.027093306183815002
782.0,847.0,-5.1912,-0.4798,8.1703,-0.0272,0.056,-0.1202,-2.327440401116842,0.01936972886323929,4.806669235229492,-1.5104297399520874,0.008194762282073498,1.8558673858642578,-0.4115021985820313,-0.005375489126890898,0.14187763631343842,-1.5972335974322718,-0.0,-0.014832505956292152,0.5561788082122803,0.0,0.017968401312828064,1.166348934173584,-0.0002788332640193403,-0.0708157941699028
782.0,847.0,-5.1912,-0.4798,8.1703,-0.0272,0.056,-0.1202,-2.327353139916891,0.020785367116332054,4.7518720626831055,-1.5103774070739746,0.009150424040853977,1.8970261812210083,-0.41160722196612554,-0.010842455551028252,0.11348575353622437,-1.5972541014300745,-0.0,-0.007547066081315279,0.5562107563018799,0.0,0.03051188215613365,1.1663846969604492,-0.00024143063637893647,-0.03463585674762726
782.0,847.0,-5.1912,-0.4798,8.1703,-0.0272,0.056,-0.1202,-2.327205320397848,0.02325955033302307,4.748105049133301,-1.5103784799575806,0.009930669330060482,1.8693516254425049,-0.41163094461474614,-0.014786714687943459,0.13122770190238953,-1.5973060766803187,-0.0,-0.006181477569043636,0.5561747550964355,0.0,0.030533654615283012,1.166388750076294,-0.00021287614072207361,-0.0360388457775116
782.0,847.0,-5.1912,-0.4798,8.1703,-0.0272,0.056,-0.1202,-2.3270684681334437,0.02465633861720562,4.746131420135498,-1.5102739334106445,0.01152433268725872,1.8643028736114502,-0.41177483022723393,-0.017771925777196884,0.12756969034671783,-1.5972216765033167,-0.0,-0.020830195397138596,0.5562148690223694,0.0,0.012823955155909061,1.1663124561309814,-0.0001903621741803363,-0.034944649785757065
782.0,847.0,-5.1912,-0.4798,8.1703,-0.0272,0.056,-0.1202,-2.326985021630758,0.02578013949096203,4.745040416717529,-1.5102261304855347,0.012015136890113354,1.8851447105407715,-0.41184313715014653,-0.01828623004257679,0.12390971183776855,-1.5972617308246058,-0.0,-0.019652260467410088,0.5561947822570801,0.0,0.035919517278671265,1.1663649082183838,-0.0001778245932655409,-0.06787639856338501
782.0,847.0,-5.1912,-0.4798,8.1703,-0.0272,0.056,-0.1202,-2.3268333874144496,0.029085885733366013,4.812457084655762,-1.5101701021194458,0.013332633301615715,1.870997428894043,-0.41196294248614507,-0.018565408885478973,0.12596146762371063,-1.5972655455218714,-0.0,-0.021395396441221237,0.5562148690223694,0.0,0.017268218100070953,1.1664170026779175,-0.0001618361275177449,-0.000810413621366024
782.0,847.0,-5.1912,-0.4798,8.1703,-0.0272,0.056,-0.1202,-2.326604505578512,0.02965937927365303,4.820147514343262,-1.5100737810134888,0.014867161400616169,1.9124031066894531,-0.4120505613139649,-0.018241330981254578,0.11068609356880188,-1.597245995198385,-0.0,-0.014945182017982006,0.5561865568161011,0.0,0.033095814287662506,1.1664047241210938,-0.00014848580758552998,0.03861343488097191
782.0,847.0,-5.1912,-0.4798,8.1703,-0.0272,0.056,-0.1202,-2.326432844201559,0.030914481729269028,4.805112838745117,-1.5099579095840454,0.016769543290138245,1.8685888051986694,-0.4121552270701905,-0.017394904047250748,0.11981582641601562,-1.5973017851458948,-0.0,-0.029471009969711304,0.556182861328125,0.0,0.02455093525350094,1.1663928031921387,-0.0001371702819596976,-0.003989464603364468
782.0,847.0,-5.1912,-0.4798,8.1703,-0.0272,0.056,-0.1202,-2.3263288937010707,0.03160577639937401,4.800469398498535,-1.5098658800125122,0.01882263645529747,1.9182013273239136,-0.4122384351542969,-0.016608024016022682,0.10457998514175415,-1.5972541014300745,-0.0,-0.02353130467236042,0.5561988353729248,0.0,0.03197142481803894,1.1663607358932495,-0.0001305382902501151,-0.029159020632505417
782.0,847.0,-5.1912,-0.4798,8.1703,-0.0272,0.056,-0.1202,-2.326169630090231,0.03369218856096268,4.797103404998779,-1.5097904205322266,0.021990345790982246,1.8632866144180298,-0.4123433393291016,-0.015345674939453602,0.08993630856275558,-1.5972941557513636,-0.0,-0.015523213893175125,0.5561021566390991,0.0,0.03946039825677872,1.166388750076294,-0.00012171170965302736,0.013676238246262074
782.0,847.0,-5.1912,-0.4798,8.1703,-0.0272,0.056,-0.1202,-2.3258844814696253,0.03520567715167999,4.815749645233154,-1.5096263885498047,0.0271009411662817,1.865936279296875,-0.4124598068049927,-0.012684067711234093,0.11932961642742157,-1.5973098913775843,-0.0,-0.026932982727885246,0.5562025308609009,0.0,0.028427232056856155,1.166377067565918,-0.00011400305083952844,0.016345078125596046
782.0,847.0,-5.1912,-0.4798,8.1703,-0.0272,0.056,-0.1202,-2.3256808720030726,0.03677324205636978,4.853553771972656,-1.509401798248291,0.03139127045869827,1.9005165100097656,-0.41253526628527837,-0.00978511106222868,0.12185707688331604,-1.5972541014300745,-0.0,-0.027282796800136566,0.5561947822570801,0.0,0.024312980473041534,1.1664129495620728,-8.958861144492403e-05,0.040635570883750916
782.0,847.0,-5.1912,-0.4798,8.1703,-0.0272,0.056,-0.1202,-2.3256050548949183,0.03713442012667656,4.772665500640869,-1.509341835975647,0.036415766924619675,1.9097386598587036,-0.41250284135852056,-0.00809414591640234,0.11481160670518875,-1.597274128590719,-0.0,-0.024702923372387886,0.5562471747398376,0.0,0.03825027495622635,1.1663846969604492,-8.59318533912301e-05,0.03749712556600571
770.0,854.0,-5.2481,-0.4756,8.4191,-0.0421,0.0609,-0.1541,-2.3253451786436976,0.038204845041036606,4.817513942718506,-1.5090214014053345,0.042951565235853195,1.9976484775543213,-0.4125669759562989,-0.006443599238991737,0.10883477330207825,-1.597245995198385,-0.0,-0.027253158390522003,0.5562230348587036,0.0,0.0310027077794075,1.1664047241210938,-8.127577166305855e-05,0.06482668220996857
770.0,854.0,-5.2481,-0.4756,8.4191,-0.0421,0.0609,-0.1541,-2.3251129589476527,0.039324112236499786,4.8192901611328125,-1.5088026523590088,0.05085289478302002,1.908003568649292,-0.4125901025584717,-0.005397356580942869,0.11753200739622116,-1.5972378889666956,-0.0,-0.024198653176426888,0.5561784505844116,0.0,0.023070935159921646,1.1663610935211182,-7.709833880653605e-05,0.05248146504163742
770.0,854.0,-5.2481,-0.4756,8.4191,-0.0421,0.0609,-0.1541,-2.3250094852843226,0.03733440861105919,4.80391263961792,-1.5086145401000977,0.05547408387064934,1.948622226715088,-0.4126355212977906,-0.00538894347846508,0.11078289151191711,-1.597269360219137,-0.0,-0.03057539090514183,0.5562070608139038,0.0,0.02002025954425335,1.1663610935211182,-7.454405567841604e-05,0.019854705780744553
770.0,854.0,-5.2481,-0.4756,8.4191,-0.0421,0.0609,-0.1541,-2.324737688104147,0.03708554431796074,4.820041656494141,-1.5081862211227417,0.0647517740726471,1.976276159286499,-0.41268308580432134,-0.006069654133170843,0.12339450418949127,-1.5972417036639612,-0.0,-0.02766350284218788,0.5561062097549438,0.0,0.029144614934921265,1.166377067565918,-8.521763811586425e-05,-0.0023829899728298187
770.0,854.0,-5.2481,-0.4756,8.4191,-0.0421,0.0609,-0.1541,-2.3245254955687464,0.035073406994342804,4.806032180786133,-1.507758378982544,0.07718855887651443,1.999875545501709,-0.4127194446376343,-0.008345825597643852,0.11400516331195831,-1.5972617308246058,-0.0,-0.03429843857884407,0.5561423897743225,0.0,0.02263861522078514,1.1663846969604492,-8.136590622598305e-05,0.07473767548799515
770.0,854.0,-5.2481,-0.4756,8.4191,-0.0421,0.0609,-0.1541,-2.324305673638815,0.03352239355444908,4.802494049072266,-1.5072427988052368,0.09140133857727051,1.9652290344238281,-0.4127829831889649,-0.01185690052807331,0.10541035234928131,-1.5972655455218714,-0.0,-0.02023356966674328,0.5562067031860352,0.0,0.04048725962638855,1.1663529872894287,-7.784698391333222e-05,0.015966128557920456
770.0,854.0,-5.2481,-0.4756,8.4191,-0.0421,0.0609,-0.1541,-2.3242017231383265,0.03210543096065521,4.799613952636719,-1.5068507194519043,0.1023639440536499,2.0592756271362305,-0.41284699857745366,-0.015485616400837898,0.10907606780529022,-1.5972378889666956,-0.0,-0.025812912732362747,0.556154727935791,0.0,0.034325189888477325,1.1663812398910522,-7.566544809378684e-05,-0.006925016641616821
770.0,854.0,-5.2481,-0.4756,8.4191,-0.0421,0.0609,-0.1541,-2.323949476281637,0.02882823534309864,4.787806034088135,-1.5061789751052856,0.1144113540649414,2.043776035308838,-0.4129553598216553,-0.021338801831007004,0.10849452018737793,-1.5972335974322718,-0.0,-0.03395616635680199,0.5561907291412354,0.0,0.028829969465732574,1.1663928031921387,-7.261310383910313e-05,0.03215998783707619
770.0,854.0,-5.2481,-0.4756,8.4191,-0.0421,0.0609,-0.1541,-2.323846002618307,0.02556726522743702,4.7537922859191895,-1.5054513216018677,0.1271153688430786,2.081024408340454,-0.41318078458819585,-0.03139805048704147,0.10407417267560959,-1.5972860495196741,-0.0,-0.03779466822743416,0.5562190413475037,0.0,0.038542285561561584,1.1663529872894287,-6.97974901413545e-05,0.009257832542061806
770.0,854.0,-5.2481,-0.4756,8.4191,-0.0421,0.0609,-0.1541,-2.3236171207823695,0.023894663900136948,4.77034854888916,-1.5046921968460083,0.13078825175762177,2.064237117767334,-0.41342826307330327,-0.04706024006009102,0.0951811820268631,-1.5972655455218714,-0.0,-0.011512192897498608,0.5562188625335693,0.0,0.026099104434251785,1.1662763357162476,-7.839062891434878e-05,0.026216605678200722
770.0,854.0,-5.2481,-0.4756,8.4191,-0.0421,0.0609,-0.1541,-2.323606153527731,0.024732252582907677,4.804225921630859,-1.5041120052337646,0.1383163034915924,2.031512498855591,-0.413611964588501,-0.06279413402080536,0.09702293574810028,-1.5972254912005823,-0.0,-0.02458173595368862,0.5561665892601013,0.0,0.01926739141345024,1.1663366556167603,-7.648726023035124e-05,0.022786680608987808
770.0,854.0,-5.2481,-0.4756,8.4191,-0.0421,0.0609,-0.1541,-2.3233853779234828,0.02655530534684658,4.77018928527832,-1.5032687187194824,0.15001332759857178,2.0873847007751465,-0.4140245479396363,-0.09420936554670334,0.07798249274492264,-1.5972660223590296,-0.0,-0.020535962656140327,0.5561788082122803,0.0,0.03697936236858368,1.166348934173584,-8.434018673142418e-05,0.016800103709101677
770.0,854.0,-5.2481,-0.4756,8.4191,-0.0421,0.0609,-0.1541,-2.3232981167235316,0.02743598259985447,4.806564807891846,-1.502308964729309,0.1602582037448883,2.110201597213745,-0.4147638839534302,-0.12401346862316132,0.050917163491249084,-1.5972335974322718,-0.0,-0.020518720149993896,0.5561870336532593,0.0,0.03230753540992737,1.166340708732605,-5.571146175498143e-05,-0.005064224824309349
770.0,854.0,-5.2481,-0.4756,8.4191,-0.0421,0.0609,-0.1541,-2.3231941662230433,0.025955360382795334,4.8231730461120605,-1.5012578964233398,0.17597217857837677,2.1421072483062744,-0.4155455392650147,-0.14536863565444946,0.05677979439496994,-1.5972817579852503,-0.0,-0.008131994865834713,0.5562107563018799,0.0,0.02285195142030716,1.1663730144500732,-6.32601513643749e-05,-0.022025231271982193
770.0,854.0,-5.2481,-0.4756,8.4191,-0.0421,0.0609,-0.1541,-2.323085924188131,0.02313453145325184,4.790793418884277,-1.5005614757537842,0.18249382078647614,2.119320869445801,-0.4161212009242554,-0.15143334865570068,0.04292559623718262,-1.5972736517535608,-0.0,-0.01680784858763218,0.556154727935791,0.0,0.02225620299577713,1.166340708732605,-7.207256567198783e-05,-0.024553075432777405
770.0,854.0,-5.2481,-0.4756,8.4191,-0.0421,0.0609,-0.1541,-2.323010583917135,0.016916781663894653,4.798853874206543,-1.4994544982910156,0.1858428567647934,2.126951217651367,-0.417144851093628,-0.17415089905261993,0.028947755694389343,-1.597269360219137,-0.0,-0.01701481081545353,0.5561788082122803,0.0,0.03730584308505058,1.166340708732605,-0.0003607574035413563,-0.020207585766911507
770.0,854.0,-5.2481,-0.4756,8.4191,-0.0421,0.0609,-0.1541,-2.32285799602651,0.01241207867860794,4.762187957763672,-1.4982553720474243,0.19393382966518402,2.1723556518554688,-0.41835661352191167,-0.21700118482112885,0.012373745441436768,-1.5972655455218714,-0.0,-0.02840879000723362,0.5561542510986328,0.0,0.03029507026076317,1.1663529872894287,-0.00045882732956670225,-0.06345868855714798
717.0,826.0,-6.8285,-0.4917,8.2612,-0.0457,0.0922,-0.1246,-2.322782655755514,0.01278369128704071,4.770863056182861,-1.4970195293426514,0.20563830435276031,2.152627944946289,-0.41980989397082524,-0.23261599242687225,0.012100843712687492,-1.5972541014300745,-0.0,-0.0027300375513732433,0.5561144948005676,0.0,0.030948814004659653,1.1663928031921387,-0.0004913705633953214,-0.03892248868942261
717.0,826.0,-6.8285,-0.4917,8.2612,-0.0457,0.0922,-0.1246,-2.3226739368834437,0.015438497997820377,4.740113258361816,-1.4961918592453003,0.2120281457901001,2.1815710067749023,-0.4207175535014649,-0.24241653084754944,0.01818348467350006,-1.597245995198385,-0.0,-0.0071360087022185326,0.5562390685081482,0.0,0.022656375542283058,1.166348934173584,-0.0007168614538386464,-0.07476196438074112
717.0,826.0,-6.8285,-0.4917,8.2612,-0.0457,0.0922,-0.1246,-2.3226944408812464,0.01618456281721592,4.752913951873779,-1.4948440790176392,0.2222302109003067,2.169114112854004,-0.4222948116115113,-0.27079254388809204,-0.0016271935310214758,-1.5972417036639612,-0.0,-0.020085837692022324,0.5562230944633484,0.0,0.028783569112420082,1.1663329601287842,-0.0006347906310111284,-0.07764685153961182
717.0,826.0,-6.8285,-0.4917,8.2612,-0.0457,0.0922,-0.1246,-2.3225542507567347,0.014690972864627838,4.763523101806641,-1.4935011863708496,0.23022052645683289,2.1272315979003906,-0.4240967792323609,-0.289031982421875,-0.0016870293766260147,-1.5972941557513636,-0.0,-0.01763915829360485,0.5561707615852356,0.0,0.02999967336654663,1.1663610935211182,-0.0005019831005483866,-0.054194770753383636
717.0,826.0,-6.8285,-0.4917,8.2612,-0.0457,0.0922,-0.1246,-2.3225299320616664,0.012259464710950851,4.806608200073242,-1.4925700426101685,0.23396101593971252,2.1667840480804443,-0.4252162736705323,-0.32514840364456177,-0.02111612632870674,-1.5972378889666956,-0.0,-0.006694468669593334,0.5562190413475037,0.0,0.04472891241312027,1.166292667388916,-0.0004438817559275776,-0.05387941002845764
717.0,826.0,-6.8285,-0.4917,8.2612,-0.0457,0.0922,-0.1246,-2.3224860630431117,0.007613137364387512,4.772928714752197,-1.4910743236541748,0.24352936446666718,2.2071948051452637,-0.4274067443660279,-0.3473396599292755,-0.02999080717563629,-1.5972502867328089,-0.0,-0.012898433953523636,0.5561665296554565,0.0,0.014280692674219608,1.1663652658462524,-0.0003447646158747375,-0.04429413378238678
717.0,826.0,-6.8285,-0.4917,8.2612,-0.0457,0.0922,-0.1246,-2.3224340877928675,0.004334523342549801,4.710842609405518,-1.4895877838134766,0.25252828001976013,2.190188407897949,-0.42952318609271245,-0.39065292477607727,-0.053026892244815826,-1.5972498098956507,-0.0,-0.005499036982655525,0.5561747550964355,0.0,0.022566281259059906,1.166321039199829,-0.00037296945811249316,-0.06775716692209244
717.0,826.0,-6.8285,-0.4917,8.2612,-0.0457,0.0922,-0.1246,-2.3224221668639125,0.0027570019010454416,4.74156379699707,-1.4880521297454834,0.26013362407684326,2.196526050567627,-0.43199749410662847,-0.41835451126098633,-0.07307850569486618,-1.5972579161273401,-0.0,-0.004978876560926437,0.556154727935791,0.0,0.019468706101179123,1.1663169860839844,-0.00037787528708577156,-0.09006180614233017
717.0,826.0,-6.8285,-0.4917,8.2612,-0.0457,0.0922,-0.1246,-2.3224102459349574,0.0027644552756100893,4.750483512878418,-1.4870408773422241,0.2685973644256592,2.240567684173584,-0.43364639699969487,-0.435392826795578,-0.06281976401805878,-1.597205940877096,-0.0,-0.012238522991538048,0.5561707615852356,0.0,0.02732069045305252,1.166373372077942,-0.00040400869329459965,-0.0949554517865181
717.0,826.0,-6.8285,-0.4917,8.2612,-0.0457,0.0922,-0.1246,-2.322414060632223,0.002166160847991705,4.766422748565674,-1.4854060411453247,0.28006479144096375,2.2535221576690674,-0.4363324207118531,-0.4667329788208008,-0.08631935715675354,-1.5972021261798304,-0.0,-0.010589966550469398,0.556146502494812,0.0,0.010800895281136036,1.1663451194763184,-0.0003819409175775945,-0.09465369582176208
717.0,826.0,-6.8285,-0.4917,8.2612,-0.0457,0.0922,-0.1246,-2.3224345646300257,0.000934440759010613,4.762089252471924,-1.483703374862671,0.2833297550678253,2.2649893760681152,-0.4393076461604615,-0.5040495991706848,-0.090055450797081,-1.5972936789142054,-0.0,-0.012527424842119217,0.5561624765396118,0.0,0.023030532523989677,1.1663693189620972,-0.00031508252141065896,-0.11557416617870331
717.0,826.0,-6.8285,-0.4917,8.2612,-0.0457,0.0922,-0.1246,-2.322409769097799,0.0004603652632795274,4.7616682052612305,-1.4820078611373901,0.2968237102031708,2.235452175140381,-0.4424252075007935,-0.526719868183136,-0.10178586840629578,-1.5972541014300745,-0.0,-0.004994095303118229,0.5561988353729248,0.0,0.022969139739871025,1.16632878780365,-0.00026814037119038403,-0.10765592753887177
717.0,826.0,-6.8285,-0.4917,8.2612,-0.0457,0.0922,-0.1246,-2.322454114953512,0.0003665357071440667,4.7445831298828125,-1.4807724952697754,0.30497315526008606,2.227283477783203,-0.44456525266680913,-0.5379478931427002,-0.08801095932722092,-1.5972140471087855,-0.0,0.009798700921237469,0.5561382174491882,0.0,0.01476000901311636,1.166340708732605,-0.00024391483748331666,-0.11953262239694595
717.0,826.0,-6.8285,-0.4917,8.2612,-0.0457,0.0922,-0.1246,-2.322522302667135,-0.00023652866366319358,4.7330403327941895,-1.4789520502090454,0.30706164240837097,2.2323474884033203,-0.4478594821742554,-0.5664132237434387,-0.08677394688129425,-1.5972216765033167,-0.0,0.021769657731056213,0.5561870336532593,0.0,0.017595604062080383,1.1663570404052734,-0.0002843218680936843,-0.14062729477882385
717.0,826.0,-6.8285,-0.4917,8.2612,-0.0457,0.0922,-0.1246,-2.3224860630431117,-0.00153533392585814,4.761035442352295,-1.4770865440368652,0.3126887381076813,2.240527868270874,-0.4514005941203614,-0.5806081295013428,-0.07775463908910751,-1.597194019948141,-0.0,0.0019092864822596312,0.5561829209327698,0.0,0.014435402117669582,1.1663612127304077,-0.0009704483090899885,-0.17133019864559174
717.0,826.0,-6.8285,-0.4917,8.2612,-0.0457,0.0922,-0.1246,-2.322509904901022,-0.0008971217321231961,4.752622604370117,-1.4752156734466553,0.32767340540885925,2.2830944061279297,-0.45499880731616216,-0.596548855304718,-0.06891880929470062,-1.5972335974322718,6.520704482682049e-05,0.004172900691628456,0.5561103820800781,0.0,0.018408412113785744,1.1663291454315186,-0.0022377956192940474,-0.266307532787323
717.0,826.0,-6.8285,-0.4917,8.2612,-0.0457,0.0922,-0.1246,-2.3225141964354457,-0.0007629524916410446,4.702256679534912,-1.473944067955017,0.32877734303474426,2.2542977333068848,-0.457452730541565,-0.612217128276825,-0.09117137640714645,-1.5971739927874964,8.517793321516365e-05,0.007667861878871918,0.5561227202415466,0.0,-0.0012007488403469324,1.1663213968276978,-0.0043974569998681545,-0.25459858775138855
603.0,822.0,-6.4122,-0.7561,9.1442,0.0066,-0.2269,-0.1171,-2.3225017986693324,-0.0004848222597502172,4.724921226501465,-1.471855878829956,0.32838326692581177,2.1876044273376465,-0.46114178121600347,-0.6298820376396179,-0.08016238361597061,-1.5972102324115198,0.00010203162673860788,0.010359570384025574,0.556187093257904,0.0,0.011988920159637928,1.1662850379943848,-0.005878690630197525,-0.21116548776626587
603.0,822.0,-6.4122,-0.7561,9.1442,0.0066,-0.2269,-0.1171,-2.3225423298277796,-0.0005001095705665648,4.726374626159668,-1.4698495864868164,0.3361769914627075,2.264248847961426,-0.46492476881060796,-0.6364098787307739,-0.06984061747789383,-1.5972378889666956,0.0005162348970770836,0.008312267251312733,0.5561748147010803,0.0,0.015383582562208176,1.1662168502807617,-0.0054813870228827,-0.2818903625011444
603.0,822.0,-6.4122,-0.7561,9.1442,0.0066,-0.2269,-0.1171,-2.3224979839720667,-0.0004041375941596925,4.749008655548096,-1.4678066968917847,0.3359178900718689,2.2223148345947266,-0.46878941476855474,-0.6468839049339294,-0.059968166053295135,-1.5971978346454065,0.0004663217405322939,0.015644192695617676,0.5561145544052124,2.8377403538115686e-08,0.003131627570837736,1.1661887168884277,-0.006111927330493927,-0.29441481828689575
603.0,822.0,-6.4122,-0.7561,9.1442,0.0066,-0.2269,-0.1171,-2.3225304088988246,-0.0003581763303373009,4.755019187927246,-1.4664065837860107,0.3357354700565338,2.277097702026367,-0.4713072341731568,-0.6521848440170288,-0.05908031016588211,-1.5972097555743616,0.0004616224905475974,0.01347108744084835,0.5561550855636597,1.2097731150184643e-10,0.0020842859521508217,1.1661851406097412,-0.0063710943795740604,-0.30010995268821716
603.0,822.0,-6.4122,-0.7561,9.1442,0.0066,-0.2269,-0.1171,-2.3224741421141566,-0.00030829611932858825,4.710209846496582,-1.464320182800293,0.34428107738494873,2.2650766372680664,-0.4752224248698731,-0.6511446237564087,-0.05431956797838211,-1.5972102324115198,0.00043657931382767856,0.017083439975976944,0.5561748147010803,3.36744758325843e-14,0.011343180201947689,1.1661572456359863,-0.006288737989962101,-0.23038697242736816
603.0,822.0,-6.4122,-0.7561,9.1442,0.0066,-0.2269,-0.1171,-2.3224860630431117,-6.248874706216156e-05,4.78423547744751,-1.4622167348861694,0.34866097569465637,2.2446508407592773,-0.4791042369655152,-0.6449736952781677,-0.0611317940056324,-1.597177807484762,0.0004326941561885178,0.02077603153884411,0.5561386942863464,9.37341300528451e-18,0.002939889207482338,1.1660895347595215,-0.006848625838756561,-0.29897961020469666
603.0,822.0,-6.4122,-0.7561,9.1442,0.0066,-0.2269,-0.1171,-2.322522302667135,-5.462830085889436e-05,4.7413434982299805,-1.4608458280563354,0.34931522607803345,2.301262378692627,-0.48165424287829595,-0.6456479430198669,-0.05651666969060898,-1.597177807484762,0.00043563140206970274,0.0077190035954117775,0.5561104416847229,3.9960326372961034e-20,0.018874527886509895,1.1660653352737427,-0.007346856873482466,-0.3019866645336151
603.0,822.0,-6.4122,-0.7561,9.1442,0.0066,-0.2269,-0.1171,-2.3224460087218226,-4.621206971933134e-05,4.766985893249512,-1.4586620330810547,0.3557455241680145,2.3103601932525635,-0.4855188888362427,-0.6273877620697021,-0.05682239681482315,-1.597177807484762,0.0004126359708607197,0.020281361415982246,0.5561063885688782,1.1123104424406363e-23,0.002828017808496952,1.1660137176513672,-0.008972084149718285,-0.31036972999572754
603.0,822.0,-6.4122,-0.7561,9.1442,0.0066,-0.2269,-0.1171,-2.3225065670409144,-4.004321453976445e-05,4.7194504737854,-1.4565802812576294,0.3619157373905182,2.3032822608947754,-0.4891655010036011,-0.6177123188972473,-0.053376585245132446,-1.5971854368792933,0.00041141448309645057,0.031905002892017365,0.5561349987983704,3.0961567564410027e-27,0.021883532404899597,1.1659736633300781,-0.009640810079872608,-0.34017419815063477
603.0,822.0,-6.4122,-0.7561,9.1442,0.0066,-0.2269,-0.1171,-2.3224979839720667,-6.64808030705899e-05,4.768606185913086,-1.45438814163208,0.3690744936466217,2.2908365726470947,-0.492880181675293,-0.5958430767059326,-0.05567677691578865,-1.597165886555807,0.0003233420429751277,0.020923491567373276,0.5561391115188599,8.618265667234451e-31,-0.0006458788411691785,1.1659380197525024,-0.010282493196427822,-0.3270817995071411
603.0,822.0,-6.4122,-0.7561,9.1442,0.0066,-0.2269,-0.1171,-2.322554727593893,-6.55109470244497e-05,4.780844211578369,-1.452856183052063,0.36935508251190186,2.2916269302368164,-0.49513061464343266,-0.5872488617897034,-0.05228196829557419,-1.5972021261798304,0.0003243130340706557,0.0054233260452747345,0.5561227798461914,3.67410200038511e-33,0.011450287885963917,1.1658378839492798,-0.012118997983634472,-0.3179056644439697
603.0,822.0,-6.4122,-0.7561,9.1442,0.0066,-0.2269,-0.1171,-2.3225261173644007,-0.00011807711416622624,4.745096206665039,-1.450689673423767,0.37326526641845703,2.316822052001953,-0.49851663530383306,-0.5617845058441162,-0.0673740953207016,-1.5972502867328089,0.0002854121557902545,0.01409283559769392,0.5561628341674805,1.0226997258146661e-36,0.01812315173447132,1.1658059358596802,-0.010562770068645477,-0.3568382263183594
603.0,822.0,-6.4122,-0.7561,9.1442,0.0066,-0.2269,-0.1171,-2.3225704632201136,-0.00010763842874439433,4.7948198318481445,-1.4484219551086426,0.3809753954410553,2.31211256980896,-0.5018009704402466,-0.5465660691261292,-0.06033768504858017,-1.5971816221820276,0.00024634323199279606,0.021791256964206696,0.5561268925666809,2.8467238172912226e-40,-0.0026671639643609524,1.1657218933105469,-0.010841449722647667,-0.3207617700099945
603.0,822.0,-6.4122,-0.7561,9.1442,0.0066,-0.2269,-0.1171,-2.322594305078024,-0.00010704184387577698,4.80409574508667,-1.4461759328842163,0.376427561044693,2.2729015350341797,-0.5049955409816285,-0.5191537141799927,-0.04534830525517464,-1.597194019948141,0.0002166822669096291,0.008422899059951305,0.5560583472251892,7.987401246651457e-44,0.005164208821952343,1.1656826734542847,-0.012603056617081165,-0.29339390993118286
603.0,822.0,-6.4122,-0.7561,9.1442,0.0066,-0.2269,-0.1171,-2.3225256405272425,-0.00016466015949845314,4.7839035987854,-1.4445924758911133,0.3837025463581085,2.3180813789367676,-0.5069393676570435,-0.4980402886867523,-0.054637372493743896,-1.597177807484762,0.00020058195514138788,0.017503084614872932,0.5561472773551941,0.0,0.0068949321284890175,1.1656101942062378,-0.011284845881164074,-0.25181782245635986
603.0,822.0,-6.4122,-0.7561,9.1442,0.0066,-0.2269,-0.1171,-2.3225423298277796,-0.0005663216579705477,4.762514114379883,-1.4423441886901855,0.39077460765838623,2.375260829925537,-0.5098046821406861,-0.4753154218196869,-0.03554932773113251,-1.597194019948141,0.00021053732780274004,0.02265678159892559,0.5561186671257019,0.0,0.007459139451384544,1.1655346155166626,-0.011151453480124474,-0.2955646514892578
752.0,862.0,-4.2957,-0.4678,8.9115,-0.0041,-0.1097,-0.1381,-2.3225704632201136,-0.0003298308583907783,4.791193008422852,-1.4399694204330444,0.3899643123149872,2.3363966941833496,-0.5125773710063477,-0.4501863121986389,-0.020462607964873314,-1.597161595021383,0.0001913589221658185,0.023729566484689713,0.556090772151947,0.0,-0.0007200955878943205,1.1654868125915527,-0.012303785420954227,-0.29399698972702026
752.0,862.0,-4.2957,-0.4678,8.9115,-0.0041,-0.1097,-0.1381,-2.3225423298277796,-0.00012523749319370836,4.749143600463867,-1.4376628398895264,0.395481139421463,2.319446325302124,-0.5151748222163697,-0.42359697818756104,-0.021738849580287933,-1.5971577803241175,0.0001753768156049773,0.013685091398656368,0.5561227798461914,0.0,0.0008509361650794744,1.165442943572998,-0.01081877015531063,-0.27505937218666077
752.0,862.0,-4.2957,-0.4678,8.9115,-0.0041,-0.1097,-0.1381,-2.322566648522848,-9.793978824745864e-05,4.795465469360352,-1.4360238313674927,0.3950998783111572,2.3320298194885254,-0.5168131154826661,-0.39301949739456177,0.0185324028134346,-1.5971577803241175,0.00018964950868394226,0.013454906642436981,0.5560989379882812,0.0,-0.007091084495186806,1.1654192209243774,-0.009206674993038177,-0.27712345123291016
752.0,862.0,-4.2957,-0.4678,8.9115,-0.0041,-0.1097,-0.1381,-2.322566648522848,-7.382716285064816e-05,4.789651393890381,-1.4335805177688599,0.39692071080207825,2.351142406463623,-0.5190591377070923,-0.36867251992225647,0.01820901781320572,-1.5971978346454065,0.00017594010569155216,0.009118298068642616,0.556082546710968,0.0,-0.0162989292293787,1.165363073348999,-0.00814952701330185,-0.24997888505458832
752.0,862.0,-4.2957,-0.4678,8.9115,-0.0041,-0.1097,-0.1381,-2.322521825829977,-5.9243910072837025e-05,4.777432441711426,-1.4312379360198975,0.40164321660995483,2.3103606700897217,-0.5211709302714844,-0.33691105246543884,0.024047888815402985,-1.5971697012530726,0.0001303952740272507,0.009449431672692299,0.5561349391937256,0.0,0.015165280550718307,1.1652752161026,-0.006355062127113342,-0.2986803948879242
752.0,862.0,-4.2957,-0.4678,8.9115,-0.0041,-0.1097,-0.1381,-2.3225256405272425,-5.235068965703249e-05,4.763298988342285,-1.4296108484268188,0.401836097240448,2.3682785034179688,-0.5224670928767701,-0.3194299340248108,0.03300981968641281,-1.597194019948141,0.00014690743410028517,0.005453216377645731,0.5561551451683044,0.0,-0.000867120863404125,1.1652953624725342,-0.005534416995942593,-0.2753030061721802
752.0,862.0,-4.2957,-0.4678,8.9115,-0.0041,-0.1097,-0.1381,-2.3225423298277796,-8.906879520509392e-05,4.766254425048828,-1.4271589517593384,0.4045633375644684,2.343761920928955,-0.5242296022227784,-0.27374011278152466,0.048569560050964355,-1.5971220175372522,0.00015852101205382496,0.014749577268958092,0.5561026334762573,0.0,0.0007445258088409901,1.1652392148971558,-0.0039872219786047935,-0.2722479999065399
752.0,862.0,-4.2957,-0.4678,8.9115,-0.0041,-0.1097,-0.1381,-2.322594305078024,-0.00029406981775537133,4.760597229003906,-1.4247572422027588,0.4062127470970154,2.329784393310547,-0.5257162612727662,-0.24122940003871918,0.06962065398693085,-1.597165886555807,0.00016903043433558196,0.015577331185340881,0.5561386942863464,0.0,-0.012572197243571281,1.1652876138687134,-0.0021037471015006304,-0.31151366233825684
752.0,862.0,-4.2957,-0.4678,8.9115,-0.0041,-0.1097,-0.1381,-2.3225981197752894,-0.002434025052934885,4.758647918701172,-1.4223142862319946,0.4079299867153168,2.346796989440918,-0.5270078939250489,-0.1877719759941101,0.08173008263111115,-1.597177807484762,0.0003511072718538344,0.0188627690076828,0.5561550855636597,0.0,-0.002147147199138999,1.1652716398239136,-0.0012244901154190302,-0.2862287163734436
752.0,862.0,-4.2957,-0.4678,8.9115,-0.0041,-0.1097,-0.1381,-2.322618146935934,-0.0026406091637909412,4.794841766357422,-1.4207229614257812,0.4065456688404083,2.341313123703003,-0.5276675981334229,-0.17551520466804504,0.1015482097864151,-1.5971539656268519,0.000363429804565385,0.01648653857409954,0.5561308860778809,0.0,0.004240009468048811,1.165271282196045,-0.00032757013104856014,-0.32983821630477905
752.0,862.0,-4.2957,-0.4678,8.9115,-0.0041,-0.1097,-0.1381,-2.322618146935934,-0.0031904762145131826,4.779452800750732,-1.4183317422866821,0.4121590554714203,2.3257498741149902,-0.5287138980678101,-0.15772444009780884,0.10977834463119507,-1.5971816221820276,0.0003031323431059718,0.0025121329817920923,0.5561468601226807,0.0,-0.012424347922205925,1.165271282196045,-1.3013670468353666e-05,-0.2676395773887634
752.0,862.0,-4.2957,-0.4678,8.9115,-0.0041,-0.1097,-0.1381,-2.3226262531676234,-0.003563965205103159,4.731438159942627,-1.41591215133667,0.4073978066444397,2.3520455360412598,-0.5294949573329468,-0.1226804181933403,0.10597893595695496,-1.5971100966082972,0.00030226752278394997,0.020574651658535004,0.5561145544052124,0.0,-0.004170198459178209,1.165291666984558,-3.1426479474294666e-11,-0.3316391110420227
752.0,862.0,-4.2957,-0.4678,8.9115,-0.0041,-0.1097,-0.1381,-2.322714468041891,-0.004304736386984587,4.75569486618042,-1.4134432077407837,0.41121959686279297,2.3786444664001465,-0.530081109409668,-0.07564294338226318,0.1371787041425705,-1.5972064177142542,0.00029245647601783276,0.012979700230062008,0.5561349391937256,0.0,0.000975089380517602,1.1652711629867554,-7.589126025056382e-17,-0.2859445810317993
752.0,862.0,-4.2957,-0.4678,8.9115,-0.0041,-0.1097,-0.1381,-2.3227020702757777,-0.004146487917751074,4.777713775634766,-1.4118307828903198,0.4131789207458496,2.321805238723755,-0.5303232234767457,-0.05109361931681633,0.16356728971004486,-1.597137753163473,0.00027885273448191583,0.0038275106344372034,0.5561309456825256,0.0,0.01101007591933012,1.165303111076355,-1.3660157570928733e-20,-0.3785109221935272
752.0,862.0,-4.2957,-0.4678,8.9115,-0.0041,-0.1097,-0.1381,-2.3227621517577113,-0.003257495118305087,4.787076950073242,-1.409401297569275,0.40868914127349854,2.3816781044006348,-0.5305060905269166,-0.020098386332392693,0.14068591594696045,-1.5971415678607386,0.00024228131223935634,0.016355469822883606,0.5561145544052124,0.0,0.004751340486109257,1.1652793884277344,-3.298767629559852e-26,-0.27921828627586365
752.0,862.0,-4.2957,-0.4678,8.9115,-0.0041,-0.1097,-0.1381,-2.3227421245970667,-0.003242484526708722,4.71529483795166,-1.4069033861160278,0.4108143150806427,2.347031593322754,-0.530505971317627,-0.002161444164812565,0.17154136300086975,-1.5971258322345179,0.0002891403273679316,0.013526584021747112,0.5560706257820129,0.0,0.009667135775089264,1.1652871370315552,-7.966136548679335e-32,-0.37295591831207275
752.0,862.0,-4.2957,-0.4678,8.9115,-0.0041,-0.1097,-0.1381,-2.3228265247740687,-0.004338300321251154,4.734068870544434,-1.4044438600540161,0.4033835828304291,2.3012540340423584,-0.5305292171290894,0.005209022201597691,0.1776244044303894,-1.5971854368792933,0.0006477672141045332,0.0247286856174469,0.5561391115188599,0.0,0.007482212036848068,1.165351152420044,0.00045871545444242656,-0.3255786895751953
683.0,731.0,-3.8375,-0.0383,8.0842,-0.0791,0.3465,-0.1251,-2.3227979145445765,-0.0048196036368608475,4.7280988693237305,-1.4028031826019287,0.4029981791973114,2.393613338470459,-0.5305373233607789,0.002728696446865797,0.17964351177215576,-1.5971177260028284,0.0007215635851025581,0.028386369347572327,0.5561472773551941,0.0,0.004412464797496796,1.165351152420044,0.00045830701128579676,-0.3106289207935333
683.0,731.0,-3.8375,-0.0383,8.0842,-0.0791,0.3465,-0.1251,-2.3228465519347132,-0.003540260251611471,4.721763610839844,-1.4003797769546509,0.40184485912323,2.328652858734131,-0.5305531781962891,0.0005691384430974722,0.1690664291381836,-1.597137753163473,0.001332950429059565,0.031155992299318314,0.5561391711235046,0.0,0.011336886323988438,1.1653553247451782,0.000630721973720938,-0.36315301060676575
683.0,731.0,-3.8375,-0.0383,8.0842,-0.0791,0.3465,-0.1251,-2.3228217564024867,-0.0017283860361203551,4.751275062561035,-1.3979535102844238,0.4001733660697937,2.3549602031707764,-0.5305490058711548,-0.00026517530204728246,0.16845661401748657,-1.5970972220050257,0.0027515755500644445,0.02871512994170189,0.556159257888794,0.0,0.004808496683835983,1.165359377861023,0.0005335970199666917,-0.29487693309783936
683.0,731.0,-3.8375,-0.0383,8.0842,-0.0791,0.3465,-0.1251,-2.3228341541686,-0.0008440479286946356,4.720519542694092,-1.3955703973770142,0.3971656858921051,2.353447914123535,-0.5306212467006226,-0.0003842731239274144,0.15844249725341797,-1.5970614592181605,0.005126593168824911,0.03631095588207245,0.556090772151947,0.0,0.017811639234423637,1.1653430461883545,0.00047278692363761365,-0.3616337478160858
683.0,731.0,-3.8375,-0.0383,8.0842,-0.0791,0.3465,-0.1251,-2.3228422604002894,-0.0005629783263429999,4.751026153564453,-1.393989086151123,0.397981733083725,2.360565185546875,-0.5306132596782227,-0.0009000796126201749,0.15420088171958923,-1.5970538298236292,0.007082873024046421,0.028073225170373917,0.5561227798461914,0.0,-0.00587465288117528,1.1653389930725098,0.00046978809405118227,-0.3649601638317108
683.0,731.0,-3.8375,-0.0383,8.0842,-0.0791,0.3465,-0.1251,-2.322850366631979,-0.000491105776745826,4.753685474395752,-1.3916500806808472,0.40113750100135803,2.3639087677001953,-0.5306529563716431,-0.002636229619383812,0.1647588014602661,-1.5970261732684534,0.007746903225779533,0.04156380519270897,0.5561472773551941,0.0,0.009121902287006378,1.1653590202331543,0.00039785716217011213,-0.3539448380470276
683.0,731.0,-3.8375,-0.0383,8.0842,-0.0791,0.3465,-0.1251,-2.322874685327047,-0.00038582077831961215,4.725719928741455,-1.3892593383789062,0.3958689570426941,2.3533029556274414,-0.5306450885585328,-0.003238428384065628,0.15988275408744812,-1.597001854573385,0.005547450389713049,0.03063374012708664,0.5561391115188599,0.0,0.002214935375377536,1.1652991771697998,0.0002986883628182113,-0.3825840950012207
683.0,731.0,-3.8375,-0.0383,8.0842,-0.0791,0.3465,-0.1251,-2.3228823147215785,-0.00039380090311169624,4.715585708618164,-1.3877450227737427,0.3978162705898285,2.3877458572387695,-0.5307285350612183,-0.005391466896981001,0.14641723036766052,-1.5970218817340296,0.003674796549603343,0.04739878699183464,0.5561428070068359,0.0,-0.0006479682633653283,1.165303111076355,0.0002727581886574626,-0.39442020654678345
683.0,731.0,-3.8375,-0.0383,8.0842,-0.0791,0.3465,-0.1251,-2.322846075097555,-0.00046519088209606707,4.771639347076416,-1.3853498697280884,0.3922271728515625,2.323672294616699,-0.5307645362666626,-0.009013236500322819,0.13074791431427002,-1.596973721181051,0.0018573388224467635,0.03465872257947922,0.5561068058013916,0.0,0.012727811932563782,1.1652671098709106,0.00010786343045765534,-0.3884108364582062
683.0,731.0,-3.8375,-0.0383,8.0842,-0.0791,0.3465,-0.1251,-2.3228818378844203,-0.002915004501119256,4.7428154945373535,-1.38296639919281,0.38823986053466797,2.3405773639678955,-0.5308326047709961,-0.015071260742843151,0.14306345582008362,-1.5969579855548304,0.000978916184976697,0.03424666449427605,0.5561391115188599,0.0,0.00174192083068192,1.1653351783752441,1.3476072126650251e-05,-0.3710286021232605
683.0,731.0,-3.8375,-0.0383,8.0842,-0.0791,0.3465,-0.1251,-2.322914262811178,-0.004571923054754734,4.731682777404785,-1.3807082176208496,0.38998404145240784,2.404566764831543,-0.5309676688960572,-0.02239939756691456,0.15019771456718445,-1.5969417730914515,0.0007549154106527567,0.03326423838734627,0.5561591982841492,0.0,0.0012876332039013505,1.1652871370315552,3.254312444522789e-11,-0.4422248899936676
683.0,731.0,-3.8375,-0.0383,8.0842,-0.0791,0.3465,-0.1251,-2.3229223690428675,-0.004715246614068747,4.729723930358887,-1.3791046142578125,0.38367435336112976,2.396681785583496,-0.5311064285090943,-0.027607271447777748,0.1370062530040741,-1.5969460646258753,0.0007155478815548122,0.030872892588377,0.5561391115188599,0.0,0.011997370980679989,1.165303111076355,5.8576478764076415e-15,-0.43549269437789917
683.0,731.0,-3.8375,-0.0383,8.0842,-0.0791,0.3465,-0.1251,-2.3229462109007777,-0.00455530034378171,4.7340288162231445,-1.3768510818481445,0.3787814974784851,2.3749256134033203,-0.5313256543925782,-0.040131986141204834,0.11429727077484131,-1.5969298521624964,0.0006211571162566543,0.033354975283145905,0.5561632513999939,0.0,-0.006892271339893341,1.1652590036392212,1.414553002915123e-20,-0.3976329267024994
683.0,731.0,-3.8375,-0.0383,8.0842,-0.0791,0.3465,-0.1251,-2.322998186151022,-0.004941167309880257,4.777619361877441,-1.3746185302734375,0.3720257878303528,2.3911261558532715,-0.5315964978984375,-0.0556042306125164,0.12006555497646332,-1.5969260374652308,0.00086654705228284,0.05085349082946777,0.556170642375946,0.0,0.006743635982275009,1.1653351783752441,3.415979417826468e-26,-0.4506235420703888
683.0,731.0,-3.8375,-0.0383,8.0842,-0.0791,0.3465,-0.1251,-2.3229781589903773,-0.0054024276323616505,4.743103981018066,-1.372375249862671,0.3625664710998535,2.3053841590881348,-0.5319854778102417,-0.07164350897073746,0.10026604682207108,-1.5969584623919886,0.0012979352613911033,0.0402398481965065,0.5560784935951233,0.0,0.001144655980169773,1.1653155088424683,8.249187947644062e-32,-0.43865394592285156
683.0,731.0,-3.8375,-0.0383,8.0842,-0.0791,0.3465,-0.1251,-2.3230301342406214,-0.005135716404765844,4.744335174560547,-1.3708724975585938,0.3613514304161072,2.3337316513061523,-0.5323321384242554,-0.08022511005401611,0.10626541078090668,-1.596949879323141,0.001455081393942237,0.045359060168266296,0.5561468601226807,0.0,0.004321734886616468,1.1652309894561768,-0.00046782800927758217,-0.39886274933815
683.0,731.0,-3.8375,-0.0383,8.0842,-0.0791,0.3465,-0.1251,-2.3230377636351527,-0.0039001491386443377,4.770188331604004,-1.3687533140182495,0.35436007380485535,2.323948621749878,-0.5328813356212159,-0.08530573546886444,0.1115989089012146,-1.5969017187701624,0.0015770840691402555,0.04746122658252716,0.5561145544052124,0.0,0.01143222488462925,1.1652953624725342,-0.0008870166493579745,-0.38221800327301025
315.0,338.0,-6.4522,-0.539,8.4335,-0.0933,0.3714,-0.1373,-2.3230582676329554,-0.0033544062171131372,4.739455223083496,-1.3666820526123047,0.34735459089279175,2.333362579345703,-0.5333946508220215,-0.08263863623142242,0.09916003793478012,-1.5969141165362757,0.001615873072296381,0.06558049470186234,0.5561509132385254,0.0,0.012670380063354969,1.165299415588379,-0.0009278698125854135,-0.444786936044693
315.0,338.0,-6.4522,-0.539,8.4335,-0.0933,0.3714,-0.1373,-2.3231059513487757,-0.004530991427600384,4.749388217926025,-1.364621639251709,0.33728447556495667,2.2973153591156006,-0.5338917535594483,-0.0779542550444603,0.10500545799732208,-1.59691030183901,0.0015969285741448402,0.0580846332013607,0.5561587810516357,0.0,0.002854007761925459,1.165307641029358,-0.0009249037830159068,-0.3829718232154846
315.0,338.0,-6.4522,-0.539,8.4335,-0.0933,0.3714,-0.1373,-2.3231545887389125,-0.005915972404181957,4.761297225952148,-1.3632553815841675,0.3316654562950134,2.296663999557495,-0.5342167180827637,-0.084991455078125,0.0985565036535263,-1.5968816916095179,0.001415625330992043,0.04251653701066971,0.5561268329620361,0.0,-0.0009024841710925102,1.165235161781311,-0.0008487345185130835,-0.4601207971572876
315.0,338.0,-6.4522,-0.539,8.4335,-0.0933,0.3714,-0.1373,-2.323170324365133,-0.007444397080689669,4.7103471755981445,-1.3613460063934326,0.32687437534332275,2.3255059719085693,-0.534780816440918,-0.11333931237459183,0.08294449746608734,-1.5968735853778284,0.0010944448877125978,0.05439393222332001,0.5561468601226807,0.0,-0.00011140131391584873,1.165271282196045,-0.0008301854250021279,-0.49183934926986694
315.0,338.0,-6.4522,-0.539,8.4335,-0.0933,0.3714,-0.1373,-2.3232342205443324,-0.007349889259785414,4.778351783752441,-1.3594740629196167,0.3139863610267639,2.3003921508789062,-0.5355469745448609,-0.1491045206785202,0.06264074146747589,-1.596905533467428,0.0011208854848518968,0.061271559447050095,0.5561144948005676,0.0,-0.0015250870492309332,1.1652634143829346,-0.0009688762365840375,-0.5176969766616821
315.0,338.0,-6.4522,-0.539,8.4335,-0.0933,0.3714,-0.1373,-2.3232537708678187,-0.007243223488330841,4.751171588897705,-1.3575248718261719,0.30888089537620544,2.3099255561828613,-0.5365329545787354,-0.16064895689487457,0.05597766861319542,-1.596893612538473,0.0010905032977461815,0.0495748333632946,0.5561308860778809,0.0,-0.0055970316752791405,1.1652876138687134,-0.0008408533176407218,-0.4189760684967041
315.0,338.0,-6.4522,-0.539,8.4335,-0.0933,0.3714,-0.1373,-2.3232819042601527,-0.006448808126151562,4.74216890335083,-1.3564338684082031,0.3067006468772888,2.2828369140625,-0.5371610683253785,-0.16049891710281372,0.058912862092256546,-1.5969141165362757,0.0008795050671324134,0.06316889822483063,0.5561871528625488,0.0,0.0048962803557515144,1.1652671098709106,-0.0006816985551267862,-0.4125860631465912
315.0,338.0,-6.4522,-0.539,8.4335,-0.0933,0.3714,-0.1373,-2.3233543835081996,-0.007573073264211416,4.752718925476074,-1.3545562028884888,0.2938285171985626,2.2851569652557373,-0.5381308358958741,-0.17091067135334015,0.0686187595129013,-1.5968778769122522,0.0006628177943639457,0.04881884902715683,0.5561427474021912,0.0,0.0013399987947195768,1.165287733078003,-0.0004607571754604578,-0.4668937623500824
315.0,338.0,-6.4522,-0.539,8.4335,-0.0933,0.3714,-0.1373,-2.3233782253661097,-0.009168094024062157,4.740677833557129,-1.3528153896331787,0.2817575931549072,2.249168634414673,-0.539239839916565,-0.20031122863292694,0.043867625296115875,-1.5968697706805628,0.0004865244554821402,0.04871281236410141,0.5561067461967468,0.0,0.0035427771508693695,1.1652553081512451,-0.00042293552542105317,-0.4835148751735687
315.0,338.0,-6.4522,-0.539,8.4335,-0.0933,0.3714,-0.1373,-2.323390146295065,-0.009009147994220257,4.747615337371826,-1.3517080545425415,0.2820607125759125,2.2730305194854736,-0.5401042264750977,-0.2130906879901886,0.040577344596385956,-1.5968974272357386,0.0004121790698263794,0.04983558505773544,0.556098461151123,0.0,0.004638762213289738,1.165223240852356,-0.0003656503395177424,-0.3962147831916809
315.0,338.0,-6.4522,-0.539,8.4335,-0.0933,0.3714,-0.1373,-2.323437830010885,-0.007713120896369219,4.820018768310547,-1.3500699996948242,0.2769862115383148,2.311953544616699,-0.54144640386615,-0.2268887460231781,0.037112560123205185,-1.5968897978412073,0.0003353401261847466,0.04435793682932854,0.5561829805374146,0.0,-0.0033512578811496496,1.165239691734314,-0.00041999295353889465,-0.4364566206932068
315.0,338.0,-6.4522,-0.539,8.4335,-0.0933,0.3714,-0.1373,-2.3234859905638636,-0.00729103060439229,4.771334648132324,-1.3485136032104492,0.26158350706100464,2.225536346435547,-0.5428980153850098,-0.2658804953098297,0.02730598673224449,-1.5968459288226526,0.00032975178328342736,0.05102744698524475,0.556178867816925,0.0,-0.0018932725070044398,1.1652110815048218,-0.0005339638446457684,-0.4871441125869751
315.0,338.0,-6.4522,-0.539,8.4335,-0.0933,0.3714,-0.1373,-2.323534151116842,-0.006187598221004009,4.794038772583008,-1.3468908071517944,0.25476783514022827,2.254631519317627,-0.5446737569621583,-0.27611738443374634,0.023224983364343643,-1.596877400075094,0.00032498533255420625,0.046976327896118164,0.5561386942863464,0.0,0.010358495637774467,1.1652518510818481,-0.0010223003337159753,-0.44073203206062317
315.0,338.0,-6.4522,-0.539,8.4335,-0.0933,0.3714,-0.1373,-2.3235942325987757,-0.005546850617974997,4.802766799926758,-1.3459416627883911,0.25050681829452515,2.299099922180176,-0.5457504552653809,-0.2942045331001282,0.0007725993636995554,-1.5968897978412073,0.0002986812323797494,0.03894181549549103,0.5561710000038147,0.0,0.013824141584336758,1.1652073860168457,-0.0011320259654894471,-0.4609643816947937
315.0,338.0,-6.4522,-0.539,8.4335,-0.0933,0.3714,-0.1373,-2.323561807672018,-0.005487639922648668,4.8046345710754395,-1.3444514274597168,0.2385251224040985,2.253117084503174,-0.5475861591151734,-0.3086812496185303,0.020315416157245636,-1.5968778769122522,0.0002656211727298796,0.059860650449991226,0.5561349391937256,0.0,0.007433582562953234,1.1651995182037354,-0.0018261801451444626,-0.47403472661972046
315.0,338.0,-6.4522,-0.539,8.4335,-0.0933,0.3714,-0.1373,-2.323613782922262,-0.0070375255309045315,4.808717250823975,-1.3430324792861938,0.22195956110954285,2.270738363265991,-0.5495734971812745,-0.34475699067115784,5.316908936947584e-05,-1.5968659559832972,0.00023914958001114428,0.05020999535918236,0.5560865998268127,0.0,0.003512365510687232,1.1652597188949585,-0.0018667858093976974,-0.41845273971557617
234.0,246.0,-6.3171,-0.4493,7.5523,-0.0298,0.015,-0.1231,-2.3236457310118617,-0.008395115844905376,4.797909259796143,-1.3417867422103882,0.21131405234336853,2.192819356918335,-0.551831917171814,-0.3631802499294281,-0.008652609772980213,-1.5968459288226526,0.00021817340166307986,0.04470009356737137,0.5561228394508362,0.0,-0.0015312647446990013,1.1651631593704224,-0.001853673136793077,-0.42304039001464844
234.0,246.0,-6.3171,-0.4493,7.5523,-0.0298,0.015,-0.1231,-2.3236824474730433,-0.0072943950071930885,4.79771089553833,-1.3409534692764282,0.20239637792110443,2.1768479347229004,-0.5532651704600831,-0.38565054535865784,-0.03705471381545067,-1.5968735853778284,0.00014508882304653525,0.028010405600070953,0.5561951994895935,0.0,0.009415837936103344,1.165175437927246,-0.003114120103418827,-0.41957733035087585
234.0,246.0,-6.3171,-0.4493,7.5523,-0.0298,0.015,-0.1231,-2.3237182102599085,-0.004893186502158642,4.810122013092041,-1.3397235870361328,0.1930842399597168,2.2080087661743164,-0.5556118053248902,-0.3985012173652649,-0.016378004103899002,-1.5968659559832972,0.00013206693984102458,0.04306492209434509,0.5561391115188599,0.0,0.002245107665657997,1.1651556491851807,-0.004459863994270563,-0.431948721408844
234.0,246.0,-6.3171,-0.4493,7.5523,-0.0298,0.015,-0.1231,-2.3237458668150843,-0.003128797048702836,4.831216335296631,-1.3386578559875488,0.18018531799316406,2.1954703330993652,-0.5580179256251832,-0.41964101791381836,-0.04284849390387535,-1.5968459288226526,0.00014564064622391015,0.04892844706773758,0.5561546683311462,0.0,0.004199426621198654,1.1651233434677124,-0.005114879924803972,-0.45478755235671997
234.0,246.0,-6.3171,-0.4493,7.5523,-0.0298,0.015,-0.1231,-2.3237863979735316,-0.0016188503941521049,4.828418254852295,-1.3375836610794067,0.17284853756427765,2.2369861602783203,-0.5606958431056519,-0.43882253766059875,-0.05184822157025337,-1.5968101660357874,0.00013475048763211817,0.03996384143829346,0.556175172328949,0.0,0.010954102501273155,1.1650713682174683,-0.005024181678891182,-0.4187561869621277
234.0,246.0,-6.3171,-0.4493,7.5523,-0.0298,0.015,-0.1231,-2.3237821064391078,-0.0013422977644950151,4.858903884887695,-1.336918830871582,0.16623547673225403,2.224184513092041,-0.5624429744533082,-0.4506262540817261,-0.03653533384203911,-1.5968578497516077,0.00014954725338611752,0.04982859641313553,0.5561509132385254,0.0,0.010333305224776268,1.1650676727294922,-0.005856248550117016,-0.4375855326652527
234.0,246.0,-6.3171,-0.4493,7.5523,-0.0298,0.015,-0.1231,-2.323778291741842,-0.0009893784299492836,4.882433891296387,-1.3359403610229492,0.15258091688156128,2.166658878326416,-0.5652701419642945,-0.47090569138526917,-0.04942474514245987,-1.5968616644488733,0.00013976910850033164,0.04471493884921074,0.5560944676399231,0.0,0.003581658937036991,1.1649916172027588,-0.006925602909177542,-0.4391458034515381
234.0,246.0,-6.3171,-0.4493,7.5523,-0.0298,0.015,-0.1231,-2.32377352337026,-0.0010193425696343184,4.863138675689697,-1.3350355625152588,0.14367927610874176,2.1836347579956055,-0.5681470197490235,-0.4873723089694977,-0.06522311270236969,-1.5968497435199183,0.0001494454190833494,0.03237064927816391,0.5561711192131042,0.0,-0.0011809633579105139,1.1649720668792725,-0.008391490206122398,-0.44643843173980713
234.0,246.0,-6.3171,-0.4493,7.5523,-0.0298,0.015,-0.1231,-2.3237983189024867,-0.0008644832414574921,4.872539520263672,-1.3345270156860352,0.1361275315284729,2.153517723083496,-0.5701602262309571,-0.5006216764450073,-0.07454979419708252,-1.596837345753805,0.00014378449122887105,0.031917326152324677,0.5561632513999939,0.0,0.016548974439501762,1.164943814277649,-0.00999478530138731,-0.3976915776729584
234.0,246.0,-6.3171,-0.4493,7.5523,-0.0298,0.015,-0.1231,-2.3237620792784632,-0.0006123841158114374,4.880131244659424,-1.33372163772583,0.12312044203281403,2.1152496337890625,-0.5731464785388489,-0.5148230195045471,-0.0718608871102333,-1.596854035054342,0.00013565827975980937,0.029897000640630722,0.5561268329620361,0.0,0.008180622011423111,1.1648598909378052,-0.011616232804954052,-0.44625967741012573
234.0,246.0,-6.3171,-0.4493,7.5523,-0.0298,0.015,-0.1231,-2.3237458668150843,-0.00047408483806066215,4.852774620056152,-1.3329923152923584,0.11509951204061508,2.15679931640625,-0.5762828153422852,-0.5262687802314758,-0.06029389053583145,-1.5968735853778284,0.00012840036652050912,0.03885494917631149,0.5561509132385254,0.0,0.0018149525858461857,1.164795994758606,-0.012940356507897377,-0.4364916980266571
234.0,246.0,-6.3171,-0.4493,7.5523,-0.0298,0.015,-0.1231,-2.3237458668150843,-0.00038675457471981645,4.923466682434082,-1.3323884010314941,0.11197354644536972,2.1761276721954346,-0.5794904989055176,-0.5344520211219788,-0.056054748594760895,-1.5968335310565394,0.00012205803795950487,0.03593869134783745,0.5561349391937256,0.0,0.0008433936163783073,1.1646963357925415,-0.014854815788567066,-0.3924824595451355
234.0,246.0,-6.3171,-0.4493,7.5523,-0.0298,0.015,-0.1231,-2.3237458668150843,-0.00034445588244125247,4.8635053634643555,-1.3319264650344849,0.10649973154067993,2.120076894760132,-0.5816400212100525,-0.5469418168067932,-0.07613100111484528,-1.5968335310565394,0.00022418652952183038,0.03531099855899811,0.5561472773551941,0.0,-0.0013542030937969685,1.1646283864974976,-0.01570749841630459,-0.4286843240261078
234.0,246.0,-6.3171,-0.4493,7.5523,-0.0298,0.015,-0.1231,-2.3237458668150843,-0.0002959127596113831,4.873682022094727,-1.3313339948654175,0.09973886609077454,2.1240041255950928,-0.5849438470653077,-0.5553058385848999,-0.062136441469192505,-1.5968535582171839,0.00012928001524414867,0.03477854281663895,0.5561349391937256,0.0,-0.0033105805050581694,1.164556622505188,-0.01617691107094288,-0.44221949577331543
234.0,246.0,-6.3171,-0.4493,7.5523,-0.0298,0.015,-0.1231,-2.3237859211363734,-0.00029635432292707264,4.854400157928467,-1.3307451009750366,0.09432634711265564,2.097512722015381,-0.5882560175708313,-0.5553475022315979,-0.0818122923374176,-1.596842114125387,9.02845713426359e-05,0.026603490114212036,0.5561551451683044,0.0,0.0068152411840856075,1.1644086837768555,-0.016557222232222557,-0.4107920527458191
